JNU-Tangyin/eata/results/Batch4_SP500/Batch4_SP500-MET.csv
Date,Action,Predicted_Q25,Predicted_Q75,Actual_Q25,Actual_Q75,RL_Reward
2010-12-14,0,0.0,0.003957403222590995,-0.0033455398016967886,0.007777063870530676,0.9940723854311246
2010-12-16,0,0.0,0.0,-0.004356499098715199,0.008334152054567761,0.990594140448707
2010-12-20,1,0.0014152663916820035,0.0015899646523556646,-0.006225307330221357,0.008080006425379913,0.9900467963278953
2010-12-22,0,0.0,0.0,-0.006225307330221357,0.010150637627364234,0.9897030248980545
2010-12-27,0,0.0,0.0,-0.006225307330221357,0.010150637627364234,0.9894553520915241
2010-12-29,0,0.0,0.0,-0.006225307330221357,0.01287685900554408,0.988995016677858
2010-12-31,0,0.0,0.0,-0.006225307330221357,0.01287685900554408,0.9873250586350679
2011-01-04,0,0.0,0.0,-0.008431686837771528,0.01287685900554408,0.9873758358082577
2011-01-06,0,0.0,0.0,-0.008431686837771528,0.01351026142731951,0.9868276612592889
2011-01-10,0,0.0,0.0,-0.003094814911160671,0.015460924868013357,0.9863321762536442
2011-01-12,0,0.0,0.0,-0.009352035131418315,0.01351026142731951,0.9863351401263908
2011-01-14,0,0.0,0.0,-0.009352035131418315,0.01351026142731951,0.9860533895636531
2011-01-19,0,0.0,0.0,-0.004200842290624237,0.014084179709642748,0.9866906555470452
2011-01-21,0,0.0,0.0,-0.004200842290624237,0.013077908059952514,0.9872488404721036
2011-01-25,0,0.0,0.0,-0.011932875054691872,0.013077908059952514,0.9858095898410212
2011-01-27,0,0.0,0.0,-0.011932875054691872,0.012499906496290814,0.98557936394038
2011-01-31,0,0.0,0.0,-0.011932875054691872,0.012711791244528637,0.9856212896135244
2011-02-02,0,0.0,0.0,-0.012267725797821427,0.012711791244528637,0.98286517862658
2011-02-04,0,0.0,0.0,-0.012267725797821427,0.012186561463708442,0.9836888080613325
2011-02-08,0,0.0,0.003349944280268448,-0.012267725797821427,0.012186561463708442,0.9857490825026842
2011-02-10,1,0.002495286300641942,0.0027893778582265974,-0.01118213232070328,0.012186561463708442,0.9848330221919648
2011-02-14,1,0.0013816651640094894,0.0014370112462202033,-0.01625753284850522,0.010072064250843319,0.9842701874108856
2011-02-16,0,0.0,0.0,-0.024608700641157735,0.010072064250843319,0.9830103154393977
2011-02-18,0,0.0,0.0,-0.024608700641157735,0.012535981019181502,0.9814921586802964
2011-02-23,1,0.00019477741592876006,0.0003310428802231186,-0.01625753284850522,0.012535981019181502,0.9831995393867053
2011-02-25,1,0.0007195744616417543,0.0007836810427197567,-0.01625753284850522,0.012535981019181502,0.9834424884444093
2011-03-01,0,0.0,0.0,-0.01026254542939659,0.00944799522053745,0.9846695099160858
2011-03-03,0,0.0,0.0,-0.006156375385922811,0.008687778922327326,0.9889017559783642
2011-03-07,0,0.0,0.0,-0.006156375385922811,0.010750564632604556,0.9882038205540353
2011-03-09,0,0.0,0.0,-0.01026254542939659,0.010678529807213025,0.9876858443704509
2011-03-11,1,0.0011892716879557544,0.0012096528652576987,-0.010470557538241845,0.010678529807213025,0.98738978159355
2011-03-15,1,2.9131650293495325e-05,0.00016489768325614578,-0.006156375385922811,0.010678529807213025,0.9899591115131341
2011-03-17,-1,-0.0010110744778400694,-0.0007419770340850961,-0.006156375385922811,0.010026907105697659,0.9913290804159388
2011-03-21,0,-0.00010822571438664011,4.691593536991089e-05,-0.009416936191381875,0.007650878886764239,0.9923172138105278
2011-03-23,-1,-0.00018141556927507455,-9.334948068490253e-06,-0.009416936191381875,0.008687778922327326,0.9918577149780714
2011-03-25,0,-0.00019242166272592646,1.386907825441739e-05,-0.009416936191381875,0.010026907105697659,0.9919701185015862
2011-03-29,0,0.0,0.0,-0.005445321416464212,0.010678529807213025,0.991381374186517
2011-03-31,1,0.0009373262022741911,0.0010623039530563729,-0.005445321416464212,0.0116327510182921,0.9906330886819867
2011-04-04,0,0.0,0.0,-0.007364836340497875,0.010337739246958116,0.9911843814229802
2011-04-06,0,0.0,0.0,-0.007364836340497875,0.007972254069464628,0.990771675125096
2011-04-08,0,0.0,0.0,-0.0056901101298750135,0.007972254069464628,0.9914626830705341
2011-04-12,0,0.0,0.0,-0.0056901101298750135,0.010526925897969754,0.9908258788793957
2011-04-14,0,0.0,0.0,-0.0056901101298750135,0.010526925897969754,0.9907332539351817
2011-04-18,0,0.0,0.0,-0.0056901101298750135,0.010526925897969754,0.9910492466389856
2011-04-20,0,0.0,0.0,-0.0056901101298750135,0.01007500151067632,0.9908384576083473
2011-04-25,0,0.0,0.0,-0.006331558939963546,0.00908079153925388,0.9896025333143039
2011-04-27,-1,-0.0008878338724689478,-0.0005906995869725438,-0.006331558939963546,0.005228960655828655,0.9910383721217512
2011-04-29,0,0.0,0.0,-0.006331558939963546,0.0024737846014229545,0.991845450911267
2011-05-03,0,0.0,0.0,-0.008389615454338549,0.005124774703687835,0.9902052503992131
2011-05-05,0,0.0,0.0,-0.008389615454338549,0.005124774703687835,0.9908858031893911
2011-05-09,0,0.0,0.0,-0.01012498096739871,0.005124774703687835,0.99080052334384
2011-05-11,0,0.0,0.0,-0.01012498096739871,0.005124774703687835,0.9910234799445953
2011-05-13,0,0.0,0.0,-0.01087378301191028,0.005392311489915812,0.990694725580166
2011-05-17,0,0.0,0.0,-0.01772999307485369,0.005392311489915812,0.9886028766327921
2011-05-19,-1,-0.000772578894388003,-0.0006269804798908175,-0.01772999307485369,0.005392311489915812,0.9882214608450848
2011-05-23,-1,-0.002689034050251082,-0.0023193346738107122,-0.004872721008823709,0.0071195997362777045,0.9878702334737823
2011-05-25,-1,-0.001974909858776121,-0.0016958996213446763,-0.00846477054192232,0.0071195997362777045,0.9878492905285782
2011-05-27,0,0.0,0.0,-0.00846477054192232,0.008083898460424697,0.9878184913652146
2011-06-01,-1,-0.0016769420556374073,-0.0014922338599449633,-0.006830609104685799,0.010773345422899183,0.9870905644868565
2011-06-03,-1,-0.0023824044311904053,-0.0020953201275454698,-0.004293796258705862,0.011854105750333629,0.9867886488036115
2011-06-07,-1,-0.002291193326511471,-0.0020503293356878925,-0.006830609104685799,0.011854105750333629,0.986242202484068
2011-06-09,-1,-0.0013994900714823125,-0.001282914524795801,-0.008597381436641195,0.013419328075904393,0.985208544199717
2011-06-13,-1,-0.002389847026236195,-0.0021123336716860606,-0.009838041391428633,0.013419328075904393,0.984083447713476
2011-06-15,-1,-0.003386409413029007,-0.0030215825174621097,-0.008597381436641195,0.013419328075904393,0.9858795871774976
2011-06-17,-1,-0.0023106072564555175,-0.0020826941277453104,-0.009838041391428633,0.009981823532343698,0.9864057742826495
2011-06-21,-1,-0.0007274221300430032,-0.0007107265057592363,-0.009838041391428633,0.00954526467982435,0.9874060809499712
2011-06-23,-1,-0.0014828477338174328,-0.001332483119019076,-0.009838041391428633,0.010315544032456162,0.9861226686468856
2011-06-27,-1,-0.0014508634921298663,-0.0013154662436586594,-0.011241692536540122,0.010315544032456162,0.9862501714976614
2011-06-29,0,0.0,0.0,-0.012646456603292406,0.008503117283103087,0.986450136901435
2011-07-01,0,0.0,0.0,-0.012646456603292406,0.006215859144523872,0.9855166842979952
2011-07-06,0,0.0,0.0,-0.013163949147102503,0.006215859144523872,0.9848414743025005
2011-07-08,0,0.0,0.0,-0.01773408594724292,0.001574542798003375,0.9828729718479656
2011-07-12,-1,-0.0004883752476430027,-0.000444294917998234,-0.01773408594724292,0.006215859144523872,0.9773674176005184
2011-07-14,-1,-0.00011850461607829983,-2.1085230501874646e-05,-0.028202248845306015,0.00663740172123373,0.9710848393648273
2011-07-18,-1,-0.0014603164836889367,-0.0013406201611455147,-0.019715453717899303,0.014440299737074613,0.9708446157801625
2011-07-20,-1,-0.0007072565755189708,-0.0007047758416831797,-0.025968318765685047,0.011198716278371526,0.9698689221049894
2011-07-22,-1,-0.0003141596640962728,-0.00028960183025502967,-0.034794671415468784,0.005181624166867194,0.9676911360471654
2011-07-26,-1,-0.0008871676040880703,-0.0008312839589602002,-0.034794671415468784,0.01288684353712111,0.9660605855791048
2011-07-28,-1,-0.0016379568725532635,-0.0015039820811685286,-0.033153130995835986,0.0317194806671545,0.9653064313534707
2011-08-01,-1,-0.0003991428973101696,-0.00035912377419763063,-0.033153130995835986,0.0317194806671545,0.9639658680164933
2011-08-03,-1,-0.0013445944843904684,-0.001263904965701506,-0.02563724504520532,0.0317194806671545,0.964551741001038
2011-08-05,-1,-0.004498328142586048,-0.003986486902686444,-0.033768325216090314,0.0317194806671545,0.9648185934355804
2011-08-09,-1,-0.0046809030038040475,-0.0041346472533507015,-0.033768325216090314,0.0317194806671545,0.9676045416496396
2011-08-11,-1,-0.004922543180558769,-0.004401122145229826,-0.033768325216090314,0.021766242807329427,0.9723406787944
2011-08-15,-1,-0.004311819946960196,-0.003864268757719212,-0.033768325216090314,0.015242019690590839,0.9727501089364561
2011-08-17,-1,-0.0045799508112972145,-0.004129467430669726,-0.033768325216090314,0.02337870570720656,0.9707015407020101
2011-08-19,-1,-0.0069076395005157505,-0.006173371593051201,-0.033768325216090314,0.02337870570720656,0.9709330058574306
2011-08-23,-1,-0.005453326637897626,-0.004905071482966616,-0.037773831685141264,0.019336792462494763,0.9703470870600954
2011-08-25,0,0.0,0.0,-0.04178348655659393,0.01669242015064385,0.9692562781042406
2011-08-29,-1,-0.0037055044049557383,-0.0034192858622500485,-0.04178348655659393,0.019336792462494763,0.9684481518966201
2011-08-31,-1,-0.0036544710031247585,-0.0033427297483606404,-0.04178348655659393,0.02148723602144316,0.9662906170616244
2011-09-02,-1,-0.005821321453008073,-0.00527517461142102,-0.04349092101431086,0.02148723602144316,0.966118755686912
2011-09-07,-1,-0.004892857956237053,-0.004446915054049815,-0.04349092101431086,0.025690543822329402,0.9661102106060069
2011-09-09,-1,-0.006951354747264478,-0.006255803416730662,-0.04459735044238087,0.034937904186797875,0.962464981936807
2011-09-13,-1,-0.005700912484967163,-0.0051722825587797,-0.04459735044238087,0.040192233959879024,0.9607917611571967
2011-09-15,-1,-0.0030807113245719625,-0.0028892272746978555,-0.04459735044238087,0.03853917868485514,0.9616251565897644
2011-09-19,0,0.0,0.0,-0.04201396455197727,0.03853917868485514,0.9611246630948062
2011-09-21,0,0.0,0.0,-0.037020623391632965,0.04228861904072902,0.9609255485432392
2011-09-23,0,0.0,0.0,-0.03317804840607044,0.045700743408399525,0.9613691570756633
2011-09-27,0,0.0,0.0,-0.037020623391632965,0.04051306765637468,0.9613469691665805
2011-09-29,0,0.0,0.0,-0.03461879129759322,0.045700743408399525,0.9608513368217747
2011-10-03,0,0.0,0.0,-0.02014161688003306,0.045700743408399525,0.9616386891225001
2011-10-05,0,0.0,0.0,-0.03461879129759322,0.044700572439366225,0.9609948146120085
2011-10-07,0,0.0,0.0,-0.02014161688003306,0.03967655347407864,0.9653881344902915
2011-10-11,-1,-0.0006666011125667215,-0.0004166049518157307,-0.02815478969733394,0.03597510095059046,0.9664736539346828
2011-10-13,-1,-0.00046232210646801435,-0.00026093007130888147,-0.03461879129759322,0.032983283453780696,0.9656560749871855
2011-10-17,-1,-0.0007651019976265769,-0.0005951600369629858,-0.02815478969733394,0.032983283453780696,0.9668293401854293
2011-10-19,1,9.722344361278064e-05,0.00040341625391373864,-0.022335429172100393,0.025701594191266153,0.9703910433526584
2011-10-21,1,0.001996826411920008,0.0025180923398846608,-0.02991342382668845,0.015442976736668931,0.971416316113451
2011-10-25,1,0.001117495161894674,0.0014974285204178658,-0.024322316640972116,0.012052730879748997,0.9736210175515552
2011-10-27,1,0.0036564605284417472,0.004361230756314579,-0.02991342382668845,0.009039339130926641,0.9741108683599397
2011-10-31,1,0.0030489777404913336,0.0036914375586116904,-0.024322316640972116,0.009039339130926641,0.9755161112218111
2011-11-02,1,0.005428604738215215,0.006359154824844905,-0.0215271212656157,0.009039339130926641,0.9751148902499029
2011-11-04,1,0.0050666553265298776,0.00587585114207583,-0.0215271212656157,0.013924674002411413,0.9739270742535757
2011-11-08,1,0.004975150975086367,0.005817255176065466,-0.017507222723206393,0.011143678276972147,0.9753398392311458
2011-11-10,1,0.004061549498460311,0.004842940221270173,-0.017507222723206393,0.021058806104656186,0.9749133479567837
2011-11-14,1,0.004060588379335652,0.004827846006914004,-0.019421376458924902,0.007111709325069847,0.9746148386896817
2011-11-16,1,0.0037436737162717193,0.004471892154889004,-0.019421376458924902,0.007111709325069847,0.975145818940206
2011-11-18,1,0.0035710694434313442,0.004367007686894571,-0.019421376458924902,0.007111709325069847,0.9751594648803067
2011-11-22,1,0.002772447618814724,0.00349594765428617,-0.012925039082116587,0.021880460274270538,0.9758355340928345
2011-11-25,1,0.001301608129938749,0.0017965746110286673,-0.008956610471348245,0.02199318680497198,0.9777378767769916
2011-11-29,1,0.002492286745277816,0.0031613432101085543,-0.011303381456634832,0.02027526695078175,0.9795316960963141
2011-12-01,1,0.003983069942036156,0.0047745961838525815,-0.008693577977403522,0.01941231984823339,0.9827035250551255
2011-12-05,1,0.005659849514976263,0.006687394090845886,-0.008693577977403522,0.01075053508352161,0.9833255128225853
2011-12-07,1,0.0054366492172777565,0.006387700658398438,-0.008693577977403522,0.019449895358467202,0.9826091126469206
2011-12-09,1,0.004689332548241287,0.00556077012019077,-0.006085798761043586,0.019449895358467202,0.9851701960637941
2011-12-13,1,0.003936377038090353,0.004746474679495659,-0.0031165638714238187,0.021345010888314885,0.9860790962307004
2011-12-15,1,0.003426619144887618,0.004138146228864168,-0.0051211039358848714,0.021345010888314885,0.9844902630935208
2011-12-19,1,0.0019513971652420482,0.002423651279060155,0.0010099104147259716,0.025057498644344672,0.984977830660064
2011-12-21,1,0.0038147480069354693,0.004586615408111158,0.0010099104147259716,0.021345010888314885,0.986869164373929
2011-12-23,1,0.003874659332695911,0.004599882833185059,-0.003955674432848803,0.0204069127652989,0.9862673043607366
2011-12-28,1,0.0025782151720893957,0.0030191715832778854,-0.003955674432848803,0.025057498644344672,0.9830202052144575
2011-12-30,1,0.0027423966709717693,0.0031908893262550604,-0.004706364715844154,0.025057498644344672,0.9836098084914295
2012-01-04,1,0.0031969673094782445,0.003631853586758076,-0.004706364715844154,0.022824415773616567,0.9839384167060952
2012-01-06,1,0.003507666423931706,0.003996448567006503,-0.0016636682096427692,0.023696812149844905,0.9837976298717896
2012-01-10,1,0.004540495494755258,0.005118987767240631,-0.0028592041887590624,0.016687226079075815,0.9856268258613652
2012-01-12,1,0.004105928728726723,0.004481142370427432,-0.010899455815294416,0.012158509173198112,0.9856206714430871
2012-01-17,1,0.0032481143411425104,0.0035702233924932917,-0.009581754727164805,0.01645086036924378,0.9861877435942711
2012-01-19,1,0.0035146751827374034,0.003828263041864873,-0.009581754727164805,0.01660147731058513,0.9860992214183535
2012-01-23,1,0.005168008738408114,0.005800178596166087,-0.009581754727164805,0.01660147731058513,0.9865390713756885
2012-01-25,1,0.004495865900052252,0.005027186516930842,-0.009581754727164805,0.01660147731058513,0.9867452394496522
2012-01-27,0,0.0,0.0,-0.009581754727164805,0.009975611926847714,0.988725766256063
2012-01-31,0,0.0,0.0,-0.004897543500036065,0.009975611926847714,0.988893015739335
2012-02-02,0,0.0,0.0,-0.009581754727164805,0.008881018859246435,0.9891657711517345
2012-02-06,0,0.0,0.0,-0.010166848426846856,0.008187043205203347,0.9890505650329317
2012-02-08,0,0.0,0.0,-0.010166848426846856,0.008881018859246435,0.9882044771468254
2012-02-10,0,0.0,0.0,-0.010109914223982226,0.00922149535348615,0.9878830146111989
2012-02-14,1,0.00153279413959795,0.0015429964753087273,-0.012104506187291416,0.00922149535348615,0.9847101908267751
2012-02-16,1,0.0012009099327166997,0.0013430791074606682,-0.012104506187291416,0.008323194820896187,0.9846442301911301
2012-02-21,1,0.0016496630983736924,0.0016618455127189462,-0.012104506187291416,0.009168404792721734,0.9844875015822595
2012-02-23,1,0.0015578108813777052,0.0015665792793142985,-0.012104506187291416,0.009168404792721734,0.9837326662825141
2012-02-27,0,0.0,0.0,-0.005594335504048721,0.011378919238014889,0.9830319555358019
2012-02-29,0,0.0,0.0,-0.01340435474230602,0.011378919238014889,0.9828304644328123
2012-03-02,1,0.0007024208731424439,0.0008128834262494138,-0.01414129201805858,0.011219647555721638,0.9830923522194643
2012-03-06,1,0.0009817208083458821,0.0009833748532402644,-0.009833107307190447,0.012988725429321613,0.9836277914890832
2012-03-08,1,0.0014347784550814294,0.0015165859213661695,-0.01414129201805858,0.011377598438594375,0.9826812390449716
2012-03-12,1,0.0007610918198751207,0.0008013808753243375,-0.015704350966285287,0.011377598438594375,0.9819251769015539
2012-03-14,1,0.0009292761188849626,0.0009550408919642587,-0.01414129201805858,0.013467566049226765,0.9850323827402143
2012-03-16,0,0.0,0.0,-0.015583058170563465,0.011377598438594375,0.9857342240134951
2012-03-20,1,0.001643474831958501,0.0017766733608291984,-0.015583058170563465,0.013467566049226765,0.9841183340066264
2012-03-22,1,0.0016252494186626933,0.0018723966260284991,-0.01414129201805858,0.013467566049226765,0.9850355658012213
2012-03-26,1,0.0017198344660224161,0.0019340698728038783,-0.01414129201805858,0.007315615095786277,0.9856574464760843
2012-03-28,1,0.0016990210070798753,0.0019063552607679669,-0.01364413422179175,0.012595445212336442,0.985625544451329
2012-03-30,1,0.0015969123598837353,0.0017992657056346462,-0.012278894553751814,0.012595445212336442,0.9858355458567718
2012-04-03,1,0.001666461789777108,0.0018531062832070067,-0.012278894553751814,0.011295841845807317,0.9866127858544879
2012-04-05,1,0.00010230568936875042,0.00019716967660641008,-0.01473312035431796,0.011295841845807317,0.986338583520693
2012-04-10,-1,-0.0010475012724474953,-0.0008221650269279961,-0.011766673546929254,0.011295841845807317,0.9880923953543267
2012-04-12,0,-8.509868026871937e-05,4.588425660041116e-05,-0.012278894553751814,0.009530616744395301,0.9882785947295083
2012-04-16,-1,-0.0013795375777237262,-0.0010614931400927826,-0.012278894553751814,0.009530616744395301,0.9886659523518208
2012-04-18,-1,-0.0020751401324837072,-0.00161725112071314,-0.015720086142547517,0.006289991811195002,0.9871627648758662
2012-04-20,-1,-0.0035154865782749158,-0.0028245427702005554,-0.019005491944949455,0.006289991811195002,0.9864736803308837
2012-04-24,-1,-0.0029113477553408995,-0.0023107839364141713,-0.019005491944949455,0.006145636678376517,0.9858013153129184
2012-04-26,0,0.0,0.0,-0.019005491944949455,0.0016186612623943684,0.9855484821485808
2012-04-30,0,0.0,0.0,-0.019005491944949455,0.003027651048913253,0.9850848035253207
2012-05-02,-1,-0.0010169304504061135,-0.0008279802018714974,-0.021724179390008976,0.003027651048913253,0.9836107525631315
2012-05-04,0,0.0,0.0,-0.021724179390008976,0.003027651048913253,0.9830275969269939
2012-05-08,0,0.0,0.0,-0.021724179390008976,0.006684701350230651,0.9807112356432034
2012-05-10,0,0.0,0.0,-0.021724179390008976,0.00583004174032779,0.9820426876348914
2012-05-14,0,0.0,0.0,-0.021724179390008976,0.00583004174032779,0.9825318349686739
2012-05-16,-1,-0.006662177166501298,-0.0010816062471861038,-0.011207586233827291,0.00583004174032779,0.9883581704506962
2012-05-18,-1,-0.0068325423484048055,-0.0058356114413334135,-0.010119772844048134,0.008646033618256143,0.98564443509007
2012-05-22,-1,-0.00644088884415646,-0.005472366556752259,-0.010119772844048134,0.008646033618256143,0.9847496833052789
2012-05-24,-1,-0.006568155124441202,-0.005593102541289209,-0.011207586233827291,0.010880561094896032,0.98276300852204
2012-05-29,0,0.0,0.0,-0.014637667552556332,0.010154083691187341,0.9819272379739533
2012-05-31,0,0.0,0.0,-0.008739512699855038,0.010590117787449284,0.9833176704708695
2012-06-04,0,0.0,0.0,-0.007266180682463262,0.013200262097053137,0.9830918112812854
2012-06-06,0,0.0,0.0,-0.008739512699855038,0.010590117787449284,0.984303841543446
2012-06-08,0,0.0,0.0,-0.008848958011070556,0.010590117787449284,0.9839840899180172
2012-06-12,0,0.0,0.0,-0.008848958011070556,0.01231533315992442,0.9834120338540607
2012-06-14,0,0.0,0.0,-0.011208505140709951,0.017196497614147748,0.9812520554237552
2012-06-18,-1,-0.005207974645860615,-0.004634381529731382,-0.010929588664162986,0.015342905312573367,0.9823484496161721
2012-06-20,0,0.0,0.0,-0.010929588664162986,0.011779934694756116,0.9839386826529701
2012-06-22,0,0.0,0.0,-0.013697801709319031,0.011599308504998934,0.9836299406052791
2012-06-26,-1,-0.004354923217238963,-0.0038756796418833762,-0.013682066814483935,0.011599308504998934,0.9858519314400299
2012-06-28,-1,-0.0032536350098638376,-0.0029909308295331203,-0.013682066814483935,0.017196497614147748,0.9831871329867001
2012-07-02,0,0.0,0.0,-0.013682066814483935,0.015342905312573367,0.9846242662399556
2012-07-05,0,0.0,0.0,-0.011504346204461295,0.015342905312573367,0.9837745685771326
2012-07-09,0,0.0,0.0,-0.011504346204461295,0.018822162644217,0.9818214055884088
2012-07-11,0,0.0,0.0,-0.011504346204461295,0.02475852033134336,0.9814960318712095
2012-07-13,1,0.00043048331310854344,0.0005874114447109096,-0.0071228741716864,0.017215967248712084,0.9836544366473743
2012-07-17,-1,-0.00046854010001854627,-0.0003194769146478733,-0.0024994961973828908,0.013036764707030545,0.9848322766139288
2012-07-19,-1,-0.00039216502644857834,-0.0001941118714883567,-0.005582852120633115,0.013036764707030545,0.9848424279460268
2012-07-23,0,0.0,0.0,-0.00034867141844259817,0.013036764707030545,0.9868600502891208
2012-07-25,-1,-0.0017917671498173708,-0.0017646332771653606,0.00021447878518881917,0.013398172641235778,0.985549922873496
2012-07-27,1,5.158805225962857e-05,0.0002337324148356804,-0.0013579314121055378,0.00818408447328442,0.9888907086949376
2012-07-31,1,0.00041210251712698177,0.0006797693604115157,-0.005582852120633115,0.00818408447328442,0.9889650972769798
2012-08-02,1,0.0016125438200836723,0.002027028892712104,-0.00546347750273443,0.007409008182544538,0.991174629419098
2012-08-06,1,0.0027433686269312755,0.0033061239397026458,-0.00546347750273443,0.005872360007202667,0.9932114516755792
2012-08-08,1,0.004155518297052842,0.004962773145943546,-0.00546347750273443,0.005872360007202667,0.9927419040448096
2012-08-10,1,0.005047629119450965,0.0060111877375019,-0.005678107683569952,0.005762964428255897,0.9918303183364962
2012-08-14,1,0.004255329018428804,0.005033221901104253,-0.006330926013715758,0.005872360007202667,0.9910820808069024
2012-08-16,0,0.0,0.0,-0.005972802160019705,0.009294241538487947,0.989944479603876
2012-08-20,0,0.0,0.0,-0.00872231832132627,0.009294241538487947,0.9890415997656687
2012-08-22,1,0.0052606486077423735,0.006230704602416495,-0.007703649896445985,0.006642458791719473,0.988104222432474
2012-08-24,0,0.0,0.0,-0.007270528423862183,0.009580795263787328,0.9893737760225706
2012-08-28,0,0.0,0.0,-0.00872231832132627,0.009580795263787328,0.987917696747072
2012-08-30,0,0.0,0.0,-0.00872231832132627,0.01182503415744039,0.9875569615911025
2012-09-04,0,0.0,0.0,-0.00872231832132627,0.01182503415744039,0.9877596340456503
2012-09-06,0,0.0,0.0,-0.00872231832132627,0.01182503415744039,0.987955039719103
2012-09-10,0,0.0,0.0,-0.007922624730749343,0.01182503415744039,0.9885247986381371
2012-09-12,1,0.004197634487513124,0.004677488887149122,-0.007922624730749343,0.007351862418769193,0.9883436764564502
2012-09-14,1,0.005360537485750896,0.006306837900392265,-0.00957968475244209,0.004223099373339856,0.9880306967154502
2012-09-18,1,0.004968289221101067,0.005908851124273374,-0.006125484192059804,0.007351862418769193,0.988296687005264
2012-09-20,1,0.004368252363986324,0.0052081579862350855,-0.003284835039671591,0.01497583138122938,0.9887820239378549
2012-09-24,0,0.0,0.0,-0.0053746022294572215,0.008061026383302842,0.9883185875200897
2012-09-26,0,0.0,0.0,-0.003284835039671591,0.008061026383302842,0.9886454200660377
2012-09-28,0,0.0,0.0,-0.0053746022294572215,0.009358970382893513,0.9877821761222441
2012-10-02,0,0.0,0.0,-0.004886971142205629,0.010725075743740405,0.9875785163745738
2012-10-04,0,0.0,0.0,-0.010651195582248422,0.006300020360066416,0.9876736146245573
2012-10-08,0,0.0,0.0,-0.0122496168975297,0.008199865846319584,0.984103218934191
2012-10-10,0,0.0,0.0,-0.013572255618567945,0.008199865846319584,0.9839679781357388
2012-10-12,0,0.0,0.0,-0.0178686629903253,0.006300020360066416,0.9845331466416305
2012-10-16,0,0.0,0.0,-0.017871949804677746,0.006300020360066416,0.9850073527175215
2012-10-18,0,0.0,0.0,-0.017871949804677746,0.007181339480676579,0.9849732254513653
2012-10-22,0,0.0,0.0,-0.01779138948494297,0.010161562158215473,0.98556503447066
2012-10-24,0,0.0,0.0,-0.013493886508401463,0.011401196829845889,0.986499053664844
2012-10-26,0,0.0,0.0,-0.015993013546127723,0.010168218810802928,0.9868911689299862
2012-11-01,0,0.0,0.0,-0.015993013546127723,0.011401196829845889,0.9864386566678713
2012-11-05,0,0.0,0.0,-0.00744669170477325,0.011401196829845889,0.9871568229908009
2012-11-07,0,0.0,0.0,-0.00667444629181484,0.011401196829845889,0.990439548267963
2012-11-09,0,0.0,0.0,-0.003456401222427617,0.011401196829845889,0.9910603138284225
2012-11-13,0,0.0,0.0,-0.0021004550824277684,0.011918005221634997,0.9911652695976872
2012-11-15,0,0.0,0.0,-0.003456401222427617,0.011401196829845889,0.9901026239937172
2012-11-19,-1,-0.003456969102198382,-0.0028696427372485703,-0.003456401222427617,0.011401196829845889,0.9883805693106328
2012-11-21,-1,-0.0026620533523621153,-0.0021618414081383385,-0.003456401222427617,0.010326425675402161,0.9889514494018569
2012-11-26,-1,-0.0018518395467060909,-0.0015108038779225097,-0.0071585147214709415,0.006927984133922762,0.9887482145255312
2012-11-28,-1,-0.0019984425965481915,-0.0016337699720057192,-0.004958971715766137,0.005785333244193126,0.9896724106931861
2012-11-30,-1,-0.0023020837149324643,-0.0018766264478861983,-0.0071585147214709415,0.005785333244193126,0.9885410931644856
2012-12-04,-1,-0.002159734726624029,-0.001793139150179808,-0.0071585147214709415,0.007486635847994645,0.9855390362463541
2012-12-06,-1,-0.002314843722548904,-0.0019454924832323617,-0.004698694913497828,0.01339826177067384,0.9847016197045168
2012-12-10,-1,-0.0021512046784378145,-0.0017945390476384426,-0.004698694913497828,0.01339826177067384,0.9846255547858672
2012-12-12,-1,-0.0019317640241758268,-0.001584906732534397,-0.005790397600412041,0.015599271599670676,0.9845944728039105
2012-12-14,-1,-0.004616881210645951,-0.003863224839185328,-0.0033929252978160377,0.015599271599670676,0.9859266014445284
2012-12-18,-1,-0.0033953001349676503,-0.0027431592229437206,-0.0033929252978160377,0.008145448166881302,0.9883652877873336
2012-12-20,-1,-0.0017482251495375336,-0.0013926552624954909,-0.0033929252978160377,0.008145448166881302,0.9887773691526358
2012-12-24,0,0.0,0.0,-0.00182695010103867,0.008145448166881302,0.9891948224419338
2012-12-27,0,0.0,0.0,-0.001386972311612933,0.016425023991405965,0.9883632778119474
2012-12-31,0,0.0,0.0,-0.001386972311612933,0.008145448166881302,0.9895595563727698
2013-01-03,1,0.0009098657953799698,0.0010518357334728732,-0.0011693566608635794,0.008145448166881302,0.9918689559520297
2013-01-07,0,0.0,0.0,-0.0011693566608635794,0.006952365615159207,0.9913318885150821
2013-01-09,0,0.0,0.0,-0.002739470918030807,0.006792407067110585,0.9908124948570061
2013-01-11,1,0.002281137264683081,0.0025915424877839027,-0.0011693566608635794,0.0032256748060511416,0.9914160624811756
2013-01-15,1,0.0023591526127779705,0.002696973488353003,-0.0011559472547887544,0.007166092516914642,0.9911781857796673
2013-01-17,1,0.0022647657663895484,0.0025837677961005837,-0.008225450838604221,0.007166092516914642,0.989711631000877
2013-01-22,1,0.00269794651570424,0.0030617390314183254,-0.012825762263607971,0.007166092516914642,0.9885650398166843
2013-01-24,1,0.0022404053945693477,0.002521747135038666,-0.01352463342813504,0.010025403186982529,0.9881340902825643
2013-01-28,1,0.002679213418606738,0.0030002445450501005,-0.01673048564356035,0.007254524057096122,0.9872664068579325
2013-01-30,0,0.0,0.0,-0.01673048564356035,0.010025403186982529,0.9866731802653268
2013-02-01,0,0.0,0.0,-0.01673048564356035,0.007254524057096122,0.9875687161818952
2013-02-05,0,0.0,0.0,-0.009641633967921216,0.007254524057096122,0.987809455536213
2013-02-07,0,0.0,0.0,-0.006931117685199613,0.01425563049158901,0.9854044316613068
2013-02-11,0,0.0,0.0,-0.006931117685199613,0.0149871816994636,0.9845891126377202
2013-02-13,1,0.0,0.002575898178496554,-0.006931117685199613,0.0149871816994636,0.9859282136741898
2013-02-15,1,0.0015452799972101947,0.0017353366908600075,-0.004360208844452625,0.0149871816994636,0.985077038063608
2013-02-20,0,0.0,0.0,-0.004360208844452625,0.014128795897268693,0.9860738588496474
2013-02-22,0,0.0,0.0,-0.004360208844452625,0.013021194082450787,0.9864840707759577
2013-02-26,0,0.0,0.0,-0.0038415607788806327,0.013021194082450787,0.9876072141993696
2013-02-28,0,0.0,0.0,-0.004053690484968784,0.01056283848736341,0.9884283761763705
2013-03-04,1,0.0003958805600662053,0.00046131756877462813,-0.006404931367735799,0.012759886595190117,0.9876862188807556
2013-03-06,1,0.001275312453902507,0.0014315794927847474,-0.01021766381431484,0.01056283848736341,0.9874967182887555
2013-03-08,1,0.003616129807438642,0.004063912168736186,-0.011166154478769051,0.007144864868548682,0.988605612094709
2013-03-12,1,0.0031075027937817893,0.003482466549832186,-0.011166154478769051,0.009385753913205258,0.9882333087068796
2013-03-14,1,0.004015027711888372,0.004612813306900261,-0.012246394002558617,0.007144864868548682,0.986982934570025
2013-03-18,1,0.0031386287166463743,0.003621533219677486,-0.012246394002558617,0.009385753913205258,0.9867778184210014
2013-03-20,1,0.0025803954310579273,0.0029367707358862747,-0.014256261294329303,0.009385753913205258,0.9858773759149934
2013-03-22,1,0.0019447773563398803,0.0021471739103509444,-0.014256261294329303,0.007332192550209931,0.9869283198514617
2013-03-26,1,0.0022423647219838123,0.0025027162635648803,-0.014256261294329303,0.014203410700965872,0.9844401794988153
2013-03-28,1,0.0020235852432367394,0.00226988838954085,-0.014256261294329303,0.015375395801733971,0.9841749479983001
2013-04-02,1,0.001665318812223161,0.0018132781284334611,-0.014256261294329303,0.01557037823038538,0.9843190769843263
2013-04-04,1,0.00032924023236020227,0.00042604758623439597,-0.014160191039602291,0.016190551792754825,0.9831757618902783
2013-04-08,-1,-0.0008254375597757988,-0.0005646771853956656,-0.010783715718263377,0.016190551792754825,0.9834786018898406
2013-04-10,0,-0.00022716311732331367,4.654714719147892e-06,-0.010783715718263377,0.015375395801733971,0.9846722889298403
2013-04-12,-1,-0.0011439995880218646,-0.0008090026037706483,-0.010783715718263377,0.015375395801733971,0.9841211192262619
2013-04-16,-1,-0.0008621075356574302,-0.0005795946146904124,-0.005506656691705235,0.015375395801733971,0.9843250940910249
2013-04-18,-1,-0.0017053015097340685,-0.0013671501590758308,-0.0004695691107826648,0.015375395801733971,0.9847856602127106
2013-04-22,-1,-0.0013189508257123,-0.001030447321816566,-0.0006751054188062743,0.01557037823038538,0.9844652449631964
2013-04-24,1,0.0007385394238016953,0.0008009183690603394,-0.010054662829085686,0.014381267695483356,0.9873689306934926
2013-04-26,1,0.0006815369162782679,0.0007574049217668547,-0.010673047178566344,0.01308034480093388,0.987813308565721
2013-04-30,1,0.0010767474360995968,0.0011097291352168618,-0.010673047178566344,0.014521463417586254,0.9867513731983105
2013-05-02,1,0.001903885743933434,0.001943857575832412,-0.004846658426135622,0.01308034480093388,0.9890519615585482
2013-05-06,1,0.002118045456700266,0.002187046979488749,-0.010247324711958635,0.012154658554322266,0.9891349973179949
2013-05-08,1,0.0026889755149157005,0.002857062883704139,-0.010673047178566344,0.014521463417586254,0.9878655318785183
2013-05-10,1,0.0014531564238067533,0.0015377027178850857,-0.010247324711958635,0.016137713192889876,0.9872290618110562
2013-05-14,1,0.0035634935433874752,0.0038443310655915637,-0.010673047178566344,0.012977420399517884,0.987712150352042
2013-05-16,1,0.0031791949116879766,0.0034353505309501274,-0.010714405968818536,0.012977420399517884,0.9870483953676301
2013-05-20,0,0.0,0.0,-0.010714405968818536,0.012977420399517884,0.9861242247646872
2013-05-22,0,0.0,0.0,-0.00567131866610439,0.012977420399517884,0.9869889008977243
2013-05-24,0,0.0,0.0,-0.00567131866610439,0.012977420399517884,0.986526572695241
2013-05-29,0,0.0,0.0,-0.00567131866610439,0.012223206341352731,0.9871220473013954
2013-05-31,0,0.0,0.0,-0.00806469682636459,0.013560103532847947,0.9866093474185679
2013-06-04,1,0.003254622136352651,0.0035339708126826477,-0.0049819321810969566,0.015809049339538552,0.9866675830699492
2013-06-06,1,0.0032374168719897663,0.003522430706064515,-0.004748606835889013,0.015825240237403296,0.9869425987971737
2013-06-10,1,0.004068969441785742,0.004454069749830389,-0.004748606835889013,0.015248997177650072,0.9877878953793788
2013-06-12,1,0.0030390828129278945,0.0032761989957747597,-0.0036598248983105057,0.015248997177650072,0.9887017666172099
2013-06-14,1,0.0029248075082170485,0.0031884726758292493,-0.0036598248983105057,0.015248997177650072,0.989161102508738
2013-06-18,1,0.0035215312353018575,0.0038350335815815462,-0.005199753389080645,0.013503600404269175,0.9893330626778976
2013-06-20,1,0.003518793620819023,0.0038624448657856927,-0.005199753389080645,0.015248997177650072,0.9887915605938928
2013-06-24,1,0.002432505243576698,0.0026063703324970947,-0.0042676710898396225,0.015248997177650072,0.9897619742346905
2013-06-26,1,0.0035792324833400554,0.003939155788119783,-0.00500768702087789,0.013512340363962167,0.9902173501729604
2013-06-28,1,0.0033893160434488954,0.003673836873698504,-0.00500768702087789,0.011603028178340202,0.9907283352734032
2013-07-02,0,0.0,0.0,-0.005865809855917117,0.010819635742014416,0.9915832657424928
2013-07-05,0,0.0,0.0,-0.005890301206584654,0.010819635742014416,0.9894958088520969
2013-07-09,0,0.0,0.0,-0.006859307339677091,0.0022026181139698352,0.9896049984053776
2013-07-11,1,0.004025946565271428,0.00426731214157419,-0.006859307339677091,0.004267698219051944,0.9882196609353837
2013-07-15,1,0.0035302423219923345,0.0036515416115780056,-0.006859307339677091,0.0022026181139698352,0.9882567867633053
2013-07-17,0,0.0,0.0,-0.006859307339677091,0.004267698219051944,0.9888852012521889
2013-07-19,0,0.0,0.0,-0.009117307794593315,0.004267698219051944,0.9890383120187154
2013-07-23,0,0.0,0.0,-0.013232335179698967,0.004267698219051944,0.9887951665368812
2013-07-25,0,0.0,0.0,-0.013232335179698967,0.005357208516290407,0.9883930162151459
2013-07-29,0,0.0,0.0,-0.013232335179698967,0.005357208516290407,0.9880468230122738
2013-07-31,0,0.0,0.0,-0.01420761085905722,0.005357208516290407,0.9863978207978267
2013-08-02,1,0.003682559723725506,0.004041704327922018,-0.01420761085905722,0.005357208516290407,0.9882333171737875
2013-08-06,1,0.0031527869431109603,0.0034608058693476025,-0.009328714558301447,0.007772644322162416,0.9879815813229195
2013-08-08,1,0.002784393879442053,0.002994179283663653,-0.009977630355604195,0.007772644322162416,0.9876590969801542
2013-08-12,1,0.001853483800852004,0.0019028120553893895,-0.008028790141578802,0.01120849262097651,0.9874050512752846
2013-08-14,0,0.0,0.0,-0.007237028407509053,0.010270365705639477,0.9885008878584767
2013-08-16,0,0.0,0.0,-0.007237028407509053,0.0104951676674248,0.9886132639797774
2013-08-20,0,0.0,0.0,-0.007237028407509053,0.010671764977836395,0.987819734122922
2013-08-22,1,0.11240790756640134,0.1251950753575815,-0.008028790141578802,0.0104951676674248,0.8929807750204598
2013-08-26,1,4.4801432120749685e-05,0.00029569147676034176,-0.006256157098501778,0.0104951676674248,0.9871800251393505
2013-08-28,0,0.0,0.0,-0.005497393771936939,0.010671764977836395,0.9882338530666471
2013-08-30,0,0.0,0.0,-0.0061760886890817775,0.010671764977836395,0.9883580671434239
2013-09-04,-1,-0.001075753732748799,-0.0006336259724721968,-0.007162303504234753,0.010215310161815415,0.9901972063746965
2013-09-06,-1,-0.0016063781476884993,-0.0010753333922404302,-0.005971390904339853,0.010330001035952609,0.9897905595322868
2013-09-10,-1,-0.0015824716143267004,-0.000984984520509116,-0.008115171654943059,0.009087317164663229,0.9904080832993682
2013-09-12,-1,-0.0020428692602068926,-0.0013912809022243594,-0.008115171654943059,0.010330001035952609,0.9888883475450684
2013-09-16,-1,-0.0007572760477155744,-0.0003801112652708073,-0.007162303504234753,0.010352642078048382,0.9886834042216468
2013-09-18,-1,-0.0015169490838697994,-0.0010577933031256255,-0.006824658070411125,0.010941464255635563,0.989380730325522
2013-09-20,-1,-0.002241337727882067,-0.0017174292555130499,-0.005927075021312618,0.010941464255635563,0.9911859646065804
2013-09-24,-1,-0.0020564122992706045,-0.0015968283086975283,-0.006824658070411125,0.010941464255635563,0.9908195149099644
2013-09-26,-1,-0.0015940608371856496,-0.0012042917875016794,-0.007162303504234753,0.007373535902424609,0.9906456395251267
2013-09-30,-1,-0.0019837216619766,-0.0015611446278548746,-0.006824658070411125,0.007373535902424609,0.9909062837064216
2013-10-02,-1,-0.0022534756806177154,-0.0017839731642804162,-0.004743867095549749,0.00795612727048879,0.9908834034849455
2013-10-04,-1,-0.0010664120102991438,-0.0008039721328760391,-0.007203050973139084,0.004193146646588951,0.9903007464984187
2013-10-08,-1,-0.001946189162663631,-0.00157513310632533,-0.0021465222283168764,0.00795612727048879,0.9903330183588055
2013-10-10,-1,-0.000671940623207967,-0.00047124434049343055,-0.004743867095549749,0.004193146646588951,0.9921457530402633
2013-10-14,-1,-0.000868596123313929,-0.0006097500571569437,-0.0052850604040895095,0.004193146646588951,0.9900060954480244
2013-10-16,-1,-0.0007170883334532849,-0.0004635123522006233,-0.0055186704800836905,0.004193146646588951,0.9900285128233784
2013-10-18,1,2.3558963743245548e-05,0.00013441160738683177,-0.0055186704800836905,0.01218696626446642,0.9882429852494687
2013-10-22,-1,-0.00024292339106066945,-0.0001010479648803778,-0.004245439834451622,0.01218696626446642,0.9884738820542672
2013-10-24,-1,-0.0007630932443790756,-0.0005495225151203292,-0.004245439834451622,0.013065874750935055,0.9885071088425001
2013-10-28,-1,-0.0011390739260851244,-0.0008677138499734684,-0.004927891672149507,0.013065874750935055,0.9881990018554395
2013-10-30,-1,-0.0002488883294201509,-0.00013839963071287167,-0.004927891672149507,0.01269884880712148,0.9888034065956165
2013-11-01,-1,-0.0018612936575476574,-0.0015239008096296115,-0.00420235995429699,0.01269884880712148,0.990256342903593
2013-11-05,-1,-0.0016864053864516439,-0.001348382906001855,-0.004927891672149507,0.0054676207446655595,0.9904513682006609
2013-11-07,-1,-0.0015051315944917267,-0.0012326576745018115,-0.00441492811910839,0.012084712404091487,0.9899665344881418
2013-11-11,0,-3.7062470345805576e-05,7.671142769088702e-05,-0.004078458279669326,0.0054676207446655595,0.9925844476884921
2013-11-13,-1,-0.0004076685556105257,-0.00021230570388817256,-0.0043849127263719005,0.002993171085760217,0.9932987305724975
2013-11-15,1,0.0012224361580667716,0.001269075045929901,-0.0043849127263719005,0.0024289119116197343,0.994768407832181
2013-11-19,1,0.00137087928359027,0.0014438766096806696,-0.0048378454939400385,0.0018732665388136367,0.9932071139135904
2013-11-21,1,0.0018962077260210805,0.0020638290263321345,-0.0043849127263719005,0.002483507692298886,0.9931644742345591
2013-11-25,1,0.0018105481159473589,0.001998880155479218,-0.004078458279669326,0.003958294508877671,0.9934567996916362
2013-11-27,1,0.002109717926710322,0.002379798504910549,-0.004078458279669326,0.006673280355563775,0.9932841627574337
2013-12-02,1,0.0018121773024615572,0.0020316318094394307,-0.0043849127263719005,0.007309456393784152,0.9928868121197862
2013-12-04,1,0.0012204586271177087,0.001356864044238824,-0.0043849127263719005,0.008238814854547324,0.9926810526631672
2013-12-06,1,0.0011429342287069075,0.0012444630100342294,-0.004372415327592034,0.007309456393784152,0.9929509865975484
2013-12-10,1,0.0014690660033797262,0.001641290276938111,-0.004372415327592034,0.008238814854547324,0.9921360418337385
2013-12-12,1,0.001207153392172827,0.0013632980546920137,-0.00526810122115819,0.008238814854547324,0.9913227135310445
2013-12-16,1,0.001068401264563923,0.0011908476768611852,-0.00526810122115819,0.01166844895693898,0.9902874762725753
2013-12-18,1,0.0014115942274568092,0.0015671948896216446,-0.008318207134890496,0.009966937970403413,0.9906253511562224
2013-12-20,1,0.0017924608071417623,0.0019893744860055495,-0.008318207134890496,0.008238814854547324,0.9909829707646785
2013-12-24,1,0.00274796171613861,0.003149881697443397,-0.01039923322628616,0.006945068262604703,0.9881757189248502
2013-12-27,1,0.002404056582914592,0.002717744557565814,-0.012322257896609675,0.008801950813541874,0.9873310242802287
2013-12-31,1,0.0023885348685968536,0.002707898685743698,-0.014083016395228562,0.01166844895693898,0.9864423732698346
2014-01-03,1,0.0019134512885284395,0.0021351898647202034,-0.015745300280624694,0.007908636383438354,0.9848857689245674
2014-01-07,1,0.0016168517679191526,0.0017901512055649394,-0.015745300280624694,0.012184051798135665,0.9847147917195566
2014-01-09,1,0.0020286064099957497,0.002242450980178659,-0.015745300280624694,0.012184051798135665,0.9842310020036771
2014-01-13,1,0.0010348545859795422,0.0011026863364177887,-0.014927476546377867,0.013844836435520178,0.984250407497114
2014-01-15,1,0.002059526605197099,0.002306128458892143,-0.014927476546377867,0.011654745810704034,0.9851065155376812
2014-01-17,1,0.0012217422380348647,0.0013360631525920858,-0.012603744613659443,0.013749433302672752,0.985666502233682
2014-01-22,1,8.490108314702786e-05,0.00019289680386193558,-0.012603744613659443,0.013749433302672752,0.9857525723920716
2014-01-24,-1,-0.0020813294101606787,-0.0017225257543302356,-0.007352389134609077,0.013749433302672752,0.9878804932872142
2014-01-28,-1,-0.0012782885821986006,-0.0010796579336665396,-0.007783386173968084,0.011400040666659806,0.9884838768257089
2014-01-30,-1,-0.001331135292110086,-0.0011140771799376167,-0.006223465007658032,0.010828053395485072,0.9893820598282979
2014-02-03,-1,-0.0027273882684419838,-0.0024022190078201136,-0.00432763982347514,0.011778766345104323,0.989884721888263
2014-02-05,-1,-0.0025076676117042505,-0.0022013558252632435,-0.00432763982347514,0.011778766345104323,0.989481446009131
2014-02-07,-1,-0.0016125553353402962,-0.0014151302113715567,-0.00432763982347514,0.011778766345104323,0.9902998824522712
2014-02-11,-1,-0.0013076774464445442,-0.0011139603064713624,-0.005622804870345033,0.008500543817033137,0.9916881157561072
2014-02-13,-1,-0.0015873483579257953,-0.0013199711426061475,-0.006223465007658032,0.008500543817033137,0.9911899673826784
2014-02-18,-1,-0.0011072580319235585,-0.0008848697418688178,-0.006223465007658032,0.007704147699190218,0.9916871222511835
2014-02-20,-1,-0.001145410165449546,-0.0009364921631444477,-0.005776201605239535,0.010570058855057907,0.9906012653994671
2014-02-24,-1,-0.0013203432560647697,-0.0010659626629946713,-0.005776201605239535,0.010570058855057907,0.9908086177241929
2014-02-26,-1,-0.0018946187391545824,-0.0015714652755790962,-0.004583702576485745,0.011955815452193815,0.9900515343875207
2014-02-28,-1,-0.0012886568422473242,-0.0010460395749858958,-0.005885664150099815,0.011319095233322134,0.9897435979559236
2014-03-04,-1,-0.0014644706846811601,-0.0011592117587431354,-0.004583702576485745,0.010798676205683979,0.9904497557138793
2014-03-06,0,-3.933734080158473e-05,4.0724146824640484e-05,-0.004583702576485745,0.010114006789003725,0.9915005994863498
2014-03-10,1,0.0006434038302939209,0.0006529043443661,-0.00851968956910116,0.006423162001142393,0.9901075717922848
2014-03-12,1,0.0004788148482372464,0.00048091518930768926,-0.006393833834365193,0.010114006789003725,0.9898581659338296
2014-03-14,-1,-0.00014664557933449717,-7.572393763048975e-05,-0.014543097514921865,0.010114006789003725,0.9876238413244863
2014-03-18,1,5.9190734004630575e-05,0.00012047635087775567,-0.014543097514921865,0.01033711627240689,0.9875983701171887
2014-03-20,1,0.0005983068586820189,0.0006110652986436539,-0.014543097514921865,0.01077797369599019,0.9876480186540432
2014-03-24,1,0.00031562586690522636,0.0003674908534688138,-0.014543097514921865,0.012233462865370213,0.98711806563513
2014-03-26,1,0.00037623714122938823,0.00041100791931137905,-0.005739838059037992,0.01077797369599019,0.9884102540370739
2014-03-28,-1,-0.0009584771989507642,-0.0007025033858166528,-0.0060469728835194385,0.01077797369599019,0.988502059165989
2014-04-01,-1,-0.00023015526909820727,-8.259821499491084e-05,-0.0060469728835194385,0.010890188084926528,0.9881400263411695
2014-04-03,-1,-0.00023853356336623092,-7.233960870572199e-05,-0.015313364418702667,0.010890188084926528,0.9875759829117919
2014-04-07,-1,-0.0008849984255387615,-0.0007209498348427941,-0.008928278864019784,0.010890188084926528,0.9879391309861312
2014-04-09,0,-3.286349562015955e-05,2.2759950578097807e-05,-0.008928278864019784,0.010962301636936768,0.9873607303970134
2014-04-11,-1,-0.001491928964067057,-0.0013212132647291808,-0.003361873810142563,0.013001963283110403,0.9889842273535537
2014-04-15,-1,-0.0007523865805094976,-0.0006751876803175702,-0.0060949176853797625,0.013001963283110403,0.9889137455275271
2014-04-17,1,0.00027095506361460894,0.00034630750685917964,-0.008928278864019784,0.007113365660754679,0.9888721007646458
2014-04-22,1,0.00048530427783208144,0.0005653510461201031,-0.009434049111611977,0.007081063339228496,0.9887498377794451
2014-04-24,1,0.0004307856211008015,0.0005025120211259268,-0.009434049111611977,0.009741025897119372,0.9878116987131746
2014-04-28,-1,-0.00013389108483034717,-0.00012451958558828762,-0.007106394571899367,0.010810016841877717,0.9877894237787092
2014-04-30,-1,-0.0004689403618744728,-0.00042518079436471457,-0.008375920333160815,0.007803565073177325,0.9884532246601514
2014-05-02,-1,-0.0006546258886791114,-0.0006008458091440892,-0.007106394571899367,0.01071310987729917,0.9884971337390188
2014-05-06,-1,-0.0020392772353787243,-0.0018331719161444565,-0.004247084711627974,0.014466443269981307,0.9871272179309243
2014-05-08,-1,-0.0008958353269434351,-0.000806325137682861,-0.0059121165425864595,0.013803478859248847,0.9884672967330811
2014-05-12,-1,-0.000516650067794835,-0.0004762789855597112,-0.004345245836830962,0.01071310987729917,0.9890089520429413
2014-05-14,-1,-0.0010016899696007231,-0.0009356468386742139,-0.004345245836830962,0.01071310987729917,0.9894181447360496
2014-05-16,-1,-0.0015223105653546132,-0.001436008206477326,-0.0033835037956786683,0.01071310987729917,0.9904129996892689
2014-05-20,-1,-0.0013390254965191034,-0.0012911806121114046,-0.002733458904900758,0.014234813039486085,0.9892820663597731
2014-05-22,-1,-0.0005382932243635683,-0.00047048846321822715,-0.0033835037956786683,0.009291339989677095,0.9903077810269308
2014-05-27,1,0.00024943491930893625,0.00042400348276284115,-0.003943236107147322,0.0069930282100762855,0.9909226230351472
2014-05-29,0,-2.0673144346364854e-05,0.00011171801235082269,-0.003480556298175706,0.0069930282100762855,0.9912633564823642
2014-06-02,1,0.00046692100723296913,0.0006541574926063442,-0.003480556298175706,0.006695994810274495,0.9920538018979052
2014-06-04,1,0.0029952157566088405,0.0035589296082878027,-0.003480556298175706,0.00391865933843193,0.9935287333984624
2014-06-06,1,0.002557769256287176,0.003014047423960148,-0.003480556298175706,0.004001899008077471,0.9928577337524128
2014-06-10,1,0.003083188383444589,0.003648900604163126,-0.004234393614638435,0.003872893249448713,0.9922288656696505
2014-06-12,1,0.002318855480629301,0.0027528085498747246,-0.004234393614638435,0.005529899723782881,0.9924260299833635
2014-06-16,1,0.0022496384901374896,0.0026575061875167274,-0.004234393614638435,0.0065586965433248445,0.9922371204931619
2014-06-18,1,0.0023906957589416374,0.0026859643860013384,-0.005659354663714405,0.0035729628958109778,0.9925497717124194
2014-06-20,1,0.002232875993012493,0.0024896427105337475,-0.006509210903009612,0.005529899723782881,0.9919709230959006
2014-06-24,1,0.0020198054669806754,0.0022289683365096695,-0.004517679027736837,0.005529899723782881,0.9921874625548484
2014-06-26,1,0.0005213561090953849,0.0006320428537138733,-0.006112014179158568,0.005529899723782881,0.9925980689852231
2014-06-30,1,0.0005110598745739181,0.0006035076317597075,-0.008061173343545908,0.005529899723782881,0.9920701831918081
2014-07-02,1,0.0012161494117540134,0.0012564506258756396,-0.010646084916215796,0.005529899723782881,0.9904699653651278
2014-07-07,1,0.001618691275260914,0.0017355236145811799,-0.009483173869436364,0.004904208996955748,0.9911507549187932
2014-07-09,1,0.0014293092289071841,0.001524838130990029,-0.00998553203150829,0.0020208001641565275,0.9909439485160692
2014-07-11,1,0.0013392849371314597,0.0014569020409645984,-0.007673536327952764,0.0020208001641565275,0.9911972414844394
2014-07-15,1,0.0013041325085057548,0.001400455981413667,-0.007673536327952764,0.0020208001641565275,0.9912223159165914
2014-07-17,1,0.000609099899572627,0.0006132787569296349,-0.006748366941120283,0.00564373714178314,0.9918490529557596
2014-07-21,1,0.0005176620868887745,0.0005554937997795876,-0.007565140782691555,0.00564373714178314,0.9915150003645878
2014-07-23,1,0.0005263910650442232,0.000547084734998309,-0.007565140782691555,0.00564373714178314,0.9916226426651495
2014-07-25,1,0.00033464563066186437,0.0003674877161917434,-0.007060558962740984,0.00564373714178314,0.9915780816584722
2014-07-29,1,0.0002592866505354383,0.00026472603332350277,-0.006511562994164461,0.006833713512157587,0.99140408004103
2014-07-31,-1,-0.00030169810954193025,-0.0002635621374841379,-0.006281375837317047,0.00612892065673679,0.9927632464842993
2014-08-04,-1,-0.0006475294747382524,-0.0005489627671089936,-0.005205903104113933,0.008278059664143304,0.992455400336712
2014-08-06,-1,-0.0017779018302319968,-0.0015151728015158474,2.52244759566065e-06,0.008278059664143304,0.9925744712389004
2014-08-08,-1,-0.0010457310408423766,-0.0009172161696832647,-0.0028881349641102054,0.006806945583326028,0.9932742862882391
2014-08-12,-1,-0.00021932162153715342,-0.00020177918201318864,-0.003721516381470085,0.00671425768699911,0.9931228116875627
2014-08-14,1,0.00014124854641098226,0.00020363353163345142,-0.003721516381470085,0.00671425768699911,0.9932887970147882
2014-08-18,1,0.0006665999958866396,0.0008148506686697001,-0.003721516381470085,0.005756983331411674,0.994281320651383
2014-08-20,1,0.0005666457155511654,0.000680176991819758,-0.003721516381470085,0.00671425768699911,0.9938563882407543
2014-08-22,1,0.0008354361624106949,0.0010092698687704724,-0.003721516381470085,0.00671425768699911,0.9937256712404848
2014-08-26,1,0.0014020444027044196,0.001662384359053234,-0.006507041097468873,0.00671425768699911,0.9934896368406204
2014-08-28,1,0.00055942279003617,0.0006199386933896872,-0.007443609258782083,0.00671425768699911,0.9925837310817286
2014-09-02,1,0.00132006990388735,0.001513012675734377,-0.007443609258782083,0.0036754100280729533,0.9927855285309637
2014-09-04,1,6.135664057942424e-05,0.0001603356629974125,-0.007828137933013589,0.004167902283751265,0.9916227364425166
2014-09-08,0,-9.278492477681453e-05,1.1234042610750914e-05,-0.007671372254010343,0.006627554060950215,0.9910749880732256
2014-09-10,1,4.600657776759797e-05,0.00010778791115785506,-0.007671372254010343,0.007168152518871475,0.9900436059645709
2014-09-12,1,0.0007682572441411746,0.0008160499345282585,-0.012585314575323869,0.004167902283751265,0.9884871356423285
2014-09-16,1,0.0006301510659024183,0.0006577966705425318,-0.013870675092360481,0.0029661729211467908,0.9881458768363461
2014-09-18,1,0.0002766493234542689,0.0003316184058138556,-0.017495887413735922,0.002172321047473587,0.9874390932887285
2014-09-22,1,0.00029475828428789926,0.0003076734072850962,-0.017495887413735922,0.006031306826731447,0.986865411232993
2014-09-24,1,0.00028035726874146236,0.00031618607854122906,-0.017495887413735922,0.006031306826731447,0.9861248267714402
2014-09-26,-1,-0.001403415728793548,-0.0011071140040759234,-0.013055950040334384,0.00795592337240265,0.9868973891217381
2014-09-30,-1,-0.0010406821197794527,-0.000847797762073524,-0.013055950040334384,0.01049092059803031,0.9857782249345935
2014-10-02,-1,-0.0016185102697372986,-0.0013638257312830987,-0.01065867322249615,0.012960803804318513,0.9864631656197227
2014-10-06,-1,-0.0018780042657562711,-0.001556257041888825,-0.01065867322249615,0.012960803804318513,0.986125216642072
2014-10-08,-1,-0.0028549546830652583,-0.0023762981617607816,-0.004460412907777551,0.012960803804318513,0.9873092330253181
2014-10-10,-1,-0.0045009622796437785,-0.0038318048735316926,-0.0018697828383408526,0.012960803804318513,0.9876978331510641
2014-10-14,-1,-0.0045790434431477785,-0.003935883567219564,0.002634537806537814,0.012960803804318513,0.9873398183002602
2014-10-16,-1,-0.004622390918397475,-0.004008509051403221,0.0006030090149131064,0.012960803804318513,0.9881684474119009
2014-10-20,-1,-0.004104531862399769,-0.003525430786832399,-0.0007767343035133595,0.010112003719937708,0.9899063376134173
2014-10-22,-1,-0.003316938839814139,-0.002864259771677255,-0.00045836252018126517,0.007975704161257617,0.9915393402418995
2014-10-24,-1,-0.0012531448609916307,-0.0011387953729451207,-0.00045836252018126517,0.008878530579640054,0.9927761891839106
2014-10-28,-1,-0.000561731771424002,-0.0005175106948987627,-0.0007767343035133595,0.005882660478034764,0.9936827621314608
2014-10-30,1,4.351498319772285e-05,8.128775436221787e-05,-0.001324396295137164,0.005294388735928888,0.9943603585697827
2014-11-03,1,0.0003828568336459253,0.00044200279118837386,-0.003035805756935529,0.005294388735928888,0.9938738751502346
2014-11-05,1,0.0005506529434205949,0.0006372469855047469,-0.004080490819432547,0.005443961050428629,0.9937877535500541
2014-11-07,1,0.0013046942887829686,0.001560406650896332,-0.0016726246493028367,0.005443961050428629,0.9933365665922744
2014-11-11,1,0.0014071000763174156,0.0016635598331807841,-0.0041417787598600295,0.005443961050428629,0.9922660434469022
2014-11-13,1,0.000970561984926998,0.0011572336297377564,-0.0041417787598600295,0.005443961050428629,0.990711182088904
2014-11-17,1,0.0010019152577609887,0.0011977717378456824,-0.011379161853290588,0.005443961050428629,0.9887293698200722
2014-11-19,1,0.001077954111932347,0.0012715814809583904,-0.011379161853290588,0.009441083072869822,0.9858500526867671
2014-11-21,1,0.0016078009724707209,0.0018802032282578495,-0.011379161853290588,0.006462673560816981,0.9863089290792214
2014-11-25,1,0.0017306979464170162,0.0020393977881722385,-0.008472863433264716,0.0074823086026204475,0.9861181271344649
2014-11-28,1,0.0015944136216433764,0.001877234871575996,-0.007960934590781982,0.0074823086026204475,0.9863263370445269
2014-12-02,1,0.001357100972323253,0.00159871021565839,-0.006666869803533684,0.004864068813097449,0.9871646133989924
2014-12-04,1,0.0015367072784260509,0.0018124640133669366,-0.01604813656428568,0.004202998203197481,0.9856398803659892
2014-12-08,1,0.0017748072811163466,0.0020454609682614196,-0.020343441412362467,0.004202998203197481,0.9844520477592432
2014-12-10,1,0.001152947706191751,0.0013584752883233969,-0.01883410477372491,0.00672647804440684,0.9843802759580299
2014-12-12,1,2.6198491771299147e-05,7.605141410026208e-05,-0.015682727846850462,0.00638063407594123,0.9857632791961938
2014-12-16,-1,-0.0013637898593066686,-0.0012326763104555036,-0.015432152458526206,0.00638063407594123,0.986150977611003
2014-12-18,1,0.0008590856829643087,0.0009807272782481199,-0.015432152458526206,0.0012953144298586082,0.9875563735369933
2014-12-22,1,0.0001469395703815928,0.00016298267250424163,-0.015432152458526206,0.011470354902514726,0.9868089087382144
2014-12-24,1,0.0004322788352418651,0.0004510264118764054,-0.017716969891316922,0.003026082222347863,0.9863095516024373
2014-12-29,1,1.578700732401359e-05,8.311348922651707e-05,-0.018755478878196754,0.003026082222347863,0.9844916041837061
2014-12-31,-1,-0.0003560923025832019,-0.00026116669282891334,-0.018755478878196754,0.0031989164808685373,0.9849189422432478
2015-01-05,-1,-0.001362752547926684,-0.0011605427841101504,-0.017716969891316922,0.013753150989607367,0.984105782696902
2015-01-07,-1,-0.0015728625532927757,-0.0013642522071007723,-0.014512097135655624,0.011964120229484003,0.9856981434745851
2015-01-09,-1,-0.0014867643098812793,-0.0013103594026785414,-0.012602550034790161,0.011320070703008674,0.986612240992549
2015-01-13,-1,-0.001992743059271119,-0.0017575991514950247,-0.009302479582269579,0.011320070703008674,0.986592494118588
2015-01-15,-1,-0.0032865185361182375,-0.002894609060650201,-0.005558130517547258,0.011320070703008674,0.9871770535593388
2015-01-20,-1,-0.0022055179689460026,-0.0019743025737652127,-0.007166001767763755,0.011320070703008674,0.9870344262338052
2015-01-22,-1,-0.0008919290307554397,-0.0008189204919962678,-0.007166001767763755,0.009898063975836098,0.9879645218785335
2015-01-26,-1,-0.0018230691407984051,-0.0016650583194141348,-0.007166001767763755,0.010448182913463347,0.9879566029554226
2015-01-28,-1,-0.0030573152411779315,-0.0027545597554787093,-0.0030247274065093666,0.010448182913463347,0.9891430338388295
2015-01-30,-1,-0.003123034748742483,-0.002803393050674805,-0.0028856526485425997,0.011062425640712172,0.9883950867322381
2015-02-03,-1,-0.0011150228144131884,-0.0010300066110748023,-0.0040583393171312815,0.009870630091631123,0.9914003038451605
2015-02-05,-1,-0.0007513553535627081,-0.000740027048236667,-0.0028856526485425997,0.010448182913463347,0.990710902251125
2015-02-09,-1,-0.0005769805714311685,-0.0005737027667656452,-0.004828929431041526,0.009870630091631123,0.9895013516925671
2015-02-11,1,0.0001294560040011061,0.00024347369481804605,-0.004828929431041526,0.010448182913463347,0.9892251982060027
2015-02-13,1,0.00019608344094877917,0.0002950658651216307,-0.006586072788859781,0.010590639892971569,0.9888107768667735
2015-02-18,1,0.00016165208419797978,0.0002791942333852505,-0.005957606867100514,0.009796995616473535,0.9902051654421113
2015-02-20,1,0.0007078439243819912,0.0008542008669030199,-0.006791812536947241,0.010590639892971569,0.9890904573851536
2015-02-24,1,0.0002091289457819772,0.0002712087820409,-0.006791812536947241,0.0075893054706628734,0.989533209159629
2015-02-26,-1,-0.0003077633548468992,-0.00028269647196647494,-0.008870956808835416,0.0075893054706628734,0.9890609860714016
2015-03-02,1,0.0004924434967839876,0.000575562285279935,-0.008870956808835416,0.0075893054706628734,0.9892933216414201
2015-03-04,-1,-0.0001262166798661829,-0.00011615256250191229,-0.007959016973338553,0.0075893054706628734,0.9890937613559698
2015-03-06,-1,-0.0003013641420772363,-0.00019284650486046777,-0.007959016973338553,0.007375370698314583,0.9894466039048113
2015-03-10,-1,-0.001963895884142375,-0.0016393209124291328,-0.00728843637314441,0.007375370698314583,0.9908559391418824
2015-03-12,-1,-0.00109427979596455,-0.0008605240275785716,-0.007959016973338553,0.0061414646917681455,0.9912234040284252
2015-03-16,-1,-0.000879159719036986,-0.000698182639760731,-0.008124663685818836,0.0061414646917681455,0.9909668584610165
2015-03-18,-1,-0.000928317515115373,-0.0007493575353721222,-0.008124663685818836,0.00711914925010453,0.9907149454529506
2015-03-20,-1,-0.000379055650554754,-0.00029484435098641837,-0.00804694910610665,0.0061414646917681455,0.9919592019346174
2015-03-24,-1,-0.0007326337554473998,-0.000640217041694945,-0.00728843637314441,0.00711914925010453,0.99163845428145
2015-03-26,-1,-0.0003739951654282547,-0.00034742307164195064,-0.00728843637314441,0.00711914925010453,0.9919320550647049
2015-03-30,0,-5.406482548330784e-07,4.730540485202523e-05,-0.007619273683850803,0.00711914925010453,0.9919426063226441
2015-04-01,-1,-0.0002236213685770498,-0.00019449115954841385,-0.008367985938166768,0.00816017978695242,0.9904807482411371
2015-04-06,1,0.000512354998601348,0.0006482512284818417,-0.008367985938166768,0.008849564890687577,0.9904621739626408
2015-04-08,1,0.00046381368899886554,0.0006065372554769472,-0.008367985938166768,0.008849564890687577,0.9904221733526489
2015-04-10,1,0.00015266133891795217,0.00023813563106890817,-0.006885043775417071,0.008849564890687577,0.9908698991354944
2015-04-14,1,8.201591784587608e-05,0.00015896148490622238,-0.006370136554669138,0.009620944430598478,0.9909092894478774
2015-04-16,1,0.0005127959335076025,0.0006583315069050882,-0.006370136554669138,0.009620944430598478,0.9914583188101522
2015-04-20,1,0.0005949315166697767,0.0007835950034303262,-0.006370136554669138,0.009831836601163489,0.9912011288660454
2015-04-22,1,0.0010270224835375909,0.0012712541841189517,-0.006370136554669138,0.008918122439130705,0.9917196158486227
2015-04-24,1,0.000639364122749035,0.0008296764326787586,-0.006370136554669138,0.008918122439130705,0.9915922842453319
2015-04-28,1,0.0008643362597541519,0.0010768489847812184,-0.006370136554669138,0.0075832234343229995,0.9916456707978657
2015-04-30,1,0.0010041726889557859,0.0012410996451832081,-0.006370136554669138,0.006012604133175245,0.9930115942768871
2015-05-04,1,0.001984695617106033,0.002385663658831796,-0.006370136554669138,0.005607821328029819,0.9934602761440262
2015-05-06,1,0.0013238053766816188,0.0015967476477633574,-0.00339162210069848,0.006012604133175245,0.9930056042607672
2015-05-08,1,0.0011811411352512934,0.0013786423297791521,-0.00339162210069848,0.007653520824511336,0.9925999532007647
2015-05-12,1,0.000832501394513594,0.0009154187595107829,-0.002938649234634298,0.007653520824511336,0.9921212979267647
2015-05-14,1,0.001855310445628287,0.0021897079405759495,-0.0038380659561523815,0.007653520824511336,0.9918183250884334
2015-05-18,1,0.0017514325512381912,0.0020617663945877653,-0.0033969914905215095,0.008097501309161169,0.9919333098458752
2015-05-20,1,0.002073099981635608,0.002446070097806985,-0.004027232943782112,0.01115211629816916,0.9915527589987381
2015-05-22,1,0.001972898542374005,0.0023347965867978786,-0.004027232943782112,0.012133384578803181,0.9907429077908553
2015-05-27,1,0.0016261280513957524,0.0019183422977569749,-0.004027232943782112,0.012133384578803181,0.9909106995499587
2015-05-29,1,0.0008867362494920219,0.0010265361273774877,-0.004027232943782112,0.012133384578803181,0.9908218088200259
2015-06-02,1,0.0009085796293169543,0.001028399350579688,-0.005368459958174907,0.012133384578803181,0.989254043367142
2015-06-04,1,0.001104860184472646,0.0012403114005866873,-0.005439275001664983,0.010004254996833075,0.9898023599389698
2015-06-08,1,0.0008966857407362134,0.0009800068158539175,-0.005439275001664983,0.009070698696737933,0.9899276111320852
2015-06-10,1,0.0013216676383623178,0.0014065644171885523,-0.005493079576292834,0.009070698696737933,0.9898516217203117
2015-06-12,1,0.001144064387795116,0.001224017490633345,-0.005493079576292834,0.010849632411296687,0.9891229193855119
2015-06-16,1,0.0016798262505943523,0.0018710815354547224,-0.005493079576292834,0.010849632411296687,0.9894120938267069
2015-06-18,1,0.0013086461613664485,0.0014070430213797144,-0.005439275001664983,0.009694320666007453,0.989882953240848
2015-06-22,1,0.0009243548401095309,0.0009245043178608684,-0.004709279996896696,0.009070698696737933,0.9909686678874108
2015-06-24,1,0.0005571879732781651,0.0006078862571820598,-0.004709279996896696,0.009070698696737933,0.9910384259004574
2015-06-26,1,0.0011888522113202146,0.001280196271466127,-0.006566064290490857,0.008773323598949343,0.9906444046092996
2015-06-30,1,0.000651844130459586,0.000667151992764602,-0.004726084187886234,0.010849632411296687,0.9913926717404608
2015-07-02,1,0.0007612474629513765,0.0007915871226134884,-0.007560671506543584,0.010849632411296687,0.9907379810534013
2015-07-07,1,0.0007695320866914063,0.0008180827136917351,-0.007560671506543584,0.010849632411296687,0.9910768624279633
2015-07-09,1,0.000521587455611233,0.0005461801424423339,-0.006989224010069529,0.005860749455561981,0.9922441814272452
2015-07-13,1,0.0009218892140207761,0.0009940085128602343,-0.008080851948640467,0.003692067976660455,0.9917217261169274
2015-07-15,1,0.0014542360952193543,0.00160597336120774,-0.010230814228973595,0.0025972596320798873,0.9901760419404855
2015-07-17,1,0.0013388123575092479,0.0014720074987125081,-0.010230814228973595,0.0035273295233600142,0.9902105703808952
2015-07-21,1,0.0011893227911451767,0.0012931271269982897,-0.010230814228973595,0.0035273295233600142,0.9899195352898565
2015-07-23,1,0.0010070565334568324,0.0010970185363846493,-0.010965241841528688,0.0035273295233600142,0.9884552754003296
2015-07-27,1,0.0007051319603300572,0.0007126668389913118,-0.015708055721556483,0.0035273295233600142,0.9852187199382274
2015-07-29,1,0.001305800402831439,0.0014631620350909016,-0.017611492660952823,0.0008767154626996595,0.9831664867294361
2015-07-31,1,1.2084945925793845e-05,7.518862784314099e-05,-0.015185229463060538,0.0035273295233600142,0.983370549636567
2015-08-04,1,0.0005302699220053387,0.0005688894231700749,-0.0189378607187237,0.0008767154626996595,0.9810494266578833
2015-08-06,1,0.0002349066228465923,0.00023625097252596815,-0.0189378607187237,0.004423403462823751,0.980622641997803
2015-08-10,1,0.0005751749117396537,0.0006151848568314259,-0.022971856121405277,0.004423403462823751,0.9800129684803581
2015-08-12,1,0.0002062898245562775,0.0002073486573915185,-0.018433331536684073,0.00613036237405487,0.9810887801154572
2015-08-14,-1,-0.00037876319767845033,-0.00027839925743823124,-0.018433331536684073,0.0031345851841372693,0.9813061568992207
2015-08-18,-1,-0.0006011177260046646,-0.00047997550741936927,-0.018433331536684073,0.008817197839896864,0.9803314171315209
2015-08-20,-1,-0.0016389823811042215,-0.0013862912938585213,-0.023443204754267342,0.008817197839896864,0.9796780548464574
2015-08-24,-1,-0.0022875841703391426,-0.0019492919330660983,-0.015466199516059384,0.010606477566507812,0.9827537302115015
2015-08-26,-1,-0.0018108451018666936,-0.001560590874553645,-0.013666134636976204,0.007236948876963832,0.98539364879488
2015-08-28,-1,-0.0018335775546610708,-0.0015687232782820295,-0.016810864650286576,0.007236948876963832,0.9850611154259961
2015-09-01,-1,-0.002727868300158131,-0.0023509369535775052,-0.013666134636976204,0.010433946064010895,0.9857654079524971
2015-09-03,-1,-0.0024541674305674586,-0.00210995193597457,-0.013666134636976204,0.007236948876963832,0.9862265167240446
2015-09-08,-1,-0.002014058849207437,-0.0017342431214615443,-0.010742051172389149,0.007236948876963832,0.9874493423399695
2015-09-10,-1,-0.0021882755600853127,-0.0018753934394063882,-0.007731327836917047,0.010110423899177061,0.987078563532432
2015-09-14,-1,-0.0022595607631072144,-0.001967880199933039,-0.006400234337045444,0.010110423899177061,0.987170000968556
2015-09-16,-1,-0.0020118643327659055,-0.0017217289469924854,-0.0109809939653879,0.008357134566668428,0.9878660275314589
2015-09-18,-1,-0.0026767342110616153,-0.0023307144200571525,-0.006302390318851405,0.01023631910977851,0.9887188519430432
2015-09-22,-1,-0.0028222601290692475,-0.0024494776548447126,-0.004855716049478109,0.01023631910977851,0.9890907759692255
2015-09-24,-1,-0.0022702362947451143,-0.0019886930591391395,-0.004855716049478109,0.012432260078759333,0.9889158935800701
2015-09-28,-1,-0.0028863118367910097,-0.0025238308933823424,-0.004855716049478109,0.012432260078759333,0.9888486996158021
2015-09-30,-1,-0.001918961349181701,-0.0016911321816472681,-0.006302390318851405,0.012432260078759333,0.9873568256143213
2015-10-02,-1,-0.0015343013117335412,-0.0013512609084218208,-0.006302390318851405,0.012432260078759333,0.9875011956903625
2015-10-06,-1,-0.0018385762872258214,-0.0016206073568134955,-0.006183828379144553,0.012432260078759333,0.9874423963515909
2015-10-08,-1,-0.0012201396174896172,-0.001078306630384371,-0.011754914827356328,0.009822838766705071,0.9874138596072761
2015-10-12,-1,-0.001462743726297583,-0.001300444393515004,-0.012522864618749923,0.012438050758141143,0.985022314210622
2015-10-14,-1,-0.0018716731020620592,-0.0016498853420842672,-0.011754914827356328,0.012438050758141143,0.9855921215253585
2015-10-16,-1,-0.0011239310265392763,-0.0009924262758106606,-0.012552178030987817,0.009525104413776275,0.9861804841442507
2015-10-20,-1,-0.0011596085239002616,-0.0010177237923910236,-0.012552178030987817,0.011723866959065533,0.9859999223107762
2015-10-22,-1,-0.0008570087251804817,-0.0007671211776999322,-0.012552178030987817,0.012143137981520783,0.9856506376239992
2015-10-26,-1,-0.0006133904787785699,-0.0005615134138306038,-0.011754914827356328,0.009426800154902822,0.9870043833240252
2015-10-28,1,0.0006587881085020394,0.000771208697763342,-0.010159871008352282,0.0070197482054739,0.9895053760174252
2015-10-30,1,4.34557227459896e-05,0.00013395555655036932,-0.007263858128271503,0.0070197482054739,0.9900462113732486
2015-11-03,1,0.0004536546804558847,0.0005703456901493175,-0.010159871008352282,0.006763835169732679,0.9898806401314603
2015-11-05,1,0.00041733798837839426,0.0005601629100740754,-0.007263858128271503,0.008820277349135533,0.9896257418907338
2015-11-09,1,0.00043687196473016123,0.0005851588077201119,-0.010632595985794456,0.006763835169732679,0.9903976108440954
2015-11-11,1,0.0002956712369932124,0.00043862447525651343,-0.013144286055437791,0.006763835169732679,0.990027984904713
2015-11-13,1,0.0004113985779710775,0.0005512084444102427,-0.013896237926981638,0.0058519868680792664,0.9887225324029377
2015-11-17,1,0.00039487316669942094,0.0005478232898349073,-0.013896237926981638,0.006890233212395142,0.9871597864714915
2015-11-19,1,0.0005608071423158347,0.0007228545688554443,-0.01623642762826641,0.0058519868680792664,0.9859151153412641
2015-11-23,1,0.00042294433094570625,0.0005669677910951184,-0.01623642762826641,0.00805656539991951,0.9857500900891836
2015-11-25,1,0.000861750814569919,0.001096192665282607,-0.01623642762826641,0.00854722766500651,0.9850896549299861
2015-11-30,1,0.0007600478975091514,0.0009317524228138566,-0.01623642762826641,0.010784809918217206,0.9846206830629848
2015-12-02,1,0.0006816663350993423,0.0008719809574447787,-0.01623642762826641,0.010132566106100794,0.9848637881430362
2015-12-04,1,0.0019157164640159327,0.002329713530154452,-0.01849618719926241,0.00805656539991951,0.9845225034194202
2015-12-08,1,0.000787785751036626,0.0010444428436467096,-0.0196363840599591,0.00805656539991951,0.9823098097650045
2015-12-10,1,0.0007007763602892604,0.0009383035818560414,-0.0196363840599591,0.00805656539991951,0.9822271481614152
2015-12-14,-1,-0.0003833283140078984,-0.0003021349684196492,-0.018600568142901053,0.010132566106100794,0.9834806749965443
2015-12-16,1,0.0008240822125804125,0.0010511741156213042,-0.018600568142901053,0.00805656539991951,0.9845651133086896
2015-12-18,0,-2.514815435823481e-05,0.00013369060212206917,-0.011568744640336305,0.00805656539991951,0.9859870352805633
2015-12-22,1,0.00020941845109949923,0.0003573167835718874,-0.011568744640336305,0.012143939396788732,0.9844710835439328
2015-12-24,1,0.0005733307708040664,0.0007780468447617075,-0.01391571898636991,0.011671608294093595,0.9835594698985859
2015-12-29,1,0.0009084733219149869,0.001147392277148561,-0.01391571898636991,0.011671608294093595,0.9833755043706732
2015-12-31,1,0.0008709302556579393,0.0011437841843550942,-0.01391571898636991,0.011900413119543788,0.9829324282449872
2016-01-05,1,4.356860033574966e-05,0.00017878507505896272,-0.014036209591471678,0.011900413119543788,0.982276088584858
2016-01-07,-1,-0.001675511536679723,-0.0015876886837376217,-0.014036209591471678,0.011900413119543788,0.9830719394038168
2016-01-11,-1,-0.0019986641742778923,-0.001874246908784324,-0.020119113243784955,0.011900413119543788,0.9817988137651101
2016-01-13,-1,-0.0022168210054476652,-0.0020163035867314387,-0.024468110086751187,0.011671608294093595,0.9810882619327628
2016-01-15,-1,-0.001750916176406965,-0.0015805757581410203,-0.024468110086751187,0.011900413119543788,0.9781304902099955
2016-01-20,-1,-0.002153256293873789,-0.0019343311610613844,-0.024468110086751187,0.012955976625098642,0.977323579890106
2016-01-22,-1,-0.0013184737491152773,-0.001208630327688723,-0.024468110086751187,0.011900413119543788,0.9793309165586547
2016-01-26,-1,-0.002620337591421651,-0.0023023923592144996,-0.02102291323661406,0.005738077348177707,0.9803071429089484
2016-01-28,-1,-0.002059471560716149,-0.001832932240580013,-0.02102291323661406,0.01607122533711373,0.9790073333996856
2016-02-01,-1,-0.0016242583741320838,-0.001464326025107003,-0.02102291323661406,0.01607122533711373,0.9771015523526727
2016-02-03,-1,-0.002948857408987574,-0.0026308291397058306,-0.01495217015616983,0.01607122533711373,0.9783450340729883
2016-02-05,-1,-0.005572555319199675,-0.0049264815127235545,-0.0036729248681343987,0.01607122533711373,0.9798558585301644
2016-02-09,-1,-0.005210914650785533,-0.0046567446446518,-0.0036729248681343987,0.01607122533711373,0.9805878504460107
2016-02-11,-1,-0.007961204268824205,-0.0070127960946862,-0.0015072552242883317,0.018323073065950914,0.9779398952499485
2016-02-16,-1,-0.005577084310712126,-0.004904859913709019,-0.0023483287037351433,0.013462460878148437,0.9834591071681753
2016-02-18,-1,-0.004637226877411256,-0.004089665330127742,-0.0023483287037351433,0.009855276514223375,0.9851138297557963
2016-02-22,-1,-0.0050196763764253464,-0.0044046427696526735,-0.0031089204756576906,0.012899822305999823,0.9844690742457683
2016-02-24,-1,-0.004247209992181453,-0.003769807807657814,-0.005666216649777959,0.012899822305999823,0.9851310674993852
2016-02-26,-1,-0.0032887572110695453,-0.0029381983699393066,-0.008291231135334238,0.009855276514223375,0.985602205508441
2016-03-01,-1,-0.001463216909826395,-0.0013259539123710467,-0.008291231135334238,0.009855276514223375,0.9859379161414394
2016-03-03,-1,-0.00095264580036046,-0.0009172123602955713,-0.010216623847287717,0.012740885690280486,0.9853028092711315
2016-03-07,-1,-0.0006248342509204136,-0.000610763474606919,-0.01598263038693292,0.008839373213790217,0.9841815463129422
2016-03-09,-1,-0.0017288176812087614,-0.0015600218915386376,-0.01598263038693292,0.008839373213790217,0.9845275190801059
2016-03-11,1,0.0008080360624958767,0.0010147588789031826,-0.01598263038693292,0.00853454127279812,0.9859949776510237
2016-03-15,1,0.00047791517637519416,0.0006532910811237309,-0.01598263038693292,0.014269111250036548,0.9845190604842353
2016-03-17,1,0.0008430583364988807,0.001078610918764589,-0.01598263038693292,0.014269111250036548,0.9841252254931259
2016-03-21,1,0.0010652687773193927,0.0013502098623337678,-0.01598263038693292,0.01319567881134092,0.9841504519733029
2016-03-23,1,0.001104802141938488,0.0014736731979066095,-0.013834029421411122,0.014719748070813284,0.9843789187408017
2016-03-28,1,0.0005593162386063511,0.0007909220062077131,-0.012936775644312656,0.01481075163457121,0.9847896978804538
2016-03-30,1,0.0027244535623498862,0.00329354723437725,-0.008204657436693888,0.01319567881134092,0.9878397247673857
2016-04-01,1,0.0020163562762026926,0.002456581920919274,-0.013850513117321394,0.01237521579848785,0.9873667362753827
2016-04-05,1,0.000925888505748666,0.0012433618312657191,-0.008130644049725869,0.013770117650703902,0.9873514884854508
2016-04-07,1,0.00035263974683465203,0.0005807856157226094,-0.013850513117321394,0.013770117650703902,0.9863102534674083
2016-04-11,1,0.0007504083552637805,0.0010348429005671337,-0.013850513117321394,0.013254486578842928,0.9866675896640841
2016-04-13,1,0.0022298406829956174,0.0027122417409537773,-0.013850513117321394,0.01133535688898031,0.9870510140708039
2016-04-15,1,0.0024662275483945846,0.003003454051246626,-0.013850513117321394,0.010836359953479785,0.9870525371175202
2016-04-19,1,0.003081360234248792,0.0036937887509962807,-0.013850513117321394,0.009747973308790023,0.9870812640692125
2016-04-21,1,0.003351846913394658,0.0040060819333798455,-0.014223542954779797,0.009747973308790023,0.9855604022533753
2016-04-25,1,0.0037759687900021824,0.004507409793486424,-0.014001502793875735,0.007462128269828632,0.9864532272369795
2016-04-27,1,0.003977261333025627,0.004721543107003581,-0.014001502793875735,0.009969224238164202,0.9858582107561035
2016-04-29,1,0.0033771157301101095,0.004071912162667592,-0.012632528648482662,0.012275795581148021,0.9865714345806567
2016-05-03,1,0.0026403743775236174,0.0031671872522426913,-0.011357151065857666,0.009969224238164202,0.9880017914329956
2016-05-05,1,0.001470389024261684,0.0018352533633788765,-0.0063947102182381095,0.009969224238164202,0.9886040266637695
2016-05-09,1,0.0007645224148879223,0.0009569939298162042,-0.006808496183258914,0.011112096004218861,0.9880665935467773
2016-05-11,1,0.0018358181403514064,0.002261099071472024,-0.007006512784582784,0.009918021551584368,0.9888088282238922
2016-05-13,1,0.0008480897327881219,0.0010536133990986785,-0.007687840563236169,0.009918021551584368,0.9883544966440273
2016-05-17,1,0.001428947719092848,0.001748788119589644,-0.014736998811132884,0.007843085525180185,0.9876603198792654
2016-05-19,1,0.0025038598227594185,0.002997392655322573,-0.009586203635235536,0.006806945231566193,0.9896189061693252
2016-05-23,1,0.002840457958979109,0.003410924266589065,-0.009586203635235536,0.007262184484824875,0.9897355077306945
2016-05-25,1,0.0033923536811562485,0.004005008873095525,-0.009586203635235536,0.005516117209520822,0.988662656871754
2016-05-27,1,0.0026957762996815825,0.0031458444552891706,-0.015128986358579373,0.004966454798993427,0.9815663397074919
2016-06-01,1,0.0017395674409504086,0.0019355025508367818,-0.015128986358579373,0.007262184484824875,0.9790810280096282
2016-06-03,1,0.0004891135619658545,0.0004988314517303361,-0.010131778057693813,0.008990029461722499,0.979699099461262
2016-06-07,1,0.0007406309167871043,0.000810592233470142,-0.015128986358579373,0.009527317160189192,0.9778666129972275
2016-06-09,1,0.000514337473457599,0.000575827499704256,-0.010131778057693813,0.013925386083268489,0.977598117910366
2016-06-13,-1,-0.0002824737481707029,-0.0002185941421034994,-0.007990643224065782,0.018128810078166756,0.9767078599913024
2016-06-15,-1,-0.0003570861931887063,-0.00033644261295948943,-0.004876750198567189,0.024384650682992327,0.9751638349207277
2016-06-17,-1,-0.00036746164559485234,-0.00032295452547274396,-0.004876750198567189,0.024384650682992327,0.9747333433130411
2016-06-21,1,0.00014616528943387787,0.0001760482027087108,-0.004876750198567189,0.024384650682992327,0.9751542331251225
2016-06-23,1,0.0012403189373999188,0.0014299469868731696,-0.003806058502875395,0.018128810078166756,0.9774369796146416
2016-06-27,-1,-0.0040178480441654865,-0.003509615819550995,-0.0022607433067199983,0.018128810078166756,0.9833841514477772
2016-06-29,-1,-0.003031018371017446,-0.0025315402119889157,-0.0026020192532592097,0.013606508427797207,0.9877401558461607
2016-07-01,-1,-0.003547061958547487,-0.0029612918302858744,-0.0029555189846946477,0.011751295139650194,0.9884290041442796
2016-07-06,-1,-0.0054101095188486365,-0.004505336339378757,-0.0029555189846946477,0.012147759455941603,0.9879843421969803
2016-07-08,-1,-0.003202731139731251,-0.00268896283893702,-0.003711937044398116,0.012147759455941603,0.9839140091234385
2016-07-12,-1,-0.0019973066047596906,-0.001652637982714718,-0.004367594638357437,0.0060148875658913295,0.985595536898312
2016-07-14,-1,-0.0011552681629971489,-0.0009054045586560801,-0.004367594638357437,0.004498480172494628,0.9868324329159872
2016-07-18,-1,-0.000954485703827617,-0.0007181693522156783,-0.005307203230091144,0.004178822209033146,0.9866699716644187
2016-07-20,-1,-0.0005706634505314489,-0.00041648007319801487,-0.005307203230091144,0.004188015867495081,0.9866934953322816
2016-07-22,1,0.0003071651613775976,0.0003177476495958252,-0.005307203230091144,0.004188015867495081,0.9865076529782257
2016-07-26,1,0.0005209901973526295,0.0005644840014336434,-0.005307203230091144,0.0049683123347012215,0.9862971013172946
2016-07-28,1,0.0005384978177267262,0.000601463892732673,-0.005307203230091144,0.007672566974450482,0.9857891396486935
2016-08-01,1,0.0001362535464386872,0.0001424781542829055,-0.003866616672848151,0.01042324805194147,0.9851437997315634
2016-08-03,1,0.0011340382308453068,0.0013261316493411812,-0.001297731647499859,0.01042324805194147,0.986431831268566
2016-08-05,1,0.0007145367720248091,0.0008334237583643143,-0.001297731647499859,0.008339884591012883,0.9923352482737579
2016-08-09,1,0.0008888892092392743,0.0010372247323886768,-0.0012952930143672117,0.008234110715269137,0.9926979616570542
2016-08-11,1,0.0004903579670934601,0.0005947700248854712,-0.0003091654724631665,0.010048853579963334,0.9931523154746965
2016-08-15,1,0.0003883646813365204,0.000452206952091363,-0.0003091654724631665,0.009120179349963542,0.993375921879416
2016-08-17,1,0.0005614316684582252,0.0006507298898073685,-0.0012952930143672117,0.010048853579963334,0.9926395665632995
2016-08-19,1,0.0011678939469710959,0.0013750511776834478,-0.0037009671071616696,0.010048853579963334,0.9921374053619448
2016-08-23,1,0.0009186255523330588,0.0010704916891854147,-0.001098616299651005,0.01049626135142493,0.9918199113291936
2016-08-25,1,0.0006202785448522274,0.0006708891131711599,-0.0026024849494709797,0.01049626135142493,0.9921852699885113
2016-08-29,1,0.0009224712438022668,0.0009856323621339758,-0.003854188394534541,0.008695219845374882,0.9918263882337212
2016-08-31,1,0.001428598581341102,0.0015726290726314767,-0.005047134229786091,0.008661960697036302,0.9919556234957561
2016-09-02,1,0.0017451721954958115,0.0019821722926883062,-0.003854188394534541,0.008718956417112697,0.9916474811163956
2016-09-07,1,0.0016847325823007475,0.001923105737607967,-0.002758144869976498,0.010408619762070154,0.9904222587317825
2016-09-09,1,0.0021778446905787413,0.002510055356934345,-0.002758144869976498,0.012371233564277277,0.9900597996282605
2016-09-13,1,0.0023165893667400237,0.00268116951926407,-0.002758144869976498,0.012371233564277277,0.9902029907587436
2016-09-15,1,0.0024788230067796105,0.0028569904612188116,-0.0030965210410296186,0.009331492554065643,0.9901438989442619
2016-09-19,1,0.0023165011100909697,0.0026842649744111486,-0.0028508157671514,0.009331492554065643,0.9905604451619957
2016-09-21,1,0.0020843810903249157,0.002371602298692349,-0.0028508157671514,0.008219813203436125,0.9911371493201959
2016-09-23,1,0.002013567741955769,0.002286982079373286,-0.0049375570186289235,0.008219813203436125,0.9908342249561672
2016-09-27,1,0.001158214793615984,0.0012635406316143139,-0.0049375570186289235,0.00788938321255311,0.9917079626865783
2016-09-29,1,0.0011213450377086606,0.001224349244492216,-0.003734370810877471,0.011746121818375407,0.9912914760888447
2016-10-03,1,0.0014206088052606091,0.0015713983413966483,-0.0049375570186289235,0.00853517849784464,0.9914141898316683
2016-10-05,1,0.0018192464103318647,0.0020070258486664756,-0.005915880354485422,0.004775466807432936,0.992183907888998
2016-10-07,1,0.002315641588516584,0.0025748722759285384,-0.005915880354485422,0.004775466807432936,0.9922673290637458
2016-10-11,1,0.0023716461771144002,0.0026365129674814454,-0.005484808569342739,0.004775466807432936,0.9916121205774631
2016-10-13,1,0.0024488881660470244,0.0027501992738915796,-0.004793866423581362,0.013767728131931905,0.987129643458739
2016-10-17,1,0.00265904509623991,0.0030288931738069367,-0.003990068788872304,0.015199274661053214,0.9867967639501698
2016-10-19,1,0.0025725185357077245,0.002924088355118931,-0.005484808569342739,0.015199274661053214,0.9859758788808646
2016-10-21,1,0.002274478550433256,0.0025827846665078917,-0.003990068788872304,0.015199274661053214,0.9860570462396936
2016-10-25,1,0.001832500284081885,0.002042082166680584,-0.002312120173342539,0.015199274661053214,0.9864546168395567
2016-10-27,1,0.0024861907725499885,0.0027937252172211074,-0.002312120173342539,0.013254715630913683,0.9872441826713454
2016-10-31,1,0.0017890917146599077,0.0019785206734706695,-0.00352544453371722,0.013254715630913683,0.9869691186009922
2016-11-02,1,0.0012044152823985094,0.0012887903606983036,-0.0011668343700767527,0.01523325230851381,0.9860242044999533
2016-11-04,1,0.0009958297973296812,0.0010183300810212355,-0.0011668343700767527,0.015097906631662893,0.9863568580165615
2016-11-08,1,0.0014729981887026886,0.0015629053078747217,-0.0006454338672287318,0.015097906631662893,0.9867251505780398
2016-11-10,1,0.003753872008253906,0.004154593705132833,-0.0006454338672287318,0.010550212008533698,0.9919028335422322
2016-11-14,1,0.0047369790336254675,0.005304787587565111,-0.0012863037671315444,0.008144928153515718,0.991456366195914
2016-11-16,1,0.0021602595759688077,0.0022095681015709967,-0.001283968839619376,0.010550212008533698,0.9917503287943404
2016-11-18,1,0.0031786736516627888,0.003463604300877109,-0.006038111442305708,0.008144928153515718,0.9891335637285736
2016-11-22,1,0.002832514845671599,0.0030536498808182337,-0.006038111442305708,0.008144928153515718,0.9892026457782471
2016-11-25,1,0.0026179532340626878,0.0027919927690288294,-0.006038111442305708,0.006901351198188077,0.989193733183731
2016-11-29,1,0.0018726093834125692,0.0019543251087119854,-0.006038111442305708,0.006901351198188077,0.9897111603147257
2016-12-01,1,0.003009928635859401,0.003277039947345013,-0.006038111442305708,0.005102112666880117,0.9908503367357017
2016-12-05,1,0.0031753786169038734,0.0034946654204569354,-0.00368542118930016,0.005814306580415857,0.9913835672041234
2016-12-07,1,0.003787913760397116,0.004203127692944718,-0.006038111442305708,0.00577066273803787,0.9912797460591638
2016-12-09,1,0.003649754865484603,0.004036770567700755,-0.008422305419355989,0.005526899398555825,0.9908505399918994
2016-12-13,1,0.0032035912180460873,0.003527097622932794,-0.008422305419355989,0.00577066273803787,0.9909220157254355
2016-12-15,1,0.0032131628041129003,0.0035332322072579962,-0.009032902104111062,0.00577066273803787,0.9909028522969915
2016-12-19,1,0.0018889327387072233,0.002024219256250464,-0.004577272385458066,0.00654559659886199,0.9935438390871811
2016-12-21,1,0.0018003655434095508,0.0019012406833200431,-0.005389866856319255,0.005929427211224157,0.9934528843459268
2016-12-23,1,0.002176147976645787,0.002370070059817832,-0.005389866856319255,0.007282652871938436,0.9921917378550573
2016-12-28,1,0.0012264332624312493,0.0012754143719501828,-0.005049031141435001,0.007282652871938436,0.9922789810144838
2016-12-30,1,0.0008287183778444437,0.0009438266308323921,-0.008875846809703637,0.007282652871938436,0.9913606605986479
2017-01-04,1,0.0005234717395330303,0.0007108292602192626,-0.009082408023748545,0.0067314284878909865,0.9892360867259599
2017-01-06,0,-4.101574105600425e-05,0.0001864510774358685,-0.008875846809703637,0.006373012535399793,0.9899654153745363
2017-01-10,0,-0.00014580723448139976,9.391110225357064e-05,-0.007853339665050871,0.006373012535399793,0.9901603392015819
2017-01-12,0,-0.00022772750939669924,2.648485926911258e-05,-0.0060825560208348966,0.00656212734143223,0.989656495312403
2017-01-17,-1,-0.0009369924402146596,-0.0005885985471420792,-0.004577882489395259,0.007708037657656448,0.9898472383790392
2017-01-19,-1,-0.0004898864145257368,-0.0002190547120933129,-0.005296777820046285,0.006482860923635503,0.9900143141911382
2017-01-23,-1,-0.000398484558854758,-0.00016233539273753108,-0.0060825560208348966,0.007120557019522114,0.9895126590229156
2017-01-25,1,0.0009178049755239892,0.0009709394282030773,-0.0060825560208348966,0.006087103088506557,0.9910649276786286
2017-01-27,1,9.313472965497287e-05,0.00025889732338727866,-0.0064398937089316455,0.006087103088506557,0.9904747447352609
2017-01-31,-1,-0.0004013312058908327,-0.00017615251041229235,-0.004431296397168128,0.006482860923635503,0.9895198862859951
2017-02-02,-1,-0.001263403714125103,-0.0009569751804562835,-0.004431296397168128,0.007120557019522114,0.9898475521403984
2017-02-06,-1,-0.0013429612974408056,-0.0010327306168762878,-0.0068972229534096366,0.007120557019522114,0.9891407839800649
2017-02-08,-1,-0.0014686262085057858,-0.0011696830839668148,-0.006582593404660767,0.007120557019522114,0.9890675605003578
2017-02-10,-1,-0.0014742122564163993,-0.0011328111188337825,-0.006582593404660767,0.007120557019522114,0.9900409721924145
2017-02-14,-1,-0.0005846755400235312,-0.0003774712684856327,-0.006582593404660767,0.0030543278525352346,0.9907825235726104
2017-02-16,-1,-0.0013400601021024009,-0.0010206815416249927,-0.011120419564208294,0.0040125130756226614,0.9901614666118372
2017-02-21,-1,-0.0014530608485369947,-0.001123900175002984,-0.011120419564208294,0.0030543278525352346,0.9899292207967787
2017-02-23,-1,-0.0017675631394093397,-0.0013701448308969608,-0.011120419564208294,0.0037811777777647226,0.9899022425522833
2017-02-27,-1,-0.002092702149520528,-0.0016688576100290199,-0.007303178274056348,0.0035967762357260254,0.9908208388158505
2017-03-01,-1,-0.0004052247226982654,-0.00023673217159241283,-0.007303178274056348,0.0035967762357260254,0.9914343167659027
2017-03-03,1,8.342277593676773e-06,0.00011594149969666447,-0.005825518962306678,0.0035967762357260254,0.992268455418507
2017-03-07,-1,-0.0012414651808168589,-0.0009740023067185898,-0.005664810294604441,0.0035967762357260254,0.9934213599565085
2017-03-09,-1,-0.0013376071505930664,-0.0010446673169623786,-0.005825518962306678,0.005639858225195034,0.9926774624029269
2017-03-13,-1,-0.0013319885520027466,-0.0010241259364056048,-0.005825518962306678,0.003918171319715769,0.9930611122605119
2017-03-15,-1,-0.0015831681326752805,-0.0012488852243325342,-0.006602398888442148,0.003918171319715769,0.9927001782423422
2017-03-17,-1,-0.001919912480725413,-0.0015359625172348434,-0.006602398888442148,0.003918171319715769,0.9920953347351961
2017-03-21,-1,-0.0027340647616824433,-0.0022476738826665,-0.006602398888442148,0.003918171319715769,0.9925894794748251
2017-03-23,-1,-0.0019944836339157385,-0.0016363586755148269,-0.00797054957170721,0.005595756344210503,0.9919171945990628
2017-03-27,-1,-0.002231863128392556,-0.0018202570732420813,-0.00797054957170721,0.012746257849842917,0.9909333646405176
2017-03-29,-1,-0.002607180097372247,-0.0021462636459869495,-0.008312041168912862,0.008075853435531051,0.9912335462942802
2017-03-31,-1,-0.002328797432512952,-0.0019084148060314404,-0.008312041168912862,0.005295459955056863,0.9919644931631577
2017-04-04,-1,-0.0020784133769207328,-0.0017154931165207301,-0.008312041168912862,0.005295459955056863,0.9919765927196356
2017-04-06,1,3.3021639194808432e-06,1.4749039448258547e-05,-0.007038209357134455,0.005295459955056863,0.9927425082329326
2017-04-10,-1,-0.00026310462384842713,-0.00023833075336230137,-0.009336508196005257,0.007136606360482782,0.9918663501396149
2017-04-12,-1,-0.000635873708157347,-0.00055753470016794,-0.009336508196005257,0.007136606360482782,0.9919938154847021
2017-04-17,-1,-0.0002068050588672812,-0.00019598408478120402,-0.009336508196005257,0.007136606360482782,0.9920211757748301
2017-04-19,-1,-0.0007054909039582148,-0.0006320642114451757,-0.009336508196005257,0.007136606360482782,0.9908293294333661
2017-04-21,-1,-0.0006191033867085536,-0.0005698686372468705,-0.007038209357134455,0.007136606360482782,0.9911026945283335
2017-04-25,-1,-0.0005576220970900666,-0.0004909301453081589,-0.00719430529087529,0.005408022138447031,0.9915490408335341
2017-04-27,1,5.310253874343435e-05,0.0001128347098341081,-0.0063811313546490635,0.007474292910653285,0.9915790171579637
2017-05-01,-1,-0.00020183643501741597,-0.00019733236076682975,-0.0066169269177007856,0.007474292910653285,0.9915340515572257
2017-05-03,1,0.00023855389484285337,0.0003401193947174829,-0.0066169269177007856,0.008910562381333543,0.9905223226326482
2017-05-05,1,0.00043432110008161573,0.0005620987917933499,-0.0066169269177007856,0.007474292910653285,0.9904834264733549
2017-05-09,1,0.00016825052277218562,0.0002486658800879332,-0.0066169269177007856,0.003578212277188829,0.9908907149155989
2017-05-11,1,0.0001150068325455501,0.0002084227234336075,-0.006154112141224752,0.01330935556716176,0.9894335048992138
2017-05-15,-1,-0.00011795897099846608,-0.00011577473575114034,-0.004700575611467164,0.0089930425980564,0.9904318970576639
2017-05-17,-1,-0.0008054802063667291,-0.0007373833162135227,-0.0033164600431973383,0.0089930425980564,0.9921385808857691
2017-05-19,-1,-0.0005672888513631253,-0.0005217275697389842,-0.0031158655185654395,0.007872964310554571,0.9921672847637734
2017-05-23,-1,-0.0006536571905996825,-0.0005881582225075224,-0.004700575611467164,0.007872964310554571,0.9915598175717921
2017-05-25,-1,-0.00040614914809229555,-0.000371295681204399,-0.0060427490629521895,0.006545625794773991,0.9919206187160903
2017-05-30,-1,-0.0004137574189452839,-0.00039519795828939783,-0.004700575611467164,0.007310746737911498,0.9916286577518887
2017-06-01,1,0.00014378722142848323,0.00018837103051859048,-0.004700575611467164,0.007872964310554571,0.99098429978311
2017-06-05,-1,-0.0003625031032507281,-0.00034379166746601933,-0.00219734291937321,0.008969913154963859,0.9901073702272398
2017-06-07,-1,-0.0004600796204941624,-0.0004347930227186118,-0.00219734291937321,0.008969913154963859,0.9906054810201048
2017-06-09,1,0.0005143200718319878,0.0005988021258406782,-0.00219734291937321,0.007310746737911498,0.9926637659087247
2017-06-13,1,0.0005796422447052465,0.0006858316978576335,-0.0028901593457413667,0.006685493582573476,0.9925650070928755
2017-06-15,1,0.0005626780222902236,0.0006664392931543119,-0.005128668456271577,0.006685493582573476,0.9922774610627116
2017-06-19,1,0.001358847965451459,0.0016216343785044316,-0.006229200559260063,0.005518764516284966,0.9922236068834983
2017-06-21,1,0.0006454736907826823,0.0007959222082040956,-0.005128668456271577,0.005518764516284966,0.9932907645037259
2017-06-23,1,0.0003708417255865103,0.00046442960052036535,-0.0028365007874357165,0.005518764516284966,0.9935689944291602
2017-06-27,1,0.00013214634952396338,0.00014097149424244454,-0.0052660940402319886,0.003899719895995175,0.9923878064130907
2017-06-29,1,0.001281489047323126,0.0014287757270859292,-0.0052660940402319886,0.003556133004684033,0.9937628513007194
2017-07-03,1,0.0016669616438600918,0.0018452093770590984,-0.0052660940402319886,0.003556133004684033,0.9940020153740825
2017-07-06,1,0.0018844815613284118,0.0021399684062053522,-0.006664460900991143,0.003556133004684033,0.9922450612201715
2017-07-10,1,0.002000983328247905,0.0022980719368453986,-0.006664460900991143,0.004277587290245642,0.991933260646424
2017-07-12,1,0.0016943756941079963,0.0019433845220038482,-0.006664460900991143,0.005125126569463033,0.991879778294177
2017-07-14,1,0.0015603654569968915,0.001782643741629929,-0.007408061009185119,0.005125126569463033,0.9906487406288154
2017-07-18,1,0.0013517904805794342,0.0015523111124646654,-0.005077019127603932,0.006210785207309706,0.990465463175146
2017-07-20,1,0.0010031885946248128,0.0011278480750517863,-0.005751668466248364,0.006210785207309706,0.9896691725298143
2017-07-24,1,0.0015222804035689977,0.001767573436685546,-0.007781228797291128,0.006210785207309706,0.9894178162345839
2017-07-26,1,0.0017088989950551164,0.0019964315173831345,-0.0052014083903059345,0.006210785207309706,0.9905589267030074
2017-07-28,1,0.0015776507679540076,0.0018003650157436485,-0.0052014083903059345,0.008605405728162815,0.9900153557076503
2017-08-01,1,0.001891713089443718,0.0021640891155752465,-0.008921900499968879,0.007936200574635037,0.9894013018156688
2017-08-03,1,0.0008174674748593494,0.0009651507342517732,-0.007611192622241283,0.007936200574635037,0.9907818116235051
2017-08-07,1,0.0011985179390489261,0.001379983942941588,-0.008921900499968879,0.007344749142167856,0.9901019892856976
2017-08-09,1,0.0009285133963403813,0.0010624984128643144,-0.009126648618116183,0.008769247425065045,0.9889266616872129
2017-08-11,-1,-0.0005010590198186095,-0.00040999637488497,-0.007611192622241283,0.00978377580703916,0.98956819569776
2017-08-15,1,0.00017823569404462896,0.00018738023712848277,-0.007611192622241283,0.00978377580703916,0.98957622220454
2017-08-17,-1,-0.000610501237882061,-0.0004907995292667449,-0.006432660613251855,0.00978377580703916,0.9901886470347459
2017-08-21,-1,-0.0005589073055670365,-0.0004665945434487503,-0.005207165436911755,0.010786825047048202,0.989622729362562
2017-08-23,-1,-7.244235751335985e-05,-5.662427615270517e-05,-0.005207165436911755,0.011664745282753717,0.9893844099994042
2017-08-25,1,0.00034023609021702797,0.00035795246049637755,-0.005207165436911755,0.010073645829106326,0.9901333888248836
2017-08-29,-1,-0.0004178489904621835,-0.00035346314253386984,0.002765598099197381,0.011790520854046131,0.9901087107517605
2017-08-31,-1,-0.0002913222097257852,-0.0002464467167231893,0.002765598099197381,0.012213567734360633,0.989644771966948
2017-09-05,-1,-0.00026912734711378777,-0.00020201523928362045,0.00351620601188434,0.011790520854046131,0.9907383391265797
2017-09-07,-1,-0.0006777930797179589,-0.0005593905289748402,0.0028921251962598683,0.010073645829106326,0.9920828876136271
2017-09-11,-1,-0.000452740915272582,-0.00033585720144704476,0.0021635287882508262,0.009190239598772666,0.9926845118149594
2017-09-13,1,0.0002849324918305644,0.000315140832087238,0.001623572640924162,0.0077749566687819694,0.9938004330128233
2017-09-15,1,0.0005464958833786176,0.0005834124012346327,0.0008094326710118103,0.0077749566687819694,0.9942832851627141
2017-09-19,1,0.0010152143501584044,0.001104333399051756,-0.0002836604473406107,0.006681852050067716,0.994791935490633
2017-09-21,1,0.0014758870244812776,0.0016165322729631074,-0.0002836604473406107,0.0064945846217677634,0.99537373066291
2017-09-25,1,0.0016577773813422076,0.0018243486165289478,-0.0002836604473406107,0.006140377587965731,0.9954162831953208
2017-09-27,1,0.0023002916843227576,0.002566217925376981,-0.0009919901317720285,0.005155319471846725,0.9955725125901642
2017-09-29,1,0.002163946506314494,0.002397440498981251,-0.0002836604473406107,0.004991354314496219,0.9964863743217031
2017-10-03,1,0.0020638576386455745,0.0022558511950909427,-0.0026264528383746905,0.003950290941736691,0.9957948508518059
2017-10-05,1,0.0021104453321368023,0.002311338452528548,-0.0026264528383746905,0.005474667527969302,0.9940972390308942
2017-10-09,1,0.0014419903072796637,0.0015006884839823134,-0.005465843485746882,0.005107281023030191,0.9930011204985818
2017-10-11,1,0.0014000032469911167,0.0014632775523219443,-0.0061997305051332795,0.005107281023030191,0.9920734188771715
2017-10-13,1,0.0012145913930268412,0.0012475043128266849,-0.007143649832220923,0.005107281023030191,0.9914158601956562
2017-10-17,1,0.0011140988221930957,0.0011491293472080354,-0.0061997305051332795,0.005107281023030191,0.9917125280887247
2017-10-19,1,0.001154179716461532,0.0011747934975048916,-0.0061997305051332795,0.0033624505991966397,0.9916073837471007
2017-10-23,1,0.0015450776666139467,0.0016474105907947493,-0.0061997305051332795,0.0028520999272038214,0.9915101590106619
2017-10-25,1,0.0014333688396920828,0.0014935581347918134,-0.0061997305051332795,0.0016404013269922654,0.9919771358007299
2017-10-27,1,0.0013615131161356388,0.0013876513346562022,-0.007143649832220923,0.0005335691132982831,0.9916305807764755
2017-10-31,1,0.0014901678813920751,0.0016072344101636235,-0.0061192978940382906,0.0030936188582800887,0.9904754240590614
2017-11-02,1,0.00271498144445359,0.0029957204426374773,-0.0061192978940382906,0.002180879205620454,0.9914415437989662
2017-11-06,1,0.0017129378187256674,0.0018552765843841347,-0.0061192978940382906,0.002180879205620454,0.9927351983738203
2017-11-08,1,0.001212266260780494,0.001308053538988402,-0.004221295981391893,0.0023474300227948825,0.9936304831918746
2017-11-10,1,0.00022292647868761876,0.00029591594644565893,-0.0030698413452618176,0.002473481958489966,0.9944709843194635
2017-11-14,0,-0.0001182832208163382,6.286262285464927e-06,-0.0035584219239314955,0.002473481958489966,0.9939235400959889
2017-11-16,-1,-0.00027038718863240405,-0.00014465804294454975,-0.005408130694787484,0.002473481958489966,0.9930043674506
2017-11-20,1,0.0005875087856100846,0.0006248518375095184,-0.007186611842062114,0.0023474300227948825,0.9926259321889527
2017-11-22,1,0.000663463691787815,0.000744196297160203,-0.007186611842062114,0.002473481958489966,0.9927310316833388
2017-11-27,1,0.00038314680621276995,0.00041168893781018054,-0.005624196034750373,0.002473481958489966,0.992945519406007
2017-11-29,1,0.0014935098252399615,0.0016724695192152942,-0.005624196034750373,0.001775287511565154,0.9944285268272837
2017-12-01,1,0.0015296885786693542,0.001699384263437298,-0.006846766657718955,0.0008141659467878256,0.9937519821688922
2017-12-05,1,0.0009615603360385413,0.0010466757989739338,-0.006226373101524618,0.0024261219114598835,0.9936081990737756
2017-12-07,1,0.0010927780105690658,0.0011717133287929744,-0.006226373101524618,0.002633367420468422,0.9937012043806901
