JNU-Tangyin/eata/results/Batch4_SP500/Batch4_SP500-USB.csv
Date,Action,Predicted_Q25,Predicted_Q75,Actual_Q25,Actual_Q75,RL_Reward
2010-12-14,0,0.0,0.0027105076331336783,-0.005427527463012457,0.004406727132380931,0.9937621551962983
2010-12-16,1,0.0027396294810832604,0.0031462066320316487,-0.0038769169006281027,0.004406727132380931,0.9925838284802844
2010-12-20,0,0.0,0.0,-0.005809443693037397,0.004308885223366872,0.9910069402993151
2010-12-22,1,0.0031742189264334967,0.003614054248782954,-0.005809443693037397,0.004308885223366872,0.9915861685932246
2010-12-27,0,0.0,0.0,-0.005809443693037397,0.0032191626816027333,0.9916502740210662
2010-12-29,0,0.0,0.0,-0.006154682035849324,0.006296294409388921,0.9910713218911508
2010-12-31,0,0.0,0.0,-0.006154682035849324,0.006956185092101252,0.9906317637885392
2011-01-04,1,0.001972681227006113,0.001999358752311827,-0.006386171633167949,0.008031477578921224,0.9893512268629022
2011-01-06,1,0.002713845928024276,0.0028595370768334733,-0.005945801354582715,0.008031477578921224,0.9902046397105804
2011-01-10,1,0.0026993591441199045,0.002866017412370061,-0.004821927491884571,0.01068676983815678,0.9897420811642383
2011-01-12,1,0.0024893303307185685,0.0025401172813326526,-0.005945801354582715,0.009679482548795589,0.9903858431734968
2011-01-14,0,0.0,0.0,-0.005945801354582715,0.010035077543138239,0.9901993642149814
2011-01-19,-1,-0.0004633359713582057,-0.00021536751430769523,-0.004821927491884571,0.010035077543138239,0.9916837720608169
2011-01-21,-1,-0.0004955656442261518,-0.00023283578123163182,-0.005945801354582715,0.009976795518754864,0.9916093538289377
2011-01-25,1,0.0004583615252886901,0.0006164471875697082,-0.0061991519511767415,0.009976795518754864,0.9901233049933716
2011-01-27,0,0.0,0.0,-0.0061991519511767415,0.0080120502374601,0.9909275823213586
2011-01-31,0,0.0,0.0,-0.0063886516654372075,0.008138099220971392,0.990131324312836
2011-02-02,0,0.0,0.0,-0.0063886516654372075,0.008138099220971392,0.9900603381670056
2011-02-04,0,0.0,0.0,-0.0073035008433059035,0.008138099220971392,0.9891499610188665
2011-02-08,0,0.0,0.0,-0.0073035008433059035,0.007196804394469356,0.9889342051250174
2011-02-10,1,0.0013894612485150335,0.0014198835831941569,-0.010428500311922797,0.007196804394469356,0.9882453558666318
2011-02-14,1,0.0009156687116371541,0.0010396786108714333,-0.010969746528274768,0.0017593740764658295,0.9887919417517761
2011-02-16,1,1.2598284673517022e-05,0.0002989985678259514,-0.013423873600079218,0.003114367149618386,0.9878764851700896
2011-02-18,-1,-0.0004025039944158435,-3.8169750380152336e-05,-0.012546925231155963,0.0032590258710787235,0.9882982961161876
2011-02-23,-1,-0.0025208692273068043,-0.0018824441202851716,-0.010136184188948379,0.0032590258710787235,0.9900512919502039
2011-02-25,-1,-0.0030008950808270755,-0.0022990694051411823,-0.010136184188948379,0.007910068286694247,0.9891734893022529
2011-03-01,-1,-0.003109501511105915,-0.0024924648815776466,-0.008629653411871867,0.007910068286694247,0.9902564974797841
2011-03-03,-1,-0.0021075370031361958,-0.0016043587190231446,-0.008483289899846827,0.0032633839422362195,0.9915233892915556
2011-03-07,-1,-0.0024764189247527065,-0.0020215460956862106,-0.006512899731317232,0.007910068286694247,0.9917692386571819
2011-03-09,-1,-0.0012753414449026975,-0.0009223639270783512,-0.006512899731317232,0.007910068286694247,0.9926608874305558
2011-03-11,-1,-0.0025241397698512,-0.0020388262354437423,-0.008483289899846827,0.007910068286694247,0.9927266473391282
2011-03-15,-1,-0.0037013777451088505,-0.00301473658328583,-0.005994308672575108,0.008770599354052524,0.992558316103211
2011-03-17,-1,-0.004033864481779288,-0.0033602795974505546,-0.00637548068704741,0.008770599354052524,0.9932419612520085
2011-03-21,-1,-0.0038657628071323688,-0.003231326667975587,-0.008483289899846827,0.0047861421696537496,0.9932273604785392
2011-03-23,-1,-0.0035828573383361964,-0.002999941978674109,-0.01012628725874584,0.0047861421696537496,0.9924051732151009
2011-03-25,-1,-0.0034768816031495826,-0.0028839824298950443,-0.01012628725874584,0.0017150415148035035,0.9927643298692832
2011-03-29,-1,-0.0038762045942645085,-0.0032532110450500754,-0.01012628725874584,0.004976970529506184,0.9918119017592782
2011-03-31,-1,-0.0014111007095696203,-0.0012767484310480107,-0.01012628725874584,0.009681413573282668,0.9909344219615701
2011-04-04,-1,-0.0017852887974017526,-0.001547678730236601,-0.01012628725874584,0.0063839069479955666,0.9911459168643443
2011-04-06,-1,-0.0007726161242348375,-0.000671540089644244,-0.012424342789415593,0.0038778016544104847,0.9906822111394435
2011-04-08,0,0.0,0.0,-0.010877830459531087,0.0038778016544104847,0.9915689302517556
2011-04-12,0,0.0,0.0,-0.012424342789415593,0.0038778016544104847,0.990472678473421
2011-04-14,-1,-0.0024386213297374953,-0.0020308012458328277,-0.012155836496014032,0.00518613858365477,0.9908601675627131
2011-04-18,-1,-0.003720783680890262,-0.0031024216695188945,-0.010877830459531087,0.007288264901137304,0.9903099349381237
2011-04-20,-1,-0.004888014099954579,-0.004122152889981894,-0.004337651225647417,0.007516199727871247,0.9901202147630618
2011-04-25,-1,-0.004915484311174834,-0.004128957859563201,-0.01052433013137731,0.005633714944108444,0.9898046719154389
2011-04-27,-1,-0.003064418695359104,-0.002577457144358436,-0.01052433013137731,0.00518613858365477,0.9911833928554008
2011-04-29,-1,-0.0029196176360951473,-0.0024285674678936648,-0.01052433013137731,0.00518613858365477,0.9907454585779867
2011-05-03,-1,-0.002383558833391213,-0.0020088894650215905,-0.0110953355115527,0.005633714944108444,0.9892752552084131
2011-05-05,-1,-0.002158464100765624,-0.001896531455769894,-0.008137541977774004,0.005633714944108444,0.9898120887735582
2011-05-09,-1,-0.0025492050056010484,-0.0021934551687925693,-0.011147545079749662,0.005633714944108444,0.9888965060650838
2011-05-11,-1,-0.0024264486953360148,-0.0021030328605653823,-0.010731706744530216,0.005633714944108444,0.9892938420938494
2011-05-13,-1,-0.0026926738091378848,-0.002333262463704783,-0.008137541977774004,0.005238963699485271,0.9899890283309156
2011-05-17,-1,-0.0007952923308423984,-0.0007165948896671259,-0.010731706744530216,0.005238963699485271,0.9900349381356764
2011-05-19,-1,-0.0006533583554015419,-0.0005997747307554513,-0.010731706744530216,0.007264721861909146,0.9894266675973123
2011-05-23,-1,-0.0019672420462701155,-0.001752638657205725,-0.004277662046921922,0.008106692831401958,0.9902563844321107
2011-05-25,-1,-0.001899566669427295,-0.0016916873170799529,-0.008154945167172991,0.008106692831401958,0.9897546851501959
2011-05-27,-1,-0.0011283081141879071,-0.0010002380887703913,-0.010818505174621884,0.008106692831401958,0.9888896996764892
2011-06-01,-1,-0.0025889595555733764,-0.0022650507342306843,-0.008154945167172991,0.009769218779900965,0.9891777842017824
2011-06-03,-1,-0.002458542616917439,-0.0021592586097070837,-0.007603949704545704,0.011726637945264398,0.9879696273516931
2011-06-07,-1,-0.0031597222466964213,-0.002805690631781754,-0.007638538566440411,0.011726637945264398,0.9877656773142157
2011-06-09,-1,-0.0013337850597748423,-0.0012422243751887374,-0.010634562346378523,0.011726637945264398,0.9882771487940312
2011-06-13,-1,-0.002158298759321289,-0.0019132898273197699,-0.011024850692036146,0.011726637945264398,0.9872264252746714
2011-06-15,-1,-0.0022274120672868447,-0.0020026617635410544,-0.011024850692036146,0.011726637945264398,0.9874497705314684
2011-06-17,-1,-0.0016972039075659384,-0.0015318582124733916,-0.011632014067424173,0.009787187592582836,0.9879796854319467
2011-06-21,-1,-0.001063673209820841,-0.0009900702160619047,-0.011632014067424173,0.014110249464222058,0.9850940127024226
2011-06-23,-1,-0.0014531702622985138,-0.0013316634562315233,-0.011632014067424173,0.019262142620150108,0.9839999485205422
2011-06-27,-1,-0.0005790225556928832,-0.0005780349338079004,-0.010737141278108667,0.014110249464222058,0.9856335184012586
2011-06-29,1,0.00026122432220906743,0.0003883100568337809,-0.011632014067424173,0.008491728953100505,0.986135293150235
2011-07-01,1,0.0017624660192806804,0.0021353000517172847,-0.011632014067424173,0.004316642117119801,0.9870431632404404
2011-07-06,1,0.0004960658409905832,0.0006770657696926837,-0.011036567858306262,0.004316642117119801,0.9869956297865874
2011-07-08,1,0.0010833572333293427,0.0013964624552021668,-0.017289733463975224,0.003290370439058172,0.985054381565141
2011-07-12,1,0.0007419870085973967,0.0010098326132056356,-0.017289733463975224,0.003988265382784956,0.9778928489811887
2011-07-14,1,0.00042801294461469546,0.000651475262749806,-0.01821568179298738,0.008525679286055955,0.9728640578071058
2011-07-18,-1,-0.00012074598256196073,-2.3829917426147046e-05,-0.020489546602750028,0.026740576625966742,0.9707241025185777
2011-07-20,1,0.0017151108966254013,0.0020417227183285873,-0.023763192088727167,0.005203537529391579,0.9718575012570171
2011-07-22,1,0.0019732792898014763,0.002311667681032151,-0.02614069396386886,0.0024674538095118483,0.9693137472545696
2011-07-26,1,0.0021404743233203872,0.0025418187978827563,-0.02614069396386886,0.005203537529391579,0.9664391068034335
2011-07-28,1,0.0013528550108500921,0.0016099971800486606,-0.02614069396386886,0.01693798208884839,0.9662986824716973
2011-08-01,1,0.0019455804723988376,0.002341636632218469,-0.02614069396386886,0.03357362641843881,0.9651568830546352
2011-08-03,1,0.0009056157232124687,0.001124365089399779,-0.02419905796859387,0.03357362641843881,0.9660615022233437
2011-08-05,-1,-0.000941461791313382,-0.0009105196426952895,-0.02419905796859387,0.03357362641843881,0.965529869526722
2011-08-09,1,3.236104171106715e-05,0.00010966060323444127,-0.023821753713629143,0.03357362641843881,0.969754437140246
2011-08-11,-1,-0.0012862265210438757,-0.0011989350692620075,-0.023821753713629143,0.01681663031125678,0.9737741883095471
2011-08-15,-1,-0.001043245225219334,-0.0009885944086886996,-0.023821753713629143,0.018755082781450882,0.9745077790192525
2011-08-17,-1,-0.0015081860673671905,-0.0014242607876795155,-0.017724260144209473,0.02478931756864635,0.9737955917105656
2011-08-19,-1,-0.004369828464294107,-0.003940172902926947,-0.009883554494284377,0.02478931756864635,0.9765257705609598
2011-08-23,-1,-0.0016435499227700418,-0.0015304272265510314,-0.010777036984240207,0.023215368887201132,0.9776804948493535
2011-08-25,-1,-0.0012755046168306935,-0.001220196373238811,-0.010777036984240207,0.017674057929572395,0.9788807525647465
2011-08-29,1,0.0002583444422868922,0.0004374151209231591,-0.01286196522968018,0.017674057929572395,0.9781765056218085
2011-08-31,-1,-0.0001656426932234989,-9.855649726010158e-05,-0.017724260144209473,0.023215368887201132,0.9755077007655625
2011-09-02,-1,-0.0021830689258304703,-0.002029626622772657,-0.018718707531637343,0.023215368887201132,0.9753900455173198
2011-09-07,-1,-0.00011553548068877787,-5.033527466721119e-05,-0.015847209411713487,0.02262965182493295,0.9779874588058264
2011-09-09,-1,-0.0020673548516222046,-0.0018788774801196673,-0.015847209411713487,0.023090211350491045,0.9772029119765878
2011-09-13,-1,-0.00070986743307431,-0.0006375536146846531,-0.02440332119693381,0.023090211350491045,0.9762466057280994
2011-09-15,1,0.0008081688870803555,0.0009381284269495495,-0.02440332119693381,0.022750956203006226,0.976179251553109
2011-09-19,1,0.0010387580716377113,0.0012432726382837545,-0.027734997519698247,0.022750956203006226,0.9739732347279165
2011-09-21,-1,-0.00031470650269556475,-0.0002669977953598501,-0.02440332119693381,0.026698642670573723,0.9741528557057322
2011-09-23,1,0.00043547422977819374,0.0005777466450950874,-0.02440332119693381,0.033662575094545164,0.9725546848017458
2011-09-27,1,0.0009355350206099974,0.0011011283898802984,-0.027734997519698247,0.025775435292701352,0.9738370935873297
2011-09-29,1,0.0015660619973914454,0.0018220588541936692,-0.02440332119693381,0.026785258260024234,0.9746694306123732
2011-10-03,-1,-0.0008135454220204262,-0.0007574854279092846,-0.01692011966685931,0.026785258260024234,0.9760676124154954
2011-10-05,1,0.0005497098400725077,0.0006489755765276232,-0.018555512098377074,0.029428435091000845,0.9744804487888395
2011-10-07,1,0.0005758637249373983,0.0007385085478383822,-0.01692011966685931,0.029428435091000845,0.976285896809934
2011-10-11,1,0.00114334807348171,0.0013780735896383965,-0.014948949321316886,0.026785258260024234,0.9785283665423375
2011-10-13,1,0.0012700984830816076,0.0014551471862969908,-0.014948949321316886,0.02237217370550936,0.9779562799535185
2011-10-17,1,0.0002972778327661853,0.0003546157450745105,-0.014948949321316886,0.02237217370550936,0.9791276493162058
2011-10-19,1,0.0012971806465550202,0.0015277977223939203,-0.009660641687169898,0.01942201401539491,0.9816525606190507
2011-10-21,1,0.002256204340129515,0.002554455625451142,-0.013954669349369148,0.014245135611667426,0.9829153124850636
2011-10-25,1,0.0014159123508846621,0.0016006957213116257,-0.013954669349369148,0.014245135611667426,0.9830276775580548
2011-10-27,1,0.0025290148202044304,0.0028025271209887116,-0.01711101175431632,0.011518596871029596,0.9831923259419838
2011-10-31,1,0.0019409994029242431,0.0021899202553591515,-0.014162088231966638,0.012300636297543292,0.983064179499464
2011-11-02,1,0.0017268301666765813,0.0019280201860256408,-0.009608644564268517,0.012300636297543292,0.9836005992857456
2011-11-04,0,0.0,0.0,-0.009608644564268517,0.012300636297543292,0.9835813898678689
2011-11-08,0,0.0,0.0,-0.009608644564268517,0.010494591957126077,0.9841011390591379
2011-11-10,0,0.0,0.0,-0.009608644564268517,0.010494591957126077,0.9846600418305639
2011-11-14,0,0.0,0.0,-0.01001218431876218,0.010168341584580413,0.9850676021998473
2011-11-16,0,0.0,0.0,-0.01001218431876218,0.010168341584580413,0.9851828414337875
2011-11-18,0,0.0,0.0,-0.01001218431876218,0.008937342418290717,0.9851367048734092
2011-11-22,0,0.0,0.0,-0.008743050554187701,0.010730957675411299,0.9843367594503697
2011-11-25,0,0.0,0.0,-0.0054592463341013465,0.013715762043742422,0.9853310917817114
2011-11-29,0,0.0,0.0,-0.008743050554187701,0.010730957675411299,0.9858590866340572
2011-12-01,0,0.0,0.0,-0.00924546176047112,0.010730957675411299,0.9876572739700763
2011-12-05,1,0.003855044013006289,0.004059363194947262,-0.00924546176047112,0.012679820622360194,0.9874712959975647
2011-12-07,1,0.0033721370697275843,0.003455036488793314,-0.00924546176047112,0.015059674442812497,0.9868298005197284
2011-12-09,1,0.003823118900903967,0.00404068157364967,-0.008454483125316185,0.015059674442812497,0.9886418019199258
2011-12-13,1,0.00535697848390943,0.006276294282725645,-0.0019089040936264541,0.015059674442812497,0.9900727865896107
2011-12-15,1,0.005307897361155906,0.006203938544013836,-0.006965920306641114,0.015059674442812497,0.9895882202552609
2011-12-19,0,0.0,0.0,-0.006965920306641114,0.015059674442812497,0.9878082080975027
2011-12-21,0,0.0,0.0,-0.008339775239521174,0.01242952712803988,0.989444007420927
2011-12-23,0,0.0,0.0,-0.008339775239521174,0.01098522709203955,0.9903542788124147
2011-12-28,0,0.0,0.0,-0.008339775239521174,0.01098522709203955,0.9899352844337984
2011-12-30,1,0.002829711741432729,0.00304869843021319,-0.003108010209058461,0.01026164719636087,0.9912362326852182
2012-01-04,1,0.0025623663538987345,0.0026768258497648933,-0.003108010209058461,0.01026164719636087,0.9915571098620537
2012-01-06,1,0.00274597881473058,0.00290558144649147,-0.001378412399266194,0.01026164719636087,0.9915843028177429
2012-01-10,0,0.0,0.0,-0.001378412399266194,0.009981495869419925,0.9909868245289123
2012-01-12,0,0.0,0.0,-0.008763073359043106,0.00810925766945699,0.9907849886585841
2012-01-17,0,0.0,0.0,-0.006801133740007569,0.006601221268229794,0.9911295754896221
2012-01-19,0,0.0,0.0,-0.006801133740007569,0.006601221268229794,0.9911384343094188
2012-01-23,0,0.0,0.0,-0.006585574487495999,0.007944154113476322,0.9910343166213074
2012-01-25,0,0.0,0.0,-0.00832416676051331,0.007944154113476322,0.9905328332136587
2012-01-27,-1,-0.0016070948188161372,-0.0012026793854347751,-0.008119485103022246,0.009449851096284847,0.9905434486404173
2012-01-31,-1,-0.0008366792759135279,-0.0005757607396796101,-0.008119485103022246,0.009449851096284847,0.9907241149500029
2012-02-02,-1,-0.0012650481186110352,-0.0009186153491575624,-0.009173299488970527,0.009449851096284847,0.9902034109496417
2012-02-06,-1,-0.0003890513455085128,-0.00020262603595807172,-0.01079609871237507,0.008234784973045774,0.9897784857513879
2012-02-08,1,0.000763674496582637,0.0007756297484623064,-0.01079609871237507,0.009342821691781017,0.9890166282324503
2012-02-10,1,0.00011123148029618612,0.0001903966991747988,-0.009387876185738973,0.009773833024324233,0.9891502909005013
2012-02-14,-1,-0.0005511747911739685,-0.00033256011285304427,-0.009387876185738973,0.015296735595490104,0.9868379397194452
2012-02-16,-1,-0.00019819876260268224,-3.8839603152797874e-05,-0.008119485103022246,0.011697244470580653,0.9878715637876407
2012-02-21,1,0.0003105061655522273,0.0003537685114392358,-0.005774327536371843,0.011697244470580653,0.988153869298495
2012-02-23,1,0.0003643028824371409,0.00040748405589663335,-0.005132981067519388,0.011697244470580653,0.9884369064662913
2012-02-27,1,1.7529302112379995e-05,0.00020908644976177007,-0.004794001497755248,0.011141586948605904,0.9887850122052049
2012-02-29,1,0.0004879583961077335,0.0005999758717140744,-0.005132981067519388,0.011141586948605904,0.9885490433304022
2012-03-02,1,0.00013033126396473475,0.00029204818345571676,-0.005132981067519388,0.011123138707900208,0.9891651120359831
2012-03-06,-1,-0.00043565586801852974,-0.00022800236470498175,-0.004015587226483329,0.011123138707900208,0.9903853826357751
2012-03-08,1,0.00037402269865655167,0.00047429070250994837,-0.004794001497755248,0.007394848861510295,0.9913011020774669
2012-03-12,1,0.0002525297416673552,0.0004117798492910332,-0.006163798399998113,0.006327670749284916,0.9907060599984028
2012-03-14,1,0.0018140348569204547,0.001868381810194953,-0.006163798399998113,0.006327670749284916,0.9918474293749693
2012-03-16,1,0.0022480913302295527,0.0024285378622331153,-0.008579829440276472,0.006842916377461175,0.9910675401411293
2012-03-20,1,0.0019263374589671596,0.002030073613494429,-0.008579829440276472,0.008940585746039075,0.9906382038543383
2012-03-22,1,0.0021945437543722654,0.0023782976906868924,-0.008579829440276472,0.008940585746039075,0.9911143614286295
2012-03-26,1,0.0021479861543128092,0.002293190752037169,-0.008579829440276472,0.00519392001912803,0.9912674222503348
2012-03-28,1,0.0020106388515551987,0.002162655182516772,-0.00806425881649147,0.009439691916622353,0.9915849094835697
2012-03-30,1,0.0019399708897724533,0.0020871818788346457,-0.007947281285363306,0.01083933019367517,0.9913171313239233
2012-04-03,1,0.002167663855173571,0.002381974370121059,-0.007947281285363306,0.01083933019367517,0.9910951978036714
2012-04-05,1,0.0016690853762851,0.0017931015022119158,-0.007947281285363306,0.01083933019367517,0.9908973659510225
2012-04-10,1,0.0005063577534000555,0.0005408640406380202,-0.007787733766813899,0.01083933019367517,0.9918165111137494
2012-04-12,1,0.0013268601948479134,0.0013893797338844535,-0.007787733766813899,0.00888079308560702,0.9925447842375905
2012-04-16,1,0.001004175149208458,0.001010471576842452,-0.007787733766813899,0.009621171108333935,0.9921646900801296
2012-04-18,1,0.0004442565181590913,0.0005542336213897583,-0.0078110845911477525,0.0063762482309967315,0.9923919029615447
2012-04-20,-1,-0.0004444640042410062,-0.0001872656084468973,-0.00829205382358531,0.0063762482309967315,0.9915513034282073
2012-04-24,0,-7.107886824776885e-05,0.0001509219579540525,-0.00829205382358531,0.009186308839158244,0.9910640856825866
2012-04-26,1,0.000990022835981831,0.0010868881878394678,-0.00829205382358531,0.006304545280641046,0.9914406175078267
2012-04-30,1,0.0010107224493592967,0.0010974487131151602,-0.00829205382358531,0.006289058830540491,0.9915725254707518
2012-05-02,1,0.0009937081548272355,0.0010566432131643073,-0.008460001624924777,0.009068146538500892,0.9908276268097658
2012-05-04,1,0.00026124225081208396,0.0004334544638798869,-0.012598574610677815,0.009068146538500892,0.9878016825840658
2012-05-08,-1,-0.0005494845750093079,-0.00022951807018587486,-0.012598574610677815,0.009977897498169455,0.9870583808210323
2012-05-10,-1,-0.00035970309187227255,-5.666615349892454e-05,-0.012598574610677815,0.009977897498169455,0.9868319635159659
2012-05-14,-1,-0.0013257609934912119,-0.0008679343754956195,-0.009278216564966222,0.012497044224253552,0.9867407295821604
2012-05-16,-1,-0.0010776118091633835,-0.0007251054254088043,-0.008830389328133795,0.014760408617263038,0.9865434604790255
2012-05-18,0,0.0,0.0,-0.004636482681863549,0.014883545961169822,0.9867112035385556
2012-05-22,0,0.0,0.0,-0.004636482681863549,0.014777788447424405,0.9874471645225036
2012-05-24,0,0.0,0.0,-0.0067287707870126645,0.015124272720668783,0.9861351296839316
2012-05-29,0,0.0,0.0,-0.009415594742787805,0.015124272720668783,0.985795321692283
2012-05-31,0,0.0,0.0,-0.00494061932231059,0.015124272720668783,0.9868798351745061
2012-06-04,0,0.0,0.0,-0.0019962726386070495,0.01587431457532469,0.9890415818943632
2012-06-06,0,0.0,0.0,-0.0027241064994883084,0.014966375716439266,0.9899298973362755
2012-06-08,0,0.0,0.0,-0.0036242936281693744,0.010211111337530634,0.990534097337819
2012-06-12,0,0.0,0.0,-0.002728665682746771,0.009507872194240744,0.9913743786392948
2012-06-14,0,0.0,0.0,-0.005135083386246226,0.009507872194240744,0.9907403876868395
2012-06-18,0,0.0,0.0,-0.005135083386246226,0.007887261805885408,0.9913615443288846
2012-06-20,0,0.0,0.0,-0.005135083386246226,0.010146501927879852,0.9905381923701837
2012-06-22,0,0.0,0.0,-0.005497159754542674,0.00891930632369347,0.991513614551115
2012-06-26,1,0.0005263223164635618,0.0006109780041582478,-0.005362353968553512,0.00891930632369347,0.9924661968936483
2012-06-28,1,0.0012076863185575492,0.001209944202843031,-0.005362353968553512,0.009624525389667737,0.991858641385626
2012-07-02,0,-7.078687061575037e-05,8.109926169268093e-05,-0.005512765111082962,0.0091482530623227,0.9925809412005351
2012-07-05,1,0.0007811463598819191,0.000831605390375024,-0.005512765111082962,0.0091482530623227,0.9922760323660792
2012-07-09,1,0.0009317831181400868,0.0009725868457522785,-0.005512765111082962,0.009624525389667737,0.9911596193883172
2012-07-11,1,0.0005603332935680712,0.0006419174779358928,-0.005512765111082962,0.0091482530623227,0.9917425796763688
2012-07-13,1,0.0013289924162338648,0.0013322506133430956,-0.005374347409835717,0.006142535355227621,0.9929963555321712
2012-07-17,1,0.0014116946357315987,0.0014265758033100101,-0.005374347409835717,0.005204809322075919,0.9928905194405913
2012-07-19,1,0.0012936287279263394,0.0012943126161421693,-0.005374347409835717,0.002801634817625344,0.9938810385186301
2012-07-23,1,0.001391086055094965,0.0014198516255529141,-0.005102089915875713,0.0037021498777596007,0.9942301047263794
2012-07-25,1,0.0002758606651409664,0.00042235830789370794,-0.005102089915875713,0.0037021498777596007,0.9942034757181393
2012-07-27,1,0.0002851206905249657,0.00046286540564481035,-0.005102089915875713,0.0027237353075099217,0.9944907273924355
2012-07-31,1,8.431795845720682e-05,0.00024718513815826177,-0.004397106609631253,0.0037021498777596007,0.9947421192707903
2012-08-02,-1,-0.00017764820250926075,-8.462608794719377e-06,-0.004015653774180264,0.00408754430957871,0.995005114098233
2012-08-06,1,0.0011606767448384585,0.0012787569648464827,-0.004015653774180264,0.0037021498777596007,0.9960784074975982
2012-08-08,1,0.0010478142213823484,0.0011316051454275135,-0.004015653774180264,0.00408754430957871,0.9949543145408695
2012-08-10,1,0.0015014223699088346,0.0016685249762267598,-0.004295135783751793,0.0038538457792324427,0.9948340987362745
2012-08-14,1,0.0009224351711007736,0.0009552477026184207,-0.004015653774180264,0.004617993184924878,0.9946651661904052
2012-08-16,0,0.0,0.0,-0.004015653774180264,0.005059045356332488,0.9934007387454424
2012-08-20,0,0.0,0.0,-0.004295135783751793,0.005059045356332488,0.9926833309220643
2012-08-22,0,0.0,0.0,-0.004295135783751793,0.005059045356332488,0.9925272144546231
2012-08-24,0,0.0,0.0,-0.004706155617210446,0.005059045356332488,0.992387668681994
2012-08-28,0,0.0,0.0,-0.005132206171694733,0.004716457237203481,0.9924724647679812
2012-08-30,0,0.0,0.0,-0.004556310942205301,0.0048368543802451034,0.9925556402494784
2012-09-04,0,0.0,0.0,-0.004556310942205301,0.0048368543802451034,0.992844821790028
2012-09-06,1,0.0013154148796314367,0.00141429770804347,-0.004556310942205301,0.006191025110857499,0.9926270611894845
2012-09-10,1,0.0009706481785637159,0.001012572266416847,-0.005132206171694733,0.006191025110857499,0.9922566289654616
2012-09-12,1,0.0010135540452386152,0.001060290803187023,-0.005132206171694733,0.0048368543802451034,0.992304616709438
2012-09-14,1,0.0018508315737546996,0.002022131306935858,-0.006082609082890833,0.004170580239674726,0.9919733141108135
2012-09-18,1,0.0015089021865186184,0.0016546462800343382,-0.0057036396398283725,0.004170580239674726,0.9929845889605162
2012-09-20,1,0.0013014759020217646,0.0014106034203435478,-0.005132206171694733,0.005932366521659086,0.9926886624820982
2012-09-24,1,0.0014305996759577128,0.0015504469729123648,-0.004952028806624646,0.004535750953479387,0.9929282936880278
2012-09-26,1,0.0008917605091644304,0.0009223879190989015,-0.006082609082890833,0.004535750953479387,0.9919442068587111
2012-09-28,1,0.001017542099500359,0.0010584441297517822,-0.006315434459109998,0.0012420249099376747,0.991294813609529
2012-10-02,1,0.0009471378622618018,0.0009805140057366415,-0.0062756211179864334,0.006586680055998268,0.9910811028241323
2012-10-04,1,0.001810014129745908,0.0019237154872437092,-0.007089014818015204,6.429730424042934e-06,0.9912924112966234
2012-10-08,1,0.0008040334127079955,0.0008430990865680333,-0.007339570488957063,0.002819404613953861,0.9899819213209231
2012-10-10,1,0.0002542294713124783,0.0003887902702430922,-0.007339570488957063,0.002819404613953861,0.990076706906954
2012-10-12,0,-0.00011460451873915382,3.179186949936642e-05,-0.007339570488957063,0.002819404613953861,0.9908809975238934
2012-10-16,-1,-0.0001506504048162105,-7.629081960686601e-06,-0.008970295624617297,0.002819404613953861,0.9902786088357928
2012-10-18,1,0.0005153295093607134,0.0005890114626899339,-0.008970295624617297,0.003998509941685317,0.9897907753220903
2012-10-22,1,0.0003679389064283562,0.00046346798297091724,-0.008970295624617297,0.006615495043823481,0.989662489633226
2012-10-24,-1,-0.0015820136386803553,-0.0011246774231290172,-0.0072934845727665185,0.010646784893079325,0.9906167733437267
2012-10-26,-1,-0.0009655382776310158,-0.0006520962283887339,-0.007286615252611444,0.009499210011809468,0.9905764090518621
2012-11-01,0,-0.00017788011492138702,1.93698385742892e-05,-0.007286615252611444,0.006232970083400196,0.9909048631860339
2012-11-05,-1,-0.0005155263570575604,-0.00030162657438569183,-0.0072560414729385524,0.006232970083400196,0.9905019105034047
2012-11-07,-1,-0.0012468178647358876,-0.000984905128807975,-0.006580250446003969,0.006232970083400196,0.9924600971018852
2012-11-09,-1,-0.0013177817218352,-0.001050810276203987,-0.006278575879095404,0.007209870868148395,0.9922956011054536
2012-11-13,-1,-0.00150894800146219,-0.0012318335427823146,-0.006154462380842037,0.007209870868148395,0.9925224752646896
2012-11-15,-1,-0.0019025811422874502,-0.001566090368861781,-0.006154462380842037,0.007209870868148395,0.9926032932219914
2012-11-19,-1,-0.0013000359022825045,-0.001015980493664042,-0.006154462380842037,0.007209870868148395,0.9921211611745047
2012-11-21,-1,-0.0013727664652957111,-0.0010977490778697524,-0.006231464215303235,0.007848586438262027,0.9917567169753222
2012-11-26,-1,-0.0005125486456939497,-0.00037844947340576825,-0.005666041479701261,0.006814634059795584,0.9924814150138055
2012-11-28,-1,-0.0005823400851442497,-0.0004252192044781908,-0.005666041479701261,0.0032961930872189467,0.9929706173305733
2012-11-30,-1,-0.0012535993940194987,-0.0010196652852840532,-0.006742057985529928,0.006814634059795584,0.9923730046355197
2012-12-04,-1,-0.0018613999018812005,-0.001589226206530549,-0.005898518082752191,0.0076417816856360985,0.9912626007098212
2012-12-06,0,0.0,0.0,-0.007837314828055173,0.0076417816856360985,0.9902183400439403
2012-12-10,0,0.0,0.0,-0.007837314828055173,0.008430097788711564,0.9902051681798715
2012-12-12,0,0.0,0.0,-0.007837314828055173,0.009604642669749155,0.989717089322845
2012-12-14,0,0.0,0.0,-0.006117470570045748,0.009604642669749155,0.9901201310209299
2012-12-18,0,0.0,0.0,-0.007837314828055173,0.0076417816856360985,0.9911634011574523
2012-12-20,0,0.0,0.0,-0.006117470570045748,0.0050180245363629335,0.9917286397939586
2012-12-24,0,0.0,0.0,-0.006117470570045748,0.0050180245363629335,0.9918828463878441
2012-12-27,0,0.0,0.0,-0.004540470174863842,0.0050180245363629335,0.9922359227429659
2012-12-31,0,0.0,0.0,-0.004540470174863842,0.004172191694668534,0.9926447239405369
2013-01-03,0,0.0,0.0,-0.003970049255128746,0.004172191694668534,0.994418035512555
2013-01-07,0,0.0,0.0,-0.003970049255128746,0.004172191694668534,0.9950383810862108
2013-01-09,-1,-0.0010996113588941266,-0.0010110585533317329,-0.003970049255128746,0.004172191694668534,0.994667800255679
2013-01-11,-1,-0.0005257642129685269,-0.0005190959986438767,-0.0025385701737421474,0.004172191694668534,0.9945906631186561
2013-01-15,-1,-0.000757362849831675,-0.0007276184773398817,-0.0025385701737421474,0.004907266693751982,0.9939429315141991
2013-01-17,-1,-0.00044745798380973567,-0.0003799156478700225,-0.0014259472789364437,0.004907266693751982,0.9945858247988382
2013-01-22,-1,-0.00010377859566331673,-8.307362706484755e-05,-0.0021504500642399835,0.0050494535353760705,0.9944819981636259
2013-01-24,1,0.0001644143685495563,0.000192764821224919,-0.0023560927079913693,0.0050494535353760705,0.9944189979018544
2013-01-28,1,0.00021631658762517685,0.00025054777193575344,-0.0031976427268481196,0.005481755789210778,0.9930634808603694
2013-01-30,1,9.677012535853651e-05,0.00010505745594398909,-0.0023560927079913693,0.006615813327437876,0.9931333607839403
2013-02-01,1,0.0007649627212606002,0.0009093842424094149,-0.0023560927079913693,0.006615813327437876,0.9934278032876436
2013-02-05,0,0.0,0.0,-0.0023560927079913693,0.006615813327437876,0.9933164202454712
2013-02-07,0,0.0,0.0,-0.0023560927079913693,0.006615813327437876,0.9934188863064387
2013-02-11,0,0.0,0.0,-0.0023560927079913693,0.005557300892755811,0.9938662723933932
2013-02-13,0,0.0,0.0,-0.00264609097204484,0.005074635236557748,0.9943287145381342
2013-02-15,0,0.0,0.0,-0.002846142951247955,0.005074635236557748,0.9941702746543044
2013-02-20,1,0.0010653586128078802,0.0012595994841056242,-0.002846142951247955,0.004837829391259132,0.994416331514272
2013-02-22,1,0.0010679030902265242,0.001245555629658918,-0.003789732896029704,0.004837829391259132,0.9940439484328876
2013-02-26,1,0.0012053588010514744,0.0014190236437746774,-0.002846142951247955,0.003408500506570754,0.9953384137143052
2013-02-28,1,0.0011264093811918755,0.001317334157093935,-0.002846142951247955,0.003408500506570754,0.9955380487046215
2013-03-04,1,0.0019799730444480692,0.0023456397397530904,-0.002846142951247955,0.003043141433377042,0.9957159985498447
2013-03-06,1,0.0012985767348267323,0.0015440079473473829,-0.002846142951247955,0.0035408761452560746,0.9958507884588498
2013-03-08,1,0.0015646126602125708,0.0018394425755150923,-0.003789732896029704,0.0035408761452560746,0.9952500379825023
2013-03-12,1,0.0012942322650827517,0.0014929870418680978,-0.003789732896029704,0.0035408761452560746,0.9948676298141849
2013-03-14,1,0.0010603810451058717,0.0012245758985233687,-0.002849719112743787,0.0035408761452560746,0.9951198838400678
2013-03-18,1,0.0015387909736306483,0.0018063729276625163,-0.0067553609382447755,0.003043141433377042,0.9933212991468061
2013-03-20,1,0.0012918155500197298,0.0015201249477939938,-0.010593291694873023,0.003043141433377042,0.9929634719828342
2013-03-22,1,0.0005301455986375188,0.0006002881858632592,-0.005229356045029415,0.0035408761452560746,0.9932027875705332
2013-03-26,1,0.0006391904857160966,0.0007249800472783095,-0.005229356045029415,0.005635998501932386,0.9923724080883849
2013-03-28,1,0.0011372167945050147,0.001320862555040193,-0.006650644270011995,0.005479201361927324,0.9921623529177337
2013-04-02,1,0.0009786400857481018,0.0011081389738023027,-0.006650644270011995,0.005481386685573438,0.9920419765292626
2013-04-04,1,0.00037234069978593534,0.00037996040162660685,-0.007855333327800917,0.005481386685573438,0.991875363335421
2013-04-08,0,0.0,0.0,-0.005805354606017787,0.005080030249664273,0.9926432671853098
2013-04-10,0,0.0,0.0,-0.005805354606017787,0.005530343949616808,0.9927174749499956
2013-04-12,0,0.0,0.0,-0.005805354606017787,0.005530343949616808,0.9926089560570569
2013-04-16,0,0.0,0.0,-0.0017720205204580272,0.006233112606281169,0.9940083377877137
2013-04-18,0,0.0,0.0,-0.0006684505859890979,0.007554187294851451,0.9939903813755995
2013-04-22,0,0.0,0.0,-0.0003753594291288243,0.010164293856095992,0.9932453318386693
2013-04-24,0,0.0,0.0,-0.0003753594291288243,0.006350117987123956,0.9939370126484129
2013-04-26,0,0.0,0.0,-0.0003753594291288243,0.006350117987123956,0.9939663985430844
2013-04-30,0,0.0,0.0,-0.0006684505859890979,0.006350117987123956,0.9937466136773969
2013-05-02,0,0.0,0.0,7.389142011222336e-05,0.006350117987123956,0.9938574050546998
2013-05-06,-1,-0.003222327966704523,-0.0031234363257058658,-0.0003627091576343821,0.00646858001465829,0.9920258064441244
2013-05-08,0,0.0,0.0,-0.0006684505859890979,0.007115397642963268,0.9938029195302432
2013-05-10,0,0.0,0.0,-0.001715390296706548,0.010511477458957275,0.9930306076414553
2013-05-14,0,0.0,0.0,-0.004445015391273942,0.007115397642963268,0.9933561478917273
2013-05-16,0,0.0,0.0,-0.005270409052650095,0.00574304493612853,0.9933446342430815
2013-05-20,0,0.0,0.0,-0.005270409052650095,0.005461173392442823,0.99403930658092
2013-05-22,0,0.0,0.0,-0.005270409052650095,0.005461173392442823,0.9939701960633004
2013-05-24,0,0.0,0.0,-0.00527254191382757,0.00574304493612853,0.9934778617307509
2013-05-29,0,0.0,0.0,-0.00505831995636846,0.0060632676675279416,0.9931700547210847
2013-05-31,0,0.0,0.0,-0.004659024336625702,0.0060632676675279416,0.9938001426361961
2013-06-04,0,0.0,0.0,-0.004659024336625702,0.005954492882288438,0.9938777686968039
2013-06-06,0,0.0,0.0,-0.003902155752677104,0.005954492882288438,0.994124880120973
2013-06-10,0,0.0,0.0,-0.0011353073776485243,0.006332410094059127,0.9944851755728987
2013-06-12,0,0.0,0.0,-0.0011321844692140275,0.006332410094059127,0.9943507935431802
2013-06-14,0,0.0,0.0,-0.0011321844692140275,0.006830592436995853,0.9941732785820798
2013-06-18,0,0.0,0.0,-0.00431794234283332,0.006830592436995853,0.993646566675336
2013-06-20,0,0.0,0.0,-0.0012707799992660994,0.008162271675860136,0.9933560267454725
2013-06-24,0,0.0,0.0,-0.0002761474907466274,0.006830592436995853,0.9939535882467105
2013-06-26,0,0.0,0.0,-0.0007393760168027943,0.006002948927489146,0.994630206011053
2013-06-28,1,0.0012855275783538326,0.001383304875899795,-0.0015316964346502948,0.005463495574541009,0.9950745760849428
2013-07-02,1,0.0014565142525714645,0.0015972804989283782,-0.0026604655774346004,0.005820546352642902,0.9945782600375371
2013-07-05,1,0.0019076132775791487,0.0021297970427690883,-0.0026604655774346004,0.005820546352642902,0.9947598022282722
2013-07-09,1,0.0020770750599802077,0.002307576168534447,-0.0036456208128199568,0.005096660563309482,0.9948565605950522
2013-07-11,1,0.0018693053529782692,0.0020705424641313196,-0.0036456208128199568,0.005096660563309482,0.9945414619750662
2013-07-15,1,0.002019187929673795,0.0022342458963714577,-0.0037883082993215673,0.004093579932852256,0.9949722948208427
2013-07-17,1,0.0013597963594381116,0.0014875284332579357,-0.0024594940050360796,0.004093579932852256,0.9957540881459356
2013-07-19,1,0.001664304561203988,0.0018236522994931911,-0.003526624813271175,0.0031312686630353415,0.9957922028642483
2013-07-23,1,0.0018748729451009858,0.0020684657775374613,-0.0040342350178707844,0.0031312686630353415,0.9953162056127145
2013-07-25,1,0.0018840847876675142,0.0020945060446808388,-0.0040342350178707844,0.00384164742482377,0.9947120857329029
2013-07-29,1,0.0016336373845823341,0.0017736243436217165,-0.004966917152294253,0.00384164742482377,0.9940970405707372
2013-07-31,1,0.0018945121004368885,0.0021074459798834954,-0.004966917152294253,0.0031312686630353415,0.9935290160169293
2013-08-02,1,0.002240271238279201,0.0025014936660255533,-0.004966917152294253,0.00013846896583780724,0.9935299753375818
2013-08-06,1,0.001864553481817445,0.002056523551507199,-0.004966917152294253,0.0009007070372692832,0.9939595623383518
2013-08-08,1,0.001633224310131155,0.0017936979630973461,-0.004966917152294253,0.0009007070372692832,0.9937046179370939
2013-08-12,1,0.0012755953902235885,0.0013733331908374552,-0.004437211494512918,0.002475737985994959,0.99352560607057
2013-08-14,1,0.0008270285435412774,0.0008401402469586979,-0.004437211494512918,0.0043544869717756715,0.9937219076037398
2013-08-16,1,0.0007619189633122125,0.0007673126211294695,-0.002632567544834857,0.00592242852298607,0.9934294911699179
2013-08-20,1,0.0007391240546086158,0.0007544023907130626,-0.001987851276282413,0.007624473711756364,0.9936469997257411
2013-08-22,1,0.0012351106807307571,0.0013215335033050601,-0.0024632012743468477,0.005715682684495327,0.9941371716842662
2013-08-26,1,0.0005436382405195034,0.0005666212148258605,-0.00360491245418282,0.005715682684495327,0.9936358846891684
2013-08-28,-1,-0.00047259971002029097,-0.00031959689482589687,-0.0038738462830037526,0.005715682684495327,0.9942933713202138
2013-08-30,-1,-0.00019836831450451042,-0.00010232897638513876,-0.0038738462830037526,0.005715682684495327,0.9941686239934366
2013-09-04,-1,-0.0003421698313552232,-0.00022117208672422129,-0.004580932388645993,0.005715682684495327,0.9937670439061164
2013-09-06,-1,-0.000940553643357198,-0.0006824797209103,-0.0038738462830037526,0.005715682684495327,0.9945054779975532
2013-09-10,-1,-0.001142448890411304,-0.0008313871193398513,-0.006667762507451018,0.004079369519154215,0.9940989882005962
2013-09-12,-1,-0.0010056068811414784,-0.0007155539182227149,-0.006667762507451018,0.007292909365025974,0.9925994466926481
2013-09-16,0,-6.986267465979989e-05,7.394556260103912e-05,-0.006667762507451018,0.0035934662265817326,0.9930557932889164
2013-09-18,1,8.601200550019476e-05,0.00021657413434284021,-0.008230865916453537,0.0035934662265817326,0.9925880526959933
2013-09-20,1,4.4423353258536225e-05,0.00017842511516793895,-0.008230865916453537,0.006597744002930603,0.9920620223947725
2013-09-24,-1,-0.0014536307572493806,-0.001103635832920728,-0.004341767406002898,0.006597744002930603,0.9929065134545462
2013-09-26,-1,-0.0017408562370085055,-0.0013691314421187878,-0.0029578888119647386,0.006597744002930603,0.9929388833127217
2013-09-30,-1,-0.0015342859883561637,-0.0012060122124118399,-0.0029578888119647386,0.006597744002930603,0.9930636022263294
2013-10-02,-1,-0.0017291907666642545,-0.0013829058125734836,-0.001978874536451352,0.006597744002930603,0.9934396495784613
2013-10-04,-1,-0.001351802599755071,-0.001066464338080419,-0.0029578888119647386,0.004361393354070644,0.9934166507537655
2013-10-08,-1,-0.002041094003430536,-0.001696040669339767,-0.001850475974971231,0.005004210079132337,0.9937388129326391
2013-10-10,-1,-0.00035460459868241566,-0.0002460594538719041,-0.001978874536451352,0.003906340045117642,0.9951215720619556
2013-10-14,0,-4.394448755944545e-05,2.0614210411420346e-05,-0.002692191305464859,0.005004210079132337,0.9945227381824088
2013-10-16,0,-1.6542230620032272e-05,4.380731781677882e-05,-0.002692191305464859,0.005004210079132337,0.994806124404418
2013-10-18,1,0.0005338706121780282,0.0005378448348714399,-0.002692191305464859,0.003906340045117642,0.9953507463388219
2013-10-22,1,0.0004276136899810028,0.000460497233205764,-0.002692191305464859,0.005071012866670492,0.9951272332363157
2013-10-24,1,0.00019669187445262764,0.00024944938417984126,-0.001850475974971231,0.005071012866670492,0.9952471464930979
2013-10-28,1,0.00013984691249497718,0.00019354229910303395,-0.00026190322748490723,0.006646231222951641,0.9949249766607735
2013-10-30,1,0.00019573180374292967,0.00023338310919059503,0.0004584568812360471,0.006646231222951641,0.994968259919636
2013-11-01,-1,-0.00035214503527333904,-0.0002390197195437747,0.00032779502255847817,0.006646231222951641,0.9950771166920191
2013-11-05,-1,-0.00036343018473444284,-0.00022962381991802847,-0.0010171736119277824,0.006716001522573166,0.9940300893599265
2013-11-07,-1,-0.0004124603082794043,-0.00028949029977485673,-0.0010171736119277824,0.006916928866872635,0.9930764337180595
2013-11-11,-1,-0.00023283662207355428,-0.00011475372831907648,-0.0010171736119277824,0.006716001522573166,0.993647242544207
2013-11-13,0,-4.805015497767734e-05,4.018721514909807e-05,-0.0010171736119277824,0.004742562844188032,0.9936234063553235
2013-11-15,1,0.0004775722275167927,0.00048072011798492805,-0.0033705646393904693,0.004742562844188032,0.9935254068922007
2013-11-19,1,0.0008055094438814701,0.0008554270902510949,-0.004329157268489615,0.004742562844188032,0.9924352731993735
2013-11-21,1,0.0008961846318630837,0.000967482959528188,-0.004329157268489615,0.004742562844188032,0.9924523550951792
2013-11-25,1,0.001286362069755015,0.0014294950393100897,-0.004329157268489615,0.005121896543474352,0.9922575864410061
2013-11-27,1,0.0015644502879272125,0.0017676815284627181,-0.004427032494133014,0.005121896543474352,0.9918529855583785
2013-12-02,1,0.0013559910647369358,0.0015228829481686009,-0.004427032494133014,0.005121896543474352,0.991918126873484
2013-12-04,1,0.0012692435132527742,0.0014401954454455767,-0.004427032494133014,0.004139209868914403,0.9925770268632421
2013-12-06,1,0.0014345865315395835,0.0015898399153886312,-0.0036040380069406307,0.005244456196840115,0.9934719399774619
2013-12-10,1,0.0014066384988951478,0.0015806273614909134,-0.002750640143388584,0.006611283090265497,0.993631979566214
2013-12-12,1,0.0013153235464828167,0.0014886261303448784,-0.0036040380069406307,0.006611283090265497,0.9934923135833738
2013-12-16,1,0.0013729719150785088,0.001548551745665086,-0.0027832652186030498,0.006657266817284715,0.993348003467817
2013-12-18,1,0.0018558726171499793,0.002094856967013509,-0.0021147387208687203,0.004717378486755293,0.9947671896508824
2013-12-20,1,0.0016828577929103063,0.0018888862455142168,-0.002699556981286781,0.004717378486755293,0.994690207608864
2013-12-24,1,0.0022674863341474714,0.002568979435172441,-0.004239146259082618,0.003997274402665275,0.9934387715911975
2013-12-27,1,0.001958119481535913,0.0022085112401927336,-0.003988021547133811,0.004717378486755293,0.9931932788316858
2013-12-31,1,0.0017569518205860356,0.0019662233249305864,-0.006323303897759894,0.006657266817284715,0.9920590817195548
2014-01-03,1,0.001313467291270757,0.0014541417922058863,-0.008235715314774654,0.006657266817284715,0.9910635416631823
2014-01-07,1,0.0017552676070592696,0.0019425335885517791,-0.008235715314774654,0.004452883367140403,0.9915005899452256
2014-01-09,1,0.0019411372712098798,0.0021462376288313417,-0.008235715314774654,0.005706873763162865,0.9908484303694971
2014-01-13,1,0.0014431783928027292,0.0015760621155387487,-0.004955515845785552,0.00605702052837581,0.991528923515993
2014-01-15,1,0.0020055830319719147,0.0022348132749178415,-0.004955515845785552,0.004889351111005845,0.9919812688670718
2014-01-17,1,0.001663738601610384,0.0018240655493566764,-0.004955515845785552,0.00605702052837581,0.9915767379189685
2014-01-22,1,0.001255093297150034,0.0013198668451299444,-0.010851531767689894,0.008645776785849529,0.990465522775686
2014-01-24,1,0.0002484588215027093,0.00031173438695350345,-0.0021097626686701174,0.00910614378115354,0.9914866900131891
2014-01-28,1,0.0004471368644862839,0.0004908132357037956,-0.0014149796052363086,0.008645776785849529,0.9920909557302232
2014-01-30,1,0.0002086483886404892,0.0002671796921378003,-0.0003064429758416228,0.00605702052837581,0.9932192592893514
2014-02-03,-1,-0.000745985746527879,-0.0005847092115196262,0.0,0.008697578878145564,0.992918167628695
2014-02-05,-1,-0.00047995277452478775,-0.00035426689190606853,0.0003621521966651148,0.006245010921674504,0.9931991342727152
2014-02-07,1,0.00040722636667179385,0.00040798642997060816,0.0003621521966651148,0.006245010921674504,0.9938979390159685
2014-02-11,1,0.0006541308273881898,0.0006992059627650765,-0.0003064429758416228,0.006116115786637649,0.9936810592864429
2014-02-13,1,0.0006035937819828603,0.0006394125587644364,-0.0018785606090882174,0.006116115786637649,0.9931344848496247
2014-02-18,1,0.0004505495400055503,0.000472370323987046,-0.0009592316815633489,0.00938896435691253,0.9928795705466976
2014-02-20,0,-8.689450357915094e-05,1.3360996577361508e-05,-0.00017700483864244312,0.009856078524452371,0.9934347794090617
2014-02-24,1,0.00017948248573407353,0.0002534692673422436,-0.00017700483864244312,0.007672913979844681,0.9936366744784451
2014-02-26,1,0.0001041349004511973,0.00019777730180632277,-0.0014902461974906783,0.007672913979844681,0.9931313206805252
2014-02-28,1,0.00022585848822503527,0.00030277434513174427,-0.005179934735954429,0.007672913979844681,0.9925568951383708
2014-03-04,0,-0.00014446771624995183,2.16277948097867e-05,-0.0014902461974906783,0.007672913979844681,0.9932092715310896
2014-03-06,1,0.0005293296572083632,0.0005688176404414725,-0.0014902461974906783,0.007672913979844681,0.9935128736296127
2014-03-10,1,0.0010376997238888477,0.0010647000599298634,-0.009223180158579211,0.004067031427917109,0.9930889525982317
2014-03-12,1,0.0007721738725086256,0.0007814581391138197,-0.006066444736083498,0.005691637075101308,0.9931637103345196
2014-03-14,1,0.0006236762963468074,0.0006305603030814916,-0.007696972851226723,0.005691637075101308,0.9920247066870361
2014-03-18,1,0.0011811882312098465,0.0012522008531751182,-0.007696972851226723,0.0035909557861344946,0.9924617565181504
2014-03-20,1,0.0013844886901336975,0.0014612272105698166,-0.011072742304313224,0.002856172350547045,0.9920904826622984
2014-03-24,1,0.0015403982323736118,0.0016307104340903943,-0.011072742304313224,0.0030823270522240616,0.9920702278957091
2014-03-26,1,0.0011315843583080713,0.001161704301932939,-0.008043894567196069,0.003738468935531163,0.9920710846269389
2014-03-28,1,0.00029108367126220205,0.0003837460221797058,-0.007957127952165114,0.003738468935531163,0.9922990382735553
2014-04-01,1,0.000874973282369737,0.0008901032661893007,-0.007957127952165114,0.005198250838524128,0.9922492352275126
2014-04-03,1,0.000633782908477164,0.0006889424438822151,-0.010184986652560913,0.005198250838524128,0.9918581895156208
2014-04-07,0,-6.547052403728783e-05,5.316399317117671e-05,-0.007166735893732405,0.005198250838524128,0.9927096464808777
2014-04-09,-1,-0.00012562199484719868,-2.112463346179102e-06,-0.007166735893732405,0.005491859396059888,0.9926791806576563
2014-04-11,-1,-0.0012665504229675958,-0.0010192829878112831,-0.005847983219641736,0.005491859396059888,0.9941372825313128
2014-04-15,-1,-0.0007305826988105359,-0.0005591802132396617,-0.005847983219641736,0.0037164341692850515,0.9945681560835313
2014-04-17,-1,-0.0013125055618681681,-0.0010794224311618922,-0.0034583312940298346,0.005512058862482687,0.9945717832802571
2014-04-22,-1,-0.0008529887592366671,-0.0006865619149684446,-0.004656905958649202,0.005747829296013179,0.9943579521488554
2014-04-24,-1,-0.0008144641219142109,-0.0006571575391320029,-0.0034583312940298346,0.005182949227752283,0.9946863054102714
2014-04-28,-1,-0.001325398044862633,-0.0011017094297064885,-0.000989251029095561,0.005651462305851528,0.9944725509901814
2014-04-30,-1,-0.0009964494566231412,-0.0007984647741323961,-0.000989251029095561,0.005639287066681849,0.9950363746542724
2014-05-02,-1,-0.0010383753892258406,-0.0008618973618341416,-0.00023973924504233396,0.005639287066681849,0.9952432667138226
2014-05-06,-1,-0.001409756432978449,-0.0011785052706383792,-5.924580385543341e-05,0.005639287066681849,0.9951429905954471
2014-05-08,-1,-0.001390232060178337,-0.0011514400004609417,0.001066880740698804,0.005639287066681849,0.994951614998659
2014-05-12,-1,-0.001249954597892915,-0.0010328733059819092,0.001066880740698804,0.006959877423371829,0.9943728019683441
2014-05-14,-1,-0.0010312280736142494,-0.0008683128440473741,0.0005234780063351667,0.006959877423371829,0.9943623573842406
2014-05-16,-1,-0.0005908706381727649,-0.00047523601746521274,-5.924580385543341e-05,0.004648837417562718,0.9949328719333991
2014-05-20,-1,-9.488924061815282e-05,-6.154841888293119e-05,0.0005234780063351667,0.00521479636658898,0.9953508976144426
2014-05-22,0,-6.5121908754674175e-06,2.780346556850465e-05,-5.924580385543341e-05,0.006959877423371829,0.9951341673687581
2014-05-27,1,0.00031139327747691826,0.00031497051545625713,-0.0004662387365418286,0.00521479636658898,0.9949742867401767
2014-05-29,1,0.00033422805412291264,0.00034622780494151053,-0.0019569482804785735,0.004014391131097917,0.9949191553143043
2014-06-02,1,0.0008374832788441034,0.0009339178676464003,-0.0019569482804785735,0.005219622025211119,0.994914759208337
2014-06-04,1,0.0011385461740084446,0.0012948379740801213,-0.002648899640191332,0.005219622025211119,0.9948975211629386
2014-06-06,1,0.0012503467116343609,0.0013909419349517815,-0.002984090726173162,0.005219622025211119,0.9948384127289331
2014-06-10,1,0.0018870893218359262,0.00214655321391897,-0.0035600850049158036,0.0044587076290523615,0.9950697074864343
2014-06-12,1,0.001551527105690279,0.0017622782268046553,-0.0035063081720033825,0.0044587076290523615,0.9953050927932368
2014-06-16,1,0.0013142932718651881,0.0014916438825078302,-0.0026453158694195083,0.004929671078555532,0.9953426875353865
2014-06-18,1,0.0011669271571751764,0.0012529304886299978,-0.006508423838441258,0.0024919490662764394,0.9937762288655785
2014-06-20,1,0.0015713774887710493,0.0017303846190395316,-0.006508423838441258,0.0024919490662764394,0.9935539977024958
2014-06-24,1,0.000981595137949632,0.0010330364056721113,-0.0038716700977772145,0.004542015488513845,0.9940365050242719
2014-06-26,0,-0.00015254392123533253,7.99304489547116e-06,-0.0026453158694195083,0.005179594656939981,0.9942124739464313
2014-06-30,1,0.0001756618601358049,0.0002857587091452453,-0.003310641709996065,0.004542015488513845,0.9943170139580986
2014-07-02,1,0.0005490119051156003,0.000571622337075734,-0.004771561842185389,0.005179594656939981,0.9930728961837034
2014-07-07,1,0.0008104821595617587,0.0008331368788476205,-0.006508423838441258,0.005179594656939981,0.9923943669897517
2014-07-09,1,0.0006228661908377143,0.0006282513044396055,-0.007662798580229227,0.005179594656939981,0.9922054249715943
2014-07-11,1,0.0006146700400257901,0.0006311920560506676,-0.010124664617155131,0.005945135015604804,0.9915366305364038
2014-07-15,1,0.00040490474871189005,0.00043787104320129784,-0.010124664617155131,0.005317528640476427,0.9914912696080393
2014-07-17,-1,-0.0010056261802459106,-0.0008296027094664132,-0.004493507297412851,0.005941726387851841,0.9927962305781735
2014-07-21,-1,-0.00043492084624507693,-0.0003325270747150705,-0.005989982848565015,0.005941726387851841,0.9926582078308156
2014-07-23,0,-4.052545595769041e-05,8.394867287638897e-06,-0.005989982848565015,0.005941726387851841,0.992808563403055
2014-07-25,1,0.00035458684713759103,0.0003638289079780608,-0.005989982848565015,0.005993636044661314,0.9923724109210288
2014-07-29,1,0.0003331557811211661,0.0003510433669455707,-0.005989982848565015,0.005993636044661314,0.9922545850742813
2014-07-31,1,0.0001245631156277363,0.0001525183481652435,-0.005049337787160544,0.0053764532545610465,0.9931640429372905
2014-08-04,-1,-0.0003777085723976366,-0.00033166755686384974,-0.004082183468347162,0.005231517208329365,0.9940840633472695
2014-08-06,-1,-0.001261399028204187,-0.0010861549781861347,-0.0036095801663876097,0.005231517208329365,0.9943005695442413
2014-08-08,-1,-0.0006312328144240575,-0.0005705858956835178,-0.0033753037912298135,0.004969763695492695,0.9952607053615672
2014-08-12,-1,-0.0002901211722489712,-0.00028514959418517264,-0.0033753037912298135,0.005231517208329365,0.9949770719619897
2014-08-14,1,0.0003277157810020409,0.00043788636531571194,-0.0033753037912298135,0.005231517208329365,0.9951395786370949
2014-08-18,1,0.0002952118871075108,0.00038158019865862445,-0.003159705320703451,0.004328934685953733,0.9958609189914142
2014-08-20,1,2.3679474631548333e-05,4.321843063214809e-05,-0.0027825160150321544,0.005368107037946468,0.9953567690672915
2014-08-22,1,0.0006162954360601108,0.0007493599492749197,-0.0027825160150321544,0.005231517208329365,0.9957669311520051
2014-08-26,1,0.0009657388681906719,0.0011472684062558201,-0.0033753037912298135,0.004793593707328143,0.9955479849605129
2014-08-28,1,0.00022539424370258298,0.0002577998990743669,-0.0028402987845233462,0.004793593707328143,0.9951468153667549
2014-09-02,1,0.0003931868093702867,0.0004478596678425386,-0.003394914276774317,0.004183278896664129,0.9951270665783704
2014-09-04,-1,-0.00043468505849434796,-0.0003206615551268695,-0.0037221803907354837,0.004183278896664129,0.9947681257836163
2014-09-08,-1,-0.0003894262699457981,-0.0003018787015935919,-0.0037221803907354837,0.004928271270680427,0.9943588231721856
2014-09-10,-1,-0.0009554291881500023,-0.0007712043762426578,-0.0037221803907354837,0.005039480688678272,0.9930825898685541
2014-09-12,-1,-0.0005175504900950902,-0.0003968713899489618,-0.010638473352354317,0.004183278896664129,0.99221226127213
2014-09-16,-1,-0.0004045877610725936,-0.00029680344209512456,-0.010638473352354317,0.0032317400364688257,0.9920440522882515
2014-09-18,-1,-0.00017950776476787997,-6.85260240707047e-05,-0.012832531360006644,0.0024872278273140374,0.991327693501261
2014-09-22,1,8.927976641644772e-05,0.00014278439483975992,-0.012832531360006644,0.0024872278273140374,0.9913043087157548
2014-09-24,-1,-0.0006085088737874085,-0.00045483897221300433,-0.012832531360006644,0.003096975979755799,0.9903836448898813
2014-09-26,-1,-0.0013895238813987896,-0.0011353413253938388,-0.010219203380779479,0.008055317009602457,0.9898709646215453
2014-09-30,-1,-0.001378893496328966,-0.0011321460442120961,-0.010219203380779479,0.009995641383311674,0.9892689757987576
2014-10-02,-1,-0.0018284810336713774,-0.0015338996570481713,-0.006289687145870039,0.009995641383311674,0.9890353777867011
2014-10-06,-1,-0.0016786371136462905,-0.0013967368931467055,-0.006289687145870039,0.011280273303569026,0.9886125677968641
2014-10-08,-1,-0.0016213098513844296,-0.0013685496331304488,-0.0016909207943676275,0.008984796212927765,0.9897276382660033
2014-10-10,-1,-0.002611459998953031,-0.0022537077768932335,0.0007897258602788693,0.009622336020421993,0.9899300931877254
2014-10-14,-1,-0.0025341947554243516,-0.0021978096913429675,0.002012779594284578,0.009622336020421993,0.9898585310942039
2014-10-16,-1,-0.003089710316505995,-0.0027065471933810517,0.0008597460942881333,0.009622336020421993,0.9907083329664019
2014-10-20,-1,-0.0025731167655140804,-0.0022650488607423094,0.0008597460942881333,0.009622336020421993,0.9914388016286264
2014-10-22,-1,-0.0019373549754457457,-0.001711663223940641,0.0008597460942881333,0.008553583974083854,0.9931100649266125
2014-10-24,-1,-0.0008406695421198898,-0.0007520486884192437,0.00028488510778953275,0.007294384711278491,0.9948391000579488
2014-10-28,1,6.753584351717169e-06,4.435656968082139e-05,-0.0006816747543528804,0.007294384711278491,0.9951961572554878
2014-10-30,1,0.0006980283873461587,0.0008493490715278651,-0.002044645345131218,0.007719065322113872,0.9955393212473811
2014-11-03,1,0.0011970866040432071,0.0014003319411265782,-0.0021609113782792397,0.006279146206735803,0.9952956034935231
2014-11-05,1,0.001544275626729001,0.001780693983732666,-0.0021609113782792397,0.00497188322325055,0.9954877974650423
2014-11-07,1,0.001957532781777396,0.0022744026518660716,-0.002044645345131218,0.005406640465994832,0.9953441377296206
2014-11-11,1,0.002299223952527123,0.002680516833783401,-0.0036588890418145057,0.005406640465994832,0.9943266854944751
2014-11-13,1,0.002009907468033815,0.002331470104054309,-0.004180094556922638,0.005406640465994832,0.9936433817820406
2014-11-17,1,0.0017953559914377052,0.0020767167236266084,-0.008069867382957825,0.005406640465994832,0.992923353977829
2014-11-19,1,0.0019666325558698222,0.002282450767461502,-0.008069867382957825,0.008579697026421132,0.9908937002333658
2014-11-21,1,0.0019389819522114826,0.0022460835457947933,-0.008069867382957825,0.00925641520217112,0.9903807504021127
2014-11-25,1,0.002072906517743448,0.002408344951870105,-0.005055737964464713,0.008739052868191256,0.9907785481718485
2014-11-28,1,0.002176058927925245,0.0025202276222315865,-0.004658739199978505,0.006870525721984874,0.99106600309288
2014-12-02,1,0.001975773115012576,0.0022832180110840036,-0.004658739199978505,0.005733563338726603,0.9912407741712544
2014-12-04,1,0.0023169261468012166,0.002673365919132021,-0.008547724205885215,0.005467410482025743,0.9898794479663341
2014-12-08,1,0.0021151221813627587,0.0023641910539987524,-0.010670729537805663,0.0024870559493829153,0.9895420828443451
2014-12-10,1,0.0017472405468122666,0.001968678243585863,-0.0108330698074584,0.006273872321573732,0.9893251383004567
2014-12-12,1,0.0013061513953698265,0.001483019061368685,-0.010220858241885884,0.006273872321573732,0.9893236871415654
2014-12-16,1,0.00083175405911714,0.0009588520892846057,-0.01142055001310388,0.006273872321573732,0.9890255677914636
2014-12-18,1,0.0024911028364531965,0.0028309752252397343,-0.01142055001310388,0.0013150614363244546,0.9896047429134464
2014-12-22,1,0.0024131779275310796,0.0027106648110106807,-0.01142055001310388,0.006273872321573732,0.9879287534866991
2014-12-24,1,0.002236123348787191,0.002486764080145348,-0.01142055001310388,0.005472685528551352,0.9880854318461662
2014-12-29,1,0.0017684599121863486,0.0019265101806905664,-0.013290126196790111,0.005472685528551352,0.986727831063047
2014-12-31,1,0.0011838532379182848,0.0012653807437156802,-0.013818856656300272,0.007711510393329353,0.9865198511518372
2015-01-05,1,0.00013448328775395613,0.00018551492190960173,-0.012790506592411825,0.011590818945721183,0.986573478023963
2015-01-07,1,0.00014235913038278302,0.00017666651862960413,-0.011264990640634014,0.011590818945721183,0.9868480258398268
2015-01-09,-1,-0.0003445305680759957,-0.00025667830268379045,-0.009959006317298097,0.011590818945721183,0.987526899269488
2015-01-13,-1,-0.001093303433404084,-0.0009175976299263227,-0.008018709629283556,0.011590818945721183,0.9877939454620813
2015-01-15,-1,-0.0018991281457776225,-0.001643240455132588,-0.005457032962170102,0.01319540558342638,0.9878739533830407
2015-01-20,-1,-0.0014526121415050818,-0.0012647491877086307,-0.005457032962170102,0.011590818945721183,0.9884342134602943
2015-01-22,1,0.0002636201308712888,0.0002656564501321418,-0.005457032962170102,0.009397985250193188,0.9906787401353463
2015-01-26,1,0.0003917578850574737,0.0004147251158181599,-0.005457032962170102,0.009397985250193188,0.9906329804954025
2015-01-28,-1,-0.000811988555994469,-0.0006898787790464542,-0.003532169993032368,0.009397985250193188,0.9918533947516991
2015-01-30,-1,-0.0010834746991093308,-0.0009208482752704423,-0.003532169993032368,0.008272531399787581,0.9924624234903521
2015-02-03,0,-4.793360987532386e-05,2.4319604137631437e-06,-0.0048879825797589465,0.0068096216357868555,0.9937878768268537
2015-02-05,1,0.0006282631331098101,0.0006756845319341474,-0.0048879825797589465,0.005559907129371322,0.9943186139622797
2015-02-09,1,0.0007670533650855349,0.0008387433106340343,-0.004940789482676259,0.005042705155230174,0.9935167750930564
2015-02-11,1,0.0010389534380060954,0.001174656182745687,-0.003532169993032368,0.005042705155230174,0.9934511994834855
2015-02-13,1,0.0015370716000772172,0.0017364412626124529,-0.004214734859728371,0.005042705155230174,0.9935290560836837
2015-02-18,1,0.0009352667235731895,0.001033614709546,-0.0033651144729659366,0.005042705155230174,0.9939363277048012
2015-02-20,1,0.0006661312433981038,0.0006966432654278812,-0.0033651144729659366,0.005042705155230174,0.9935268835360324
2015-02-24,1,0.0006552418493017668,0.0006797490294247345,-0.004816305312952002,0.0041022667968280205,0.9931499543524408
2015-02-26,1,0.0004899123125872428,0.0005119099983093297,-0.007241079617845081,0.0041022667968280205,0.9922181809743708
2015-03-02,1,0.0004826602079097001,0.0004974029420297559,-0.007952658311757212,0.0041022667968280205,0.9913540028486438
2015-03-04,0,-8.030201948132235e-05,1.0433686942696316e-05,-0.005345638659464583,0.0041022667968280205,0.9916735121901008
2015-03-06,-1,-0.0005667409772483562,-0.0003715164655967674,-0.008946153932091895,0.004958418426155038,0.9914519950536407
2015-03-10,-1,-0.001415909364837519,-0.0011154131977510551,-0.005321914327399357,0.0026487583547945264,0.9929553278297173
2015-03-12,-1,-0.001292253301444302,-0.0009812806327366922,-0.005321914327399357,0.0034504955780966517,0.9934420809082944
2015-03-16,-1,-0.000962846626377407,-0.0006948241193649402,-0.008946153932091895,0.0034504955780966517,0.9933367294030127
2015-03-18,-1,-0.0009499976661800117,-0.0006955263414059584,-0.00904839018707997,0.0034504955780966517,0.9928244924684659
2015-03-20,-1,-0.0005844609917654708,-0.0004060400794516308,-0.009583635738603656,0.0034504955780966517,0.9926929095362551
2015-03-24,-1,-0.0008508076223055581,-0.000661836788147231,-0.008946153932091895,0.004363111101509557,0.9927226384112683
2015-03-26,-1,-0.00128387784903016,-0.00106592193447794,-0.006790914902444158,0.004363111101509557,0.993646908346965
2015-03-30,-1,-0.000582673632160453,-0.000472654823069327,-0.004678741330484128,0.004363111101509557,0.994540479086509
2015-04-01,-1,-0.0005545737178132509,-0.0004682016692957666,-0.004678741330484128,0.004363111101509557,0.9945630373133559
2015-04-06,-1,-0.0005500476954383091,-0.00047417649055141864,-0.0029723877216251402,0.004919411766456871,0.9944249184248295
2015-04-08,-1,-0.0003678360798184579,-0.00032090518352354723,-0.004678741330484128,0.004919411766456871,0.9941374810426012
2015-04-10,-1,-0.00018251580241411092,-0.00015393397900758104,-0.004678741330484128,0.007347845141590459,0.9936136875698897
2015-04-14,-1,-0.00039436361626723636,-0.000336523718102089,-0.003654062139582683,0.004392398976245327,0.9943535912441092
2015-04-16,-1,-0.0007708620177472518,-0.0006722721319450504,-0.0027865689549653096,0.005921135398846026,0.9943623296027336
2015-04-20,-1,-0.0008433541809722428,-0.0007396618217968408,-0.0027865689549653096,0.0056367291435765,0.9944943526034999
2015-04-22,-1,-0.000743050934892666,-0.0006533782863537944,-0.0027865689549653096,0.0056367291435765,0.9939785969126902
2015-04-24,-1,-0.0007034115248068074,-0.0006255709577166417,-0.0044627868305807915,0.0056367291435765,0.9935428378721831
2015-04-28,-1,-0.0006339130039859824,-0.0005606688792701643,-0.004746896985422206,0.0056367291435765,0.9933303199189975
2015-04-30,-1,-0.000415671917311651,-0.00038370870237928187,-0.005565435974294503,0.0056367291435765,0.9927753074512004
2015-05-04,1,0.0003431110612788963,0.00044022925291803454,-0.005565435974294503,0.005444692806709615,0.9931560066946427
2015-05-06,-1,-0.00014094074658536302,-0.00013343081551079944,-0.005565435974294503,0.0056367291435765,0.9921903446893489
2015-05-08,1,0.00011324693576258793,0.00012687222718596366,-0.0068344124824622435,0.0056367291435765,0.9921144322262317
2015-05-12,-1,-0.0001884103240158999,-0.00013815946530650524,-0.0068344124824622435,0.009814538494671397,0.9911498521177856
2015-05-14,1,0.000891364118374906,0.001061853568532119,-0.0068344124824622435,0.009814538494671397,0.9915195357905752
2015-05-18,1,0.0008878862614595422,0.0010688413116768133,-0.0068344124824622435,0.009814538494671397,0.9916974857925812
2015-05-20,1,0.000884488401295365,0.0010700389055240218,-0.005565435974294503,0.005557121955875882,0.9927961576707108
2015-05-22,1,0.000567713426804705,0.0007090396762909032,-0.0038835584597071565,0.008060054037339606,0.992898227557881
2015-05-27,1,0.0005553319167463646,0.0006710190219169217,-0.0046114120326306435,0.0051135588960593,0.9931408492691096
2015-05-29,-1,-0.00030207338287718594,-0.00026623540627626727,-0.00344143215331833,0.0051135588960593,0.9936035019626134
2015-06-02,-1,-0.00034732358390557154,-0.0003002449293702588,-0.004892875633857832,0.0051135588960593,0.9927416770845839
2015-06-04,-1,-0.0003241337189866741,-0.0002621297513071074,-0.004892875633857832,0.0051135588960593,0.992806907984469
2015-06-08,-1,-0.0005649077327725294,-0.00044799029555527546,-0.003350599647727214,0.0034219523657917274,0.9936267311575327
2015-06-10,-1,-0.0003463258524115073,-0.0002196637781077244,-0.005012986781363549,0.0027849182663971426,0.9937129157257079
2015-06-12,-1,-0.00032157050675994615,-0.00020669645746472623,-0.005012986781363549,0.004908527597494464,0.9928065318613511
2015-06-16,1,0.0002788994042983847,0.00030140254253734565,-0.003350599647727214,0.007001397081828516,0.9914574594045901
2015-06-18,1,0.0004314951277856532,0.00047431483409085377,-0.003350599647727214,0.007340129331834314,0.9912655646583486
2015-06-22,1,2.1996190167566926e-05,7.538982363774043e-05,-0.00324200438615214,0.006909276533265612,0.9917151988008073
2015-06-24,-1,-0.0002594228974868756,-0.0001623754220553828,-0.00324200438615214,0.006909276533265612,0.9917755473581623
2015-06-26,1,9.576822238393154e-05,0.00010904966334947976,-0.006814022303234317,0.006909276533265612,0.9909952957723166
2015-06-30,-1,-0.000333039127310869,-0.0002923626075070013,-0.003813998277679545,0.006909276533265612,0.9918832863931097
2015-07-02,-1,-0.00012083547060824124,-0.00011035446623569115,-0.002381497805081229,0.006393906706754263,0.9930793661279631
2015-07-07,-1,-0.00017085887680094635,-0.00015822344793622216,-0.002354953017541613,0.006393906706754263,0.9929389198100033
2015-07-09,-1,-0.00017591310161145494,-0.00016093254882095447,-0.002354953017541613,0.005047895277960633,0.9937149591317395
2015-07-13,1,0.00020180575757487322,0.00024856606491450734,-0.0023777520708296736,0.004604346082157052,0.9936379089918533
2015-07-15,1,0.0011716619059825065,0.0013487285161863846,-0.005209788300725616,0.0036444197539059527,0.9941269667763902
2015-07-17,1,0.001343177541976897,0.001545221929130609,-0.005209788300725616,0.0041551432637823415,0.9938220160229903
2015-07-21,1,0.0013249921013867244,0.0015308327567079116,-0.005209788300725616,0.0041551432637823415,0.9940358894750979
2015-07-23,1,0.001264291394592082,0.0014600444906951305,-0.008372948893395488,0.003499085080526244,0.9926465880202193
2015-07-27,1,0.0008358471812028215,0.0009622645652015648,-0.009201814330235225,0.003499085080526244,0.9897936263611208
2015-07-29,1,0.0007572664278793519,0.0008763441574224178,-0.011793240128917188,0.003499085080526244,0.9869582876045845
2015-07-31,1,0.0006081648313996723,0.0006771498037876292,-0.011793240128917188,0.004168342062017926,0.9857227766938628
2015-08-04,1,0.0008205166579699876,0.0009417089430028471,-0.016177914898566178,0.004168342062017926,0.9832753561395363
2015-08-06,1,0.0008639966514753436,0.001004317477006606,-0.016177914898566178,0.010619011883153092,0.9824309359767883
2015-08-10,1,0.0011363989155231463,0.0013073556521947124,-0.02218124489924333,0.010619011883153092,0.9814014799480353
2015-08-12,1,0.0006444629917920599,0.0007509806077769295,-0.02218124489924333,0.010619011883153092,0.9817934958983211
2015-08-14,1,0.0007950516361991088,0.0009020231205153994,-0.02218124489924333,0.006595871601014667,0.982176897926546
2015-08-18,1,0.0005859170471267827,0.0006364381082020135,-0.02218124489924333,0.012335218787435702,0.9806695833209838
2015-08-20,-1,-8.364632304166986e-05,-6.279649807044855e-05,-0.017762986024938966,0.012335218787435702,0.9811431532086253
2015-08-24,-1,-0.0020178341434924493,-0.001764248269364129,-0.01214028812124334,0.012335218787435702,0.9840013631545179
2015-08-26,-1,-0.0016197131868350883,-0.001409573148330412,-0.010527221508819877,0.008988298102074622,0.9869030666827456
2015-08-28,-1,-0.0008318934524307044,-0.0007180286866513507,-0.01214028812124334,0.008988298102074622,0.985801886435319
2015-09-01,-1,-0.00197123796543434,-0.0017330632487189091,-0.010527221508819877,0.00920172282494193,0.9874978637546731
2015-09-03,-1,-0.00130042720607493,-0.0011367272973941663,-0.010527221508819877,0.008518904698385874,0.988521296971694
2015-09-08,-1,-0.001378320518150718,-0.0011931106425553642,-0.009458181670669185,0.008518904698385874,0.9895829971210357
2015-09-10,-1,-0.0015787165836928887,-0.001366525724999125,-0.007789597246326989,0.008518904698385874,0.9898616386871979
2015-09-14,-1,-0.0016455141938954958,-0.0014276259553544293,-0.008037673963366397,0.008518904698385874,0.9895383344979032
2015-09-16,-1,-0.0009084384593606468,-0.0007746592637354927,-0.009458181670669185,0.006075411571761619,0.9901648246933522
2015-09-18,-1,-0.001433595664299315,-0.0012426032278259579,-0.007389147224983022,0.00754832745579824,0.9905584011651731
2015-09-22,-1,-0.0014564533139164895,-0.0012632405696184905,-0.0062157482306223165,0.00763698183182826,0.9907561587106832
2015-09-24,-1,-0.0014283865776133725,-0.0012549389892080795,-0.005066229270896359,0.009790144837815776,0.989999188724705
2015-09-28,-1,-0.0017342963238998386,-0.0015152232569841761,-0.003928361951476723,0.009790144837815776,0.9915041294043048
2015-09-30,-1,-0.0011460662032024723,-0.0010151989266239292,-0.005066229270896359,0.012636166759761504,0.990784714035931
2015-10-02,-1,-0.0012505133621321998,-0.0011096569482122612,-0.005066229270896359,0.012636166759761504,0.9904894320581022
2015-10-06,-1,-0.0006752855446095547,-0.0006145364775129499,-0.005066229270896359,0.010438319943104846,0.9908060805868034
2015-10-08,-1,-0.00047060902056903067,-0.0004302874694170662,-0.005066229270896359,0.010438319943104846,0.9912203445393902
2015-10-12,-1,-0.000587460136240828,-0.0005317088120581452,-0.005066229270896359,0.012636166759761504,0.9899916699465076
2015-10-14,-1,-0.00129723993828949,-0.0011475105212899344,-0.002668810562059961,0.012636166759761504,0.9911872360011348
2015-10-16,-1,-0.0010408345913359637,-0.0009292061720030333,-0.004717001681156272,0.01048193555389837,0.9911370154331353
2015-10-20,-1,-0.0009766015480331461,-0.000855540293793975,-0.004717001681156272,0.011596455892518948,0.9908696018631404
2015-10-22,-1,-0.0006383422295530212,-0.0005578193522712998,-0.003749411615848637,0.011596455892518948,0.990559629704691
2015-10-26,-1,-0.00014765177623270775,-0.00013398045285223137,-0.006417530414060355,0.006873022780243652,0.9911570501468701
2015-10-28,1,0.00018193868440202792,0.00021549406211089514,-0.003344583043174673,0.0034180725257008633,0.9925505392723143
2015-10-30,1,6.36535940807998e-05,0.00011394778487711722,-0.0021886446284213055,0.0037085587513319565,0.9934301973202828
2015-11-03,1,0.0003277944681110971,0.0004131870177773766,-0.003344583043174673,0.0037085587513319565,0.9929304645617124
2015-11-05,1,0.0002720156632483846,0.0003459787011718435,-0.006417530414060355,0.006835317891443223,0.991109836293959
2015-11-09,1,0.0006766128869978501,0.0008102307376561248,-0.006417530414060355,0.0037085587513319565,0.991796317945362
2015-11-11,1,0.0007396499383523149,0.0008881000306253466,-0.009015825019790638,0.004445448937405597,0.991074023396983
2015-11-13,1,0.0002506888018467254,0.0003283403600345215,-0.0074745505913286926,0.005211430480371832,0.990917675496107
2015-11-17,1,0.0005302372057937674,0.0006399753437377741,-0.0074745505913286926,0.006835317891443223,0.989702218792781
2015-11-19,1,0.0008207005582314604,0.0009371505395729929,-0.012240054663050693,0.004207942625697229,0.9885852042701956
2015-11-23,1,0.0006915156492698713,0.0007975106983487857,-0.012240054663050693,0.005087853058758806,0.9887727620655268
2015-11-25,1,0.0006334890697011546,0.0007267763909501756,-0.012240054663050693,0.006464585626604144,0.9879960580310416
2015-11-30,1,0.0005416840042302001,0.0006065684553597482,-0.012240054663050693,0.009906459063402137,0.9871894522427059
2015-12-02,1,0.0007130080630928163,0.0008270196207947316,-0.012060645210883387,0.006801621370724199,0.9872429315430324
2015-12-04,1,0.0013649586851053842,0.0016124396586330342,-0.012060645210883387,0.005087853058758806,0.9875673510809627
2015-12-08,1,0.0011074240900521015,0.0013314429833079598,-0.013078468663983437,0.005087853058758806,0.986790676276064
2015-12-10,1,0.0009203637038557394,0.0011165981021497868,-0.014394634420915847,0.005087853058758806,0.9867069338849054
2015-12-14,1,0.0005912849952848445,0.0007438373553061312,-0.014394634420915847,0.006801621370724199,0.9851880738129051
2015-12-16,1,0.001259913818629965,0.0014751329712375085,-0.016086688658505474,0.004973624345471464,0.9849868477743806
2015-12-18,1,0.00039381947545858256,0.0004960197663361247,-0.014394634420915847,0.004973624345471464,0.9869439109902566
2015-12-22,1,0.0005931330605628182,0.0007264404362011974,-0.014394634420915847,0.006345605987150832,0.9857508881397526
2015-12-24,1,0.0009114907994210743,0.0010879661861885987,-0.016086688658505474,0.006345605987150832,0.984403343835835
2015-12-29,1,0.0009854876313852685,0.0011731453551704902,-0.016086688658505474,0.004280747811868865,0.9851866733587815
2015-12-31,1,0.0008467050224537332,0.0010382914687548336,-0.016086688658505474,0.008382468818941408,0.9849009994410896
2016-01-05,1,0.00022160588640800485,0.00030448907170553937,-0.016086688658505474,0.015024295295348225,0.9844892247162543
2016-01-07,-1,-0.00020552609537269207,-0.00015771652566569938,-0.010291863326591535,0.01906543600881299,0.9850589642446371
2016-01-11,-1,-0.0002963153303936487,-0.0002526435306504,-0.010245402137741081,0.01906543600881299,0.9851197217851878
2016-01-13,-1,-0.0010668656953844993,-0.0009797673077072985,-0.01034495446062625,0.015024295295348225,0.9856193851263745
2016-01-15,-1,-0.0020898077742372064,-0.0018036480500752297,-0.009037518651975203,0.019581361593266632,0.9842543678852601
2016-01-20,-1,-0.00185930553583108,-0.0016201442140945043,-0.01034495446062625,0.019581361593266632,0.9839956037423161
2016-01-22,-1,-0.001181270625569034,-0.0010522436549245972,-0.01034495446062625,0.019177124061268234,0.9844282055118051
2016-01-26,-1,-0.0022560216854284705,-0.0019404011264755046,-0.01178904440529469,0.015136401733691851,0.9846750919082132
2016-01-28,-1,-0.0017226614942778262,-0.0015033364486602577,-0.01178904440529469,0.01853602450069658,0.9838425024659301
2016-02-01,-1,-0.0013809935509247822,-0.0012016308546283576,-0.014402159509669193,0.01853602450069658,0.9824923242296706
2016-02-03,-1,-0.001830343285620239,-0.0015892675677507534,-0.01178904440529469,0.01853602450069658,0.983242958218335
2016-02-05,-1,-0.0013421642991022715,-0.0011529975105568505,-0.01178904440529469,0.01639460773501285,0.983766675913576
2016-02-09,-1,-0.001188144655211451,-0.001061569405358999,-0.01222259899704,0.01639460773501285,0.9833687910128941
2016-02-11,-1,-0.0028037367474165594,-0.0024558674208744816,-0.007518220552911385,0.01853602450069658,0.9840342404061881
2016-02-16,-1,-0.0009914278683510593,-0.0008537820809568523,-0.007518220552911385,0.00950426433503536,0.9873288468562053
2016-02-18,-1,-0.0015837191475378703,-0.00136652883165321,-0.006299991465791035,0.00950426433503536,0.9875394847938759
2016-02-22,-1,-0.0012262391611384102,-0.0010405032188436686,-0.006299991465791035,0.009427649876323272,0.9876793428122201
2016-02-24,-1,-0.0021808812613988544,-0.0019032682007512132,-0.0038918898035132403,0.009427649876323272,0.9894499084107147
2016-02-26,-1,-0.0016894661732949866,-0.001461372337031175,-0.0061686464338217735,0.006635202118113616,0.9903661885089328
2016-03-01,-1,-0.0009085151378889358,-0.0007966666501338589,-0.0061686464338217735,0.006635202118113616,0.9919501326747625
2016-03-03,-1,-0.00013215589649398567,-0.00012444813005204093,-0.006299991465791035,0.00436929382525827,0.9923636688927443
2016-03-07,-1,-0.00023197053527695732,-0.00020421675546025963,-0.006558995060988963,0.002957529793347657,0.9922431322873639
2016-03-09,-1,-0.0013736477388880501,-0.0011764200964190816,-0.006558995060988963,0.002957529793347657,0.9922941811795619
2016-03-11,-1,-0.0007433633321202323,-0.000629341384092324,-0.006439914871225718,0.0037272400684298136,0.993136846910278
2016-03-15,-1,-0.00033076135037072164,-0.0002802987287697015,-0.006439914871225718,0.004647034408358237,0.9915883855366131
2016-03-17,-1,-0.00015463720496401983,-0.00014405644510032627,-0.005113554571836499,0.005074975209125092,0.9916212809029128
2016-03-21,1,0.0005004240124295218,0.0006001001277543638,-0.005113554571836499,0.005074975209125092,0.991533297240037
2016-03-23,1,0.0005700725822021597,0.0006990111731969008,-0.005113554571836499,0.009084698721611174,0.9906794693133398
2016-03-28,1,2.3410079316062745e-05,4.9947039016179395e-05,-0.004713772517825922,0.015387961120100263,0.9900322419909227
2016-03-30,1,0.000391700054015645,0.0004861960944721562,-0.004073938147222579,0.009821454498271463,0.9907301010337146
2016-04-01,1,0.00022254732813114424,0.00029312878714386563,-0.004713772517825922,0.009821454498271463,0.9903025036759562
2016-04-05,1,9.521291528360995e-05,0.00017599331040089733,-0.004713772517825922,0.009821454498271463,0.9902203333632538
2016-04-07,-1,-0.0004299232220042363,-0.0004171572221814674,-0.004713772517825922,0.009821454498271463,0.9903434025003386
2016-04-11,-1,-0.0004106732968587149,-0.0003970626877220704,-0.005751661291712783,0.009821454498271463,0.9904907339041411
2016-04-13,1,0.0007775121871245949,0.00094203884636513,-0.005751661291712783,0.006777533109723047,0.9917035289512206
2016-04-15,1,0.001129208200020149,0.001378178003398691,-0.006627507290386115,0.006777533109723047,0.991496889348117
2016-04-19,1,0.0015222231262330816,0.0018125479596634486,-0.00944220254160456,0.006346447348110115,0.9908635747089433
2016-04-21,1,0.0019144335973809848,0.002257500003317954,-0.00944220254160456,0.006346447348110115,0.9907603990880286
2016-04-25,1,0.002223673135178978,0.0026115207132905984,-0.00944220254160456,0.005542911722726902,0.9915006653220633
2016-04-27,1,0.0024631492201658465,0.0028792019874021107,-0.00944220254160456,0.006346447348110115,0.9904904806204679
2016-04-29,1,0.002156136677749508,0.0025501910154114276,-0.005995865003514871,0.0065597426562576736,0.9910774482359576
2016-05-03,1,0.001835791284085697,0.0021620779693966082,-0.004824141626268833,0.00634721593546341,0.9915820167694472
2016-05-05,1,0.001279032612839224,0.001520583281492738,-0.004824141626268833,0.00634721593546341,0.9918368357657815
2016-05-09,1,0.0009994016250072968,0.0011790423268687377,-0.004670716880881429,0.007930753620129672,0.9913664215460084
2016-05-11,1,0.0017472221575659578,0.002089544490076662,-0.005424706046758475,0.00634721593546341,0.9918102030762078
2016-05-13,1,0.0009438761785934412,0.001115562851565555,-0.006398459336286331,0.00634721593546341,0.991292412902144
2016-05-17,1,0.0006652175232394048,0.000811738744839881,-0.006398459336286331,0.005614522550344951,0.991877528898224
2016-05-19,1,0.0013553987882304335,0.0016182655170015859,-0.006398459336286331,0.004477407884318907,0.9930119620502192
2016-05-23,1,0.001483432860777005,0.0017674629214057607,-0.006398459336286331,0.0037801284945076074,0.993193040342983
2016-05-25,1,0.0019198232146056498,0.0022327615802550343,-0.006398459336286331,0.0035468962760458076,0.9933593735751152
2016-05-27,1,0.0014939411167647276,0.001715800884839871,-0.00794381428140063,0.0028858746459905875,0.9897423609582062
2016-06-01,1,0.001093176854012559,0.0012169730106188143,-0.00794381428140063,0.0035468962760458076,0.989078065885278
2016-06-03,1,0.0006135611183976713,0.0006593676353180354,-0.006678439536669644,0.005249267726403598,0.9887795691239922
2016-06-07,1,0.0004714216406223227,0.0004717645343089318,-0.007960153953884596,0.003597898867642627,0.9882002471663465
2016-06-09,1,0.0004315015284074253,0.0004463226801029637,-0.007960153953884596,0.005249267726403598,0.9876226948663381
2016-06-13,-1,-0.0002701877683058592,-0.00016414735696931312,-0.004769073072738371,0.009405888142161381,0.9878455471490363
2016-06-15,-1,-0.0005729006282176815,-0.00044532363969862634,-0.000608453563939527,0.011375063846294794,0.9876899537885659
2016-06-17,-1,-0.0006917466758284507,-0.0005392458041216211,-0.000608453563939527,0.015282995753897227,0.9870099567987591
2016-06-21,-1,-0.00048819060034837594,-0.0003646063395588671,-0.000608453563939527,0.015282995753897227,0.9872939367971201
2016-06-23,1,0.0002761592041364519,0.0002918902606701934,-0.0012736891302775485,0.011375063846294794,0.9880430099997216
2016-06-27,-1,-0.002308852351716983,-0.0019733172545934622,-0.00042487396992682536,0.011375063846294794,0.9908588247740593
2016-06-29,-1,-0.0012431276546534366,-0.0010599980209961145,-0.00042487396992682536,0.007846810845415568,0.9925363188953393
2016-07-01,-1,-0.001269503620530927,-0.0010607719278842385,-0.00042487396992682536,0.005779154060685661,0.9929959542778716
2016-07-06,-1,-0.002838778834500433,-0.002373799436956318,-0.00042487396992682536,0.007846810845415568,0.9924305405300673
2016-07-08,-1,-0.0009307484448965869,-0.0007884771384373884,-0.0012736891302775485,0.007846810845415568,0.9934196850313163
2016-07-12,-1,-0.0008144095239326114,-0.0006642208335594822,-0.002201709260363508,0.0034622612318829923,0.9941691741796957
2016-07-14,-1,-0.00017976270503626727,-0.00012626594263977862,-0.0024206547000015705,0.0034622612318829923,0.9942869854457905
2016-07-18,-1,-0.0004975488798458519,-0.00035539722817370327,-0.0024206547000015705,0.0030744231535234155,0.9946914040326761
2016-07-20,-1,-0.00018677102972750092,-0.00010610856304737388,-0.0024206547000015705,0.004949436223506157,0.994517722503202
2016-07-22,1,9.599916875902797e-05,0.0001235992810538395,-0.0024206547000015705,0.003418106858400478,0.9948284579035237
2016-07-26,1,0.00021605690900865435,0.00022548982923684184,-0.002169783811391244,0.003418106858400478,0.9950178674094267
2016-07-28,1,0.00024698688805294464,0.0002596765893162365,-0.0024206547000015705,0.003937459923729536,0.9947197296743974
2016-08-01,-1,-0.00030425063195565127,-0.00022340169716496876,-0.002169783811391244,0.004949436223506157,0.9948272296580526
2016-08-03,1,0.00012932773231196494,0.00014200643369396293,-0.0010491226811052373,0.004855386317941739,0.9956845796212939
2016-08-05,1,0.0005816198209407417,0.0006357200091524723,-0.0010491226811052373,0.003937459923729536,0.9967316504042474
2016-08-09,1,0.0004536478124919026,0.0004866905741612498,-0.002255886095694073,0.003937459923729536,0.996305134800158
2016-08-11,1,0.0006032727973849652,0.0006748689345261251,-0.002255886095694073,0.0038058988459557753,0.9964065278507951
2016-08-15,1,0.0006081176155690777,0.0006737534099212638,-0.0031785468964156266,0.0038058988459557753,0.9957068958949788
2016-08-17,1,0.0005621187170794511,0.000605282096688828,-0.004570981003455397,0.0031809207829901504,0.9954261167781537
2016-08-19,1,0.0006637479464552751,0.0007274853476520671,-0.005151351345913963,0.0038058988459557753,0.9947887990929362
2016-08-23,1,0.0005808747290704386,0.0006236495819718184,-0.005151351345913963,0.0044607030846204555,0.9944336663179232
2016-08-25,1,0.00033933916236417427,0.00034836356662283554,-0.005346716422509145,0.0044607030846204555,0.9944239776844316
2016-08-29,1,0.00018940892240881156,0.00024497302288473783,-0.006887840242041224,0.0044607030846204555,0.9938852020142149
2016-08-31,1,0.0004160517537415584,0.0004364917905179694,-0.007305363921855299,0.003830504095512291,0.9936468348824175
2016-09-02,1,0.0007725251126685321,0.0008446188405552982,-0.007305363921855299,0.004486768089608089,0.9931361154731058
2016-09-07,1,0.0005047436608317461,0.000540163965517702,-0.007305363921855299,0.005709897318838385,0.9926978116392837
2016-09-09,1,0.000566587929007442,0.0006317879842760256,-0.005814653069482031,0.005709897318838385,0.9929155174640759
2016-09-13,1,0.0006158794704067468,0.0007051306977964534,-0.005814653069482031,0.005518362201522454,0.9933257573390695
2016-09-15,1,0.0006486068543149468,0.000755657790784047,-0.005949039046076427,0.005518362201522454,0.9930988035864765
2016-09-19,1,0.000676841295329411,0.0007999909196226747,-0.004988987364989414,0.004714899714119812,0.9936436366497887
2016-09-21,1,0.0006767774002460422,0.000778097483480091,-0.004988987364989414,0.005820754854731267,0.9931041165766487
2016-09-23,1,0.00047388506412528197,0.0005426915710567584,-0.004587366019255303,0.007213768146641944,0.9929711247048835
2016-09-27,1,0.00023409933562593252,0.0002477664620084214,-0.0041490362662768895,0.005820754854731267,0.9936116601863517
2016-09-29,0,-1.3454229162317307e-05,7.1013389375206536e-06,-0.0032975955681382885,0.008591574028976687,0.9931348088428049
2016-10-03,1,0.00015809504124007312,0.00016604749365691334,-0.0024649674162474074,0.007213768146641944,0.9937031198695047
2016-10-05,1,0.0004766011159354507,0.0005133615150261725,-0.0041490362662768895,0.005820754854731267,0.993986261235556
2016-10-07,1,0.00026993719093999747,0.0002799297658649223,-0.0032975955681382885,0.004604754073330211,0.994267179111649
2016-10-11,1,0.00025350845884880124,0.000262986621795592,-0.0028015583990740034,0.007213768146641944,0.9938013192992203
2016-10-13,1,9.45020280522787e-05,0.00010469080456016815,-0.002387561888073048,0.009328553453735951,0.991667420100717
2016-10-17,1,0.0003544026623161485,0.0004153326190931267,-0.0015755756574579764,0.011282928112109365,0.9908533829791792
2016-10-19,1,0.0007401724811790711,0.0008513325605996732,-0.002387561888073048,0.009328553453735951,0.9910041591808412
2016-10-21,1,0.0008222879081316739,0.0009444441932383958,-0.0016877726517335085,0.012703908102968425,0.9902539385471911
2016-10-25,1,0.000677739751525304,0.0007628166972552075,-0.0016877726517335085,0.012703908102968425,0.9902805905866622
2016-10-27,1,0.0010941829078697115,0.0012416228295477865,-0.0016877726517335085,0.012703908102968425,0.9909978139251985
2016-10-31,1,0.0010482484899939422,0.001185086112926733,-0.003311377671603561,0.012703908102968425,0.9904640005698094
2016-11-02,1,0.0004734888621097563,0.0005089421065573694,0.0006078160010550853,0.01586867348304958,0.9898880614145422
2016-11-04,1,0.00021889313935394007,0.00023502724693645884,0.0006078160010550853,0.01586867348304958,0.9892087762383557
2016-11-08,1,0.0006596912880884598,0.0007002907617246242,0.0006078160010550853,0.013193517719596651,0.9896409490914142
2016-11-10,1,0.0018029130231599524,0.001997772992156674,0.0006078160010550853,0.010767545438078258,0.9923671480807761
2016-11-14,1,0.0027681787813171473,0.003108479069501612,-0.0017299721233746497,0.010533187548441807,0.9929886698898078
2016-11-16,1,0.0013154484038351976,0.001323251685621863,0.0009067808293357761,0.010533187548441807,0.9933616839210441
2016-11-18,1,0.0021900537682381788,0.0023463159712785496,-0.0007190944675598901,0.007236779049040635,0.9945449611353273
2016-11-22,1,0.002070760782681356,0.002218905674804188,-0.0007190944675598901,0.00813881877938417,0.9939387253710079
2016-11-25,1,0.0017325837338846724,0.0018023929512521793,-0.0014417531621232682,0.00813881877938417,0.9938977760127369
2016-11-29,1,0.001685297861432983,0.0017775175119204875,-0.0014417531621232682,0.00813881877938417,0.9940190373725619
2016-12-01,1,0.002345051331778004,0.002539130444964011,-0.005223415960976187,0.005424592297054647,0.9945828532029023
2016-12-05,1,0.002250278974975866,0.00245131554904506,-0.0014417531621232682,0.005461359139064032,0.9950649589947046
2016-12-07,1,0.002977495419709306,0.003283729808613207,-0.005223415960976187,0.0032313089227926526,0.9943432744010938
2016-12-09,1,0.0031406706032617217,0.0034660242551850223,-0.005223415960976187,0.0026186759838686072,0.994230102707028
2016-12-13,1,0.0028850501703447736,0.0031782643846918583,-0.005200629675538845,0.0034110776581270574,0.9941253257170322
2016-12-15,1,0.0027376133144863934,0.0029989815511724653,-0.006973946818119036,0.0034667268583810956,0.9928363861518619
2016-12-19,1,0.0025704968641977618,0.002807005600825396,-0.006973946818119036,0.004990738775398523,0.9931397507516835
2016-12-21,1,0.0023670899115526656,0.002559022822734535,-0.005106924002443879,0.004990738775398523,0.9934680418105962
2016-12-23,1,0.0024171655674710265,0.0026217857772603027,-0.005106924002443879,0.00670186749881433,0.9925145794877018
2016-12-28,1,0.002377656449439246,0.0025982688190416946,-0.004485611080063485,0.007854487580909106,0.9927297817453753
2016-12-30,1,0.0019953130927263013,0.0021549366575822544,-0.003959033641047255,0.007854487580909106,0.9927306644886505
2017-01-04,1,0.002038022628298551,0.0021990086029820815,-0.003959033641047255,0.007729255885434353,0.9927504601551114
2017-01-06,1,0.0016809346491322408,0.001795919372703644,-0.003959033641047255,0.009331791344559043,0.993088886059843
2017-01-10,1,0.0015872407289132325,0.0016927302841617453,-0.003961222778480962,0.009331791344559043,0.9927986160353807
2017-01-12,1,0.0016082657065522948,0.0017147093945277516,-0.003755058784350853,0.009331791344559043,0.9931511258902114
2017-01-17,1,0.0009701857347248191,0.0009912945384106709,-0.002917884367897468,0.00957458907573567,0.993809148199887
2017-01-19,1,0.0010543163037459898,0.0010792013856104044,-0.002917884367897468,0.009768645627078132,0.9934927019982441
2017-01-23,1,0.0011769967066359425,0.0012287113598965895,-0.0024328847030398665,0.009768645627078132,0.9938075838269286
2017-01-25,1,0.0018368105563982746,0.001981871610547053,-0.0024328847030398665,0.008202520446558201,0.9951531225645293
2017-01-27,1,0.0019394997928441889,0.0020935736739531503,-0.002917884367897468,0.007352832252767406,0.995138131006082
2017-01-31,1,0.0014588379271264365,0.0015302540753741453,-0.0027087007578388955,0.008244221195754626,0.9940372679075591
2017-02-02,1,0.0014640752614920953,0.0015218530507558775,-0.00402032218282386,0.008244221195754626,0.9934342336886353
2017-02-06,1,0.001395038137675538,0.001430493362907275,-0.004685957522512405,0.006312939708505393,0.9935513745300711
2017-02-08,1,0.0008950835201500895,0.000930550941612312,-0.0033507361906336985,0.006312939708505393,0.9938829996884126
2017-02-10,1,0.001005801163764627,0.0010393581947719748,-0.0033507361906336985,0.004043964728609604,0.9943562161995668
2017-02-14,1,0.0013987290537717547,0.0014189440863798355,-0.0033507361906336985,0.0017185873440735875,0.9949368021174484
2017-02-16,1,0.0013213055230689615,0.0013268815814888382,-0.004685957522512405,0.001499321947856691,0.9952330957085629
2017-02-21,1,0.0011577564547831903,0.0011878116248887514,-0.005287620282861929,0.001320977252602175,0.9937457748051312
2017-02-23,1,0.0009910752754862993,0.001081206613301153,-0.005287620282861929,0.0012646948412658224,0.993668108244355
2017-02-27,1,0.0007762202585979098,0.0008953608169892501,-0.005478428692229542,0.00031542761085879574,0.9937525336698498
2017-03-01,1,0.0014871921674602141,0.0014922901159932162,-0.006393391886189688,0.00031542761085879574,0.9934586427646024
2017-03-03,1,0.0008539438754911795,0.0009387920272710439,-0.006393391886189688,0.0003184120086894353,0.9937883249452423
2017-03-07,1,0.00020684281921757512,0.0003852088254563226,-0.006393391886189688,0.0010465562377265257,0.9944884921642608
2017-03-09,0,-0.00022768810298565872,3.0390608098609484e-05,-0.007319071727418872,0.0010465562377265257,0.9941821459221233
2017-03-13,-1,-0.0005411344219144255,-0.00023481995394223438,-0.007465670936236277,0.0010465562377265257,0.9937777617910818
2017-03-15,-1,-0.00041550843777064393,-0.00013843703692324359,-0.007465670936236277,0.0010465562377265257,0.9935460985883972
2017-03-17,-1,-0.0006800266484122667,-0.0003730147245128352,-0.008178267574824285,0.0012696990389812909,0.9927437141081841
2017-03-21,-1,-0.0019695803030962238,-0.0015109425598604466,-0.007465670936236277,0.0012696990389812909,0.9940434350662346
2017-03-23,-1,-0.0018460194335965703,-0.0014257861231140997,-0.007465670936236277,0.0031430693721973047,0.9929204413684638
2017-03-27,-1,-0.0021429912870571033,-0.0016901520115027932,-0.007465670936236277,0.007804824021947732,0.9915653719673244
2017-03-29,-1,-0.0027726562761707938,-0.002223237456022745,-0.004729505034632873,0.006342649280643703,0.9927820060241583
2017-03-31,-1,-0.003099862073005387,-0.0025045513726623145,-0.004729505034632873,0.00660280644975683,0.9927030670856087
2017-04-04,-1,-0.0029414572488284853,-0.002386808265532725,-0.004729505034632873,0.008906543679287534,0.9921702990373461
2017-04-06,-1,-0.0019970760386309443,-0.0016370879429492948,-0.004729505034632873,0.008906543679287534,0.9921448969222734
2017-04-10,-1,-0.0020223363131548653,-0.0016868887708162848,-0.004897206910031994,0.008906543679287534,0.9918867815660558
2017-04-12,-1,-0.0025794548193470274,-0.002144784246454219,-0.006781611180582988,0.008906543679287534,0.9915268751596005
2017-04-17,-1,-0.002159107488973617,-0.001815277137355742,-0.0049278902348632225,0.0077183851832054685,0.9921833176348871
2017-04-19,-1,-0.0027757559808684455,-0.002352884179095884,-0.0049278902348632225,0.0077183851832054685,0.9911869989867604
2017-04-21,-1,-0.0022951141604700877,-0.0019334221198594392,-0.0049278902348632225,0.007211462545590123,0.9915205043318372
2017-04-25,-1,-0.0014569503563690875,-0.0011806684164441992,-0.0049278902348632225,0.007025638113087171,0.9923765187668355
2017-04-27,-1,-0.0011503770017611036,-0.0009481708721331465,-0.0049278902348632225,0.007025638113087171,0.9924301693462348
2017-05-01,-1,-0.0013469428143633806,-0.001119024762610796,-0.006355985062175693,0.0067408527987308665,0.9929029535583539
2017-05-03,-1,-0.000641915314035614,-0.0005276734943389083,-0.006355985062175693,0.0067408527987308665,0.9928216704700653
2017-05-05,-1,-0.0006572079465639905,-0.0005618785680587322,-0.004935021013739892,0.0067408527987308665,0.9931640037501834
2017-05-09,-1,-0.0008976168004416072,-0.0007642679269710843,-0.004935021013739892,0.0067408527987308665,0.9930947731575059
2017-05-11,-1,-0.0007738727669186114,-0.0006627181652625795,-0.004456279810776629,0.007025638113087171,0.9920347987782693
2017-05-15,-1,-0.0007322292275614656,-0.0006226785323432888,-0.004198031082981191,0.006763950327883679,0.992484966413066
2017-05-17,-1,-0.001418037527334616,-0.0012378902353130383,-0.004198031082981191,0.006763950327883679,0.9935483554379924
2017-05-19,-1,-0.0009705912843323617,-0.0008443283199465641,-0.004198031082981191,0.005967967311931096,0.9939333285793853
2017-05-23,-1,-0.0005732228372490578,-0.00048153517296186917,-0.004941153789915913,0.0025547092731051588,0.9943243937701313
2017-05-25,-1,-0.0008571425192022431,-0.0007196478540100436,-0.006524404362604828,0.0025547092731051588,0.9934405082416626
2017-05-30,-1,-0.0011119752451455495,-0.000958424691504168,-0.0049715556094002775,0.0052673761570325005,0.9933073277273642
2017-06-01,-1,-0.0010724887304082533,-0.0009062410293626792,-0.0049715556094002775,0.0052673761570325005,0.9934099992032036
2017-06-05,-1,-0.0012494576606634125,-0.0010595407886409584,-0.004905330322260729,0.006313970665591316,0.9927961916936658
2017-06-07,-1,-0.001303851347523239,-0.0011138812106453663,-0.004905330322260729,0.006313970665591316,0.9929505747802894
2017-06-09,-1,-0.0006079906254855187,-0.00046228920901256854,-0.004905330322260729,0.0048868735386040614,0.9942952730664817
2017-06-13,-1,-0.00046104479336518586,-0.0003444081767138166,-0.0070483701927389585,0.0048868735386040614,0.9937546572896238
2017-06-15,-1,-0.0007756293468925261,-0.0006287701189481025,-0.004905330322260729,0.005459366711574448,0.9938175047685602
2017-06-19,-1,-7.132369864666509e-05,-5.431409196626011e-05,-0.00679395014431295,0.0048868735386040614,0.9937162057791352
2017-06-21,-1,-0.000225608770417799,-0.00020750852460689568,-0.004807693455367048,0.006544384743962724,0.9934164694623661
2017-06-23,-1,-0.0011295526092139248,-0.0009964097020487232,-0.003106370460059784,0.007769744737885141,0.9934727430004544
2017-06-27,-1,-0.0004998894095926162,-0.0004564375050289298,-0.004600678259427706,0.007318822481569439,0.9931928971118164
2017-06-29,-1,-0.0001339062864987659,-0.00012280558267128744,-0.003859400302774145,0.006423843126718835,0.9937935251965111
2017-07-03,1,0.00021465984536116537,0.00025363960882544465,-0.003859400302774145,0.005565937205892929,0.9942616735860745
2017-07-06,1,0.00021478618393105568,0.000280723838607022,-0.0036070048904713343,0.005565937205892929,0.9944761886042586
2017-07-10,1,0.0006141742710136238,0.0007671971646580168,-0.0034732615821165434,0.006423843126718835,0.9945585968208357
2017-07-12,1,0.0005624129686172519,0.0007270555759329117,-0.001390328354932654,0.006423843126718835,0.9951539781370078
2017-07-14,1,0.000779913305397296,0.0009819792073612597,-0.00596267694781988,0.004795562498158652,0.9944461085457652
2017-07-18,1,0.0006316074312122398,0.0008245004080662419,-0.001462546534589887,0.007318822481569439,0.9941341465569346
2017-07-20,1,0.001185199554306629,0.001450459915502792,-0.00596267694781988,0.003698019418147836,0.9936108690226694
2017-07-24,1,0.0018800121059430505,0.002287595150652985,-0.0033028787718278703,0.0033155011118451714,0.9942401531457289
2017-07-26,1,0.0014003457202804567,0.001712692233095621,-0.0024660410207145073,0.0033155011118451714,0.9950137223036727
2017-07-28,1,0.0013771517944858689,0.0016697214810578295,-0.0024660410207145073,0.003698019418147836,0.9949745292395098
2017-08-01,1,0.0016277549311473555,0.0019516171226594877,-0.0033396728850194598,0.0018881091323969187,0.9943437301459482
2017-08-03,1,0.001467841834106876,0.001769948878068308,-0.003452163694479792,0.002210466941844926,0.9944321316539262
2017-08-07,1,0.0017808745689886678,0.0021265179573211894,-0.006372718891921307,0.002210466941844926,0.9935076005071221
2017-08-09,1,0.001758158170444304,0.002090176426980931,-0.007156057167927088,0.002210466941844926,0.9924367937449652
2017-08-11,1,0.0004060069114714815,0.0004863846461665911,-0.003524733210200222,0.00376011341080234,0.9930630802820442
2017-08-15,1,0.0009116413616254923,0.001054378441516996,-0.003524733210200222,0.004488643852317733,0.9928127570582944
2017-08-17,1,5.273199585130033e-05,6.835692647801396e-05,-0.003524733210200222,0.004488643852317733,0.9934298492927089
2017-08-21,-1,-0.00013637185684878343,-0.00011389114813049108,-0.003524733210200222,0.00857114979093756,0.9921610663477387
2017-08-23,-1,-0.0001457754820558641,-0.00011359731815463822,-0.0032320212682053866,0.00857114979093756,0.991995133742509
2017-08-25,1,9.219921930556915e-06,2.5070094521561512e-05,-0.0032320212682053866,0.00857114979093756,0.9921711245075487
2017-08-29,-1,-0.0004547193690170299,-0.00038071086041582895,-0.0011640814464979846,0.009400700008800531,0.9920714508541613
2017-08-31,-1,-0.0008527181899497082,-0.0007139311928448206,-0.0011640814464979846,0.009400700008800531,0.9916560919530337
2017-09-05,-1,-0.0011534127102908035,-0.0009765778038095918,-0.0011640814464979846,0.009400700008800531,0.9925776142772782
2017-09-07,-1,-0.001954340495229975,-0.0016778894976131366,-0.0011640814464979846,0.01044637117693147,0.9923745834590108
2017-09-11,-1,-0.001633901316699211,-0.00136379153172796,-0.0016767394221121443,0.009400700008800531,0.9930439909893596
2017-09-13,-1,-0.0004829738473606768,-0.0003745009101689599,-0.0016767394221121443,0.007245628420366716,0.9941075377539976
2017-09-15,1,3.223255850832421e-05,4.115879766913245e-05,-0.0016767394221121443,0.007245628420366716,0.9943451031276204
2017-09-19,1,0.0008334703727463219,0.000939349673833758,-0.0033432884934809217,0.004775981853699715,0.9952263811243772
2017-09-21,1,0.0011203480114836675,0.0012533013401716095,-0.005228149290234103,0.003446577976939079,0.994771947478346
2017-09-25,1,0.0011558375860476525,0.001313035010217479,-0.005228149290234103,0.006269510479514797,0.9945940057874041
2017-09-27,1,0.0013117794877995548,0.001470352494544174,-0.005228149290234103,0.003446577976939079,0.9949591482501702
2017-09-29,1,0.0008384361513000189,0.0009253938127141899,-0.0033432884934809217,0.0037182556372957762,0.995501009290053
2017-10-03,1,0.0007448165784677205,0.0008204864433477175,-0.0037237934280405964,0.0037182556372957762,0.9954097508766601
2017-10-05,1,0.000940897474892398,0.0010461477569090676,-0.0017950513105731605,0.0037182556372957762,0.9959532413314574
2017-10-09,1,0.00045632810299430914,0.00046597281251493494,-0.0017950513105731605,0.0031313728119104984,0.9960625749476243
2017-10-11,1,0.0008928430984580461,0.000961182140690794,-0.004387210149558008,0.0026836206258620005,0.9944752271196627
2017-10-13,1,0.001063080319845644,0.001186345260617658,-0.007651222019664757,0.0026725178259122007,0.993777755657931
