JNU-Tangyin/eata/results/Batch4_SP500/Batch4_SP500-BDX.csv
Date,Action,Predicted_Q25,Predicted_Q75,Actual_Q25,Actual_Q75,RL_Reward
2010-12-14,1,0.0,0.0007219111125039367,-0.004085748862376171,0.003578917901446902,0.9940401861375486
2010-12-16,1,0.0024947859179200093,0.0026536019675806556,-0.005403827492810813,0.002633792280106786,0.9935621391286775
2010-12-20,0,0.0,0.0,-0.005403827492810813,0.002633792280106786,0.9940261908853695
2010-12-22,0,0.0,0.0,-0.005403827492810813,0.0020332555638665,0.9942668463884435
2010-12-27,1,0.0019286950998122303,0.002091944849419317,-0.0043296173702847395,0.003245701881199431,0.9936188458477918
2010-12-29,1,0.002190946247727694,0.0023951126454943386,-0.005779195159767932,0.0020332555638665,0.9935756150938357
2010-12-31,1,0.0024711649913224214,0.0027445112168512703,-0.005779195159767932,0.0030444321565920134,0.9931411320266215
2011-01-04,1,0.0016408837564689251,0.001762319977598907,-0.005297715246009212,0.004925078779324644,0.9938074672952097
2011-01-06,1,0.001367435235963602,0.001431180506146833,-0.005297715246009212,0.005323928769857858,0.9937822721690303
2011-01-10,1,0.0011511406464157195,0.0012157199564920634,-0.005779195159767932,0.006768742714129846,0.9907274899517375
2011-01-12,1,0.0008215523113276504,0.0008228015357491316,-0.005779195159767932,0.005323928769857858,0.9910909239148545
2011-01-14,1,7.22329561705468e-05,0.00019118972992700385,-0.003077117425351469,0.005323928769857858,0.9914222366509231
2011-01-19,0,-9.11460296299753e-05,5.7540199746373435e-05,-0.005520703338686083,0.004856759051561631,0.9917589632829578
2011-01-21,0,-0.0001177187670066657,3.131498154736168e-05,-0.005520703338686083,0.005323928769857858,0.9910879940488404
2011-01-25,1,0.00035297571508035837,0.0004400067398660398,-0.007021770491652495,0.004420472030714146,0.9905665697393302
2011-01-27,1,3.139603430574926e-05,0.00014279425940156041,-0.005953603814153566,0.004856759051561631,0.9905212536212537
2011-01-31,-1,-0.00031245767692983384,-0.00013742358477883746,-0.005953603814153566,0.004553422027558551,0.9907540461388425
2011-02-02,0,-1.3373147961176577e-05,0.00010067719342091261,-0.005953603814153566,0.004553422027558551,0.9901550425865425
2011-02-04,1,0.00018505870229484916,0.00027391164846697787,-0.009980427247000101,0.0038476692443948726,0.9895624841905335
2011-02-08,-1,-0.000561536299123413,-0.00040263803200128555,-0.008046990174724022,0.0038476692443948726,0.992433954399477
2011-02-10,-1,-0.0005621179757352576,-0.00041287260908666977,-0.009980427247000101,0.004436389554528665,0.9915956596352907
2011-02-14,-1,-0.000506459970311723,-0.00035149619741879336,-0.01015200722736212,0.004225357376156826,0.9907190457524856
2011-02-16,-1,-0.0009465724705359277,-0.0007581122629767435,-0.009980427247000101,0.004225357376156826,0.9914373307879384
2011-02-18,-1,-0.00032202631032392763,-0.00021307970155207975,-0.009980427247000101,0.005491566927474082,0.991226401910196
2011-02-23,-1,-0.00139863998097688,-0.0011469945996123048,-0.009349455398201246,0.005491566927474082,0.992248493498777
2011-02-25,-1,-0.0010053578850706167,-0.0007935315365586369,-0.009349455398201246,0.005491566927474082,0.9922488932746603
2011-03-01,-1,-0.0012574621589713465,-0.0010374569056872088,-0.006475791958999345,0.006729169180091463,0.992093337294838
2011-03-03,-1,-0.0005603638037592633,-0.0004133956078080285,-0.006475791958999345,0.005491566927474082,0.9932665375028005
2011-03-07,-1,-0.0010738722119008298,-0.0008861467011645525,-0.00409812109732979,0.006729169180091463,0.9931356988780199
2011-03-09,-1,-0.0009879142365300528,-0.0008078989260427142,-0.0055287659657957695,0.00703636739760893,0.992921279937782
2011-03-11,-1,-0.0009595050023665417,-0.0007957027287477021,-0.0032300796995172482,0.006054747244545141,0.9939765930326422
2011-03-15,-1,-0.0014206871737446546,-0.0012012384192039325,-0.0006848133042006497,0.00774568419806195,0.9943617431318851
2011-03-17,-1,-0.001963701717611791,-0.0016697681503739905,-0.00046926383788529536,0.00774568419806195,0.9938984776862089
2011-03-21,-1,-0.001482250453521382,-0.0012506801213674145,-0.0009483702072055291,0.00774568419806195,0.9940200467849819
2011-03-23,-1,-0.0015865471889317155,-0.00133662601195229,-0.00046926383788529536,0.007816892165486082,0.9936389401860302
2011-03-25,-1,-0.0015114170503934112,-0.001254722026147216,-0.0007877105721038677,0.0074873437877141435,0.9943803340023705
2011-03-29,-1,-0.001126788460640813,-0.0009220543515872757,-0.0007877105721038677,0.0074873437877141435,0.9941773684005936
2011-03-31,-1,-0.00100939429185892,-0.0008374474349141438,-0.0007877105721038677,0.0074873437877141435,0.9940530148678219
2011-04-04,-1,-0.0005614154249063333,-0.0004451010409171032,-0.0007877105721038677,0.0074873437877141435,0.9945825957780033
2011-04-06,-1,-0.0004416789519688374,-0.00034945353120539993,-0.0011130397008466079,0.007278977487442697,0.9949027481613888
2011-04-08,-1,-0.0007686144230507719,-0.0006224822141832336,-0.0007877105721038677,0.007278977487442697,0.994286248989755
2011-04-12,-1,-0.0007771546601696948,-0.0006170566392041713,-0.0003558828318254379,0.007278977487442697,0.994109597220462
2011-04-14,-1,-0.0004321131190852385,-0.00032789227569305984,-0.00041077266303913087,0.0073398427965171735,0.993896715247371
2011-04-18,-1,-0.0003372194432731464,-0.00022194598897973348,-0.00041077266303913087,0.007206074501235663,0.9950154697113677
2011-04-20,1,0.00033443510727354205,0.00037499531935835414,-0.00041077266303913087,0.007206074501235663,0.9948874511401395
2011-04-25,1,0.000254539121086879,0.0003128311222916459,-0.0027977504429781367,0.007206074501235663,0.9937396930346626
2011-04-27,1,0.0014926890735957438,0.0016701488713221097,-0.004929982340922654,0.005722179149782412,0.9942042041167766
2011-04-29,1,0.0010756579175105248,0.0011855203855320557,-0.004929982340922654,0.005722179149782412,0.994134069779558
2011-05-03,1,0.0014410897203986682,0.001582514111624676,-0.004929982340922654,0.005653801732794764,0.9940962034983953
2011-05-05,1,0.0013569091845314907,0.0015056261683840126,-0.006729083569989695,0.005653801732794764,0.9938380362454174
2011-05-09,1,0.0018237440508624906,0.002090930340890121,-0.006729083569989695,0.003918237497836353,0.9935129034717763
2011-05-11,1,0.002535000734955669,0.0029096511303728385,-0.006729083569989695,0.005014428836041848,0.9931223668187334
2011-05-13,1,0.0020913886316404813,0.0023646052001567303,-0.006935925523060373,0.0024196886201409227,0.9930252932666364
2011-05-17,1,0.0009650351182508088,0.001108825703697378,-0.007779663094048748,0.005014428836041848,0.9922071269583402
2011-05-19,1,0.0012825897392561717,0.0014712100796103371,-0.007779663094048748,0.0033922135650165503,0.9927427376038032
2011-05-23,1,0.0010238609196157474,0.0011843639959709619,-0.00648937524587318,0.005983316112039613,0.993394342413984
2011-05-25,1,0.000858163242443493,0.00099208417553379,-0.00648937524587318,0.005983316112039613,0.99331909691714
2011-05-27,1,0.0006378033992650407,0.0007290099100085499,-0.007092833156803047,0.005983316112039613,0.992900812113474
2011-06-01,1,0.002483828329383529,0.002824134679999675,-0.007092833156803047,0.006424147226479978,0.9925980219103973
2011-06-03,1,0.0016884302510237585,0.0019153825007346605,-0.0039550190913170856,0.007282850616296045,0.9918742080868018
2011-06-07,1,0.0014209604656873639,0.0016298766287014363,-0.00199731431233802,0.007282850616296045,0.9922949393265659
2011-06-09,1,0.0017884724906457859,0.0020143892692385495,-0.0035774759083228745,0.005522005508368475,0.9924012509439493
2011-06-13,1,0.0012215246005220165,0.0013811601478652966,-0.0035774759083228745,0.005522005508368475,0.9920846895085424
2011-06-15,1,0.001164446089496634,0.001321066454870663,-0.0027492428638276785,0.004912575676866769,0.9932962893189744
2011-06-17,1,0.0016422379945989734,0.0019055877383545184,-0.00484269485662163,0.004912575676866769,0.9928467630743086
2011-06-21,0,0.0,0.0,-0.00484269485662163,0.004091446834281581,0.9927605898087821
2011-06-23,0,0.0,0.0,-0.00484269485662163,0.004912575676866769,0.9915193332350759
2011-06-27,0,0.0,0.0,-0.004962482797154073,0.004171377802110358,0.9909925098958484
2011-06-29,0,-0.00010710619651912659,3.191678671958005e-05,-0.0062935523382998924,0.0026779300866357565,0.9905453334229708
2011-07-01,0,0.0,0.0,-0.008857675130549228,0.0022851921032895207,0.991275213003049
2011-07-06,1,0.0010516880904208126,0.0011612557504988824,-0.016076513158908276,0.0023419905760101115,0.9896276222841712
2011-07-08,1,0.002477777758646102,0.0027416420856716892,-0.01776771378586106,0.0023419905760101115,0.9870550100233811
2011-07-12,0,0.0,0.0,-0.01776771378586106,0.0038949914248244894,0.9857197439926001
2011-07-14,0,0.0,0.0,-0.019459128724069328,0.00957765362646614,0.9830615074350095
2011-07-18,0,0.0,0.0,-0.019459128724069328,0.014235391958271722,0.9820615009970877
2011-07-20,0,0.0,0.0,-0.019459128724069328,0.011338793378078386,0.9820856227651105
2011-07-22,1,5.4688965849295185e-05,9.758020957275064e-05,-0.021420548550210732,0.008612120766401695,0.9820176952790061
2011-07-26,-1,-0.0002701701576500032,-0.0001928633411971553,-0.020024070042501497,0.012776953487163845,0.9818819966912794
2011-07-28,-1,-0.0009876740484512647,-0.0008110887145828393,-0.020985110382924933,0.012776953487163845,0.9818895390359373
2011-08-01,-1,-0.0010942987814789476,-0.0008927312041009546,-0.020985110382924933,0.020181489299803804,0.9813129396019064
2011-08-03,-1,-0.002323066078454596,-0.0019668377590777797,-0.012229089490920704,0.020181489299803804,0.9822240820212402
2011-08-05,-1,-0.0026505526247419028,-0.002230812096209494,-0.01330892025137103,0.015463262198722042,0.9832674670538883
2011-08-09,-1,-0.003187412718658101,-0.002708495306694676,-0.010470860217870193,0.015463262198722042,0.9852307430477306
2011-08-11,-1,-0.0030296204552955944,-0.0025722080924559785,-0.01330892025137103,0.011141155511139367,0.9859621026422134
2011-08-15,0,0.0,0.0,-0.01330892025137103,0.007323934424315648,0.9869314481655148
2011-08-17,0,0.0,0.0,-0.01330892025137103,0.008720439145483733,0.9870352713840311
2011-08-19,-1,-0.003299368961021768,-0.0028258340394504973,-0.01330892025137103,0.008720439145483733,0.9872069830433091
2011-08-23,-1,-0.002764084523376613,-0.0023663755530708153,-0.018654111568212936,0.007323934424315648,0.9879019155249861
2011-08-25,0,0.0,0.0,-0.013379423749061405,0.005564555737328375,0.9886724430759899
2011-08-29,-1,-0.0009387250405458171,-0.0007975670594397761,-0.013379423749061405,0.004738313838779042,0.9888911059385715
2011-08-31,-1,-0.0009135343940125695,-0.0007733279592188772,-0.01961847341499779,0.004738313838779042,0.9867657473955096
2011-09-02,-1,-0.004464786215157281,-0.0038496108504040586,-0.01961847341499779,0.004738313838779042,0.986059826243808
2011-09-07,-1,-0.003301061703986078,-0.002835569455656671,-0.01961847341499779,0.0055642963899625,0.9857557527228087
2011-09-09,-1,-0.005261218833189725,-0.004605440373326939,-0.007015827638138556,0.0055642963899625,0.9868917314513791
2011-09-13,-1,-0.004552079467149705,-0.004008279306428924,-0.013749299511117048,0.008695157965594296,0.9861124946695555
2011-09-15,-1,-0.003779230211089055,-0.003327476394784674,-0.013749299511117048,0.008669268645405733,0.9865354139458831
2011-09-19,0,0.0,0.0,-0.013749299511117048,0.008669268645405733,0.9861461201525521
2011-09-21,-1,-0.001574992960866547,-0.001408867679576601,-0.007015827638138556,0.00986852566735247,0.9864239596187983
2011-09-23,-1,-0.0015248985829623093,-0.001380117126294358,-0.007390445891252361,0.011688028415854052,0.984630795789003
2011-09-27,-1,-0.0011339628649347628,-0.0010295974868335404,-0.013749299511117048,0.011688028415854052,0.9842900620855015
2011-09-29,0,0.0,0.0,-0.007390445891252361,0.013261489264137862,0.9856785115130796
2011-10-03,0,0.0,0.0,-0.004905715795352997,0.014541099554654689,0.986529868464936
2011-10-05,0,0.0,0.0,-0.014802309885012284,0.011050388627965356,0.9843921683092077
2011-10-07,0,0.0,0.0,-0.014802309885012284,0.011050388627965356,0.9844688549912683
2011-10-11,0,0.0,0.0,-0.008386420082131585,0.011050388627965356,0.9848478318800014
2011-10-13,0,-0.0005815722791495204,0.0,-0.018104037185814312,0.012518388524180824,0.9839533872011536
2011-10-17,-1,-0.0006981748162911633,-0.0006629444286293318,-0.008386420082131585,0.012518388524180824,0.9841613097764107
2011-10-19,-1,-0.0013923736483090366,-0.0013402750764194738,-0.017018682071532395,0.014287169184607162,0.9831342665933289
2011-10-21,-1,-0.0001541017038676237,-4.273781975586507e-05,-0.017018682071532395,0.012518388524180824,0.9848286143496715
2011-10-25,-1,-0.00019196569344900752,-0.00011097782959248225,-0.017018682071532395,0.008792119062817377,0.9858298026905856
2011-10-27,1,0.00048106809486801153,0.000637089627999343,-0.017755599613299828,0.005506466301442066,0.9859753719108194
2011-10-31,1,0.0006259290674100425,0.0008310484567708398,-0.017069603501706283,0.005506466301442066,0.986710877418907
2011-11-02,-1,-0.001712176726771277,-0.001599548507448762,-0.008051342088691111,0.008803414696765212,0.988304651870654
2011-11-04,-1,-0.001557579776139164,-0.0014656480120869915,-0.008051342088691111,0.010936013102986038,0.987833246092353
2011-11-08,0,0.0,0.0,-0.008051342088691111,0.008323691913002718,0.9889232613897252
2011-11-10,0,0.0,0.0,-0.008051342088691111,0.0059359962142512416,0.9896261116509247
2011-11-14,0,0.0,0.0,-0.008936280633503392,0.005003708404793402,0.9893697064512611
2011-11-16,-1,-0.0023812034482435214,-0.00227136384711063,-0.008051342088691111,0.004823074906435112,0.9911362575006677
2011-11-18,0,0.0,0.0,-0.0070848749612026024,0.004823074906435112,0.9910816456927422
2011-11-22,0,0.0,0.0,-0.006814818063356513,0.006121263474799937,0.9901029569821314
2011-11-25,0,0.0,0.0,-0.005800078434534989,0.00857019114992218,0.9907179167700614
2011-11-29,0,0.0,0.0,-0.006814818063356513,0.006121263474799937,0.9905818050682855
2011-12-01,1,0.0009338890018765252,0.0012553426739515595,-0.006814818063356513,0.006121263474799937,0.9917660908032984
2011-12-05,1,0.0011734931422376642,0.0015313182970774198,-0.0070848749612026024,0.004971342041165091,0.9914793883327059
2011-12-07,1,0.0010287253534232827,0.001355352376101451,-0.00677866299705889,0.004971342041165091,0.9914432154272016
2011-12-09,1,0.0008842455141143681,0.0012178296405457106,-0.005788026745769115,0.005715552489495299,0.9920863716055969
2011-12-13,1,0.0005392914962819138,0.000820070135975311,-0.00421813829948776,0.007343116788021391,0.9925054637934125
2011-12-15,1,5.6570974392730167e-05,0.0002334434815201488,-0.0014051236816274965,0.007343116788021391,0.9924928703110011
2011-12-19,-1,-0.000361538427002356,-0.0002769209742385343,0.0011569543660285807,0.009454951466050496,0.9908641967830486
2011-12-21,1,0.0008014929024859727,0.001025101868056268,-0.0014051236816274965,0.007559413118153011,0.9929951229875817
2011-12-23,1,0.0007795787130359856,0.0009599127137949393,-0.0014051236816274965,0.00930693278424051,0.9924516111599613
2011-12-28,1,0.00042308989281518975,0.000539598188110666,-0.0013837029983349472,0.00930693278424051,0.992919270742799
2011-12-30,0,0.0,0.0,-0.003549198745705402,0.0075100735575496826,0.9928677573614775
2012-01-04,0,0.0,0.0,-0.0013256069539122923,0.009731543821174402,0.993127146998572
2012-01-06,0,0.0,0.0,-0.0008178414213919181,0.009731543821174402,0.9929761444025986
2012-01-10,1,0.00039761999039684753,0.0005836977462641744,-0.0020140189293984334,0.00807450804759551,0.9916740183157609
2012-01-12,0,0.0,0.0,-0.004044654757687241,0.00807450804759551,0.9915617322450585
2012-01-17,0,0.0,0.0,-0.004044654757687241,0.00807450804759551,0.9915442772269631
2012-01-19,0,0.0,0.0,-0.004044654757687241,0.00683286394677597,0.9926866443004309
2012-01-23,1,0.0012542068364939166,0.001482968716553222,-0.003582506257406036,0.00683286394677597,0.9929075235443656
2012-01-25,0,0.0,0.0,-0.004046525788146479,0.004837008552481555,0.9935002992733168
2012-01-27,1,0.002134312972022656,0.0024827493540447495,-0.004046525788146479,0.005987427888147643,0.992644424408556
2012-01-31,1,0.0021729919587687263,0.002555274771858945,-0.004046525788146479,0.005987427888147643,0.9924939067985858
2012-02-02,1,0.0017090430154497304,0.00195353010822136,-0.004046525788146479,0.004837008552481555,0.9932422725602538
2012-02-06,1,0.00206414519340124,0.0023616348560696757,-0.006071221600604946,0.0025235952267567393,0.9926310371462671
2012-02-08,1,0.0011464775655133821,0.0013411266570150654,-0.004046525788146479,0.00398015257412811,0.9946750234974641
2012-02-10,1,0.0007239044591778288,0.0008276530154527631,-0.003660052199019391,0.00398015257412811,0.99483871126075
2012-02-14,1,0.00045696447488902656,0.0004914760869734601,-0.003660052199019391,0.00398015257412811,0.994390626145986
2012-02-16,1,0.0006820373014588556,0.000745360560743033,-0.003660052199019391,0.0031032901395464147,0.9945956939191314
2012-02-21,1,0.0008774192883427872,0.0010083247326119497,-0.003959887144780281,0.0031032901395464147,0.9942559016554748
2012-02-23,1,0.00039916609040819705,0.0004352127402627408,-0.003339671279981263,0.0031032901395464147,0.9945794481243164
2012-02-27,-1,-7.845037861233309e-05,-3.1435494697700515e-06,-0.0040903432076638165,0.0031032901395464147,0.9941070859562566
2012-02-29,0,-5.5807511525406915e-06,3.0382175065847555e-05,-0.003339671279981263,0.0031032901395464147,0.9945992344643667
2012-03-02,1,7.680124167559459e-05,0.00010586271643764684,-0.0039480918342945995,0.0037326964162402885,0.9942528437148989
2012-03-06,-1,-0.00020806964304720965,-0.00015299954125965807,-0.0029541206360870573,0.004089917053477049,0.9947208266462015
2012-03-08,1,0.00019971700282628863,0.00020134303810248708,-0.003339671279981263,0.0029911846152718487,0.995186435496221
2012-03-12,1,2.951466569798861e-06,4.3673107791744104e-05,-0.004970334384021252,0.002954889863699178,0.9943667962691498
2012-03-14,0,0.0,0.0,-0.004970334384021252,0.0028738629299257324,0.9950025672697299
2012-03-16,0,0.0,0.0,-0.005816736522132705,0.0028738629299257324,0.9942092929955447
2012-03-20,0,0.0,0.0,-0.004970334384021252,0.003037061400756414,0.9936158444889099
2012-03-22,0,0.0,0.0,-0.004970334384021252,0.003037061400756414,0.9936201402751739
2012-03-26,1,0.0005292283669590651,0.0006281778073605692,-0.004970334384021252,0.003037061400756414,0.9940234926007615
2012-03-28,0,-3.2700251025901544e-05,1.742913768386302e-05,-0.004970334384021252,0.0038662330966588864,0.9933848187164055
2012-03-30,0,0.0,0.0,-0.004317469597065118,0.00546288098345386,0.9932732260178939
2012-04-03,0,0.0,0.0,-0.005768427657413849,0.00546288098345386,0.9929677708984581
2012-04-05,0,0.0,0.0,-0.00920150810651714,0.00546288098345386,0.9925662276349009
2012-04-10,0,0.0,0.0,-0.0017329227709446528,0.00546288098345386,0.9935873643807208
2012-04-12,0,0.0,0.0,-0.005446863079833963,0.005733332589125606,0.9929167425427372
2012-04-16,1,0.000736918745582792,0.0007697073344733458,-0.003780319131145197,0.005733332589125606,0.9938433577240161
2012-04-18,-1,-0.000407466128231037,-0.00031001193921173086,-0.004337528245417383,0.00546288098345386,0.9946444378520434
2012-04-20,0,0.0,0.0,-0.008330139515585871,0.00546288098345386,0.9937035557960322
2012-04-24,0,0.0,0.0,-0.008039660801389275,0.005733332589125606,0.9932771184629906
2012-04-26,0,0.0,0.0,-0.008039660801389275,0.00249311168762342,0.9936418418018959
2012-04-30,1,0.000539823057276773,0.0005826149667326598,-0.008039660801389275,0.0007501561626290849,0.9938802338051596
2012-05-02,1,0.00021614176915588762,0.0003086090749199923,-0.008039660801389275,0.0007501561626290849,0.9938632383438506
2012-05-04,-1,-0.0002738327187125925,-0.00010758796544315573,-0.008039660801389275,0.00019556696112361675,0.9941260902896975
2012-05-08,-1,-0.0006495968533770661,-0.0004280261245789525,-0.008039660801389275,0.0018525328597625474,0.9939114244925947
2012-05-10,-1,-0.0008126907386738116,-0.0005722736003031121,-0.006810806463340514,0.0020308516117801233,0.9943742712559349
2012-05-14,-1,-0.001006764716809803,-0.0007328808604163088,-0.008039660801389275,0.002794516130744355,0.993975944196356
2012-05-16,-1,-0.0006405919739147536,-0.0005195161897673377,-0.008039660801389275,0.002794516130744355,0.9939057285114934
2012-05-18,-1,-0.0009703603211087394,-0.0008248192844096723,-0.004402793735154487,0.004193072851999213,0.9945752257357875
2012-05-22,0,0.0,0.0,-0.004066475444334158,0.004193072851999213,0.9948198060736497
2012-05-24,0,0.0,0.0,-0.004066475444334158,0.003713258222775217,0.9944734920173735
2012-05-29,0,0.0,0.0,-0.005656931889789645,0.003713258222775217,0.9939409998238917
2012-05-31,0,0.0,0.0,-0.0039292202532350004,0.004440113471350095,0.9940041750894641
2012-06-04,0,0.0,0.0,-0.0025547983908400297,0.005798350572976048,0.9931496202702741
2012-06-06,0,0.0,0.0,-0.003928454321324301,0.0052418516325535534,0.9930874422643446
2012-06-08,0,0.0,0.0,-0.003928454321324301,0.004743698001741217,0.9931971908331564
2012-06-12,0,0.0,0.0,-0.002915115854703001,0.004722439081711387,0.9936691312514835
2012-06-14,0,0.0,0.0,-0.003928454321324301,0.004722439081711387,0.9933914536713502
2012-06-18,0,0.0,0.0,-0.003928454321324301,0.005257877550083914,0.9932789935326943
2012-06-20,0,0.0,0.0,-0.003928454321324301,0.004941120953201196,0.9937343707095421
2012-06-22,0,0.0,0.0,-0.00462486040246242,0.004941120953201196,0.9932744006730712
2012-06-26,0,0.0,0.0,-0.00462486040246242,0.007149676453254167,0.9931462858990149
2012-06-28,-1,-0.4225526431213369,-0.4163626853467549,-0.0031469959044454743,0.007711120537272905,0.7035404402152259
2012-07-02,0,0.0,0.0,-0.005108261167014969,0.004941120953201196,0.99337635419156
2012-07-05,0,0.0,0.0,-0.007450028882417401,0.004423390138474433,0.9929699768363616
2012-07-09,0,0.0,0.0,-0.007450028882417401,0.005993586945361952,0.9928940869660846
2012-07-11,1,0.00014391299665314947,0.00019822965607515765,-0.007450028882417401,0.007149676453254167,0.992671615311172
2012-07-13,-1,-0.00013569194215134746,-0.00013055959868676133,-0.006670674697680067,0.007149676453254167,0.9927799895430583
2012-07-17,0,0.0,0.0,-0.006670674697680067,0.005993586945361952,0.9930216264861419
2012-07-19,0,0.0,0.0,-0.006670674697680067,0.00528640020841428,0.993253281659851
2012-07-23,-1,-0.00019625714089889276,-0.00018463549309271997,-0.0023951596944198866,0.006115930688929963,0.9940284286176457
2012-07-25,0,0.0,0.0,-0.002593120956025043,0.00528640020841428,0.9946246665323364
2012-07-27,0,0.0,0.0,-0.004128114931268669,0.004453851968711887,0.9952021094365944
2012-07-31,0,0.0,0.0,-0.002593120956025043,0.004453851968711887,0.9955203974166629
2012-08-02,0,0.0,0.0,-0.0020037979599312607,0.004453851968711887,0.996093111304801
2012-08-06,0,0.0,0.0,-0.0020037979599312607,0.004453851968711887,0.9959170470640785
2012-08-08,0,0.0,0.0,-0.0020037979599312607,0.004453851968711887,0.9959152872457185
2012-08-10,0,0.0,0.0,-0.002140944735733515,0.005136670792068897,0.9956274360939054
2012-08-14,0,0.0,0.0,-0.0023803513800339134,0.007672091460099073,0.9954054683397712
2012-08-16,0,0.0,0.0,-0.002140944735733515,0.0078388479047849,0.9949317853953946
2012-08-20,0,0.0,0.0,-0.002140944735733515,0.007652771685025073,0.995175511532811
2012-08-22,0,0.0,0.0,-0.0018164826619745372,0.007652771685025073,0.9953520155100433
2012-08-24,0,0.0,0.0,-0.0018164826619745372,0.007050689960273134,0.9960625515782113
2012-08-28,0,0.0,0.0,-0.0019507297436141978,0.007050689960273134,0.9957623223517196
2012-08-30,0,0.0,0.0,-0.002376346022778571,0.007050689960273134,0.9956714375595396
2012-09-04,0,0.0,0.0,-0.002376346022778571,0.005546588827362779,0.9957709984440435
2012-09-06,0,0.0,0.0,-0.002691870896248542,0.005194207818540377,0.9957496371633081
2012-09-10,0,0.0,0.0,-0.002376346022778571,0.004999732365413777,0.9961638130308232
2012-09-12,0,0.0,0.0,-0.0029291706180017817,0.0036160192707211233,0.9947691807537754
2012-09-14,0,0.0,0.0,-0.004161234184249486,0.0031602083115800086,0.9948245643142436
2012-09-18,0,0.0,0.0,-0.004161234184249486,0.0036160192707211233,0.9944747071329312
2012-09-20,0,0.0,0.0,-0.0033162997884162606,0.0036160192707211233,0.9944429682174544
2012-09-24,0,0.0,0.0,-0.0053493066772987655,0.0037196186662301614,0.993676073945484
2012-09-26,0,0.0,0.0,-0.0053493066772987655,0.0037196186662301614,0.9937402854324558
2012-09-28,1,0.0022737889638188864,0.0025301370062835705,-0.0053493066772987655,0.003201115951264856,0.99357984719894
2012-10-02,1,0.0017225617817712984,0.0019754174385441625,-0.0053493066772987655,0.003606741164541569,0.99352922456935
2012-10-04,1,0.0017278544981105379,0.0019776066015324356,-0.005638881359441083,0.003606741164541569,0.9930695063177211
2012-10-08,0,0.0,0.0,-0.006939963250500471,0.005366641718436898,0.9904932042852834
2012-10-10,0,0.0,0.0,-0.00548144569721447,0.005366641718436898,0.9920091167194227
2012-10-12,0,0.0,0.0,-0.006115353364605721,0.003640616477600265,0.9921195108986481
2012-10-16,1,0.00018216715333114819,0.000195998823532118,-0.006115353364605721,0.003640616477600265,0.9919747192860918
2012-10-18,1,0.00017628994475871423,0.00020505000417827526,-0.006115353364605721,0.003640616477600265,0.9920338211510499
2012-10-22,-1,-0.000957382170903946,-0.0007581242213193746,-0.003993503063941358,0.005841430509278609,0.9921122366078705
2012-10-24,-1,-0.0018136629917314476,-0.0014820977470497527,-0.0005451546968398977,0.008046370006653763,0.9914035234395769
2012-10-26,0,0.0,0.0,-0.003993503063941358,0.008046370006653763,0.9914584143577069
2012-11-01,0,0.0,0.0,-0.006429605141401365,0.006572052476981868,0.9914730124296212
2012-11-05,0,0.0,0.0,-0.005695871470788534,0.006572052476981868,0.9917174242495932
2012-11-07,-1,-0.0014893695276416955,-0.0012179488173200757,-0.0043253066723385625,0.005583126405083336,0.9941890631169932
2012-11-09,-1,-0.0008815926897764911,-0.0007296748932484063,-0.003784848799926745,0.006190317759938389,0.9941956720495578
2012-11-13,0,0.0,0.0,-0.0034408425726991285,0.007255942814843173,0.9941203588636125
2012-11-15,0,0.0,0.0,-0.003784848799926745,0.006190317759938389,0.9942680058065533
2012-11-19,-1,-0.0003292082101642338,-0.00026585938276809295,-0.003784848799926745,0.007255942814843173,0.9937521771761919
2012-11-21,-1,-0.0003123979508428045,-0.0002467263904689771,-0.0039061971651641178,0.007065752365604536,0.993883032472887
2012-11-26,1,0.00028981616215141743,0.00030678306170878785,-0.0039061971651641178,0.006190317759938389,0.9941038851840054
2012-11-28,1,0.00021851975263599555,0.00022480250577018796,-0.0039061971651641178,0.005811089851037104,0.9942839094986403
2012-11-30,-1,-0.0002059312483366546,-0.00015462369301608698,-0.003836138794222836,0.007065752365604536,0.9937929752020247
2012-12-04,0,0.0,0.0,-0.0037614960096129845,0.008118012282368225,0.9931365193535021
2012-12-06,0,0.0,0.0,-0.003510098332191118,0.008118012282368225,0.9934002400287525
2012-12-10,-1,-2.1527641842335647e-05,-1.0229353492498382e-05,-0.003510098332191118,0.0090858070373412,0.9932692353656752
2012-12-12,0,0.0,0.0,-0.003510098332191118,0.00796298342067672,0.9938572209039472
2012-12-14,0,0.0,0.0,-0.0012262000984738966,0.00796298342067672,0.9938509857633571
2012-12-18,0,0.0,0.0,-0.002118043425678926,0.0068636499269984835,0.9942995438464302
2012-12-20,0,0.0,0.0,-0.0018606867036628108,0.007186248178656141,0.9941095551572791
2012-12-24,1,0.00028523404079109385,0.0002989902516587325,-0.0005523177532899976,0.007186248178656141,0.9944696635246947
2012-12-27,-1,-0.00016809040472748774,-0.00010853220383026435,-0.0005523177532899976,0.008994675139517329,0.9940602006160616
2012-12-31,-1,-0.00015073882163364367,-9.808039863369049e-05,-0.0005523177532899976,0.007186248178656141,0.9949767343812052
2013-01-03,1,0.0006204458197453392,0.0006767531967190933,-0.0007751674563133337,0.00529638139409621,0.9959055799237486
2013-01-07,1,0.0006385230317212454,0.0007063931334022778,-0.0007751674563133337,0.007186248178656141,0.9946552244932122
2013-01-09,1,0.0008147913378962294,0.0009122075608068072,-0.0007751674563133337,0.00529638139409621,0.9951054918732227
2013-01-11,1,0.0004912299371592624,0.0006088078869902776,-0.0007751674563133337,0.00529638139409621,0.994950132561029
2013-01-15,1,0.0011355924493158193,0.0012818269788116275,-0.0009153380092334146,0.003716104110481111,0.9953142923460343
2013-01-17,1,0.0010328801892292008,0.001153462443144235,-0.0009036477610724677,0.003033737446356082,0.995463339616165
2013-01-22,0,0.0,0.0,-0.0009036477610724677,0.0026422709577118074,0.9953746381942105
2013-01-24,0,0.0,0.0,-0.0009159507204341817,0.003033737446356082,0.9945432122361212
2013-01-28,0,0.0,0.0,-0.0009159507204341817,0.0026422709577118074,0.9947054001359721
2013-01-30,0,0.0,0.0,-0.0009159507204341817,0.003033737446356082,0.9941212961898952
2013-02-01,0,0.0,0.0,-0.0009317217479568585,0.003033737446356082,0.9943837227903773
2013-02-05,0,0.0,0.0,-0.00107247082514073,0.003033737446356082,0.9949583791584632
2013-02-07,0,0.0,0.0,-0.00107247082514073,0.0044808727739781605,0.9946843147238051
2013-02-11,0,0.0,0.0,-0.00107247082514073,0.006183339872907761,0.9941938145964818
2013-02-13,1,0.0016163101225784137,0.0019164839041320445,-0.00107247082514073,0.0080435063181789,0.9934146453039843
2013-02-15,1,0.0025903447743820924,0.0029265581783117596,-0.0028404757237387264,0.0080435063181789,0.9929770040014654
2013-02-20,1,0.0022076332039162785,0.002487956017304533,-0.0014762149466643342,0.009079784586846225,0.993086507183274
2013-02-22,1,0.0021212426044874724,0.0023730137040222856,-0.0014762149466643342,0.00861191932278981,0.993031970614193
2013-02-26,1,0.001821759419572184,0.002034551916413839,-0.0014762149466643342,0.009079784586846225,0.9928459524377923
2013-02-28,0,0.0,0.0,-0.0014387267837082445,0.009079784586846225,0.9923283349797763
2013-03-04,0,0.0,0.0,-0.0014387267837082445,0.00939677170260109,0.992265012034275
2013-03-06,0,0.0,0.0,-0.0013382208767063735,0.00939677170260109,0.9929871809176717
2013-03-08,0,0.0,0.0,-0.0024035275780686593,0.00939677170260109,0.9928263855535477
2013-03-12,0,0.0,0.0,-0.0024035275780686593,0.00939677170260109,0.9930557760008913
2013-03-14,0,0.0,0.0,-0.0030323084714230647,0.006705275281099517,0.994069084824274
2013-03-18,0,0.0,0.0,-0.0030323084714230647,0.006735003220811322,0.9933358037745247
2013-03-20,1,0.2194838997831129,0.22216789460083064,-0.005186022371397269,0.0060857878346611445,0.8193776506557123
2013-03-22,1,0.00134891704602269,0.001432149791412656,-0.003510805236084618,0.006172929672781347,0.993624865319425
2013-03-26,0,0.0,0.0,-0.005186022371397269,0.006172929672781347,0.9934803256653316
2013-03-28,0,0.0,0.0,-0.0073517124640142565,0.006172929672781347,0.9927217811831033
2013-04-02,1,0.002325020864409401,0.0025306033583675325,-0.0073517124640142565,0.0060857878346611445,0.9928322984437332
2013-04-04,1,0.0027090058332819677,0.0028812130846312704,-0.008005788711515164,0.006172929672781347,0.9912660737355621
2013-04-08,1,0.002092570963750216,0.0021661857364410663,-0.008005788711515164,0.006545341665510636,0.9911734983454576
2013-04-10,1,0.00203489047844505,0.0020884447170505774,-0.008005788711515164,0.006545341665510636,0.9912195909459848
2013-04-12,1,0.0018989692867710703,0.0019402669475725935,-0.008005788711515164,0.007788660668456087,0.9906396495039604
2013-04-16,1,0.0014712686073212206,0.001485651974896288,-0.005943165225929713,0.010589594130400618,0.9907598321780887
2013-04-18,1,0.000885062130987436,0.0009517335608427151,-0.005347658532896571,0.010589594130400618,0.9909539840127327
2013-04-22,1,0.0014256661096009296,0.0014358200953597713,-0.005655517039970985,0.012854009895541378,0.990753535555876
2013-04-24,1,0.0011067232523718276,0.001143530667174042,-0.005655517039970985,0.012854009895541378,0.9908933585215871
2013-04-26,1,0.0005459584314377998,0.0006749802086194808,-0.005347658532896571,0.008605213746960107,0.9921933477577463
2013-04-30,1,0.0002882450153186302,0.00044744618834739405,-0.005624021773411279,0.011291730901347717,0.9914565719381712
2013-05-02,1,0.0007603564341845864,0.0008689018016035076,-0.005624021773411279,0.008123688707428254,0.9921039782458284
2013-05-06,1,0.0008777063285303889,0.0009725706629855329,-0.006935685162274787,0.006748669578413824,0.9923193196974924
2013-05-08,1,0.0011490614931342024,0.0011961322389304762,-0.008308417238640698,0.007562071108386797,0.9913975000845288
2013-05-10,1,0.0013823756308991527,0.0014289498842095078,-0.008308417238640698,0.007562071108386797,0.9917224396714879
2013-05-14,1,0.0020342883795562102,0.00208680887954427,-0.008308417238640698,0.006058043841910975,0.9918328297610547
2013-05-16,1,0.0015218258532847134,0.0015420335781934312,-0.0069742368966944,0.007082557697501572,0.9923456147401225
2013-05-20,1,0.0013098330930509383,0.0013730177135768595,-0.0069742368966944,0.007082557697501572,0.9926109839238567
2013-05-22,1,0.0006237285677141002,0.0007866970529947811,-0.008997897298121693,0.007082557697501572,0.9912066918716006
2013-05-24,1,0.0005794839598575055,0.0007496422508134876,-0.008997897298121693,0.008803269194460837,0.9905827078956468
2013-05-29,1,0.0009235827663909913,0.0010324901179949875,-0.0069742368966944,0.008803269194460837,0.9909168729620257
2013-05-31,0,-3.6773658677528897e-05,0.00018702931476616475,-0.0047285639727226835,0.008803269194460837,0.9918638170210683
2013-06-04,0,-0.00010907607861573886,0.00010886656685998549,-0.0047285639727226835,0.008803269194460837,0.9912997966354898
2013-06-06,-1,-0.000486493541183508,-0.000217645624519726,-0.002747940566731358,0.00905222534200896,0.9916267175130131
2013-06-10,0,-0.00016966456357561655,4.936978344419532e-05,-0.004610721072166412,0.007468684469886926,0.9915761590986617
2013-06-12,-1,-0.0006431276422151079,-0.0003649439699400678,-0.002747940566731358,0.008967411498928591,0.9912061564197945
2013-06-14,0,0.0,0.0,-0.002747940566731358,0.008967411498928591,0.9907118989355551
2013-06-18,0,0.0,0.0,-0.0030156614773861543,0.007468684469886926,0.9914277217779413
2013-06-20,-1,-0.0005476697963983472,-0.000396008763343701,-0.00012983767442711447,0.008967411498928591,0.9925009095500469
2013-06-24,-1,-0.0008016809952108631,-0.0005723313428851282,-1.296013356294392e-05,0.008447350692035255,0.9928910252868428
2013-06-26,0,0.0,0.0,-0.002178979373973721,0.00731924236866061,0.993506793246884
2013-06-28,0,0.0,0.0,-0.0021703826145828245,0.00731924236866061,0.9935551975889916
2013-07-02,0,0.0,0.0,-0.0018697281158329597,0.007390536340135395,0.9944077101837354
2013-07-05,0,0.0,0.0,-0.002616842508460851,0.007016784951769429,0.9941255439133747
2013-07-09,1,3.713443720892439e-05,9.503895916028072e-05,-0.0033720698724526484,0.006578802238871907,0.99413833317118
2013-07-11,1,4.8685738583976285e-05,0.0001928046119801808,-0.0033720698724526484,0.003927302642432556,0.9945501489675518
2013-07-15,0,0.0,0.0,-0.0041565312354566175,0.0012252543140671556,0.9953571505896545
2013-07-17,0,0.0,0.0,-0.0041565312354566175,0.0012252543140671556,0.9952841785350075
2013-07-19,0,0.0,0.0,-0.005640593784999281,-0.0013078709363633888,0.9950081888625008
2013-07-23,0,0.0,0.0,-0.005640593784999281,-0.0007227732631002967,0.9950877971219085
2013-07-25,1,0.00023999501035388353,0.0003027311778308828,-0.0051501572871643225,0.0012252543140671556,0.9950747532836351
2013-07-29,0,0.0,0.0,-0.0051501572871643225,0.0020648605992304664,0.9951967407417449
2013-07-31,0,0.0,0.0,-0.005899460653060852,0.0020648605992304664,0.9945082721898569
2013-08-02,-1,-0.0005258519336875918,-0.00031377588385727933,-0.003993052402844964,0.0020648605992304664,0.9955817489402402
2013-08-06,-1,-0.0005021102511959173,-0.0003398545739482134,-0.0023633595342268487,0.00319906688357624,0.9954158544090971
2013-08-08,-1,-0.0006660267085152868,-0.0004678446009318151,-0.0023633595342268487,0.003572259119004785,0.995267414611884
2013-08-12,-1,-0.0006043884544419461,-0.0004302277390702819,-0.0015623692989248444,0.003572259119004785,0.9952673177085679
2013-08-14,-1,-0.0009506926227385325,-0.0007284231288735449,-0.0010515091316342325,0.004027372293403487,0.9946308793068556
2013-08-16,-1,-0.0015632845803035828,-0.001289957124853669,-0.00015207270653954654,0.0049471777549058606,0.9945967281468721
2013-08-20,-1,-0.0008322449213613782,-0.000676881335398195,-0.00015207270653954654,0.005828085411689618,0.9946713848683566
2013-08-22,-1,-0.0004259522724658321,-0.000333647434329617,-0.00040532002667078014,0.005448225054097356,0.9946117586400665
2013-08-26,-1,-0.00039190414373592035,-0.0003017241155584473,-0.0018351783991592463,0.005448225054097356,0.9943576862639979
2013-08-28,-1,-0.0012121568721040268,-0.001004893639903832,-0.0018351783991592463,0.005920964057585149,0.9944956628416223
2013-08-30,0,0.0,0.0,-0.0030914051870871875,0.005920964057585149,0.9942700130137164
2013-09-04,0,0.0,0.0,-0.0037751498363280266,0.005920964057585149,0.994444777785491
2013-09-06,-1,-0.0006442096051154142,-0.0005028643999564829,-0.00724442777297001,0.006692651541391463,0.9937403633137681
2013-09-10,-1,-0.0010581008974601498,-0.0008306206169580139,-0.007982875182957583,0.006692651541391463,0.9930229073234395
2013-09-12,-1,-0.0007484114533700177,-0.0005864202568770561,-0.007982875182957583,0.007508216736733089,0.9921921409646309
2013-09-16,-1,-0.0004840687730850139,-0.0003442162745708297,-0.007982875182957583,0.0081226277516532,0.9919527049060657
2013-09-18,-1,-0.00012150049802127881,-1.347758429453335e-05,-0.008696725205208138,0.0081226277516532,0.9910193175442568
2013-09-20,-1,-0.00031495782265363796,-0.00018323191437945893,-0.008696725205208138,0.009060169872734954,0.9907589723088486
2013-09-24,-1,-0.00043883913390676865,-0.0003160980190452058,-0.008696725205208138,0.009060169872734954,0.9908502172281166
2013-09-26,-1,-0.00019370126573370453,-0.0001174027809676865,-0.006405728442936221,0.00961391746810001,0.9908226924855473
2013-09-30,-1,-0.00037486887368344877,-0.00029199635665704747,-0.0045681236980873625,0.00961391746810001,0.9907708525015518
2013-10-02,1,0.0002637546365614365,0.0002918343987838308,-0.005936357329361304,0.00961391746810001,0.9909757188905481
2013-10-04,1,0.0004843768955392963,0.0005767210920247412,-0.005005119614491834,0.00855234054749499,0.9917992966655089
2013-10-08,-1,-0.0005595985293037857,-0.0004989769287799397,-0.001449518865948028,0.01097807340555548,0.9916446827904003
2013-10-10,1,0.0006668965163872704,0.0007707716161591693,-0.00448491122990553,0.00836375525531285,0.9930779832810593
2013-10-14,1,0.0007832275103183707,0.000865857619679046,-0.00448491122990553,0.00836375525531285,0.993198971008039
2013-10-16,1,0.001143816295748697,0.0013112343794858892,-0.00448491122990553,0.007814131966211649,0.9942027853903459
2013-10-18,1,0.0015857287912691414,0.0018036945695138616,-0.00448491122990553,0.006268656521846454,0.9947216427272192
2013-10-22,1,0.0011487504409720545,0.0012507405890532447,-0.005005119614491834,0.006268656521846454,0.9941707926198797
2013-10-24,1,0.0012692230787761368,0.0013930163354416761,-0.00448491122990553,0.004770414478602096,0.9947866863953899
2013-10-28,1,0.0014324072625314056,0.0015742802324634616,-0.0015740223284444654,0.004279169306523765,0.9953010889190512
2013-10-30,1,0.0010982020672749633,0.0012031330661295089,-0.0011445289711240383,0.004279169306523765,0.9954667726682359
2013-11-01,1,0.0006981256582695549,0.0007218014624603335,-0.003206157387822645,0.004279169306523765,0.9952325781262875
2013-11-05,1,0.0013946980039698557,0.001533039688973215,-0.00349166755997688,0.003278090853189727,0.9954685397355801
2013-11-07,1,0.0013919591421584809,0.0015647928060452576,-0.003363912240271279,0.004279169306523765,0.9951467333657851
2013-11-11,1,0.0011660908280276179,0.001208051317353786,-0.003944919080173606,0.003278090853189727,0.9950437109434298
2013-11-13,1,0.0013909673322328672,0.0015073075589810503,-0.004760715133362927,0.0027515833013762717,0.9946625453757144
2013-11-15,1,0.0018169592510637062,0.002006831964294726,-0.004760715133362927,0.0027515833013762717,0.9946919139707396
2013-11-19,1,0.0015202419889975953,0.0016641142743408924,-0.003944919080173606,0.003031100244577371,0.9939618965433635
2013-11-21,1,0.0011738967360923858,0.0012226762338074348,-0.004466759802224093,0.003031100244577371,0.9935657978763673
2013-11-25,1,0.001470821339919976,0.0015996746779740566,-0.004466759802224093,0.00412973675820215,0.9934140603942337
2013-11-27,1,0.001257531420728706,0.0013487781809933925,-0.004466759802224093,0.00412973675820215,0.9935092833924059
2013-12-02,1,0.001204501040022587,0.001314526375887231,-0.00408349384310729,0.00412973675820215,0.9938486365524198
2013-12-04,1,0.0012954490902115404,0.0014562135491601525,-0.00408349384310729,0.00412973675820215,0.9937774664172344
2013-12-06,1,0.001520940632335363,0.0017016959254419644,-0.0021414877837941104,0.00412973675820215,0.9939687774262655
2013-12-10,1,0.001261773344719258,0.0014391135861376461,-0.001052872927817917,0.004477167046963651,0.9941672366560835
2013-12-12,1,0.0007634907719316074,0.0008832889925082722,8.912032040212154e-05,0.004477167046963651,0.9943638676409935
2013-12-16,1,0.0008710339176595996,0.0009918551218315794,8.912032040212154e-05,0.005229272776135335,0.9944718837790457
2013-12-18,1,0.0015803911598993047,0.0017893603619568241,8.912032040212154e-05,0.0041348858028020415,0.9956652122347305
2013-12-20,1,0.0016696297915237339,0.0018962229529232103,0.000661182465531891,0.0035654369988844955,0.9962567269342179
2013-12-24,1,0.001428753099597374,0.0015739868947585113,-0.0022639085612280365,0.0025723751459195434,0.9945728407402901
2013-12-27,1,0.0013100079026929512,0.001421906217438974,-0.006526116000836136,0.002568463770736226,0.9937387366313973
2013-12-31,1,0.001325312824638453,0.0014410974712778359,-0.006526116000836136,0.002540053243951896,0.9935738157923603
2014-01-03,1,0.0008912545275493365,0.0009433253927509775,-0.006526116000836136,0.002540053243951896,0.9929805641462799
2014-01-07,1,0.0011553818760564353,0.0012299770480247258,-0.006526116000836136,0.004048759893409753,0.9929189709578246
2014-01-09,1,0.0009814408571098654,0.0009933943126623707,-0.006526116000836136,0.004048759893409753,0.9919376347989932
2014-01-13,1,0.000682532046337425,0.0006998142745289975,-0.004775529305522299,0.00620222961495293,0.9914923826473218
2014-01-15,1,0.000960599487290663,0.000980900786942887,-0.004775529305522299,0.007857375518895007,0.9913263266758363
2014-01-17,1,0.000743859850575862,0.0007535955696875048,-0.001645286047318478,0.008631809945986672,0.9912381163102644
2014-01-22,1,0.0003887991883901207,0.00046897117965552445,-0.005229680424667526,0.009741862012317097,0.9899902355525554
2014-01-24,-1,-0.0009866723413204817,-0.0007374171732381295,-0.001645286047318478,0.009741862012317097,0.9910229056582395
2014-01-28,-1,-0.0006397276174127176,-0.00044689210398496826,-0.001581173926604658,0.008631809945986672,0.9917813024300044
2014-01-30,-1,-0.0006861276402803459,-0.000495259865561561,-5.6048168965217146e-05,0.008631809945986672,0.9918768155221609
2014-02-03,-1,-0.0015379978549311202,-0.0012511470384021655,-5.6048168965217146e-05,0.009741862012317097,0.9918670091025017
2014-02-05,-1,-0.0009978093683602706,-0.0007714854413623425,-0.002722399785463287,0.008631809945986672,0.9925551612124481
2014-02-07,1,3.942045899576926e-05,0.00013214524070851493,-0.002722399785463287,0.007704595526874843,0.994008244974625
2014-02-11,1,0.001119735315554832,0.0011830397894529543,-0.002722399785463287,0.0032475280265989964,0.995166561252497
2014-02-13,1,0.0013484047812406742,0.001434129529182836,-0.002722399785463287,0.0021567074677933187,0.9953884548419036
2014-02-18,1,0.0013507152467560424,0.001414095428251739,-0.002722399785463287,0.0025413827005971975,0.9952896863495766
2014-02-20,1,0.0012381440260411595,0.0012773852346389285,-0.002722399785463287,0.0019560756420030764,0.9959477494658158
2014-02-24,1,0.0007546095559560977,0.0007917171051037709,-0.0037209852056634893,0.0019560756420030764,0.9953496207434672
2014-02-26,1,0.0007101755375552878,0.0007472501259508384,-0.002722399785463287,0.002028655283567048,0.9953620574948396
2014-02-28,1,0.0005973099159597389,0.0006549939016438501,-0.002722399785463287,0.0034956416532199957,0.9950791416911482
2014-03-04,1,0.00046026237044556124,0.0005773904362811329,-0.0027184029350170048,0.0034956416532199957,0.99530334614506
2014-03-06,1,0.0004053905952705961,0.00048403564653452043,-0.001223483425870224,0.0034956416532199957,0.9958266513011851
2014-03-10,1,0.0007440707056909345,0.0007619773741282313,-0.0037526456106309982,0.002624087242804197,0.9951074130571106
2014-03-12,1,0.0006125638222338572,0.0006494719150590784,-0.00800587426387016,0.003937087019063121,0.993800434103196
2014-03-14,1,0.0008086637062377179,0.0008250808194422087,-0.009191049086663924,0.003937087019063121,0.9920645046856961
2014-03-18,1,0.0011799494502822154,0.0012544911008728484,-0.009191049086663924,0.005645647926735235,0.9915808455274155
2014-03-20,1,0.0008805885605371714,0.0009222730353185295,-0.008890019348615009,0.005645647926735235,0.9916774551747309
2014-03-24,1,0.00018774287902141476,0.00022661044558023056,-0.007406021366337978,0.007096296581715656,0.9920965832499647
2014-03-26,1,0.00027441066970513146,0.00031847665516149346,-0.007406021366337978,0.006137529909104087,0.9921587565111087
2014-03-28,1,0.00039971684121441404,0.0004381380635921429,-0.008080313856415593,0.004385753405100833,0.9918245928857643
2014-04-01,1,0.0010912759898907257,0.0011666223728813902,-0.008080313856415593,0.004137047401848329,0.9918267937193214
2014-04-03,1,0.0009418989361880281,0.0009811773326459392,-0.010019995698800018,0.007825824519064703,0.9909007326754168
2014-04-07,1,0.000593217759913742,0.0006158037198335429,-0.008657020362165261,0.008071056833440605,0.9911174673988177
2014-04-09,1,0.000642892966414945,0.0006669546083313841,-0.0060125027450675566,0.00861541615910616,0.9917300159075085
2014-04-11,-1,-0.0005377193953547462,-0.00043553450901531157,-0.0006785155812645925,0.00861541615910616,0.9925541834933649
2014-04-15,1,0.00014459945126493138,0.0001788006693766899,-0.00361514724031747,0.007658862620604168,0.9936256933522001
2014-04-17,1,3.2105911214220145e-05,7.046626439665756e-05,-0.00361514724031747,0.007658862620604168,0.9932105459043402
2014-04-22,1,0.00030955444911103924,0.0003164673244017869,-0.004614494595322148,0.007511522031872138,0.9932528063077748
2014-04-24,1,0.00016339603045406205,0.00019340134672048286,-0.004370274285331709,0.007511522031872138,0.993154209090319
2014-04-28,-1,-0.00042891585557688726,-0.0003169127678700273,-0.0035337404703206566,0.007511522031872138,0.9934182203425712
2014-04-30,-1,-0.0005342297439308117,-0.0003965494797074571,-0.0033346869549327244,0.007473254465928267,0.9938267049762186
2014-05-02,-1,-0.0005495567896391452,-0.00042418078581147185,-0.002376131570620386,0.007441678283852181,0.9943960170125876
2014-05-06,-1,-0.00027028080535404264,-0.00015811488477638654,-0.002376131570620386,0.006345444188403139,0.9947700427552629
2014-05-08,-1,-0.00015910392910034778,-2.437481310228122e-05,-0.0033346869549327244,0.005306728747976531,0.9953822091786816
2014-05-12,1,0.00034028420408852196,0.0004060866958952114,-0.0034860073431603254,0.0050139139425090466,0.9952815450421797
2014-05-14,1,0.0005120935515601754,0.0005180479263425144,-0.0038222804097540336,0.0050139139425090466,0.9950923055709691
2014-05-16,1,0.0002598887531279539,0.0002921941195707582,-0.0038222804097540336,0.005019351346109366,0.9954274875318143
2014-05-20,1,3.520044671402939e-05,8.348631636857608e-05,-0.0038222804097540336,0.005460557438736707,0.9952856343885279
2014-05-22,1,0.00015039297562782363,0.00017769576332903842,-0.0033923455761754634,0.0051934768011326175,0.9956229179545721
2014-05-27,1,0.00041886273162514907,0.0004236699725064772,-0.003867117290409198,0.004326806270087661,0.9958082465454928
2014-05-29,1,0.0002639832603669632,0.0002965238723847097,-0.003867117290409198,0.0051934768011326175,0.9952536595097523
2014-06-02,1,0.0007504414355913255,0.0008018970614566184,-0.004293052552448515,0.004326806270087661,0.9950351140471725
2014-06-04,1,0.0011452005526791241,0.001265118597215483,-0.004293052552448515,0.004326806270087661,0.9948145803301527
2014-06-06,1,0.0009377938376303979,0.0010079057150575,-0.004293052552448515,0.003937244842953207,0.9951605710487842
2014-06-10,1,0.001031179070684653,0.0011258523886458916,-0.003718997234938918,0.002465759846529403,0.995543919987124
2014-06-12,1,0.0005524563435517112,0.0005726052148872795,-0.003718997234938918,0.0037351879531669534,0.9957480841834538
2014-06-16,1,0.0005172719999911861,0.000535463369527488,-0.003624373753553147,0.002465759846529403,0.9959898585566579
2014-06-18,-1,-0.00012423927214685562,-2.355976054457798e-06,-0.003624373753553147,0.0015357710298944515,0.9959376376809908
2014-06-20,0,-0.00010178590623891623,4.7035257070556316e-06,-0.004069575533021863,0.002465759846529403,0.9953260398609935
2014-06-24,-1,-0.00045876419303809713,-0.0003030862945193525,-0.003624373753553147,0.003447377057405316,0.9952143875119528
2014-06-26,-1,-0.0005931619965320123,-0.00036725638026660753,-0.003624373753553147,0.0023465158522242876,0.9959714583929562
2014-06-30,-1,-0.0007476553918374307,-0.0005378027644607922,-0.002835307997339353,0.0031955392373097195,0.9961941019457902
2014-07-02,1,0.0002555543070119289,0.00030607913253459816,-0.003624373753553147,0.0031955392373097195,0.9953793426520168
2014-07-07,1,0.0006950890270068159,0.0007428003249983759,-0.003624373753553147,0.003496235448520485,0.994998749183655
2014-07-09,1,0.0005853225616581129,0.0006371951482789411,-0.004080294154206159,0.003496235448520485,0.9948783791649515
2014-07-11,1,0.0007181929881693808,0.0008012246500895214,-0.004447718660236898,0.003496235448520485,0.9941962742657005
2014-07-15,1,0.000561053788104382,0.0006236091141671473,-0.002655314515224,0.003496235448520485,0.9943362513875136
2014-07-17,1,5.541581533743417e-05,6.991850842767076e-05,-0.0011036723529837316,0.003944961564729181,0.9943978383711785
2014-07-21,1,0.00015770218551190715,0.00016165047117589528,-0.0011036723529837316,0.003944961564729181,0.9945609234014159
2014-07-23,1,0.000372427262160381,0.0003980692674596175,-0.0022588798028193623,0.003944961564729181,0.9945197750931697
2014-07-25,1,0.0005269738997632691,0.000598668181650532,-0.0048000862062167965,0.003944961564729181,0.9943620161590843
2014-07-29,1,0.0003601414816374458,0.0003806554415254564,-0.0048000862062167965,0.004235563446199568,0.9942224802156032
2014-07-31,-1,-0.0004951319248328867,-0.0004222980587743529,-0.0048000862062167965,0.0030856679693940948,0.9951671867693778
2014-08-04,-1,-4.006539984293186e-05,-2.004848222283318e-05,-0.0048000862062167965,0.0030856679693940948,0.9951577769749694
2014-08-06,-1,-0.00044776115296255926,-0.00037490065235546045,-0.0048000862062167965,0.0030856679693940948,0.9952251616554203
2014-08-08,1,4.465592078977128e-05,5.307632932551082e-05,-0.0048000862062167965,0.0027150840215638726,0.9958098364430383
2014-08-12,-1,-0.00010705938408336817,-8.089217316673411e-05,-0.0048000862062167965,0.0029286117387145915,0.995607471562101
2014-08-14,-1,-0.0002194654247187192,-0.00014214237002935652,-0.00506766295366916,0.002402517482421018,0.9954999077778816
2014-08-18,-1,-7.687867542158808e-05,-3.1661649322644285e-05,-0.0048000862062167965,0.002402517482421018,0.9957995006411723
2014-08-20,0,-2.1386970868993613e-05,3.7531726732021827e-06,-0.004566343226481942,0.0024934733356331835,0.9958497798425279
2014-08-22,1,7.027603865325437e-05,8.128517968707317e-05,-0.006054103672336782,0.0024934733356331835,0.9951464247051971
2014-08-26,1,0.00034325286626112755,0.0003950035357077529,-0.006054103672336782,0.0022818954180092365,0.9949202332444974
2014-08-28,-1,-0.0003750822237908134,-0.000305379241317751,-0.004763220360484679,0.003076767820068498,0.9952851146883468
2014-09-02,-1,-0.00024281198292002817,-0.0001945854914066554,-0.004929790019338251,0.002281489575135124,0.9953810328389615
2014-09-04,-1,-0.0012765377145669181,-0.001040762697514284,-0.004555735388429787,0.003076767820068498,0.9954218434670795
2014-09-08,-1,-0.0016927400448115673,-0.0014224950217283923,-0.0025089499937750335,0.00374035748585436,0.9909444166152416
2014-09-10,-1,-0.0007846791249737792,-0.00066065805889664,-0.0012595243866894785,0.005852523753162573,0.989586818628571
2014-09-12,-1,-0.0010565622291273569,-0.0009071391304665363,-0.0012595243866894785,0.005852523753162573,0.9894815088617313
2014-09-16,-1,-0.0006895437963157151,-0.0005848311382555755,-0.005051716618676463,0.005852523753162573,0.9889014477970783
2014-09-18,-1,-0.0008013522735454096,-0.0006678635486778218,-0.006618787516532211,0.005852523753162573,0.9876686532290834
2014-09-22,-1,-0.0011861331133253212,-0.0010154810066501717,-0.004418736443611586,0.00831861484139831,0.9876683353462608
2014-09-24,-1,-0.0010748474365004945,-0.0009057136050188471,-0.004418736443611586,0.0076962959166252095,0.9876994502712693
2014-09-26,-1,-0.0007920562544940278,-0.0006751291352403937,-0.004418736443611586,0.008485669531505943,0.9871325009583102
2014-09-30,-1,-0.0006649531978843415,-0.0005774991166553352,-0.0024632836788356337,0.008485669531505943,0.9871102160940154
2014-10-02,-1,-0.0003670960233177834,-0.0003299120274021201,-0.0014897234787607848,0.008485669531505943,0.9870699490632615
2014-10-06,1,0.0011408918001254258,0.0012917729356795148,-0.004748148015004691,0.0076962959166252095,0.991215303835772
2014-10-08,1,0.0017078746945391361,0.0019278397416690003,-0.006648938096679928,0.006178531442946965,0.9923516134167036
2014-10-10,1,0.001175723037860888,0.0013079265132996793,-0.006648938096679928,0.006178531442946965,0.9919454659201414
2014-10-14,1,0.0006259843479422428,0.0006878655525534282,-0.0006618373442315526,0.007133960541472704,0.9917449059949617
2014-10-16,1,9.046804999689608e-05,9.31231685949109e-05,0.0016211724766757461,0.007133960541472704,0.9929139039691448
2014-10-20,1,0.0006755233753704921,0.0007564101726036454,0.00034023983159791704,0.005859074354070497,0.993824715172055
2014-10-22,1,0.0007826621402847963,0.0008862969579693757,-0.0004445919057780366,0.006178531442946965,0.9933821585318493
2014-10-24,1,0.0012484139067366865,0.0014237317316537976,-0.0004445919057780366,0.005771590553517415,0.994118862184206
2014-10-28,1,0.0013207413594059354,0.0015053581173372545,-0.0004445919057780366,0.006178531442946965,0.9928893899577806
2014-10-30,1,0.0018219479735212588,0.002070256181943578,-0.0022226798350579524,0.007537346395947998,0.9905726020182334
2014-11-03,1,0.0014788149409473744,0.0016624916211484425,-0.0008682444961733561,0.006123874826070172,0.9910771978919464
2014-11-05,1,0.0013776778942339012,0.0015429908042975844,-0.0008682444961733561,0.005660118894771713,0.9914700776400922
2014-11-07,1,0.001018515324679269,0.0011474178133387219,-0.0008682444961733561,0.005660118894771713,0.9918133862336268
2014-11-11,1,0.0017467088497875494,0.001966046425447736,-0.0029229415035198114,0.004836368565247117,0.991803798440593
2014-11-13,1,0.0016380406752040735,0.0018294873888882988,-0.005041695174084784,0.005660118894771713,0.9911702013032377
2014-11-17,1,0.001853416979160323,0.002098537188807066,-0.006803389642997841,0.005660118894771713,0.990111357190145
2014-11-19,1,0.001643778814436473,0.001833017352194395,-0.006803389642997841,0.006888933601038711,0.9888097245985534
2014-11-21,1,0.0018684361296538118,0.0021132950559571064,-0.006803389642997841,0.006888933601038711,0.988609536023547
2014-11-25,1,0.0026728045651997073,0.003025256989501335,-0.007859964158445571,0.006888933601038711,0.9888020297346976
2014-11-28,1,0.0032436194485512253,0.0036523592493083274,-0.007859964158445571,0.0048564080292370325,0.9908955667053083
2014-12-02,1,0.0034488491464002525,0.003884281976715048,-0.007859964158445571,0.0028509262929459008,0.9906155915036242
2014-12-04,1,0.0031044164957560187,0.0034804008203877398,-0.007859964158445571,0.005309882224360515,0.9910228458477233
2014-12-08,1,0.002769726865800119,0.003076033649592483,-0.005992750553012783,0.00711820327577576,0.9906109801022841
2014-12-10,1,0.00208340097300663,0.002301337596695528,-0.005992750553012783,0.01011919636589049,0.9906255806958989
2014-12-12,1,0.002213277729852062,0.0024565709137889706,-0.007811548792065132,0.007211839579640866,0.9902475138180782
2014-12-16,1,0.0015026435072621306,0.0016448502409765896,-0.005732343090138126,0.007211839579640866,0.9910221464716013
2014-12-18,1,0.0027577602920234503,0.003066222983863745,-0.005732343090138126,0.002976609949682945,0.9923888109230535
2014-12-22,1,0.002059105068923965,0.0022171855223307472,-0.005732343090138126,0.007211839579640866,0.9915838693621721
2014-12-24,1,0.0020922330176059356,0.0022816998255495774,-0.005732343090138126,0.005309882224360515,0.9918535161216709
2014-12-29,1,0.0018627785683884507,0.0019997168810107642,-0.007761331964204149,0.005309882224360515,0.9910868415492822
2014-12-31,1,0.0015409424550620093,0.0016388643008022697,-0.00909910463171167,0.005309882224360515,0.9904341810323047
2015-01-05,1,0.0017504227361000587,0.0018705003570630703,-0.00909910463171167,0.010885644244476508,0.9897933203806137
2015-01-07,1,0.002369341431915418,0.0025875383571075253,-0.009417707348751976,0.010885644244476508,0.9884828934458473
2015-01-09,1,0.0021720797814982077,0.0023609537021057735,-0.010431126275222503,0.003077943864514896,0.9883205319305214
2015-01-13,1,0.0012860554422830543,0.0013459387685270108,-0.009417707348751976,0.0071833308549953435,0.9895640716489329
2015-01-15,1,0.001152583440411238,0.0011825948061626053,-0.009417707348751976,0.008741321775621128,0.9895558727629161
2015-01-20,1,0.0010438680589748776,0.001067573118506521,-0.009417707348751976,0.008741321775621128,0.9897718320457928
2015-01-22,1,0.0016785205507507672,0.001763729751071166,-0.009417707348751976,0.006620862275531716,0.9902998676096507
2015-01-26,1,0.0013473387187442351,0.0013817840472118113,-0.008957023973038943,0.009668514885079521,0.9901478444265362
2015-01-28,1,0.0002970239071201651,0.0004042513391529378,-0.003708146449052303,0.009668514885079521,0.9908432232449874
2015-01-30,-1,-0.000444565249838732,-0.00023162764216062435,-0.003598101137732293,0.009668514885079521,0.9905819320233078
2015-02-03,1,0.00016706405635368325,0.0003108600235149999,-0.005294684254779741,0.009101357516846015,0.9905729107643536
2015-02-05,1,0.0004657013323825988,0.0005988667994855296,-0.005981725507722964,0.008383333179780517,0.9910679263304181
2015-02-09,-1,-0.0004413644558855885,-0.0002140307239018287,-0.003598101137732293,0.008383333179780517,0.9912682632054216
2015-02-11,-1,-0.00020836421895038858,-1.1072321632372311e-05,-0.005433799374493708,0.009101357516846015,0.9904687360147182
2015-02-13,-1,-0.00033245277726998883,-9.016957384674678e-05,-0.00869755982728856,0.009101357516846015,0.9905749149089734
2015-02-18,-1,-0.0003284020943595535,-9.352968588069118e-05,-0.00869755982728856,0.010159090267163055,0.9893774272210372
2015-02-20,0,-0.0002121794440910613,1.928982515932566e-05,-0.00869755982728856,0.009101357516846015,0.9900679119252
2015-02-24,1,4.2641522685568927e-05,0.00025499023618252804,-0.009159066572283905,0.005963245637308437,0.990435524221504
2015-02-26,0,-0.00013913763677037894,9.943614235812068e-05,-0.010130633960214469,0.005963245637308437,0.9900390550495561
2015-03-02,1,0.0012323327143112517,0.001233439781461719,-0.009159066572283905,0.007367380370622053,0.9902506838797807
2015-03-04,1,0.001778552531775322,0.0019217527851405451,-0.010130633960214469,0.00585773072692904,0.9902465022133985
2015-03-06,1,0.0004791961626617805,0.0005386459130289268,-0.009159066572283905,0.004502836113268072,0.991768977237826
2015-03-10,-1,-0.0006708605484143236,-0.00043338425254658324,-0.00847321962840482,0.00481204285653535,0.9924407673816478
2015-03-12,-1,-0.0012852299508518427,-0.0009100324756516911,-0.006056221104599411,0.005031349291245635,0.9929600980068034
2015-03-16,-1,-0.0013389874513501081,-0.000987679617569918,-0.0059808311373697794,0.005031349291245635,0.9929647780121698
2015-03-18,-1,-0.0007160592195914766,-0.0004441591619706209,-0.0059808311373697794,0.005031349291245635,0.9934835267541617
2015-03-20,-1,-0.0005424444805588789,-0.00031755006419653567,-0.006530494583002859,0.00585773072692904,0.992439101758933
2015-03-24,-1,-0.0008457815948543381,-0.0005901400501245804,-0.006530494583002859,0.007480207987071473,0.992280013488892
2015-03-26,-1,-0.0008308396040232145,-0.0005873112808512889,-0.005490053520483938,0.007480207987071473,0.9929530723199493
2015-03-30,-1,-0.00044818020142849255,-0.00023425640141203606,-0.006530494583002859,0.0057177367291789925,0.9926329526186601
2015-04-01,-1,-0.0015947707551831937,-0.0012401791752575113,-0.006431792607815821,0.0057177367291789925,0.9931335599291364
2015-04-06,-1,-0.002133577903756687,-0.0016848251840671396,-0.006431792607815821,0.008834815672259856,0.9922539712221211
2015-04-08,-1,-0.0016214258449745694,-0.0012799040605648714,-0.007706721508099266,0.008834815672259856,0.9918948052939983
2015-04-10,-1,-0.001227447587266408,-0.0009337483081537273,-0.007706721508099266,0.009363145100478828,0.9917447933955184
2015-04-14,-1,-0.0018197582636021187,-0.0014549916006940328,-0.00783558565406123,0.009363145100478828,0.991501081012583
2015-04-16,-1,-0.001502755875933202,-0.001181019559612573,-0.00783558565406123,0.009363145100478828,0.9912978555220359
2015-04-20,-1,-0.0010992418301143353,-0.0008233259144051896,-0.00783558565406123,0.008834815672259856,0.9921769245247949
2015-04-22,-1,-0.000500296701683563,-0.0003566685648163341,-0.0067611962995018995,0.0045045955142242146,0.9929368698505543
2015-04-24,1,0.0002037264621564467,0.00020870003729828542,-0.0067611962995018995,0.007628901527590719,0.9922748702206287
2015-04-28,1,0.00017529659934513835,0.00017940553210125758,-0.0067611962995018995,0.007727362652724274,0.9924661299690934
2015-04-30,-1,-0.0005578964679967462,-0.0004671541516820154,-0.005768916850083466,0.007727362652724274,0.993090675794633
2015-05-04,1,6.173597892067516e-05,8.677673191865228e-05,-0.005768916850083466,0.0024345386376571736,0.9938076016266667
2015-05-06,-1,-0.001126648007360159,-0.0009228296346178532,-0.0030960463737932454,0.0024345386376571736,0.9948604218098179
2015-05-08,-1,-0.0008805437172529525,-0.0007113500747012297,-0.003092227067887407,0.0012406972873140873,0.995571073399407
2015-05-12,-1,-0.002021584514978905,-0.0016837852968538,-0.002901884469359428,0.0024345386376571736,0.9951139275025345
2015-05-14,-1,-0.0004648252212376815,-0.000387267498394929,-0.003288910173650327,0.0024345386376571736,0.9952190138924828
2015-05-18,-1,-0.0004865966811587865,-0.00039937021026650475,-0.004101506938569074,0.002845286634027289,0.9948706059055962
2015-05-20,-1,-0.0006221215039390969,-0.0005145456609903278,-0.004101506938569074,0.005017890150693361,0.9943470815618618
2015-05-22,-1,-0.0005555814783744833,-0.00045501991348227537,-0.0040900490208515584,0.006148727184765173,0.9940557386649221
2015-05-27,-1,-0.000752431580564866,-0.000615633497602335,-0.0040900490208515584,0.005017890150693361,0.9945235146116569
2015-05-29,-1,-0.0008415241582211906,-0.0007132871979452241,-0.002901884469359428,0.005017890150693361,0.9946076376528085
2015-06-02,-1,-0.00030379461873881797,-0.0002749644566519545,-0.002901884469359428,0.005017890150693361,0.9947657252824097
2015-06-04,-1,-0.00028633166752712377,-0.0002659391485034058,-0.0021941447954950603,0.006148727184765173,0.9943625346514613
2015-06-08,-1,-0.000911450943883705,-0.00078169616106464,-0.002298283184256851,0.006148727184765173,0.9940487388429536
2015-06-10,-1,-0.0007916986710346126,-0.0006729065411260186,-0.002298283184256851,0.005112507546241913,0.9944516389918687
2015-06-12,-1,-0.0009811657431676296,-0.0008354320345105534,-0.0011452361530464893,0.0073110341716594125,0.9936135941679554
2015-06-16,-1,-0.00036448779435906977,-0.0003444850639964292,-0.0011452361530464893,0.007644075233918154,0.9937853474821207
2015-06-18,-1,-0.00020609407501354598,-0.0001886597501941279,-0.0011452361530464893,0.008157832108191687,0.9939569738633008
2015-06-22,-1,-0.00014393726691471132,-0.00010141635556671032,-0.0021879225904446534,0.00579605244188422,0.9945059714773168
2015-06-24,-1,-0.0007977857028754151,-0.0006515608043402024,-0.0011452361530464893,0.00579605244188422,0.9946697376549255
2015-06-26,-1,-0.00028042173036552586,-0.00022912045592524632,-0.003370562641355058,0.00579605244188422,0.9943686815467766
2015-06-30,1,9.499619361555e-05,0.00013767729316107685,-0.003370562641355058,0.009348476091281706,0.9926655269119279
2015-07-02,-1,-0.00011324589814237707,-7.484002466280882e-05,-0.003370562641355058,0.008580949225615819,0.9930988189367255
2015-07-07,1,4.5217558440763695e-05,5.372526222821838e-05,-0.0012086734559401079,0.008580949225615819,0.993412361910037
2015-07-09,-1,-4.345606850667056e-05,-3.9214325693806574e-05,-0.0012086734559401079,0.009055443240590622,0.9926737982952247
2015-07-13,1,0.0008933687739999285,0.0010239508738394086,-0.0035419278540926467,0.008580949225615819,0.9934176894524788
2015-07-15,1,0.001162932790821021,0.0013487043597719634,-0.004849517581780249,0.004671611568082732,0.9930830860380174
2015-07-17,1,0.001759578996569189,0.002061828216661831,-0.004849517581780249,0.0036769578153957707,0.9929959517695139
2015-07-21,1,0.0016032812146415444,0.0018831833761308334,-0.0060499870033090455,0.0036769578153957707,0.9927976832331359
2015-07-23,1,0.0016971282552672514,0.0019833047000192916,-0.007052915846800669,0.0028041193781825485,0.991521339433052
2015-07-27,1,0.0014370283985224144,0.0016964270069074613,-0.010499328773822314,0.0028041193781825485,0.9903566683554142
2015-07-29,1,0.001830016315114924,0.00208300615724597,-0.010499328773822314,0.0019366103208382007,0.9908626116023863
2015-07-31,1,0.0015236212621457632,0.001712238655081911,-0.010499328773822314,0.0028041193781825485,0.9900084524704166
2015-08-04,1,0.001658217315668551,0.0018772024348721968,-0.011839197705131378,0.0028041193781825485,0.9871703095207677
2015-08-06,1,0.0008418011652423698,0.0009341838287350204,-0.01137333281508919,0.0028041193781825485,0.9883765812204108
2015-08-10,1,0.0011350555859436806,0.0012942466251547012,-0.011839197705131378,0.0028041193781825485,0.9870092148707139
2015-08-12,1,0.0007851216742425808,0.0008924378414670506,-0.01334431227758813,0.0028041193781825485,0.9869048319198686
2015-08-14,1,0.0007294125517132478,0.0008144826365260643,-0.01334431227758813,0.0031116279715247214,0.9869479897201154
2015-08-18,1,0.0004500402527838572,0.0005018658164814717,-0.01334431227758813,0.008143768040270647,0.9867444498360791
2015-08-20,1,7.581586598238071e-05,0.00010388397362345734,-0.011839197705131378,0.008143768040270647,0.9871416219850896
2015-08-24,-1,-0.0010133488600646864,-0.0008755090562476589,-0.0072114599288597165,0.008143768040270647,0.9884656285785118
2015-08-26,-1,-0.0007069422203189388,-0.0006053925401355051,-0.0072114599288597165,0.006908257484536578,0.9889720447229161
2015-08-28,-1,-0.0002145117655945905,-0.00017109304822705818,-0.01334431227758813,0.00671065116362381,0.9870446221784838
2015-09-01,-1,-0.001974326562371371,-0.001738876943135771,-0.0072114599288597165,0.006908257484536578,0.9887894329057824
2015-09-03,-1,-0.0015218722869925036,-0.0013209384570633587,-0.0072114599288597165,0.006908257484536578,0.9882459234817252
2015-09-08,-1,-0.0009210498407051821,-0.0008029578470217034,-0.0072114599288597165,0.006908257484536578,0.9889545842441243
2015-09-10,-1,-0.0013374523738860823,-0.0011926870483589091,-0.004184769462723282,0.008524887741017938,0.9887583103467542
2015-09-14,-1,-0.0009978466625106537,-0.0008881510821706809,-0.004184769462723282,0.008524887741017938,0.988742475280676
2015-09-16,-1,-0.00043699155438851585,-0.00039661281732202177,-0.008928491957463246,0.006867059617406492,0.9888774261804878
2015-09-18,-1,-0.0006640414371542387,-0.0005929889181404481,-0.006682624756174457,0.01022879408194877,0.9883132665854876
2015-09-22,-1,-0.0009147836064086186,-0.0007866572787393745,-0.004757113472257792,0.01022879408194877,0.9886917678554578
2015-09-24,-1,-0.00040616964358582825,-0.00036896416286659044,-0.008643067513151923,0.01022879408194877,0.9887475945441243
2015-09-28,-1,-0.0029100621213380027,-0.002552550136760497,-0.0025973274848624063,0.0121714412122975,0.9902880946513151
2015-09-30,-1,-0.0017669189125087178,-0.0015526089250436526,-0.0025973274848624063,0.01022879408194877,0.9908316856881874
2015-10-02,-1,-0.0014736460371124994,-0.0012660681033317578,-0.0029508689460434664,0.00906864798989363,0.9916190260042368
2015-10-06,-1,-0.001515591752949638,-0.001332090412892626,-0.001588740770384931,0.0103790840004805,0.9914806027548467
2015-10-08,-1,-0.0007178284210538673,-0.0006307218167273419,-0.001588740770384931,0.0103790840004805,0.9908051958848633
2015-10-12,-1,-0.0005200648374213302,-0.0004534215777898819,-0.001588740770384931,0.0103790840004805,0.9912861038995736
2015-10-14,-1,-0.0011604908837757313,-0.0010227720353213321,-0.0010789505740420474,0.0103790840004805,0.9918881055744957
2015-10-16,-1,-0.00016642590111581282,-0.0001458946802522621,-0.0015103217558773156,0.00871967202283612,0.9923389410833124
2015-10-20,-1,-0.0004165799940907539,-0.00035075243370357253,-0.0012316599217800362,0.009798374023248397,0.9917277469737423
2015-10-22,-1,-0.0008350838534104236,-0.0007251783719645138,-0.0012316599217800362,0.009798374023248397,0.9913682705348148
2015-10-26,-1,-0.0003264110566931003,-0.00027372296721403695,-0.0012316599217800362,0.00871967202283612,0.9917356751744062
2015-10-28,0,-6.939230419927668e-06,1.871560033542055e-05,-0.0021007877458349617,0.008520424148160058,0.9922774420079795
2015-10-30,1,2.8404687796854296e-05,3.964064308871452e-05,-0.0021007877458349617,0.008209403028864994,0.9922316697236709
2015-11-03,1,0.0007312925410593956,0.0008013390938959884,-0.002552774954263967,0.007881611549322317,0.9925888091152326
2015-11-05,1,0.0015227422050408646,0.0016957227928842181,-0.0035995144715800977,0.0048300173420115135,0.9921017282313538
2015-11-09,1,0.001624745596045174,0.0018227427762163451,-0.006090694553117434,0.007221226731802789,0.9914718293003713
2015-11-11,1,0.0015803983472874516,0.001791398964203928,-0.007077374269282094,0.007945879272495907,0.9907487661038392
2015-11-13,1,0.0009085144205273372,0.0010128706633457624,-0.007077374269282094,0.008722022282344623,0.9906382038281448
2015-11-17,1,0.001309163556047602,0.0014724661656794996,-0.007077374269282094,0.008722022282344623,0.9904827855892363
2015-11-19,1,0.000963310898678126,0.0010701715830089135,-0.007077374269282094,0.008722022282344623,0.9902176991220611
2015-11-23,1,0.0012512971157881561,0.0014126303545749716,-0.007077374269282094,0.008265695356454762,0.9904257398693415
2015-11-25,1,0.0011537546664779363,0.0013042553853426537,-0.007077374269282094,0.009690348128725226,0.9903479716484199
2015-11-30,1,0.0008680608965260515,0.0009580701099274106,-0.006293860578808064,0.009690348128725226,0.9905001019826774
2015-12-02,1,0.0015239305859488985,0.0017471800933286006,-0.007920457009917307,0.008019861049033626,0.9907157558440803
2015-12-04,1,0.0020276178318526517,0.0023168254484961393,-0.007920457009917307,0.007139281962662411,0.990780907810638
2015-12-08,1,0.0021841074645756273,0.002511159011324288,-0.010436152016084064,0.005675316797091354,0.9899760872190195
2015-12-10,1,0.0019286587136595772,0.002208652139708416,-0.011232367850853667,0.003652195503377338,0.9896994358325812
2015-12-14,1,0.0018303870789150543,0.002105990818140593,-0.008958844474514331,0.003652195503377338,0.9902430065006658
2015-12-16,1,0.001998809189981101,0.0022774905279550933,-0.011232367850853667,0.003652195503377338,0.9885944353277774
2015-12-18,1,0.0017704443730777119,0.0020682723214885063,-0.010355985329841083,0.003652195503377338,0.9889975231441063
2015-12-22,1,0.002014550630100005,0.0023422362867720975,-0.010355985329841083,0.006072829078625799,0.9879869826645665
2015-12-24,1,0.0022466855561761394,0.0026062623512388343,-0.010355985329841083,0.004559467287793469,0.9882327716539397
2015-12-29,1,0.002106341032282204,0.002418385112482432,-0.012385089151670433,0.0037841500097680445,0.9873580328621524
2015-12-31,1,0.0018455864608104009,0.0021361184763125604,-0.012385089151670433,0.004755669473756409,0.9873137028795517
2016-01-05,1,0.0008867676559956446,0.001030307522073313,-0.012385089151670433,0.004755669473756409,0.9876833460659795
2016-01-07,1,0.00040986478714301463,0.0004961059820670817,-0.016082665396940234,0.004755669473756409,0.9869517483720526
2016-01-11,-1,-0.0003682098145560852,-0.00034200243254126224,-0.01796431537429294,0.00650885098944414,0.9866429847604138
2016-01-13,-1,-0.0007960568446576796,-0.0006856048892374446,-0.01796431537429294,0.006953175296840587,0.9865203111369996
2016-01-15,-1,-0.0011469141414406328,-0.000945073284935513,-0.013012305810788001,0.011590253097457402,0.9864015060076744
2016-01-20,-1,-0.0012470855517908593,-0.0010499313955395742,-0.00936301532954299,0.013549733029244119,0.9859680843104796
2016-01-22,1,1.9951344146180872e-05,3.925975443053586e-05,-0.00936301532954299,0.012359391596601679,0.9866044286254346
2016-01-26,-1,-0.0010881139234497818,-0.0008396935901551974,-0.00936301532954299,0.012359391596601679,0.9861796278265827
2016-01-28,-1,-0.0018113643507477002,-0.0015012868999184957,-0.006500804747472326,0.012359391596601679,0.9866225469769951
2016-02-01,-1,-0.0005235817517154412,-0.00038339390174606426,-0.008641039796986348,0.012359391596601679,0.9866233479367535
2016-02-03,-1,-0.0023857910670822915,-0.001992041225983505,-0.006863682803478769,0.012359391596601679,0.9872543914189271
2016-02-05,-1,-0.0034224843630006226,-0.0029220866913471475,-0.003850797059935229,0.012359391596601679,0.9886618294648398
2016-02-09,-1,-0.0031396902437922257,-0.0027026343271806677,-0.003850797059935229,0.012359391596601679,0.9896891115314812
2016-02-11,-1,-0.0030490325481703816,-0.002613652299647707,-0.0025436218289709733,0.010140692684584675,0.9894887999851643
2016-02-16,-1,-0.001418434068553864,-0.0011729518819741565,-0.0039766939540460235,0.0082408414924884,0.991849336542859
2016-02-18,-1,-0.0011857703962572133,-0.0009724795941298176,-0.004386965757227636,0.007206375958204017,0.9920630651552341
2016-02-22,-1,-0.0018803237081734339,-0.001485688825855612,-0.0073650634633347185,0.007206375958204017,0.9918088810393517
2016-02-24,-1,-0.001270021141112603,-0.0009695994383972949,-0.0073650634633347185,0.0069415222104324045,0.9923632642132109
2016-02-26,-1,-0.0004530978743966743,-0.0002865342366063549,-0.0073650634633347185,0.004633297236099759,0.9930747145470499
2016-03-01,-1,-0.0005830379311785917,-0.00038378745212040743,-0.004143820840664673,0.006590175998239071,0.9935277858003632
2016-03-03,-1,-0.0004580154928162933,-0.00030144983590070474,-0.0035433840132057,0.007186802855908395,0.9933165422992295
2016-03-07,-1,-0.0005310502888070416,-0.0003773477333242013,-0.005320608064394836,0.00874288249041225,0.9924345148228199
2016-03-09,-1,-0.0013487110207645668,-0.0010648966905946633,-0.003062066434457067,0.009366604439780248,0.9918430996611209
2016-03-11,-1,-0.0002957905330075228,-0.0001771951733889172,-0.004720278244072467,0.007378041160266542,0.992544409664085
2016-03-15,-1,-0.000496333648184124,-0.00035142689977810256,-0.0030668009991083028,0.009737422298004943,0.9917260249591522
2016-03-17,-1,-0.0011439457117189496,-0.0009043132818045013,-0.0030668009991083028,0.009737422298004943,0.9920054121428412
2016-03-21,-1,-0.0006432620708083778,-0.0004787793984776292,-0.0030668009991083028,0.008560503571941236,0.9926664037207718
2016-03-23,-1,-0.00039397442403909323,-0.00028030733167315377,-0.0030668009991083028,0.008560503571941236,0.9926031213377051
2016-03-28,-1,-0.0004310126682776835,-0.00031556777042044266,-0.0030668009991083028,0.008560503571941236,0.9921177061689544
2016-03-30,1,0.0007370004728577284,0.0008122115633104546,-0.004502792504402155,0.008560503571941236,0.992644283561982
2016-04-01,1,0.001516006998396602,0.001757645273272346,-0.004210764029467704,0.007510859116604348,0.9932392068382513
2016-04-05,1,0.0013471286173211364,0.0015677549666154927,-0.0032252204955154065,0.006362731286595808,0.9939298036366861
2016-04-07,1,0.0017565598377235485,0.0020247110131056457,-0.0032252204955154065,0.0072569674168185515,0.9936275028693062
2016-04-11,1,0.001083872824828708,0.0012232089772684597,-0.002409892381830865,0.0072569674168185515,0.9935054670178205
2016-04-13,1,0.0022204041713518004,0.002534596718756233,-0.003070684727027432,0.006998036328528282,0.9945239296896063
2016-04-15,1,0.0021104186062005574,0.0023959750282280343,-0.003070684727027432,0.006998036328528282,0.9946074020379811
2016-04-19,1,0.0019069341499824257,0.0021748686503098827,-0.003070684727027432,0.0072569674168185515,0.993583701370124
2016-04-21,1,0.0019686156189193246,0.002234226530161766,-0.003673967091529376,0.0072569674168185515,0.9931542857161444
2016-04-25,1,0.002197649845224884,0.0024917215072903544,-0.004210764029467704,0.0070100156881275095,0.992810775495413
2016-04-27,1,0.0025084408546894228,0.0028598801911760502,-0.003673967091529376,0.0070100156881275095,0.9929952906325927
2016-04-29,1,0.0026864745662235723,0.0030945383741096486,-0.003070684727027432,0.0070100156881275095,0.9930603523181492
2016-05-03,1,0.0024833123335428467,0.0028619300114749446,-0.003305132954243845,0.0070100156881275095,0.9932780457569322
2016-05-05,1,0.003242221006177334,0.0037151950678893514,-0.003305132954243845,0.006578278039912721,0.9939882415998648
2016-05-09,1,0.0032223965266321543,0.003677535410689,-0.0039258362731518955,0.005816490277559505,0.9938264299830014
2016-05-11,1,0.0035768980105399103,0.004106853470483843,-0.0037115379043543397,0.005816490277559505,0.9939943905967888
2016-05-13,1,0.0031140758706598138,0.003545838809975918,-0.005244119572341469,0.005816490277559505,0.9937672374224619
2016-05-17,1,0.0029795204282175285,0.0034067214275766023,-0.005244119572341469,0.004723949980324377,0.9945384562169876
2016-05-19,1,0.0028781424168910844,0.0033078925898019557,-0.005244119572341469,0.004723949980324377,0.9947110735071707
2016-05-23,1,0.00293581866529763,0.0033788244361879225,-0.0038057532911136625,0.0064536265568832666,0.994346788584555
2016-05-25,1,0.0030621220926328593,0.003489098081001351,-0.0038057532911136625,0.005577522064241595,0.9941968585094199
2016-05-27,1,0.00237028657383672,0.002639944623358723,-0.0061647327561826495,0.005577522064241595,0.9915106742361871
2016-06-01,1,0.0019362513774137439,0.002097830166614216,-0.0061647327561826495,0.009320019025572682,0.9904386305047145
2016-06-03,1,0.0017722782319134814,0.0018613364071350127,-0.0061647327561826495,0.008586439451747193,0.9904460896669282
2016-06-07,1,0.0014956874500040799,0.0015430397950261555,-0.005529600973849918,0.009074480926283891,0.9904828604463535
2016-06-09,1,0.001903323336820601,0.0020019151166738524,-0.005529600973849918,0.00990195827718741,0.990144698219109
2016-06-13,1,0.0012040999773268292,0.0012229640586077979,-0.0011420466715384228,0.00990195827718741,0.99024281537021
2016-06-15,1,0.001237263364586132,0.0012682192294825355,0.00014760639516294544,0.00990195827718741,0.9909958607783698
2016-06-17,1,0.0010404750018090827,0.0010490516170641852,-0.0011420466715384228,0.00990195827718741,0.9908103396896998
2016-06-21,1,0.0012124966419325659,0.0012373692559004665,-0.0011420466715384228,0.007525781516936465,0.9916761151271236
2016-06-23,1,0.002054985162657649,0.0021956076786621287,-0.004221359279940255,0.006727940503086024,0.9916946593764496
2016-06-27,-1,-0.0009184308851804299,-0.0006194554605516612,-0.0037354005212011498,0.007525781516936465,0.9929840131065627
2016-06-29,-1,-0.0006286524223715443,-0.00031044499086318664,-0.0037354005212011498,0.007463172671242897,0.994177526826448
2016-07-01,-1,-0.0005865074778078244,-0.0002948075167607539,-0.0037354005212011498,0.0065994822115089755,0.9943751904516112
2016-07-06,-1,-0.00029788649511014204,-2.1016478185463343e-05,-0.0037354005212011498,0.004922023321409827,0.9949208028253772
2016-07-08,1,0.0007945682569530719,0.0008236793218876308,-0.004194073635056719,0.004139739646769663,0.9939306694650974
2016-07-12,1,0.0006213577225187056,0.000676865983474317,-0.004194073635056719,0.0038309320032666565,0.9941152159498919
2016-07-14,1,0.0009165849241416907,0.0009170473520826338,-0.004194073635056719,0.005336395386240962,0.9935472661986258
2016-07-18,1,0.0006203712524750682,0.0006450058534820898,-0.004044330200116139,0.005336395386240962,0.9934422790546339
2016-07-20,1,0.0009459041470865292,0.0009735349095587201,-0.00515190879992374,0.004500994379653822,0.9932399298388903
2016-07-22,1,0.0006211796263985657,0.0006326488490149507,-0.003063495746084694,0.004500994379653822,0.9937715702596612
2016-07-26,1,0.0006551182908371245,0.0006761508158499955,-0.0021990326445504435,0.0038309320032666565,0.9944416254177193
2016-07-28,1,0.0005962219883582673,0.0006306450552575526,-0.002405944912013807,0.0038309320032666565,0.9942611157955872
2016-08-01,1,0.0003469728350364913,0.0004292692886975699,-0.002405944912013807,0.004815736179850643,0.9936060437164084
2016-08-03,1,0.00036924089718042604,0.0004311900237274154,-0.0016379761286904198,0.004815736179850643,0.9936387555407127
2016-08-05,0,-3.174153727412933e-05,9.003021407148125e-05,-0.0011062947536099033,0.003900134749552307,0.9952109319770506
2016-08-09,-1,-0.00038515642977244994,-0.00020192670785955163,-0.000773966188910943,0.0038087355206868926,0.9951598559551327
2016-08-11,1,6.858848652460198e-05,0.00018746727275429108,-0.003755470927672827,0.003220652711261654,0.9941144700572941
2016-08-15,-1,-0.0004258549696781837,-0.00024284204275283237,-0.003755470927672827,0.0034333622417062333,0.9935978788098672
2016-08-17,-1,-0.0006255733718469282,-0.0004158639257417831,-0.00153557852430412,0.005762236865935115,0.9926077304231641
2016-08-19,-1,-0.00027528393875218837,-0.00013024208608150605,-0.003358993241327185,0.005762236865935115,0.9925465453515729
2016-08-23,-1,-0.00021324463812914877,-8.191224113582524e-05,-0.003358993241327185,0.00821208345413534,0.991809170881995
2016-08-25,-1,-0.000665062796451685,-0.0004587609830976182,-0.003358993241327185,0.009987841560458616,0.9913342393547195
2016-08-29,1,0.00010019803172261121,0.00018979897642399583,-0.005054968329335172,0.010219983820406217,0.9910504941177668
2016-08-31,-1,-0.0002910526229384308,-0.0001375152632156106,-0.0075062148865825675,0.010219983820406217,0.9905217279923394
2016-09-02,1,0.0002788588753103836,0.0003179377689108042,-0.008331203539127571,0.011328869062918434,0.9893755448721949
2016-09-07,1,0.0003310341221260628,0.0003647699349491895,-0.011628179392755499,0.011328869062918434,0.9887680012740132
2016-09-09,-1,-0.0012907915604877555,-0.0010498249590206363,-0.008331203539127571,0.011328869062918434,0.9901497097219237
2016-09-13,-1,-0.0009557337478492408,-0.0007588869583467021,-0.008331203539127571,0.01033588601522474,0.9895747226403828
2016-09-15,0,-5.807972528531797e-05,2.548616958302589e-05,-0.008331203539127571,0.0049504112045903985,0.9908629452978559
2016-09-19,-1,-0.00013938934536645382,-5.2864418630604426e-05,-0.008331203539127571,0.0049504112045903985,0.9908486157419891
2016-09-21,1,0.0003978448212694872,0.00042284086330943795,-0.008331203539127571,0.004249580026865451,0.9912952636694831
2016-09-23,1,0.00014893510238116076,0.00021461225246376787,-0.005871158394116541,0.003603658301241067,0.9920556096300198
2016-09-27,1,0.0005142215896621941,0.0005242756332160992,-0.005748599455839529,0.0027622781103958465,0.9927876738679128
2016-09-29,0,-5.325039096333546e-05,2.4036934936136063e-06,-0.005748599455839529,0.0027622781103958465,0.9926479429445296
2016-10-03,1,0.0003750659696244911,0.0003778859217639521,-0.004422544157451509,0.002760164276184239,0.9936285473729546
2016-10-05,1,6.752283833510859e-05,0.00011020770574649774,-0.004422544157451509,0.0027043385381315017,0.9939086838365042
2016-10-07,0,-2.0433489685138344e-05,4.899041470874597e-05,-0.004422544157451509,0.003597316798606244,0.9917669253746438
2016-10-11,-1,-0.0009840864948539776,-0.0007946093513202616,-0.0036631906821304214,0.0046330177123971306,0.9928080901227476
2016-10-13,-1,-0.0008497749722562819,-0.0006767292367371454,-0.004422544157451509,0.0046330177123971306,0.9917279513851067
2016-10-17,-1,-0.0008200267995015872,-0.0006741627019722893,-0.007433511488089598,0.0046330177123971306,0.9884484498342105
2016-10-19,-1,-0.0008626281695113832,-0.0007049963113629799,-0.007433511488089598,0.006140324494688988,0.9869757349486666
2016-10-21,-1,-0.0008591933580069573,-0.0006982428547603471,-0.009039552575005085,0.01155615799380977,0.9857731055338554
2016-10-25,-1,-0.0009667360480708398,-0.0008118485798946969,-0.011893906157581055,0.01155615799380977,0.984747901196249
2016-10-27,-1,-0.0017270829750800102,-0.0014763973425207147,-0.009039552575005085,0.013555454697584242,0.98451996224057
2016-10-31,-1,-0.0013389109239768388,-0.0011473227571182634,-0.009039552575005085,0.01437453639700676,0.9841557505468476
2016-11-02,-1,-0.0018962355415310423,-0.0016210213420571641,-0.021217346889066707,0.01437453639700676,0.9825137958911795
2016-11-04,-1,-0.000547505880164257,-0.0004133456869379389,-0.021217346889066707,0.013390310610723877,0.9844803461449487
2016-11-08,0,-9.485758485789904e-07,7.850406110906192e-05,-0.021217346889066707,0.007425219893752643,0.9852029348270742
2016-11-10,-1,-0.0001696935772469245,-0.00010999468400840022,-0.012000510494401317,0.013390310610723877,0.985519396614861
2016-11-14,-1,-0.002619364204702536,-0.0022942506206396077,-0.006963622456799479,0.01437453639700676,0.9877498615129937
2016-11-16,-1,-0.002181962042023507,-0.001810126084792152,-0.006963622456799479,0.00971746662857455,0.9894774148976109
2016-11-18,-1,-0.0010580781770807978,-0.0008746320035540135,-0.006963622456799479,0.006291947644083147,0.990407001251595
2016-11-22,-1,-0.0018070447932538043,-0.001549036362373429,-0.006207187397982615,0.006291947644083147,0.9917102900208568
2016-11-25,-1,-0.0007584605224871073,-0.0006474766542620543,-0.006207187397982615,0.003958635526221525,0.9922316127748361
2016-11-29,1,5.596138177003613e-05,7.60725527739303e-05,-0.006855408603635748,0.0034476497224075766,0.9922792983887759
2016-12-01,-1,-0.0017151681081332228,-0.00152684754156892,-0.00496496626645446,0.0034476497224075766,0.9946126488425304
2016-12-05,-1,-0.0014570241692257184,-0.0013087964921285502,-0.0038616782537492355,0.0024099066895616867,0.9951435369006217
2016-12-07,-1,-0.0015741526651551164,-0.0013925568254358886,-0.0035566305293332147,0.0034476497224075766,0.9944579824326031
2016-12-09,-1,-0.0008510658435536112,-0.0007711445410684024,-0.0035566305293332147,0.004072234903902754,0.9943936868316934
2016-12-13,-1,-0.0009505834244034736,-0.0008392462690898362,-0.0026967466459034604,0.004072234903902754,0.9947822371033098
2016-12-15,-1,-0.00032080504132508427,-0.00029899589883653806,-0.0026967466459034604,0.0034476497224075766,0.9951505875968739
2016-12-19,-1,-0.000757381529054996,-0.0006940818711540628,-0.0015577330128157389,0.0034476497224075766,0.9955760243481632
2016-12-21,-1,-0.0007402054785032341,-0.0006859775847324865,-0.002473128915804,0.0034476497224075766,0.9950437448800592
2016-12-23,-1,-0.0006932718925366319,-0.0006371256041796797,-0.0027437234311543696,0.004072234903902754,0.9947603152219359
2016-12-28,-1,-0.0011735112057879452,-0.0010455039291188462,-0.0026823901086560345,0.0061535210407632854,0.9939609199133417
2016-12-30,-1,-0.0011546105517213877,-0.0010335951133797312,-0.0026293168439239373,0.008391416942156373,0.9933933669383772
2017-01-04,-1,-0.0009120128240809112,-0.000848795917973564,-0.0026823901086560345,0.010171486382996975,0.9927360107350409
2017-01-06,-1,-0.0004846921805138878,-0.0004464108252661016,-0.002859022644431973,0.008268829764087928,0.9930354953053636
2017-01-10,1,5.4834829955770285e-05,7.127618308779029e-05,-0.003330862322672446,0.007293534408736289,0.9935791461994372
2017-01-12,1,0.0006688401046129933,0.0007751266406686709,-0.003330862322672446,0.00419750488485377,0.9942597132176396
2017-01-17,1,0.0007467263022579964,0.000874569271554362,-0.003330862322672446,0.00419750488485377,0.9942305355921747
2017-01-19,1,0.0006740186846468145,0.0007828070139773581,-0.003330862322672446,0.007172858302304214,0.9940719662735183
2017-01-23,1,0.00045745938158480917,0.0005757201337502217,-0.002667749915016472,0.007172858302304214,0.9945253910327925
2017-01-25,1,0.0006549688657909998,0.0007987920401932254,-0.0017090993337339992,0.006489379477008105,0.99498770412533
2017-01-27,1,0.001427230442248241,0.0016763103217036408,-0.0017090993337339992,0.006155600076201341,0.9961161944584018
2017-01-31,1,0.0018801120575615187,0.002195132265915377,-0.0006394504437216886,0.006155600076201341,0.9964118338481042
2017-02-02,1,0.0011669476856828883,0.0013019922317595565,-0.0006394504437216886,0.0037431641931538508,0.9967418524422648
2017-02-06,1,0.001302986861036028,0.0014594135546926617,-0.001163135938620929,0.002926418152692744,0.9970924543527189
2017-02-08,1,0.0017128437885981966,0.00198168962562174,-0.0005591668059777115,0.003579072497062607,0.9971641831263642
2017-02-10,1,0.0016477454659252573,0.0019019562842178559,-0.0005591668059777115,0.003579072497062607,0.9971339978389979
2017-02-14,1,0.002146857695989542,0.0025100983546867844,-0.001365257997690996,0.0056514383897261385,0.9961737386187891
2017-02-16,1,0.002524454589380748,0.002939465631047796,-0.002404661377434599,0.0056514383897261385,0.9947918723468371
2017-02-21,1,0.002720620266804834,0.0031560163974023894,-0.003276165397290303,0.0028145313056666486,0.9939710152961175
2017-02-23,1,0.0024857870160243057,0.002857751647423225,-0.003276165397290303,0.005929805821254427,0.9939117831617306
2017-02-27,1,0.002797384081455929,0.003235125327826877,-0.003058729134297707,0.0055801358374776575,0.9940054239406012
2017-03-01,1,0.0030449852742466922,0.0034931163959062038,-0.003058729134297707,0.002344440739825562,0.9941515690080831
2017-03-03,1,0.0029536385933775808,0.0033965546262429685,-0.002404661377434599,0.002344440739825562,0.9942536908424005
2017-03-07,1,0.002411948279404973,0.0027377131756263816,-0.0032372320252684636,0.004806230885353332,0.994424480684311
2017-03-09,1,0.002431116806679921,0.002747135415961326,-0.0032372320252684636,0.0021280276154369516,0.9944718909081867
2017-03-13,1,0.0021839863852880165,0.0024471421296977363,-0.002680147475763609,0.004048244888525069,0.9946629463829717
2017-03-15,1,0.0021226180037578367,0.0023824340788195083,-0.0018640514268546664,0.0019510451507477042,0.9951664441414837
2017-03-17,1,0.0019547276117043415,0.002191995501148526,-0.0018640514268546664,0.0019510451507477042,0.9962169661612149
2017-03-21,1,0.0012066835584158655,0.0013246642746741113,-0.0014269910922387202,0.003966806155762915,0.9970042386784762
2017-03-23,1,0.0012032635376283496,0.0012698845364400684,-0.0018640514268546664,0.0019510451507477042,0.996803045248217
2017-03-27,1,0.0011990105162199803,0.0012704396693599862,-0.0030735583531724224,0.003966806155762915,0.9941595443068207
2017-03-29,1,0.0009818443160210725,0.0010051582693219783,-0.0030735583531724224,0.00433487608430635,0.9934193478970309
2017-03-31,1,0.0017766526295641487,0.002005976310474571,-0.003153551350353002,0.005310193131611204,0.9923322505848837
2017-04-04,1,0.0021050577753986056,0.002423417002103696,-0.003226309188772908,0.0050658769333247426,0.9919676703004382
2017-04-06,1,0.0017926146415362548,0.002028095865402687,-0.003226309188772908,0.006365394181151658,0.9918500650630976
2017-04-10,1,0.00015896438429336844,0.0002905104366071493,-0.004539152647368748,0.006365394181151658,0.9907183916366381
2017-04-12,1,0.0008050861095985222,0.0008308817206506777,-0.005211807307087327,0.008193100751979297,0.9892706578266325
2017-04-17,1,0.0011057233238860131,0.001200671199313759,-0.005211807307087327,0.00705529925446457,0.9896431164216114
2017-04-19,1,0.0005536698995139604,0.0005793640564536285,-0.0072629413450599435,0.00705529925446457,0.9889451243979714
2017-04-21,1,0.0010644796550706628,0.0011355905322404207,-0.0072629413450599435,0.006750842748491951,0.9890141386424444
2017-04-25,1,9.192517439726197e-05,0.00012343141830755165,-0.006163814555367006,0.006750842748491951,0.9910707941370417
2017-04-27,-1,-0.00033755040857297476,-0.00016471707202040764,-0.006163814555367006,0.006046230999544003,0.9919250915510505
2017-05-01,1,0.0002918669234859867,0.00039641331337886276,-0.006163814555367006,0.006046230999544003,0.9927409446538822
2017-05-03,-1,-0.000421942299767832,-0.00022874007227420068,-0.0024099782931692832,0.006750842748491951,0.9921728074926296
2017-05-05,1,0.00012625751159389757,0.0002349563440367356,-0.0024099782931692832,0.006750842748491951,0.9925967356038349
2017-05-09,-1,-0.0008217551196457247,-0.0006132211416490751,-0.001361952549129993,0.006750842748491951,0.9931964618267749
2017-05-11,1,0.0002296114421969873,0.0003000742174757148,-0.001361952549129993,0.006182599698850882,0.9948120516696275
2017-05-15,-1,-0.00019041458971477573,-3.844571222717336e-05,-0.002151101626427896,0.006450010249910109,0.9943484310420821
2017-05-17,-1,-0.0011674285427380063,-0.0008917834624538404,-0.0013106627570844951,0.006450010249910109,0.994789827473497
2017-05-19,-1,-0.0006540139528743957,-0.000441810426590069,-0.0018942767664630335,0.006406066996525227,0.9950238034925205
2017-05-23,-1,-0.00036985669900496264,-0.00017838981967159486,-0.003059244370667218,0.005340841869902949,0.9952975414213523
2017-05-25,-1,-0.0005312374889221596,-0.00031331196223382965,-0.003059244370667218,0.006406066996525227,0.9949710526242489
2017-05-30,-1,-0.0005211725204218252,-0.0002867456553936772,-0.003059244370667218,0.005340841869902949,0.9953056290989543
2017-06-01,1,0.0006898517491329342,0.0007544619007030501,-0.003596669316424692,0.0019388536405087371,0.9961283469557697
2017-06-05,1,0.0009479735958900181,0.0009525219979068547,-0.003596669316424692,0.003963006726096032,0.9955085949398244
2017-06-07,1,0.001041464383377405,0.0010759454598402859,-0.003596669316424692,0.005578956918705588,0.9949584607573305
2017-06-09,1,0.0008134238575380717,0.000814141903966915,-0.003059244370667218,0.00736883825119536,0.9945522483211628
2017-06-13,1,0.0007799840129279329,0.0007874540800143033,-0.003059244370667218,0.008338882216066068,0.9944422298013005
2017-06-15,1,0.00017912523932132397,0.00028873216472447146,-0.002574847264771534,0.00919222665560539,0.9939937058651075
2017-06-19,1,0.000467435813141773,0.0005396432784867862,-0.002630164576984194,0.008338882216066068,0.9942724777174871
2017-06-21,1,0.0007927213240999358,0.0007927288109466057,-0.0022676029169317593,0.008338882216066068,0.99421310900403
2017-06-23,1,0.0012122689250465355,0.0012857459727789414,-0.0022676029169317593,0.00918205535219992,0.99419434152138
2017-06-27,1,0.0010894609217776755,0.0011517466464714926,-0.003772880382268729,0.00918205535219992,0.9935414264579245
2017-06-29,1,0.000730858420072983,0.0007500022422999796,-0.0036500412533856967,0.00918205535219992,0.9937061868655599
2017-07-03,1,0.000873204286505014,0.0009025354632773044,-0.0036500412533856967,0.007116662777027697,0.9940496046818843
2017-07-06,1,0.0009267352549309894,0.000956322548714258,-0.0036500412533856967,0.0054462955584239315,0.994399107448281
2017-07-10,1,0.001141187653177338,0.0012153810809924885,-0.005302363412561166,0.005043530601016378,0.9944331944074329
2017-07-12,1,0.001264849023596071,0.0013730514070239438,-0.0054136476949449615,0.005043530601016378,0.9945562020336637
2017-07-14,1,0.0016984688622463573,0.0018729586769720232,-0.0054136476949449615,0.005043530601016378,0.9947941877656342
2017-07-18,1,0.0017106805062149072,0.0018849403108894764,-0.0054136476949449615,0.005306886416053489,0.9947800913475698
2017-07-20,1,0.001981329796998832,0.0021915677197450953,-0.006240467062502702,0.0024428320379229424,0.9943251486701872
2017-07-24,1,0.002475584014336982,0.0027720892302630163,-0.006857374796579928,0.0024428320379229424,0.993721127177398
2017-07-26,1,0.00185323242210093,0.0020588642645666382,-0.006619026893525141,0.004500575391933638,0.9939393763772923
2017-07-28,1,0.0015908298493682773,0.00175063408192434,-0.006619026893525141,0.004500575391933638,0.9942552063011659
2017-08-01,1,0.0014750579590480193,0.0016281471143047897,-0.006619026893525141,0.004500575391933638,0.9944655097703816
2017-08-03,1,0.0010674255250301807,0.0011621145986520534,-0.005299769402493779,0.006019527816220841,0.9944914862873595
2017-08-07,1,0.0008585890439816283,0.0009199477293850829,-0.002347481515733241,0.006019527816220841,0.9948099648860964
2017-08-09,1,0.0007323394993611014,0.0007661630277256644,-0.002140201260535132,0.004958456090969742,0.995096923416422
2017-08-11,1,0.0007740725102024047,0.0007762741943786319,-0.002140201260535132,0.004958456090969742,0.9946470766467099
2017-08-15,1,0.0010661264787169575,0.001131360613390552,-0.005802778367273473,0.003846174317541526,0.9932276897931454
2017-08-17,1,0.0006247084331505655,0.0006287590082273482,-0.005802778367273473,0.004710813494726287,0.9930056577365907
2017-08-21,1,0.0006392476085512359,0.0006431837007438823,-0.005818643734734839,0.003846174317541526,0.9930508833885845
2017-08-23,1,0.0001297432999313575,0.00019309706189962327,-0.005818643734734839,0.003846174317541526,0.993137216609036
2017-08-25,1,0.00023894858012053026,0.00029705017217218074,-0.005818643734734839,0.004710813494726287,0.9929699800849237
2017-08-29,1,0.00024844033669657573,0.0003041248751302618,-0.005818643734734839,0.00503353229118388,0.9927716288635171
2017-08-31,1,0.00032322924351357055,0.000367619091983872,-0.005196802969140513,0.00503353229118388,0.9926914365454844
2017-09-05,1,0.00025103216306846665,0.0003144564860625182,-0.009002950415304882,0.00503353229118388,0.9922663869882496
2017-09-07,1,0.00012852168756304072,0.00020224914220890572,-0.009002950415304882,0.0059866864966178455,0.9916755568471246
2017-09-11,1,0.0008190094780934243,0.0008223396776907285,-0.009002950415304882,0.005335311084727549,0.9922981810175445
2017-09-13,-1,-0.0006272619096266934,-0.0004696052782906876,-0.00442013009154913,0.005901648766600785,0.9934404693446086
2017-09-15,-1,-0.001635366195118056,-0.0012977525839434796,-0.0028171639240775564,0.006587383842722814,0.99301104859295
2017-09-19,-1,-0.001740446362154573,-0.0014250094794366333,-0.0024963368479003724,0.0069699944911800135,0.992979852902691
2017-09-21,-1,-0.0015632664688125944,-0.0013017393883269154,-0.0016218364003018656,0.00872246122160226,0.9922200875019342
2017-09-25,-1,-0.001548558120323461,-0.0012598604735132445,-0.0024963368479003724,0.01128764284013873,0.992050807713904
2017-09-27,-1,-0.0012709740266023456,-0.001028563718660586,-0.002819005034802502,0.01128764284013873,0.992348469135578
2017-09-29,-1,-0.0015761688503372925,-0.0012454257069293385,-0.002819005034802502,0.00872246122160226,0.9928353824749658
2017-10-03,-1,-0.0017193168624938286,-0.001410227681610774,-0.002819005034802502,0.00872246122160226,0.9931631648732888
2017-10-05,-1,-0.0009752482184393808,-0.0007507324980912754,-0.00294955042867664,0.00872246122160226,0.9903945985939797
2017-10-09,-1,-0.0009016044107736591,-0.0007065740110264046,-0.00294955042867664,0.00872246122160226,0.9902622972715768
2017-10-11,-1,-0.0006733579266188883,-0.0005205772512018939,-0.00294955042867664,0.00872246122160226,0.9905575512700259
2017-10-13,0,-5.608765872120976e-05,1.0241606425729998e-05,-0.003215417982571632,0.00872246122160226,0.989752226345558
2017-10-17,1,7.395856823812477e-05,0.00012737924701873845,-0.003136614298647716,0.004607988797049456,0.9901778074165096
2017-10-19,1,0.0007928935934428617,0.0008358179381950096,-0.003878813035169742,0.0024462771393792097,0.9907487588918422
2017-10-23,1,0.0009457289018930188,0.001039214841920938,-0.0045046248358634345,0.0024462771393792097,0.9909701175179579
2017-10-25,1,0.0009675216707098328,0.0010614372492277946,-0.0056389003188983605,0.0039845456502011,0.989473960998074
2017-10-27,1,0.0008691238456885993,0.0009458710138768902,-0.0056389003188983605,0.006336725574721245,0.989026580290683
2017-10-31,1,0.0006409697776069382,0.000680105108780134,-0.0045046248358634345,0.008108595082393701,0.9889850554090639
2017-11-02,1,0.0021275702110226478,0.0023642599921928284,-0.0056389003188983605,0.006337598015557152,0.9922391247008366
2017-11-06,1,0.0017856800418966203,0.001965840945830268,-0.0056389003188983605,0.006337598015557152,0.9910879773035219
2017-11-08,1,0.0018691344367475164,0.0020683802801110917,-0.0056389003188983605,0.006337598015557152,0.990976021795124
2017-11-10,1,0.001293297847000876,0.0014090458264815256,-0.0056389003188983605,0.006337598015557152,0.9920921202320274
2017-11-14,1,0.0016777142990458376,0.0018579666433073442,-0.0056389003188983605,0.006337598015557152,0.9920186218753345
