JNU-Tangyin/eata/results/Batch4_SP500/Batch4_SP500-PLD.csv
Date,Action,Predicted_Q25,Predicted_Q75,Actual_Q25,Actual_Q75,RL_Reward
2010-12-14,0,0.0,0.0,-0.0026602154143366657,0.006105763257867726,0.9926783860986261
2010-12-16,0,0.0,0.0,-0.0026250742285450837,0.006319148856536354,0.9925252214755691
2010-12-20,1,0.0012715529235814925,0.0013432557501755647,-0.004964280185325499,0.006319148856536354,0.9921780046136526
2010-12-22,1,0.002234813503506063,0.002479229201187512,-0.004964280185325499,0.008097243737614558,0.9918521030726191
2010-12-27,1,0.004057353216763218,0.004466700497184015,-0.003934963457858087,0.005932577251051705,0.9925173526807778
2010-12-29,0,0.0,0.0,-0.003934963457858087,0.008164052030447243,0.9907416433449506
2010-12-31,0,0.0,0.0,-0.005680968526621461,0.014823774048648219,0.9886216357544211
2011-01-04,0,0.0,0.0,-0.007997000551144657,0.008164052030447243,0.9887592175276576
2011-01-06,0,0.0,0.0,-0.007997000551144657,0.005932577251051705,0.9894304732111756
2011-01-10,0,0.0,0.0,-0.007997000551144657,0.007665140373593904,0.9892213969879363
2011-01-12,0,0.0,0.0,-0.00572876610878821,0.007665140373593904,0.9894380020994253
2011-01-14,0,0.0,0.0,-0.00473459056711238,0.012536708339473306,0.9890883810969345
2011-01-19,1,0.0005276356774820815,0.0006322622052195752,-0.0011260986025554887,0.012536708339473306,0.9900470289240877
2011-01-21,0,0.0,0.0,-0.00473459056711238,0.012536708339473306,0.989386707289574
2011-01-25,0,0.0,0.0,-0.008506824274527508,0.012536708339473306,0.9890242978381208
2011-01-27,0,0.0,0.0,-0.005889061255761657,0.012536708339473306,0.9897627384845654
2011-01-31,-1,-0.00021121083069886728,-0.00019820954175750125,-0.005889061255761657,0.012536708339473306,0.9895891749146083
2011-02-02,1,0.0007027834506350579,0.0008906689293162481,-0.0021419004227801073,0.014528682019489394,0.9882349590805314
2011-02-04,1,0.0010457406940568245,0.001162222071811011,-0.008390304828332298,0.014528682019489394,0.9873087315216905
2011-02-08,0,0.0,0.0,-0.008802795457030745,0.016511381156384564,0.9865203145482202
2011-02-10,0,0.0,0.0,-0.010696318082672216,0.016511381156384564,0.9850218639602542
2011-02-14,1,0.0010254598216720568,0.0010527500990537273,-0.01387231338938132,0.016511381156384564,0.98356046792382
2011-02-16,0,0.0,0.0,-0.01387231338938132,0.010241564573155596,0.9846644624722926
2011-02-18,1,0.0030030565918347896,0.0031104862100042947,-0.01387231338938132,0.011033357354040315,0.9836988204996905
2011-02-23,0,0.0,0.0,-0.01387231338938132,0.011033357354040315,0.9845297081417949
2011-02-25,1,0.0012153037974584257,0.0012256586655679138,-0.01387231338938132,0.010476747302334633,0.9845369811580774
2011-03-01,0,0.0,0.0,-0.009628363420104006,0.007230358078866654,0.9869735730548627
2011-03-03,0,0.0,0.0,-0.007934733871126688,0.008301203362407535,0.9879107330956886
2011-03-07,0,0.0,0.0,-0.00599439728969817,0.008301203362407535,0.9886646771573081
2011-03-09,0,0.0,0.0,-0.004159444473704847,0.007230358078866654,0.9898477271141072
2011-03-11,0,0.0,0.0,-0.00599439728969817,0.005199301862228546,0.9900759034244158
2011-03-15,-1,-0.0009743131111816888,-0.0007244545933463231,-0.003485964853949832,0.005587649184337761,0.9919585321201986
2011-03-17,-1,-0.0017383686547990148,-0.0013740637605277964,-0.004159444473704847,0.0074553396708056455,0.9906371458491208
2011-03-21,-1,-0.0007190760714711876,-0.00044945420380626436,-0.00599439728969817,0.0074553396708056455,0.9905524630865193
2011-03-23,-1,-0.0012239152483497682,-0.000907949054323454,-0.004329794109981109,0.008525428148803435,0.9900262880654535
2011-03-25,-1,-0.00030990224123291974,-0.00012558381258486622,-0.004329794109981109,0.008525428148803435,0.9905003043993129
2011-03-29,0,-8.237407442312762e-05,6.890302994612093e-05,-0.006753044269224409,0.008525428148803435,0.9902611120567083
2011-03-31,1,0.0013961514836145308,0.001496741175530279,-0.008295264477581145,0.0073473696694829425,0.990339557814409
2011-04-04,1,0.0006831569097579247,0.0007273915351826594,-0.008732215214848956,0.0073473696694829425,0.9899407963239143
2011-04-06,1,0.001076606265313704,0.0011087620166187451,-0.011023442361914932,0.0075606210409673615,0.9893220853063519
2011-04-08,-1,-0.0006931224331095953,-0.00046556195290718835,-0.008754264593546942,0.0075606210409673615,0.9904309058782854
2011-04-12,-1,-0.0012981373173792698,-0.0009557938960590049,-0.01110039300210008,0.008785569078266667,0.9880199136870582
2011-04-14,1,0.00026136594332314296,0.00037803379104983805,-0.011325793062216063,0.0075606210409673615,0.988178462198755
2011-04-18,-1,-0.0009104479581004051,-0.0006154594988311209,-0.01110039300210008,0.007075847299028815,0.9898934227265146
2011-04-20,-1,-0.00041800513738648993,-0.00022316307814667193,-0.008754264593546942,0.007971001966904282,0.9894791872682254
2011-04-25,-1,-0.00047948908879742497,-0.00024158589012796927,-0.01110039300210008,0.00636775452975695,0.9892694891548056
2011-04-27,1,0.00039218295574798697,0.0004430176761793757,-0.01110039300210008,0.007961823127255805,0.9889554163705626
2011-04-29,1,0.0007389788277592966,0.000758017877138547,-0.011056237666506024,0.009339616777452223,0.989126231107589
2011-05-03,1,0.0002579059676349304,0.0003276859171105548,-0.01110039300210008,0.010641399530009338,0.987217649935553
2011-05-05,0,-4.3848561572827036e-05,3.174507739054912e-05,-0.011357436738477266,0.010641399530009338,0.9858715121658167
2011-05-09,-1,-0.0012612684513133576,-0.0009956746638817432,-0.012768580977208299,0.012657083711162597,0.9832957246673191
2011-05-11,-1,-0.0020538835308925355,-0.0016672725311423346,-0.012768580977208299,0.010641399530009338,0.9843138520329199
2011-05-13,-1,-0.002213776795121263,-0.001869102484765707,-0.013461816747596434,0.012657083711162597,0.9831899207143543
2011-05-17,-1,-0.0019567928818751226,-0.0016438269247562457,-0.015876667643395872,0.012989227617560304,0.9817633090982134
2011-05-19,-1,-0.0009283240697179736,-0.0007517551364067171,-0.015876667643395872,0.014271380869400798,0.9817958338980141
2011-05-23,-1,-0.0019886727276223876,-0.0016715926852841584,-0.015876667643395872,0.014271380869400798,0.981822129533285
2011-05-25,-1,-0.0012535965962411147,-0.001033989193508852,-0.015876667643395872,0.014271380869400798,0.9820758050142304
2011-05-27,-1,-0.0005235052527800921,-0.0004159903942509466,-0.015876667643395872,0.01165999330359763,0.9827657048537722
2011-06-01,-1,-0.0013419624868486139,-0.001156701248057009,-0.013442169949334674,0.0122289905884272,0.983586076546992
2011-06-03,-1,-0.003088057790841635,-0.002710823283123196,-0.01222474254340324,0.013316597582313856,0.9839198333623663
2011-06-07,-1,-0.003369322012334516,-0.002934747109339547,-0.00714864483184058,0.011341732207901984,0.9869049566348431
2011-06-09,-1,-0.005205977884843154,-0.004570904533947977,-0.0013812207094219754,0.013316597582313856,0.9855531937591533
2011-06-13,-1,-0.004647289767768693,-0.0040791638407733175,-0.002431116777080093,0.011341732207901984,0.9864338435175932
2011-06-15,-1,-0.004192483462169165,-0.003715401053668092,-0.005865832603407053,0.010278294019025634,0.9871840561887946
2011-06-17,-1,-0.0032241915384891096,-0.002857212345603612,-0.007969036428192024,0.009827112311709579,0.9881228957645857
2011-06-21,-1,-0.0007485902747423425,-0.0005922273297707993,-0.007969036428192024,0.009827112311709579,0.9884388857377021
2011-06-23,-1,-0.0020630948515852733,-0.0016897526876961072,-0.005865832603407053,0.010211795139341633,0.9876892582951741
2011-06-27,-1,-0.0018255567915961834,-0.0014259526985093366,-0.007955895862011193,0.010506204147286813,0.9876936913819018
2011-06-29,-1,-0.00035724938418082877,-0.00018147899845565366,-0.011170678312532076,0.010506204147286813,0.985753439378622
2011-07-01,1,0.0008835266031681031,0.000885103440422993,-0.011628183998235226,0.01008372397920672,0.984523443276468
2011-07-06,1,0.0006305174734136498,0.000656980933094182,-0.015479026710213069,0.01008372397920672,0.9818050233106526
2011-07-08,1,0.0017082795225258367,0.0018585152377559467,-0.030258804801586346,0.009717320297814826,0.9784661536757892
2011-07-12,0,0.0,0.0,-0.03470223572106942,0.01008372397920672,0.9711882962005357
2011-07-14,0,0.0,0.0,-0.03709499289096752,0.010506204147286813,0.9682452265776699
2011-07-18,0,0.0,0.0,-0.03709499289096752,0.013049425449382143,0.9661786775344011
2011-07-20,0,0.0,0.0,-0.03709499289096752,0.010506204147286813,0.9662775401731524
2011-07-22,1,0.0015109761319223186,0.0016944792920271748,-0.0433062549649299,0.009835147367480382,0.9625998497570146
2011-07-26,1,0.0018247689887750055,0.002093544468137186,-0.0433062549649299,0.008851914241417286,0.9623489385754894
2011-07-28,1,0.001194249744482828,0.0013380780961029818,-0.03976447010554669,0.0035010993712278936,0.9639598895259963
2011-08-01,1,0.0007190729189700969,0.0008301494033307493,-0.03976447010554669,0.006347747984322379,0.9636384168678774
2011-08-03,-1,-0.002502528000323536,-0.0021617569799936157,-0.035592061459262476,0.013377956268764384,0.9657004377011104
2011-08-05,-1,-0.008005956430051238,-0.006949464073979223,-0.03008856154708789,0.013377956268764384,0.9683587645536115
2011-08-09,-1,-0.008454037727299867,-0.0073503828395525715,-0.022583702674415982,0.013377956268764384,0.9735523628174171
2011-08-11,0,0.0,0.0,-0.022583702674415982,0.009375567730265339,0.9750196429538965
2011-08-15,-1,-0.004711850960391248,-0.004136838032895107,-0.022583702674415982,0.009375567730265339,0.9781639120625828
2011-08-17,-1,-0.0031906126846092623,-0.0028285814604467677,-0.022583702674415982,0.014260459302906626,0.9758146660663167
2011-08-19,-1,-0.0053072126095442184,-0.004694845069819128,-0.014896366717041584,0.020114104187002893,0.9777034509380927
2011-08-23,-1,-0.005332515820913214,-0.0047658880540078835,-0.016116165901327494,0.020114104187002893,0.9749506702184061
2011-08-25,-1,-0.007354254555891246,-0.006571024972865098,-0.016116165901327494,0.020114104187002893,0.9724345467696036
2011-08-29,-1,-0.0048744636985223015,-0.004389418163851081,-0.016116165901327494,0.01903548176430294,0.9742366179161774
2011-08-31,-1,-0.004129590609724689,-0.003682756101874015,-0.026680398037288937,0.016669310403924886,0.9732939165728752
2011-09-02,-1,-0.005283581241431945,-0.004713072992919199,-0.04431859805570146,0.016669310403924886,0.9707969109470109
2011-09-07,-1,-0.003177651522315898,-0.002893633988452575,-0.04431859805570146,0.016669310403924886,0.9720699264565251
2011-09-09,-1,-0.005069161838655717,-0.0045783683713046044,-0.04101221195116672,0.02224675269842346,0.9696976207054062
2011-09-13,-1,-0.004359340336774041,-0.003950722666710089,-0.04101221195116672,0.026924464413854814,0.9682948439329014
2011-09-15,-1,-0.0014951762990793697,-0.0014581595205225473,-0.04101221195116672,0.018170203828570163,0.9700594359032816
2011-09-19,-1,-0.0006131761929801048,-0.0005383994964698661,-0.04101221195116672,0.018170203828570163,0.9695547946720273
2011-09-21,0,0.0,0.0,-0.031200738938706236,0.02592914442031619,0.9683707518830542
2011-09-23,0,0.0,0.0,-0.019641981497119803,0.04087921905172152,0.9693637889442769
2011-09-27,0,0.0,0.0,-0.031200738938706236,0.04087921905172152,0.9671213220752355
2011-09-29,0,0.0,0.0,-0.019641981497119803,0.043427237640254024,0.966336877882133
2011-10-03,0,0.0,0.0,-0.008327838895473026,0.043427237640254024,0.9709060780734666
2011-10-05,0,0.0,0.0,-0.008993048683361947,0.043427237640254024,0.9694309357982821
2011-10-07,0,0.0,0.0,-0.005867657290838761,0.038437482271636486,0.9721916258275718
2011-10-11,-1,-0.005681053506966664,-0.00534403871825788,-0.005867657290838761,0.03523841442433781,0.9718848284172652
2011-10-13,-1,-0.005289591095801415,-0.004977839463769567,-0.015291055333193124,0.03523841442433781,0.9696432750316044
2011-10-17,-1,-0.00427746258275517,-0.004123684171465615,-0.01559798126200738,0.03523841442433781,0.9696534746092745
2011-10-19,-1,-0.002643012628367861,-0.0025399953416050075,-0.009306031491454422,0.02244525117091193,0.9738653806404306
2011-10-21,-1,-0.0013469000418397333,-0.001107400314151115,-0.01532959990044156,0.012498402254843919,0.9759741849109921
2011-10-25,-1,-0.0019362001948435052,-0.0018595056782384463,-0.017102167610497633,0.01022883784528494,0.9763941563061336
2011-10-27,0,-0.00013354848849689294,0.00019151972912905685,-0.0184857947005262,0.01022883784528494,0.9784934842441825
2011-10-31,-1,-0.0003696671757959432,-0.00015671238662728969,-0.0184857947005262,0.010814760582561343,0.9772082933321256
2011-11-02,-1,-0.0016943963359359196,-0.0016239269047339973,-0.017102167610497633,0.010814760582561343,0.9774488651641922
2011-11-04,-1,-0.0003479744977596831,-0.00011001409726423092,-0.017102167610497633,0.011091097206750772,0.9774977652267023
2011-11-08,1,0.0006957197241660158,0.0011164449618032508,-0.017102167610497633,0.012869592301585336,0.9772237511520138
2011-11-10,-1,-0.0013203555497781829,-0.0011341673602008487,-0.017102167610497633,0.01872004947590763,0.9784408467553466
2011-11-14,-1,-0.0006345013208877171,-0.0003550498646600666,-0.017680650615828738,0.012869592301585336,0.9788698459535615
2011-11-16,0,-0.00018682245478480043,0.0001886606027523825,-0.017680650615828738,0.012869592301585336,0.9787925671348268
2011-11-18,1,0.00020715540761280624,0.000698627907164716,-0.021163750325747934,0.012869592301585336,0.978146994395903
2011-11-22,-1,-0.0010180947996295566,-0.0006571169336267214,-0.012799584853330196,0.01872004947590763,0.9788119180760958
2011-11-25,-1,-0.0010647514879168556,-0.0007112730490564793,-0.006473441820584803,0.02036080658142285,0.9795739744405917
2011-11-29,1,0.0003381105772776846,0.0009171353449270137,-0.012799584853330196,0.017113690253046415,0.9809570345707292
2011-12-01,1,0.0015177054049713623,0.002221333960385919,-0.007770521341977371,0.01232349017884722,0.9848388202927943
2011-12-05,1,0.0021349999371051078,0.0028925095316689586,-0.01700088013005913,0.011650048328322402,0.984109415536398
2011-12-07,1,0.0027358815444743544,0.0035736093031579113,-0.01700088013005913,0.012196967363494142,0.9831176761643796
2011-12-09,1,0.0030938540076182806,0.0040261994633214344,-0.01571508425160529,0.012196967363494142,0.9841515999712754
2011-12-13,1,0.0021671690010069584,0.003023825297208172,-0.005855545781224751,0.012621093388758933,0.9867962519635286
2011-12-15,1,0.0026386139662428238,0.0035726887950634618,-0.006043050498768215,0.019749637679302094,0.9857941298569245
2011-12-19,1,0.0023697051379226656,0.0032396690482393263,-0.0009962805995418903,0.019749637679302094,0.9864172881358445
2011-12-21,1,0.003546881030332719,0.004551238434911389,-0.0007367351278965288,0.01860009174482538,0.9884361209577228
2011-12-23,1,0.0033968349668323018,0.004249247803454514,-0.0007367351278965288,0.016138792427301377,0.9886381398388033
2011-12-28,1,0.0013776758194003309,0.0017492559296858287,0.00029463289747387936,0.016138792427301377,0.9886174932559072
2011-12-30,1,0.0017239130281436247,0.0019602551290623816,-0.0019529895307472565,0.016138792427301377,0.9872055146142295
2012-01-04,1,0.0017084834367157966,0.0021217748589107367,0.000477558248153466,0.016138792427301377,0.9881434450508678
2012-01-06,1,0.0027209307191033544,0.0032158263054342475,0.000477558248153466,0.012557569221102596,0.9898260839245557
2012-01-10,1,0.0032913091959680192,0.003768189731419741,0.0027680220904250635,0.012557569221102596,0.9903738498757854
2012-01-12,1,0.0026525798398582255,0.0031362225529087645,-0.0011300793001509362,0.012557569221102596,0.988629089743602
2012-01-17,1,0.002654545787269835,0.0029016817885391968,-0.0011300793001509362,0.012557569221102596,0.9888079011556417
2012-01-19,1,0.002860121714749956,0.0030120405242023444,-0.00228994284138414,0.012557569221102596,0.9886651858348037
2012-01-23,1,0.0035862432973375645,0.003955533280759133,-0.004277118985927771,0.010908471600425821,0.9889257231113143
2012-01-25,1,0.00413141173584967,0.004624438014446779,-0.006571178127489937,0.012510513615094653,0.9872526001546251
2012-01-27,1,0.003638161819932677,0.0039421368742311984,-0.006571178127489937,0.012510513615094653,0.9871936307993342
2012-01-31,1,0.003055393506569323,0.003604061712744624,-0.006284213612656979,0.012510513615094653,0.9881992619941925
2012-02-02,1,0.003457256276660401,0.0037574041878962816,-0.006284213612656979,0.009716616553772916,0.9891119808202209
2012-02-06,1,0.0034040711096779514,0.0037357402155908993,-0.009139110943380265,0.011559697694877791,0.9877556362669824
2012-02-08,1,0.004565766394776674,0.005294314717135932,-0.010166674553698704,0.008760703343887174,0.987274932197
2012-02-10,1,0.0037541387089255057,0.004372860167189383,-0.009139110943380265,0.015594010151532695,0.988573405762966
2012-02-14,1,0.0039100242613968154,0.004222273130849534,-0.005508241217490188,0.015594010151532695,0.9884893303486333
2012-02-16,1,0.003592607462144571,0.0037462543888656594,-0.005508241217490188,0.009430107942367136,0.9892774864824537
2012-02-21,1,0.0035097476744949258,0.003686805315869222,-0.004704454649247576,0.009430107942367136,0.9894000647804829
2012-02-23,1,0.0031567961453150134,0.003224097536229085,-0.004704454649247576,0.006759118873897272,0.9908184243404092
2012-02-27,0,0.0,0.0,-0.004704454649247576,0.009193539695755136,0.9899367856067717
2012-02-29,0,0.0,0.0,-0.006047956838882304,0.009193539695755136,0.989563150721325
2012-03-02,0,0.0,0.0,-0.006047956838882304,0.014725156612500847,0.9885071293247721
2012-03-06,0,0.0,0.0,-0.004704454649247576,0.009193539695755136,0.9902260096389773
2012-03-08,0,0.0,0.0,-0.005907493049667858,0.007420657442059657,0.9909448832723046
2012-03-12,1,0.0007228092696311758,0.000849339542244707,-0.008213298101449716,0.006643505373397042,0.9887278175158768
2012-03-14,1,0.0015133257857861712,0.0015228123964531638,-0.008213298101449716,0.007420657442059657,0.9891784998217119
2012-03-16,1,0.0020817948741266743,0.0022273201953537853,-0.011078918975710526,0.007450034210095517,0.9883508869634048
2012-03-20,1,0.0018770490658536175,0.0019861163269989496,-0.011414260540543168,0.009281669999862715,0.9872470713548454
2012-03-22,1,0.0027040718092652604,0.0030035997601958794,-0.011414260540543168,0.012789743747861251,0.9874990957376969
2012-03-26,0,0.0,0.0,-0.011828537674742913,0.011787195171124549,0.9856530781382699
2012-03-28,1,0.0020524462026369895,0.0021493653937083336,-0.011828537674742913,0.012912353876286217,0.9854021383304495
2012-03-30,0,0.0,0.0,-0.011828537674742913,0.011787195171124549,0.9852624402244601
2012-04-03,0,0.0,0.0,-0.011828537674742913,0.011787195171124549,0.9854079495457421
2012-04-05,0,0.0,0.0,-0.012459197979129475,0.011787195171124549,0.985147148993211
2012-04-10,0,0.0,0.0,-0.0038671095346706243,0.011787195171124549,0.987317798567373
2012-04-12,0,0.0,0.0,-0.011419037762747738,0.011258032663919572,0.9877896003847123
2012-04-16,0,0.0,0.0,-0.011607588616651347,0.010920759326935559,0.9878699483294884
2012-04-18,0,0.0,0.0,-0.011304955684536225,0.01033979359587837,0.988576692505162
2012-04-20,0,-0.00013048880432461342,0.00036351507741091233,-0.015068986423038118,0.009895294553888165,0.9864185098976175
2012-04-24,0,0.0,0.0,-0.012456961387214752,0.009895294553888165,0.9859345041077522
2012-04-26,0,0.0,0.0,-0.012456961387214752,0.005031972851734071,0.9870269180997734
2012-04-30,1,0.0005313975534149236,0.0006140588056247585,-0.012456961387214752,0.0019082057400264482,0.9861949144425065
2012-05-02,1,0.0011569623470683034,0.001232725152070303,-0.013520086952176814,0.0019082057400264482,0.9851265344624079
2012-05-04,1,8.495626905806182e-05,0.00029854432804104635,-0.013520086952176814,0.0019082057400264482,0.9843961359981677
2012-05-08,-1,-0.001233729972298197,-0.0007713293485008136,-0.013520086952176814,0.005267751114608832,0.9833760071550037
2012-05-10,0,0.0,0.0,-0.013416424815504133,0.005267751114608832,0.9829259614162423
2012-05-14,0,0.0,0.0,-0.013416424815504133,0.01056403256758081,0.9820212325444638
2012-05-16,0,0.0,0.0,-0.013416424815504133,0.01056403256758081,0.9825469331837298
2012-05-18,0,0.0,0.0,-0.008765164619023155,0.01056403256758081,0.9856072793763614
2012-05-22,0,0.0,0.0,-0.008511688388395968,0.007857692767542498,0.987281250951482
2012-05-24,0,0.0,0.0,-0.008765164619023155,0.007857692767542498,0.9864175692306217
2012-05-29,0,0.0,0.0,-0.010662135402515413,0.006666978901528231,0.9867004447524772
2012-05-31,-1,-0.0036390057298408885,-0.0028959918896547874,-0.008511688388395968,0.00976264882380996,0.9868187496162586
2012-06-04,-1,-0.00522332287163923,-0.0043112575330928864,-0.0037689205494179194,0.013002902337644498,0.9850919447813434
2012-06-06,-1,-0.0028557490363202583,-0.0022558944987949806,-0.008511688388395968,0.00636663313247235,0.9879913310926374
2012-06-08,-1,-0.002674621584042133,-0.002140710915121172,-0.009196016813890965,0.00636663313247235,0.9881474336524754
2012-06-12,-1,-0.0018777014269905964,-0.0014763946034266147,-0.009000041438750751,0.006268720341531434,0.9895936695399603
2012-06-14,-1,-0.0018856589899244268,-0.001509339614127653,-0.0058947286071227,0.008444140627077079,0.9893268318612214
2012-06-18,0,0.0,0.0,-0.0058947286071227,0.008939503597677985,0.9890089689935824
2012-06-20,0,0.0,0.0,-0.010826356941943102,0.008444140627077079,0.9893945952394833
2012-06-22,0,0.0,0.0,-0.011268178882786795,0.008444140627077079,0.9888946999090701
2012-06-26,0,0.0,0.0,-0.010826356941943102,0.008645765224855238,0.9896755908171014
2012-06-28,0,0.0,0.0,-0.010826356941943102,0.008665174760861764,0.9890292412690087
2012-07-02,0,0.0,0.0,-0.010826356941943102,0.008352697681471672,0.9913019252101838
2012-07-05,-1,-0.0009189821070085154,-0.0007616640652858562,-0.008672217560773337,0.008352697681471672,0.992128370002695
2012-07-09,0,0.0,0.0,-0.005217656574350025,0.008665174760861764,0.9901984956988388
2012-07-11,0,0.0,0.0,-0.0057565667116538655,0.008665174760861764,0.9904221291695953
2012-07-13,-1,-0.00031471065028742764,-0.00028329223041800253,-0.006260119392879012,0.00810907981211556,0.9907938524048097
2012-07-17,0,0.0,0.0,-0.00742051092156794,0.007238957236464155,0.9907413267603943
2012-07-19,0,0.0,0.0,-0.006068574524068104,0.00810907981211556,0.9904798300132757
2012-07-23,0,0.0,0.0,-0.0031615957402894796,0.00810907981211556,0.9922028857496483
2012-07-25,0,0.0,0.0,-0.005178224666613315,0.007238957236464155,0.9921009489967709
2012-07-27,0,0.0,0.0,-0.006068574524068104,0.004456257727067094,0.9921469160567944
2012-07-31,0,0.0,0.0,-0.005178224666613315,0.007238957236464155,0.9919428765145941
2012-08-02,0,0.0,0.0,-0.005362056859057015,0.00833434025319228,0.99134345875603
2012-08-06,0,0.0,0.0,-0.005362056859057015,0.0073553572659827695,0.9931695420188865
2012-08-08,0,0.0,0.0,-0.0028699653732794615,0.008683540341748123,0.9926002458405051
2012-08-10,0,0.0,0.0,-0.0018500049811072195,0.009461498083417988,0.9924387761298865
2012-08-14,1,0.0016069935234842916,0.0020653690625039856,-0.0018500049811072195,0.010135851670608207,0.993127728368371
2012-08-16,1,0.002030863820567363,0.002404667425710153,-0.0018500049811072195,0.010135851670608207,0.9925941457414521
2012-08-20,1,0.001724904158614474,0.0020226525589738505,-0.0035941488138275537,0.010135851670608207,0.9916236977347593
2012-08-22,1,0.0017573292632266182,0.0021160827227374923,-0.005432539767577774,0.010135851670608207,0.9911627565420483
2012-08-24,1,0.002071022847397036,0.002480761643444485,-0.005432539767577774,0.009461498083417988,0.9916083663650591
2012-08-28,0,0.0,0.0,-0.009131335640685263,0.008871889443381034,0.9908232575669832
2012-08-30,1,0.0012765896883076635,0.0014191321853594258,-0.009131335640685263,0.00898119572567252,0.989962323761134
2012-09-04,1,0.0019892113857578587,0.0022682287450037533,-0.01007108529772455,0.008441614467717922,0.9893047836088947
2012-09-06,1,0.0028678557032439135,0.0032684836770571083,-0.01007108529772455,0.007580951654554345,0.9899201923588492
2012-09-10,0,0.0,0.0,-0.01007108529772455,0.004895182222326738,0.9909796515991628
2012-09-12,0,0.0,0.0,-0.01007108529772455,0.004677369247975509,0.9910827114046451
2012-09-14,0,0.0,0.0,-0.01007108529772455,0.0012204605261338121,0.992240304948673
2012-09-18,0,0.0,0.0,-0.009131335640685263,0.006865309132642211,0.9915544938127504
2012-09-20,0,0.0,0.0,-0.004723096403186935,0.006865309132642211,0.9922391095453695
2012-09-24,0,0.0,0.0,-0.007500912436145608,0.006865309132642211,0.991219793577735
2012-09-26,0,0.0,0.0,-0.006467666976579949,0.006865309132642211,0.9916405305424629
2012-09-28,0,0.0,0.0,-0.008559439678978849,0.005204804150226427,0.9922810019602224
2012-10-02,0,0.0,0.0,-0.007120205084800166,0.005204804150226427,0.9926889832350658
2012-10-04,0,0.0,0.0,-0.007120205084800166,0.005204804150226427,0.9924848403782679
2012-10-08,1,0.0014447829376550828,0.0016158919899221286,-0.007404274812954495,0.006487633109918789,0.9917915365250911
2012-10-10,1,0.00013039104695944457,0.00024565708442679665,-0.008559439678978849,0.005153719277254576,0.9915660634943496
2012-10-12,1,0.0005388432104226577,0.0005607763188788741,-0.008559439678978849,0.005153719277254576,0.9913448699477014
2012-10-16,1,0.0016293069777602648,0.0017463257780138811,-0.010868109317427179,0.0014775274040675617,0.991187951156042
2012-10-18,1,0.0021994526230642185,0.0024215600118466553,-0.010868109317427179,0.0012883485666396318,0.9903692551452626
2012-10-22,1,0.0007087184043837094,0.0007188454968349452,-0.00766145648157937,0.002643222849675215,0.9920306756102248
2012-10-24,-1,-0.001163166567782507,-0.0008753532534619891,-0.00735316876097857,0.005743543598081694,0.9925780606799787
2012-10-26,-1,-0.0005967770573425797,-0.0004808186118377425,-0.006282492165507996,0.005743543598081694,0.9927881075762359
2012-11-01,-1,-0.0006445451449469183,-0.0004961703841428397,-0.006282492165507996,0.00494517103204989,0.9930516068096942
2012-11-05,-1,-0.00037120184538645153,-0.00027332167159545295,-0.006282492165507996,0.005743543598081694,0.9929593736749136
2012-11-07,-1,-0.0008851544618867274,-0.0007022081072832812,-0.00347676522077976,0.005743543598081694,0.9926168999342069
2012-11-09,-1,-0.0015792959759759668,-0.0013235337065107375,-0.0018648900932869525,0.006828578048919779,0.9929208510968501
2012-11-13,-1,-0.0012205398336657745,-0.0010309155880843324,-0.0018648900932869525,0.006828578048919779,0.9928649732641337
2012-11-15,-1,-0.0024960517468208833,-0.0021156693506580106,1.6304137532239258e-05,0.006828578048919779,0.9928165918353371
2012-11-19,-1,-0.001938446913538428,-0.0016014470778224228,1.6304137532239258e-05,0.006828578048919779,0.9932350218885143
2012-11-21,-1,-0.001092239677350442,-0.0008743656470431539,-0.0018648900932869525,0.006828578048919779,0.9929744389359966
2012-11-26,1,0.000253426292066598,0.0002776553631831849,-0.0024264492050318632,0.005752476290082871,0.9936949310251665
2012-11-28,-1,-0.0004552327051270401,-0.00037072203886981354,-0.0018648900932869525,0.006574965573660549,0.9932176924430273
2012-11-30,-1,-0.0008188919110713361,-0.0006675978905884525,-0.0020971261830159517,0.008988657856188225,0.9917814525051837
2012-12-04,-1,-0.0003535491439896718,-0.0002492919517367704,-0.0020971261830159517,0.01127528393861935,0.9911737004107364
2012-12-06,1,0.0003372527963841562,0.000355553271641721,-0.0020971261830159517,0.008579761158627866,0.9915892512630473
2012-12-10,1,0.0005195247513372431,0.0005418911519242548,-0.0031910347225432745,0.008727106198985174,0.9915628254625395
2012-12-12,1,0.0003650672622539401,0.0003852885072719726,-0.0036378130360677397,0.008727106198985174,0.9910488467610661
2012-12-14,-1,-0.0007827248255004723,-0.0005562831893978264,-0.0031910347225432745,0.008727106198985174,0.9909807266103023
2012-12-18,1,0.00012006169500970888,0.00023349788338393636,-0.0031910347225432745,0.007338764907826853,0.9918993017104506
2012-12-20,1,0.0013680309566536288,0.0014545427491517286,-0.0031910347225432745,0.007338764907826853,0.9925035450273852
2012-12-24,1,0.0008809156587165654,0.0008853735269190186,-0.0011802217003354044,0.008727106198985174,0.9916229502046373
2012-12-27,1,0.0008678221271847613,0.0008700198608889303,0.00026188413402453083,0.010393848353350542,0.991681409157545
2012-12-31,1,0.0018633493814759995,0.00207901348632198,-0.0011802217003354044,0.008727106198985174,0.9925859069853071
2013-01-03,1,0.00206912550348471,0.002282712839312891,-0.0033072110268200974,0.008727106198985174,0.9928197393738389
2013-01-07,1,0.0022401427082177584,0.0024584478943268473,-0.00394818839360882,0.00861433608535008,0.9928895377011883
2013-01-09,1,0.002314382382971331,0.002537102107287557,-0.004658924675477269,0.007386473126309872,0.9922448151780904
2013-01-11,1,0.0025240571559208753,0.0028085904587608524,-0.004578236874253028,0.007386473126309872,0.9924161890270864
2013-01-15,1,0.002681811822502167,0.0029783339167233965,-0.004578236874253028,0.007386473126309872,0.992083147437034
2013-01-17,1,0.002172768284006935,0.0023512601663980286,-0.005722943469089649,0.007386473126309872,0.9914919722068849
2013-01-22,1,0.00269109114962832,0.0029452910934489526,-0.007236920014179605,0.007386473126309872,0.9909454287751124
2013-01-24,1,0.0035150314888569316,0.0038927542369146355,-0.009248340708526545,0.006932639515950182,0.9901227871964887
2013-01-28,1,0.003977978489535856,0.004410929520323651,-0.009629588269668744,0.001277547308777331,0.9886964390933777
2013-01-30,1,0.003370139407883525,0.003746710687457199,-0.009248340708526545,0.006973036050083751,0.9901186818491069
2013-02-01,1,0.004019011661138661,0.00452391443245366,-0.009248340708526545,0.007348866368714677,0.990138472802514
2013-02-05,1,0.0038327206320102718,0.004323642154933485,-0.009248340708526545,0.007348866368714677,0.9903520305122114
2013-02-07,1,0.003159435832261372,0.003575188480823936,-0.007299586862285261,0.007348866368714677,0.9907163314881479
2013-02-11,1,0.0034153770678164988,0.0039038383527067234,-0.008302290203122438,0.007348866368714677,0.9903054644688172
2013-02-13,1,0.0030805155983175203,0.0034881329598314,-0.008302290203122438,0.007348866368714677,0.9904456293328608
2013-02-15,1,0.0021270329891870552,0.002356389410752835,-0.006621471869766377,0.007348866368714677,0.9908806622222941
2013-02-20,1,0.001959802260535491,0.0021318923907254423,-0.0061095706554025265,0.007348866368714677,0.9917038484035121
2013-02-22,1,0.001678018610289612,0.001756398234150487,-0.005995622508643057,0.007348866368714677,0.9922968827000154
2013-02-26,1,0.0012769879148764106,0.0013714696643795394,-0.005558163797426311,0.007874430646513641,0.9923762456633363
2013-02-28,0,0.0,0.0,-0.005995622508643057,0.006391699764350688,0.9925643793853941
2013-03-04,0,0.0,0.0,-0.005995622508643057,0.005435977797138447,0.9933142439225096
2013-03-06,1,0.0021836282624216772,0.0023628956632661072,-0.0061095706554025265,0.003610620719977821,0.9926313729784163
2013-03-08,1,0.001397749434706172,0.0014694464548144,-0.006021500544899633,0.005435977797138447,0.9925046879238006
2013-03-12,0,0.0,0.0,-0.005558163797426311,0.006534632644033785,0.9924523848781072
2013-03-14,0,0.0,0.0,-0.005558163797426311,0.009776173649010986,0.9917332273952915
2013-03-18,0,0.0,0.0,-0.005558163797426311,0.010391276510681804,0.990563304455807
2013-03-20,0,0.0,0.0,-0.007185784957998904,0.009776173649010986,0.9904404830170106
2013-03-22,0,0.0,0.0,-0.007185784957998904,0.012163707187389183,0.9899122182775195
2013-03-26,0,0.0,0.0,-0.007185784957998904,0.012180291639604202,0.9901109876173896
2013-03-28,1,0.0006164616705221378,0.0006231103262331532,-0.008239821082413407,0.012180291639604202,0.9890038291557323
2013-04-02,0,0.0,0.0,-0.008239821082413407,0.012180291639604202,0.9889439422124066
2013-04-04,0,0.0,0.0,-0.005699451309274563,0.012821975907371224,0.9889827160079123
2013-04-08,0,0.0,0.0,-0.002691131735586402,0.010572852177337427,0.9896827060533798
2013-04-10,0,0.0,0.0,-0.0011960492560196875,0.010572852177337427,0.9901461092880538
2013-04-12,0,0.0,0.0,-0.0026025156134507395,0.009755898447699404,0.9905576981038499
2013-04-16,0,0.0,0.0,-0.0018659030510606257,0.008759660022101056,0.9919575219280412
2013-04-18,-1,-0.0005228410212890667,-0.0002793127834448551,0.0002748245674684779,0.009755898447699404,0.9922311403830247
2013-04-22,1,0.00018777369735343852,0.00033506745388535463,0.0005132090418418514,0.008759660022101056,0.9934436984739942
2013-04-24,1,0.0011039797361908957,0.00116577053225564,-0.00023838447437337347,0.0074234196408296885,0.9930132980060911
2013-04-26,-1,-0.00023243053376095562,-9.345240014276853e-05,-0.00023838447437337347,0.0074234196408296885,0.9928031671930427
2013-04-30,-1,-0.00038281935250514254,-0.00022087340539921573,-0.0011768224958404734,0.0074234196408296885,0.992532989057434
2013-05-02,1,0.0007912093405178123,0.0008929996340246571,-0.006896060894239801,0.004035106593399626,0.9914259230541774
2013-05-06,1,0.0011301259329170037,0.0011875900981160215,-0.014788681663502477,0.0030109807664765336,0.9904829181643676
2013-05-08,0,0.0,0.0,-0.015193396165103486,0.004021399842430221,0.989584868176603
2013-05-10,1,0.0009474831334505073,0.0010420955300730079,-0.018483031629226765,0.002984833746922405,0.9887089571894707
2013-05-14,1,0.0011885060623216298,0.0012263135084241567,-0.018483031629226765,0.001983196712555071,0.9874118766278329
2013-05-16,1,0.0017658701100417423,0.0018310310005682639,-0.018483031629226765,0.003605056509405493,0.9860731789069185
2013-05-20,1,0.0017892403069152758,0.0018454620803735255,-0.018483031629226765,0.001983196712555071,0.9860492741814321
2013-05-22,1,0.0009536465195843788,0.0010266345740472813,-0.020235199075099953,0.00023621263237118671,0.9847884824044201
2013-05-24,0,-2.8513465698247627e-05,0.00014207966126441625,-0.018483031629226765,0.0005676940768753727,0.9848783501364978
2013-05-29,-1,-0.00015527408040560552,-4.526448576320759e-06,-0.018483031629226765,0.005537490375979925,0.983871780965757
2013-05-31,-1,-0.0012849609856893872,-0.0010256770893471,-0.015247722851235015,0.006839365034632245,0.9843506383465349
2013-06-04,0,0.0,0.0,-0.014229804774728386,0.010514772585102156,0.984666121719372
2013-06-06,0,0.0,0.0,-0.014038691182093208,0.007060835898192769,0.9851259253099659
2013-06-10,0,0.0,0.0,-0.010295041152842946,0.013239400449229818,0.9854455576130551
2013-06-12,0,0.0,0.0,-0.004955173829531278,0.01990212858423719,0.9854447230043771
2013-06-14,-1,-0.0022708380821612703,-0.001954417492066557,-0.007324372243021574,0.013239400449229818,0.9864310621962533
2013-06-18,-1,-0.001878277474828049,-0.0016446633075077586,-0.007324372243021574,0.017641309213374326,0.9855420124537898
2013-06-20,-1,-0.0040304813731713105,-0.0035825845122978393,-0.0024778204183742145,0.017641309213374326,0.9873243103779903
2013-06-24,0,0.0,0.0,-0.0024778204183742145,0.013081164607845036,0.9901144532405814
2013-06-26,0,0.0,0.0,-0.004936695575322418,0.01132407734601033,0.9909415522490984
2013-06-28,-1,-0.0016061644385399348,-0.001431329971474588,-0.004936695575322418,0.008762482008315572,0.9916163432814601
2013-07-02,-1,-0.0020032418996281595,-0.0017381338455313413,-0.0075469287704065255,0.004646844560320064,0.9915681111303419
2013-07-05,-1,-0.002460262879409091,-0.0021392400731344765,-0.006001652230608967,0.004646844560320064,0.9919873595210147
2013-07-09,-1,-0.0015855831838314832,-0.001373803018631119,-0.006001652230608967,0.0037704857830227314,0.9928450225984735
2013-07-11,0,0.0,0.0,-0.00751707270906989,0.0023724555285158495,0.99331403920221
2013-07-15,0,0.0,0.0,-0.008691221666943194,0.0023724555285158495,0.9925425994598174
2013-07-17,0,0.0,0.0,-0.009130910508102413,0.0012818404108580614,0.9924886091630665
2013-07-19,-1,-0.0005282857333412507,-0.0003713703883232987,-0.013495712127589057,0.0002621041889273526,0.990863316694918
2013-07-23,0,0.0,0.0,-0.013495712127589057,0.0002621041889273526,0.9897555554927706
2013-07-25,0,0.0,0.0,-0.013495712127589057,0.001635922643373095,0.9905046130404859
2013-07-29,-1,-0.0007666067484129914,-0.0006636580059523232,-0.009966466969921128,0.001635922643373095,0.9903808232812286
2013-07-31,-1,-0.0017572052984886942,-0.001512430714221431,-0.008579317372724861,0.001635922643373095,0.9912742149310584
2013-08-02,0,0.0,0.0,-0.008579317372724861,0.001635922643373095,0.9904931909995529
2013-08-06,0,0.0,0.0,-0.008579317372724861,0.0021265160584885458,0.9902765200737995
2013-08-08,-1,-0.002726959832034062,-0.0023827490157009986,-0.008468870493516982,0.004602661120673524,0.9901106129461573
2013-08-12,-1,-0.0027449062740073906,-0.0024013455382299372,-0.008095912065060343,0.004602661120673524,0.9898313027214698
2013-08-14,-1,-0.003197929328153904,-0.002807770691048742,-0.008095912065060343,0.004869586848487609,0.9898172317008
2013-08-16,-1,-0.004486130138683827,-0.0040013461126569335,-0.004666616282556909,0.008528266155015158,0.9909811420432425
2013-08-20,-1,-0.004164106361727723,-0.0037170354529741803,-0.0036405073058866978,0.008528266155015158,0.9894393785364192
2013-08-22,-1,-0.003924465905914377,-0.003496761168676481,-0.005673307670204326,0.008528266155015158,0.9891144600709959
2013-08-26,-1,-0.0035556930742100448,-0.003155573955546763,-0.007137045643374836,0.006676008224443357,0.9899137499187234
2013-08-28,-1,-0.0034290348630136927,-0.003065337954617166,-0.007137045643374836,0.008528266155015158,0.9888825862490803
2013-08-30,-1,-0.003571886075492848,-0.0032052166277489707,-0.007137045643374836,0.008528266155015158,0.9882995866501902
2013-09-04,-1,-0.002633144240574309,-0.0024132459933152357,-0.007137045643374836,0.01276297217053142,0.9875131372982195
2013-09-06,0,0.0,0.0,-0.007893038122396097,0.010235932783594824,0.9884048089468175
2013-09-10,0,0.0,0.0,-0.008260015505284999,0.006988950815856865,0.9894263731228409
2013-09-12,0,0.0,0.0,-0.007137045643374836,0.010235932783594824,0.9884336429850595
2013-09-16,0,0.0,0.0,-0.007137045643374836,0.01276297217053142,0.9881939673106603
2013-09-18,1,0.001311549466886087,0.0017003836107703937,-0.007137045643374836,0.01276297217053142,0.9893201755108564
2013-09-20,1,0.0006479705499968135,0.0009707598490654026,-0.005644506467384455,0.01276297217053142,0.9904949017329895
2013-09-24,1,0.0007698899746605024,0.001137394540396482,-0.0052697527225513295,0.0134380051343004,0.9900154047877708
2013-09-26,1,0.001677958632515938,0.0021979662209681795,-0.005644506467384455,0.012776436662542866,0.9896756902401954
2013-09-30,1,0.001173504763694162,0.0016453385508259186,-0.005644506467384455,0.012776436662542866,0.9900239315876875
2013-10-02,1,0.0023954623622835765,0.0030457976941761786,-0.0065869307296835345,0.008512359636298289,0.9901353000787726
2013-10-04,1,0.0019990391554185853,0.002607290270965336,-0.005644506467384455,0.01264718542665016,0.9904820880568711
2013-10-08,1,0.0018972100718564915,0.0025254606877023866,-0.004145280773211182,0.01264718542665016,0.9899756260430143
2013-10-10,1,0.0030868921695130763,0.003890655717055176,-0.006137018895416823,0.008823389614702342,0.9902897540933532
2013-10-14,1,0.0032050843024078765,0.003976612026849246,-0.0075589477206227974,0.007330118052725081,0.990414238951693
2013-10-16,1,0.0036280971870890416,0.004408689112028811,-0.008521136153541763,0.00589007715154664,0.9905869940902412
2013-10-18,1,0.0033588811782946384,0.004082023749112476,-0.008521136153541763,0.00589007715154664,0.9911454661470065
2013-10-22,1,0.0033716572479832044,0.004016627285806375,-0.008521136153541763,0.00542258363963429,0.9908892865062281
2013-10-24,1,0.0027828690373087684,0.0033027374704972853,-0.008521136153541763,0.00542258363963429,0.9908128929576865
2013-10-28,1,0.0028110903695182012,0.0033260104003648983,-0.00825386012729864,0.0050085660504008075,0.9912822833055209
2013-10-30,1,0.00183851798964877,0.0021623762839131895,-0.007736231607444909,0.00542258363963429,0.9915556826015315
2013-11-01,1,0.0017557849121083357,0.0020164459640942345,-0.00940835582003422,0.0050085660504008075,0.9910954671553683
2013-11-05,1,0.0017498485487801598,0.002084131677773158,-0.00804054124100135,0.002566128231909549,0.9920472576275149
2013-11-07,1,0.0011195746302798632,0.0013650646206075556,-0.007736231607444909,0.0050085660504008075,0.9923472775985714
2013-11-11,-1,-0.0009726456407398678,-0.0007863715477957271,-0.007736231607444909,0.0050085660504008075,0.9930742927372128
2013-11-13,-1,-0.0011206668710403989,-0.0009310386017698061,-0.007736231607444909,0.003002081890360153,0.9921779476260225
2013-11-15,-1,-0.00015476903225495825,-0.00014349271471425035,-0.007736231607444909,-0.000859796225726499,0.9917896041706172
2013-11-19,-1,-0.0003663874908192539,-0.00035196143931723355,-0.007697543449305342,0.0030981797152171637,0.9911483674994513
2013-11-21,-1,-0.00030752350886958967,-0.0002995079682310295,-0.007697543449305342,0.002464487769320921,0.9916556753573083
2013-11-25,-1,-0.0007179446746426485,-0.00065405345893804,-0.007697543449305342,0.0031280443890033846,0.9916799831860619
2013-11-27,-1,-0.00012880731998354833,-8.222320487903429e-05,-0.005118398184024814,0.003123931618140474,0.9922089642869988
2013-12-02,-1,-0.0005147300876635168,-0.00048032521553644875,-0.004231809351712561,0.003123931618140474,0.9930199477212684
2013-12-04,-1,-0.0007134463463133392,-0.0007007983826417253,-0.00415463221415821,0.004331941879034803,0.9928354324790486
2013-12-06,1,0.00016421419146538677,0.0003313016679780074,-0.00415463221415821,0.004331941879034803,0.9932925718677963
2013-12-10,1,0.0003687295004476444,0.0005864112441104385,-0.004713381630555689,0.004331941879034803,0.9929270292196826
2013-12-12,-1,-0.0010189810656079125,-0.0009815123822111758,-0.004713381630555689,0.004572560203313061,0.9928230425106369
2013-12-16,-1,-0.0016401289434881607,-0.001560116177840742,-0.0011432228505678303,0.008049442847720634,0.9918867631562259
2013-12-18,-1,-0.000659782557665944,-0.0006364205618608654,-0.006012097928105791,0.005206068091857448,0.9931385937032593
2013-12-20,-1,-0.0013431208790832339,-0.0012473088879160373,-0.0024601473381657187,0.008852786042814406,0.9925744967958936
2013-12-24,-1,-0.0012562617049031893,-0.0011662713054825787,-0.006918282185014311,0.008852786042814406,0.9917131657468917
2013-12-27,-1,-0.000802709729996724,-0.0007769396200110608,-0.006918282185014311,0.009139289226962805,0.9908290337360263
2013-12-31,-1,-0.0013406097744474855,-0.0012276853214736674,-0.006773537788707622,0.009989412990727467,0.9884985132872811
2014-01-03,-1,-0.0010574830743101487,-0.0009717380025942564,-0.00842038558413463,0.009989412990727467,0.9882866260442977
2014-01-07,-1,-0.0009749757021951566,-0.0008619347907805096,-0.00842038558413463,0.01080951431286086,0.9877237989606118
2014-01-09,-1,-0.0030415664249757134,-0.0025733553183114937,-0.006773537788707622,0.011174824893581388,0.9870669705679044
2014-01-13,-1,-0.0035710820002031515,-0.0030514592819578636,-0.005997008881563603,0.011174824893581388,0.9874450611634081
2014-01-15,-1,-0.0027304233411097212,-0.002314417513231225,-0.005997008881563603,0.010446018279101292,0.9883799306820351
2014-01-17,-1,-0.0030160670843146237,-0.0025930978254700256,-0.004416394032021231,0.010446018279101292,0.9883562870849247
2014-01-22,-1,-0.0024088645083867434,-0.002046455076764768,-0.005997008881563603,0.00972826091083119,0.9894992504700417
2014-01-24,-1,-0.0039044269102325043,-0.003343868703005788,-0.002450245987691446,0.00972826091083119,0.9893776393241572
2014-01-28,-1,-0.0031739965206331166,-0.0027174235763633894,-0.0014564886866312112,0.009019198105640594,0.9902343280089679
2014-01-30,-1,-0.0009027311271280368,-0.0007580073757884047,-0.0014564886866312112,0.007528497789938962,0.9934284969617467
2014-02-03,-1,-0.0011765629430868106,-0.0010505457138129302,0.000987248014041561,0.009019198105640594,0.9924431416552042
2014-02-05,-1,-0.0003884695767493835,-0.00034278099458717964,-0.0031737263173717773,0.006978326750253848,0.9933100646794806
2014-02-07,1,0.0003869739551865173,0.0004503028455788321,-0.005330774975545734,0.005416803792961289,0.9932857438150184
2014-02-11,1,0.0018174650205450725,0.0021712784201473635,-0.005330774975545734,0.0035306610623949217,0.9940609260497018
2014-02-13,1,0.0014719748183661938,0.001723669359229102,-0.006395465134856402,0.0035306610623949217,0.9933731028362699
2014-02-18,1,0.001329540299394148,0.0015511007069923467,-0.006395465134856402,0.005416803792961289,0.9930728018033543
2014-02-20,1,0.0012843498572800394,0.0015360634850048918,-0.006395465134856402,0.005521971058514392,0.9924494635243992
2014-02-24,1,0.001093438166759046,0.0012756978893083985,-0.0076181017893466735,0.006082934549203941,0.9916433931108386
2014-02-26,1,0.0019208051808810075,0.002246556645022534,-0.010624931608890305,0.007246144040664844,0.99078819893945
2014-02-28,1,0.00171536741310913,0.001977227894773008,-0.010624931608890305,0.007883813348690047,0.9906809357993452
2014-03-04,1,0.0019373422406025235,0.0021922508365119987,-0.010624931608890305,0.0072934373421709425,0.9919446579331321
2014-03-06,1,0.0018509993739477082,0.0021428905118355606,-0.007706667392635329,0.0072934373421709425,0.9927291073263129
2014-03-10,1,0.0011557401461920371,0.0013718256770892062,-0.002337276009020184,0.0072934373421709425,0.9938284011877512
2014-03-12,1,0.0018216968195269335,0.0021767541680111704,-0.002337276009020184,0.0072934373421709425,0.9941132449581734
2014-03-14,1,0.0013905314914759268,0.0016901929178740538,-0.0037564382132158755,0.0072934373421709425,0.9930650642595162
2014-03-18,1,0.002397939366478293,0.0028681198400480343,-0.0037564382132158755,0.006098698983039307,0.9930367944261913
2014-03-20,1,0.001856348871994622,0.002241838134629374,0.0004856484127622328,0.007476890540594267,0.9938286340818285
2014-03-24,1,0.0017757539016914194,0.002162322626396239,0.0004856484127622328,0.005734724947320788,0.9945203345839118
2014-03-26,1,0.0014543945840312916,0.0017520637792517117,0.0004856484127622328,0.005717252034663964,0.9948770037841482
2014-03-28,1,0.0022208090685841356,0.0026487292552164208,-0.002250657044460385,0.004789384096193207,0.9946441176667365
2014-04-01,1,0.0022331201393716625,0.0026277689542792085,-0.004488868782828462,0.0041022223730298474,0.9942960791226709
2014-04-03,1,0.0018904021901857597,0.0021982118744995074,-0.004488868782828462,0.004789384096193207,0.9939887697137489
2014-04-07,1,0.0019044571820398882,0.002199428491844855,-0.006527295334347114,0.005637801609759854,0.9929595744245108
2014-04-09,1,0.001841509066325661,0.0021168013388421308,-0.006527295334347114,0.007220112083989775,0.9923420358231038
2014-04-11,1,0.0009045582104813299,0.0010739994479036967,-0.003986731995601351,0.007220112083989775,0.9934034777255873
2014-04-15,1,0.0011654524411125818,0.0013387285876920734,-0.003986731995601351,0.005637801609759854,0.9938591953308753
2014-04-17,1,0.0015445103578648153,0.0017590589515435024,-0.004852071551111831,0.005637801609759854,0.993528612602699
2014-04-22,1,0.0013540086899259227,0.0015330485030874779,-0.006846853626996305,0.005637801609759854,0.9929432749257189
2014-04-24,1,0.0013906835274040197,0.001580230293750044,-0.006465001343676229,0.0051117693766640545,0.9930977222360067
2014-04-28,1,0.0006637906530169921,0.0007045063794046571,-0.00563177914456081,0.00817389460089196,0.993023214579206
2014-04-30,1,0.00014552017507589264,0.00018468699705683189,-0.005738298575443874,0.00817389460089196,0.9926556723466102
2014-05-02,1,0.0005173673707250789,0.0005384314748154598,-0.005738298575443874,0.007934009262273988,0.992964541294972
2014-05-06,1,0.0002977675893080739,0.00030940354530583063,-0.005738298575443874,0.007492197478534288,0.9931929194440058
2014-05-08,1,0.00015083487931538442,0.0002796672267757568,-0.0069123450972172935,0.007492197478534288,0.9923819548724133
2014-05-12,-1,-0.0002572016363145532,-5.379573297073742e-05,-0.007462136936099353,0.007492197478534288,0.991726009596641
2014-05-14,1,9.543173453377646e-05,0.00020957933518141094,-0.007462136936099353,0.007492197478534288,0.9914531690928616
2014-05-16,0,-7.697303161699747e-05,7.617795732290592e-05,-0.007462136936099353,0.0049116274319775804,0.9923244627621262
2014-05-20,-1,-0.000717742001873639,-0.0004915280508216381,-0.005937846660250201,0.007492197478534288,0.9924954478392402
2014-05-22,-1,-0.0010077515415321714,-0.0007544986179897365,-0.0072484256921570185,0.007492197478534288,0.991948669042122
2014-05-27,-1,-0.0003714740788063578,-0.00017636063580835516,-0.0072484256921570185,0.004896611876201126,0.9929552222621322
2014-05-29,-1,-0.0004356005382674228,-0.00024504929995332325,-0.0072484256921570185,0.004232336529333995,0.9930340364668173
2014-06-02,0,-0.00011264538178469596,2.116111065104774e-05,-0.0072484256921570185,0.004060101660682147,0.9930381556465386
2014-06-04,-1,-0.0006744256853756806,-0.00044523304651442215,-0.005937846660250201,0.0031705688292296154,0.9938787982981003
2014-06-06,-1,-0.000346436621800329,-0.00012367912665135338,-0.00582742453648966,0.0031705688292296154,0.9950747979763902
2014-06-10,-1,-0.0010085071216986488,-0.0007430954337660359,-0.0018231281007403905,0.0031705688292296154,0.9961097109042805
2014-06-12,-1,-0.0016539520645045527,-0.0012817151198583655,-0.0016973786318168606,0.0040081378673781825,0.9958999090377686
2014-06-16,-1,-0.0013510692924206193,-0.0010485029107812622,-0.0018231281007403905,0.004436867776767972,0.9955300362034416
2014-06-18,-1,-0.0016566939123960176,-0.0012630081920940027,-0.0024205922462923017,0.004436867776767972,0.9956112915274118
2014-06-20,-1,-0.001617299593884535,-0.0012466086162832293,-0.0024205922462923017,0.004436867776767972,0.9959393748642404
2014-06-24,-1,-0.0005961767828917327,-0.00042896258910128616,-0.0024205922462923017,0.004850434487654204,0.995680787556952
2014-06-26,-1,-0.0012866328999485625,-0.0010000383200922548,-0.003236774033544311,0.0046945431077423105,0.9959860217414612
2014-06-30,-1,-0.0008072928744961996,-0.0006206480109820683,-0.003636325474897059,0.005725072480069591,0.9951247598794686
2014-07-02,-1,-0.0003133775810213787,-0.00022114359714405684,-0.0058573518822663834,0.005725072480069591,0.9941858472430718
2014-07-07,1,1.6825589333104482e-05,3.9111354167759836e-05,-0.0058573518822663834,0.004796155107234679,0.9942390783722199
2014-07-09,1,3.8661083634040036e-05,4.943274565598723e-05,-0.006267867686840876,0.004796155107234679,0.9934261503277824
2014-07-11,1,0.00021611799596833866,0.00022492533612595547,-0.006267867686840876,0.006090575609498724,0.9931544669745281
2014-07-15,1,0.00012072919397137197,0.00014343289296655983,-0.006267867686840876,0.004096861687130298,0.9934586133510465
2014-07-17,1,0.00023750408710556886,0.00024143050299888047,-0.005891742531463485,0.004157528818082325,0.9932378415028179
2014-07-21,1,0.0004393056169746635,0.0004856198222948277,-0.005891742531463485,0.004721314349889393,0.9930970567303853
2014-07-23,1,0.0008697129498552616,0.0009803650592167437,-0.005891742531463485,0.0032879181246628568,0.9933697353876165
2014-07-25,1,0.000916535484943506,0.0010743008893640878,-0.005785751139440442,0.0032879181246628568,0.9932799725637829
2014-07-29,1,0.0007140063878786057,0.0008115461243878939,-0.005567343732272748,0.0026255362645572393,0.9942057830999885
2014-07-31,-1,-0.0006235324029134632,-0.0005088421303681651,-0.002809176915297967,0.0026255362645572393,0.9957419730998501
2014-08-04,-1,-0.0005742366837161805,-0.00047904416177246454,-0.001967234945377803,0.0026255362645572393,0.9959317073979571
2014-08-06,-1,-0.0015318097599042791,-0.0013045308381791595,-0.001967234945377803,0.0026255362645572393,0.9964422849545699
2014-08-08,-1,-0.0009234395749848001,-0.0007969240522014661,-0.0016044095289110606,0.003576040839131348,0.9958826248910663
2014-08-12,-1,-0.0011521224352740197,-0.0009735008847059518,-0.002607590436236179,0.0029685238563575,0.9952521177279182
2014-08-14,-1,-0.0007347242929900627,-0.0005974077704282877,-0.004873124093749463,0.00042410209442426104,0.9941504307334946
2014-08-18,-1,-0.00044330470268989796,-0.0003295185927329984,-0.005567343732272748,0.00042410209442426104,0.9941920380019015
2014-08-20,0,-2.752512274416724e-05,8.210961432730769e-06,-0.005601425355698334,-0.0006109018098652561,0.9932604713089339
2014-08-22,-1,-0.0003027919688236374,-0.0002539558736084749,-0.005701327402013891,0.0008461121230321192,0.9929107432257234
2014-08-26,-1,-0.00041225271777778686,-0.0003504308874676649,-0.005797683335652811,0.0024131590880087316,0.9926793866827214
2014-08-28,-1,-0.0003511470942767355,-0.000305971388680834,-0.0074579707810638685,0.0042416418359123844,0.9911788334514606
2014-09-02,-1,-6.127063952231432e-05,-5.995377967481895e-05,-0.012129798365190446,0.003790370576513009,0.9905584071028553
2014-09-04,-1,-0.0010632605965246469,-0.0008885856618049697,-0.012129798365190446,0.003790370576513009,0.9910336463927797
2014-09-08,1,0.00010861414369309615,0.00012043197070080819,-0.012129798365190446,0.002262259495608779,0.991502754109988
2014-09-10,-1,-0.00030672199685928694,-0.0002718915501106046,-0.011577476742934571,0.0029131402390495265,0.9909268415963073
2014-09-12,-1,-0.0017995413638025736,-0.0015891288109947947,-0.011577476742934571,0.0029131402390495265,0.9920230441718433
2014-09-16,-1,-0.0018091492619807833,-0.0015991097652377,-0.011577476742934571,0.0029131402390495265,0.9908904714899437
2014-09-18,-1,-0.0025318888367331666,-0.0022264304524673506,-0.009825056268743143,0.004200013836512513,0.9912177443824086
2014-09-22,-1,-0.0028669605398062067,-0.002514111209717615,-0.006646945837360115,0.007453125243833724,0.990502987279655
2014-09-24,-1,-0.002880319962276252,-0.002535584783959607,-0.006055717164037591,0.013339999312746893,0.9898443066380923
2014-09-26,-1,-0.002953262388518167,-0.0025953993774579798,-0.004028610234930016,0.011381788657990628,0.9901979484771372
2014-09-30,-1,-0.002788400131913433,-0.0024882801427784547,-0.0031413730808022094,0.011381788657990628,0.9903411495074779
2014-10-02,-1,-0.0028137280715482245,-0.002515583339750948,-0.002305024366016136,0.011381788657990628,0.9902356568733448
2014-10-06,-1,-0.0025649258831600503,-0.002292563478110201,-0.002305024366016136,0.013055507991560215,0.9896479310173498
2014-10-08,-1,-0.001925234163020912,-0.0017392315639064891,-0.002305024366016136,0.011381788657990628,0.9910207772246556
2014-10-10,-1,-0.0030601193227758664,-0.0027157036491456273,-0.0018010641430021832,0.011381788657990628,0.9912172765488135
2014-10-14,-1,-0.002070497349085685,-0.001829449300496479,-0.001686702340625101,0.008269502185515589,0.992874983444552
2014-10-16,-1,-0.0012782133759374498,-0.0011771788199868528,-0.001686702340625101,0.008269502185515589,0.9926744344831432
2014-10-20,-1,-0.00011649536070000357,-8.104017971986983e-05,-0.002300748945234998,0.006620655410730982,0.9938341416884016
2014-10-22,1,0.00038519782160612156,0.0004971034416240887,-0.002300748945234998,0.006620655410730982,0.993920629320136
2014-10-24,1,0.0009845963176135421,0.00116995650630771,-0.002300748945234998,0.0060450155126166045,0.9944547628544306
2014-10-28,1,0.0016116032312074664,0.0019200119165944246,-0.002300748945234998,0.005930490542113057,0.9946277213139767
2014-10-30,1,0.001161742697992713,0.001359077433803907,-0.002282636563916309,0.006556790868070733,0.9939686126489168
2014-11-03,1,0.001717259647210317,0.0019781870159451226,-0.002282636563916309,0.006556790868070733,0.9945709851242756
2014-11-05,1,0.001526891851553407,0.0017592425124118359,-0.0022555710822263495,0.006556790868070733,0.9947276844210071
2014-11-07,1,0.0015178108036572504,0.0017722618837242633,0.0003522774436808655,0.006556790868070733,0.9949744640218531
2014-11-11,1,0.0016583373588728908,0.0019259088431632233,-0.00046285988317343904,0.0062132159565600874,0.9948838772163765
2014-11-13,1,0.0012199835839613049,0.0014329811298219993,-0.00046285988317343904,0.0062132159565600874,0.9946505031523653
2014-11-17,1,0.0010461406450622364,0.0012234699594745736,-0.00046285988317343904,0.0062132159565600874,0.9940570636221103
2014-11-19,1,0.0009240431706105243,0.001085505145392458,0.0008826389234048706,0.006267856574604371,0.9936845527684405
2014-11-21,1,0.0012810791114440923,0.001493294375848663,-0.0002886094102677471,0.006267856574604371,0.9930399726572193
2014-11-25,1,0.001574000498792764,0.0018231118726237583,-0.0034575382696317085,0.006267856574604371,0.9928485998012898
2014-11-28,1,0.0020675892821605426,0.0023765810230448542,-0.0034575382696317085,0.0054087452473555765,0.9931430050306793
2014-12-02,1,0.0024411000062039044,0.002810357193587259,-0.004556814780624433,0.004981907883314583,0.9926444564173962
2014-12-04,1,0.0023799172691690044,0.0027481390914405254,-0.004034063361907358,0.0054087452473555765,0.9925492621461703
2014-12-08,1,0.0025754885048516404,0.0029683194569516146,-0.004034063361907358,0.006630879783432782,0.9921081620329432
2014-12-10,1,0.002519598988690046,0.002909474762551826,-0.0020080623306581212,0.006630879783432782,0.9922525340192783
2014-12-12,1,0.0023405646199459304,0.0027297213585242095,-0.0020080623306581212,0.008413016787234584,0.9917742171006984
2014-12-16,1,0.0014808368371911787,0.0017378374744708512,-0.0009138007729772482,0.008413016787234584,0.9927870474534425
2014-12-18,1,0.0026182758713984636,0.003032174175934965,-0.0020080623306581212,0.00825949027818692,0.9932847685022749
2014-12-22,1,0.0027737167890082596,0.003156853487829003,-0.0009138007729772482,0.00825949027818692,0.9932733574845307
2014-12-24,1,0.0024212745810263457,0.0027483879724184324,-3.0035394232017832e-06,0.008835296308934246,0.9932949006107012
2014-12-29,1,0.0023572677835179325,0.0026317946547334456,-0.0009138007729772482,0.009520020878698514,0.9914856407941894
2014-12-31,1,0.002013097224912998,0.0022524093410469723,-0.002156631255984084,0.009520020878698514,0.9906982819363109
2015-01-05,1,0.0022408717388142756,0.0025111377072637776,-0.002156631255984084,0.009059441351555517,0.9910568466933433
2015-01-07,1,0.003107650452108525,0.0035194887739470686,-0.002156631255984084,0.009059441351555517,0.990891002101063
2015-01-09,1,0.003197921696944314,0.003642736544620379,-0.004663559727582327,0.009059441351555517,0.9897653142174244
2015-01-13,1,0.0027983654739104713,0.0031919428058544193,-0.004663559727582327,0.005527662037707717,0.9905683768069135
2015-01-15,1,0.002549091482886713,0.002881818944493614,-0.007884260741309667,0.008250164555158852,0.9893491469580489
2015-01-20,1,0.002472473713055297,0.0027855172159939744,-0.005526272052652288,0.006316210363757881,0.9897246127484298
2015-01-22,1,0.003420057828314554,0.0038510046510153457,-0.011620492235400513,0.004787098363967898,0.9893173150511032
2015-01-26,1,0.003965322145666147,0.004472745716432986,-0.015727944901927686,0.004787098363967898,0.9881949922199039
2015-01-28,1,0.0041197911776244805,0.004623755642919896,-0.012646167323384543,0.004587032810537049,0.9894458504515593
2015-01-30,1,0.003374627632287799,0.0038221750353978484,-0.010593233042552799,0.005119318444634756,0.9911038283593328
2015-02-03,1,0.0029483345006476227,0.003292104611761787,-0.010593233042552799,0.005119318444634756,0.9906909742738952
2015-02-05,1,0.002420203301486605,0.002604365830029884,-0.012646167323384543,0.005119318444634756,0.9896863780840183
2015-02-09,1,0.0013019375477480958,0.0013361773398376262,-0.010593233042552799,0.005119318444634756,0.9907256766443003
2015-02-11,1,0.000644895604754017,0.00073546816734639,-0.008346705475842825,0.006601021960538458,0.989950741191935
2015-02-13,0,-0.00011505999409625273,7.473778742219533e-05,-0.006617213204148741,0.006601021960538458,0.9909201340053534
2015-02-18,-1,-0.0002564621167181773,-3.8218558698690846e-05,-0.006617213204148741,0.0070163853084558945,0.9904786598029429
2015-02-20,-1,-0.00121296738447985,-0.0008779561374575968,-0.0035211026418862784,0.00874066076085883,0.9907174505305125
2015-02-24,-1,-0.0018467706132380868,-0.0014172593594831587,-0.0035211026418862784,0.007805779219263968,0.9911400973851499
2015-02-26,-1,-0.0023682769594134505,-0.0018623607293504025,-0.006617213204148741,0.007805779219263968,0.9905291427492042
2015-03-02,-1,-0.002180728313249293,-0.0017008807442186007,-0.006617213204148741,0.009646656992181405,0.9898664992450974
2015-03-04,-1,-0.0024159597683292003,-0.0019214501833799507,-0.007563943746070666,0.009646656992181405,0.9896474834322666
2015-03-06,-1,-0.003914042196348246,-0.003199662320614636,-0.00479628821341912,0.014452454858099852,0.9896645255041591
2015-03-10,-1,-0.003758950775576341,-0.003103605189527652,-0.004883204331916868,0.014452454858099852,0.9888307536352778
2015-03-12,-1,-0.002176370878612574,-0.0016936231357404705,-0.0081433013754913,0.007805779219263968,0.9897507956418113
2015-03-16,-1,-0.0013578895382935557,-0.0010265198211628665,-0.0081433013754913,0.008160282376186304,0.989809375343499
2015-03-18,-1,-0.0008176499969218894,-0.000582309256026575,-0.0081433013754913,0.005774517110304892,0.9903773882178251
2015-03-20,1,0.0002824639631196335,0.0003593385013910573,-0.0081433013754913,0.004743587828346492,0.990968566376537
2015-03-24,1,0.0003420110893819952,0.00040142187842859126,-0.009162967845586257,0.004125725739372801,0.990887429046522
2015-03-26,-1,-0.0009039176129704277,-0.0006955000079590295,-0.00461112492247705,0.004637394296917553,0.9922572614953772
2015-03-30,1,0.0006158785314003245,0.0006335161835023571,-0.005571040908338399,0.004125725739372801,0.9927507117678057
2015-04-01,-1,-0.000128185947909116,-1.2189600533119233e-05,-0.007390901795484622,0.004125725739372801,0.9911772182246148
2015-04-06,1,0.0005546191487801107,0.000605835307753191,-0.007390901795484622,0.003586309559534008,0.9917401692844274
2015-04-08,-1,-0.00019129831766070206,-6.144365254274819e-05,-0.007390901795484622,0.003115320472733624,0.9921053575570259
2015-04-10,-1,-0.0013822871779488924,-0.0010808187431530136,-0.005571040908338399,0.004827646790581602,0.9923031395839041
2015-04-14,-1,-0.0014996825482418818,-0.001206681495409583,-0.006954129763749322,0.004153745393451171,0.9924937673314278
2015-04-16,-1,-0.001535999358213728,-0.0012297594759865735,-0.008044167695318679,0.004153745393451171,0.9918794590574863
2015-04-20,-1,-0.0013006161664315772,-0.0010388030031961944,-0.008044167695318679,0.004909232990574808,0.9913802636267219
2015-04-22,-1,-0.001786374576227736,-0.0014824924107890922,-0.005788796208283084,0.00506729409496045,0.9917216883587042
2015-04-24,-1,-0.001261813028350886,-0.0010485882137716324,-0.008282222630787612,0.00506729409496045,0.9916026243149119
2015-04-28,-1,-0.0013817472245490833,-0.0011704510729017592,-0.008721127714495888,0.006359506886864165,0.9909584769560731
2015-04-30,-1,-0.0032756080424773755,-0.002839256411906054,-0.007753697358152805,0.006359506886864165,0.9922058554744253
2015-05-04,-1,-0.002961453921650651,-0.002574294770991379,-0.007753697358152805,0.009393507092787655,0.9917565628897831
2015-05-06,-1,-0.003701435415155974,-0.0032245479102826343,-0.006009343614064676,0.009393507092787655,0.9923614754214316
2015-05-08,-1,-0.002726930083838207,-0.002346099170729834,-0.006009343614064676,0.003298143120249991,0.9941238595564578
2015-05-12,-1,-0.0035537416439163348,-0.003039050691413728,-0.006155645308634102,0.005746755971476888,0.9930093028305648
2015-05-14,-1,-0.0028357893561146833,-0.002465629206996367,-0.006155645308634102,0.005349329649024479,0.9932724357666985
2015-05-18,-1,-0.002062906462006812,-0.0018170817732957919,-0.007011286208046331,0.0044998064787063015,0.9934781777192111
2015-05-20,-1,-0.001978748560427954,-0.001733493049712207,-0.007011286208046331,0.005476723735100044,0.9929948622620643
2015-05-22,-1,-0.0021419038012220814,-0.0018971273665212315,-0.007011286208046331,0.005476723735100044,0.9929800505292362
2015-05-27,-1,-0.002226427446105691,-0.0019536462581524385,-0.00723300064485348,0.004542271174064823,0.9933609724791798
2015-05-29,-1,-0.002730233892363874,-0.002417283563084625,-0.00723300064485348,0.004542271174064823,0.9932619214897616
2015-06-02,-1,-0.0015883872128039309,-0.0014457881662140167,-0.009486813210214913,0.003647323315451528,0.9927228323544766
2015-06-04,-1,-0.0016442311813557532,-0.0014961418741970844,-0.009486813210214913,0.004542271174064823,0.9918972647079284
2015-06-08,-1,-0.001972250538546469,-0.001770899473846131,-0.009486813210214913,0.005476723735100044,0.9909135675875207
2015-06-10,-1,-0.002158558868067343,-0.0019403066155032147,-0.009486813210214913,0.004542271174064823,0.9915299752247594
2015-06-12,-1,-0.0020846285479185936,-0.0018806171655382647,-0.0076403536659787165,0.00564141926959554,0.9913385661924983
2015-06-16,-1,-0.0013814355530282368,-0.00131586186817636,-0.00615660547912956,0.00564141926959554,0.9915855012512055
2015-06-18,-1,-0.00043291483368652493,-0.00034479716555389523,-0.00615660547912956,0.004394260458958762,0.9917786516234122
2015-06-22,-1,-0.00047020684180873744,-0.0003585313362882662,-0.002370803073573321,0.007536123677670417,0.9913537183345529
2015-06-24,-1,-0.0013629170180018853,-0.0013197294530586407,-0.0022653484871314007,0.007536123677670417,0.9912960718567293
2015-06-26,-1,-0.0015123230676315157,-0.0014607078978679101,-0.00153087778261624,0.007536123677670417,0.9918738656004966
2015-06-30,-1,-0.0021209494100042797,-0.002027693583956161,-0.00026364958611591006,0.008840209950134008,0.9918037662952468
2015-07-02,-1,-0.0015775750030708904,-0.001507810860837014,-0.0011666849892202525,0.008824254066543474,0.9923834365650969
2015-07-07,-1,-0.0007867364232538225,-0.0007681119810799533,-0.002181549909752948,0.007536123677670417,0.9935612536059133
2015-07-09,-1,-0.001311144696891052,-0.0012471794999544547,-0.0003757362308725222,0.007536123677670417,0.9936376236808974
2015-07-13,-1,-0.0005760340645740766,-0.000539725642721254,-0.0009277255684375866,0.005625176256150029,0.9946909132727371
2015-07-15,-1,-0.0007288836264518024,-0.00070860853218151,-0.0009277255684375866,0.007719720336822331,0.9942651958127443
2015-07-17,-1,-0.0003472863498654939,-0.0003305648386209484,-0.0009277255684375866,0.005625176256150029,0.994844020206824
2015-07-21,1,0.00025704735998969923,0.0003447049344387388,-0.0009277255684375866,0.007051034861567575,0.9950681817316401
2015-07-23,1,9.714823549162858e-05,0.0001777846791544085,-0.0009277255684375866,0.007051034861567575,0.9947287513726055
2015-07-27,1,7.792047991206667e-06,8.19052621926548e-05,-0.003653987048198087,0.007051034861567575,0.9906217570239334
2015-07-29,1,0.0006622553046726575,0.0006891834155176701,-0.006213056852882218,0.005738679525484161,0.9880164261848613
2015-07-31,1,0.00040530299420533824,0.00040898326737060783,-0.003653987048198087,0.005738679525484161,0.9872570752385288
2015-08-04,1,0.0009733916487225386,0.0011223428097146442,-0.014613015087732106,0.005738679525484161,0.9851733219973554
2015-08-06,1,0.0012697655422946434,0.0014607061493984426,-0.014613015087732106,0.009928485908545863,0.9844062234854187
2015-08-10,1,0.0015447470397760483,0.0018024564336504073,-0.022844562444599974,0.010933580781949125,0.9823656323617141
2015-08-12,1,0.0024410732910945887,0.0028671791756400312,-0.022844562444599974,0.010795780119905993,0.9815427607912184
2015-08-14,1,0.0026340758499388732,0.0030876521647900486,-0.022844562444599974,0.013179774879238566,0.9809482648898433
2015-08-18,1,0.0029274158833237484,0.0033626969684415736,-0.022844562444599974,0.013179774879238566,0.9809396210442354
2015-08-20,1,0.002687887401123466,0.003134530663298634,-0.022844562444599974,0.013179774879238566,0.9813182540182596
2015-08-24,1,0.0009349353622015201,0.0011215683956786585,-0.015252970199210871,0.01341004477540102,0.9841559334609926
2015-08-26,1,0.0015478049099866076,0.0018660946539028002,-0.011752356190999845,0.013137968665695733,0.9868808384264531
2015-08-28,1,0.0026305554460302016,0.00305369961634375,-0.014226595781315817,0.013137968665695733,0.9868889440763289
2015-09-01,1,0.0011627333471143121,0.001354368725007595,-0.0035820572085699734,0.01341004477540102,0.9883632132981399
2015-09-03,1,0.0021120563278958625,0.0024463846201297863,-0.0035820572085699734,0.01365521725776728,0.9885661347706964
2015-09-08,1,0.0019598268467343684,0.0022816310008362747,-0.0008661564281861928,0.01365521725776728,0.9899561015019382
2015-09-10,1,0.0015640132356187315,0.0018377726262025895,-0.0007976781917879005,0.01365521725776728,0.9905269476566516
2015-09-14,1,0.0016995230406272217,0.0019594596793995785,-0.0001987453143865327,0.01365521725776728,0.9906021813760225
2015-09-16,1,0.0021308211363466993,0.0024567627296089222,-0.0029041239172831208,0.012888590147421601,0.9902212033289084
2015-09-18,1,0.0023714259160333836,0.0027125501495902943,-0.0021186348703792633,0.013383927558838764,0.9903425551936894
2015-09-22,1,0.001715115710901655,0.0018910589072039922,0.0030975704790891286,0.013792049459271614,0.9902021612682484
2015-09-24,1,0.0016683500149110159,0.001841808861735298,0.0032729832198038064,0.013792049459271614,0.9906651068408122
2015-09-28,1,0.0013498958758872705,0.0014483242927481451,0.0032729832198038064,0.012413532297957148,0.9916814089256265
2015-09-30,1,0.0026567926426582502,0.0029857008166605924,0.000526238222144033,0.011852941956626612,0.992956546138752
2015-10-02,1,0.003158541682215232,0.003532269818379336,-0.0029498349394481435,0.011100794750852587,0.9930612236832719
2015-10-06,1,0.0037128977725128173,0.004150493041975019,-0.004220006680334844,0.011100794750852587,0.9924559975942377
2015-10-08,1,0.004284203612216495,0.004807783714106201,-0.004220006680334844,0.010080171578279692,0.9924037434935922
2015-10-12,1,0.004751467472434923,0.005339217452370676,-0.008816986926679975,0.006454289564699919,0.9895077128674418
2015-10-14,1,0.003667352123079566,0.004083905177001461,-0.004220006680334844,0.007593311856741521,0.9911207754023942
2015-10-16,1,0.004115439638507384,0.004590784427096376,-0.0049804414780156864,0.005713615375955386,0.9907186601859532
2015-10-20,1,0.004431134189241429,0.004905834538660773,-0.005281798390851629,0.004979585816248862,0.9901985825158275
2015-10-22,1,0.0047651842067972724,0.005306219154865625,-0.005281798390851629,0.004979585816248862,0.9897233971571645
2015-10-26,1,0.004531443265976685,0.005026409644766058,-0.005281798390851629,0.005713615375955386,0.9894986142966196
2015-10-28,1,0.004261159467287961,0.0046992256590541095,-0.005281798390851629,0.005359259913596062,0.9895236540958832
2015-10-30,1,0.0034738978036458726,0.0037863558538016938,-0.005281798390851629,0.007220865749148356,0.989509225286744
2015-11-03,1,0.003563678612528295,0.0038776292886305262,-0.005281798390851629,0.007220865749148356,0.9885213410292013
2015-11-05,1,0.0032750514975194807,0.003538046955033335,-0.009953648301784416,0.01027061687076262,0.9866052148806749
2015-11-09,1,0.0020114665305493063,0.002129622394740003,-0.004877801606793478,0.01027061687076262,0.9889851952780699
2015-11-11,1,0.001999196820233725,0.0020822829301015695,-0.005561081207172093,0.01027061687076262,0.9886195047288017
2015-11-13,1,0.0012383307934276282,0.0012860017145050178,-0.005693906440714179,0.01027061687076262,0.9883757467572647
2015-11-17,1,0.001279389570356109,0.0013444058713451884,-0.005693906440714179,0.01027061687076262,0.9885143945764191
2015-11-19,1,0.0010505333691973675,0.0011940747739774562,-0.007426096187854888,0.006985730894437693,0.9884947446468213
2015-11-23,1,0.00202650461004798,0.0020317442026762836,-0.007426096187854888,0.005412717797138946,0.988876866378804
2015-11-25,1,0.002224685486316198,0.0022831482300095835,-0.007426096187854888,0.006805934180370133,0.9888166032868718
2015-11-30,1,0.0014136830377591287,0.0014908664756757943,-0.007323525639725591,0.008354329421505059,0.989196919796636
2015-12-02,1,0.0013482822410312964,0.001409777605295632,-0.007385897788299731,0.006805934180370133,0.9908554747617325
2015-12-04,1,0.0017307274493952808,0.0017505807448071043,-0.007385897788299731,0.006805934180370133,0.9910442777637272
2015-12-08,1,0.0014875590459941328,0.0015111131007520808,-0.007440834317681029,0.006805934180370133,0.9898345798872983
2015-12-10,1,0.0012725032005393997,0.0012862703830954405,-0.007564565473665746,0.006805934180370133,0.9898747205236863
2015-12-14,1,0.000373277587901635,0.0005138236585193625,-0.007564565473665746,0.006805934180370133,0.9902172582449382
2015-12-16,1,0.0011615288295698726,0.0012131460072521652,-0.00826581202440008,0.004302238762632086,0.9890149123525094
2015-12-18,1,0.0007713343490776312,0.0008455494933138557,-0.011943313623347687,0.005259510577036294,0.9876186117824975
2015-12-22,1,0.0009409705983426674,0.000988077207204611,-0.011943313623347687,0.007843235972467246,0.9864908287016594
2015-12-24,1,0.0009845403621210759,0.0010327357962912512,-0.012437865493615525,0.009064947929910132,0.9842970430108112
2015-12-29,1,0.0017912659187411535,0.0018602348703004774,-0.016457953078280983,0.0005685126002313078,0.983782501867895
2015-12-31,1,0.0011643944997978709,0.0011740726488464318,-0.016457953078280983,0.0065831853561972,0.9841816231183441
2016-01-05,1,0.0013177202148023496,0.0013413206476117667,-0.010927977638054094,0.006036267426619513,0.98574234401945
2016-01-07,1,0.00030731558917411516,0.00040094613804096197,-0.009548755014836648,0.006036267426619513,0.9872290517000888
2016-01-11,1,0.0004311204561081267,0.00044158640460904825,-0.010927977638054094,0.006036267426619513,0.9853659802731318
2016-01-13,-1,-0.00036154670248285517,-0.0002312562538249399,-0.016457953078280983,0.006036267426619513,0.9838478149364014
2016-01-15,-1,-0.002960826319552555,-0.0024921305248277554,-0.009548755014836648,0.009929588248128174,0.9838562370215992
2016-01-20,-1,-0.004153544625655989,-0.0035158704735542327,-0.008826573029933713,0.009929588248128174,0.9851003433888219
2016-01-22,-1,-0.002435780963252675,-0.002055228767196113,-0.009153162502290379,0.008599733924893008,0.9860569148184649
2016-01-26,-1,-0.0024853287623453043,-0.0020344027153997753,-0.008699063684454842,0.007162022476902363,0.9878222483137622
2016-01-28,-1,-0.0028092739169309046,-0.0023410143404389416,-0.007127629611192933,0.008599733924893008,0.9870097969464448
2016-02-01,-1,-0.0028819100114406467,-0.0023882410055365115,-0.007127629611192933,0.008599733924893008,0.9855206502387589
2016-02-03,-1,-0.0031463716201127856,-0.002606759776754292,-0.007127629611192933,0.011032128314479514,0.9848697193206911
2016-02-05,-1,-0.0032066306118685773,-0.0026765881189042937,-0.004573809001066307,0.011990964949099079,0.9843483335129136
2016-02-09,-1,-0.004474562121704748,-0.003815979716107332,-0.0029766542465018914,0.011990964949099079,0.9849798934384153
2016-02-11,-1,-0.005804896484915584,-0.005008928867273329,0.0010171121069843638,0.013706918300573119,0.9847613586562398
2016-02-16,-1,-0.0043389925398137266,-0.0037158292444934944,-0.0027364223716520495,0.010499018447246237,0.9878237802620499
2016-02-18,-1,-0.0039720595449786586,-0.003386606037238977,-0.0027364223716520495,0.011990964949099079,0.9879679709590742
2016-02-22,-1,-0.0039706896257823455,-0.0033848130245363586,-0.003427390478928004,0.011990964949099079,0.9888170042730454
2016-02-24,-1,-0.0030822556421336144,-0.0026371247088657103,-0.004193752338342852,0.011990964949099079,0.9896673495520647
2016-02-26,-1,-0.0022390273614690407,-0.0019298842137760435,-0.003427390478928004,0.011990964949099079,0.9904411484543767
2016-03-01,-1,-0.0005408055667759273,-0.0004555446651355647,-0.0034255752579805654,0.011990964949099079,0.9920038934213794
2016-03-03,1,0.00031068278409474915,0.0003556924731044008,-0.0034255752579805654,0.011513028119359779,0.9918222099528027
2016-03-07,1,0.0009556271584706149,0.0011140793180313142,-0.00512856675114454,0.010389056630329196,0.9918153205876986
2016-03-09,1,0.0006748357434266789,0.0007556252742888023,-0.00512856675114454,0.010389056630329196,0.9920020441168949
2016-03-11,1,0.001450176066394049,0.0016634460807107342,-0.004188306675500537,0.010161271996344128,0.9927924393781691
2016-03-15,1,0.0017174721559927776,0.0020094376590086924,-0.004188306675500537,0.010995193329886502,0.9924651099830951
2016-03-17,1,0.0022860986434659505,0.0026712172675801564,-0.004188306675500537,0.010161271996344128,0.9925374121242164
2016-03-21,1,0.0020648848193427624,0.002421895132339291,-0.0035192707761709787,0.010995193329886502,0.9923935622922937
2016-03-23,1,0.001862229398388642,0.00219919134714619,-0.004196994104949189,0.010995193329886502,0.9912114091213903
2016-03-28,1,0.002238416132616353,0.002591203503802193,-0.004196994104949189,0.011942885537862425,0.990407975345223
2016-03-30,1,0.003089964386399031,0.003563627697459046,-0.0038384824210180813,0.010995193329886502,0.9914745574027072
2016-04-01,1,0.0036263719373712524,0.004164317419616292,-0.005463687700831954,0.009955370592862438,0.9911620772871413
2016-04-05,1,0.0023935498523128523,0.0026731616507848993,-0.005845237971448894,0.011259531635907219,0.9910732905414383
2016-04-07,1,0.0019773045383417276,0.002240907037908701,-0.0038641826115539766,0.011259531635907219,0.9915515614500245
2016-04-11,1,0.0022005693519335455,0.0024521735609430197,-0.003503846395753183,0.01285515412490547,0.9912378474424369
2016-04-13,1,0.002727054125228539,0.0030720704454378703,-0.005845237971448894,0.011273265498698727,0.9907321352938339
2016-04-15,1,0.0030957092116688737,0.0035159646421650597,-0.005845237971448894,0.011273265498698727,0.9909453826156391
2016-04-19,1,0.003983896585392056,0.004558049202552473,-0.0076625760216521436,0.011273265498698727,0.9905616456566955
2016-04-21,1,0.0029728048641714157,0.003412404327119635,-0.007343909348766681,0.011273265498698727,0.9910347297175219
2016-04-25,1,0.003721314931990537,0.004236438506460268,-0.007343909348766681,0.009904008683818449,0.9918167923131043
2016-04-27,1,0.003584025640705175,0.00406289221795275,-0.007343909348766681,0.01048251506399481,0.9910647943223108
2016-04-29,1,0.003259769793202517,0.0037089928002629106,-0.006617489022433098,0.01048251506399481,0.9915523859234651
2016-05-03,1,0.0032378228818939724,0.003669659658536645,-0.004299004246306879,0.010091119184319172,0.992254554416397
2016-05-05,1,0.0032718438328324224,0.003685289172508185,-0.004299004246306879,0.010091119184319172,0.9920543778634088
2016-05-09,1,0.0036394996321412604,0.004067258795438238,-0.004299004246306879,0.00978956567470295,0.9921282924044083
2016-05-11,1,0.003699056037185992,0.0041737876606808355,-0.0030659969680445465,0.010065561807389978,0.9929713570422416
2016-05-13,1,0.003649473191043707,0.0040855013285802325,-0.0030659969680445465,0.009523966669376252,0.9931991491338827
2016-05-17,1,0.003699899545945664,0.0041529466611510985,-0.0030659969680445465,0.009523966669376252,0.9933374991037367
2016-05-19,1,0.0031498870828180234,0.00354189420507323,-0.0015104363697937915,0.009523966669376252,0.9937509715310576
2016-05-23,1,0.0034588392632104075,0.00393489207095968,5.5814806263872945e-05,0.009523966669376252,0.9942312926758904
2016-05-25,1,0.0034440587618941717,0.003887028044562522,0.0005574272563152505,0.009109516175461522,0.9949109330468638
2016-05-27,1,0.0035660011665393085,0.0040175336377509495,-0.0015104363697937915,0.007611501761732716,0.9918218307111356
2016-06-01,1,0.0031118565896697,0.003443146129767291,-0.00027099684512369685,0.009612852301562556,0.9902444571063549
2016-06-03,1,0.00320504968180979,0.0035239762351582343,-0.0036960859133776595,0.009349304976256967,0.9898721809723601
2016-06-07,1,0.00314686731718001,0.0034285530806830826,-0.0041030676861923705,0.009349304976256967,0.9897461697169747
2016-06-09,1,0.002762548834093712,0.002914418990617931,-0.006922677273598047,0.00945116727282081,0.9889713372530669
2016-06-13,1,0.0020670561773835365,0.0020724525684336133,-0.006922677273598047,0.00945116727282081,0.9889744716158186
2016-06-15,1,0.002267655329695908,0.0023334466088279103,-0.0041030676861923705,0.009561226201572886,0.989481050671422
2016-06-17,1,0.0025370211552125633,0.0026867136725283354,-0.0019269266436592698,0.008244026595974539,0.9900169397810099
2016-06-21,1,0.0020146410376839594,0.0020399611888041115,-0.0024533475731122016,0.008244026595974539,0.9898259410521251
2016-06-23,1,0.0020887576957845065,0.002102542233431088,-0.0024533475731122016,0.012199146196336285,0.9891948979674425
2016-06-27,0,-9.394272084857361e-05,0.00016295247446870094,0.0009512935988239346,0.012199146196336285,0.9912876733834032
2016-06-29,1,0.0011951627750520796,0.0013219665277785094,-0.0016008390260515018,0.00878701488856886,0.992322675885812
2016-07-01,0,-7.914604598512629e-05,0.0003169527546957704,0.002087542769636076,0.012199146196336285,0.991447570555106
2016-07-06,-1,-0.0005922051410254729,-7.736849356647498e-05,0.0007758199556729573,0.00878701488856886,0.9917610281082727
2016-07-08,1,0.00018017924203648627,0.0005325231407576981,0.001030159122468066,0.0074463970237599675,0.9933010071974018
2016-07-12,1,0.0004928674874819311,0.0007983901347247187,-0.001364242455119108,0.008271116561529889,0.9931254283324102
2016-07-14,1,0.0007989296788074474,0.001090777408032864,-0.0022411985998282966,0.00744283425926943,0.9935273664048915
2016-07-18,1,0.0010834289280779942,0.0013326027694444695,-0.002765229207922323,0.006439318872869493,0.9936537863049615
2016-07-20,1,0.0010555176519735482,0.0012983141515843467,-0.00536068452369198,0.006439318872869493,0.9931933505537198
2016-07-22,1,0.0024400547814530243,0.002467285554272018,-0.00536068452369198,0.004452903379203495,0.9933514362929136
2016-07-26,1,0.002902305649091321,0.0029619061995129273,-0.00536068452369198,0.004391197868413072,0.9933527987139612
2016-07-28,1,0.0032085338128305047,0.0033250508315752656,-0.00536068452369198,0.0032385123279440476,0.9941254810570211
2016-08-01,1,0.003611986924443036,0.0037728373142151567,-0.005737141215098754,0.0032385123279440476,0.993357349257028
2016-08-03,1,0.003752747053604108,0.003940639176966591,-0.00536068452369198,0.0032385123279440476,0.9937433572563201
2016-08-05,1,0.0033666275660480575,0.003482696116272479,-0.00536068452369198,0.004391197868413072,0.9932350076585611
2016-08-09,1,0.003411195976953757,0.0035551299764567884,-0.003822270766911856,0.004391197868413072,0.9937564734135393
2016-08-11,1,0.0028202064295413734,0.002853281474526533,-0.00536068452369198,0.004391197868413072,0.9913588051514018
2016-08-15,1,0.0019607250810359383,0.0020367889643442784,-0.006419460978339258,0.004391197868413072,0.989875526261333
2016-08-17,1,0.001627789083588725,0.0017157992719158653,-0.005877870059524161,0.005649114900833233,0.9900731506239349
2016-08-19,1,0.0015244746159446283,0.0015964468333489637,-0.005877870059524161,0.007117903379553915,0.9895239040134963
2016-08-23,1,0.0021051285000024626,0.002134908248640642,-0.005877870059524161,0.008811757236739373,0.9887129837925092
2016-08-25,1,0.0011193437181360967,0.0012237958723373592,-0.003311151451522435,0.013088211220765793,0.9884401167408368
2016-08-29,1,0.0005787259065230773,0.0007746394004481815,-0.0033668894541383563,0.01048447267279634,0.9890705837861588
2016-08-31,1,0.0004210037438522107,0.0006259854778258864,-0.005565471701902356,0.013155262683033922,0.9879638546810594
2016-09-02,1,0.0011067701630492971,0.0012182298122428025,-0.00859360486619452,0.008834107724162082,0.9877758384939604
2016-09-07,1,0.0013712929214205144,0.0014477748366471415,-0.013228645908602113,0.008008166716299775,0.9860058886605902
2016-09-09,-1,-0.00027721750780410114,-4.157304578057588e-05,-0.009513039481392628,0.008008166716299775,0.9884859293811595
2016-09-13,-1,-0.0015292859129179307,-0.001086161063786916,-0.008194577491831966,0.00622870829588814,0.9903288087698118
2016-09-15,-1,-0.000848164432042681,-0.0005459484250775396,-0.008194577491831966,0.009815068055567417,0.9891806852390183
2016-09-19,0,-1.2397888715213871e-05,0.00019637196027027593,-0.008194577491831966,0.007178318003491655,0.9895049528545646
2016-09-21,1,4.512759871740926e-05,0.0002703535125674287,-0.008194577491831966,0.007178318003491655,0.9895570465041865
2016-09-23,1,0.0008768484818857971,0.0009999272066492718,-0.008194577491831966,0.006777039507635384,0.9897820691653616
2016-09-27,1,0.00040043351682982704,0.0005635549555617247,-0.007730007099478264,0.007691114219670564,0.9899495792691275
2016-09-29,1,0.0006792507328648504,0.0007637669342305136,-0.008783838768786544,0.006777039507635384,0.9894877217002143
2016-10-03,-1,-0.0003893895842594984,-0.0001618387778448406,-0.007730007099478264,0.007691114219670564,0.9896520291679183
2016-10-05,-1,-0.0017315436542316123,-0.0013644108800193095,-0.007730007099478264,0.007691114219670564,0.989540768812815
2016-10-07,-1,-0.002440073636902542,-0.002006281465823702,-0.008348144715346425,0.007691114219670564,0.9894070885300076
2016-10-11,-1,-0.002987697067318796,-0.0024540520793038824,-0.007639061420008418,0.008181266129804795,0.9881127862101967
2016-10-13,-1,-0.0019286397906104077,-0.0015237854344245867,-0.013154298706964274,0.006777039507635384,0.9861069461683287
2016-10-17,-1,-0.0018872789105405774,-0.0014972803265357539,-0.014629585361539195,0.007691114219670564,0.9845787949190384
2016-10-19,-1,-0.0010480023049790994,-0.0007669486620685712,-0.014629585361539195,0.005362127692234528,0.985246793457143
2016-10-21,-1,-0.0009260851853581408,-0.0006444056780229435,-0.014629585361539195,0.005406564399373509,0.9848226932340443
2016-10-25,-1,-0.0005752613859278877,-0.00035174444239083954,-0.014629585361539195,0.007692953885784833,0.9844463343322841
2016-10-27,-1,-0.0015707121093407974,-0.0012535268905141516,-0.011926059355033313,0.007692953885784833,0.9857487910665326
2016-10-31,-1,-0.00042200713706382406,-0.0002670681513609194,-0.011926059355033313,0.016542406750517245,0.9852975999020479
2016-11-02,-1,-0.0020877910088994275,-0.00175761887057893,-0.010731782613035448,0.016542406750517245,0.9857816676155341
2016-11-04,-1,-0.0024440209470792916,-0.0020562951099560387,-0.004493933313346989,0.016542406750517245,0.9854630056810009
2016-11-08,-1,-0.0012047386011062888,-0.000959276043527153,-0.004493933313346989,0.016542406750517245,0.9856878553970393
2016-11-10,-1,-0.0037878675577330987,-0.0032461270846887817,-0.0013476864535701297,0.016542406750517245,0.9880459425026202
2016-11-14,-1,-0.003115691168835336,-0.0026542447377239527,-0.0008775410252022638,0.013859695636991643,0.9895593455049465
2016-11-16,-1,-0.004830120826784174,-0.004076562406565281,-0.0019093833058601828,0.013859695636991643,0.9879541141776653
2016-11-18,-1,-0.003130720437198825,-0.002659616325723659,-0.0013476864535701297,0.013859695636991643,0.9885055063575299
2016-11-22,-1,-0.0027285913600277305,-0.0022904038085448095,-0.003411393095492191,0.011270058599730456,0.9892855535766879
2016-11-25,-1,-0.0024885436156145057,-0.0021003358372871372,-0.004292838679669588,0.011270058599730456,0.9894332658153875
2016-11-29,-1,-0.0010260494004231619,-0.0008049783845100044,-0.008729526421371127,0.004942047042642186,0.9908918864711395
2016-12-01,-1,-0.00212230136721889,-0.0018028192722656937,-0.0020087571416184963,0.010133537635105577,0.9905483942141555
2016-12-05,-1,-0.0012415757118628265,-0.001056187642118666,-0.0020087571416184963,0.010133537635105577,0.9906044305599513
2016-12-07,1,0.0004935901853858945,0.0005363341944170023,-0.0020087571416184963,0.007369933033909553,0.9923429936513858
2016-12-09,1,0.0003742358705137851,0.00039906361125313763,-0.00780805268763344,0.007369933033909553,0.9909823004683805
2016-12-13,1,0.0011588877283364698,0.0013282261226066265,-0.00780805268763344,0.006988101170633631,0.9908965287778816
2016-12-15,1,0.00018746996172977777,0.00025345920611599833,-0.004995114620685196,0.006988101170633631,0.9923277526291447
2016-12-19,1,0.0011036566880762058,0.0013077013184179334,-0.004995114620685196,0.006196428428565903,0.9929364160055248
2016-12-21,1,0.0010753412476048351,0.0013135338474517394,-0.003749114165455654,0.006196428428565903,0.9932103488207488
2016-12-23,1,0.0008486442020727255,0.0010390549393777084,-0.004995114620685196,0.006196428428565903,0.992382064325829
2016-12-28,1,0.0008071376009973298,0.0009932471978950164,-0.007445618155728448,0.006196428428565903,0.990593623281958
2016-12-30,1,0.0016916424018703245,0.0020005317877791603,-0.008271690019484391,0.0045347294510560306,0.9908343736269944
2017-01-04,1,0.0022641049317813234,0.0026412466975806615,-0.008883601759684383,0.0045347294510560306,0.9904793944025863
2017-01-06,1,0.002530456080546057,0.0029476980791817244,-0.011849322477980052,0.0045347294510560306,0.988737650527576
2017-01-10,1,0.0012703117366075667,0.0014973542949080795,-0.011107228408750325,0.005232308281989721,0.989444681718718
2017-01-12,1,0.0013350043266292374,0.0015609039402705157,-0.011107228408750325,0.005232308281989721,0.9894151473275502
2017-01-17,1,0.0014209416346750475,0.0016787331096668988,-0.011107228408750325,0.005232308281989721,0.9896444861449166
2017-01-19,1,0.0013876791431210002,0.001619940272110521,-0.011107228408750325,0.006909219539317224,0.9888244539219506
2017-01-23,1,0.0013724721412704515,0.0015974246332682495,-0.011107228408750325,0.011568070700300363,0.9887672176937502
2017-01-25,1,0.0006802777912044108,0.000811721047395511,-0.010251058646257616,0.011568070700300363,0.9892842308750451
2017-01-27,-1,-0.0006773664659968595,-0.0006667966905995176,-0.008157370309669409,0.011568070700300363,0.9905072813678371
2017-01-31,-1,-0.0006541236234379338,-0.0006363622538853944,-0.008157370309669409,0.011568070700300363,0.9906084592010109
2017-02-02,-1,-0.0016341497060715802,-0.00143486683653523,-0.004115084662823055,0.010571299721636727,0.9912563512745618
2017-02-06,-1,-0.0014754608558638228,-0.0012844737603345446,-0.004115084662823055,0.0103075783511291,0.9927802753890803
2017-02-08,-1,-0.0013837144395136892,-0.0012088927007771377,-0.008613189271860486,0.0058489344635984705,0.9930199186609577
2017-02-10,-1,-0.0002526029770364103,-0.0002524933162909268,-0.008613189271860486,0.0026139095971785603,0.9935820996117829
2017-02-14,0,-3.8825534906766676e-05,2.4618845068702367e-05,-0.008613189271860486,0.0058489344635984705,0.9923677219609651
2017-02-16,1,0.0005958654580229625,0.0007942086430124724,-0.0036897533825492107,0.0046583943097407024,0.9934459248399341
2017-02-21,1,0.0008858906167236076,0.0011019395279166305,-0.00874780504053602,0.0046583943097407024,0.9924412648379795
2017-02-23,1,0.0008036654388048326,0.0010092497590383823,-0.004358743695753025,0.006713198439526823,0.992412853075308
2017-02-27,1,0.001147916788702628,0.0013543779042823273,-0.010778741191990623,0.0023569512191984644,0.9920120441510695
2017-03-01,-1,-7.09553126178759e-05,-3.4773967231329915e-05,-0.004358743695753025,0.005831855333262422,0.991882315939866
2017-03-03,-1,-0.00030638927875691486,-0.00021588417275032707,-0.004358743695753025,0.009065870935183629,0.9908167310730966
2017-03-07,-1,-0.0008283862508526145,-0.0006730945056802549,-0.0020444605757231563,0.009065870935183629,0.990577569588434
2017-03-09,-1,-0.0011023995223800002,-0.0009701942170932997,0.0010651201083996243,0.009065870935183629,0.9909372246565699
2017-03-13,-1,-0.0010936627916555905,-0.000962923289664903,0.0027835853067805292,0.01046303880350704,0.9899922157636394
2017-03-15,1,0.00045309632071976894,0.0005564081684038967,0.003316369694598925,0.009949228390972556,0.9917394153945313
2017-03-17,1,0.0007094562189169746,0.0008517772807267283,0.003316369694598925,0.01046303880350704,0.9912428617028477
2017-03-21,1,0.0004520040107962817,0.0005560164762869641,0.0019326194899302869,0.010016057228691398,0.991727184378354
2017-03-23,1,0.00017812051206480252,0.00019425971999122564,0.0016033100368069383,0.008916877076911748,0.9918013136253444
2017-03-27,-1,-7.359248849552674e-05,-3.664308308378903e-05,0.0023825548299210133,0.009627098423893324,0.9924939100298096
2017-03-29,-1,-0.0004770686967713739,-0.0003767034609161319,-0.0009632065560193075,0.009627098423893324,0.9923360680202963
2017-03-31,1,0.00019964073790497031,0.00024216289672141596,-0.0036670644335874054,0.007619610982579374,0.993017186316195
2017-04-04,1,0.0013004570781598658,0.001470537394914619,-0.0052125278999649236,0.007619610982579374,0.9928948901042297
2017-04-06,0,-0.00016327723523694296,2.701390939002736e-05,-0.0052125278999649236,0.008590704126302164,0.992520080232632
2017-04-10,1,0.0009976921687149898,0.0010197066932210123,-0.006783746666396013,0.00657723220416776,0.9928278459271974
2017-04-12,1,0.001498891777397122,0.00154956458581089,-0.006783746666396013,0.006807855988101058,0.9929537795355599
2017-04-17,1,0.0018991130121491133,0.002037311912179916,-0.005575831087919445,0.006807855988101058,0.9930681358617665
2017-04-19,1,0.0014530140101542805,0.0015618994376699325,-0.003711518879128447,0.008016307817465413,0.9935054648768776
2017-04-21,1,0.0013606330340252101,0.0014509586001611903,-0.005575831087919445,0.008343698120846219,0.9929450764728983
2017-04-25,1,0.002357573813280147,0.002655196078066013,-0.005575831087919445,0.008016307817465413,0.993378398542911
2017-04-27,1,0.0017401204493361984,0.0018823291171912286,-0.0035539700268615595,0.006807855988101058,0.9938736725556342
2017-05-01,1,0.0017989029524121804,0.001975415249676601,-0.0029640974968157645,0.006024657601232696,0.9944103665926064
2017-05-03,1,0.0018685298924910369,0.0021398789551260048,-0.002248576830103683,0.006979780699429151,0.9949213441605549
2017-05-05,1,0.002384692406855408,0.0027162766121378917,-0.0035539700268615595,0.006979780699429151,0.9942576517117437
2017-05-09,1,0.0023188223164948745,0.002679025023357663,-0.002248576830103683,0.006979780699429151,0.9947575223379632
2017-05-11,1,0.0017832255967026019,0.0019849364143912753,-0.0035539700268615595,0.0071417250772125756,0.9942282056908128
2017-05-15,1,0.0024852715724845236,0.0028315564219910166,-0.0026042626425061043,0.005455374598501689,0.9948454940481644
2017-05-17,1,0.0023684320664588924,0.0026700088147389315,-0.0020863724446038238,0.0071417250772125756,0.994538612480458
2017-05-19,1,0.0022028788225348403,0.0024725215149474585,-0.0020863724446038238,0.0069747049572073325,0.9947166242612
2017-05-23,1,0.0023679778854786638,0.0026467340898764314,-0.003130132739934486,0.0069747049572073325,0.9937917438488616
2017-05-25,1,0.0028741807187774595,0.003273054249396288,-0.0052171168857779275,0.008732667393150673,0.9928854156796643
2017-05-30,1,0.0031596533218476858,0.003636290026588043,-0.0054032642034319775,0.009718428526277682,0.9925814154305985
2017-06-01,1,0.003308035022795299,0.003818597726633404,-0.005941287299428729,0.009718428526277682,0.9923852841586803
2017-06-05,1,0.002943708728375431,0.0033313269808485984,-0.0054032642034319775,0.009265535144601685,0.9930415976314068
2017-06-07,1,0.003182980548364036,0.0036083697112684896,-0.006636645735484652,0.009265535144601685,0.99133718076675
2017-06-09,1,0.00322932000118687,0.003649924084536062,-0.007331793039999809,0.008460904077265035,0.9913744281416376
2017-06-13,1,0.0032575539166431414,0.003688050811127111,-0.007331793039999809,0.009265535144601685,0.9906468478373803
2017-06-15,1,0.003983529383009049,0.004508494116897764,-0.007331793039999809,0.008456353646676375,0.9907466671108786
2017-06-19,1,0.0034438669751389733,0.0038478605408373253,-0.007331793039999809,0.009213978771516146,0.990097531172406
2017-06-21,1,0.0019531776415605624,0.002044114060672621,-0.007331793039999809,0.009213978771516146,0.9900577162146376
2017-06-23,1,0.0019089081117482417,0.0019670938931680908,-0.006486455054313847,0.009213978771516146,0.9899038919323307
2017-06-27,1,0.0019074630178509784,0.0019663525247451247,-0.006486455054313847,0.009251883852835707,0.9899069048351451
2017-06-29,1,0.0018791654532610087,0.0019378977457510482,-0.004598686710016951,0.009251883852835707,0.9904195165453994
2017-07-03,1,0.0019828058384042196,0.002046018401904398,-0.006486455054313847,0.008839095705455713,0.9898963554389961
2017-07-06,1,0.0008037300565496574,0.0008602235632686308,-0.003319766343357989,0.008839095705455713,0.9914279640032514
2017-07-10,1,0.000517580525090942,0.0006205229178849023,-0.003319766343357989,0.008839095705455713,0.9915191884596621
2017-07-12,1,0.0008058131466862567,0.000872914526415361,-0.0024722687222076753,0.007860713142485966,0.9923628343972085
2017-07-14,1,0.0011339940006992997,0.001142469953071056,-0.0032408079270601934,0.006676463556546023,0.992011711057094
2017-07-18,1,0.002170823415973908,0.00228355239495102,-0.0032408079270601934,0.0069614430069279655,0.9917719219398904
2017-07-20,1,0.0018100029876395442,0.0019144157463546019,-0.0032408079270601934,0.0069614430069279655,0.9917760569653064
2017-07-24,1,0.002118194098073861,0.0022282670579679073,-0.002671053731427309,0.0069614430069279655,0.992238786754001
2017-07-26,1,0.0025072664058060547,0.002666558883787409,-0.004448170930365312,0.0069614430069279655,0.991722354710373
2017-07-28,1,0.002334715151607839,0.0024334555394062954,-0.006860239017204414,0.00654149908162225,0.9913621893520888
2017-08-01,1,0.0013860712031340543,0.0014688561021029356,-0.0045736624670641955,0.005187952079453752,0.9920366205712867
2017-08-03,1,0.0009303689484310772,0.0010761160130965028,-0.0045736624670641955,0.006645308945351876,0.9915981236876669
2017-08-07,1,0.001042835308685478,0.0011271267355746418,-0.004061691061186357,0.00725429192392079,0.9917942652417955
2017-08-09,1,0.0010000642684614622,0.0010864711183917648,-0.004631441308367764,0.009053387533631871,0.9912029657592161
2017-08-11,0,-0.00024245015270771394,1.7972128349844313e-05,-0.004061691061186357,0.010359521374817268,0.9910097870528705
2017-08-15,1,0.0012693358771369869,0.0013408998144521793,-0.005939676863395907,0.007228457452281317,0.9918730116127628
2017-08-17,1,9.775180981702906e-05,0.0003513961715104078,-0.004631441308367764,0.010282017959898845,0.9919526621352074
2017-08-21,1,0.0007501476456039644,0.0009043997647981548,-0.0046857241595053886,0.007228457452281317,0.9922261480517556
2017-08-23,1,0.0015855996707163297,0.0016009967722870407,-0.004251403517505152,0.00539094640564339,0.9928206437937205
2017-08-25,1,0.001487727764383525,0.0014985735503498959,-0.004251403517505152,0.00566154356366293,0.9927233457329446
2017-08-29,1,0.0012484595153182607,0.0012725642735496863,-0.0056738541174537445,0.00566154356366293,0.9922338653426654
2017-08-31,1,0.0021973917302336734,0.002338830631114223,-0.0056738541174537445,0.00566154356366293,0.9922273404282476
2017-09-05,1,0.002362042061111784,0.002548990962303475,-0.0056738541174537445,0.004395553799697522,0.9926580503915305
2017-09-07,1,0.0024361840041568876,0.0026396595227189796,-0.004635063021292229,0.005535219012765509,0.9929436894744288
2017-09-11,1,0.0026884534051978518,0.002880600831489087,-0.004635063021292229,0.004938378893789147,0.9934041625621562
2017-09-13,1,0.001898638931610977,0.0019792029911329203,-0.003555346609788186,0.004938378893789147,0.9942827995602753
2017-09-15,1,0.002587866057172899,0.002770871335726846,-0.003555346609788186,0.004938378893789147,0.9947537295687084
2017-09-19,1,0.0021476645573431843,0.0022660274397078763,-0.003555346609788186,0.004938378893789147,0.994569999636197
2017-09-21,1,0.0016894536967091024,0.0017325715573962687,-0.003955256100422207,0.005535219012765509,0.9937984640645973
2017-09-25,1,0.0008522385202896895,0.000951634942878633,-0.00326508252037856,0.005134459460241068,0.9944690487954596
2017-09-27,1,0.00028692054704178803,0.0004269273205353711,-0.002083173784767906,0.005134459460241068,0.9950749599803026
2017-09-29,1,0.00024170988898362478,0.00040957845713966853,-0.002083173784767906,0.005134459460241068,0.9951902345713219
2017-10-03,1,0.0003751604728911406,0.0005192318247458116,-0.00326508252037856,0.006226350864250735,0.9944592945958973
2017-10-05,1,0.000912137273823051,0.0009875671068334678,-0.00326508252037856,0.00651140503250944,0.9940186351852841
2017-10-09,1,0.001000128648948128,0.0010580829076602461,-0.00326508252037856,0.00651140503250944,0.9939309077785513
2017-10-11,1,0.0005292541745363169,0.0006523673508924911,-0.002083173784767906,0.00651140503250944,0.9941257777946162
2017-10-13,1,0.0009707840932616804,0.0010321203503674858,-0.0036755633133269154,0.005379229337872613,0.9941086509126676
2017-10-17,1,0.00027903037087984034,0.0004192108155785497,-0.0021773585943355954,0.00651140503250944,0.9942437318805052
2017-10-19,1,0.0002048716097622412,0.00036129370026502104,-0.0021773585943355954,0.00651140503250944,0.9933078409033891
2017-10-23,0,-1.537850702745965e-05,0.00016436355070214973,-0.0036755633133269154,0.00651140503250944,0.992722033132098
2017-10-25,-1,-0.00023422010030433563,-4.231288417734535e-05,-0.0036755633133269154,0.006851952576437303,0.9919063660511197
2017-10-27,1,0.00015289210873511386,0.00029260682432449543,-0.0036755633133269154,0.006828336288307622,0.9922173715508646
2017-10-31,1,7.689918900858245e-05,0.0002187157859206188,-0.0036755633133269154,0.005379229337872613,0.9924937988874221
2017-11-02,1,0.0007693268223791633,0.0008329127876005906,-0.0036755633133269154,0.0031604950416481764,0.9933685349473492
2017-11-06,1,0.0014447463969895129,0.0015046519048788785,-0.004824936223883727,0.0022190680976382354,0.9922149008015718
2017-11-08,1,0.0014258215508381944,0.0014796777460462885,-0.004824936223883727,0.0029923710387456306,0.9914581103679946
