JNU-Tangyin/eata/results/Batch4_SP500/Batch4_SP500-V.csv
Date,Action,Predicted_Q25,Predicted_Q75,Actual_Q25,Actual_Q75,RL_Reward
2010-12-14,0,0.0,0.0,-0.0032315451796136666,0.008049619268206206,0.9863777707718925
2010-12-16,0,0.0,0.0,-0.0020960373249713027,0.008049619268206206,0.9920700872612933
2010-12-20,0,0.0,0.0,-0.0020960373249713027,0.0038062532391933885,0.9915779286845888
2010-12-22,0,0.0,0.0,-0.003250237284399072,0.004508334262328431,0.9904915231159369
2010-12-27,0,0.0,0.0,-0.0032916143686578135,0.00403086024672081,0.9908146683892713
2010-12-29,0,0.0,0.0,-0.006135118184706387,0.00403086024672081,0.9902863501698628
2010-12-31,-1,-0.9948588603163615,-0.9945632126668587,-0.007754961708419287,0.006750015772880515,0.5013966707603793
2011-01-04,1,0.00014977092977355169,0.0003218588691626992,-0.007754961708419287,0.012872008779354965,0.9881831222396442
2011-01-06,1,0.001787305290525685,0.0018004473236902824,-0.007754961708419287,0.01065912471558996,0.9883787898605875
2011-01-10,1,0.000745157244861176,0.0008618176353669051,-0.006695425232827668,0.012658915566629438,0.988614570355557
2011-01-12,1,6.153553672397379e-06,0.0002765471858373217,-0.007754961708419287,0.015029210468994086,0.9873422929910249
2011-01-14,-1,-0.0006993407346168668,-0.0003526898531554406,-0.006695425232827668,0.015029210468994086,0.9876215042773199
2011-01-19,-1,-0.0024481607864562825,-0.0018727757996778044,-0.005820593324194037,0.015029210468994086,0.9885417877996052
2011-01-21,-1,-0.0018931349745578644,-0.0013647789499853914,-0.004462017553385375,0.012658915566629438,0.9898456738416272
2011-01-25,-1,-0.0006141587491584224,-0.0002753261394184916,-0.006811387126882238,0.011149770555082471,0.9894050004457725
2011-01-27,0,0.0,0.0,-0.004648786569425803,0.012658915566629438,0.9887468306578593
2011-01-31,-1,-0.0029888449943474365,-0.0023415508551939924,-0.005188716765498439,0.012658915566629438,0.9881989935228922
2011-02-02,-1,-0.0017772086817420482,-0.0012477309251955942,-0.005188716765498439,0.01412992242425587,0.9879487554702959
2011-02-04,-1,-0.0023632330329640457,-0.0018504236714551074,-0.008338073388274643,0.011639774272186073,0.988082213100696
2011-02-08,-1,-0.0010864974154833104,-0.0007547399401059837,-0.008338073388274643,0.010516036774834363,0.9890408413496622
2011-02-10,-1,-0.000416299002736116,-0.00021608612702352548,-0.008338073388274643,0.010516036774834363,0.9885008196464198
2011-02-14,1,0.00011681601974045179,0.0002506897574294075,-0.009804083995761024,0.006076255356358002,0.9881937858203114
2011-02-16,1,0.0007209246896348395,0.0007373809884764789,-0.009804083995761024,0.007572107865035911,0.9878060317875286
2011-02-18,1,0.0008241959066263088,0.000843800051153867,-0.009804083995761024,0.008275197766988658,0.9877153539992244
2011-02-23,-1,-0.0005603886295909851,-0.0004423963702714176,-0.007663497047051108,0.008275197766988658,0.9894047032441609
2011-02-25,1,7.372612477840715e-05,0.00014749965155590438,-0.008124717996264933,0.006857830419691083,0.989707288677499
2011-03-01,-1,-0.0007614585962339388,-0.0006167014276463329,-0.0076313487555874976,0.007959508716877863,0.9902660803677149
2011-03-03,1,0.0008497836456092991,0.0008912359679307874,-0.007938070001311453,0.006857830419691083,0.9902753894382279
2011-03-07,0,-2.6318597627532803e-05,3.4669559391511576e-05,-0.0076313487555874976,0.008401272140443481,0.9905352947748326
2011-03-09,1,0.0005751425549362229,0.0006731268928076121,-0.0076313487555874976,0.008401272140443481,0.9904383344456216
2011-03-11,1,0.00032694521600594505,0.00042843971910067427,-0.00564213575188521,0.007708174796165703,0.9922909397432483
2011-03-15,0,-4.003924435772054e-06,8.965306950282453e-05,-0.0037787644603981298,0.008401272140443481,0.9920503535722661
2011-03-17,1,0.0001292804616719954,0.00023636161938515236,-0.00564213575188521,0.008401272140443481,0.9915342504470792
2011-03-21,1,0.000671150703942605,0.0008749684722179959,-0.0076313487555874976,0.008401272140443481,0.991521538325796
2011-03-23,-1,-0.0001528494638181879,-0.0001486474900621256,-0.0076313487555874976,0.009193187675238863,0.9905599935366632
2011-03-25,1,0.0001627400962629706,0.00022679873601624253,-0.001986430095718146,0.008401272140443481,0.9913036598759029
2011-03-29,1,0.000687195113808782,0.000871017605434065,0.0011104647523235145,0.009338463336388464,0.9917618562991662
2011-03-31,1,0.0016671939523602583,0.002005330771763363,0.0011104647523235145,0.0066136356793449515,0.9930571746616961
2011-04-04,1,0.002140089514996399,0.0024996826803369695,0.0011104647523235145,0.007292857647611979,0.9931482363328327
2011-04-06,0,0.0,0.0,-0.004343903119647406,0.007292857647611979,0.9916307406084113
2011-04-08,1,0.0008503068139848633,0.0013017375694816275,-0.004343903119647406,0.009482971530180705,0.991903382140998
2011-04-12,0,0.0,0.0,-0.004738996597826359,0.006857204727075929,0.9915182678307511
2011-04-14,0,0.0,0.0,-0.0009063931970675959,0.007832721844044668,0.9921955919314154
2011-04-18,1,0.0011728213581123996,0.0012872430275059927,-0.00015892947986676718,0.008447528366750761,0.9928370380650117
2011-04-20,1,0.0022518997267339295,0.0025323487505267235,-0.003312395509194971,0.0076413357409701,0.9932240170119556
2011-04-25,1,0.0019147382928239706,0.002094840006725737,-0.00863254873093458,0.0076413357409701,0.9915381730197412
2011-04-27,0,0.0,0.0,-0.00863254873093458,0.008402196145764733,0.9910069239775458
2011-04-29,0,0.0,0.0,-0.005298355603468268,0.008402196145764733,0.9914109875234479
2011-05-03,0,0.0,0.0,-0.00863254873093458,0.0076413357409701,0.9906714952224169
2011-05-05,1,0.0038862874352411955,0.00457801429750895,-0.00863254873093458,0.008402196145764733,0.9903801329547007
2011-05-09,1,0.004545273417714156,0.005336398695026974,-0.011957120331921306,0.008402196145764733,0.9891494328728057
2011-05-11,1,0.0007801193247010687,0.0008459253843807937,-0.013001001983543398,0.008402196145764733,0.9875291459637651
2011-05-13,1,0.0012076692127528028,0.0012217545314222996,-0.01698532507591422,0.008402196145764733,0.9866182722960333
2011-05-17,1,0.0014592170559670433,0.0015067112055208369,-0.01698532507591422,0.010203604191271804,0.9855993643554443
2011-05-19,1,0.0014267803382115173,0.0015468481052188293,-0.01698532507591422,0.010203604191271804,0.9859500702646826
2011-05-23,-1,-0.00033830672908033015,-0.00018958534216575383,-0.012403456936576228,0.013093877102541455,0.9868416116183377
2011-05-25,1,0.0004175274125187607,0.0004884702991110371,-0.012403456936576228,0.009703052975597582,0.987342341521249
2011-05-27,1,0.0009079224164541999,0.0009208075896660888,-0.015630226527497657,0.009703052975597582,0.9862340563210124
2011-06-01,1,0.0009489173660311892,0.0010077108654697668,-0.012403456936576228,0.013093877102541455,0.9824722936015474
2011-06-03,1,0.0009674016561134128,0.0010309605546659094,-0.012403456936576228,0.013093877102541455,0.9809276910330167
2011-06-07,1,0.0018708244393882691,0.002032244842444148,-0.00809602600396678,0.009703052975597582,0.9821920744055083
2011-06-09,-1,-0.0008624368306865805,-0.0006735056177300985,-0.00533146718945764,0.013093877102541455,0.9830335240026236
2011-06-13,-1,-0.002196397915652455,-0.001797815126623859,-0.00533146718945764,0.013093877102541455,0.9832662784737952
2011-06-15,-1,-0.0019706889710462026,-0.0016251299659388004,-0.00533146718945764,0.012067478561202386,0.9836348149078099
2011-06-17,-1,-0.0017648546095158468,-0.0014761178980735824,-0.005744567294421141,0.012067478561202386,0.9831239296876826
2011-06-21,-1,-0.001808287391908706,-0.0014928176857257058,-0.006707554970915574,0.012130025311308128,0.9830603496177281
2011-06-23,-1,-0.0019397204410986845,-0.001588964584946502,-0.006907565754049221,0.01388192807108249,0.9825723444135835
2011-06-27,-1,-0.002063200529101768,-0.0017483284716810973,-0.006456085132403172,0.01388192807108249,0.9838255750658892
2011-06-29,1,0.0031797880826464585,0.003535398624408187,-0.008000243683487764,0.0098727530952223,0.9875596317041339
2011-07-01,1,0.004173184078723478,0.004697002852015267,-0.008000243683487764,0.005286658144327449,0.9895607888160622
2011-07-06,1,0.0040769640496292735,0.0045897981412020665,-0.009125964275246213,0.0098727530952223,0.986427771462309
2011-07-08,1,0.004481885586564692,0.005066472140282321,-0.015971370633296695,0.00353018992999928,0.9848112670816516
2011-07-12,1,0.0031564540257575484,0.0035066241825642986,-0.015971370633296695,0.0098727530952223,0.9822876133790188
2011-07-14,1,0.0035806562176872864,0.004009854276400399,-0.016839267455113105,0.010144158660612763,0.9779512623845728
2011-07-18,1,0.0030139986729084667,0.003303653869634855,-0.016839267455113105,0.01388192807108249,0.9773888321488781
2011-07-20,1,0.0033179859839363814,0.0036812201742354536,-0.01930220886013035,0.005401237109224505,0.976816524777466
2011-07-22,1,0.003035424665608507,0.003310873172691341,-0.022264144275062056,0.0014194501787142709,0.9752261608858759
2011-07-26,1,0.0033188707939932694,0.0036955679489010483,-0.022264144275062056,0.007873967544178392,0.9733371078879328
2011-07-28,1,0.0022878857681608703,0.0024859635579652173,-0.02512724526448283,0.026040417310873608,0.9725340396878035
2011-08-01,1,0.001649267898321073,0.0017429324358421339,-0.02512724526448283,0.026040417310873608,0.972307260481856
2011-08-03,1,0.0020735154698562526,0.002190863494689865,-0.022648126945812714,0.02159912084508324,0.974907813186236
2011-08-05,1,0.0002632592295089327,0.0004049894050273662,-0.02229057136502932,0.02159912084508324,0.976066284360952
2011-08-09,0,-6.610506979290627e-05,0.00011610564042916697,-0.01180485108520473,0.02159912084508324,0.9789992579467904
2011-08-11,1,0.0008927886908068385,0.0009564234178577253,-0.01181893839555448,0.016866165676942282,0.9828877188987761
2011-08-15,1,0.0011993107179567068,0.001235450691944262,-0.01181893839555448,0.013452251452780683,0.9837418410715897
2011-08-17,1,0.00029239273984426575,0.0004395340635948936,-0.009327427405417685,0.016849908312912196,0.9834313726817813
2011-08-19,-1,-0.0029563232249250893,-0.002442235865516538,-0.003536568608340283,0.016849908312912196,0.9843228861993236
2011-08-23,1,0.0005845263219405348,0.000675760249403342,-0.009651416900185852,0.016849908312912196,0.985661130474866
2011-08-25,1,0.000981179398846909,0.0009978796563045338,-0.009651416900185852,0.016734007197920245,0.9858473891196653
2011-08-29,1,0.0018028242287559467,0.0019017879107262273,-0.009651416900185852,0.013452251452780683,0.986757824135893
2011-08-31,1,0.0022129478531213954,0.0023754234566114637,-0.01181893839555448,0.010887305716803223,0.9864161842816301
2011-09-02,1,0.001309375912899828,0.001354425572294106,-0.01334242049723617,0.010887305716803223,0.9857349134143184
2011-09-07,1,0.0020119573658416512,0.0021275789178131204,-0.01334242049723617,0.007196032974859076,0.9870110560584838
2011-09-09,1,0.0009332204859994365,0.0009751526989236435,-0.01139864276729721,0.010887305716803223,0.9865275408592525
2011-09-13,1,0.0016611430526625014,0.0017419479256926846,-0.01139864276729721,0.01562788721442781,0.985040616546393
2011-09-15,1,0.002508440993995294,0.0027047539563389584,-0.01139864276729721,0.014509500185131466,0.9855210134367125
2011-09-19,1,0.0024329985602802645,0.002637305872680633,-0.015729380949751036,0.014612389352364898,0.9840564742164939
2011-09-21,1,0.0026645081623304988,0.002876385016400442,-0.017942909850611623,0.014612389352364898,0.9828718269129283
2011-09-23,1,0.0024929393891711137,0.0027219100116077544,-0.011832911427542791,0.014612389352364898,0.983991853979786
2011-09-27,1,0.001874740211113842,0.0019849966249981528,-0.017942909850611623,0.014612389352364898,0.9821697413866722
2011-09-29,1,0.0013806483315448178,0.0014411887208919008,-0.011832911427542791,0.017456137823960643,0.9813185972567162
2011-10-03,0,-0.00011231782986143523,2.35017825002484e-05,-0.0006672135014887969,0.017456137823960643,0.9813927524396818
2011-10-05,1,0.0002127685309191867,0.0003048186726578942,-0.01241186881535557,0.017938325367970062,0.9794674857132313
2011-10-07,1,0.0007014745027646277,0.0007296937007305093,-0.009183437746954164,0.01683609313074108,0.9801497401109525
2011-10-11,1,0.001766565918569535,0.0018451407544317969,-0.009183437746954164,0.016495072743459537,0.9819599918466172
2011-10-13,1,0.0017950444867867016,0.0018128091535889465,-0.01602277454926034,0.016495072743459537,0.9819286487764187
2011-10-17,1,0.0013971390079023324,0.0014355931892786962,-0.014289781155842684,0.01733759791111473,0.9821752243984413
2011-10-19,1,0.0011245160836263627,0.0011827214398547228,-0.014289781155842684,0.01733759791111473,0.9834864594421936
2011-10-21,1,0.001771377740282784,0.0017716635468986541,-0.01602277454926034,0.016495072743459537,0.9836702714774376
2011-10-25,1,0.0006774775723004471,0.0007887245536013977,-0.014289781155842684,0.016495072743459537,0.9855376410746622
2011-10-27,1,0.001998017209120941,0.0020639458838681802,-0.015451499966610566,0.009643392462948189,0.9861171417123655
2011-10-31,1,0.0006178304300008476,0.0007846621580400899,-0.014289781155842684,0.016495072743459537,0.9850008354184536
2011-11-02,-1,-0.0005496614884078427,-0.00021711263038310085,-0.00836178615174538,0.01733759791111473,0.9852122097793301
2011-11-04,-1,-0.0004567175761368441,-0.00012720846584872176,-0.012316688867268067,0.01035928854087204,0.9855503276158795
2011-11-08,0,-0.00019490162707368924,0.00011988126573992189,-0.012316688867268067,0.010566464017530345,0.9852680144164998
2011-11-10,-1,-0.0008060571069052893,-0.0004228024405561917,-0.01206711870715009,0.015338360661655896,0.9848497138229372
2011-11-14,-1,-0.0007733026869444289,-0.00038892527094384855,-0.010747779236045266,0.009737491094593508,0.9860396282418249
2011-11-16,-1,-0.0014761258993204896,-0.0009805703815452295,-0.007992444910978688,0.005555614712621065,0.9878544913564713
2011-11-18,1,0.0005266733694172514,0.0005408929900815103,-0.0063693966876922576,0.012401972558796279,0.9871828690793808
2011-11-22,0,0.0,0.0,-0.00645778110432341,0.01510872299914876,0.9859694050809173
2011-11-25,0,0.0,0.0,-0.006127671458089434,0.017136366442944997,0.9859209882195274
2011-11-29,1,0.0013518946950614877,0.0015297324599268065,-0.00645778110432341,0.01510872299914876,0.9877625304823099
2011-12-01,0,0.0,0.0,-0.007992444910978688,0.01510872299914876,0.988404657310043
2011-12-05,0,0.0,0.0,-0.007992444910978688,0.01510872299914876,0.98768278393628
2011-12-07,0,0.0,0.0,-0.01073493030145533,0.014412329959596092,0.9879618354010979
2011-12-09,0,0.0,0.0,-0.008637380771277368,0.01236961996575529,0.9888679125312578
2011-12-13,1,0.0006195636953085775,0.0006940544404597622,-0.007196106748544217,0.015011665220025791,0.9880495159956921
2011-12-15,0,0.0,0.0,-0.007196106748544217,0.017122177202474026,0.9874223878229059
2011-12-19,0,0.0,0.0,-0.008951401808213588,0.015227113642061956,0.9875602861976817
2011-12-21,1,0.003820162351066964,0.003840385758252937,-0.01170153010118324,0.012738659719203401,0.9867951898182626
2011-12-23,1,0.003042291670942989,0.0033664111345312127,-0.01170153010118324,0.012682831250332482,0.9872402933597308
2011-12-28,1,0.001660206210332307,0.0017206517669022788,-0.010251425768963724,0.012682831250332482,0.9884963693925984
2011-12-30,1,0.0017279739282589014,0.0017657503485672631,-0.010202261615165338,0.008754752874959469,0.9894888960250181
2012-01-04,0,0.0,0.0,-0.008468033697473749,0.012682831250332482,0.9886150477848641
2012-01-06,1,0.0017460218529967686,0.0018398522569308211,-0.007196106748544217,0.012682831250332482,0.9891833863446159
2012-01-10,0,0.0,0.0,-0.006168949180118692,0.01314373033013139,0.9886032226117112
2012-01-12,0,0.0,0.0,-0.004821449327375347,0.013412876384949847,0.9875627550734362
2012-01-17,0,0.0,0.0,-0.005777167501902128,0.013412876384949847,0.9871140576018447
2012-01-19,0,0.0,0.0,-0.005777167501902128,0.013412876384949847,0.9877609240805861
2012-01-23,0,0.0,0.0,-0.0037683631877725617,0.013412876384949847,0.9882271994752001
2012-01-25,0,0.0,0.0,-0.001796004931859751,0.014518987633413706,0.9881620742496013
2012-01-27,0,0.0,0.0,-0.00410091755343208,0.014518987633413706,0.9876731870646205
2012-01-31,-1,-0.3325512779149463,-0.30910199697573965,-0.00410091755343208,0.01805873977082132,0.7528843851167835
2012-02-02,1,0.0017564219853126852,0.0018270084538818988,-0.006099678060543309,0.012895801294757528,0.988822766806896
2012-02-06,0,0.0,0.0,-0.007458315217295752,0.012895801294757528,0.9884862692202022
2012-02-08,0,0.0,0.0,-0.007458315217295752,0.014344864728711857,0.9879604053622703
2012-02-10,1,0.0037411197704378,0.0041202829671008806,-0.007458315217295752,0.009483360276787261,0.9894283168351186
2012-02-14,1,0.003920707925652246,0.0043459986742672785,-0.006846785876488508,0.007499743869963698,0.9904948678761968
2012-02-16,1,0.0032204296078198816,0.0035231346623357538,-0.006034303080721099,0.007499743869963698,0.9911685011100999
2012-02-21,1,0.003010507836128451,0.0032678211400452893,-0.006034303080721099,0.007499743869963698,0.9901926076917793
2012-02-23,1,0.0029808773269337212,0.0031967964948831674,-0.006034303080721099,0.006961961940159147,0.9909334376908515
2012-02-27,0,0.0,0.0,-0.005791960642041809,0.007918734191039273,0.9905351712559152
2012-02-29,0,0.0,0.0,-0.004691173334812752,0.006961961940159147,0.9921888594026714
2012-03-02,1,0.001026889949845879,0.0010401693440962487,-0.004691173334812752,0.00650426851142733,0.9923748449291391
2012-03-06,1,0.0013160626189281511,0.001401770700021199,-0.003988099417181822,0.008922888592622948,0.9922267225389233
2012-03-08,1,0.0019341700926379774,0.002120237905537019,-0.004691173334812752,0.008922888592622948,0.99206967923886
2012-03-12,1,0.0011301016926569495,0.001165055559584259,-0.005426477698322127,0.008922888592622948,0.9908509849238696
2012-03-14,1,0.0008401877547357002,0.0008659885678928897,-0.004980393965920385,0.01098180223715995,0.9896692912041684
2012-03-16,1,0.0014040928280363895,0.001498934657028267,-0.009168916086543803,0.011896399598545004,0.9882116328678808
2012-03-20,1,0.0007757856998162826,0.000815065060172232,-0.004980393965920385,0.01098180223715995,0.9893526184119269
2012-03-22,1,0.0016058473460175645,0.0017426513774362257,-0.005734419395532555,0.01098180223715995,0.989169635580081
2012-03-26,1,0.0014719015750559571,0.0015539463147970017,-0.009168916086543803,0.00881511309873038,0.9886411003680446
2012-03-28,1,0.0014154881715724658,0.0014217579375269416,-0.009168916086543803,0.011521047965830656,0.9874533779006563
2012-03-30,0,0.0,0.0,-0.006499974137538542,0.011521047965830656,0.9876591326478243
2012-04-03,0,0.0,0.0,-0.008350150399006504,0.010632636881980184,0.9882299959651097
2012-04-05,0,0.0,0.0,-0.008603336573601149,0.010632636881980184,0.9867365597106351
2012-04-10,0,0.0,0.0,-0.004489973586559875,0.010632636881980184,0.9880205177571373
2012-04-12,1,0.0020875894394975832,0.0021760082695742064,-0.005157197699196004,0.007857246715530487,0.9891178666527483
2012-04-16,1,0.000884185695617343,0.0010174025704932702,-0.005157197699196004,0.006547485235508714,0.990351876846928
2012-04-18,1,0.0010659775846256683,0.001185609369718125,-0.005157197699196004,0.006547485235508714,0.9905055573418857
2012-04-20,-1,-0.0003548181816627273,-7.351281616445847e-05,-0.008027846583746974,0.006547485235508714,0.9889943759764753
2012-04-24,-1,-0.000426063633752745,-0.00016621263959586,-0.006398774359682397,0.008790950228638652,0.9880170800007754
2012-04-26,1,0.0015687667117391141,0.0015939382746861567,-0.006398774359682397,0.006437591734610752,0.9889977887989134
2012-04-30,1,0.0009947806993127791,0.001075264781256771,-0.006398774359682397,0.006847118645241209,0.988888081577255
2012-05-02,1,0.00043716865390733116,0.0005586894564002347,-0.01250503095343266,0.006847118645241209,0.987191027832867
2012-05-04,-1,-0.001372121835664419,-0.0010322261773479465,-0.01250503095343266,0.006847118645241209,0.9882508604902994
2012-05-08,-1,-0.0015680695744413812,-0.001172657597074488,-0.01250503095343266,0.007689874557964024,0.9874956721905812
2012-05-10,-1,-0.0018236168636511342,-0.0014112695779093553,-0.01250503095343266,0.007689874557964024,0.987820073938062
2012-05-14,-1,-0.0019242591818319735,-0.0015486212852505617,-0.007377519883096708,0.007689874557964024,0.9877936505076536
2012-05-16,-1,-0.0011155592303454085,-0.0008577390460824684,-0.019340165403024988,0.009177013918242792,0.9866286002546294
2012-05-18,-1,-0.0023982573038792863,-0.0020246284591875245,-0.0031343652755477,0.014867633842878378,0.986729647397056
2012-05-22,-1,-0.0011463593795255885,-0.000876210221907227,-0.0031343652755477,0.011265517115469848,0.9884372713615208
2012-05-24,0,0.0,0.0,-0.007327232131051804,0.013968086573414572,0.9856017333018434
2012-05-29,0,0.0,0.0,-0.019340165403024988,0.014664840722472004,0.9839495202400599
2012-05-31,0,0.0,0.0,-0.006187984875695036,0.014664840722472004,0.9851543784143948
2012-06-04,0,0.0,0.0,-0.002246173642026395,0.015787909566033237,0.9852065335350358
2012-06-06,0,0.0,0.0,-0.0020325400820412607,0.014664840722472004,0.986070247861006
2012-06-08,-1,-0.00044044451192356865,-0.00024066394743901495,-0.013163375646815051,0.014664840722472004,0.9851005039134163
2012-06-12,-1,-0.002652796629865563,-0.002050633986394033,-0.013163375646815051,0.014664840722472004,0.9844073966408625
2012-06-14,-1,-0.0028899939039378148,-0.0021150501511219455,-0.012698249019348377,0.015622913778429361,0.9844703082588583
2012-06-18,0,0.0,0.0,-0.012698249019348377,0.015622913778429361,0.9845076305220184
2012-06-20,0,0.0,0.0,-0.013163375646815051,0.015622913778429361,0.9844309631623446
2012-06-22,0,0.0,0.0,-0.012698249019348377,0.012763677322380877,0.9872543224064606
2012-06-26,0,0.0,0.0,-0.012698249019348377,0.009326193753045917,0.9885594679003568
2012-06-28,0,0.0,0.0,-0.011458275321462704,0.016143079951125294,0.9866932555007794
2012-07-02,-1,-0.20589961131292261,-0.19366571841546987,-0.012698249019348377,0.012158394331999493,0.8327409000375057
2012-07-05,0,0.0,0.0,-0.012698249019348377,0.013423131939471134,0.98648382514251
2012-07-09,0,0.0,0.0,-0.011428240438049455,0.013471189054242388,0.9871178512042703
2012-07-11,-1,-0.0002637272710037656,-0.00014064533351453625,-0.0061508015830296844,0.013471189054242388,0.9877784079675836
2012-07-13,1,0.0008366055214219547,0.0008470395668299759,-0.01075266618297318,0.013180003522358416,0.9879421062187106
2012-07-17,1,0.0022406189448967457,0.002476439742710536,-0.01075266618297318,0.012467227276445699,0.9885566212974043
2012-07-19,0,0.0,0.0,-0.00733725652367404,0.012467227276445699,0.9891682917044864
2012-07-23,0,0.0,0.0,-0.006701052730158171,0.012467227276445699,0.9892317704238137
2012-07-25,0,0.0,0.0,-0.006071068464517538,0.012467227276445699,0.9896600263322346
2012-07-27,0,0.0,0.0,-0.006646556482203759,0.005040830556091443,0.99185995772269
2012-07-31,0,0.0,0.0,-0.006071068464517538,0.005040830556091443,0.9926850585738333
2012-08-02,1,0.002081357581135346,0.0022726808933098246,-0.006071068464517538,0.004819592930671998,0.9929554229006743
2012-08-06,1,0.0022505478465656512,0.0024623382983156453,-0.006071068464517538,0.004819592930671998,0.9930642394819542
2012-08-08,1,0.002021663656609278,0.0022108746546100413,-0.00656268691039916,0.004819592930671998,0.992541878769132
2012-08-10,1,0.001426521317195901,0.001531052701222422,-0.00656268691039916,0.004819592930671998,0.9933086400620293
2012-08-14,1,0.0016271496642802055,0.0017661126090919767,-0.00656268691039916,0.005623725669437553,0.9925468723655171
2012-08-16,1,0.0018775606125058255,0.002090450184087913,-0.005826292426818639,0.008768638457760573,0.9922805760160529
2012-08-20,1,0.0013347647929243898,0.0014615063092869099,-0.005097403606431758,0.008768638457760573,0.9926348493240087
2012-08-22,0,0.0,0.0,-0.004242318712721461,0.009187931198327644,0.9925569412515894
2012-08-24,0,0.0,0.0,-0.0034749765917486595,0.009187931198327644,0.9925096193724723
2012-08-28,1,0.0002723345608323998,0.00041969497448221603,-0.005826292426818639,0.009187931198327644,0.9920600276403767
2012-08-30,-1,-0.0007454955788772028,-0.000683825682117392,-0.0034749765917486595,0.010714007734997949,0.9919351705016799
2012-09-04,1,0.0008057305147186192,0.0009374368265463121,-0.005356262911747022,0.010714007734997949,0.9917436199529095
2012-09-06,1,0.0009971170238643363,0.0011474677834780993,-0.0034576718482862328,0.010714007734997949,0.99163311770348
2012-09-10,1,0.00127661656141621,0.0013856564631273098,-0.0034576718482862328,0.010714007734997949,0.9913826984744317
2012-09-12,1,0.0022677439068090662,0.002494186322256019,-0.005356262911747022,0.00834005672918227,0.9922847549563135
2012-09-14,1,0.002158911176121506,0.002337479819141858,-0.0034576718482862328,0.00834005672918227,0.9925149514412431
2012-09-18,1,0.0025751292550176526,0.0028842541190774364,-0.0023362568175366244,0.008610304928758092,0.9926512943409691
2012-09-20,1,0.002759223918358771,0.0030864839496273656,-0.004912142148481296,0.009288389293824471,0.9924684047310904
2012-09-24,1,0.0023617830840780042,0.0026652350661649027,-0.005736734901564545,0.009288389293824471,0.9917023948156589
2012-09-26,1,0.0009133122900865303,0.0009993745562680897,-0.005736734901564545,0.009288389293824471,0.991353611034516
2012-09-28,1,0.0013180626884262477,0.001467658749964862,-0.005736734901564545,0.00849615252234857,0.9914271174094941
2012-10-02,1,0.0013832013172942565,0.0015335579668026892,-0.005309918881761246,0.00849615252234857,0.9907611782765308
2012-10-04,1,0.0022095754572029696,0.0024303385728787503,-0.007960253541711199,0.006092645389022924,0.9910172752477917
2012-10-08,1,0.0019503470264447393,0.002146860880098133,-0.0074566949511789705,0.008094236962329762,0.9904923548427982
2012-10-10,1,0.001522778566189131,0.0015677598714493033,-0.005309918881761246,0.008094236962329762,0.9908824207494038
2012-10-12,1,0.0013763903582381361,0.0014861655451037994,-0.005868975267037487,0.006534633592269914,0.9910963085825688
2012-10-16,1,0.002047297090295087,0.002272869934412629,-0.0074566949511789705,0.005674952266253395,0.9905957686439713
2012-10-18,1,0.002443212298043166,0.0026833436951206584,-0.0074566949511789705,0.006534633592269914,0.9895029739792618
2012-10-22,1,0.00026537534371773525,0.00040841742696273676,-0.004009291089414889,0.006534633592269914,0.9904357293268934
2012-10-24,-1,-0.000955872362989069,-0.0006478976126619931,-0.004009291089414889,0.00831332374586499,0.9903177006942415
2012-10-26,-1,-0.00021167408989453628,-3.710359596337834e-05,-0.004009291089414889,0.007081838824447552,0.9907961693220427
2012-11-01,1,0.0005754908982533366,0.0006612448603065493,-0.004009291089414889,0.007081838824447552,0.9920426209743314
2012-11-05,0,-0.00012678225712356667,3.7725178440517146e-05,-0.005604854795539909,0.007081838824447552,0.9920925120031491
2012-11-07,0,-0.00014977365216471033,1.41918475443119e-05,-0.004009291089414889,0.006062907644382619,0.9930501709236981
2012-11-09,1,0.0006636473176604084,0.000666321171286763,-0.0037727138270692746,0.00506367515546844,0.9936257963972153
2012-11-13,1,0.0009306842644071387,0.0010017383005725689,-0.003862289967027332,0.00506367515546844,0.9936596941970757
2012-11-15,0,-2.534753795647773e-05,2.290518305484308e-05,-0.0035434882802236195,0.00506367515546844,0.9939182633721794
2012-11-19,1,0.0016263531026841985,0.0017697854678415034,-0.0035434882802236195,0.00506367515546844,0.994927178757363
2012-11-21,1,0.0014132683413349203,0.0014946285182363796,-0.004917178155002944,0.007020607850366069,0.9934725920054766
2012-11-26,1,0.0022577438248830165,0.0025366699670754823,-0.005161322739802739,0.004116537147117995,0.9935964208964557
2012-11-28,1,0.002231530186555162,0.002496861175044026,-0.006903638146700961,0.0038990037883804302,0.9931021594959966
2012-11-30,1,0.002342949302345835,0.0026113718623263222,-0.006903638146700961,0.0028730058030008963,0.992418211159518
2012-12-04,1,0.0012019422699178829,0.0012239438952055335,-0.0047038024827426965,0.005053832898126622,0.9922597023035971
2012-12-06,1,0.0016177599562829123,0.001773174930803206,-0.0047038024827426965,0.008790875975653617,0.9918097672897248
2012-12-10,1,0.0022332060256469587,0.002428654985727898,-0.0047038024827426965,0.011808472308328611,0.9908972863001035
2012-12-12,1,0.0014934415518789322,0.0015421472641947258,-0.0047038024827426965,0.011808472308328611,0.9906401242028556
2012-12-14,1,0.0009082963052295868,0.0009579644633659599,-0.0036284832460564765,0.011808472308328611,0.9907191791258337
2012-12-18,1,0.001249565386828245,0.0013001759174473488,-0.0036284832460564765,0.008452994304915612,0.9916246571708168
2012-12-20,1,0.0025128876134621566,0.0026834614590532926,-0.0036284832460564765,0.007399952023050519,0.9924158481132266
2012-12-24,0,0.0,0.0,-0.0025940421096503283,0.007399952023050519,0.9930304021803272
2012-12-27,0,0.0,0.0,-0.002289244593985076,0.007399952023050519,0.9924493088393443
2012-12-31,0,0.0,0.0,-0.002289244593985076,0.005482257614218281,0.9930512712365444
2013-01-03,0,0.0,0.0,-0.002289244593985076,0.005482257614218281,0.9932000444502358
2013-01-07,0,0.0,0.0,-0.004351333861131028,0.004319242324645067,0.9924548761598008
2013-01-09,0,0.0,0.0,-0.008451126252358627,0.0040662943305737895,0.9921147946878079
2013-01-11,1,0.002655161649051028,0.002857122576792629,-0.009504211694266651,0.0042650750706160236,0.9916625570605118
2013-01-15,1,0.002104816610045825,0.00220434954727273,-0.010185647355434197,0.0042650750706160236,0.9914387085952628
2013-01-17,1,0.0017866061601078296,0.0018396371272471975,-0.010185647355434197,0.0056507087358417165,0.9909807286225576
2013-01-22,1,0.0012578905798844382,0.001300381914216964,-0.010910800080229877,0.005488206973754588,0.9906867222863697
2013-01-24,1,0.0011961196177029982,0.0012473020178263117,-0.010910800080229877,0.009224648632877658,0.9897048984155357
2013-01-28,1,0.00017860295789620423,0.00036455996594828087,-0.010910800080229877,0.012493434563669097,0.9890442526510776
2013-01-30,0,-1.3718506115287395e-05,0.00017906693644971472,-0.009998181807035156,0.012701337769404812,0.9886144938032896
2013-02-01,1,0.0007598660322002231,0.0008536755617032056,-0.009998181807035156,0.012493434563669097,0.9891339531766694
2013-02-05,1,0.0006736745985737703,0.0008040699364891142,-0.00809919273971754,0.00984825843517404,0.9902288123554006
2013-02-07,1,0.0005886059923314775,0.0006689948175597633,-0.0045709234209382905,0.00984825843517404,0.9915105414109645
2013-02-11,1,0.0003364098589324125,0.00044395381870083393,-0.0045709234209382905,0.00984825843517404,0.9915897445662941
2013-02-13,-1,-0.0002069978246508668,-2.5192460385018898e-05,-0.0034436689991726895,0.00984825843517404,0.991781164947045
2013-02-15,1,0.0005491986709353863,0.0006381360925472592,-0.0045709234209382905,0.008316514548536252,0.9919831926600307
2013-02-20,-1,-0.0004405630813453915,-0.00021686455848123109,-0.0045709234209382905,0.00984825843517404,0.9911276378910361
2013-02-22,1,0.000177626483320684,0.0003478829179993428,-0.007910741593335466,0.008316514548536252,0.9912082187528833
2013-02-26,0,-7.889870138757334e-05,0.00010673585697331788,-0.0045709234209382905,0.009968400547395433,0.9906827421837721
2013-02-28,1,9.727878192070355e-05,0.0002470082497913114,-0.0034436689991726895,0.008316514548536252,0.9910114470437896
2013-03-04,1,0.0007663001772620364,0.0007940526810381771,-0.004701619663383209,0.00739801025133561,0.9907888663336649
2013-03-06,1,0.0007360772572853363,0.0007911285318239574,-0.008822020138255457,0.008696002287840345,0.9897544160518532
2013-03-08,1,0.0002942532915158534,0.0004125109522365391,-0.008822020138255457,0.008696002287840345,0.9892393758096668
2013-03-12,1,0.00018276190448825364,0.00030079066986867924,-0.009346343170924039,0.011274647459455615,0.9886844859291072
2013-03-14,0,0.0,0.0,-0.009991067138297513,0.011274647459455615,0.9883983100349866
2013-03-18,0,0.0,0.0,-0.009991067138297513,0.013825293028169462,0.9868400534308516
2013-03-20,0,0.0,0.0,-0.009991067138297513,0.011274647459455615,0.9875383295835543
2013-03-22,0,0.0,0.0,-0.009734706727260845,0.011274647459455615,0.9878160447835073
2013-03-26,1,0.0006257343927309961,0.0007133632469943779,-0.009734706727260845,0.008963438655963546,0.989100742820028
2013-03-28,1,0.0018617674373577141,0.0019986979250570494,-0.009734706727260845,0.010257158116166145,0.9888126700502257
2013-04-02,1,0.0008275129545511955,0.0008869734343514642,-0.00911481428236143,0.010257158116166145,0.9893897306348178
2013-04-04,1,0.0004194778102346458,0.0004934024302045523,-0.00911481428236143,0.010888265657870965,0.9873344111401834
2013-04-08,1,0.0004774680984593649,0.0005405311536005129,-0.00911481428236143,0.013167970084570078,0.9867274186882707
2013-04-10,1,0.0004073234881713783,0.0004943291744755041,-0.006057408171119622,0.010888265657870965,0.987458747034839
2013-04-12,-1,-0.00023481660404563892,-4.6387207049084314e-05,-0.004108624860299557,0.010888265657870965,0.9879493355614043
2013-04-16,1,6.357252769999613e-05,0.00016110585164619295,-0.003663579970973825,0.008882247097236808,0.9898606675259545
2013-04-18,-1,-0.0005744039087671567,-0.0004112179825710727,-0.0031159900444672228,0.008882247097236808,0.9897878487943069
2013-04-22,0,-8.629420018463276e-05,1.5088276036966466e-05,-0.003663579970973825,0.008882247097236808,0.9887116347864559
2013-04-24,1,0.0005101447618047885,0.0005411023409089042,-0.004786617900291814,0.007822795329451581,0.9893961821575828
2013-04-26,0,0.0,0.0,-0.004786617900291814,0.007822795329451581,0.9890707525170752
2013-04-30,0,0.0,0.0,-0.008449418415155379,0.007822795329451581,0.9888025905406497
2013-05-02,0,0.0,0.0,-0.008449418415155379,0.007822795329451581,0.9907028333823098
2013-05-06,0,0.0,0.0,-0.008449418415155379,0.007822795329451581,0.991471949753547
2013-05-08,1,0.0021851261237533677,0.0023213436075841115,-0.010569536233895728,0.008866253713972514,0.9900602304267039
2013-05-10,0,0.0,0.0,-0.010569536233895728,0.01163561175547918,0.9898818284565348
2013-05-14,0,0.0,0.0,-0.010918675047819095,0.01163561175547918,0.9894554235238046
2013-05-16,0,0.0,0.0,-0.010704807263706985,0.012312935842469815,0.9891726808920626
2013-05-20,0,0.0,0.0,-0.008449418415155379,0.01163561175547918,0.9904274408842751
2013-05-22,1,0.0012574076120385642,0.0012853673535602296,-0.010704807263706985,0.01163561175547918,0.9892332945899893
2013-05-24,1,0.0016206991070634568,0.0017253000963493152,-0.008249213930048783,0.009704436556553356,0.9898126995044622
2013-05-29,1,0.0011078968866947442,0.0011691492596797306,-0.007307012968555843,0.012034122552596381,0.9894981455259113
2013-05-31,1,0.0012033981589560057,0.0012968904170844698,-0.007307012968555843,0.01163561175547918,0.9902691568434433
2013-06-04,1,0.001795630951543078,0.002003232941445135,-0.007307012968555843,0.012034122552596381,0.9902952588725307
2013-06-06,1,0.001622863260234026,0.001797923423545268,-0.006949967549925285,0.012144850486539238,0.9903657852288658
2013-06-10,1,0.0018472520036481263,0.002040729717577955,-0.007307012968555843,0.010307675495018924,0.9899301917708002
2013-06-12,1,0.0011713725439437901,0.0012600251524618352,-0.006949967549925285,0.012144850486539238,0.9898649796304501
2013-06-14,1,0.0013261050148183082,0.0014283372682438074,-0.005301639105752144,0.010307675495018924,0.9907744231571901
2013-06-18,1,0.001725921338883569,0.0018783228119709844,-0.005301639105752144,0.010307675495018924,0.9911630974262048
2013-06-20,1,0.00043787021689420803,0.00048093237748344966,-0.004625862895248005,0.010307675495018924,0.9920500077554276
2013-06-24,1,0.0006582682444636319,0.000694947317772289,-0.004625862895248005,0.010307675495018924,0.9916760068334324
2013-06-26,1,0.0011488131952641079,0.0012075759999997681,-0.005015175260364756,0.009040271767049912,0.9902771473136234
2013-06-28,1,0.0011336182300755826,0.0012014448810511904,-0.005871475781772808,0.007847405818364536,0.9903335907373692
2013-07-02,1,0.0010073514945059827,0.001024755843591039,-0.006586147846586566,0.00693979976736557,0.9870594258832275
2013-07-05,1,0.0020119275197352238,0.0021249695617589722,-0.006586147846586566,0.00693979976736557,0.9863736198819488
2013-07-09,1,0.001042423053150633,0.001074980038876149,-0.006586147846586566,0.00693979976736557,0.9870459890838127
2013-07-11,1,0.0017297310841948806,0.0018166340963287396,-0.007484371732212297,0.004711860792214577,0.9872060274056337
2013-07-15,1,0.0013095946396183636,0.0013133961444509756,-0.007484371732212297,0.003912310464651068,0.9872084534526488
2013-07-17,1,0.001191790201549899,0.001202171514467072,-0.007484371732212297,0.003912310464651068,0.9870348174984975
2013-07-19,1,9.937853065530438e-05,0.00019378006661352958,-0.008386518025133665,0.0005251203250354649,0.9866604589977938
2013-07-23,1,0.0007871044902960116,0.0008350265485025237,-0.008386518025133665,0.0005251203250354649,0.9863147671750857
2013-07-25,1,0.001807749647833244,0.0018776818046106502,-0.007484371732212297,0.00294381252074702,0.9869272424698559
2013-07-29,1,0.0013881717627115756,0.0014131648165280175,-0.008386518025133665,0.00294381252074702,0.9866772027883336
2013-07-31,-1,-0.0014073495332708914,-0.0010909353748598137,-0.006074646258624124,0.0037210654687720324,0.9907215505009174
2013-08-02,-1,-0.00033468562656740846,-0.00012863835293467328,-0.006113238454923937,0.0014882469610430047,0.9921882585398717
2013-08-06,-1,-0.0005952417731463478,-0.00036349348537760746,-0.005378508645879029,0.001497313361503,0.9918798500384755
2013-08-08,-1,-0.0014607442065327474,-0.0010980009073165659,-0.005023787051769841,0.0027006076389127585,0.9922932076435719
2013-08-12,-1,-0.0016796356449133019,-0.0012959711398750381,-0.0047846093400728896,0.007138754132251126,0.99022104549611
2013-08-14,-1,-0.0019603234013775344,-0.0015509028075315003,-0.0049114259150648,0.009648800112530047,0.9896293148396769
2013-08-16,-1,-0.0021486851966375734,-0.0017872815775955891,-0.004702276376518857,0.010652391998562452,0.9894539475237659
2013-08-20,-1,-0.0018768810315991538,-0.0015694470148408727,-0.0010870329407438302,0.010955099461711597,0.98926140264591
2013-08-22,-1,-0.001065269042633325,-0.0008313298887136887,-0.0010870329407438302,0.010955099461711597,0.9899151906271896
2013-08-26,-1,-0.002083593381296412,-0.0017138651257840797,-0.004702276376518857,0.010955099461711597,0.9895140586791887
2013-08-28,-1,-0.002149992517576231,-0.0017676212693207155,-0.004870834685556871,0.010955099461711597,0.9890588758314459
2013-08-30,-1,-0.0022713849395151415,-0.0018809080439363194,-0.005193871503861927,0.010955099461711597,0.9889203466735473
2013-09-04,-1,-0.002129194992670125,-0.0017418597370620938,-0.006843334864677411,0.010797892815290703,0.9890215621784026
2013-09-06,-1,-0.0022977260647308933,-0.0018751544480283815,-0.007735839570409408,0.010797892815290703,0.9880602219317266
2013-09-10,-1,-0.001270115989318528,-0.0009320732406831206,-0.010832291787655343,0.010505272279897646,0.9885447978103779
2013-09-12,-1,-0.0010719640182434965,-0.0007730526894602068,-0.010832291787655343,0.010797892815290703,0.9874872085621099
2013-09-16,1,2.5025711517820274e-05,0.00016314313229274217,-0.010832291787655343,0.010797892815290703,0.9875085205338695
2013-09-18,1,0.0006627422182768786,0.00072960126830404,-0.011282318900577208,0.010603855451841178,0.9869498887797212
2013-09-20,1,0.0015162427331505861,0.0015598196372729528,-0.011282318900577208,0.010981493277598847,0.9870423548709986
2013-09-24,1,0.001231358871456966,0.0013080839251336997,-0.009430178241377997,0.010981493277598847,0.9883011160402297
2013-09-26,1,0.0015266151965134772,0.0016771967207327226,-0.007959444867687104,0.011706718777863608,0.9880453682451295
2013-09-30,1,0.0010891286025162769,0.0011824668091154301,-0.005899293922059209,0.011706718777863608,0.9886789093024204
2013-10-02,1,0.001082186246089194,0.0011658181235894589,-0.002904928121992393,0.011594569724341154,0.9891908205737259
2013-10-04,1,0.0008906808577589545,0.0009661025832016311,-0.002904928121992393,0.01288210983554313,0.988135132082423
2013-10-08,-1,-0.0005555300138475573,-0.0004473490242021455,-0.0020481609190054007,0.01288210983554313,0.9890470680503244
2013-10-10,1,0.0007617175975606392,0.0008314648157723723,-0.002904928121992393,0.011373290296825355,0.9898909942854072
2013-10-14,1,0.0012746404942457989,0.0013944556299157218,-0.002904928121992393,0.011000009153838053,0.9902653766169685
2013-10-16,1,0.0015630977661541044,0.0017216972243075698,-0.00279687559458139,0.00900601235021699,0.9912831200438106
2013-10-18,1,0.001998989863349388,0.0021872714728413,-0.00279687559458139,0.007801882030474239,0.9919323510076449
2013-10-22,1,0.0018269196017798928,0.0019883042339959005,-0.006686912598777204,0.007801882030474239,0.9909240502901587
2013-10-24,1,0.002365428714122274,0.002614506198954916,-0.006362755016544194,0.007801882030474239,0.991371234855945
2013-10-28,1,0.002152765693650935,0.002361301191253568,-0.006362755016544194,0.007801882030474239,0.9913593415928513
2013-10-30,1,0.0024234137366081006,0.0026928244644018554,-0.006362755016544194,0.007995550025555244,0.9915270163182197
2013-11-01,1,0.0013725912424742187,0.0014660588750635096,-0.0032031995792546814,0.007957553172719142,0.993010217182548
2013-11-05,1,0.0011354471057684942,0.0012151170639026392,-0.0032031995792546814,0.007957553172719142,0.992793993370593
2013-11-07,1,0.001128554146043179,0.0012346661751393836,-0.0032031995792546814,0.007680405467758217,0.9936190931029284
2013-11-11,1,0.0010424067256274553,0.0010787668753514557,-0.005033835657028866,0.005584280185803234,0.9935496016583407
2013-11-13,1,0.0009995133139116973,0.0010238172545586964,-0.006409311740838434,0.00564883618416357,0.992094402897553
2013-11-15,1,0.0016066292429321803,0.0017511185841926204,-0.006409311740838434,0.00564883618416357,0.9916620555384218
2013-11-19,1,0.0008580388721612436,0.000900746319260384,-0.001689809063908828,0.00861790056148855,0.9911243703342064
2013-11-21,1,0.0016378244627193528,0.0018050085720850975,-0.001689809063908828,0.007957553172719142,0.9920412823388499
2013-11-25,1,0.0020609726922886733,0.002335309293899847,-0.001689809063908828,0.008540581839574492,0.9918716648619827
2013-11-27,1,0.001977530350414701,0.0022037019865102773,-0.0024547131097003663,0.008540581839574492,0.9916838672652953
2013-12-02,1,0.0023172757797720626,0.0026114215417478654,-0.0016419932595769565,0.008393784743978956,0.9918197125582253
2013-12-04,1,0.0019152535689945615,0.002156466633835147,-0.0016419932595769565,0.008393784743978956,0.9922679317606095
2013-12-06,1,0.0016646871803460501,0.0018643884981256378,-0.0016419932595769565,0.008393784743978956,0.9919434548708221
2013-12-10,1,0.0012725742826155528,0.0014208307785951823,-0.0007305558901784668,0.008393784743978956,0.9923335347942336
2013-12-12,1,0.0017009491271154852,0.0018902209470896862,-0.0016479765433709652,0.007734742443962167,0.9937154852211507
2013-12-16,1,0.0029038334695115483,0.0033081897995056947,-0.0016479765433709652,0.007734742443962167,0.9940339492424202
2013-12-18,1,0.0037075243512362036,0.004187975452705111,-0.0026839062114458277,0.006951024037430587,0.9926847054529884
2013-12-20,1,0.0024247392489774163,0.0025750041349790116,-0.0026839062114458277,0.006951024037430587,0.9924946525500526
2013-12-24,1,0.003416990952308994,0.0037648615677692925,-0.006385201150395878,0.005913796994213185,0.9900740631501945
2013-12-27,1,0.003232965340987176,0.0035379130007026013,-0.00784801067438715,0.006144200863323412,0.9883547175688782
2013-12-31,1,0.0030907908819523874,0.0033538753159984675,-0.009191214163036303,0.00564961339394374,0.9870185881109642
2014-01-03,1,0.0023447537357960705,0.002505217047145533,-0.011908152083590359,0.00564961339394374,0.9858204839060366
2014-01-07,1,0.0020772285962766066,0.0021817640566728037,-0.011908152083590359,0.004993681103194513,0.9862368489938486
2014-01-09,1,0.0014392561788968338,0.001474378830188798,-0.011908152083590359,0.013428179238662276,0.9852516807403127
2014-01-13,1,0.0007606554683279392,0.0008802635631686155,-0.011168223420096181,0.013428179238662276,0.9853730577972833
2014-01-15,1,0.0017257501427789849,0.0017738041286503331,-0.011168223420096181,0.009368938236680953,0.9859036686901339
2014-01-17,1,0.0021576257798648383,0.002226449636817257,-0.011168223420096181,0.008382827374542004,0.9882231964833803
2014-01-22,1,0.0020312646053799645,0.0020759573998357225,-0.011577259653906982,0.008382827374542004,0.9877235251504818
2014-01-24,1,0.0002377307051791732,0.00042215524708924047,-0.006434023921426936,0.00968951153913746,0.9898489156707537
2014-01-28,1,0.00018188064785500406,0.00036641897136709914,-0.004688868828845744,0.008382827374542004,0.9916248105596323
2014-01-30,1,1.3310926751335171e-05,0.0002200843671177939,-0.002507785748641213,0.008122037362091621,0.993218321739716
2014-02-03,-1,-0.00038308542239817516,-0.00019302103052754635,-0.0015959094608878547,0.008382827374542004,0.9929175877484616
2014-02-05,-1,-0.00018899325773028008,-2.3047858479198426e-05,-0.002507785748641213,0.008382827374542004,0.9926271848628285
2014-02-07,1,0.0008387292843115547,0.0008539904600397812,-0.002507785748641213,0.0077131954017913545,0.9935070140611522
2014-02-11,1,0.0010751731587409382,0.001119653276916042,-0.002507785748641213,0.007486063371412386,0.9935417515928494
2014-02-13,1,0.0015321256035304696,0.0016703102529408622,-0.004490834647721214,0.005396931415460718,0.9925995991833034
2014-02-18,1,0.0012665436420890674,0.001324176249970218,-0.004490834647721214,0.007486063371412386,0.9919465993622957
2014-02-20,1,0.0008952446057303865,0.0008990517007760835,-0.005799348403636552,0.007486063371412386,0.9915626692818057
2014-02-24,1,0.0008979324776129759,0.0009168693663055372,-0.009561665661836081,0.007103213881407686,0.9912929811984812
2014-02-26,1,0.0008111500348340901,0.0008418274981254783,-0.011511904759239702,0.007103213881407686,0.9905145345734278
2014-02-28,1,0.0005125125036556856,0.0005943885639852656,-0.0117793113136789,0.007103213881407686,0.9898400564371612
2014-03-04,-1,-0.00044347510351623153,-0.00018319489228122929,-0.011511904759239702,0.007103213881407686,0.990828959523527
2014-03-06,-1,-0.0002265820306019471,-3.565179584794889e-05,-0.01084401762060837,0.007103213881407686,0.9915070725554199
2014-03-10,1,0.00025142145254216405,0.00036599453767408285,-0.011910601564112902,0.002969730150720276,0.9890607956690753
2014-03-12,1,0.0003838502463589024,0.0004713376857110596,-0.011910601564112902,0.002969730150720276,0.9882144293026845
2014-03-14,0,-2.5422950923763548e-05,8.149066610826407e-05,-0.013604472318609968,0.002969730150720276,0.9868963809473651
2014-03-18,1,0.0006242156391184104,0.0006599389120153037,-0.013604472318609968,0.002969730150720276,0.9860762917511109
2014-03-20,1,0.00012699870558463493,0.00020169316860192292,-0.013604472318609968,0.009021611438571707,0.9856729721522476
2014-03-24,-1,-0.00010990565735676254,-5.773666744041421e-06,-0.013604472318609968,0.008036776561479563,0.9861652749459048
2014-03-26,-1,-0.0008544831603436061,-0.000667292609786711,-0.009314929768245363,0.008036776561479563,0.9868682299469619
2014-03-28,-1,-0.0018362399670749795,-0.0015014633057675326,-0.010214810878799772,0.013168662534316615,0.9846661623940983
2014-04-01,-1,-0.0016807663229379095,-0.0013502221069153528,-0.010214810878799772,0.007783701883621572,0.9853631295508026
2014-04-03,-1,-0.001807928951392904,-0.0014530686023129036,-0.011241124974252073,0.013168662534316615,0.9843603853501758
2014-04-07,-1,-0.003228995077830876,-0.0027293367814465444,-0.007076933022895459,0.013723706770858338,0.985599614060864
2014-04-09,-1,-0.002564927652481063,-0.002147182641241362,-0.007076933022895459,0.013723706770858338,0.9855215215275049
2014-04-11,-1,-0.0039517849243495004,-0.0033878956886275588,-0.0016892798352519118,0.013723706770858338,0.986852267003064
2014-04-15,-1,-0.0032382120231576575,-0.0027256449718506327,-0.005791414931505228,0.01103532289878596,0.9887182030464378
2014-04-17,-1,-0.0023498200394587087,-0.0019694019673156234,-0.0061335196299893285,0.010750134025202342,0.9894669877573095
2014-04-22,-1,-0.002081801186870044,-0.0017334949662379787,-0.008213779942072095,0.010750134025202342,0.989529366787936
2014-04-24,-1,-0.002020086331867482,-0.0016922225711050465,-0.008213779942072095,0.010750134025202342,0.9892556722931972
2014-04-28,-1,-0.003087091335201353,-0.0026408787462254674,-0.00463175287354539,0.011396790199642445,0.9905880337912057
2014-04-30,-1,-0.0031941052629978163,-0.0027162206123497743,-0.00463175287354539,0.011396790199642445,0.9908034872897378
2014-05-02,-1,-0.0030354480372632438,-0.002568393772716534,-0.004130399441754711,0.010750134025202342,0.9917493464800015
2014-05-06,-1,-0.003174216938590543,-0.002670860652039022,-0.004130399441754711,0.01049898822179436,0.9922710351169327
2014-05-08,-1,-0.002004226235273048,-0.0016663971767516014,-0.004130399441754711,0.004107352573632219,0.9934703196283338
2014-05-12,-1,-0.0015172012205821432,-0.0012673103379564515,-0.004130399441754711,0.0050158648442826075,0.993406141082442
2014-05-14,-1,-0.0011086654154368314,-0.0009605191794948621,-0.004733464018257489,0.0050158648442826075,0.9935535399543167
2014-05-16,-1,-0.0010355505141444378,-0.0009008658341387176,-0.004451359575441049,0.0038196765076278123,0.9944213643889093
2014-05-20,-1,-0.0010522504671513393,-0.0009350648246135437,-0.0036756096507788586,0.0038196765076278123,0.9947793869266367
2014-05-22,-1,-0.0007207369714729679,-0.0006496070593705772,-0.004309588718723062,0.0036906944834716,0.9951320803260845
2014-05-27,1,0.00023118069466598513,0.00030017307744145693,-0.0045441030497653245,0.002243186690862148,0.9958815152145095
2014-05-29,1,0.00017484798485424102,0.0002261370116775637,-0.0045441030497653245,0.002243186690862148,0.9959223872380233
2014-06-02,1,6.744405506366226e-05,0.00010793435618773695,-0.004309588718723062,0.0029522183982143607,0.9958732473914546
2014-06-04,-1,-0.0001447960927556336,-0.00012782160228922435,-0.004029450563348199,0.0036906944834716,0.9954330264521286
2014-06-06,-1,-0.00011758975134666326,-0.00011625038177334308,-0.004029450563348199,0.0035933215790882158,0.9953563473613685
2014-06-10,1,0.0003938336766287018,0.0004976479585107739,-0.004309588718723062,0.0031105896715445205,0.995353366340666
2014-06-12,1,0.0005976366373212752,0.0007804854953093799,-0.003137814274679714,0.004663764975650016,0.9955592527622236
2014-06-16,1,0.0005383484601178193,0.0007224814608271649,-0.0010757892685221467,0.00627739953844709,0.9949418663640386
2014-06-18,1,3.471380415059245e-05,7.659992369595309e-05,-0.003137814274679714,0.00627739953844709,0.9936750783005837
2014-06-20,-1,-0.00015095252541170572,-0.00013422841504313518,-0.0010757892685221467,0.0067885343001713346,0.9932705334158103
2014-06-24,-1,-0.00037262171510419885,-0.0003680008233580349,-0.0003229443157509436,0.007068046317100599,0.9930839299233981
2014-06-26,-1,-0.0007960254414222285,-0.0006924275456541918,-0.0009204457918007987,0.007164852580977467,0.9911590639356368
2014-06-30,-1,-0.00030531958084323025,-0.0002740837824450214,-0.0029914793713277706,0.007164852580977467,0.9915338816329037
2014-07-02,1,0.0006176818480740109,0.0007484051856610536,-0.003633397347699082,0.006820803054796957,0.9918440523853254
2014-07-07,1,0.0008959432493288691,0.0010683956388539057,-0.003633397347699082,0.004829203815816005,0.9920617524650608
2014-07-09,1,0.0009632792841542878,0.0011580323277679138,-0.003633397347699082,0.004703166348627164,0.9921786285984855
2014-07-11,1,0.0012159228131832206,0.001459324079901705,-0.005246808998908374,0.004707993018618497,0.9919586411194133
2014-07-15,1,0.0016320013238742418,0.0019127716960447884,-0.005246808998908374,0.003846723833212542,0.992648058934254
2014-07-17,1,0.0013500388833210552,0.0016125922431540589,-0.003633397347699082,0.005209875913173817,0.9936052305370037
2014-07-21,1,0.0015213701329593126,0.0018066976773710532,-0.0044297261416989635,0.005209875913173817,0.992828108935476
2014-07-23,1,0.0017630288308411082,0.0020800216801182894,-0.0044297261416989635,0.005209875913173817,0.993028043534118
2014-07-25,1,0.001069178662454309,0.0012972150744645066,-0.0027609290276425927,0.004132334455049259,0.994940896389023
2014-07-29,1,0.0008314665915756783,0.0010171656709166686,-0.0015175893508781462,0.004132334455049259,0.995123803668246
2014-07-31,1,0.0006614768012677711,0.0008384609661789649,-0.0015175893508781462,0.004132334455049259,0.995269103924082
2014-08-04,1,0.0008972422920322888,0.001111714765663947,-0.0034699928597763515,0.005209875913173817,0.994490420942462
2014-08-06,1,0.00039213135340317884,0.0005006562983061859,-0.002305575666277453,0.005209875913173817,0.9946208796737009
2014-08-08,1,0.0007658260524442374,0.0009660209773733221,-0.0015175893508781462,0.005209875913173817,0.9950690904725524
2014-08-12,1,0.0005015267624728149,0.0006356287034807806,-0.002305575666277453,0.005425265429972003,0.9941618923386852
2014-08-14,1,0.0007421701284414168,0.0009015757184754824,-0.004901551473571898,0.0038603651052303792,0.993933015397959
2014-08-18,1,0.0006486024507146582,0.000758903104275238,-0.0032919849005543737,0.0038603651052303792,0.9947424033468509
2014-08-20,1,0.0006418536212082558,0.0007249949799140105,-0.004901551473571898,0.003520561582529658,0.9944804881498464
2014-08-22,1,0.0007731314416119161,0.0008923412296973426,-0.007215505068394194,0.003520561582529658,0.9940060877236376
2014-08-26,1,0.0008656179386480235,0.0009990423296931442,-0.007215505068394194,0.004987265685445435,0.9933908382692971
2014-08-28,-1,-0.0002287690908632665,-0.0001483156795710439,-0.007215505068394194,0.006198680187599384,0.993016813753266
2014-09-02,1,5.828318627474003e-05,8.051904316695336e-05,-0.006705802819411443,0.006198680187599384,0.9931467712042413
2014-09-04,-1,-0.0008176051858594768,-0.0006306623915187015,-0.007215505068394194,0.006198680187599384,0.992674132608621
2014-09-08,-1,-0.00015457446648454293,-8.94848147800849e-05,-0.007215505068394194,0.006672585698795124,0.992330899906971
2014-09-10,1,0.00019820687567782044,0.00020157608839301968,-0.00833382213521431,0.006672585698795124,0.991285869273208
2014-09-12,1,3.2908490828925142e-06,2.0749608575643337e-05,-0.011505480568500374,0.006672585698795124,0.9902544884736286
2014-09-16,1,0.00031068703060512914,0.00032604610182253844,-0.011505480568500374,0.004625971897863257,0.9903331938635336
2014-09-18,-1,-0.0005052299450318152,-0.0003576544658676307,-0.012424068990317852,0.006672585698795124,0.9900203330408995
2014-09-22,-1,-0.0008859684370731605,-0.0006970256410194099,-0.012424068990317852,0.009589631711280949,0.9894520467282194
2014-09-24,-1,-0.0006769983214169944,-0.000524503006361376,-0.012424068990317852,0.011009939715750101,0.9883378550560992
2014-09-26,-1,-0.0009684228544888078,-0.0007913709406116394,-0.011449335695850715,0.012109081502229968,0.9885721062920073
2014-09-30,-1,-0.0002421287327335056,-0.00019141641834566475,-0.011449335695850715,0.013994206748952971,0.9884066381149447
2014-10-02,-1,-0.0006755707865399279,-0.0005816619127211771,-0.009895832176720997,0.014949545579782949,0.9839297842950447
2014-10-06,-1,-0.0004397286252800892,-0.0003655761242784765,-0.009895832176720997,0.015579958596856824,0.9834504211057946
2014-10-08,-1,-0.0003751493564962137,-0.0003080386403049314,-0.008092339086302264,0.015579958596856824,0.9836825923278463
2014-10-10,-1,-0.001410691628943864,-0.001211435974797598,-0.0034945761614225573,0.015579958596856824,0.9844282737579081
2014-10-14,-1,-0.0015809467093565752,-0.0013707285529321737,-0.002372186096607565,0.015579958596856824,0.9843855075536226
2014-10-16,-1,-0.0011300876436313619,-0.001003551218891788,-0.002372186096607565,0.015579958596856824,0.985135691379851
2014-10-20,-1,-0.00047973662452533686,-0.0004309845970893139,-0.0038221123473649514,0.015579958596856824,0.9859497352509867
2014-10-22,-1,-0.00016451867355187364,-0.00014620908047361777,-0.002372186096607565,0.010883264567266411,0.987792644665235
2014-10-24,0,-8.846217846108722e-06,3.731962292629853e-06,-0.0007255049085386114,0.009550544911850875,0.9879306747719468
2014-10-28,1,0.0004302535387282517,0.0004840760721676173,-0.0006897982248300087,0.009550544911850875,0.9883152385938466
2014-10-30,1,0.0025510229162669204,0.002892147155530514,-7.00633740627344e-05,0.00900635863337215,0.9939583088656709
2014-11-03,1,0.0027838976507682063,0.0031358960358436327,-0.00018628169548366515,0.007655436614459891,0.9945760304322998
2014-11-05,1,0.003345649417054203,0.0037573786195498945,-0.0006497843923963865,0.0072148929325823235,0.9954931237006489
2014-11-07,1,0.003547599821545837,0.0039876455510332,-0.0011515745081212931,0.0072148929325823235,0.995348009904141
2014-11-11,1,0.0030811775959136067,0.003442556942633318,-0.0004475168681592398,0.0072148929325823235,0.9955881608467406
2014-11-13,1,0.002925717880212876,0.0032503588322711835,-0.0004475168681592398,0.006387645064651771,0.9947535968157462
2014-11-17,1,0.0027288545049992683,0.003030873306722198,-0.00047095058538377946,0.006387645064651771,0.9944068726341878
2014-11-19,1,0.002750429268840715,0.003060972647791856,-0.00047095058538377946,0.007548750229901841,0.9928980612340557
2014-11-21,1,0.003216671200545161,0.003611815291626061,-0.0011515745081212931,0.007519596279540378,0.9925706379571448
2014-11-25,1,0.003482282665457201,0.0039198477179410544,-0.0011515745081212931,0.007519596279540378,0.9927461699242713
2014-11-28,1,0.0034235728438422666,0.003844449959820302,-0.003946250072870011,0.007519596279540378,0.9921538243570385
2014-12-02,1,0.0034911953681176677,0.003921305616178237,-0.005568196986512961,0.006702066395063646,0.9915537831516895
2014-12-04,1,0.0036997722756536063,0.004183025171460083,-0.00895265237063934,0.008580798062479796,0.9903170072514701
2014-12-08,1,0.0035542543215958252,0.003989093717199494,-0.00895265237063934,0.009127658139667224,0.9898133495022182
2014-12-10,1,0.0034258392293062983,0.0038466156215284627,-0.009018704828580597,0.009968863630410538,0.9890792583320104
2014-12-12,1,0.002994279760647987,0.003365709166747677,-0.007053503129703229,0.009968863630410538,0.9902708110824873
2014-12-16,1,0.002370475344017996,0.0026101080378104014,-0.009018704828580597,0.009968863630410538,0.9894986779709481
2014-12-18,1,0.003225822167223171,0.003562176355924142,-0.009018704828580597,0.007793564839016672,0.9907501666995973
2014-12-22,1,0.0028787985004414263,0.0031462740700532047,-0.007053503129703229,0.007245766454162649,0.9915731134298437
2014-12-24,1,0.0030814486314146234,0.0033771936972741903,-0.007331292109742217,0.003989654813739623,0.9912943509464542
2014-12-29,1,0.002580971978505597,0.0027942383794560986,-0.010837193311198257,0.003989654813739623,0.9899544256774255
2014-12-31,1,0.0021586068556252386,0.0023032562283213922,-0.010837193311198257,0.007245766454162649,0.9894148306962555
2015-01-05,1,0.001581850953504965,0.0016515108552705774,-0.007487688287276374,0.007245766454162649,0.9902575170029451
2015-01-07,1,0.0017750669040600714,0.0018756540348801724,-0.007487688287276374,0.008913044606820278,0.9891811852735749
2015-01-09,1,0.0016986750128090773,0.001794638838358615,-0.007874157834199199,0.007245766454162649,0.9892418372838697
2015-01-13,1,0.0016851278507006152,0.0017866253781913578,-0.007874157834199199,0.007245766454162649,0.9890504828847118
2015-01-15,1,0.0008245857288025295,0.0008422714268460017,-0.0052471297950142685,0.009916859844087555,0.9892755261466694
2015-01-20,1,0.0011077474370544183,0.0011245955104593774,-0.00654901888024992,0.009349639613084649,0.9894227688838467
2015-01-22,1,0.0008907544207289485,0.0009196626209756299,-0.00654901888024992,0.015226495824412286,0.9887314559619083
2015-01-26,1,0.0006166742370893599,0.0006825276461461349,-0.005158774818283418,0.015226495824412286,0.989031318588338
2015-01-28,-1,-0.0006902319396116565,-0.00046433033318685657,-0.0023404919800950213,0.015226495824412286,0.9906043720113823
2015-01-30,1,0.0002515276834091006,0.00036071883775993716,-0.003752222191614609,0.015226495824412286,0.9908092718068454
2015-02-03,1,0.0006958790423383921,0.0007491761872174778,-0.0058377990898368206,0.007705593845485425,0.9908142008134051
2015-02-05,1,0.0015148820947304242,0.00153761785706408,-0.006677842062557528,0.003182580287624707,0.9918747029968196
2015-02-09,1,0.0009398152887836429,0.0009722015949470513,-0.0058377990898368206,0.004809947590604678,0.9917465194794688
2015-02-11,1,0.0007487708202643753,0.0008142055449358232,-0.0058377990898368206,0.005379805029893783,0.9912365214882273
2015-02-13,1,0.0007257217188360077,0.0008134438813521706,-0.007073810659517156,0.005379805029893783,0.9908213197487806
2015-02-18,1,0.0005067056563824483,0.0006231182825882889,-0.00937100368500099,0.008788215483322112,0.9899866346017788
2015-02-20,1,0.0005002309467933194,0.0006394301455061304,-0.00937100368500099,0.008037179309474535,0.9901928508903041
2015-02-24,1,0.00033387307639725364,0.0004922540107273342,-0.00937100368500099,0.008037179309474535,0.9900878230678185
2015-02-26,0,-4.640459661606764e-05,0.0001884776739246208,-0.012258617624764144,0.008037179309474535,0.9892461882982012
2015-03-02,1,0.0003427291338335992,0.0005257182577633533,-0.012258617624764144,0.0033038997827574083,0.9907016277121174
2015-03-04,-1,-0.0002985680556746123,-4.139608145941904e-05,-0.007872003412191898,0.0033038997827574083,0.9913196462446667
2015-03-06,-1,-0.0015019831311140043,-0.0010574139957241248,-0.004079480452458763,0.0033038997827574083,0.9923640694316246
2015-03-10,-1,-0.0023035103375443856,-0.0017460601355947973,-0.003589123012506492,0.009036224405976068,0.9926576618280146
2015-03-12,-1,-0.002002172680470364,-0.0014861828549910165,-0.003589123012506492,0.0036184344121810057,0.9936657754105465
2015-03-16,-1,-0.0019085231974443006,-0.0014259665117497887,-0.003589123012506492,0.0017234789041162962,0.9947674096147794
2015-03-18,-1,-0.0019988281807004167,-0.00151809016563122,-0.002476607357015572,0.0017234789041162962,0.995882829240229
2015-03-20,-1,-0.0018246089674923637,-0.0013727674294353217,-0.003589123012506492,0.0017234789041162962,0.9954671863088391
2015-03-24,-1,-0.0019147337890427778,-0.001463706897523752,-0.002476607357015572,0.0024917597208724026,0.9930202859547745
2015-03-26,-1,-0.0016755770049903843,-0.0013202944249704465,-0.0035232430580709145,0.0024917597208724026,0.9937812854357362
2015-03-30,-1,-0.001337007413520686,-0.0010507932569133668,-0.0039216427355303575,0.0024917597208724026,0.9936097502973323
2015-04-01,-1,-0.0009966887463211428,-0.0008013942075680748,-0.004427584151537114,0.004459104808224339,0.9924406813292856
2015-04-06,-1,-0.0008305081678394723,-0.0006697844112050865,-0.004427584151537114,0.004459104808224339,0.992279648699284
2015-04-08,-1,-0.00043735870184315374,-0.0003038881856407406,-0.004526978504409422,0.0024917597208724026,0.9926863003076075
2015-04-10,-1,-0.0004963987770377719,-0.00036058538522614755,-0.004526978504409422,0.006479996580141249,0.9899389220791005
2015-04-14,-1,-0.0010680676543822053,-0.0008558781828179389,-0.004815369339498639,0.006479996580141249,0.990082345964917
2015-04-16,-1,-0.0010595678237158314,-0.0008471069249442136,-0.004815369339498639,0.00883612219634776,0.9892368693548457
2015-04-20,-1,-0.0012233476694988362,-0.0010190523466610708,-0.004815369339498639,0.00883612219634776,0.9896401827790949
2015-04-22,1,0.0006414373698669133,0.000676905702820637,-0.0050426103590825565,0.005891012983581722,0.9912875472857199
2015-04-24,1,0.00041563148350312856,0.0004254925403357229,-0.0054700382165362715,0.005891012983581722,0.9913053006778945
2015-04-28,1,0.00015991145056231442,0.00017092027020753034,-0.0055310837325255515,0.006769813078549188,0.9904482867788623
2015-04-30,-1,-0.00014569913325071285,-0.00010513847601419374,-0.0055310837325255515,0.005891012983581722,0.9911808693091783
2015-05-04,-1,-0.00024247666859499207,-0.00020259884785991494,-0.0055310837325255515,0.006200853267815406,0.991161247034195
2015-05-06,-1,-0.00030518146829148173,-0.00024951581720577154,-0.005942379604853379,0.006200853267815406,0.9911057453427139
2015-05-08,1,0.001124919116540975,0.0012148773787811844,-0.006226566631163607,0.0026602789237721467,0.9930519360495456
2015-05-12,1,0.0004889401131690911,0.0005088509008774229,-0.005942379604853379,0.004537191433540022,0.9924063299040109
2015-05-14,1,0.0016954719290316507,0.0019077565543031882,-0.005942379604853379,0.0037002254201243443,0.9930312944498113
2015-05-18,1,0.0016371791537032289,0.0018398003371695483,-0.006929709474535107,0.0037002254201243443,0.9927897365335371
2015-05-20,1,0.001698525935835428,0.0019308702928791522,-0.006929709474535107,0.004557215219365767,0.9924459127896683
2015-05-22,1,0.001432607367192501,0.0016128335788662992,-0.010252231807437506,0.00593261231370749,0.9920837238111002
2015-05-27,1,0.0011344439173320354,0.001251232306677705,-0.008573148674053148,0.005038097763270603,0.992931305862737
2015-05-29,1,0.0005548061730709623,0.0005719518379342024,-0.005355273385634464,0.005038097763270603,0.9933705720845293
2015-06-02,1,0.0007273676122137933,0.0007792066723993772,-0.008573148674053148,0.005038097763270603,0.9919557354312133
2015-06-04,1,0.0003081111120907526,0.00031545390928716134,-0.005355273385634464,0.005971590153171528,0.9918342358199504
2015-06-08,1,1.763836766044004e-05,5.898109132315902e-05,-0.0046230925355981636,0.005971590153171528,0.9920832570162467
2015-06-10,1,0.000309613519803059,0.0003645179593737628,-0.005870262021549271,0.00576676717254523,0.9924894121213763
2015-06-12,1,0.0003519225068223438,0.0003822113557044699,-0.005870262021549271,0.006423839132552449,0.9909624946989282
2015-06-16,1,0.00018295651311839512,0.00023077943854895867,-0.004110220859991761,0.006919373845891223,0.9913435151294788
2015-06-18,1,0.0002550163085133186,0.0003026592970035297,-0.0038984964217150713,0.0067973720758408105,0.9914965389217636
2015-06-22,-1,-0.000815200500059847,-0.0005750609435681001,-0.0038984964217150713,0.007976944331123436,0.9905388022193617
2015-06-24,-1,-0.0003929409363208229,-0.0002469026804528662,-0.0031639599841533006,0.007976944331123436,0.9910457388733019
2015-06-26,-1,-0.00010860228632252034,-4.06592998004017e-05,-0.0035771549007526005,0.008863306543449863,0.9885954434721385
2015-06-30,-1,-2.0979767834116676e-05,-1.979673925917262e-05,-0.0020830324724752714,0.012955083705966696,0.9889100961282071
2015-07-02,1,2.5398352705946348e-05,4.81605438694826e-05,-0.0035771549007526005,0.012955083705966696,0.9888156772200004
2015-07-07,-1,-0.0001477479000349317,-0.00010649815302398165,-0.003942364125335523,0.012955083705966696,0.988531608637789
2015-07-09,-1,-0.00020664402991540042,-0.00017548978463521875,-0.00453926019767336,0.012955083705966696,0.988416858764505
2015-07-13,1,0.0006207276424412015,0.0006912867362824243,-0.00453926019767336,0.008397730162935983,0.9897748281864306
2015-07-15,1,0.0009300291361591692,0.0010605275821347557,-0.0072875665913120875,0.008031724852784746,0.98951139090967
2015-07-17,1,0.0011587747649801727,0.0013156589268930711,-0.0072875665913120875,0.006421115815678592,0.9896965150978989
2015-07-21,1,0.0015454041957569764,0.0017582140113730242,-0.00453926019767336,0.005404286937502799,0.9913983297074535
2015-07-23,1,0.0016840689831952083,0.0019382291982291333,-0.0061860658925369585,0.005404286937502799,0.9912760859281382
2015-07-27,1,0.0027686626903927498,0.0031418939143976164,-0.008353224140643496,0.004976594126568364,0.9899112204805953
2015-07-29,1,0.0022056248418130557,0.0024791808271880803,-0.013640436560192624,0.004158910456265144,0.9874942663119342
2015-07-31,1,0.0018328295751917291,0.002033447658968328,-0.008377518347796112,0.00426778840352899,0.9872685976356516
2015-08-04,1,0.001984697072584682,0.0022225435347384675,-0.016674499754315304,0.0029006527732410147,0.9852863007754761
2015-08-06,1,0.001305407680322304,0.001449597471292495,-0.014287183863781734,0.006117938908249906,0.9857368879474856
2015-08-10,1,0.0012846702729593582,0.0014202923407280804,-0.016409984842053874,0.0063701256995577805,0.9843115942103745
2015-08-12,1,0.0010799154655802687,0.001194855302216307,-0.016409984842053874,0.009181550592085723,0.9840279890925738
2015-08-14,1,0.00115022263654122,0.0012666976959344858,-0.016409984842053874,0.009181550592085723,0.9834715344564671
2015-08-18,1,0.0008758761576667585,0.000929673296203348,-0.016409984842053874,0.009181550592085723,0.9829986124254929
2015-08-20,1,0.0006921802963453021,0.0007193952694977986,-0.01676950397467716,0.009181550592085723,0.9825133760714744
2015-08-24,-1,-0.0009752791824129109,-0.0007990463815909722,-0.013891606656104382,0.009979028951984738,0.9851360616966514
2015-08-26,1,5.358606408182643e-05,0.00011915447026980921,-0.01124587693051465,0.009669206512362447,0.9879433308469027
2015-08-28,1,0.0004924061820205756,0.0004940062257038895,-0.013891606656104382,0.009181550592085723,0.9864037194572484
2015-09-01,-1,-0.0007435277771302247,-0.0006027684025876348,-0.010155078125315431,0.010274191809617843,0.986923803080068
2015-09-03,-1,-0.0004990548166977681,-0.0003734807058284548,-0.010155078125315431,0.009777851085862682,0.9872939428194452
2015-09-08,-1,-0.0004955058059294363,-0.00036839489795180116,-0.008117739066183268,0.009777851085862682,0.9879431661500154
2015-09-10,-1,-0.000831830225165486,-0.0006485679373614208,-0.003429533805997559,0.011019622674374532,0.9876605778366111
2015-09-14,-1,-0.00028295048350756593,-0.00021697041015758664,-0.0008361132769914255,0.013785543345643025,0.9879265011847471
2015-09-16,-1,-0.00012482838916321088,-6.837146904392738e-05,-0.003429533805997559,0.013785543345643025,0.9881474539089542
2015-09-18,-1,-0.0006348444670163235,-0.0005080451470517216,-0.00041914541216835646,0.014480005392571809,0.9875673968090337
2015-09-22,-1,-0.0006466472698825228,-0.0005088352895942119,-0.00041914541216835646,0.014080166150703363,0.9875405322595465
2015-09-24,-1,-0.0007870053123057679,-0.0006240787312863412,-0.00041914541216835646,0.014080166150703363,0.9873172460781204
2015-09-28,-1,-0.0016984992885988406,-0.0014279649094422419,0.0008452714511343985,0.014642842865589981,0.9883761315122352
2015-09-30,-1,-0.0002719373794404957,-0.0002242565927824421,-0.00041914541216835646,0.013839822503315748,0.9896112643157166
2015-10-02,-1,-0.00014388484291082048,-0.00010077888578790304,-0.005533886472874113,0.013839822503315748,0.9896027560779995
2015-10-06,1,0.0003640314350988311,0.00040031844511826135,-0.008637069011937146,0.013839822503315748,0.9876765504581935
2015-10-08,1,0.0008155760429921831,0.0009091277369603922,-0.008637069011937146,0.013182781660471918,0.9881748469345191
2015-10-12,1,0.0010236573928572201,0.0011395051633720154,-0.009067387353717975,0.012798041865828155,0.9879849124409896
2015-10-14,1,0.0007923876653567424,0.0008724412930603844,-0.008585543048348142,0.013370340565434123,0.9874769242821677
2015-10-16,1,0.0011784542379906604,0.0013052081830371488,-0.009067387353717975,0.012798041865828155,0.9878144675793631
2015-10-20,1,0.0010804858957557443,0.0011778063402687836,-0.008585543048348142,0.011891437778575662,0.9883595323376543
2015-10-22,1,0.0011370181345012245,0.0012443618302365672,-0.006936435462013028,0.012311572601281705,0.9883069316415171
2015-10-26,1,0.0013792304459141033,0.0015012693876309841,-0.006936435462013028,0.0104891144046848,0.9890987246356938
2015-10-28,1,0.0013800937923541762,0.0014897563848667245,-0.0050319970931825,0.006860936448648023,0.9898791888530422
2015-10-30,1,0.0012428616916500218,0.0013659133488007809,-0.004604514304747441,0.006860936448648023,0.9901907445159673
2015-11-03,1,0.0012320117724574431,0.001346271340716785,-0.004604514304747441,0.006860936448648023,0.9923415757560308
2015-11-05,1,0.0014356144845764037,0.0015680274651796054,-0.007079874909273303,0.005167994298716696,0.9911980266735262
2015-11-09,1,0.0011584353033941902,0.001257904120991626,-0.006897703735628521,0.005167994298716696,0.9912423489600859
2015-11-11,1,0.0013111945885195377,0.0014195048836122123,-0.00971557957401337,0.0031911363620805225,0.9913856121452349
2015-11-13,1,0.0009300987151604661,0.0009804017656607328,-0.00971557957401337,0.0051358997244790846,0.9905284172899144
2015-11-17,1,0.0010280881512680583,0.0010840552170572751,-0.00971557957401337,0.010336926959823427,0.9892572253952236
2015-11-19,1,0.0010273870967148382,0.0010473423690814916,-0.010650910599727597,0.0051358997244790846,0.9881519757113647
2015-11-23,1,0.0010899999220535443,0.001133420557694007,-0.010650910599727597,0.010273505569696575,0.9877079973162666
2015-11-25,1,0.0007400975382038005,0.0007535605129766006,-0.010650910599727597,0.011200718003333441,0.987206891054666
2015-11-30,1,0.0003016124893671265,0.0003846703265689374,-0.010650910599727597,0.011200718003333441,0.9873636312796621
2015-12-02,1,0.000694617841023189,0.0006968460065201367,-0.010643395800454637,0.010273505569696575,0.9873481370388455
2015-12-04,1,0.0010489746893914823,0.0011041882428248879,-0.011805571016137422,0.008990730196773936,0.9876217731583464
2015-12-08,1,0.0007524723037157478,0.0007808524096147508,-0.014750458350483105,0.008990730196773936,0.9868201525827047
2015-12-10,1,0.0006033047758045816,0.0006321732744643759,-0.013496140625810352,0.010273505569696575,0.9864081322186297
2015-12-14,1,0.0001741020971427219,0.00020606849157681566,-0.013496140625810352,0.011193895038681642,0.9865141876791776
2015-12-16,1,0.0015222190640418044,0.0016958563476030762,-0.015903584751744262,0.008888332944826452,0.9865396328630934
2015-12-18,1,0.0007344375088921735,0.0008449757837279044,-0.012527086778960687,0.008888332944826452,0.9879860188612047
2015-12-22,1,0.0009327184273227537,0.0010561149589312676,-0.012527086778960687,0.010022912239329171,0.9872643181398728
2015-12-24,1,0.0011551819413518308,0.001305320426701252,-0.013134721685993042,0.008888332944826452,0.9874455800429381
2015-12-29,1,0.0010927828122484062,0.0012009448265171163,-0.015036591645277923,0.008041285699519113,0.9860524238346647
2015-12-31,1,0.0007223890537249841,0.0007940239674302082,-0.015036591645277923,0.010022912239329171,0.9835647974544169
2016-01-05,1,0.00012023622596965651,0.00014281077222839063,-0.013277361055693977,0.011635378268370265,0.983897181057557
2016-01-07,-1,-0.0006452880255820909,-0.0005446182790012621,-0.013277361055693977,0.011635378268370265,0.9838010282300714
2016-01-11,-1,-0.0005907587655154616,-0.0004987955377528726,-0.01567207750734028,0.010022912239329171,0.9821271784077166
2016-01-13,-1,-0.0010146573460949634,-0.0008639904528017636,-0.015691416148983006,0.010294600192592636,0.9814117644723408
2016-01-15,-1,-0.0030331608116331886,-0.002531145722445469,-0.013277361055693977,0.012675691634153129,0.9814643473398366
2016-01-20,-1,-0.002860169384926323,-0.0024309322643367246,-0.013277361055693977,0.013147990050000375,0.9807867084050893
2016-01-22,-1,-0.001615020122864959,-0.00136520913613914,-0.013277361055693977,0.013147990050000375,0.9809484287193346
2016-01-26,-1,-0.002940087533310108,-0.0024602341329909502,-0.013255302102294227,0.013147990050000375,0.9811395196706926
2016-01-28,-1,-0.003775254006818353,-0.003226010323471655,-0.011339614479654085,0.014954422838878084,0.9812509322010304
2016-02-01,-1,-0.0015263460597257287,-0.0012368579956221976,-0.011339614479654085,0.014954422838878084,0.9832538075149738
2016-02-03,-1,-0.0016633289342806118,-0.0013498163695348038,-0.009800234823057042,0.014750972736747919,0.9842194096884251
2016-02-05,-1,-0.003042646456245077,-0.002561828673114208,-0.008269348868777926,0.014750972736747919,0.9847451830967932
2016-02-09,-1,-0.004241682202352779,-0.003642767083078895,-0.008269348868777926,0.014750972736747919,0.9868348081920538
2016-02-11,-1,-0.0045420157166334366,-0.003879635975026695,-0.0067236222808778594,0.014750972736747919,0.9880286730369993
2016-02-16,-1,-0.00316589831609805,-0.0026735494557337935,-0.0067236222808778594,0.007676314958076455,0.9896224894009209
2016-02-18,-1,-0.003161992873102438,-0.002667695264690771,-0.005563784865746303,0.007457584220870273,0.9896788073076213
2016-02-22,-1,-0.0032089947134389105,-0.00263758382572348,-0.005563784865746303,0.006985237337911895,0.9905430723784558
2016-02-24,-1,-0.003079559039621655,-0.002582003941089361,-0.005563784865746303,0.009222680421230423,0.9898669766362611
2016-02-26,-1,-0.002415056004165066,-0.0020173406532778175,-0.0048184048069312615,0.006985237337911895,0.9909282179351354
2016-03-01,-1,-0.0011786701880980221,-0.000955394517237642,-0.004728607481152501,0.009222680421230423,0.9909748861562826
2016-03-03,-1,-0.0010404439062891779,-0.0008729758918189588,-0.0024426619125749198,0.01123501486219302,0.9904583104015329
2016-03-07,-1,-0.0016629513750783583,-0.0014463994085028432,-0.0024426619125749198,0.01123501486219302,0.9908456794532611
2016-03-09,-1,-0.002426848590727358,-0.002105300007504098,-0.0024426619125749198,0.013394048657123956,0.9903227794700977
2016-03-11,-1,-0.001427920798820466,-0.001263676649042751,-0.0021386751468298547,0.01123501486219302,0.9915499926817061
2016-03-15,-1,-0.0011731719708096288,-0.0010466090548358134,-0.001279750337649474,0.013394048657123956,0.9907097705855198
2016-03-17,-1,-0.0005084760036958605,-0.0004635980998524248,-0.0027964862372753772,0.013394048657123956,0.9913059567613627
2016-03-21,1,0.00019523747485635393,0.0002812115236861458,-0.0033109236844688812,0.014673980976753575,0.9906784547916523
2016-03-23,1,0.0004480178795450319,0.0005860975281345182,-0.0033109236844688812,0.014673980976753575,0.9914766674495737
2016-03-28,1,0.0002800286726874141,0.0003653051713700231,-0.005340977702174761,0.014673980976753575,0.9899521519316987
2016-03-30,1,0.0014144704782579121,0.0016585579208359888,-0.005340977702174761,0.008082442319207508,0.9915366033677906
2016-04-01,1,0.0019989619868578477,0.002351426990504199,-0.008189948770403226,0.006294876049199031,0.9913959025201328
2016-04-05,1,0.0014968535104137378,0.0017542801641655156,-0.008189948770403226,0.008082442319207508,0.990470960231088
2016-04-07,1,0.0019213097236189245,0.0022591320662922283,-0.006396769400080444,0.006294876049199031,0.9914379336287478
2016-04-11,1,0.0017958661973232915,0.0020935031093108486,-0.006396769400080444,0.006769570417636692,0.991479209090806
2016-04-13,1,0.002596423739196421,0.0030150841489826026,-0.00951100020755698,0.005351613057953262,0.9907448317457385
2016-04-15,1,0.0029422394253675226,0.003434039270565692,-0.012598293736493096,0.005351613057953262,0.9902468589262365
2016-04-19,1,0.0031467218748403377,0.0036637464116085643,-0.01313875017782018,0.005351613057953262,0.9902431021659349
2016-04-21,1,0.0030420928809753367,0.0035328813401436024,-0.01313875017782018,0.006733150936447442,0.9899448139986984
2016-04-25,1,0.0020018451481316505,0.0023427736642207438,-0.008572930044909395,0.007808017060688831,0.9909433531168732
2016-04-27,1,0.0022494404951636186,0.0026246553676539707,-0.008572930044909395,0.008819749546822245,0.9895624564423513
2016-04-29,1,0.0019606495478014067,0.002327055669736835,-0.0062176680526212415,0.008834799226198401,0.9902689838135245
2016-05-03,1,0.0017170493416809962,0.0020236630105545947,-0.0062176680526212415,0.008339427056185553,0.9911634409042622
2016-05-05,1,0.001599659634391039,0.0018703275403838388,-0.0062176680526212415,0.008569555217319284,0.9909342177016555
2016-05-09,1,0.0016424874073405341,0.0018908658591206304,-0.0062176680526212415,0.008569555217319284,0.990966138779979
2016-05-11,1,0.0018933671855220205,0.00224025555640408,-0.005062978311619159,0.008569555217319284,0.9919369094872406
2016-05-13,1,0.0010630956130821116,0.0012240382824502346,-0.0062176680526212415,0.008569555217319284,0.9910270764241609
2016-05-17,1,0.0012419780590680093,0.001449576070536127,-0.005298886058511282,0.008339427056185553,0.9919329278323608
2016-05-19,1,0.0014583516775493281,0.0017145352194123478,-0.005298886058511282,0.007717826612557404,0.9917264400218769
2016-05-23,1,0.0017441291888175524,0.0020579605945566515,-0.004855113348087674,0.0052859214121145,0.9922920187861132
2016-05-25,1,0.0020432540369493945,0.0023592822543789093,-0.00607787286242055,0.0052859214121145,0.992234632094466
2016-05-27,1,0.0018348053461666384,0.002093235564400945,-0.011081658067017854,0.0037967429217681875,0.989373463140545
2016-06-01,1,0.001170113618891232,0.0012886993837974065,-0.011081658067017854,0.007932905094314978,0.987944885728453
2016-06-03,1,0.0013655088676021634,0.0015094464526985481,-0.014307524841488548,0.0052859214121145,0.9865568908663566
2016-06-07,1,0.0013236097215452906,0.001443752016509819,-0.014307524841488548,0.004271249425501836,0.98635740842796
2016-06-09,1,0.0012805823234491058,0.0013610357307786264,-0.014307524841488548,0.004928573055765358,0.9857961566967901
2016-06-13,0,-7.704068759468129e-05,3.669043834513274e-05,-0.008713293079227255,0.007693619351199197,0.9868593791859367
2016-06-15,1,0.0002331692354099034,0.0002735518900526816,-0.008713293079227255,0.009720503401464886,0.9867900131606278
2016-06-17,-1,-0.0004894819493196961,-0.00034636718905718266,-0.0022359613295246062,0.009720503401464886,0.9874618405989831
2016-06-21,-1,-0.001076032396332733,-0.0008111760005709017,-0.0022359613295246062,0.009720503401464886,0.9868165345962551
2016-06-23,1,0.0004462169321125016,0.0004632751830788779,-0.001989253640819678,0.009720503401464886,0.9878467892124002
2016-06-27,-1,-0.001374633464020141,-0.0011761095311097053,-0.001618787162181121,0.009720503401464886,0.9893997308983307
2016-06-29,-1,-0.0006930294392967949,-0.0005265247842080149,-0.001618787162181121,0.008198674613812258,0.9915249428581404
2016-07-01,-1,-0.0019866611303236614,-0.0016274945026069259,-0.001618787162181121,0.008198674613812258,0.9920231957954415
2016-07-06,-1,-0.002529072656663092,-0.002085043954019096,3.118625482114476e-05,0.008198674613812258,0.9918024854028321
2016-07-08,-1,-0.0010620905836586031,-0.0008402953179508925,3.118625482114476e-05,0.008329063730397289,0.9932011126103534
2016-07-12,-1,-0.0007215971126582611,-0.0005400358062123478,-0.000786360069903422,0.008173536460152727,0.9939490554774414
2016-07-14,-1,-0.0001558876024041749,-7.130110234385498e-05,-0.0029647626218070973,0.006174107584624654,0.9940955863674923
2016-07-18,-1,-0.00043029280311874147,-0.0002915992049253361,-0.0029647626218070973,0.008173536460152727,0.9935587005602713
2016-07-20,1,4.3890470485300474e-05,0.00011091521381933415,-0.0029647626218070973,0.0062175706234863315,0.9942295590450952
2016-07-22,1,0.0005190851191864811,0.0005408269149154319,-0.0029647626218070973,0.005500358995922864,0.9948382187226598
2016-07-26,-1,-0.00011106902173952965,-4.281774880794155e-05,-0.0015288733321438205,0.005974559059488847,0.9951378256559983
2016-07-28,-1,-0.00033534566267125616,-0.00020969369758867102,-0.002580019356487096,0.005500358995922864,0.9952475690400833
2016-08-01,-1,-0.0009633385176156852,-0.0007409747656033045,-0.0015288733321438205,0.005500358995922864,0.9955987157996142
2016-08-03,-1,-0.000721073825741827,-0.0005390091643117533,-0.002580019356487096,0.004173160867223788,0.9956490366762971
2016-08-05,-1,-0.00029867004846351734,-0.00016835025484262422,-0.002580019356487096,0.004028729759272597,0.9959264603563172
2016-08-09,-1,-0.0001552597536854148,-6.0657497402295715e-05,-0.0017380111955772456,0.005757439166182608,0.9953592354240703
2016-08-11,-1,-8.199652670046645e-05,-3.314869640888709e-06,-0.0032164728660115634,0.005324145842329037,0.9947465823260383
2016-08-15,1,0.00011653524585084724,0.00017274945025155114,-0.0032642721724479105,0.005324145842329037,0.9937437816777116
2016-08-17,1,5.379295539021715e-05,0.00011711768804627487,-0.003715888105079705,0.006401752680401325,0.9932589711036035
2016-08-19,1,0.0003821535597356997,0.0004018973714115011,-0.0032642721724479105,0.006401752680401325,0.99350482725319
2016-08-23,1,0.0005383522097343045,0.0005915890023549407,-0.0032642721724479105,0.006401752680401325,0.9936150993522576
2016-08-25,1,0.0003027832594143016,0.0003132913632701828,-0.0032642721724479105,0.006401752680401325,0.9932978016956493
2016-08-29,1,0.0005207199165828078,0.0005688662216650302,-0.003715888105079705,0.006401752680401325,0.9930231162115527
2016-08-31,1,0.0005335959664503676,0.0005863217318632038,-0.0058745243044196,0.006998280135900446,0.9922658238432341
2016-09-02,1,0.0010542379830035607,0.0012061534115884284,-0.0058745243044196,0.006998280135900446,0.9924939208687229
2016-09-07,1,0.0014023276757415305,0.0016053136001215455,-0.0058745243044196,0.006659452519992177,0.9927055745436543
2016-09-09,1,0.0009716893593567073,0.0011273834873090523,-0.0051030143775236325,0.006659452519992177,0.993537695983678
2016-09-13,1,0.0010747775414035312,0.001243295762640431,-0.0051030143775236325,0.0056162809593684904,0.9943985862873329
2016-09-15,1,0.0007795303657988272,0.000866815870082869,-0.004904569952331997,0.004549036930618022,0.9945583571671408
2016-09-19,1,0.000966872742592989,0.0010878577876453363,-0.004904569952331997,0.0049797930088681915,0.9942746325605244
2016-09-21,1,0.0008836020209492831,0.0009665775214979744,-0.00605327902355903,0.0049797930088681915,0.9936285016471794
2016-09-23,1,0.0006899676770122417,0.0007432185034774551,-0.004904569952331997,0.0049797930088681915,0.993836162171775
2016-09-27,1,0.0005616518692517932,0.0005994989886752317,-0.004904569952331997,0.007186798056083696,0.9933213221202905
2016-09-29,1,0.0005934849940707031,0.000648485043437062,-0.00396261674906323,0.003942947212552306,0.9941665991444227
2016-10-03,1,0.000659475405039252,0.0007067641111513711,-0.00396261674906323,0.0035608867554780274,0.994367392287841
2016-10-05,1,0.0006872131070737246,0.000726817554148527,-0.00605327902355903,0.0030536478120277446,0.9935760266221756
2016-10-07,1,0.0004912851087658862,0.0005033233319190211,-0.005199651358099894,0.0030536478120277446,0.99371091492921
2016-10-11,1,0.00020560087505487463,0.00022810536557766922,-0.00396261674906323,0.003867671441869471,0.9930081561920102
2016-10-13,1,0.00016753508329086153,0.00019110502968354648,-0.0045422407099841725,0.004378789048441739,0.9923375400790511
2016-10-17,1,0.0005124779758167726,0.0005624971638197123,-0.007900533342675436,0.003832519245282431,0.99072999116129
2016-10-19,1,0.0008497146350035702,0.0009521818168232328,-0.005504250811796887,0.003832519245282431,0.9908247221485369
2016-10-21,1,0.0006115253943127575,0.0006726144099548899,-0.005393487564606776,0.004378789048441739,0.9903847451113845
2016-10-25,1,0.0006079116451713983,0.0006811030932592368,-0.005393487564606776,0.004378789048441739,0.989967356484908
2016-10-27,1,0.0006788911311613295,0.00077339462419299,-0.006074602337435625,0.0051226336465908,0.9896899116469138
2016-10-31,1,0.00095124794274381,0.0010938470926781974,-0.01127541918465917,0.0051226336465908,0.9892797701735302
2016-11-02,-1,-0.00019564293530119602,-0.000138568220339089,-0.013942331150969926,0.0051226336465908,0.9880638864105097
2016-11-04,-1,-0.00036596008308604583,-0.00028267905591579384,-0.013942331150969926,0.007969522313043745,0.9870352481934513
2016-11-08,1,0.00025201301474531666,0.00028796130281322387,-0.013942331150969926,0.007969522313043745,0.9870936840530397
2016-11-10,-1,-0.0001162471496786256,-3.917366668302713e-05,-0.006653873875031373,0.007969522313043745,0.9880127028595638
2016-11-14,-1,-0.0014525119273688955,-0.001230492934708135,-0.0053996931495173695,0.009379042991477977,0.9892559199275567
2016-11-16,-1,-0.002363970733676057,-0.00190363360068095,-0.0053996931495173695,0.007507637897899367,0.9901310161134764
2016-11-18,-1,-0.0010205200772888568,-0.0007998738555390515,-0.009341107621954564,0.0052663629724508405,0.9901537770799732
2016-11-22,-1,-0.0022688179129310673,-0.0018430768100620594,-0.0053996931495173695,0.004052448392387977,0.991513840078296
2016-11-25,-1,-0.0024171166069475386,-0.0019587338754297433,-0.004414839620110049,0.0034579786080144595,0.9917762656494055
2016-11-29,-1,-0.0022292824940005214,-0.001853025742771202,-0.0031012398630354955,0.0034579786080144595,0.9921356318080642
2016-12-01,-1,-0.003860411348555328,-0.003320948804902636,-0.0028735235670850935,0.0034579786080144595,0.9932890524448765
2016-12-05,-1,-0.002565580311117136,-0.0021957912429122206,-0.0028735235670850935,0.0036657907236683275,0.9938385716476831
2016-12-07,-1,-0.0014718493698374874,-0.0012334588077629607,-0.0028735235670850935,0.00555094351010623,0.9941821952689466
2016-12-09,-1,-0.0012472662128126095,-0.0010608434266378823,-0.0033825282354022776,0.00555094351010623,0.993861561308375
2016-12-13,-1,-0.0010651710541654032,-0.0009131100777319154,-0.0033825282354022776,0.0050135102458076,0.9941596281467573
2016-12-15,-1,-0.001343457240859606,-0.00112386411370283,-0.0033825282354022776,0.004003416230126348,0.9942815203537128
2016-12-19,-1,-0.001860606774154886,-0.001597913396589292,-0.0028735235670850935,0.0045523220757249724,0.9944891185761564
2016-12-21,-1,-0.0021311615809653382,-0.0018136669716954472,-0.002611319114260888,0.0045523220757249724,0.9942859263846201
2016-12-23,-1,-0.0020034911426040428,-0.0017116847537927782,-0.001093068883613135,0.00808149969537056,0.9933863106858308
2016-12-28,-1,-0.001458250511424419,-0.0012664568065386594,-0.0028328937099847485,0.00808149969537056,0.9931276617395645
2016-12-30,-1,-0.0016059384287942051,-0.0013956483494596782,-0.0031576551833376446,0.00808149969537056,0.9927532310141293
2017-01-04,-1,-0.00045868336549004154,-0.00038418156250715895,-0.003762464783874534,0.006111569245253688,0.9942630500574987
2017-01-06,1,0.0006084234578453675,0.0006863892165788257,-0.003762464783874534,0.0045523220757249724,0.9931567591206152
2017-01-10,1,0.00023801998719601145,0.0002647575807858542,-0.0029943005970752097,0.0045523220757249724,0.9932461324070312
2017-01-12,1,0.00016809848411890717,0.00017615976498313747,-0.002569542128371975,0.004485393718701957,0.9933414445571227
2017-01-17,1,0.00018363762530206908,0.00020125392311005474,-0.0019997167336124485,0.005890602517180046,0.9929990111158841
2017-01-19,1,0.0002452484331419042,0.00025902955428196313,-0.0019997167336124485,0.006306571714455979,0.9928041707954001
2017-01-23,1,0.0004968663702045891,0.000555997723290691,-0.0019997167336124485,0.006306571714455979,0.9928201108189075
2017-01-25,1,0.0011296032207728515,0.00127185211342959,-0.0019997167336124485,0.00538432094078886,0.9935135182496413
2017-01-27,1,0.0012735239850642974,0.0014591900894874313,-0.0019997167336124485,0.004872230521598405,0.9938421800784968
2017-01-31,1,0.0011141429076176033,0.0013064735258045282,-0.0015383023415389088,0.00538432094078886,0.9939836550419997
2017-02-02,1,0.000575633227590859,0.0006533350467413418,-0.00139486724478599,0.00538432094078886,0.9938290937340021
2017-02-06,1,0.001973896182633213,0.00224824576841294,-0.0008525482420454885,0.004872230521598405,0.9964395760083626
2017-02-08,1,0.0016876004275454145,0.001924982108741261,-0.0007920481872845407,0.004872230521598405,0.9968766725848208
2017-02-10,1,0.0020306582838001386,0.00232300454637558,-0.0007920481872845407,0.004872230521598405,0.9968212145407596
2017-02-14,1,0.0024566095176667595,0.002819383671334349,-0.001183321488203088,0.004258168874180504,0.9966280049636232
2017-02-16,1,0.002454371228874112,0.0027993913337961826,-0.0007920481872845407,0.004157510529354689,0.9969986321834423
2017-02-21,1,0.002490589593540523,0.0028292589252541583,-0.002239267895170825,0.0032355901231932815,0.995742193343707
2017-02-23,1,0.002523139520420067,0.0028583488754421234,-0.0020577677308879815,0.0039136674716531246,0.9958397654887063
2017-02-27,1,0.0025788358457877617,0.0029403802053032915,-0.0015148526111124654,0.0039136674716531246,0.9959034221038843
2017-03-01,1,0.0029576132079616266,0.0033778203026515984,-0.0015148526111124654,0.0037455418675358433,0.9962426741912147
2017-03-03,1,0.0027272237210914183,0.0031036518975358423,-0.001656196683038805,0.0037455418675358433,0.996261744214514
2017-03-07,1,0.002572502741262522,0.0029064276289491302,-0.0021024138882699437,0.0039136674716531246,0.9958507110126982
2017-03-09,1,0.0024729389751433004,0.0027865325845917157,-0.0021024138882699437,0.0039136674716531246,0.9960085557190722
2017-03-13,1,0.0027739923721669868,0.0031304154937641785,-0.0030003582457287822,0.0030403940665056834,0.9957551579913497
2017-03-15,1,0.0027373654437427733,0.0031006214598943357,-0.0021077239181197895,0.0023698882122671727,0.9958765302587886
2017-03-17,1,0.002669714414427046,0.003010143070716063,-0.0021077239181197895,0.0030403940665056834,0.9956226350487193
2017-03-21,1,0.0017757898922741236,0.0019882328333285194,-0.001656196683038805,0.0030403940665056834,0.9971204580085817
2017-03-23,1,0.0020175671229386155,0.002255412207437045,-0.001656196683038805,0.002310909254445545,0.9965004731974751
2017-03-27,1,0.002078559733073283,0.002335061556104012,-0.0010612411698659784,0.002819643566862831,0.9965002267358734
2017-03-29,1,0.0016639623464448743,0.0018175449340115065,-0.00190800647960206,0.002819643566862831,0.9962023664755154
2017-03-31,1,0.0014190940520584807,0.0015306424847661216,-0.002033988747353381,0.002819643566862831,0.9962500954145292
2017-04-04,1,0.001891808688682265,0.002121481021916608,-0.0012887770941756378,0.002819643566862831,0.9959940264240664
2017-04-06,1,0.001677341062648177,0.0018527548910616096,-0.002033988747353381,0.002314603244405487,0.9957660318279937
2017-04-10,1,0.0006843031654411438,0.0007109898786391172,-0.0018628294181563874,0.002314603244405487,0.9960759407404088
2017-04-12,1,0.0008593129960473208,0.0008879218105410063,-0.0016810246975726513,0.002745724862446534,0.9960133724877664
2017-04-17,1,0.001266572173474638,0.0013616287011154803,-0.0016810246975726513,0.0034710436723979846,0.9959834558031951
2017-04-19,1,0.000974167366986463,0.0010102422700391158,-0.001983501656057863,0.0034710436723979846,0.9952687064093553
2017-04-21,1,0.0013546881462029071,0.0014389987092214705,-0.001983501656057863,0.0034710436723979846,0.9955425116109361
2017-04-25,1,0.0013545334971290241,0.0014111351137639826,-0.001983501656057863,0.0055175894558586675,0.9953154595050572
2017-04-27,1,0.00013495672705295082,0.0002899182303633412,-0.0012169561670264996,0.006130883691314869,0.9952042411885793
2017-05-01,1,0.0002736285955055828,0.0003779545602329296,-0.0012169561670264996,0.006130883691314869,0.9952095585388538
2017-05-03,1,0.000813062634134726,0.0008145626919164207,-0.0010500925735973585,0.0055175894558586675,0.9957003845253444
2017-05-05,1,0.0005683409963551152,0.0006030578482845568,-0.0006232278623131046,0.006130883691314869,0.9955132451256788
2017-05-09,1,0.0004274677603577831,0.0004811335254924808,-0.0006232278623131046,0.006130883691314869,0.9950634517807919
2017-05-11,1,0.0003901688949837985,0.00044791919423695466,-0.0006232278623131046,0.006130883691314869,0.9944390282857666
2017-05-15,1,0.0003047128488723644,0.00040023301070683234,-0.0016168659995876274,0.006386181462602723,0.9936204871923794
2017-05-17,-1,-0.00024391032171998015,-7.886311238056675e-05,-0.001381981364056038,0.006386181462602723,0.9935703648926959
2017-05-19,-1,-0.00017194178390319518,-1.3438181272942514e-05,-0.0009732816262041069,0.006066739447628292,0.9936944354543757
2017-05-23,1,9.59035495912694e-05,0.0002243267582273048,-0.004001192220498008,0.004466214913872555,0.9942112417376194
2017-05-25,1,0.0002079370122574217,0.0003333987835379704,-0.004804238666157196,0.004466214913872555,0.9936613437833097
2017-05-30,1,0.0004005352403970452,0.0004786065719642734,-0.004804238666157196,0.004466214913872555,0.9934770971998667
2017-06-01,1,0.0008218776722246487,0.0008258071231364525,-0.00664848767449954,0.004766103416428993,0.9920931352692066
2017-06-05,1,0.0008412054561756679,0.0008539519045558397,-0.007051561717676166,0.002676076505926443,0.9919603659305843
2017-06-07,1,0.0005953165387329357,0.000640480679676161,-0.007104731188803779,0.003539092488119973,0.9918392288865875
2017-06-09,1,1.9938617517559708e-05,0.00013722500852825475,-0.006375144576392751,0.0070988957802202626,0.9918697285269568
2017-06-13,1,0.0001364979515239521,0.00023792513446742086,-0.004999098678031746,0.0070988957802202626,0.992690658581365
2017-06-15,-1,-0.00015983849961487354,-2.6799226606775593e-05,-0.004390342704834264,0.007406324563052404,0.9927846138561214
2017-06-19,1,0.00022867247676895802,0.00029172969310203064,-0.004390342704834264,0.007826749290602585,0.9926501275823263
2017-06-21,1,3.5473116732609585e-05,0.00012847061782092885,-0.003971164171447362,0.007826749290602585,0.9925538082595
2017-06-23,1,2.4791857380573954e-05,0.00013916938333898314,-0.0034620976190513062,0.007826749290602585,0.99260550678102
2017-06-27,-1,-0.0003781491456454479,-0.00020299380789304218,-0.002817984384143712,0.008203014624430852,0.9923096223064237
2017-06-29,1,0.00011570663685613557,0.00020927591533216795,-0.003894060185233377,0.007826749290602585,0.9931278784538328
2017-07-03,-1,-0.0006179835280360224,-0.00041981340192418816,-0.0016925223943893408,0.008203014624430852,0.992711594620692
2017-07-06,-1,-0.00054698600229524,-0.0003727057739548768,-0.0016925223943893408,0.008203014624430852,0.9929285715383748
2017-07-10,1,0.00031778245023526754,0.0003736288330521845,-0.0016925223943893408,0.007826749290602585,0.9936395103877173
2017-07-12,1,0.0007680931146990438,0.0007731727826074637,-0.0026366736445485126,0.007734608347709131,0.9939007629554604
2017-07-14,1,0.001026421557137179,0.0010734908948655823,-0.0032421081559663983,0.007082348331173377,0.9935611541423609
2017-07-18,1,0.0012290788920811394,0.0013023571616138183,-0.0032421081559663983,0.00752806772779885,0.9929073734199005
2017-07-20,1,0.001257422837598656,0.001326411990042933,-0.003894060185233377,0.00752806772779885,0.9924344873413022
2017-07-24,1,0.0021499265178900806,0.0023527095086453456,-0.003894060185233377,0.006773939361369866,0.9933096501102805
2017-07-26,1,0.002129822906896687,0.002320576478579164,-0.004866794811547142,0.006773939361369866,0.9930814930184448
2017-07-28,1,0.001480920483123257,0.0015878595761009899,-0.0023170696533304997,0.006773939361369866,0.9938190909917698
2017-08-01,1,0.0019333438540612713,0.0020973417316490044,-0.0023170696533304997,0.006203857320595447,0.9943901756027804
2017-08-03,1,0.001925216255873034,0.0021057360072957183,-0.0020357035799654834,0.006203857320595447,0.9946190371406513
2017-08-07,1,0.0020504210031479903,0.0022388018821645067,-0.0023170696533304997,0.006203857320595447,0.9942465409866482
2017-08-09,1,0.0018046843645730488,0.00196366051303883,-0.0007951902076778878,0.006773939361369866,0.9941183029701616
2017-08-11,1,0.0009288204448820481,0.0009338123076090238,-0.0005998721410119846,0.007059717036399692,0.994081627774387
2017-08-15,1,0.0017343531406455543,0.001848521131804751,-0.0014385971069617348,0.004801267783162165,0.9949848510848973
2017-08-17,1,0.0014951893275323177,0.0015718665473539559,-0.0014385971069617348,0.0037932822225558074,0.9954146275893587
2017-08-21,1,0.0017250132798830745,0.0018317798214657647,-0.002412861405776379,0.0037932822225558074,0.9952302070067139
2017-08-23,1,0.0015056505994184813,0.0015703393695563985,-0.002412861405776379,0.0033469481958634164,0.9957367173637622
2017-08-25,1,0.001413983456098472,0.0014566874120288784,-0.0037268937864414547,0.0033469481958634164,0.9944983710528726
2017-08-29,1,0.0014835830455570648,0.0015330475272116,-0.0037268937864414547,0.0033469481958634164,0.994210467245081
2017-08-31,1,0.0012025148604859412,0.0012025271637186316,-0.0037268937864414547,0.005727318548957564,0.9939319839558879
2017-09-05,1,0.0007860627508724912,0.0008442870460120125,-0.0018269072057786695,0.005727318548957564,0.9944438637623336
2017-09-07,1,0.0014189621486291046,0.0014562209474625228,-0.002883264023254567,0.005727318548957564,0.9945887796648544
2017-09-11,1,0.0017524308604373925,0.0018259232714244412,-0.002883264023254567,0.004842384121829488,0.9953030047635427
2017-09-13,1,0.0016880926261934564,0.0017845417210921944,-0.0012453076877794926,0.005727318548957564,0.9951384103830646
2017-09-15,1,0.0015804393365136719,0.0016764612914482058,-0.0012453076877794926,0.005727318548957564,0.9951846250200752
2017-09-19,1,0.0013823775991350922,0.001435870020558766,-0.002749609678537518,0.005393309395459292,0.994941895820057
2017-09-21,1,0.001145056681799239,0.001154230572625106,-0.002749609678537518,0.005393309395459292,0.9947329883438416
2017-09-25,1,0.0004857048774153191,0.0005357992506068415,-0.0012453076877794926,0.005393309395459292,0.9956172093700513
2017-09-27,1,0.0005872668497185999,0.0006373269768558408,-0.0008024385032304784,0.006393605988035362,0.9953028756822891
2017-09-29,1,0.0008877037733826501,0.0009090764277786102,-0.0012777198794483762,0.004986163838316231,0.9957764017914937
2017-10-03,1,0.0008751701603164237,0.0009013410628252345,-0.0012777198794483762,0.004986163838316231,0.9956768704976717
2017-10-05,1,0.0011715944243280002,0.0012012051721469173,-0.000812627191551393,0.004986163838316231,0.9957754741944402
