JNU-Tangyin/eata/results/Batch4_SP500/Batch4_SP500-EBAY.csv
Date,Action,Predicted_Q25,Predicted_Q75,Actual_Q25,Actual_Q75,RL_Reward
2010-12-14,0,0.0,0.0,-0.010696125605566643,0.004937050447294,0.9877468263705281
2010-12-16,0,0.0,0.0,-0.009229023361153794,0.004937050447294,0.9881831533618592
2010-12-20,-1,-0.0003539007379680969,-0.00029413128356951156,-0.009229023361153794,0.009162586340997198,0.9887419116682356
2010-12-22,-1,-0.0006561298689027779,-0.0002194524274808955,-0.009229023361153794,0.011032327199245306,0.9865432628273497
2010-12-27,-1,-0.0018110518723458507,-0.0011982332036918901,-0.008748670114973342,0.016334518001691375,0.9853506725372524
2010-12-29,-1,-0.001611564446146953,-0.0010497356531186247,-0.008748670114973342,0.016334518001691375,0.9851911142744891
2010-12-31,-1,-0.002611478321146588,-0.0019391415297813465,-0.008189226021030838,0.016334518001691375,0.984736579609122
2011-01-04,-1,-0.0025053958605448963,-0.0018147003249521737,-0.005819270984253147,0.016334518001691375,0.98396538130623
2011-01-06,-1,-0.0023419843547801203,-0.0017067340894275941,-0.003455257244856761,0.016334518001691375,0.9842251259799615
2011-01-10,-1,-0.001655227667348765,-0.0011568691160911168,-0.00010633186382642042,0.013913462812366193,0.985809768460598
2011-01-12,-1,-0.00030583970961963955,-1.3006924784577235e-05,-0.003455257244856761,0.013913462812366193,0.9824641142325633
2011-01-14,-1,-0.0005600546941517265,-0.00018214192722607763,-0.005385820437580022,0.01258282832277454,0.982472646955034
2011-01-19,-1,-0.001210347590194621,-0.0007331380020180367,-0.000804894000647096,0.013913462812366193,0.9823324480050923
2011-01-21,0,0.0,0.0,-0.000804894000647096,0.01258282832277454,0.9860659251962371
2011-01-25,0,0.0,0.0,-0.008167982795983894,0.006902113610495,0.98510298638201
2011-01-27,1,0.00043174236972224375,0.0005002305376556623,-0.008167982795983894,0.008790751763360015,0.9845161936814687
2011-01-31,0,0.0,0.0,-0.008167982795983894,0.008790751763360015,0.983510012819826
2011-02-02,0,0.0,0.0,-0.008167982795983894,0.008757023143232689,0.9849639669147837
2011-02-04,1,0.0006250804062113319,0.0006939045653715079,-0.019411275422766223,0.008757023143232689,0.983366399430139
2011-02-08,1,0.0007280148471649158,0.0008080522596833003,-0.019411275422766223,0.007391966557692223,0.983151003024401
2011-02-10,1,0.0005218306626533634,0.0006089067107849569,-0.016658165112120538,0.006832263594195132,0.9873842674182317
2011-02-14,0,0.0,0.0,-0.012034978291386372,0.006832263594195132,0.9876396378399545
2011-02-16,0,0.0,0.0,-0.017780543519703748,0.006832263594195132,0.987005790120933
2011-02-18,1,0.0027972937005598,0.002834955018912694,-0.017780543519703748,0.007329459176471614,0.9860048799100605
2011-02-23,1,7.632662493287068e-05,0.00041431068297418544,-0.010994947738424202,0.007462488433683869,0.9877829119119752
2011-02-25,1,0.000442725358655279,0.0007740846006429263,-0.010994947738424202,0.007462488433683869,0.9870068321735643
2011-03-01,-1,-0.0012163426892480643,-0.0006957150179607065,-0.010994947738424202,0.008757023143232689,0.9859901258555486
2011-03-03,-1,-0.0005280800680505654,-9.154483694480777e-05,-0.012812420007539124,0.009272687216073695,0.985100975428679
2011-03-07,-1,-0.002764787503270142,-0.0020445972806650147,-0.010727523142405392,0.011454640434370143,0.9867256306383996
2011-03-09,-1,-0.0024020157662998937,-0.0017774086562138028,-0.00866587221808229,0.014474536945742768,0.9865669537850503
2011-03-11,-1,-0.0029145582066588344,-0.002254367519774839,-0.010986670381122977,0.014474536945742768,0.9860363880709533
2011-03-15,-1,-0.003532593374611752,-0.002797736039499033,-0.011921571794256115,0.014474536945742768,0.9855492689509873
2011-03-17,-1,-0.0026306756694517795,-0.0021475388637036763,-0.010478453343757455,0.014474536945742768,0.9866648010207093
2011-03-21,-1,-0.001221443273680189,-0.0009531163549813205,-0.011921571794256115,0.014474536945742768,0.9862371101694513
2011-03-23,-1,-0.00028086971168680855,-0.00018000965271860352,-0.010627635683436616,0.015175922153374481,0.9865709060471534
2011-03-25,1,0.0004366501170474343,0.00048789115699199564,-0.010627635683436616,0.015175922153374481,0.9866596735866102
2011-03-29,1,0.0004717823115909333,0.00047709801617893066,-0.0032446514060153623,0.015175922153374481,0.9883870715829428
2011-03-31,1,0.0007377120998924745,0.0008357766846839429,-0.0009054901821054344,0.012186899212942527,0.9896676883980834
2011-04-04,1,0.0009253458913168451,0.001016247687024516,-0.004741224232807059,0.012186899212942527,0.9888507005740578
2011-04-06,1,0.0015318546253498978,0.0017239642228237136,-0.010627635683436616,0.0073544392115622755,0.9881621345817698
2011-04-08,1,0.00011936541375429961,0.00016731532050112314,-0.004728689144759775,0.011659189690027019,0.9887049974198496
2011-04-12,-1,-0.00039952643634789427,-0.00030336318395973234,-0.004728689144759775,0.01406438941101648,0.9874049172063749
2011-04-14,0,-3.2565121596590596e-05,1.931758550973914e-05,-0.004728689144759775,0.01406438941101648,0.9873744226246853
2011-04-18,1,0.00028755697746495686,0.0003064345932714995,-0.004728689144759775,0.011659189690027019,0.9871348730927275
2011-04-20,1,0.0014263033417539327,0.0016172946424239968,-0.004728689144759775,0.009355110259598395,0.9879547740043819
2011-04-25,1,0.001567247582465659,0.0016301054206065513,-0.013524913692885691,0.008241774545071245,0.9875103081428979
2011-04-27,1,0.0031707185422134216,0.0035021596939404463,-0.0164197840096275,0.007309759877202218,0.9867724254352572
2011-04-29,1,0.0029176459968936527,0.0031690851876334117,-0.0164197840096275,0.0026791135039279774,0.9871140252579138
2011-05-03,1,0.0023217413061849676,0.0025441712639703994,-0.016102416596632165,0.007309759877202218,0.9872484228813462
2011-05-05,1,0.0015921187384410247,0.0017506370026613908,-0.017320858268582224,0.008241774545071245,0.9863996676126159
2011-05-09,1,0.002132779389107977,0.0023657451731536874,-0.019810336507278703,0.008241774545071245,0.9850221751794728
2011-05-11,1,0.0019378154931730194,0.0021273212464229907,-0.01885823426829269,0.008241774545071245,0.9861445790161487
2011-05-13,1,0.0014303662317092162,0.0014724333896796948,-0.023228853684107157,0.0074458167679352346,0.9851800676181979
2011-05-17,-1,-0.0005155894575850998,-0.0002554433266858619,-0.023228853684107157,0.003969113342407162,0.9858618878992359
2011-05-19,0,0.0,0.0,-0.023228853684107157,0.005252674438265112,0.9850950224631266
2011-05-23,0,0.0,0.0,-0.01846036399419171,0.012295233218039684,0.9853512226625313
2011-05-25,-1,-0.002308148468110549,-0.0018915202107242326,-0.015080314222236256,0.012295233218039684,0.9862910295591402
2011-05-27,0,0.0,0.0,-0.01846036399419171,0.012658258593744084,0.9839039406427977
2011-06-01,0,0.0,0.0,-0.016537187360841078,0.012658258593744084,0.9819069701491496
2011-06-03,-1,-0.004233756439695975,-0.0038171292883304895,-0.008581972782014533,0.013164947456252313,0.9811518776971009
2011-06-07,0,0.0,0.0,-0.004212753373601283,0.013164947456252313,0.9827238537261757
2011-06-09,0,0.0,0.0,-0.004212753373601283,0.012658258593744084,0.9831834691778786
2011-06-13,0,0.0,0.0,-0.008581972782014533,0.012658258593744084,0.9827562839440377
2011-06-15,0,0.0,0.0,-0.006058210475686883,0.012658258593744084,0.9842421921513776
2011-06-17,-1,-0.0021877919038327514,-0.0018883456517183393,-0.004022308445096308,0.013164947456252313,0.9838659037405005
2011-06-21,-1,-0.0018184966805729302,-0.001576200322648893,-0.00801063799649961,0.013164947456252313,0.9832529588003773
2011-06-23,0,0.0,0.0,-0.003981460846964037,0.013164947456252313,0.9836776557210473
2011-06-27,0,0.0,0.0,-0.003128897816427561,0.015509251039577423,0.9844605637780727
2011-06-29,0,0.0,0.0,-0.003981460846964037,0.012981965626330983,0.9865593730561193
2011-07-01,0,0.0,0.0,-0.008215902698393646,0.008672583652781549,0.9882177191878769
2011-07-06,0,0.0,0.0,-0.01581429954453276,0.009829975247748002,0.9861431135149116
2011-07-08,1,0.001622962576792216,0.001913882384620621,-0.018430917330239757,0.008421976727442385,0.9823383711425027
2011-07-12,1,0.0016418592264096537,0.0019701183950533137,-0.019651667928849065,0.010653360153805354,0.9755700537844874
2011-07-14,0,0.0,0.0,-0.026174393929405078,0.016396783877465945,0.9725662066441328
2011-07-18,1,0.0022098637826036046,0.0025980578671663656,-0.026174393929405078,0.012780742621790697,0.9729243245019268
2011-07-20,1,0.002964733745197094,0.0034435118568481686,-0.026174393929405078,0.011143306362549881,0.974042863587625
2011-07-22,1,0.0025750177152542297,0.003001992790533285,-0.0314690294399335,0.011143306362549881,0.9691644448244591
2011-07-26,0,0.0,0.0,-0.0314690294399335,0.011143306362549881,0.9677461638465249
2011-07-28,0,0.0,0.0,-0.02930975049395803,0.011143306362549881,0.9678312008487471
2011-08-01,0,0.0,0.0,-0.02930975049395803,0.020551649291920007,0.9655596903203575
2011-08-03,1,0.0008096108387112231,0.0008541299385991695,-0.02556787416686353,0.020055853178622067,0.9672878395871124
2011-08-05,-1,-0.002990359837328427,-0.0025669971056894864,-0.02556787416686353,0.020055853178622067,0.9695818559646378
2011-08-09,-1,-0.0029553584196919886,-0.0025017639269706874,-0.019064475301276307,0.015414927668719934,0.9771356164908767
2011-08-11,0,0.0,0.0,-0.019064475301276307,0.015414927668719934,0.9758165224411731
2011-08-15,-1,-0.0013382508230165816,-0.0011221661629225387,-0.019064475301276307,0.018685803701814233,0.975433008341202
2011-08-17,-1,-0.0015836974327681072,-0.001384328720862844,-0.017857985873809136,0.02759256528569408,0.9719429810290259
2011-08-19,-1,-0.005391191880582849,-0.004734694224208298,-0.007457428578916778,0.03403939684737309,0.9723415492739024
2011-08-23,-1,-0.002513740039737546,-0.002178933810734542,-0.015115503602341405,0.02759256528569408,0.975556501364889
2011-08-25,-1,-0.0035725046014633876,-0.0031455518336662757,-0.015115503602341405,0.02759256528569408,0.9753617173492375
2011-08-29,-1,-0.0003970261207962661,-0.0003603497172001771,-0.015115503602341405,0.018591773742849795,0.9783680745600919
2011-08-31,-1,-0.0005613528701439959,-0.0004684620227060281,-0.017554444931785394,0.018591773742849795,0.9765438349860933
2011-09-02,-1,-0.0027260909015681773,-0.0023532531936757035,-0.020024984707303867,0.018591773742849795,0.9749565279674723
2011-09-07,-1,-0.0019652820572283415,-0.0017013286343780568,-0.020024984707303867,0.02759256528569408,0.9717354520362255
2011-09-09,-1,-0.0033551034459663688,-0.00294842969059355,-0.017554444931785394,0.030787906779170555,0.9741024731949585
2011-09-13,-1,-0.0016639663141371983,-0.0014852134311884556,-0.017554444931785394,0.03225201699918221,0.9730519802854137
2011-09-15,1,0.0024678949635863734,0.002895349065489858,-0.017554444931785394,0.019758140023103478,0.9767826839656438
2011-09-19,1,0.003939039260212251,0.004627834272687529,-0.015648213502083133,0.01956059923896506,0.9778465784698708
2011-09-21,1,0.0030855289193394107,0.0036747702312882992,-0.0183529155162179,0.021929077010727067,0.9776441017999473
2011-09-23,1,0.0026175390732029197,0.003086961432073996,-0.02204409919689831,0.021929077010727067,0.9772908002548725
2011-09-27,1,0.0024308505000011906,0.0028239220658987556,-0.02298375022527051,0.021929077010727067,0.9766366292761536
2011-09-29,1,0.0010770759600909185,0.0013283011162650937,-0.01906528874493997,0.029214044009455487,0.9769661082289459
2011-10-03,-1,-0.001881414520627118,-0.0017602369494627568,-0.015120506139326188,0.02974964126004808,0.9773976095659512
2011-10-05,1,0.001755292784589553,0.0021170308683058866,-0.01906528874493997,0.028863022747294163,0.97880643638637
2011-10-07,0,0.0,0.0,-0.01906528874493997,0.028863022747294163,0.978395981531588
2011-10-11,0,0.0,0.0,-0.01906528874493997,0.021877916851386098,0.9800644774142107
2011-10-13,-1,-0.0021070062886012313,-0.002087923228278659,-0.02068524701526974,0.021877916851386098,0.9773038379778846
2011-10-17,1,0.002960800158593454,0.003278080050053483,-0.02068524701526974,0.021877916851386098,0.9765198374246968
2011-10-19,0,0.0,0.0,-0.023452394319704514,0.017597178878624744,0.9774266768746874
2011-10-21,0,0.0,0.0,-0.023452394319704514,0.017597178878624744,0.9773042869712423
2011-10-25,0,0.0,0.0,-0.028986677293948847,0.017597178878624744,0.9765294670651592
2011-10-27,0,0.0,0.0,-0.028986677293948847,0.011029969342437005,0.9779371054177215
2011-10-31,0,0.0,0.0,-0.028986677293948847,0.011029969342437005,0.9775117595936177
2011-11-02,0,0.0,0.0,-0.01988869492111503,0.011029969342437005,0.9787595922465933
2011-11-04,0,0.0,0.0,-0.01988869492111503,0.011029969342437005,0.9792576206282027
2011-11-08,1,0.0006171436550482402,0.0007319605344710714,-0.01988869492111503,0.007407794511278712,0.9799579366866765
2011-11-10,-1,-0.0009202370441915252,-0.000688346544986234,-0.012624608298537857,0.01247982837360568,0.981978600995961
2011-11-14,-1,-0.0007205572506287861,-0.0004727995074340504,-0.016307392099172806,0.007407794511278712,0.9829773353538248
2011-11-16,-1,-0.002378262538935118,-0.0019050936999637958,-0.01727560901337506,0.007407794511278712,0.9826481456422266
2011-11-18,-1,-0.001053479003056133,-0.0009000648749758165,-0.01727560901337506,0.01247982837360568,0.981848400914816
2011-11-22,-1,-0.000927912379057182,-0.0008584046506963716,-0.016307392099172806,0.02150054915086396,0.9821572895064736
2011-11-25,-1,-0.0018155366934144341,-0.001655833812708694,-0.011130584131027198,0.02150054915086396,0.9824278474772662
2011-11-29,-1,-0.0009711647595218383,-0.0009400737648197675,-0.011130584131027198,0.011588990059887519,0.9855294583377858
2011-12-01,-1,-0.0005855886781052661,-0.0005369236176698552,-0.011130584131027198,0.00786023498509454,0.9871661908144006
2011-12-05,1,0.00042569801990368733,0.0005049360177257728,-0.016212591363634895,0.00786023498509454,0.985669070946338
2011-12-07,1,0.000983112287198973,0.0011675479032282076,-0.016212591363634895,0.011233413291065362,0.9849848699378969
2011-12-09,1,0.0019883042748085897,0.0023333584637042666,-0.016212591363634895,0.011233413291065362,0.9845536184999978
2011-12-13,1,0.0013214452909179096,0.0015998425970559387,-0.011224418977605895,0.012251308145388305,0.9855900429364376
2011-12-15,1,0.0006134494727430808,0.0008554211260200522,-0.00530523959567752,0.012251308145388305,0.98592504103362
2011-12-19,0,0.0,0.0,-0.004494143984890308,0.012251308145388305,0.9859453181853519
2011-12-21,0,0.0,0.0,-0.0031838227233040653,0.011024557422563095,0.9870716862926544
2011-12-23,0,0.0,0.0,-0.0031838227233040653,0.011024557422563095,0.9877956291253828
2011-12-28,0,0.0,0.0,-0.0031838227233040653,0.011024557422563095,0.9881603015827938
2011-12-30,0,0.0,0.0,-0.004494143984890308,0.011024557422563095,0.987844124486387
2012-01-04,0,0.0,0.0,-0.0031838227233040653,0.013878778927924587,0.9896251397584663
2012-01-06,0,0.0,0.0,-0.004494143984890308,0.011024557422563095,0.989810652551179
2012-01-10,0,0.0,0.0,-0.003760267248074635,0.008298042987170446,0.9904974546940809
2012-01-12,-1,-0.0006304578317490192,-0.0004651137578910845,-0.0063964019300950204,0.007196212271851022,0.9904482333535208
2012-01-17,-1,-0.002426755501604756,-0.0019433728762267733,-0.006079393004093098,0.007196212271851022,0.9910954091048744
2012-01-19,0,0.0,0.0,-0.0024456451423826254,0.00838866353005201,0.9914993828619584
2012-01-23,0,0.0,0.0,-0.0024456451423826254,0.00838866353005201,0.9913514069320707
2012-01-25,1,0.0003304781185146433,0.00046551363473192276,-0.0062523173749861015,0.011846120845531882,0.989077950737803
2012-01-27,-1,-0.00038997931226991814,-0.0003253694809116461,-0.0010329322545413288,0.011846120845531882,0.9885515141539036
2012-01-31,-1,-0.0004366989595377754,-0.00038547478993124207,-0.00027695022935189575,0.011846120845531882,0.9877117490672819
2012-02-02,-1,-0.00017689410492045338,-6.953278574620993e-05,-0.003982390297417157,0.009734081137415041,0.9885543241161601
2012-02-06,1,5.341400993038808e-05,9.159499752195686e-05,-0.0062523173749861015,0.009734081137415041,0.987880125628479
2012-02-08,1,0.0012794865823341748,0.001643557365486503,-0.0062523173749861015,0.011381987046781046,0.9881226258688846
2012-02-10,1,0.0015899560404210795,0.0019946808563118847,-0.003982390297417157,0.013269693704623735,0.9881464131028579
2012-02-14,1,0.001118800368913491,0.0014108835583270044,-0.0022731072597413065,0.01423784888230355,0.986614475502831
2012-02-16,1,0.0025484901056153585,0.0030554178758211118,-0.005818311465315291,0.01423784888230355,0.9870198480102821
2012-02-21,1,0.0026100183436441066,0.00313502390302564,-0.011282372754879429,0.013269693704623735,0.9870375630804864
2012-02-23,1,0.0027739728743558715,0.003143587239907258,-0.005120752553391991,0.01036331669002927,0.9892900518364501
2012-02-27,1,0.001474899773170706,0.0014798183618632036,-0.011460680283574472,0.013269693704623735,0.9875649859550822
2012-02-29,1,0.001824723962550005,0.0020520951310668643,-0.011460680283574472,0.013269693704623735,0.9877068460920784
2012-03-02,1,0.0017240332775151227,0.001953957451403728,-0.011460680283574472,0.009110376299990073,0.9881023539143109
2012-03-06,1,0.0016959003343796825,0.0019949942409779493,-0.0071351787480420075,0.009110376299990073,0.9893290934593125
2012-03-08,1,0.0019619977322345708,0.00229424391310738,-0.008947009192351085,0.005950694273495094,0.9884660355655699
2012-03-12,1,0.002112545461177616,0.0024634602848727792,-0.011460680283574472,0.005950694273495094,0.9871161547399742
2012-03-14,1,0.0027703683635111995,0.003216795726386366,-0.011460680283574472,0.006052537615587879,0.9874804662409404
2012-03-16,1,0.0027818779643924273,0.003265391395575217,-0.011460680283574472,0.0033261026201304622,0.9880386378171238
2012-03-20,1,0.0023464836871562394,0.002758116966774069,-0.010516047473993165,0.006052537615587879,0.9878148176350734
2012-03-22,1,0.0028314872755362927,0.0032287970830184093,-0.010516047473993165,0.010216468913090896,0.9825962108284989
2012-03-26,1,0.002563403528395447,0.002881340123255291,-0.010965204253493063,0.002863890407469458,0.9831798310256278
2012-03-28,1,0.0021954507306590357,0.0024862394601160224,-0.008951756879199212,0.014771575920931186,0.9827692146621588
2012-03-30,1,0.0022876170795459376,0.0026190537224405593,-0.008951756879199212,0.014771575920931186,0.982984817846106
2012-04-03,1,0.002263334466837997,0.0026024410955543358,-0.008951756879199212,0.014771575920931186,0.9827817706625499
2012-04-05,1,0.0009008541342828404,0.0009766565231661272,-0.010965204253493063,0.014771575920931186,0.9820899203244954
2012-04-10,1,0.0009467868831139788,0.0010508810260766535,-0.008951756879199212,0.014680447020372162,0.9833052648234172
2012-04-12,1,0.0012388246421759924,0.0013430820841032365,-0.008951756879199212,0.014680447020372162,0.9834271424196644
2012-04-16,1,0.00011632266524917902,0.00019023660474529067,-0.009471676035068079,0.014680447020372162,0.9835595767896389
2012-04-18,1,1.881779464932119e-05,0.00013287855464775964,-0.009471676035068079,0.011108401881675951,0.9841744676893601
2012-04-20,1,0.0004529095250870879,0.000559995241914126,-0.012991897703182188,0.009420037000457968,0.9874862859716478
2012-04-24,0,-0.0001118711161994545,5.3607574862236376e-05,-0.011560625381017365,0.011108401881675951,0.9870047841235062
2012-04-26,1,0.0014236001479362567,0.001468707642341205,-0.011560625381017365,0.009420037000457968,0.9882122777474851
2012-04-30,1,0.0014175462928642545,0.0014912575441917103,-0.011560625381017365,0.012789868448370895,0.9866043389228096
2012-05-02,1,0.0017025594752195685,0.0018314885763736773,-0.0133122371986922,0.012789868448370895,0.9845218689863101
2012-05-04,1,0.0005929119021413952,0.0006022145927409353,-0.010428918224282307,0.012789868448370895,0.9859146047203617
2012-05-08,1,0.000799456212372851,0.0008115139450403716,-0.010428918224282307,0.015497732548998886,0.9846322942431318
2012-05-10,1,0.0005404956271091547,0.0006398349397558317,-0.010428918224282307,0.012626922996460987,0.9856375191823854
2012-05-14,-1,-0.00039360770858132125,-0.00017771684347799466,-0.007865193557625216,0.012626922996460987,0.9868388472873785
2012-05-16,-1,-0.0004468089834851766,-0.00025496513227329584,-0.009606763671360919,0.012626922996460987,0.9863836158488667
2012-05-18,-1,-0.0014557150667354264,-0.0011561134704043395,-0.004027399963741782,0.015840781493387458,0.9851482097153899
2012-05-22,-1,-0.0012729470365662745,-0.0009580465279648992,-0.004552723267231833,0.015840781493387458,0.9852726319149929
2012-05-24,-1,-0.0010640136366908987,-0.0007686194975733448,-0.009606763671360919,0.018845652118887536,0.9835959801892467
2012-05-29,1,0.000294870061644582,0.00044531586745595,-0.010738593739018478,0.015617118675414817,0.9838195772285575
2012-05-31,-1,-0.0018987576288543172,-0.0014950493337332284,-0.010241793129221828,0.015617118675414817,0.984625438338825
2012-06-04,-1,-0.00120842633416046,-0.0009163229733321786,-0.014004873539899319,0.018174663664969608,0.9832044266004908
2012-06-06,1,0.00017485210911613163,0.0003004729032963485,-0.014004873539899319,0.01421796720790296,0.9848560391809315
2012-06-08,-1,-0.0006445466655273076,-0.00037814384272648533,-0.014050561531055689,0.01421796720790296,0.9844246569480136
2012-06-12,-1,-0.0006855617502777276,-0.00044157462169609773,-0.018267588001745702,0.01421796720790296,0.982733562003773
2012-06-14,-1,-0.0011676505469279787,-0.0008750410018571088,-0.01509692078239572,0.01633640004779272,0.9825676560087172
2012-06-18,1,0.0010400855295180375,0.0010771843210100652,-0.019886457935016026,0.013202398845947106,0.9827766176103775
2012-06-20,1,0.0004038839043356099,0.0005525718091337491,-0.019886457935016026,0.01633640004779272,0.978881940325272
2012-06-22,-1,-0.0005161854934007278,-0.00029780282813769905,-0.01509692078239572,0.01633640004779272,0.9797299226711357
2012-06-26,-1,-0.00035514653468060435,-0.0002108757708671677,-0.014464406228940635,0.013202398845947106,0.9804636438038389
2012-06-28,-1,-0.0019694059517288247,-0.0016166903784987255,-0.013665849400656394,0.017330058009665587,0.9801066101352927
2012-07-02,-1,-0.0017286266929821738,-0.001419802499292861,-0.013665849400656394,0.014489361737516547,0.9806849973388513
2012-07-05,-1,-0.0020432440333353038,-0.001697847432567943,-0.013665849400656394,0.014489361737516547,0.9805717549489157
2012-07-09,-1,-0.0022694565790926323,-0.0018893226265125824,-0.013665849400656394,0.016380131563443055,0.9802260871272461
2012-07-11,-1,-0.0023279792277209775,-0.0020312334788006947,-0.010341550914593704,0.017199244944545777,0.980200538004631
2012-07-13,-1,-0.0016290995278589841,-0.0014071162721747783,-0.013873087593610554,0.017199244944545777,0.9805707646801107
2012-07-17,-1,-0.0012724369237769075,-0.0011594241702193846,-0.010341550914593704,0.019191428781026358,0.9811124498617877
2012-07-19,1,0.0006376100770001322,0.0007543706988121337,-0.010341550914593704,0.017010599421674693,0.9858486264959813
2012-07-23,1,0.0006435683161845152,0.0007081526686409868,-0.009448272089285335,0.017010599421674693,0.9858445373138164
2012-07-25,-1,-9.819658956622804e-05,-9.586508993235733e-05,-0.009448272089285335,0.018196694461319596,0.9851682189206166
2012-07-27,1,0.0008561767718303983,0.0009263568598939437,-0.009448272089285335,0.017010599421674693,0.9869764656412421
2012-07-31,-1,-0.0001689589396562038,-0.00013210905471655544,-0.008596791789380779,0.017010599421674693,0.9886100432837884
2012-08-02,1,2.808421925193486e-06,6.864363571552339e-06,-0.008789941111796571,0.017010599421674693,0.9876256664011274
2012-08-06,1,0.0011217014973190823,0.0013311155457275954,-0.008789941111796571,0.018196694461319596,0.9876060388155203
2012-08-08,1,0.0011013173702143575,0.0013236524553801694,-0.006837895868684254,0.018446957017084844,0.9872310668075083
2012-08-10,1,0.0003313955868571865,0.00041993365482010064,-0.005261496086122588,0.018446957017084844,0.987320603822802
2012-08-14,1,0.0011723883073871653,0.0013942556100006718,-0.0073705367284800285,0.01328982935019577,0.9881077647621882
2012-08-16,1,0.0019418658624266688,0.002289541410657063,-0.0049258922855433115,0.018850115013266628,0.9875136830770178
2012-08-20,1,0.0015311487323086512,0.001767975828161572,-0.0049258922855433115,0.01342421534892303,0.9881422735953702
2012-08-22,1,0.0015202676812141455,0.001737869970212622,-0.0047051720895692085,0.010583826537749067,0.989218338499982
2012-08-24,1,0.001596405450060145,0.0018143408931229977,-0.006372772339978441,0.010583826537749067,0.988787690878064
2012-08-28,1,0.0009417091361383126,0.0010268467532066057,-0.010226715996925198,0.010583826537749067,0.9872639239618556
2012-08-30,1,0.0004927643508567371,0.0005076627466192528,-0.010226715996925198,0.012290952399227242,0.9864961361208436
2012-09-04,1,0.001610035101544451,0.0018282723154157345,-0.010226715996925198,0.009006697901035032,0.9871213552947014
2012-09-06,1,0.002072632431085204,0.0022869557143777976,-0.010226715996925198,0.009006697901035032,0.9881664296035632
2012-09-10,1,0.0014043918279700528,0.0015611089101454007,-0.010770936450808653,0.009006697901035032,0.9875304847702941
2012-09-12,1,0.0011061634888500217,0.0012694470339893863,-0.012952529343776636,0.01057538329043479,0.9859565738075715
2012-09-14,1,0.0019281136354313464,0.002163309447880674,-0.012952529343776636,0.009006697901035032,0.9867682982696584
2012-09-18,1,0.0023769195340863983,0.0027639872920998294,-0.012952529343776636,0.009376008970286018,0.9864721097034054
2012-09-20,1,0.002220145861514921,0.0025570322664482696,-0.012952529343776636,0.012665377442402773,0.9844912197731794
2012-09-24,1,0.0019941577162387284,0.002331294740175958,-0.01529072039073267,0.012665377442402773,0.9844771075127536
2012-09-26,-1,-6.519472620458922e-05,-3.640295799612048e-05,-0.01529072039073267,0.012665377442402773,0.984837711400144
2012-09-28,0,0.0,0.0,-0.01212481103213743,0.012665377442402773,0.9854661158369109
2012-10-02,0,0.0,0.0,-0.015505524078015212,0.016139041662985448,0.9835895308981538
2012-10-04,0,0.0,0.0,-0.015505524078015212,0.014069279803916654,0.9834988279502651
2012-10-08,0,0.0,0.0,-0.01227365599590271,0.014069279803916654,0.9838431692766656
2012-10-10,-1,-0.0015014541974807715,-0.0011108691870800273,-0.01097470668721679,0.014069279803916654,0.9857369113139692
2012-10-12,0,-0.0001131750001102976,7.249564572197286e-05,-0.01097470668721679,0.007654635678535192,0.9861376432306778
2012-10-16,1,0.0003701314776880619,0.00047982626651550897,-0.01227365599590271,0.00412351370837383,0.9859868591606682
2012-10-18,1,0.0032856050791860367,0.003642487124668925,-0.01227365599590271,0.007654635678535192,0.9867930758426814
2012-10-22,1,0.0017634337880285539,0.00181179964827377,-0.01097470668721679,0.009138958470790678,0.9874937112591967
2012-10-24,1,0.0005203384353571555,0.0006323011854764564,-0.01081361031875688,0.013657725116998896,0.9861912820149429
2012-10-26,1,0.0017879396747877462,0.0019212380662869022,-0.006777510920926619,0.00924932208218973,0.9875520696238862
2012-11-01,1,0.0015188867944152759,0.0016184311135388737,-0.005009697687110712,0.012296831852925887,0.9885899365133992
2012-11-05,1,0.0014629457094058028,0.0015411338636582756,-0.005009697687110712,0.008829870595318496,0.9888408541239321
2012-11-07,1,0.00023249180580506464,0.0003488099916059903,-0.0034093664606690854,0.008829870595318496,0.9898233066331973
2012-11-09,1,0.0008501010113139639,0.0009291136269653435,-0.004822417479174135,0.008829870595318496,0.9897972591133585
2012-11-13,1,0.0008784472699783384,0.000963903230261291,-0.003077528893987244,0.012399370656385196,0.98944175205921
2012-11-15,0,-2.6023226697518902e-05,2.8837258344288624e-06,-0.004822417479174135,0.012399370656385196,0.9891939373161205
2012-11-19,1,0.0008129576684733925,0.0008694618615790349,-0.004822417479174135,0.011739568110096587,0.9892323567638702
2012-11-21,1,0.0005455124937213795,0.0005911975367968549,-0.006392993196690681,0.012453795484631939,0.9885933292623306
2012-11-26,1,0.0027524264261299266,0.0030111763202222736,-0.010989548761985202,0.011739568110096587,0.9896710588913253
2012-11-28,1,0.002501857149851613,0.0027049955017767586,-0.011496491173225563,0.011739568110096587,0.9892525893901715
2012-11-30,1,0.003152390289203371,0.003420716178645633,-0.011496491173225563,0.0036698250992351572,0.9883193318317072
2012-12-04,1,0.001648445408416827,0.0016648958135975125,-0.011496491173225563,0.012665822162031309,0.9864333775209412
2012-12-06,1,0.0018473199764003538,0.001892689834108317,-0.011496491173225563,0.014268862849728755,0.985750932448164
2012-12-10,1,0.0004524128254868037,0.0006290019331683257,-0.013489978237447603,0.014268862849728755,0.9860272362140741
2012-12-12,1,0.0016910509321510212,0.0017382989488459381,-0.013489978237447603,0.013363418334123986,0.9860758977798556
2012-12-14,1,0.000691615382561175,0.0007578900980529134,-0.011385074018929433,0.013363418334123986,0.9864115146084868
2012-12-18,0,0.0,0.0,-0.011385074018929433,0.013363418334123986,0.9862647531626232
2012-12-20,0,0.0,0.0,-0.013236902485643968,0.008872296038642582,0.9867673788208233
2012-12-24,0,0.0,0.0,-0.010412236715221589,0.013363418334123986,0.9861015379434025
2012-12-27,0,0.0,0.0,-0.009827574144299593,0.016345952810008252,0.9852708448137123
2012-12-31,0,0.0,0.0,-0.009827574144299593,0.013363418334123986,0.9865391366660062
2013-01-03,0,0.0,0.0,-0.006308229632176624,0.013363418334123986,0.9888069712611379
2013-01-07,0,0.0,0.0,-0.009827574144299593,0.013133050291447129,0.9878519426488255
2013-01-09,1,0.00021511296620543776,0.0003239350786424885,-0.006541697573849155,0.013133050291447129,0.9885223905584389
2013-01-11,1,0.0010349463271239821,0.001044066265973477,-0.006541697573849155,0.009824332818986856,0.9886858844733148
2013-01-15,1,0.0002112985687596689,0.0002913204291956048,-0.0040774596370067905,0.009824332818986856,0.9893234575795209
2013-01-17,1,0.0012730133011535267,0.001333431831859279,-0.004187980969465497,0.007101756146450206,0.9904615660384571
2013-01-22,1,0.0007666691109240432,0.0007689222205467731,-0.004187980969465497,0.007101756146450206,0.990195763399464
2013-01-24,1,0.001873462825510128,0.0020020565811530878,-0.005260991212263826,0.006750182492573197,0.9906364961888565
2013-01-28,1,0.001656980234611721,0.001730836243206209,-0.005260991212263826,0.0052061623662158435,0.9908776231905913
2013-01-30,1,0.0017907085690131118,0.0019169487463377803,-0.004265803616689674,0.006750182492573197,0.9906230416275266
2013-02-01,1,0.0031713511849266944,0.0035404461464271105,-0.004265803616689674,0.006750182492573197,0.991314375449777
2013-02-05,1,0.0022850761965616997,0.002499643863016277,-0.004347648159738012,0.0062384531024860254,0.9912502554291343
2013-02-07,1,0.001846279880743274,0.001978345106725941,-0.005727432647374428,0.0062384531024860254,0.9910160662049915
2013-02-11,1,0.002550246319045069,0.002856258653463061,-0.007976426006164291,0.005099277882809928,0.9911886942416246
2013-02-13,1,0.0027049658430917845,0.0030196705117547223,-0.012357091826898717,0.00447073973159419,0.9888371298531516
2013-02-15,1,0.002431729424446997,0.0027107296392970583,-0.01736301945769786,0.00447073973159419,0.9875544645427374
2013-02-20,1,0.0013668119324250917,0.0014727807687088172,-0.012357091826898717,0.0080779778643842,0.9866401565494468
2013-02-22,1,0.0003813571992456822,0.0004660744339651398,-0.007976426006164291,0.009739115377258686,0.9869403620513403
2013-02-26,1,4.538468407706126e-06,0.0001120105476703044,-0.007976426006164291,0.010397410291220809,0.9857882817023099
2013-02-28,1,0.00046383196058780564,0.0005156922308407142,-0.007976426006164291,0.011723884092305912,0.9845750366395609
2013-03-04,1,0.0014316440590307754,0.001526360072347425,-0.007976426006164291,0.015422507088305941,0.9836503511007595
2013-03-06,-1,-0.0006981928951619352,-0.0004789167415117456,-0.007976426006164291,0.015422507088305941,0.9842778617871412
2013-03-08,-1,-0.0013250972048617648,-0.000997751230388394,-0.006204410473573871,0.015422507088305941,0.984292349099191
2013-03-12,-1,-0.0008205411654941577,-0.0005833638358752885,-0.005117533000904453,0.01700276082624715,0.9835929956861451
2013-03-14,-1,-0.0018649676950610523,-0.0015256985761455749,-0.005117533000904453,0.01634045225184566,0.9850422445281737
2013-03-18,-1,-0.0015892627852153647,-0.0013878852049498279,-0.001497861002383452,0.02005562514091931,0.9842399420965557
2013-03-20,-1,-0.0004531159018814908,-0.0003310798047796963,-0.009038760059555803,0.01095412963788695,0.9834303385810433
2013-03-22,-1,-0.0007924721392440724,-0.0005940615857417707,-0.012440785356701142,0.01008317075507786,0.9832064652835675
2013-03-26,-1,-0.0008266268463525551,-0.0006563858070590311,-0.00904369945950166,0.011022719952540226,0.9843808067373219
2013-03-28,1,0.0008641625184905205,0.0008774948185661458,-0.011575035461689013,0.008568891094983613,0.9857917167441917
2013-04-02,1,0.0010548115712053572,0.001092380912720652,-0.011575035461689013,0.006822334231530641,0.9867570072721905
2013-04-04,1,0.0003578870842368903,0.00045140103390141595,-0.009266205974349028,0.008568891094983613,0.9865530860466359
2013-04-08,0,-9.498431507170939e-05,8.155520225127587e-05,-0.009266205974349028,0.009939684773338429,0.9864103047935742
2013-04-10,1,0.0008313761185097156,0.000899851692841683,-0.009266205974349028,0.009939684773338429,0.9864770190317553
2013-04-12,0,-4.087392024944086e-05,0.00017786481340417292,-0.009266205974349028,0.009939684773338429,0.9868198005039457
2013-04-16,1,0.00034178443091759645,0.00047360528828027296,-0.008234725856455877,0.009939684773338429,0.9879515128709988
2013-04-18,-1,-0.0013747274152362738,-0.0010664309089485373,-0.006347876435965855,0.009939684773338429,0.9903552730807581
2013-04-22,-1,-0.0008232702575043519,-0.0006916934599999552,-0.0035174200320542185,0.013320732120982143,0.9899346890405075
2013-04-24,-1,-0.00012132807745895207,-5.8611322565452185e-05,-0.008889484144894681,0.009606458491329054,0.9900168954083161
2013-04-26,1,0.00022909815339214838,0.0002556111481505573,-0.006441727161214538,0.009606458491329054,0.9905668235655376
2013-04-30,-1,-0.00042193706004561545,-0.0003345209365701315,-0.006473656461153347,0.013315762942799483,0.9899549977967174
2013-05-02,1,0.0006235355914548398,0.0006555674015902637,-0.008985272044711107,0.009606458491329054,0.9902158892144156
2013-05-06,1,0.0002728547514042093,0.00031379624189164417,-0.012915985375370585,0.007239958922830697,0.9894932527886802
2013-05-08,1,0.001213377231835134,0.0013101852549494016,-0.01380226869697067,0.004554039318387745,0.9892509900438006
2013-05-10,1,0.0008375468870071928,0.0008497200127175285,-0.01380226869697067,0.004024769017921463,0.9879957897996199
2013-05-14,1,0.0016842934428306822,0.001846840664138081,-0.015982965105350966,0.0029814940937244404,0.9864782278149167
2013-05-16,1,0.001349468268420548,0.0014825910629143837,-0.015982965105350966,0.0029814940937244404,0.9867803627800158
2013-05-20,1,0.0008860628913302595,0.0008987831235184788,-0.015982965105350966,0.004689070029460625,0.987211135353885
2013-05-22,-1,-0.00047725619216696844,-0.0003050989308849907,-0.016051894986275694,0.004689070029460625,0.987079813412835
2013-05-24,1,0.00018914228571311766,0.0002480459013472013,-0.016051894986275694,0.008117251870070256,0.9864859684186661
2013-05-29,1,0.00023150658068949763,0.00028992488006318845,-0.016051894986275694,0.008117251870070256,0.9866134928401291
2013-05-31,1,2.0381565421122622e-05,5.8202585005865266e-05,-0.01340382676900893,0.010653847195549767,0.98641394301232
2013-06-04,-1,-0.0014196092290554372,-0.0011777165680389166,-0.0067227237297251,0.014590109888515636,0.9863888692473473
2013-06-06,-1,-0.0016148055665781732,-0.0013838438782909196,-0.006116833692253338,0.014590109888515636,0.9868899111450764
2013-06-10,-1,-0.0007605300849285176,-0.0005858076209865783,-0.006116833692253338,0.01441880777145426,0.9878128817743203
2013-06-12,-1,-0.00216370730394986,-0.0018758390597616115,-0.0042688893815333055,0.014693758704311501,0.9885512653893372
2013-06-14,-1,-0.0020375042285057958,-0.0017389516211705294,-0.00601808284793663,0.015350820311672887,0.9879460805171179
2013-06-18,-1,-0.00026402793971997654,-0.00024201499586884068,-0.00601808284793663,0.014836913960488758,0.9885297818162901
2013-06-20,-1,-0.0013198860592241336,-0.0011883251024272384,-0.00601808284793663,0.014836913960488758,0.985596556691656
2013-06-24,-1,-0.001199217012268475,-0.001078893977938379,-0.006516156676127568,0.014836913960488758,0.9855474186326673
2013-06-26,-1,-0.0004948446574975441,-0.000465622852628544,-0.008627332919733543,0.013222440740470656,0.9857139813983753
2013-06-28,-1,-0.0002610037730143672,-0.00024349657413446485,-0.01063683142990459,0.013222440740470656,0.9856358287030718
2013-07-02,1,0.0006376676806724435,0.0007665789029069627,-0.01063683142990459,0.010722349338478872,0.9867231556701357
2013-07-05,1,0.0010995589227997342,0.0012983770144244051,-0.01063683142990459,0.011007368778498974,0.9868904983025033
2013-07-09,1,0.001630762048250088,0.0019219269057040192,-0.01063683142990459,0.011007368778498974,0.9869755695516554
2013-07-11,1,0.0023004857100520307,0.0026657098578699604,-0.011555908809595051,0.010166072926449134,0.9870676004467928
2013-07-15,1,0.002159734188169274,0.0024638360438569767,-0.011555908809595051,0.009189187982303023,0.988048073647201
2013-07-17,1,0.002497303861045475,0.002829522573261797,-0.011555908809595051,0.009321829165739495,0.9879088709817764
2013-07-19,1,0.0014249846980590223,0.0015758930286134728,-0.007063356581892193,0.009321829165739495,0.9911457767159471
2013-07-23,1,0.0012844378973113591,0.001441558071094184,-0.007063356581892193,0.009321829165739495,0.9908800973811289
2013-07-25,1,0.001445565130349515,0.0016545709194333458,-0.0071029466052812875,0.007579006797902154,0.9908213846631447
2013-07-29,1,0.0008490994287816257,0.0009079854825062403,-0.00506157774147583,0.007579006797902154,0.9912755252198088
2013-07-31,1,0.0007394853283565049,0.0007742523943489334,-0.006879101927638983,0.007142479102887223,0.9903242788456501
2013-08-02,1,0.001176048618994612,0.0012614502074795998,-0.013652324565996434,0.007142479102887223,0.9895295309127305
2013-08-06,-1,-0.00043726270541969575,-0.0003217544748509391,-0.013652324565996434,0.007592004441564427,0.9893567527031818
2013-08-08,1,0.0002524118810024014,0.000414262437894501,-0.007682293901861865,0.010064767562291951,0.989185317414978
2013-08-12,1,0.0010382919800963751,0.0010649195930836715,-0.007682293901861865,0.011118143856333676,0.988574009983305
2013-08-14,1,0.0016010647899908285,0.001724861892560723,-0.007682293901861865,0.011118143856333676,0.9884443365123599
2013-08-16,1,0.00036191326123692527,0.00044102563132865813,-0.004066510646819578,0.011118143856333676,0.9892625504227185
2013-08-20,1,0.00043070000786157696,0.0004334822376111764,-0.003639162411949965,0.01206148578085327,0.9892302668985734
2013-08-22,1,0.00025267895720622617,0.0002610749463313924,-0.003639162411949965,0.01206148578085327,0.9896283792230972
2013-08-26,1,0.0006478825571104944,0.0006968778812111206,-0.003639162411949965,0.012020677291900343,0.9899692668256241
2013-08-28,-1,-0.00025846875138464567,-0.00019654004784782847,-0.003564933815813755,0.014968991904847573,0.988265568551943
2013-08-30,-1,-4.0312831640002214e-05,-3.8753521867831724e-05,-0.003564933815813755,0.014968991904847573,0.9890140623724691
2013-09-04,1,0.0007769225591370528,0.0008853816589055759,-0.003966629830518911,0.010980903827509594,0.9900881317518195
2013-09-06,1,0.001405711621665643,0.001592270425854382,-0.004306106985805186,0.009937434603284936,0.9899945847484269
2013-09-10,1,0.0011075931739144619,0.0011885010796561745,-0.007791650546288498,0.007911103090224083,0.988482790635609
2013-09-12,1,0.0009883089249437434,0.0010131413840943507,-0.012297435175578304,0.007911103090224083,0.9878388067113036
2013-09-16,1,0.0010287484120718303,0.0010970833738907246,-0.012297435175578304,0.009937434603284936,0.987168751883015
2013-09-18,1,0.0013339564587483454,0.0014277854714858013,-0.013358639174174935,0.007911103090224083,0.9867423576744527
2013-09-20,1,0.0013416259421009135,0.0014196646428343458,-0.014750880265628097,0.008665882174968666,0.9846672603060781
2013-09-24,1,0.0016614884988978146,0.0018161736403618396,-0.014750880265628097,0.00856819319461934,0.9846492693245867
2013-09-26,1,0.0023751883526924133,0.00263011001299334,-0.013358639174174935,0.008465737039224087,0.9868298442461465
2013-09-30,1,0.0020457065079268174,0.0022786354143488584,-0.013050507517537826,0.008465737039224087,0.9868950829001341
2013-10-02,1,0.0020390023886567503,0.002284840828903566,-0.013050507517537826,0.01189440339133293,0.9855069618921342
2013-10-04,1,0.0021095613043574045,0.0023814050228089354,-0.01368222806612056,0.008465737039224087,0.9857717606907572
2013-10-08,1,0.0008704200754009087,0.0009602520023041018,-0.011597672180302462,0.008465737039224087,0.9875781369282374
2013-10-10,1,0.001141622949831092,0.0012704040118046637,-0.011908525609200667,0.008465737039224087,0.986367570806162
2013-10-14,1,0.0012834789643489438,0.0013872390271921194,-0.011908525609200667,0.00683768672294896,0.986844631145603
2013-10-16,1,0.0006730582351723773,0.0007055725204080363,-0.011089667049622587,0.00683768672294896,0.9880775710268286
2013-10-18,1,0.0007353851372665506,0.0007786412834175616,-0.006977576305213336,0.0044369004054349665,0.9903267915739192
2013-10-22,1,5.149258289982345e-05,0.0001189314970688598,-0.010157985002461145,0.0044369004054349665,0.9904194068791498
2013-10-24,-1,-0.00019998809470662515,-6.134990361619309e-05,-0.011089667049622587,0.0016664785810961745,0.9893681032303074
2013-10-28,-1,-0.0008002639492975959,-0.0005668584472989879,-0.011089667049622587,0.001317532542012727,0.9891470869031118
2013-10-30,1,5.0667165338093105e-05,0.00014469424401153446,-0.010157985002461145,0.001317532542012727,0.9899047850597631
2013-11-01,-1,-0.0015380161697764695,-0.0011738027916782096,-0.006753643929251957,0.004884172627273384,0.9889260678575861
2013-11-05,-1,-0.0018386775444293507,-0.0014609012345052188,-0.006753643929251957,0.008903281754569945,0.9882721432333624
2013-11-07,-1,-0.0007678761295214036,-0.0005482569079483366,-0.005398657986849497,0.008903281754569945,0.990006697559037
2013-11-11,-1,-0.0012859955303788505,-0.0009588291997749972,-0.005820326358763414,0.007466234808308536,0.9900638147605645
2013-11-13,-1,-0.0012237765855785268,-0.0009030866007370778,-0.007085965023031443,0.007466234808308536,0.9898478625157668
2013-11-15,-1,-0.0015073937189222066,-0.0011613756838507907,-0.007085965023031443,0.011129726319970066,0.9883383946578865
2013-11-19,-1,-0.0017256153833259977,-0.0013645165804163065,-0.007109312689676063,0.011129726319970066,0.9878363768812856
2013-11-21,-1,-0.00213473239021017,-0.0017640877481579006,-0.005820326358763414,0.011389012254719298,0.9878356073393314
2013-11-25,-1,-0.002574347120154282,-0.0021656985676012388,-0.0031904498802978504,0.012051071853224564,0.9882760843094206
2013-11-27,-1,-0.002310826701915016,-0.0019471270789229007,-0.003301223578224346,0.012051071853224564,0.9881003785394318
2013-12-02,-1,-0.0006994318625745082,-0.0005595427795204961,-0.0038914169525915707,0.011389012254719298,0.9897381694640139
2013-12-04,-1,-0.0006525134090392159,-0.0005303247000687016,-0.007109312689676063,0.010762912067790108,0.989700017502583
2013-12-06,1,0.0006004582019680856,0.0006297771342805507,-0.010132787125259578,0.011143099065793992,0.9882590601818284
2013-12-10,-1,-0.0005436110378973763,-0.0004579259450230006,-0.010132787125259578,0.011143099065793992,0.9880642539645629
2013-12-12,-1,-0.0009466810077305911,-0.0008032098878254621,-0.009587698347865919,0.011143099065793992,0.9880848927771301
2013-12-16,1,6.163271219343535e-06,4.257638465553504e-05,-0.009587698347865919,0.011143099065793992,0.9886115370545778
2013-12-18,1,4.4458398086247696e-05,7.311452186526193e-05,-0.009604979890809169,0.009293329083535756,0.9890679284245361
2013-12-20,1,0.0007510855674802783,0.0008131686872313647,-0.009604979890809169,0.009293329083535756,0.9893063115535082
2013-12-24,1,0.001201366576699618,0.0013469316360298126,-0.010130061156650529,0.008430639881519007,0.9891255405447242
2013-12-27,1,0.0010120946416487097,0.0011660089670330416,-0.010130061156650529,0.008430639881519007,0.9886232755113785
2013-12-31,1,0.0012859289262557143,0.0014715510395568786,-0.010932860763627797,0.008430639881519007,0.9877531247377601
2014-01-03,1,0.0004298093084969137,0.0004930296168753226,-0.010130061156650529,0.008430639881519007,0.9884081177212896
2014-01-07,1,0.0005137091106439132,0.0006159528885180034,-0.009604979890809169,0.009787043012217996,0.9898225149403795
2014-01-09,-1,-0.00022416273074450215,-0.00019550209706448916,-0.0032092644480457527,0.010326420284737984,0.9893761892558989
2014-01-13,-1,-0.00027418190172114314,-0.00021484287373842764,-0.010130061156650529,0.010326420284737984,0.9886351255758007
2014-01-15,1,7.309349435346692e-05,0.00011752957821023737,-0.010130061156650529,0.009872624492767396,0.9893367242366732
2014-01-17,1,2.2151354641137676e-06,3.237737046076088e-05,-0.004642108134772842,0.009872624492767396,0.9893717816647462
2014-01-22,1,9.09086508360662e-05,0.00015485077983403139,-0.008169402710894894,0.009769403199352355,0.9899668026431188
2014-01-24,-1,-0.00015871589610784762,-5.159999287648236e-05,-0.006907671595717263,0.009872624492767396,0.9890417617545065
2014-01-28,-1,-0.0003666829251995927,-0.00027410739517391263,-0.0037314114970110656,0.010326420284737984,0.9894043978923835
2014-01-30,1,9.983958036029893e-05,0.00010120351865947084,-0.0026810154137055834,0.010326420284737984,0.9901027327960827
2014-02-03,-1,-0.0001348327681647855,-0.0001236874603614012,-0.0026810154137055834,0.011862340421369666,0.9897676081934927
2014-02-05,1,0.0005781283480209049,0.0006758463999188417,-0.002894969887925092,0.010606791922651753,0.9905630427378229
2014-02-07,1,0.0009840245003761249,0.0011237538278104592,-0.004718487060777455,0.009644733785087903,0.990588757746881
2014-02-11,1,0.0011274527466815796,0.0013166763139765825,-0.004718487060777455,0.008128781217739195,0.9908939487487398
2014-02-13,1,0.0015182652630567443,0.0017679077800829756,-0.006907671595717263,0.007518266814529323,0.9901455540130977
2014-02-18,1,0.0016704815902780171,0.0019461713854946193,-0.006907671595717263,0.008731266358279498,0.9898494092450109
2014-02-20,1,0.001974820382460247,0.0023356467135939073,-0.007005885505138889,0.008731266358279498,0.9896301528153083
2014-02-24,1,0.0024103999378011598,0.002804204330275149,-0.007487015687867288,0.007518266814529323,0.9907077658820163
2014-02-26,1,0.0028437424189405925,0.0032891763235850958,-0.008204327077893248,0.007396806734829414,0.9906833185266164
2014-02-28,1,0.0035138473812896132,0.0040459299271080875,-0.008204327077893248,0.0023576846435442492,0.9905837762134585
2014-03-04,1,0.002860695296257376,0.0032247826827668472,-0.007999475112534887,0.002508140672871304,0.9912297800220464
2014-03-06,1,0.0030386930740481486,0.003436630941867054,-0.010816128335700247,0.000755587636656518,0.9900533952833259
2014-03-10,1,0.0028187881527019904,0.003226473616358921,-0.010889849222886726,0.000755587636656518,0.9896049150096307
2014-03-12,1,0.002204113293197222,0.0024900635908540877,-0.01055281919183794,0.002508140672871304,0.9884706606515234
2014-03-14,1,0.00138626038417645,0.0015171353748658569,-0.010836026042343475,0.002508140672871304,0.9877506568702794
2014-03-18,1,0.0017276567068378718,0.0018876592689467987,-0.010836026042343475,0.0003623928121738137,0.9877974835971098
2014-03-20,1,0.0014142178253849118,0.0015467030828810152,-0.010836026042343475,0.006271559134171918,0.987926424839167
2014-03-24,1,0.0009195595849027702,0.0009712549685420044,-0.010836026042343475,0.009752850020879122,0.9881759163943886
2014-03-26,1,0.0006005426489443465,0.0006344540024019137,-0.01055281919183794,0.009752850020879122,0.988495159540729
2014-03-28,1,5.6078492304522385e-05,0.00011342031387813026,-0.010836026042343475,0.009752850020879122,0.9879008536498616
2014-04-01,1,0.0001395847832157048,0.0002095740108621412,-0.012520812805149915,0.009752850020879122,0.9853846522259512
2014-04-03,-1,-0.0001484301879931753,-9.214372489266509e-05,-0.010836026042343475,0.009752850020879122,0.9862959457894928
2014-04-07,-1,-0.0008594777325821325,-0.0007252634717944653,-0.01003217080641268,0.009752850020879122,0.9868745625799006
2014-04-09,1,0.0005285159868842888,0.0005635605474727547,-0.01003217080641268,0.005387522195174107,0.988529565097466
2014-04-11,-1,-0.000720083818969681,-0.0005944860217807334,-0.0064621937613968125,0.00707477381299789,0.9899834927208165
2014-04-15,-1,-0.0006824082870166271,-0.0005487647036922389,-0.0064621937613968125,0.005725972080543913,0.9901680115440683
2014-04-17,-1,-0.0007618100934564273,-0.0005762201212669074,-0.0064621937613968125,0.005725972080543913,0.9903906061206239
2014-04-22,-1,-0.0009214043222343225,-0.0006922893315409188,-0.007167452344778366,0.005725972080543913,0.9902387146995454
2014-04-24,-1,-0.001220432522305047,-0.0009586938719960715,-0.007134028069383399,0.005725972080543913,0.9904062262111305
2014-04-28,-1,-0.0011532210142500465,-0.0009486702046948195,-0.006365240468590837,0.0064717390797992365,0.9906150005327706
2014-04-30,-1,-0.0020958591412757873,-0.0017711105246378338,-0.006365240468590837,0.005725972080543913,0.9925418098963951
2014-05-02,-1,-0.0017705868662822807,-0.0015038583320499206,-0.006365240468590837,0.006006974286343069,0.9921372397407942
2014-05-06,-1,-0.002275518421461743,-0.0019479568744174764,-0.005743549541952537,0.006006974286343069,0.9929832032436962
2014-05-08,-1,-0.002720984386074721,-0.002330135785460539,-0.005124647846482062,0.006006974286343069,0.9924052748029915
2014-05-12,-1,-0.001912598112689992,-0.0016508293983256903,-0.005978635736413055,0.0031502324779739996,0.9924481448457222
2014-05-14,-1,-0.0017435837703706873,-0.0015022722790268457,-0.005978635736413055,0.0037613069605515067,0.9920386939434875
2014-05-16,-1,-0.001120418171161626,-0.0009861839523115311,-0.005914722279658101,0.0037613069605515067,0.9921366302197678
2014-05-20,-1,-0.0009255709458272747,-0.0008282605099426319,-0.005103343360897078,0.004403795719724553,0.9920445599146248
2014-05-22,-1,-0.0013794353186415672,-0.0012085050483130874,-0.005031470889000884,0.004403795719724553,0.9922346275096792
2014-05-27,-1,-0.001012153293616776,-0.0009002705099498121,-0.005313845939864758,0.001562532828042532,0.9923241722578203
2014-05-29,-1,-0.0021293476461436292,-0.0018540532333979729,-0.004858664105127073,0.00468634101496034,0.9929031552727073
2014-06-02,-1,-0.0021296268265794715,-0.0018455682303770392,-0.0031213455409813042,0.00468634101496034,0.9929273424109467
2014-06-04,-1,-0.002340120427599824,-0.0020141387708587947,-0.0031213455409813042,0.008997450825291384,0.992350107938485
2014-06-06,-1,-0.002536609762484556,-0.002199550636633434,-0.0027923993888300355,0.008997450825291384,0.9926790098665125
2014-06-10,-1,-0.0028446897373440062,-0.0025015705361234276,-0.001887668347473809,0.009687130522801403,0.9924536692287844
2014-06-12,-1,-0.0027077592979019805,-0.0023702473513291743,-0.001887668347473809,0.009687130522801403,0.9916771137440512
2014-06-16,-1,-0.00206530247138169,-0.0018309309360954886,-0.005581957319093377,0.008997450825291384,0.9921249300186399
2014-06-18,-1,-0.0017129711926473948,-0.001521348831135211,-0.005581957319093377,0.007983702268928215,0.9925924833219404
2014-06-20,-1,-0.0021451223624130112,-0.0018788342765204231,-0.004595118862639571,0.008796718464963299,0.9919009921972228
2014-06-24,-1,-0.002413552489323322,-0.002117675425193272,-0.0027524906603994268,0.009019076704787982,0.9912805955440263
2014-06-26,-1,-0.0022600742031432743,-0.001965784327370445,-0.004595118862639571,0.009319793532845197,0.9912098589966657
2014-06-30,-1,-0.0015655954643237187,-0.0013795075813888254,-0.004595118862639571,0.008796718464963299,0.9915064039309042
2014-07-02,-1,-0.0009709604125267373,-0.0008790984939445435,-0.0066128775871124364,0.00799091089542708,0.9918097857669328
2014-07-07,-1,-0.0009093153344546859,-0.0008201592133203911,-0.0066128775871124364,0.00913613156942246,0.9916173661754476
2014-07-09,-1,-0.0005995101985950058,-0.0005615952064795273,-0.00590942238835295,0.007282023048109932,0.9924980139823529
2014-07-11,-1,-0.00021621461567078362,-0.0002007913665377672,-0.0031905918356372196,0.007282023048109932,0.9937037138394548
2014-07-15,-1,-0.0005317457568683138,-0.0005060310936960162,-0.002741556648394867,0.007282023048109932,0.9936356467805729
2014-07-17,-1,-7.500085240008198e-05,-9.451578047825102e-06,-0.004331487998587603,0.007282023048109932,0.9938236986423928
2014-07-21,1,0.00047466345732799004,0.0006378248850403121,-0.005528824872351258,0.007309576167932716,0.9939162660513656
2014-07-23,1,0.0012010815746894478,0.0014931013774544734,-0.005886852695999557,0.006199657590667401,0.9939255717097258
2014-07-25,1,0.0015222749241691372,0.001883021727864346,-0.005886852695999557,0.006199657590667401,0.9922961533726539
2014-07-29,1,0.0018447420638768623,0.0022562210313269633,-0.005886852695999557,0.009170283692371009,0.9918397841230955
2014-07-31,1,0.001537833039866889,0.001887329245552389,-0.0060278606038878715,0.009170283692371009,0.9914970277141757
2014-08-04,1,0.0015981031987580907,0.0019473822571657103,-0.006628213212459039,0.005059128390284768,0.9915993458020647
2014-08-06,1,0.0014916073885232032,0.0017942472139626084,-0.006628213212459039,0.0036350577036591124,0.991235122567491
2014-08-08,1,0.0020706548334636426,0.00248078174602961,-0.0073214458468030125,0.0024777455317545266,0.9905808065743552
2014-08-12,1,0.0018742784931800411,0.0022566067240786776,-0.0088646382882697,0.0024777455317545266,0.9884045500986612
2014-08-14,1,0.0015283722240127672,0.0018496443583307489,-0.008355080608448903,0.006823990096797038,0.9873462081726697
2014-08-18,1,0.0014905521294106114,0.001786846925249071,-0.009051734042702732,0.0076044586100058285,0.9862879817135879
2014-08-20,1,0.0015686027369775852,0.0018652436431587209,-0.009051734042702732,0.008129654675844348,0.9863155538986501
2014-08-22,1,0.002854948832857385,0.0033474674010813736,-0.009051734042702732,0.0062388102724469305,0.9880822183085775
2014-08-26,1,0.002847180831941424,0.003296080168040829,-0.009051734042702732,0.005390018384898551,0.9886416068396768
2014-08-28,1,0.0019978764310554023,0.002284048979916767,-0.010232211994841067,0.0062388102724469305,0.9883188547417698
2014-09-02,1,0.0024646767784872285,0.0029001272542014426,-0.008644245870935484,0.008129654675844348,0.9851187406721991
2014-09-04,1,0.0009811472694348329,0.0011341189577512671,-0.011798074960973223,0.008129654675844348,0.9839708630930746
2014-09-08,1,0.000992778673914238,0.0011553517843254102,-0.015139410873657763,0.008129654675844348,0.983485717323721
2014-09-10,1,0.00024052202372190382,0.00032493008837027596,-0.010821713076675014,0.01317559231492697,0.9844544230670216
2014-09-12,1,0.0007452550233872117,0.0009100411737641824,-0.015139410873657763,0.008129654675844348,0.9838732733390494
2014-09-16,1,0.0005004602371784105,0.000623940840825763,-0.015139410873657763,0.005506360802866443,0.9842049868613332
2014-09-18,1,0.0006908858173315174,0.0008166645164748684,-0.01699065903532601,0.0028328739820396628,0.9824476754028171
2014-09-22,1,0.0003325343645828401,0.00037469565357185845,-0.01699065903532601,0.003988376167240389,0.9815714288465053
2014-09-24,1,0.000575638771037483,0.0006537660666053381,-0.01699065903532601,0.005671457090878724,0.9795860605650075
2014-09-26,1,0.00032225774320188594,0.0003396693975143664,-0.01699065903532601,0.008164450882769549,0.9801536115989721
2014-09-30,1,0.0016212312626918282,0.0017906820469803391,-0.01699065903532601,0.0035565780930328843,0.9837200663101864
2014-10-02,1,0.001121027610458248,0.001249530375721989,-0.014851855826372311,0.004838888952647547,0.9852947766271845
2014-10-06,1,0.0006315014350826669,0.0007020275144598492,-0.011711528943713804,0.008164450882769549,0.9854789206577974
2014-10-08,1,0.0010712102461687305,0.0012060651221627208,-0.008777038952369167,0.007577002577426354,0.9868319073716864
2014-10-10,0,-2.7489566126923173e-06,3.7033173892592413e-06,-0.0013929313952686952,0.007577002577426354,0.9882796554312684
2014-10-14,-1,-0.0007101046819933853,-0.0006110725105331064,0.0010758288301202352,0.007888947499644212,0.9887573095694027
2014-10-16,-1,-0.0018837583030416644,-0.001654678302889662,0.001438875845611518,0.007888947499644212,0.9902004650460633
2014-10-20,-1,-0.001614227656749015,-0.00138238820156111,0.0010758288301202352,0.007346478582811086,0.9913232468864598
2014-10-22,-1,-0.0010755780824982168,-0.0009141106540727571,0.0010758288301202352,0.007346478582811086,0.9931341412878045
2014-10-24,-1,-0.0006405545135371028,-0.0005284756268209274,-0.0006880198134049869,0.006233660662754464,0.9940365909682017
2014-10-28,-1,-0.000800196185202471,-0.0006542398642775553,-0.0009634521683598746,0.006233660662754464,0.9940747588177853
2014-10-30,-1,-0.0010878102372969347,-0.0008745261763158498,-0.0009634521683598746,0.006233660662754464,0.9938777189668586
2014-11-03,-1,-0.0005482362456282154,-0.000403872644818775,-0.0009634521683598746,0.005802582884440612,0.9950734057887388
2014-11-05,-1,-0.00011508645957899289,-2.8708793615704576e-05,-0.002437820201832253,0.005595355006046786,0.9957253983505049
2014-11-07,0,-3.126733007135124e-05,3.240629301773016e-05,-0.00224989915768487,0.0056941476194943726,0.9958260918169316
2014-11-11,1,9.546051505693553e-05,0.00015287383688644235,-0.0023596252939140456,0.004820001960163861,0.996100872608993
2014-11-13,0,-3.783222469802425e-05,4.761383862799488e-05,-0.002398461488805753,0.004820001960163861,0.9942669821743888
2014-11-17,1,0.00023578610506780142,0.0002775611498440736,-0.0028699535514173776,0.004820001960163861,0.9939351401675527
2014-11-19,1,0.0003627940395616187,0.00038000454419475987,-0.002398461488805753,0.0058113505879300205,0.9934403850753715
2014-11-21,1,0.00021366573950794352,0.00023959759332042006,-0.002398461488805753,0.0058113505879300205,0.9934363938807569
2014-11-25,1,0.00019868574578920474,0.0002241587235432394,-0.002398461488805753,0.0058113505879300205,0.9932546546431821
2014-11-28,1,0.00038663277440277035,0.00038840493374042576,-0.002398461488805753,0.004950623882778607,0.9935573645918077
2014-12-02,1,0.0005225674503128299,0.0005489615093399712,-0.0028699535514173776,0.004950623882778607,0.9925869752619438
2014-12-04,1,0.00016017680612692367,0.00019590856913583038,-0.0032391738008674103,0.004950623882778607,0.9924677075995151
2014-12-08,1,0.00035906926218837496,0.00036928843968292484,-0.006132644103150218,0.0036319946808343264,0.9920975671277906
2014-12-10,1,0.000509685215216495,0.0005322686478232338,-0.007174653684835872,0.004599182727835709,0.9904078510645362
2014-12-12,1,0.0008586624153186307,0.000948833757360658,-0.007016696972512371,0.0033267587115161715,0.9920664628812467
2014-12-16,1,0.000902632398990687,0.000999397916888506,-0.009500391482646245,0.0020340397001544735,0.9907933748275481
2014-12-18,1,0.0015854671519121924,0.0017811189084345144,-0.009500391482646245,0.0006804438617001142,0.9911683533840232
2014-12-22,1,0.0013517718984799945,0.001505251590139895,-0.009500391482646245,0.0006804438617001142,0.988058505669277
2014-12-24,1,0.0012427728378386505,0.0013853694697401856,-0.012478749739278162,0.0006804438617001142,0.98737157857455
2014-12-29,1,0.0012494240894708932,0.0014004688965714059,-0.014256054489990674,0.0006804438617001142,0.9854840672351947
2014-12-31,1,0.0010161966547822814,0.0011496823259484676,-0.014256054489990674,0.0006804438617001142,0.9857180467894543
2015-01-05,1,0.000701650702918634,0.0007763122131378953,-0.014256054489990674,0.004185119303541902,0.9852828822281205
2015-01-07,1,0.00025364907850315645,0.0002555504678357848,-0.014256054489990674,0.010240224036410136,0.9851521982036423
2015-01-09,1,0.0005266655676099304,0.0005674118959775646,-0.01313501187326682,0.00541456185329663,0.9867384558433012
2015-01-13,1,0.0003731318314583645,0.0003993696959073677,-0.01313501187326682,0.010240224036410136,0.9862983657731361
2015-01-15,1,5.09620181341485e-06,3.356623362412894e-05,-0.007929190346287697,0.011116787009512493,0.9863286257972778
2015-01-20,1,0.0004269138828144631,0.0005289335705239719,-0.007929190346287697,0.010240224036410136,0.9864676716402038
2015-01-22,1,0.0016193832631646614,0.0018611444687739783,-0.007929190346287697,0.010240224036410136,0.9893493376186866
2015-01-26,1,0.0010896894912970775,0.001247976013374799,-0.004153003822902981,0.010240224036410136,0.9901221271460451
2015-01-28,1,0.0001619681896017769,0.00018707215273674766,-0.0012520963305733567,0.010240224036410136,0.9916658612370607
2015-01-30,-1,-0.0002357280533953269,-0.0002071005149272375,-0.0012520963305733567,0.010240224036410136,0.9916068659803704
2015-02-03,-1,-0.0004881504490887376,-0.000367916462997705,-0.0021296393438460233,0.008213931663511642,0.9926450084132113
2015-02-05,-1,-0.00022878772267180124,-0.00016144806687506713,-0.0011779405260527879,0.009675986142134108,0.9923567437237946
2015-02-09,-1,-0.00038323618697783785,-0.0002871437340743003,-0.0011779405260527879,0.01318708521445955,0.9906074435069446
2015-02-11,1,0.0001350738641835959,0.00015113891882031377,-0.0011779405260527879,0.009675986142134108,0.9910637184633291
2015-02-13,1,0.0005122881104949101,0.0005377412871767247,-0.0011779405260527879,0.00847531233518608,0.9923940355890105
2015-02-18,1,0.0006852815143316628,0.0007415562992529886,-0.00267264135564304,0.00820315566000588,0.991914669824301
2015-02-20,1,0.000997713854822787,0.0010926164511797323,-0.004823833504912071,0.007982383604262946,0.9923007983716073
2015-02-24,1,0.002560141285471069,0.002956007473134823,-0.004823833504912071,0.009326127056177726,0.9912954195759579
2015-02-26,1,0.0022636930163580015,0.002567282032894208,-0.009328823517513364,0.009326127056177726,0.9895906142215373
2015-03-02,1,0.0017246743479664912,0.0019131345532705454,-0.00661743541338046,0.009326127056177726,0.9904080191305018
2015-03-04,1,0.0018993962257401837,0.0021387680637530784,-0.009328823517513364,0.009326127056177726,0.9897800282405925
2015-03-06,1,0.0017661412469623,0.0019007982878443755,-0.009328823517513364,0.005888676524508103,0.990430278611983
2015-03-10,1,0.0009486488367165745,0.0009682758930551611,-0.00661743541338046,0.004733321163448679,0.9924999865216045
2015-03-12,0,-0.00015120274020394384,0.00010089342410302485,-0.00661743541338046,0.004733321163448679,0.9930116790696082
2015-03-16,1,0.0002556871959704674,0.0004160034407015446,-0.007557203664351382,0.002578279590483408,0.9932575878264638
2015-03-18,0,-0.00017543358476780505,5.762272581658285e-06,-0.0049806693877431345,0.002578279590483408,0.9941794816663434
2015-03-20,-1,-0.0002202866883769552,-6.120571227388104e-05,-0.0049806693877431345,0.004686624808957181,0.993340119297603
2015-03-24,1,0.0005236138959261634,0.0005977442835244833,-0.0049806693877431345,0.004686624808957181,0.9940429917971969
2015-03-26,-1,-0.0005108438269543033,-0.0003321348711285095,-0.0022759684320198753,0.005220219427087761,0.9935129212731636
2015-03-30,0,-1.6167440931472306e-05,7.903220720618346e-05,-0.0023562599947075,0.005395124049691741,0.9935407938027845
2015-04-01,-1,-0.00021602640756362501,-0.00011973437028534885,-0.0023562599947075,0.005395124049691741,0.9931681665529052
2015-04-06,-1,-0.0004715772988890509,-0.00034121999964270447,-0.002194551466528071,0.00580360872963011,0.9923248402032581
2015-04-08,-1,-0.00016045204676309795,-8.198174491699236e-05,-0.007173674761852368,0.00580360872963011,0.9913070192952139
2015-04-10,0,-3.793823227992902e-05,2.382995513135311e-05,-0.007173674761852368,0.006331606678002085,0.9905483273743498
2015-04-14,-1,-0.00014552267618725596,-8.200044417213664e-05,-0.007865119839286162,0.006331606678002085,0.9904572833858536
2015-04-16,-1,-9.931787442004993e-05,-4.325772630204338e-05,-0.007865119839286162,0.008318404260941974,0.989032180888398
2015-04-20,-1,-0.0008312669169966041,-0.0006740322536937867,-0.007865119839286162,0.008318404260941974,0.98972319919136
2015-04-22,-1,-0.0005083200244740036,-0.00038690257549430906,-0.007865119839286162,0.008318404260941974,0.9901682409601157
2015-04-24,1,0.0008563908640231593,0.0009109473078056154,-0.007865119839286162,0.008318404260941974,0.9915136059913587
2015-04-28,1,0.000963506038206344,0.0010330483955102595,-0.008642237575711404,0.009054589740939523,0.9905446820937909
2015-04-30,1,0.00018867846658286017,0.00023060251141327195,-0.004590527454368118,0.011603230296457252,0.990133583822454
2015-05-04,1,0.0007106214289732595,0.0007439999178437609,-0.007865119839286162,0.011603230296457252,0.9897639792785643
2015-05-06,-1,-0.00016004972357155445,-8.982242470101552e-05,-0.0021487775547140023,0.011603230296457252,0.9907208717763863
2015-05-08,1,0.0006766966148240036,0.0007221367582743232,-0.004688990067711172,0.011261186042625345,0.9894524893461577
2015-05-12,1,0.0004216317395288057,0.00043662518322402135,-0.0044565987690566525,0.011261186042625345,0.989509183213438
2015-05-14,1,0.0016920018201520457,0.0019227078639608964,-0.007142736059366596,0.010247917509270097,0.9903548854699457
2015-05-18,1,0.0012963901271434745,0.0014670588203092596,-0.00442719662727977,0.010247917509270097,0.9906723421195244
2015-05-20,1,0.0010467753830723835,0.001175798046796764,-0.002029467108204507,0.010247917509270097,0.9909829357790656
2015-05-22,1,0.0012648913544384508,0.0014186466200474333,-0.002028238927211606,0.009878242589932303,0.9907578613918469
2015-05-27,1,0.000814721799286752,0.0008791082231476118,-0.001541683191280008,0.008870438103692488,0.9916579561379653
2015-05-29,1,0.0016011785906069485,0.0017541717045946714,-0.005653666709794919,0.007782738793348425,0.9925578720843414
2015-06-02,1,0.0015503645109362133,0.0016671242671686712,-0.005653666709794919,0.007782738793348425,0.9918886352998966
2015-06-04,1,0.0018832771445732774,0.002062861932514065,-0.005653666709794919,0.008098461172992524,0.9911074584742453
2015-06-08,1,0.0008703780656235944,0.0008968886587585542,-0.002383161076053013,0.004648942929372247,0.9933142794842292
2015-06-10,-1,-0.00016209946495567733,-5.223822431283938e-06,-0.002383161076053013,0.008098461172992524,0.9923118075965272
2015-06-12,-1,-0.0002909565958413562,-0.0001354908725420732,-0.0006136998920099052,0.009539706440034768,0.9912602955012406
2015-06-16,1,0.0010537746299461997,0.0011572117763195538,-0.0016810988815576789,0.009539706440034768,0.9918116173146712
2015-06-18,1,0.0007230112420657446,0.0007480782221417821,-0.0016810988815576789,0.011201521587470932,0.9896737520902136
2015-06-22,1,0.0004347261549452176,0.0005154047775086416,-0.0016810988815576789,0.013255214386947939,0.9892473885583326
2015-06-24,0,-0.00010445016418835352,6.806477711827192e-05,-0.0016810988815576789,0.013255214386947939,0.9892562788091442
2015-06-26,0,-0.00010290153661379747,3.776198818113027e-05,-0.003080332106085993,0.013255214386947939,0.9889477017682488
2015-06-30,-1,-0.0006335997925797958,-0.0004286080419337999,-0.0016810988815576789,0.013298069705549347,0.9895783278355583
2015-07-02,1,0.00015220597762785078,0.0002678489451889405,-0.005692268660258189,0.012036533881333827,0.9899442704973882
2015-07-07,1,0.00038538713821969703,0.00045341772245362526,-0.005692268660258189,0.012036533881333827,0.9897221318901781
2015-07-09,1,0.000640080084691768,0.0006431194074916964,-0.005692268660258189,0.010950699267067505,0.9901978620003815
2015-07-13,1,0.0014887419934404302,0.0016066634845942748,-0.005692268660258189,0.010950699267067505,0.9908589160920834
2015-07-15,1,0.001718876434409839,0.0018983867547205152,-0.007312973068234909,0.010950699267067505,0.9898316099953213
2015-07-17,1,0.003031774107957907,0.0033927213863571503,-0.007312973068234909,0.008012550818068653,0.9912424690336926
2015-07-21,1,0.003678185548291635,0.004123386709375057,-0.0083135399660899,0.005826853617181715,0.9910110572419216
2015-07-23,1,0.003366933801834256,0.003759471731722845,-0.012486915617979185,0.005826853617181715,0.9891717476864109
2015-07-27,1,0.003222173030517277,0.0035774567292254753,-0.015040134467081178,0.005826853617181715,0.9869716454986017
2015-07-29,1,0.0037526667666025982,0.004233282091788794,-0.015040134467081178,0.005826853617181715,0.9857228265656983
2015-07-31,1,0.0028118219498307366,0.0031446088234880895,-0.015040134467081178,0.008012550818068653,0.9856478909242409
2015-08-04,1,0.003061164177109889,0.0034282674260019174,-0.01820309506322234,0.0065628605682569,0.984167947980001
2015-08-06,1,0.002631783725560246,0.0029433711784113,-0.01820309506322234,0.010243154911568176,0.9844184689596599
2015-08-10,1,0.002511157688379626,0.0027740413059419203,-0.01896332903595325,0.007156650502401893,0.9835205238945306
2015-08-12,1,0.001723057016399296,0.0018599732116618716,-0.01896332903595325,0.007156650502401893,0.9844250732823326
2015-08-14,1,0.0022158925661367053,0.002459560388247827,-0.020946712846005845,0.006370310590177206,0.9834544277924767
2015-08-18,1,0.0011119703727472572,0.0011525177822946026,-0.020946712846005845,0.009707431691688265,0.9829220165425356
2015-08-20,-1,-0.00019404495502540136,-8.047812605653309e-05,-0.01836000629847987,0.009707431691688265,0.9839677881139317
2015-08-24,-1,-0.0023759462440931353,-0.0019860957332639767,-0.010127382960861187,0.009707431691688265,0.98646897260055
2015-08-26,-1,-0.0010224497527751692,-0.000781340185638121,-0.010127382960861187,0.006370310590177206,0.9886969003544923
2015-08-28,1,0.00020338731283816008,0.0002992206006366335,-0.013364051589294166,0.002167870161183242,0.987530988539946
2015-09-01,-1,-0.0007421037771204379,-0.0005350858486269165,-0.01118990579477584,0.006370310590177206,0.9884054724289215
2015-09-03,-1,-0.0003184215564398993,-0.00014907842932898206,-0.01118990579477584,0.0071087245409273345,0.987144117318983
2015-09-08,-1,-0.001237114611766072,-0.0009541558746710061,-0.009870732924475744,0.008402190893825144,0.9880396001990721
2015-09-10,-1,-0.0019522001972733813,-0.0015548202436383499,-0.01118990579477584,0.008402190893825144,0.9854808159459797
2015-09-14,-1,-0.0022142513545555407,-0.0018091765236270276,-0.009870732924475744,0.009373915351367052,0.9858335579439635
2015-09-16,-1,-0.0003264420557169327,-0.0001974389340722599,-0.01118990579477584,0.006714768529662887,0.9863522183243767
2015-09-18,-1,-0.0012176821928538222,-0.0009893164458912211,-0.005615723039629604,0.008844085187470716,0.9864397199111324
2015-09-22,-1,-0.0022176212313283856,-0.00183767139496852,-0.003289184638035159,0.008844085187470716,0.9865991027131329
2015-09-24,-1,-0.0018893937518354663,-0.001574045845388177,-0.006425113050994122,0.011762246551015359,0.9815723918926178
2015-09-28,-1,-0.0039406847895617665,-0.003354552434473495,-0.002369605998239173,0.016020328809210477,0.9820581645610307
2015-09-30,-1,-0.0031724654874109946,-0.0027083758977550837,-0.0028056986249862907,0.012832383853075705,0.9827925294941767
2015-10-02,-1,-0.002045776116778585,-0.0017002917454194718,-0.004597462518276512,0.007381229139451693,0.9851541592643153
2015-10-06,-1,-0.001397820474758938,-0.0011689999027358292,-0.004597462518276512,0.011533467257826746,0.9838702927448016
2015-10-08,-1,-0.0033570636293658905,-0.0028842592796831656,-0.002915861399942615,0.013889381658256084,0.9852627468448127
2015-10-12,-1,-0.0029396769136505437,-0.0025084532510217103,-0.004597462518276512,0.013889381658256084,0.9860160927619274
2015-10-14,-1,-0.0034264282652172254,-0.0029525174319150384,-0.004597462518276512,0.013889381658256084,0.9869469395665337
2015-10-16,-1,-0.0028233774541236234,-0.002412732938865553,-0.0067608925539693505,0.008785038287872488,0.9875053029043722
2015-10-20,-1,-0.002352086887632123,-0.002043947965443035,-0.0067608925539693505,0.0111756797755133,0.9871427834379543
2015-10-22,1,0.0004603932563335499,0.0005007940040853075,-0.004802437289991718,0.010351672508818953,0.9919584673001782
2015-10-26,1,0.0010711036217584584,0.0012030262344268723,-0.0067608925539693505,0.01013175745308386,0.9920441074331587
2015-10-28,1,0.0007469518897386426,0.0007940529959309881,-0.0067608925539693505,0.01013175745308386,0.9923586873420309
2015-10-30,1,0.00025491282095228384,0.0002815533371464473,-0.002658174983030141,0.010351672508818953,0.9920710211704473
2015-11-03,1,0.001026107988173202,0.001082052323670757,-0.0067608925539693505,0.006680861103882277,0.9926354595700548
2015-11-05,1,0.0013996633889929455,0.001514226811606602,-0.007504857507628947,0.006680861103882277,0.9913130452428999
2015-11-09,1,0.0012453821233541532,0.0013396313423761155,-0.009267897370171283,0.006680861103882277,0.9907994703043443
2015-11-11,1,0.0011993326079400809,0.0013119066994352984,-0.010904914180725957,0.008606768395951345,0.9901672869947974
2015-11-13,1,0.0004129538810825929,0.0004162974880225412,-0.009267897370171283,0.008606768395951345,0.9904346069106041
2015-11-17,1,0.00045517558589277976,0.00046219959167340347,-0.009267897370171283,0.009295293944391313,0.9901150597701422
2015-11-19,1,0.0004703462126154026,0.00049762394798708,-0.01374535501839459,0.008382801500049372,0.9886629436965563
2015-11-23,1,0.0008536349166246786,0.0009124852228808946,-0.01374535501839459,0.008382801500049372,0.9888264959057116
2015-11-25,1,0.000965001506967782,0.001038660777812163,-0.01374535501839459,0.008382801500049372,0.9886030561535482
2015-11-30,1,0.001389753131106441,0.0015102124475137617,-0.01374535501839459,0.008382801500049372,0.988918279829676
2015-12-02,1,0.0011461798611386268,0.0012765384146205322,-0.010945375188269648,0.008382801500049372,0.9892408859835039
2015-12-04,1,0.0014489343755002358,0.0016166201132236685,-0.012704419845668953,0.005579578692848974,0.9885416237514077
2015-12-08,1,0.0016031786689844688,0.0018644549546019246,-0.016273071491697898,0.008382801500049372,0.9877654459058809
2015-12-10,1,0.0016770419147293385,0.001985672049720172,-0.013347038102585822,0.009295293944391313,0.9883349347270753
2015-12-14,1,0.0011382663866821763,0.0013673433023060312,-0.013347038102585822,0.009295293944391313,0.9878026032933781
2015-12-16,1,0.0014302890303077014,0.0016742132550304708,-0.01890916322299915,0.005992765447751228,0.9865491775430815
2015-12-18,1,0.0007443908810494538,0.0009341285624549398,-0.010229578514946328,0.010044720517709872,0.9876622030047995
2015-12-22,1,0.0008785190766806947,0.0010551979936823746,-0.010229578514946328,0.010618412201913162,0.9872712583926582
2015-12-24,1,0.0008345191732313242,0.001021503157411886,-0.011161579633933298,0.011584878462331732,0.9862841768632367
2015-12-29,1,0.0010116048017568455,0.0012128353451416336,-0.014597274125028818,0.011584878462331732,0.9814526807477445
2015-12-31,1,0.0007222426327728201,0.0008953708014479518,-0.014597274125028818,0.013760981541197185,0.9806635171211208
2016-01-05,-1,-0.000508445223561854,-0.0004940508469514597,-0.01402977837633052,0.013760981541197185,0.9809480908586793
2016-01-07,-1,-0.0006931601441744502,-0.0006688556544468959,-0.01131572001565304,0.013760981541197185,0.9821746368844173
2016-01-11,-1,-0.0004912438801959033,-0.0004741469186858925,-0.021481049981020756,0.01334065971874079,0.9805880021382508
2016-01-13,-1,-0.0015893891593433992,-0.0013958813251383983,-0.01448608847978813,0.014130157646750838,0.98105546885825
2016-01-15,-1,-0.002456013971568388,-0.0020987464181457484,-0.01131572001565304,0.015342595452737822,0.9809283684579666
2016-01-20,-1,-0.001340245105067401,-0.001164457323690568,-0.01131572001565304,0.014130157646750838,0.9808937873254634
2016-01-22,-1,-0.00026878989785540365,-0.0002620552974733956,-0.01131572001565304,0.015215300026797642,0.9806749858949887
2016-01-26,-1,-0.0004331809222008527,-0.0003781719368046711,-0.01448608847978813,0.01429901353467045,0.9802295879030267
2016-01-28,-1,-0.0026165466009698737,-0.002331219975070676,-0.011150917775752119,0.01429901353467045,0.9842464498531769
2016-02-01,-1,-0.002105981603601129,-0.0018546667373662245,-0.013188105508014233,0.0141619884888337,0.984629157430967
2016-02-03,-1,-0.002558343501675892,-0.002247489730876802,-0.013188105508014233,0.0141619884888337,0.9847780963706659
2016-02-05,-1,-0.003000618152037625,-0.002623321967907582,-0.011993386374255796,0.015310792553046225,0.9840186030977348
2016-02-09,-1,-0.0035150484437537835,-0.003122953960545836,-0.006566716174203131,0.015310792553046225,0.9857755197310824
2016-02-11,-1,-0.0036662179712039404,-0.0032303145720771033,-0.006566716174203131,0.015310792553046225,0.9857607167370231
2016-02-16,-1,-0.002883450504157662,-0.00252454971025039,-0.008587872678457922,0.013495445725987348,0.9861832399681949
2016-02-18,-1,-0.002299013862457078,-0.0020096909232516077,-0.008587872678457922,0.01240721888750465,0.9871076206491022
2016-02-22,-1,-0.00226700106443122,-0.0019221609914933692,-0.008587872678457922,0.011600722972522461,0.9874175090791364
2016-02-24,-1,-0.0023631272034499795,-0.0020198467166660013,-0.008030836378682639,0.009662274540719967,0.9888471171233284
2016-02-26,-1,-0.0015233395793213353,-0.0013257147828291296,-0.008628680869588104,0.009662274540719967,0.9887707740339631
2016-03-01,-1,-0.0013554762511358075,-0.0011844632535868383,-0.008030836378682639,0.007283559000393827,0.9903862920631872
2016-03-03,-1,-0.0023257568711108657,-0.0019818829087703033,-0.007573610873295299,0.004835616283293868,0.991507640473673
2016-03-07,-1,-0.0018242022153792297,-0.0015561141248355065,-0.007573610873295299,0.006366045927413763,0.9915660039672213
2016-03-09,-1,-0.002460844178104044,-0.002092786818422279,-0.007772603382849581,0.007670908285139327,0.9872485953899158
2016-03-11,-1,-0.0021802553891411424,-0.0018667063977491126,-0.003739086569411274,0.006366045927413763,0.988378839558256
2016-03-15,-1,-0.0026778230584186178,-0.0023001292706322693,-0.0015560324014998884,0.008705482490457394,0.9878289790950142
2016-03-17,-1,-0.0013175965555650801,-0.0012023010171160731,-0.0015560324014998884,0.008705482490457394,0.9884487117108101
2016-03-21,-1,-0.0003469040615154701,-0.00031684098814375593,-0.003739086569411274,0.006366045927413763,0.9878280358485603
2016-03-23,-1,-0.0003858868419703604,-0.0003550088868365572,-0.0015560324014998884,0.008668537785725197,0.9875078231984495
2016-03-28,-1,-0.0005018800456612389,-0.0005004239442482193,-0.003711468718123204,0.008414813464605346,0.9873196072596658
2016-03-30,0,-7.95695100426619e-05,2.853863759617306e-05,-0.0027778967630805976,0.014851785102032142,0.9854885649559179
2016-04-01,1,4.111314398009137e-05,0.0001855155458694791,-0.007462127460810461,0.014851785102032142,0.9843204565553834
2016-04-05,1,0.0005493708141568527,0.000759375953568698,-0.008673408453806262,0.012064583305919233,0.9844426953250929
2016-04-07,1,0.00032607935799730043,0.0004984893063368237,-0.007559032170334047,0.006674492459277396,0.9886798628160215
2016-04-11,1,7.128907381334377e-05,0.00017890674001220868,-0.007559032170334047,0.009084211057376883,0.9883234547703326
2016-04-13,1,0.0011373896249151666,0.0014007555578357093,-0.008673408453806262,0.005344647410885703,0.9891546325908158
2016-04-15,1,0.0014485697295714328,0.0017706977723779918,-0.008673408453806262,0.006470422502034322,0.9885720655886728
2016-04-19,1,0.000761694473821143,0.000998466670480718,-0.008673408453806262,0.006470422502034322,0.9897056573206493
2016-04-21,1,0.0012492414554289204,0.0015613217508899404,-0.011433339938192056,0.006470422502034322,0.9887816036601785
2016-04-25,1,0.0011416953261197175,0.0014669574041027583,-0.008874695282458205,0.00841770246928574,0.9890280801199548
2016-04-27,1,0.00185662738034827,0.0022496597181359003,-0.008874695282458205,0.006470422502034322,0.9894779054385967
2016-04-29,1,0.0013665048641025015,0.0017127482527522647,-0.007638163399117521,0.00841770246928574,0.9909708704121354
2016-05-03,1,0.0008524549777094902,0.0011086440098017425,-0.007638163399117521,0.00841770246928574,0.9910602035353653
2016-05-05,1,0.0007150010074508155,0.000948161292127241,-0.008808896886187098,0.00841770246928574,0.9905779894904286
2016-05-09,1,0.0007735908155009356,0.0009953854474944951,-0.008808896886187098,0.008816509072199934,0.9903929935732473
2016-05-11,1,0.0008155304179127905,0.0010692037440319614,-0.007063217464489012,0.008816509072199934,0.9912452089934054
2016-05-13,1,0.0004861757332387891,0.0006481346706114159,-0.008696988221717675,0.008063812672399286,0.9909706322980084
2016-05-17,1,0.0002892046552137873,0.00044697710099475557,-0.007617113379964992,0.008063812672399286,0.9919134169794022
2016-05-19,1,0.00040728385702789964,0.0005731535205405886,-0.005312748611469098,0.004964898573640863,0.9929742713577929
2016-05-23,1,0.0006044737329474777,0.000808686346382443,-0.003034508383041531,0.005837836969299589,0.9920472210428511
2016-05-25,1,0.0009777596036288547,0.0012132898966650102,-0.005312748611469098,0.005837836969299589,0.9915734029150534
2016-05-27,1,0.0007018385490122137,0.0008396296906273141,-0.010798313502000882,0.00441811043339843,0.9877617720790897
2016-06-01,1,0.00034799265206977094,0.00042219436233865477,-0.00828025225190292,0.008579606873546237,0.9875610213036804
2016-06-03,1,0.0004545180609299633,0.0005619613657274601,-0.005312748611469098,0.011934969601187435,0.9875464378014901
2016-06-07,1,0.0004253507932707233,0.00049827534281925,-0.005312748611469098,0.006939242452818939,0.987913308832917
2016-06-09,1,0.00044090234697461594,0.0005105802676789626,-0.005312748611469098,0.01239263802385294,0.9866697217520163
2016-06-13,1,0.00034993809127353804,0.0004370974775104837,-0.0012597217985969302,0.01239263802385294,0.986604684107344
2016-06-15,1,0.0006992378765545942,0.0008633923996462553,-0.0012597217985969302,0.014390623442442588,0.9850603226387001
2016-06-17,1,0.0006861973278389629,0.0008615122686107118,0.002110120309742256,0.014390623442442588,0.984784087269615
2016-06-21,1,0.00031890741278283325,0.00034097818780169214,0.0001836661949993328,0.014390623442442588,0.9854420931248666
2016-06-23,1,0.0008953068553336726,0.0010008578952998117,0.0023039637020679906,0.016476574900526585,0.9817856115039165
2016-06-27,-1,-0.0017476092665321056,-0.0015075935146321474,0.004266617346282713,0.018545494564316707,0.9825620856235942
2016-06-29,-1,-0.00123673347034037,-0.0010388987765987791,0.0023039637020679906,0.018545494564316707,0.9841848426767629
2016-07-01,-1,-0.0015854079968960983,-0.0012750867202169385,0.00020292502930228072,0.018545494564316707,0.9848281910636034
2016-07-06,-1,-0.0015836246110077048,-0.001272699905305322,0.00020292502930228072,0.018545494564316707,0.9841289874924068
2016-07-08,0,-4.105876461851153e-05,3.7434462646130615e-05,0.00020292502930228072,0.012768210864234903,0.9858716682804828
2016-07-12,1,0.0008529519165199743,0.0009188243227664179,-0.0006194173176917062,0.012591085809770626,0.9866718415802708
2016-07-14,1,0.002163012612749011,0.002446367010219465,-0.0005616408147828625,0.01013314928887829,0.9888298861836765
2016-07-18,1,0.002269620157646239,0.0025466809639767257,-0.0016796197267561267,0.007329825488050502,0.988642671518117
2016-07-20,1,0.002759161185561954,0.0031115305170807237,-0.00512487766832569,0.005455257665759446,0.9885901726871901
2016-07-22,1,0.0056188068509205385,0.006347271296035245,-0.00512487766832569,0.003998029805029918,0.9922643086709515
2016-07-26,1,0.005926934903270561,0.006669255508147636,-0.00512487766832569,0.003054761839405742,0.9922460938174501
2016-07-28,1,0.005701864293626024,0.00642694402747483,-0.003976496475488585,0.003566596020501115,0.9926846564546697
2016-08-01,1,0.0054228269118387715,0.006083353268040296,-0.003976496475488585,0.003566596020501115,0.9928860254877024
2016-08-03,1,0.005051938849440931,0.005659572434835473,-0.001698113129146954,0.003998029805029918,0.9936178064062332
2016-08-05,1,0.004919188019652018,0.00547448591144453,-0.001698113129146954,0.0038702292375921883,0.9936773957652341
2016-08-09,1,0.004572941749881554,0.005085598733351563,-0.0009389146622643238,0.004187586699911866,0.9947132420487411
2016-08-11,1,0.004746433905116393,0.0053107268004170954,-0.0014530039190121691,0.0047962632563634845,0.9934685321850484
2016-08-15,1,0.004412106721071213,0.00491273975084761,-0.0014530039190121691,0.0049624547621259785,0.9925790426060472
2016-08-17,1,0.0037867437152202116,0.004195331867406905,-0.0009389146622643238,0.0057063980636937826,0.993487064954562
2016-08-19,1,0.003564304712001899,0.00393128841816031,-0.001579752378582305,0.0057063980636937826,0.9928542624227136
2016-08-23,1,0.0033373744666388427,0.0036558366898297797,-0.004159228538327423,0.007329189826489497,0.9918792401684798
2016-08-25,1,0.0038986646265572623,0.004316841928803841,-0.006347840282185492,0.006807466750530953,0.9918474009879653
2016-08-29,1,0.0034260941276556636,0.0037672255467380527,-0.006520804967461501,0.008818218122222223,0.991101588998745
2016-08-31,1,0.003736425819925264,0.00410890643041512,-0.006520804967461501,0.006514681438957072,0.9910798883595965
2016-09-02,1,0.0037271070386338968,0.004156174688652961,-0.006587895636351656,0.008818218122222223,0.9899485962474547
2016-09-07,1,0.0036480464066322334,0.00406923591285123,-0.007648483560759776,0.008818218122222223,0.989013124064751
2016-09-09,1,0.00276546347059945,0.0030176966969282437,-0.007648483560759776,0.008818218122222223,0.9895203075160043
2016-09-13,1,0.0027573424283455676,0.003022561059454666,-0.007648483560759776,0.008818218122222223,0.9900604891914371
2016-09-15,1,0.0024560175120079382,0.002650023365551103,-0.007648483560759776,0.008818218122222223,0.9903932388533969
2016-09-19,1,0.0025761754907665056,0.0028301338063610763,-0.007648483560759776,0.009881538029642232,0.9905509921007049
2016-09-21,1,0.0022431696630058093,0.002408156290807938,-0.007538752806070375,0.009881538029642232,0.9902743183365179
2016-09-23,1,0.0013505178650240549,0.0014159483238905513,-0.011096951250334422,0.009003182094920587,0.9863412798580898
2016-09-27,1,0.0011189833387981578,0.00114194202273066,-0.00702304348976452,0.0067384910989235994,0.9868558169666872
2016-09-29,1,0.0012123622760051964,0.0012505697454041126,-0.008597617940331625,0.002410205368738762,0.9871455918028257
2016-10-03,1,0.001096276602069875,0.0011042643619702049,-0.007446170123117833,0.001298195104667257,0.9879779721854275
2016-10-05,1,0.0007623337408353684,0.0007979684973712738,-0.006185727771236388,0.001298195104667257,0.9882856433937786
2016-10-07,1,0.00013839136651006798,0.00026627593884470267,-0.00613274369652602,0.001298195104667257,0.9888133482562209
2016-10-11,0,-2.98359103284839e-05,0.00011382008410266086,-0.00613274369652602,0.001298195104667257,0.9892571633988316
2016-10-13,0,-0.00014178376955024778,2.5784712131905524e-05,-0.00613274369652602,0.002410205368738762,0.9886966969834213
2016-10-17,1,0.00010327193135150405,0.00023052532797874603,-0.007130151849643896,0.002410205368738762,0.9871926290657881
2016-10-19,1,0.0004707136664038702,0.0005529578817711459,-0.007130151849643896,0.002410205368738762,0.9873325253900931
2016-10-21,-1,-0.0014582855373322227,-0.0011368638091764434,-0.00644543413138358,0.006448329585166762,0.9917883980839172
2016-10-25,-1,-0.0016349942474043276,-0.001284534914998181,-0.00644543413138358,0.009550746687535428,0.9916391970732291
2016-10-27,-1,-0.0017554026113491322,-0.00139853166042085,-0.005770714291512335,0.009550746687535428,0.991681875839128
2016-10-31,-1,-0.0020277362306742666,-0.0016369479865488022,-0.005770714291512335,0.009550746687535428,0.9915134425482641
2016-11-02,-1,-0.0025071955245413438,-0.002039669773744644,-0.007166932897194072,0.009550746687535428,0.9901132089528698
2016-11-04,-1,-0.002888020885613549,-0.0023681989670519756,-0.006535199253644124,0.01048301124799469,0.9884786353257544
2016-11-08,-1,-0.0030336774758159815,-0.002486422768476708,-0.005770714291512335,0.012365214427458771,0.9878967116339604
2016-11-10,-1,-0.0027729875002572833,-0.0022779021233608034,-0.005770714291512335,0.017904406893964442,0.986544628692303
2016-11-14,-1,-0.0032041297259737915,-0.002648917135639488,-0.005770714291512335,0.017904406893964442,0.9875831423937989
2016-11-16,-1,-0.004063148205844563,-0.0033178432529692927,-0.005688097674539335,0.012514095506236618,0.9886199714613819
2016-11-18,-1,-0.0036090929683926702,-0.0029395355660130577,-0.006071307327321358,0.008707285359822313,0.9897043048663883
2016-11-22,-1,-0.0032394792555882172,-0.0026288560709214785,-0.006071307327321358,0.004565236143930386,0.990297004024713
2016-11-25,-1,-0.0034515475101527474,-0.0028127580308632497,-0.005645661681291131,0.008121775570303292,0.9896196761219559
2016-11-29,-1,-0.003395559879273286,-0.0027978402412321126,-0.005605189222383935,0.01012375078868696,0.9890344371318593
2016-12-01,-1,-0.0040178022340067315,-0.003365952050267413,-0.00429786051614494,0.01012375078868696,0.9900832556302939
2016-12-05,-1,-0.0028579722829431935,-0.0023795108101279158,-0.00429786051614494,0.008121775570303292,0.99190015833336
2016-12-07,-1,-0.002346773402210135,-0.0019407500174291404,-0.004048312039469866,0.008416178331817367,0.9910401503424507
2016-12-09,-1,-0.0014166097246386922,-0.0011400583596499715,-0.007646277484606772,0.00660010048177908,0.9919148909017833
2016-12-13,-1,-0.00023570899522730817,-0.00020198327790235923,-0.004964732450583487,0.0054996384799784635,0.9923841379628341
2016-12-15,1,3.0136842015927737e-05,5.811468435287071e-05,-0.004964732450583487,0.0054996384799784635,0.9924017797812488
2016-12-19,-1,-0.000225489021424522,-0.00021432285287327298,-0.00303181566411832,0.006698234735617105,0.9922646132226792
2016-12-21,-1,-0.00018845248904213,-0.00018505175132995343,-0.003912173189157016,0.006698234735617105,0.9919290518337922
2016-12-23,0,-1.0115487478896392e-05,1.8034770549788632e-07,-0.008016880052815693,0.0059676033618368,0.9918022682434466
2016-12-28,1,0.00022723755936399258,0.0002811239915112474,-0.004323248216273135,0.008102129381192117,0.9892727084326436
2016-12-30,1,1.9433974784397815e-06,1.8233280371319328e-05,-0.009353031704342232,0.008102129381192117,0.9887710098176901
2017-01-04,1,7.303844045207408e-05,0.00010182792320439276,-0.009353031704342232,0.009015111390033605,0.9882915482993162
2017-01-06,1,0.0006901290157778673,0.0007960218827484516,-0.009353031704342232,0.0059676033618368,0.9900847823281339
2017-01-10,1,0.00017448080516769147,0.00019873179839139464,-0.0035845789752130663,0.010893106591463052,0.9896098701692724
2017-01-12,1,0.00023391917294094227,0.0002664451817815848,-0.004563810714095189,0.011369030945501204,0.9890246251330425
2017-01-17,1,0.00021086073681977078,0.00024144871466902267,-0.005182798863386772,0.011369030945501204,0.9886781238792973
2017-01-19,1,0.000625817854142787,0.0007326857316185291,-0.007206893666149063,0.011596599834344313,0.9881600997850284
2017-01-23,1,0.00041096846101086593,0.0004916041229110976,-0.005182798863386772,0.011596599834344313,0.98839823409342
2017-01-25,1,0.0006085210637000825,0.0007391451284127318,-0.005177608760256772,0.011596599834344313,0.9887837128847571
2017-01-27,1,0.0018586345139169872,0.0021589598346796555,-0.005177608760256772,0.011071784109936483,0.9916516951416109
2017-01-31,1,0.0015636831944868578,0.00183156049824028,-0.004116135942953868,0.011071784109936483,0.9917194423289604
2017-02-02,1,0.001429200491408101,0.0016592516287207814,-0.004804647180878785,0.011010654958338237,0.9916207115152923
2017-02-06,1,0.001446689462366254,0.0016793037492885327,-0.0050232756825104845,0.011010654958338237,0.9912924249590047
2017-02-08,1,0.0020416735978288983,0.0023542947177121534,-0.0050232756825104845,0.006484148589332394,0.9923257288703315
2017-02-10,1,0.0020852842808166717,0.0023900370230717644,-0.005416355733351867,0.0051830174355582456,0.9924866895371055
2017-02-14,1,0.002128884196119556,0.0024496220935239367,-0.005416355733351867,0.0051692774678819935,0.9928295161461369
2017-02-16,1,0.0020735071321456855,0.0023884328918765702,-0.0050232756825104845,0.006403447094463719,0.9931113001428583
2017-02-21,1,0.0022047398278823562,0.0025321631356537795,-0.005416355733351867,0.004044307672397589,0.992323564593688
2017-02-23,1,0.0022510925120965606,0.0025969828180149065,-0.0050232756825104845,0.006403447094463719,0.9925073657523503
2017-02-27,1,0.0029682437863158316,0.003422894874366345,-0.0050232756825104845,0.0019589549847676318,0.9925045676941268
2017-03-01,1,0.002795545140769385,0.003211455031043433,-0.004614557183283808,0.00305948786253244,0.9936592252848443
2017-03-03,1,0.0022847963738723766,0.0026122472610960045,-0.003943614378014375,0.00305948786253244,0.9945101894476837
2017-03-07,1,0.0020212867922546575,0.0023062873143720845,-0.003649339858315886,0.004099168582692313,0.9946100593460871
2017-03-09,1,0.0018442634244462543,0.002106043341114409,-0.0020251617474975597,0.005841053768555933,0.9942747302816103
2017-03-13,1,0.001667489360387448,0.001915072554112415,-0.0011186228388097013,0.005841053768555933,0.9944355107219197
2017-03-15,1,0.0023179542625714174,0.0026869115859259503,-0.002436370840005789,0.006848088946933245,0.994114910881388
2017-03-17,1,0.0022983053998574146,0.0024928032160421738,-0.002436370840005789,0.004732582803099172,0.9949188290920484
2017-03-21,1,0.001634214254824752,0.0017358546926677359,-0.003649339858315886,0.004732582803099172,0.9949153964662797
2017-03-23,1,0.0015709395744444013,0.001649219894219379,-0.005577464396042325,0.003790104698905487,0.9928071794074962
2017-03-27,1,0.001174639015084813,0.001174847475812987,-0.005577464396042325,0.004732582803099172,0.9916608570321432
2017-03-29,1,0.0010385773992580938,0.0010760104679055746,-0.005577464396042325,0.00576873315622985,0.9916172392932199
2017-03-31,1,0.0005279171132071973,0.0006511938675374053,-0.005577464396042325,0.006631127109954994,0.9912104522408155
2017-04-04,1,0.0009683729186112651,0.0010419678404880285,-0.0073539908872363394,0.006026985623628786,0.9912970207708215
2017-04-06,1,0.0008501100954029418,0.0009314080842495689,-0.005577464396042325,0.006026985623628786,0.9919009503574288
2017-04-10,1,0.0003530753844622214,0.0005095031110106841,-0.005612954079627768,0.006450841135994913,0.9914255421864385
2017-04-12,1,0.0006739192689471978,0.000774968668389413,-0.005612954079627768,0.006342647443522935,0.9913920980246615
2017-04-17,1,0.0008971039824127437,0.0009576355294527905,-0.005612954079627768,0.006342647443522935,0.9913132854437523
2017-04-19,1,0.00038420577334733857,0.00048701330493183115,-0.004894972043596575,0.0071919556819423774,0.9895833672881166
2017-04-21,-1,-0.0014976430299739752,-0.0011634273108117308,-0.0018473129416762823,0.0071919556819423774,0.9912136671488873
2017-04-25,-1,-0.001273266269048909,-0.00093689993684609,-0.0005901246976348746,0.0071919556819423774,0.9914129963196812
2017-04-27,-1,-0.0019723220171661473,-0.0014876234952871284,-0.0005901246976348746,0.008284093885174995,0.9906217490123213
2017-05-01,-1,-0.0012089252248127886,-0.0008646355098510151,-0.0029641603821921087,0.0071919556819423774,0.9909056634047001
2017-05-03,-1,-0.00101565236054029,-0.000725127480488791,-0.00303933137928501,0.008509326244020975,0.99045377283023
2017-05-05,-1,-0.00023596411992983176,-8.610416642989909e-05,-0.00303933137928501,0.012187211908098345,0.9899587697824944
2017-05-09,-1,-0.00022281314155381027,-6.721165998365314e-05,-0.0016616193644608992,0.009215296103372714,0.9905310576675038
2017-05-11,0,-4.1085551231809713e-05,0.000102327053501515,-0.003693471053252301,0.01062979885935829,0.9890430433709977
2017-05-15,-1,-0.00037810183891648114,-0.0001632748055212449,-0.008288681897619405,0.01062979885935829,0.9876697244821898
2017-05-17,-1,-0.0011355420145740744,-0.0008260602280802069,-0.008288681897619405,0.009394103594275803,0.9894956872753738
2017-05-19,-1,-0.0007408794664945138,-0.0004971294194156767,-0.008288681897619405,0.01062979885935829,0.9884611711442872
2017-05-23,1,3.8983288912042865e-05,0.0001829424459749474,-0.008288681897619405,0.009394103594275803,0.9895973179899626
2017-05-25,1,0.00024166233026088154,0.0003826980586370176,-0.008288681897619405,0.009394103594275803,0.9896433824856774
2017-05-30,-1,-0.0004647700917532638,-0.00023469606675435514,-0.006158057306317818,0.009394103594275803,0.9894836033226448
2017-06-01,1,0.0004057859323533379,0.0004654197500829477,-0.006818269821777563,0.009394103594275803,0.9890350626868822
2017-06-05,1,0.0004643449896246419,0.0005619562902466918,-0.009843859426641094,0.009394103594275803,0.9890546360475029
2017-06-07,1,0.000555389092548312,0.0006411440695413982,-0.012286666435763993,0.009394103594275803,0.9884393790178323
2017-06-09,-1,-0.00040393072236173373,-0.00019792454648396044,-0.009843859426641094,0.00967266487582959,0.9890648291367605
2017-06-13,-1,-0.0007077662445229131,-0.00048405738229942387,-0.006138205114598899,0.01156371164726096,0.9891247917565399
2017-06-15,-1,-0.001502607434230659,-0.0011556033388427569,-0.004142518566638168,0.01287110529565759,0.9880486655985469
2017-06-19,-1,-0.0008365232744831436,-0.0005689981739886407,-0.005534166051116824,0.012113766342876602,0.9895077106085954
2017-06-21,1,0.0006146694930283459,0.0006173532688381105,-0.005534166051116824,0.012113766342876602,0.9893505136983878
2017-06-23,1,0.0006732452087523421,0.000709210234501213,-0.007351677529016207,0.01156371164726096,0.9890477672018497
2017-06-27,0,-5.766465068271579e-05,5.961296940304792e-05,-0.006398727529559733,0.012171637679950378,0.9888806590822781
2017-06-29,-1,-0.0005737432794216961,-0.0003935921856970851,-0.006456046066751124,0.012171637679950378,0.9890757172988642
2017-07-03,1,0.0003122091260818465,0.00032012219792133464,-0.0063015300632987305,0.008967754550887568,0.9895635441756728
2017-07-06,-1,-0.00011062812785115338,-7.313837042352939e-05,-0.0059528908729130645,0.008967754550887568,0.990418689941596
2017-07-10,1,0.0009011195332403938,0.000991180886440551,-0.0059528908729130645,0.008967754550887568,0.9910034538188854
2017-07-12,1,0.0017586345356808528,0.0019545095057070623,-0.0063015300632987305,0.007094658947493852,0.9914472615451229
2017-07-14,1,0.002840172745067142,0.0031989318688770627,-0.006456046066751124,0.003282070753812218,0.9906574185099404
2017-07-18,1,0.002304942108268521,0.002569529915303426,-0.0063015300632987305,0.00446918114384345,0.9913732877185509
2017-07-20,1,0.0029117339589926263,0.0032941933415892204,-0.006694320544129407,0.0034103495676477066,0.9905426046266147
2017-07-24,1,0.0021383348374441184,0.0024148437309744883,-0.006694320544129407,0.0034103495676477066,0.9910373545507802
2017-07-26,1,0.0023952762550566945,0.002669832875725209,-0.006694320544129407,0.0034103495676477066,0.9912858568911834
2017-07-28,1,0.00113778693998173,0.0012257908969630672,-0.0057612366228042815,0.0034103495676477066,0.9927298088311948
2017-08-01,1,0.0008651599726353132,0.0008956493010671578,-0.005402901830021928,0.003881352809288348,0.992616291497902
2017-08-03,1,0.00031965631835655843,0.00038193107438833096,-0.0033237217433619032,0.007993382154892419,0.9916828059714716
2017-08-07,1,0.0007016550406468519,0.0007180365519551753,-0.006088634084088416,0.006297610435075422,0.991879897391394
2017-08-09,1,0.001056515264022017,0.0011323030883144565,-0.002939941402314617,0.011484857391591913,0.990227001849039
2017-08-11,-1,-0.0004203067435105426,-0.0002846026660351509,-0.002939941402314617,0.011484857391591913,0.9907106422253327
2017-08-15,0,-3.604855772774035e-05,3.812688489422954e-05,-0.002939941402314617,0.011484857391591913,0.9908452910054909
2017-08-17,-1,-0.0006175532828388368,-0.0004684208168027188,-0.0007170751433041499,0.011484857391591913,0.991324289651506
2017-08-21,-1,-0.0012058795998424246,-0.0009989415534661238,0.0007188037020574823,0.011484857391591913,0.991447889218584
2017-08-23,-1,-0.0005637186257981464,-0.0004257790296588742,-0.0005388383998048876,0.008754855569218681,0.9924608561800253
2017-08-25,-1,-0.00045331941601519645,-0.0003588028681145649,-0.0005192673851106252,0.008754855569218681,0.9920486281543754
2017-08-29,1,0.00010704068974994224,0.00013633727409129883,-0.0005192673851106252,0.00655143490651751,0.9926316638160246
2017-08-31,1,0.000923285313374683,0.0009901391844261106,-0.0024187101463338406,0.005485289825652944,0.9928109741288423
2017-09-05,1,0.0009319805830348932,0.0010098353370352608,-0.0007112187079655792,0.005718100386661205,0.9931016129986974
2017-09-07,1,0.0027559517170158776,0.0030817694847182758,-0.0012926403378551406,0.005228291540243271,0.9949654958705832
2017-09-11,1,0.002388137362402892,0.0026241260209671005,-0.0012926403378551406,0.004780918195890809,0.9953110838736794
2017-09-13,1,0.0015627973217901994,0.0015640910964068357,-0.004039528441213405,0.004780918195890809,0.9943760314717062
2017-09-15,1,0.0018712443253844154,0.0019500057124516882,-0.004898096385410837,0.005228291540243271,0.9937817585898332
2017-09-19,1,0.0020153223681944627,0.0021235613521353213,-0.007441112244600411,0.004799499756472508,0.9926987474982013
