JNU-Tangyin/eata/results/Batch4_SP500/Batch4_SP500-MRK.csv
Date,Action,Predicted_Q25,Predicted_Q75,Actual_Q25,Actual_Q75,RL_Reward
2010-12-14,0,0.0,0.0,-0.002244099870009773,0.005035703706016268,0.995461260908776
2010-12-16,1,0.00016823442999514812,0.0001897310880227673,-0.005822560615246745,0.0028027010190513077,0.9919394389577869
2010-12-20,1,0.0001191713207529607,0.0001258420632322001,-0.005822560615246745,0.0028027010190513077,0.9918639905718165
2010-12-22,1,0.000720596439785893,0.000760061125721592,-0.004684819708217233,0.004449693398059818,0.9919009609348813
2010-12-27,1,0.0006925534468686889,0.0007312400746767,-0.005822560615246745,0.004449693398059818,0.9912240929217042
2010-12-29,1,0.00034035458517627307,0.0004387394277906129,-0.005822560615246745,0.004449693398059818,0.9910744038239219
2010-12-31,1,0.0006786862528359823,0.0006878241128502308,-0.005740227653518991,0.004449693398059818,0.9908977099426597
2011-01-04,1,0.00035216822635224373,0.0004526420325544184,-0.005740227653518991,0.004449693398059818,0.9899069211246241
2011-01-06,1,0.0012886517542155605,0.0013045019055537555,-0.007669553604048036,0.001885449523641504,0.9891154716832161
2011-01-10,0,0.0,0.0,-0.007669553604048036,0.0031040116258015515,0.9895160531023524
2011-01-12,0,0.0,0.0,-0.006689388561553177,0.001885449523641504,0.9897712770277642
2011-01-14,1,0.0002546435474800159,0.00029648377515993564,-0.005411110195652132,0.001885449523641504,0.9932283007130022
2011-01-19,0,0.0,0.0,-0.005323189583440743,0.0031040116258015515,0.9935381011477966
2011-01-21,-1,-0.001968433757290761,-0.0015433205365967544,-0.005411110195652132,0.0031040116258015515,0.9936916170765472
2011-01-25,0,0.0,0.0,-0.005948336420280894,0.0031040116258015515,0.9930174581273858
2011-01-27,0,0.0,0.0,-0.005948336420280894,0.0035702366947005164,0.9929897032250253
2011-01-31,1,0.00023730150756962396,0.00027980692992438073,-0.005945940643245655,0.004434487738196907,0.9926274929842862
2011-02-02,-1,-0.0007856096260621447,-0.0007028650602685484,-0.005945940643245655,0.004434487738196907,0.9932556669648939
2011-02-04,-1,-0.0011663067014952653,-0.001039330453838437,-0.005796992555070957,0.004434487738196907,0.9942939760607646
2011-02-08,-1,-0.0013982468205714542,-0.0012528548244137598,-0.005796992555070957,0.004675563429372901,0.9941705143669434
2011-02-10,-1,-0.0014783497341170331,-0.0013318011481373503,-0.007105983498537371,0.004675563429372901,0.9936712351200562
2011-02-14,-1,-0.0014682172061574856,-0.0013394602861367718,-0.007597216560643475,0.004675563429372901,0.992899364702646
2011-02-16,-1,-0.0008552378401405292,-0.0008216456650509331,-0.00847115756072569,0.004675563429372901,0.9913307152760926
2011-02-18,-1,-0.00120017189595871,-0.0011136277562095516,-0.00847115756072569,0.009945472533569054,0.9904142482960587
2011-02-23,-1,-0.0018596586432200674,-0.0016840537260604143,-0.005614651714179543,0.009945472533569054,0.9908925515762367
2011-02-25,-1,-0.0016570312894262091,-0.00150060126104558,-0.005614651714179543,0.009945472533569054,0.9908975036731794
2011-03-01,-1,-0.0013175670368541098,-0.0012176263268376235,-0.005614651714179543,0.009592096308808008,0.9909958172315932
2011-03-03,-1,-0.00039957357174188763,-0.0003891663358134003,-0.007394943329355984,0.009592096308808008,0.9908406084025009
2011-03-07,-1,-0.0008909248643598631,-0.00083794120541746,-0.006052559633172853,0.009592096308808008,0.9907065295010352
2011-03-09,-1,-0.00013194980663311202,-7.259403534898718e-05,-0.006052559633172853,0.007078212583311707,0.9911124847564946
2011-03-11,-1,-0.00046004858862986925,-0.00043813808390341403,-0.003909380130154844,0.010177411913068668,0.9913135342813795
2011-03-15,-1,-0.001089219445258955,-0.0010342381392467361,-0.00260867344807992,0.010177411913068668,0.9922990125679346
2011-03-17,-1,-0.001201730129430739,-0.0011302958103417094,-0.0024525215013956386,0.010177411913068668,0.9933360746115217
2011-03-21,-1,-0.0003252925902675639,-0.00029677206399308665,-0.0028378723980546985,0.007078212583311707,0.9933051827074105
2011-03-23,-1,-0.00023011916437688844,-0.00018599433714397418,-0.0034008395905525857,0.008986836105085083,0.9930234763760835
2011-03-25,-1,-0.000548862092555627,-0.0005347810226131151,-0.0028378723980546985,0.008986836105085083,0.9928963766061628
2011-03-29,1,3.140973974419614e-05,0.00011234126193895988,-0.0024525215013956386,0.010563874535981071,0.9918257159348247
2011-03-31,-1,-0.00033626309347992004,-0.0003359725713423967,-0.0012638618088870986,0.008994736864437738,0.9924463143543776
2011-04-04,-1,-0.000408190689572895,-0.00037485071510535414,-0.0012638618088870986,0.01006067061044763,0.9922041544275437
2011-04-06,-1,-4.1255709823024425e-05,-1.1629640879952169e-05,-0.0012638618088870986,0.01006067061044763,0.9921348642507339
2011-04-08,-1,-0.00013121585918856403,-0.00011584812835709182,-0.0012638618088870986,0.008947922337544736,0.992306567868934
2011-04-12,-1,-0.0003016601630903593,-0.0002651327250235094,-0.0006704301128426043,0.008947922337544736,0.9918055739094126
2011-04-14,1,0.0006262221893574626,0.0007534509258370854,-0.0008064385260960347,0.008947922337544736,0.9920385830078401
2011-04-18,1,4.008680659597892e-05,6.166179725636522e-05,-0.00020106911750914375,0.008537708124700226,0.9931825006758044
2011-04-20,1,0.00020274690124245917,0.0002550867737520838,-0.00020106911750914375,0.00836814571459059,0.9932788966862365
2011-04-25,1,0.0006611463863254658,0.000757851268150773,-0.0033711721157667724,0.008041615250285027,0.9932064135729453
2011-04-27,0,0.0,0.0,-0.003934900863948935,0.005257407981210781,0.9945223015747258
2011-04-29,0,0.0,0.0,-0.0047252373916274555,0.0045730333852200536,0.9943165846888649
2011-05-03,0,0.0,0.0,-0.004992043897065554,0.0045730333852200536,0.9935385890134352
2011-05-05,0,0.0,0.0,-0.004992043897065554,0.004379805341119007,0.9935737112387756
2011-05-09,1,0.001908367006136875,0.0022384824726437253,-0.005806162438060874,0.0016942371350663192,0.9926480916604077
2011-05-11,1,0.0020338908373562442,0.002379056436768821,-0.005806162438060874,0.005883955803684597,0.9928073863156964
2011-05-13,1,0.0021848211316057853,0.0025432621394791566,-0.0075561850426279,0.0016778581134309968,0.9925074884919342
2011-05-17,1,0.002058998424495407,0.0023878893856207947,-0.008477010906750938,0.0016778581134309968,0.991815865762899
2011-05-19,0,0.0,0.0,-0.008477010906750938,0.0016801975015601068,0.9931190781226565
2011-05-23,0,0.0,0.0,-0.0075561850426279,0.0058930118736575995,0.9931829909068896
2011-05-25,1,0.0029248011046836345,0.003399816231517575,-0.008780142171140818,0.0058930118736575995,0.9913598845830588
2011-05-27,1,0.0026671828662674264,0.00312279295690711,-0.009849026608558452,0.0058930118736575995,0.9914827463580174
2011-06-01,0,0.0,0.0,-0.008780142171140818,0.0058930118736575995,0.9929630043172878
2011-06-03,0,0.0,0.0,-0.007609906980865839,0.0060232281736873,0.992849124633943
2011-06-07,0,0.0,0.0,-0.004704828262686758,0.0060232281736873,0.993012930653438
2011-06-09,0,0.0,0.0,-0.004704828262686758,0.006670602601701629,0.992791522560846
2011-06-13,1,0.0006286347617162392,0.0007236643765345913,-0.004483403965689155,0.006670602601701629,0.993119311324476
2011-06-15,1,0.0004692850339119002,0.0005418928901517846,-0.0018234884872559616,0.008024537685476429,0.993303371852946
2011-06-17,1,0.0003211285224875385,0.00033386876542022695,-0.009114347240235816,0.008024537685476429,0.9923836682160931
2011-06-21,1,0.0006577728015855413,0.0007048931262292927,-0.009114347240235816,0.007941701669723208,0.9922804069335143
2011-06-23,-1,-0.0003664594430991406,-0.00028088578314751004,-0.003714458712356218,0.00853589596803417,0.9924499707353831
2011-06-27,-1,-0.0008639487167837977,-0.0007301139049468034,-0.003702845673310209,0.00853589596803417,0.9926380030742236
2011-06-29,-1,-0.00022566333298043565,-0.0001674520634537314,-0.0060382533050289885,0.007941701669723208,0.992317561481263
2011-07-01,1,0.0006039104301423458,0.0006728711386032938,-0.01089445143054267,0.006164556043338085,0.9906909665596717
2011-07-06,1,0.0003487639048916494,0.0003500890788911375,-0.012197670388475138,0.006164556043338085,0.9898268304796316
2011-07-08,1,0.0007935711146152642,0.0008258683449602344,-0.013221577449885865,0.000535778644881161,0.9882981813585259
2011-07-12,1,0.00020903099446990597,0.00023509816226228514,-0.016302401041037938,0.006703207640490768,0.984470044994366
2011-07-14,1,0.0006244131381686552,0.0006457333286443673,-0.017627600661390328,-0.00027884286632319337,0.9807320767447298
2011-07-18,-1,-0.000643848411973872,-0.0004573098777918655,-0.017627600661390328,0.0068736604013433485,0.9809384106917455
2011-07-20,-1,-0.000578463630829185,-0.00040265816277180305,-0.017627600661390328,0.004952160354886533,0.9813970987822866
2011-07-22,-1,-0.0001231236045551016,-5.9394891297527585e-06,-0.02088836869674445,0.004952160354886533,0.9801516411054034
2011-07-26,-1,-0.00012634264830874067,-3.5157822607248014e-05,-0.02088836869674445,0.006370167402088562,0.979489647258179
2011-07-28,-1,-0.0011521331487787225,-0.0009262146799912457,-0.02088836869674445,0.007099201828174037,0.9797115624240957
2011-08-01,-1,-0.002288698141368695,-0.0019513114107859305,-0.012647095917675533,0.011038974654773603,0.9804105842433591
2011-08-03,-1,-0.0031721862223174366,-0.0027046784611142616,-0.0035703172433481853,0.013403632641472566,0.9797572082843867
2011-08-05,-1,-0.004410670031387825,-0.0037578964829920007,-0.007401725719258541,0.013403632641472566,0.9806881648647848
2011-08-09,-1,-0.005199829686073806,-0.004432056801510221,-0.004290927776245629,0.013403632641472566,0.9838270574361478
2011-08-11,-1,-0.004567616399338171,-0.003921925656840619,-0.0056064726302369325,0.0098677627758104,0.9872997615483066
2011-08-15,-1,-0.0035381490197186334,-0.003022133626644021,-0.006562966786325343,0.00781517458782532,0.9887383129975548
2011-08-17,-1,-0.003508413497204409,-0.0029931999992222087,-0.006562966786325343,0.011632507029260867,0.9877031026926375
2011-08-19,-1,-0.0042012700857094985,-0.0036171784751969794,-0.006562966786325343,0.011632507029260867,0.9886887975492044
2011-08-23,-1,-0.003388940133597906,-0.0029099808408793414,-0.008963730745300939,0.009689472645734772,0.9888406945995762
2011-08-25,-1,-0.0032613478121837555,-0.00280708229228987,-0.009383199927839652,0.008693735756419777,0.9888649772320315
2011-08-29,-1,-0.0025949288190065586,-0.0022221686684840833,-0.009383199927839652,0.011632507029260867,0.9880890170193184
2011-08-31,-1,-0.001712160312362646,-0.0014586897986383035,-0.009383199927839652,0.011632507029260867,0.9877352069883715
2011-09-02,-1,-0.0024973395686240536,-0.0021479811482752204,-0.009383199927839652,0.011632507029260867,0.9869668002094816
2011-09-07,-1,-0.0017735774642879017,-0.0015232540148365508,-0.009383199927839652,0.008693735756419777,0.9876590285848215
2011-09-09,-1,-0.003044287966010052,-0.0026491311579555886,-0.007257749435813336,0.008693735756419777,0.9885656452258063
2011-09-13,0,0.0,0.0,-0.008472249626057178,0.011632507029260867,0.9877048963275783
2011-09-15,-1,-0.0018804168960934306,-0.0016420082025255423,-0.008472249626057178,0.010005621846902606,0.9875763179860034
2011-09-19,-1,-0.0013313714785434738,-0.0012028607509356973,-0.008472249626057178,0.010613722051351958,0.9871373175575177
2011-09-21,-1,-0.0015587906614819246,-0.001436035910017835,-0.007132579942438051,0.015333766740612391,0.9873464855790256
2011-09-23,-1,-0.002005303469462435,-0.0018549861202353801,-0.0064092522326370535,0.01676717434779605,0.9869106479901895
2011-09-27,-1,-0.0008244260546158433,-0.0008090086386347878,-0.007132579942438051,0.01013604276351003,0.987854960322625
2011-09-29,-1,-0.00014971374976514845,-6.246957050636866e-05,-0.007132579942438051,0.01533413648427027,0.987366031817646
2011-10-03,0,0.0,0.0,-0.007132579942438051,0.017362005287644165,0.987117073616211
2011-10-05,0,0.0,0.0,-0.008906613076960083,0.017362005287644165,0.9868203174952231
2011-10-07,0,0.0,0.0,-0.01281092123676617,0.017362005287644165,0.9859740367690725
2011-10-11,0,0.0,0.0,-0.008906613076960083,0.01533413648427027,0.9871032240333787
2011-10-13,0,0.0,0.0,-0.013257646004205129,0.01533413648427027,0.9856140213784554
2011-10-17,0,0.0,0.0,-0.009443587229767103,0.017362005287644165,0.9852227796279732
2011-10-19,0,0.0,0.0,-0.013257646004205129,0.017362005287644165,0.9853628758832056
2011-10-21,0,0.0,0.0,-0.013257646004205129,0.012244138399583316,0.9860661782827648
2011-10-25,0,0.0,0.0,-0.013257646004205129,0.012244138399583316,0.9856310686198403
2011-10-27,0,0.0,0.0,-0.015420900966086023,0.0054825271138027355,0.9867426608126335
2011-10-31,0,0.0,0.0,-0.013257646004205129,0.007020700293321576,0.9867960572779892
2011-11-02,1,9.573255925439324e-05,0.00027351105247568086,-0.010941998368024302,0.009099940894851591,0.9858062861888895
2011-11-04,0,-1.056362780292938e-05,0.0001436759215023651,-0.008671704684373494,0.007020700293321576,0.9864145852437851
2011-11-08,1,0.0005448106706180254,0.0007849995347475666,-0.008671704684373494,0.006054528805076545,0.9865598424992893
2011-11-10,1,0.0019687329144461706,0.00234975232766576,-0.008671704684373494,0.006054528805076545,0.9878430580801795
2011-11-14,1,0.0012206992916927375,0.0015316345233233428,-0.010198148532145328,0.004460913417215175,0.9886520901075925
2011-11-16,1,0.0005675543326835079,0.0007782724892783828,-0.008091949986328442,0.008297213520680854,0.9878717044223033
2011-11-18,1,0.00196498764827754,0.002317058660096787,-0.008091949986328442,0.008297213520680854,0.987858255400851
2011-11-22,1,0.0011941714717991288,0.0014298727359490799,-0.005754241983187086,0.014515948223435129,0.988594104417401
2011-11-25,-1,-0.00022226458330852432,-7.082624073993164e-05,-0.003670327231267174,0.014515948223435129,0.9885706134487682
2011-11-29,0,0.0,0.0,-0.005754241983187086,0.010270281636976348,0.9898715112703373
2011-12-01,0,0.0,0.0,-0.005754241983187086,0.00827425653559089,0.9913425223835093
2011-12-05,0,0.0,0.0,-0.0032584236015024436,0.010270281636976348,0.9910893581281299
2011-12-07,1,0.0022962995388542623,0.002682733366085299,-0.00471075099660066,0.011305850964750848,0.9912659477591845
2011-12-09,0,0.0,0.0,-0.0032584236015024436,0.009397402931186356,0.9917161057693916
2011-12-13,0,0.0,0.0,-0.002273569328497853,0.009397402931186356,0.9922753329949819
2011-12-15,0,0.0,0.0,-0.0028980580840786635,0.00827425653559089,0.9931735416611294
2011-12-19,0,0.0,0.0,-0.002273569328497853,0.009297505935254679,0.9930637108142358
2011-12-21,0,0.0,0.0,-0.003131191734931321,0.00827425653559089,0.9936048236756765
2011-12-23,0,0.0,0.0,-0.003131191734931321,0.005908929768773394,0.994216152114035
2011-12-28,1,0.0020766636017734703,0.0022749370338491074,-0.002647918433702902,0.005908929768773394,0.9942965147190908
2011-12-30,1,0.002202664065126164,0.0024173036652450587,-0.0038178643132875723,0.006306549416830686,0.9934515088078233
2012-01-04,1,0.0025342711592545118,0.002783326159714683,-0.005364963266828263,0.0062568945863911265,0.9934130255322176
2012-01-06,0,0.0,0.0,-0.003371347113068519,0.0038414663923587375,0.9944060186448747
2012-01-10,0,0.0,0.0,-0.005047885666361165,0.0054026015703480396,0.994111431951015
2012-01-12,1,0.0018676302086532834,0.001993882605254265,-0.006394348071434372,0.0034364128541596968,0.9933742461627054
2012-01-17,1,0.002266165254491562,0.0024724081325613444,-0.005649893134067114,0.0032868559444189514,0.9941024917971293
2012-01-19,1,0.0022309805150253826,0.0024084540800938864,-0.005649893134067114,0.002757000888039981,0.9941340381558971
2012-01-23,1,0.0018352344715523562,0.001990958702724808,-0.005649893134067114,0.003686142437202163,0.993959818099922
2012-01-25,0,0.0,0.0,-0.005649893134067114,0.005454186921920788,0.9938061041009416
2012-01-27,0,0.0,0.0,-0.005649893134067114,0.005454186921920788,0.9938027039882333
2012-01-31,0,0.0,0.0,-0.005445031116855473,0.005454186921920788,0.9944968856728141
2012-02-02,1,0.0011788220931454939,0.0011789662548491214,-0.005676373087782432,0.0040975004550233025,0.9944905729698795
2012-02-06,1,0.0007215854707616386,0.0007575922932427225,-0.006475114237635561,0.005454186921920788,0.9927035404340796
2012-02-08,1,0.0009168691310345298,0.0009366410358691679,-0.006475114237635561,0.0040975004550233025,0.9929682377699841
2012-02-10,1,0.00032822029879417847,0.00040025100096584797,-0.005097259682842404,0.005517929359375784,0.9928031027005515
2012-02-14,1,0.0001309467651255841,0.0002495739790425985,-0.005097259682842404,0.005517929359375784,0.992854345380496
2012-02-16,-1,-0.00019718280209065763,-2.1739573663256983e-05,-0.0045075962604189754,0.005517929359375784,0.9930211796661801
2012-02-21,-1,-0.00016392899686052596,-2.564327153349572e-05,-0.003807611044366937,0.0048802404126073,0.9937531484503246
2012-02-23,1,0.0005185544053039261,0.0005561092595585873,-0.003807611044366937,0.003959682938464192,0.9938129807766434
2012-02-27,0,0.0,0.0,-0.0035244437764253805,0.005517929359375784,0.9930342264435853
2012-02-29,-1,-0.0012756462819499975,-0.000793591182557558,-0.0035244437764253805,0.0048802404126073,0.9931279586088453
2012-03-02,-1,-0.0017445627223567563,-0.0012098865395812704,-0.0035244437764253805,0.006575835692700453,0.9929368000155637
2012-03-06,-1,-0.002335598270818091,-0.0017479613360741266,-0.003441281833596355,0.00537402286485645,0.9942064352703617
2012-03-08,-1,-0.001925411784687679,-0.001434771819813143,-0.0028470808176663835,0.00537402286485645,0.9941703079179817
2012-03-12,0,0.0,0.0,-0.0037255287167060743,0.004667700432094831,0.9945531002523111
2012-03-14,0,0.0,0.0,-0.003940044340719118,0.0038781641944114244,0.9945557856109438
2012-03-16,-1,-0.000632053783586477,-0.0004344373006415673,-0.004257794464527405,0.004536970075832254,0.994099974834977
2012-03-20,0,0.0,0.0,-0.004257794464527405,0.0048498771393346435,0.9934279962295343
2012-03-22,0,0.0,0.0,-0.004257794464527405,0.006501228419442723,0.9931100353774102
2012-03-26,0,0.0,0.0,-0.005900366853140243,0.004536970075832254,0.9939059926598752
2012-03-28,0,0.0,0.0,-0.004257794464527405,0.004536970075832254,0.9944510160092852
2012-03-30,0,0.0,0.0,-0.003106782389385627,0.004536970075832254,0.9943299126987393
2012-04-03,0,0.0,0.0,-0.003106782389385627,0.004260462394190185,0.994476891185737
2012-04-05,0,0.0,0.0,-0.004257794464527405,0.003529899264388405,0.9941646634871085
2012-04-10,0,0.0,0.0,-0.0036550210988640103,0.003529899264388405,0.994215486891522
2012-04-12,0,0.0,0.0,-0.004221691376789133,0.004260462394190185,0.9934442284425817
2012-04-16,0,0.0,0.0,-0.004221691376789133,0.004384549102412554,0.9935888394781217
2012-04-18,0,0.0,0.0,-0.007899174689914561,0.004384549102412554,0.9931975733784665
2012-04-20,0,0.0,0.0,-0.007899174689914561,0.003529899264388405,0.9931943023999685
2012-04-24,-1,-0.0005479142177723769,-0.0003912848518460882,-0.006293745932206213,0.003529899264388405,0.993462084988703
2012-04-26,0,0.0,0.0,-0.006293745932206213,0.0037337309790551687,0.9930656768166873
2012-04-30,0,0.0,0.0,-0.006293745932206213,0.002579638477260188,0.993961229596247
2012-05-02,-1,-0.00023702453381303258,-0.0001017191664482186,-0.006293745932206213,0.002954614191897473,0.9938520667684518
2012-05-04,-1,-0.0006617559222052975,-0.0004798824748556861,-0.006293745932206213,0.004858658122967024,0.993610772758306
2012-05-08,-1,-0.001286668863192997,-0.001000173319886776,-0.005595729378257797,0.005487801060549278,0.9935849028437295
2012-05-10,-1,-0.0007840339771690969,-0.0006171295220549083,-0.005304075292399108,0.005487801060549278,0.9937627324895919
2012-05-14,-1,-0.0009075146657535647,-0.0007293953310630127,-0.00509875414860729,0.0071050234964161645,0.9938959754321156
2012-05-16,-1,-0.0004809659380607845,-0.0003874471508436233,-0.00509875414860729,0.0071050234964161645,0.994078261289741
2012-05-18,0,0.0,0.0,-0.0033333949709853194,0.0071050234964161645,0.9942991185142263
2012-05-22,0,0.0,0.0,-0.0015751789643833702,0.008093456596489844,0.9942620246502292
2012-05-24,0,0.0,0.0,-0.000714753513802711,0.009805342121484751,0.9935478677590398
2012-05-29,0,0.0,0.0,-0.0009601315294097331,0.009805342121484751,0.9928525717496798
2012-05-31,0,0.0,0.0,6.754420555424306e-05,0.009947426781993444,0.992578308751125
2012-06-04,0,0.0,0.0,0.0008658874627821135,0.010283887543470836,0.992060203095503
2012-06-06,0,0.0,0.0,-0.0006212400616491035,0.009947426781993444,0.9923788642955709
2012-06-08,0,0.0,0.0,-0.0012946386079225477,0.009947426781993444,0.9922271578930861
2012-06-12,0,0.0,0.0,-0.0031287519430523974,0.009874964284316966,0.9916481475290767
2012-06-14,0,0.0,0.0,-0.0024541071979561264,0.012061976842429552,0.9900496404176151
2012-06-18,0,0.0,0.0,-0.002790982112124883,0.01352196725816372,0.989268095230062
2012-06-20,0,0.0,0.0,-0.0031287519430523974,0.01352196725816372,0.9894948796346317
2012-06-22,0,0.0,0.0,-0.003976957784593523,0.012061976842429552,0.9899522491596678
2012-06-26,0,0.0,0.0,-0.003976957784593523,0.012061976842429552,0.9900232056380077
2012-06-28,0,0.0,0.0,-0.003976957784593523,0.015366827681214293,0.9879655230007097
2012-07-02,0,0.0,0.0,-0.005985382718883977,0.01352196725816372,0.9883551950758696
2012-07-05,1,0.0018409143336217348,0.002063437302192837,-0.00731607839613538,0.01352196725816372,0.9876149657793849
2012-07-09,1,0.002083987641611522,0.002346479656495471,-0.00731607839613538,0.009038359395150157,0.9880064931835796
2012-07-11,1,0.0016830925529706553,0.0018952473850320005,-0.00731607839613538,0.009038359395150157,0.9886635178513594
2012-07-13,0,0.0,0.0,-0.00731607839613538,0.005736675547014204,0.990869949091086
2012-07-17,0,0.0,0.0,-0.00731607839613538,0.005111332432071017,0.9917812795545925
2012-07-19,0,0.0,0.0,-0.007999807675684313,0.005111332432071017,0.9915380256638653
2012-07-23,0,0.0,0.0,-0.007999807675684313,0.005736675547014204,0.9911533647206688
2012-07-25,1,0.001259812619348924,0.0013889313918675854,-0.007999807675684313,0.005736675547014204,0.9908846526386659
2012-07-27,0,0.0,0.0,-0.007999807675684313,0.005111332432071017,0.9932847591192893
2012-07-31,0,0.0,0.0,-0.0058030116858650005,0.005111332432071017,0.9939750273412782
2012-08-02,0,0.0,0.0,-0.0038017245001168284,0.0053940332586617495,0.994176756437314
2012-08-06,0,0.0,0.0,-0.0038017245001168284,0.004732649383342128,0.9945177460100706
2012-08-08,0,0.0,0.0,-0.0028840177097483005,0.005087403953551118,0.9940021183349651
2012-08-10,0,0.0,0.0,-0.0035978321140709884,0.004676164832218039,0.9941246720761324
2012-08-14,0,0.0,0.0,-0.003116322382943907,0.004676164832218039,0.9940010212882575
2012-08-16,0,0.0,0.0,-0.002996307295752858,0.004676164832218039,0.993230853314278
2012-08-20,0,0.0,0.0,-0.001858432582154517,0.004676164832218039,0.9938520128066277
2012-08-22,0,0.0,0.0,-0.0016234119929445087,0.005896738161978203,0.9938974769891918
2012-08-24,1,0.0017292492609202572,0.0018028055011496083,-7.1686024913913e-05,0.005183501242284043,0.9948428299687769
2012-08-28,1,0.001554494245502178,0.0016065984143548095,0.000168019914753959,0.005183501242284043,0.9949845854678533
2012-08-30,1,0.001393236759684808,0.001411858593327867,-0.0009042941739408927,0.004946161656529511,0.9947285404700945
2012-09-04,1,0.001533012071196559,0.0015381245441539741,0.000168019914753959,0.005223121241471958,0.9948183944838701
2012-09-06,1,0.0018705929148948243,0.0019162974532981913,0.000168019914753959,0.005850845960079938,0.9953664867374318
2012-09-10,1,0.0024248833117206632,0.002508140774694151,0.0010837154367540887,0.005850845960079938,0.9958403399486877
2012-09-12,1,0.0020145311650342206,0.002092837456137072,-0.0010526256283549516,0.005850845960079938,0.9949056464700238
2012-09-14,1,0.0010769715736971084,0.0011219425673149263,-0.0010526256283549516,0.005850845960079938,0.9956511351995386
2012-09-18,0,0.0,0.0,-0.0010526256283549516,0.006969934345438618,0.9941119936670441
2012-09-20,0,0.0,0.0,-0.0010526256283549516,0.005850845960079938,0.9941910852491238
2012-09-24,0,0.0,0.0,-0.002978034906560765,0.005850845960079938,0.9929315169618076
2012-09-26,0,0.0,0.0,-0.0033842572990388856,0.005850845960079938,0.9924373145701844
2012-09-28,0,0.0,0.0,-0.0033842572990388856,0.006969934345438618,0.9922092507465461
2012-10-02,0,0.0,0.0,-0.0055682712483652655,0.006969934345438618,0.9917235499241855
2012-10-04,0,0.0,0.0,-0.008197369100261429,0.0051964660572904045,0.9920070994119944
2012-10-08,0,0.0,0.0,-0.01137432873886057,0.005804013366987431,0.9904104029492377
2012-10-10,-1,-0.00017514202873534124,-3.9868004389972305e-05,-0.01137432873886057,0.005804013366987431,0.9903467866610505
2012-10-12,0,-0.00010057124257361623,2.89314399470277e-05,-0.01137432873886057,0.005804013366987431,0.9902792291246104
2012-10-16,1,0.0006486984817671169,0.0006873756923276729,-0.011944367159181329,0.004695574909810186,0.9906923748009314
2012-10-18,1,0.000857671962221251,0.0008821684486887181,-0.011944367159181329,0.004961146827511635,0.990828203586834
2012-10-22,-1,-0.0003364305936370761,-0.0001644616509779185,-0.00860973215473957,0.005672796295777214,0.9920896189193763
2012-10-24,-1,-0.0002675027868394807,-0.00010332223541298369,-0.007311424206844555,0.0062787420514746175,0.9921733452307518
2012-10-26,-1,-0.0001780023472236291,-3.319742395383764e-05,-0.007360813278766652,0.0062787420514746175,0.9916096956589168
2012-11-01,-1,-0.00031088400406888557,-0.0001724760975814655,-0.007360813278766652,0.005672796295777214,0.9919223534083808
2012-11-05,-1,-0.0004748216377139652,-0.0003290268538012666,-0.007360813278766652,0.005672796295777214,0.9921436619212869
2012-11-07,-1,-0.0017736491668220262,-0.001472887734064655,-0.006165331836141807,0.005374304655116163,0.9936006334760374
2012-11-09,-1,-0.0015802543273117976,-0.0012978938639456204,-0.0039724771404819345,0.005374304655116163,0.9942727715466095
2012-11-13,-1,-0.0018350237511111178,-0.0015297548530053154,-0.0021952424421087897,0.0062787420514746175,0.993515146736968
2012-11-15,-1,-0.0020064112769169517,-0.0017146725949053667,-0.0021952424421087897,0.0062787420514746175,0.9925324679840549
2012-11-19,-1,-0.0017926188587595686,-0.001513550933273235,-0.0021952424421087897,0.0057010453122413535,0.9924566549980987
2012-11-21,-1,-0.001194951028044892,-0.001007838503044113,-0.007722411030532764,0.0028175806677064393,0.9911497270423119
2012-11-26,-1,-0.0006477614808813356,-0.0005375679677748857,-0.00920982172554715,0.0026978240198080408,0.9909031284348853
2012-11-28,-1,-0.0004613312069684257,-0.00035330450114609915,-0.00920982172554715,0.002523762991279307,0.9918422473660848
2012-11-30,-1,-0.0006857283983855013,-0.0005511587482382148,-0.010274147758916163,0.0026978240198080408,0.9914175121453367
2012-12-04,-1,-0.001126529258258035,-0.000899767377100859,-0.010274147758916163,0.003872985303751336,0.9899497420248471
2012-12-06,-1,-0.0001605748946781801,-8.985452213363949e-05,-0.010274147758916163,0.004525980859912724,0.9894110320157565
2012-12-10,1,0.00013175054808728433,0.0001400003052588157,-0.010274147758916163,0.007966454675445357,0.9891180077964412
2012-12-12,1,0.00028736153282649113,0.00029940048265507,-0.010274147758916163,0.007966454675445357,0.9892437929183858
2012-12-14,-1,-0.0011376712077730798,-0.0009390125898857916,-0.009089530231434668,0.007966454675445357,0.9904563235040998
2012-12-18,-1,-0.0008068940690187868,-0.0006343001704005519,-0.009089530231434668,0.005547875051358806,0.9907132751714935
2012-12-20,-1,-0.00032931639758767737,-0.0003095156709160028,-0.004464333723593037,0.005880582596092929,0.9923882847182872
2012-12-24,-1,-0.00178517470588167,-0.0015520785566105178,-0.004464333723593037,0.005880582596092929,0.992284275024856
2012-12-27,-1,-0.0018643724441641542,-0.0016183344533134323,-0.007899454422603371,0.007966454675445357,0.9912244068730163
2012-12-31,-1,-0.0014612861605262234,-0.001271098854588573,-0.004672950187386012,0.009732760795078515,0.9913625926583417
2013-01-03,-1,-0.0006075175555254114,-0.0004987225119348301,-0.007899454422603371,0.005184017305747263,0.9915234785861016
2013-01-07,-1,-0.0008890053204600101,-0.0007833225265618769,-0.007972382788316594,0.00646516919588223,0.9902121835135727
2013-01-09,-1,-0.0006953010011067537,-0.0005959318958181341,-0.00835404952388528,0.005184017305747263,0.9904117777475315
2013-01-11,-1,-0.000322471098082259,-0.00025135988109179424,-0.00835404952388528,0.004982067625785111,0.9906784418687813
2013-01-15,-1,-0.0008342602601443695,-0.0007085921522734489,-0.00782497382395771,0.004982067625785111,0.9909255348659206
2013-01-17,-1,-0.0010142604071810045,-0.0008310789185156014,-0.007479871125496741,0.005184017305747263,0.9911621958268781
2013-01-22,-1,-0.00031690722199760173,-0.0002315199068516142,-0.007479871125496741,0.006793278833458727,0.9902317812018918
2013-01-24,-1,-0.0009327861343223849,-0.0007531741967542787,-0.006119724325172573,0.010490676662673169,0.9901354448495588
2013-01-28,-1,-0.0009695593673708238,-0.0008011856452392861,-0.006119724325172573,0.006793278833458727,0.9907070966558084
2013-01-30,-1,-0.0004959094975291521,-0.0003806313165216145,-0.006119724325172573,0.006793278833458727,0.9907836280726787
2013-02-01,-1,-0.0007859553605149694,-0.0006802420020467973,-0.0042092640947484885,0.010580931666624518,0.991668215969808
2013-02-05,-1,-0.0008617063095674546,-0.0007435443569988752,-0.0027014705190031548,0.010062054572887535,0.9929284976699586
2013-02-07,-1,-0.0012984575274364396,-0.0011359687843855342,-0.0042092640947484885,0.010062054572887535,0.9926185303904558
2013-02-11,-1,-0.0014707477349381634,-0.0012386166607705816,-0.0042092640947484885,0.011535458467530653,0.9907515812260854
2013-02-13,-1,-0.001385598505429076,-0.0012308178067644315,-0.005922291176328141,0.011535458467530653,0.9904415524319442
2013-02-15,-1,-0.000778182917485634,-0.0007238056216076177,-0.006994086175900078,0.011535458467530653,0.9901464140548444
2013-02-20,1,6.710412489838502e-05,0.00011468742620532492,-0.006994086175900078,0.010221333563734905,0.9908863979192215
2013-02-22,1,0.00016253522259819598,0.00020936956829651544,-0.007252267259467509,0.009693736134652782,0.9911039273424478
2013-02-26,-1,-0.0002957055205530142,-0.0002929161740096473,-0.006994086175900078,0.010698023392098934,0.9907556748140595
2013-02-28,-1,-6.743816136342845e-05,-3.091990852436854e-05,-0.006994086175900078,0.009693736134652782,0.9912276361141494
2013-03-04,1,0.0007742333859490518,0.0009425025466814873,-0.006994086175900078,0.009693736134652782,0.9914372984105027
2013-03-06,1,0.0010312124585987082,0.0012442148534047956,-0.006994086175900078,0.009713202721699392,0.9915153359234026
2013-03-08,0,-2.744255918896648e-05,6.503183071634975e-06,-0.005220940954256561,0.009713202721699392,0.9916364007608444
2013-03-12,1,0.001077575362267603,0.001270465885312585,-0.005220940954256561,0.008219253640507318,0.9926600597565326
2013-03-14,1,0.001207470911459071,0.0014679916568700602,-0.004097587277076478,0.00832716351327494,0.9931781493376404
2013-03-18,1,0.0011940503901466644,0.0014794272789820167,-0.0026367629819621175,0.009713202721699392,0.9928221961960875
2013-03-20,1,0.0009909627802708533,0.0011861095968694014,-0.004263456987381624,0.008429447568300955,0.9926498646408233
2013-03-22,1,0.0007740935104603771,0.0009308875984443617,-0.004209025884560762,0.010205512454905358,0.9917760160057812
2013-03-26,1,0.001444776565341332,0.001713996947251592,-0.004209025884560762,0.010205512454905358,0.9915120562660171
2013-03-28,1,0.0002808625000845129,0.00039109896309790984,-0.004209025884560762,0.010816937639042774,0.990553461251758
2013-04-02,1,0.0015896610133181478,0.0018550640162573722,-0.004263456987381624,0.010205512454905358,0.9903577890002155
2013-04-04,1,0.0009165961888656534,0.001038008108796591,-0.006336109247812079,0.009481369532733628,0.9894710329742641
2013-04-08,1,0.0016454006333106092,0.0018752884816796845,-0.012834177505223874,0.009481369532733628,0.9889743963647676
2013-04-10,1,0.002447199017080583,0.0027738141459619408,-0.012834177505223874,0.008188066594243712,0.9895497349647906
2013-04-12,1,0.0012130287762778234,0.001343812341107157,-0.012834177505223874,0.010274541808634055,0.9894290177545922
2013-04-16,1,0.0015744261275882905,0.0017797331756770002,-0.007767072543393706,0.010183161821802796,0.9900144271970944
2013-04-18,1,0.0006433272288922092,0.0007655929935348753,-0.008906177231414871,0.010183161821802796,0.9900763803684907
2013-04-22,1,0.0021355181832845146,0.0024533623437840634,-0.012880585849385714,0.007363516316802465,0.9898631782136667
2013-04-24,1,0.0018766005708643419,0.0021724884783939336,-0.012659684883062981,0.007363516316802465,0.9884062037727201
2013-04-26,1,0.0021410091939298576,0.0024290305469195483,-0.009421076225168284,0.007363516316802465,0.9886501013301395
2013-04-30,1,0.0012328311688698788,0.0014095658224627244,-0.009421076225168284,0.009843532030847415,0.988621230017054
2013-05-02,1,0.0009387071056125445,0.0010794062144224089,-0.007944218733767225,0.009843532030847415,0.98946007598582
2013-05-06,1,3.7939113819799306e-05,7.67079527672854e-05,-0.007743068748596319,0.01057567568005558,0.9873914981389894
2013-05-08,1,0.0003288177552129503,0.00043822108824035803,-0.007944218733767225,0.01057567568005558,0.987239912961343
2013-05-10,1,0.0005205337047815141,0.0005950540465000266,-0.008255268774908299,0.009914599827567842,0.987535504480841
2013-05-14,1,0.0013954608376236682,0.0016029566702694714,-0.009602075976908618,0.006640675691789845,0.9868245664292168
2013-05-16,1,1.112184057272715e-05,3.016663355603311e-05,-0.009602075976908618,0.010633851737872227,0.986760077475326
2013-05-20,-1,-0.0007260539415038705,-0.0006103950459633444,-0.008004551984347337,0.010633851737872227,0.9878989276060957
2013-05-22,-1,-0.0002641000234660679,-0.00019415815738620476,-0.008004551984347337,0.006640675691789845,0.9893073271992918
2013-05-24,1,0.00027517291835861784,0.0002937164204133426,-0.009465497810454505,0.006640675691789845,0.988663677169292
2013-05-29,1,0.00014910215773379672,0.0001645638379116297,-0.008004551984347337,0.006689730629454079,0.9892580472918152
2013-05-31,1,8.894907490387868e-05,9.479279085464631e-05,-0.009465497810454505,0.010621828104943033,0.9883828872408562
2013-06-04,1,0.00126703353711239,0.0014271057409729886,-0.009465497810454505,0.0051247783763143425,0.9904964056914912
2013-06-06,1,0.0006733902238973111,0.000762730022940803,-0.006997654438806633,0.006689730629454079,0.9909493042213938
2013-06-10,1,0.000785887539062987,0.0008704567697681609,-0.004538402200098006,0.006463362425999737,0.9912195713061857
2013-06-12,1,6.470279052560134e-05,9.710094794725212e-05,-0.003236263059564992,0.007960863110121497,0.9918058419472013
2013-06-14,1,0.0005320387615385511,0.0005955371628954936,-0.003236263059564992,0.007179345888872154,0.9922879065264234
2013-06-18,1,0.0004245623008465154,0.00044332686169551384,-0.00363975892064363,0.007179345888872154,0.9920739468823759
2013-06-20,-1,-0.0007785257265675828,-0.0006576238528298085,-0.0030685999816316995,0.007530276043990338,0.9922872338362181
2013-06-24,1,1.9805530996462828e-05,4.972676841320201e-05,-0.0022547234015364726,0.007179345888872154,0.9934847570172897
2013-06-26,-1,-0.0004503051992622601,-0.00034010357222882473,-0.0022547234015364726,0.007179345888872154,0.9935461636601558
2013-06-28,-1,-0.000921983295309149,-0.0007673882137568904,-0.0022547234015364726,0.006767326230940403,0.9944444501660182
2013-07-02,-1,-0.0004938750339435315,-0.0003701143024524833,-0.0023284282022121012,0.006767326230940403,0.9945160629600249
2013-07-05,-1,-0.0003050882384320395,-0.0002158027861637932,-0.0023284282022121012,0.006767326230940403,0.9947515794071599
2013-07-09,1,4.4378348524978735e-05,9.798936776601741e-05,-0.0023284282022121012,0.006767326230940403,0.9951315424193868
2013-07-11,0,-5.987274952573045e-05,1.2277379872120106e-05,-0.0023284282022121012,0.00449075001180921,0.9956728782025226
2013-07-15,1,0.0006726824829847572,0.0007457702559085669,-0.0023284282022121012,0.0029732515447962607,0.9956206678559784
2013-07-17,1,0.0006258974176039956,0.0006966402680831995,-0.0017015027798138144,0.0032682956656968176,0.9959105587994795
2013-07-19,1,0.0003166368635701399,0.0003190552661240373,-0.0021642329606287028,0.002595789196885916,0.9961462569119908
2013-07-23,-1,-0.00010170569461351235,-4.069868325436729e-05,-0.002660125113953635,0.0023274910869507115,0.9964037254765595
2013-07-25,1,0.0008541245815126626,0.0009619356382913587,-0.002205892373687288,0.0023274910869507115,0.9962452642282765
2013-07-29,1,0.0007625381663693362,0.0008631113010076543,-0.002153126952820824,0.0018076363441745433,0.9964716477926315
2013-07-31,-1,-0.00031148842023511023,-0.0002242693945675901,-0.002153126952820824,0.00025875828905430154,0.9967846250384973
2013-08-02,1,0.00031448342975653077,0.00032069021264150054,-0.002153126952820824,0.0005726180381307835,0.9967379317431856
2013-08-06,-1,-6.216868647684461e-05,-1.2711121013003404e-05,-0.002153126952820824,0.0018076363441745433,0.9964307328496584
2013-08-08,-1,-0.00023646616351057247,-0.00015922186347795835,-0.002357386103670752,0.0005726180381307835,0.9965051840940896
2013-08-12,1,0.00012035446727893411,0.0001501589571177651,-0.002357386103670752,0.003176615268671588,0.9960198518215281
2013-08-14,-1,-0.00036719073851095436,-0.0002805220528743392,-0.002778113348179299,0.003509533266875153,0.99590362983349
2013-08-16,-1,-0.0003095730115910126,-0.00024279664875280634,-0.002153126952820824,0.004282278996713509,0.9962689677742488
2013-08-20,-1,-0.00044759162556760017,-0.00035562091629488807,-0.002153126952820824,0.0050865047010125435,0.9958254820728587
2013-08-22,-1,-8.941005704884476e-05,-3.913979281894818e-05,-0.003060758469686625,0.004282278996713509,0.9958457083298873
2013-08-26,-1,-0.0003188775855296338,-0.000257078485863276,-0.003607843256317509,0.004282278996713509,0.9955963402501661
2013-08-28,-1,-0.0002664633615374773,-0.00021066300595070397,-0.003250793125355352,0.004282278996713509,0.9959329740430689
2013-08-30,1,0.00011950815424804292,0.0001418078978558067,-0.003607843256317509,0.0037578511422617293,0.9958118030792708
2013-09-04,1,0.00031111648081661683,0.0003565658495492771,-0.003742990746621293,0.0037578511422617293,0.9948158878224361
2013-09-06,-1,-6.035113757686762e-06,-4.3856770332197595e-06,-0.003742990746621293,0.0037578511422617293,0.994893864560121
2013-09-10,1,2.6314991620735935e-05,4.121307609013211e-05,-0.004119936539934805,0.0024667130236483113,0.9949053041505409
2013-09-12,1,0.00028014532666272566,0.0003331960508440597,-0.004119936539934805,0.0024667130236483113,0.9945662748276394
2013-09-16,1,0.00010976666901439245,0.00011731359039479401,-0.005603589007832321,0.0007340884575625889,0.9943050422330156
2013-09-18,1,0.0005934834831069769,0.0006849944880204862,-0.005603589007832321,0.0007340884575625889,0.9938463001243459
2013-09-20,-1,-0.00020059120898028026,-0.00016073506649210914,-0.006917611327109386,0.0007340884575625889,0.9940061155722907
2013-09-24,-1,-0.0004525096682673875,-0.00036305209985442783,-0.004920923835896384,0.0007340884575625889,0.9944476414594076
2013-09-26,-1,-0.0005008581251295633,-0.0004187937223172898,-0.007112790601445643,0.0003291653758360863,0.9942012942422743
2013-09-30,-1,-0.0006194552110109635,-0.0004950280836983679,-0.007374650601681238,0.0003291653758360863,0.9929542020025092
2013-10-02,-1,-6.576334890834141e-05,-5.704958957419151e-05,-0.007341681286845316,0.0003291653758360863,0.9936204649009317
2013-10-04,1,5.5774063843755435e-05,9.609840992190104e-05,-0.007341681286845316,0.002228810989068123,0.9934003804972431
2013-10-08,-1,-0.00041321521054524067,-0.0003270965184366226,-0.007563071329577005,0.003492183991539498,0.9931321428004679
2013-10-10,-1,-0.000929244644441469,-0.0007533563938805794,-0.007341681286845316,0.003596585145867954,0.9932366850998141
2013-10-14,-1,-0.0006084517013352567,-0.0005166450033313849,-0.004713324955401948,0.005534628047200075,0.9925130050916403
2013-10-16,-1,-0.0003309888360738982,-0.00028033374587312174,-0.005765488613395069,0.005534628047200075,0.9924137731663073
2013-10-18,-1,-0.0005996001162679768,-0.0005125432090463259,-0.003799990714997532,0.007727414398950589,0.9921761776637619
2013-10-22,-1,-0.0007674616456774888,-0.0006555465426221871,-0.003799990714997532,0.007727414398950589,0.9921268328195347
2013-10-24,-1,-0.0002616355663163114,-0.00024962934416189475,-0.0031134788737950583,0.010149769586247612,0.9920336533836462
2013-10-28,-1,-0.0009388155050980022,-0.0008515330030137766,-0.0016976461981293828,0.01034398445310518,0.9923402329866058
2013-10-30,-1,-0.0010438696945682955,-0.0009433358669728105,-0.001338858362662781,0.01034398445310518,0.9925967014250036
2013-11-01,-1,-0.0013981885041301266,-0.0012256440244003755,-0.0003120398566047119,0.01034398445310518,0.9923195409540275
2013-11-05,-1,-0.000988545959360813,-0.000883189079378665,-0.001338858362662781,0.010149769586247612,0.9926555873087056
2013-11-07,-1,-0.000753557991050767,-0.0006715226147038153,-0.001338858362662781,0.010149769586247612,0.9924502440740035
2013-11-11,-1,-0.0005529929268152036,-0.0004585928748651057,-0.001863989920287722,0.007802760485957294,0.9935566441542882
2013-11-13,-1,-0.00039691234541839834,-0.00031943527546650786,-0.004059793514777098,0.00669221039880083,0.9933940902544202
2013-11-15,1,0.00010578183090904564,0.0001162228972377802,-0.006588141578642678,0.005427220224404386,0.9938329799078598
2013-11-19,1,4.2721048447315454e-06,3.121432021969873e-05,-0.006588141578642678,0.00669221039880083,0.9927399981640476
2013-11-21,1,0.0002900397622063483,0.0002980870457389518,-0.006588141578642678,0.00669221039880083,0.9926182373524204
2013-11-25,1,0.0009069938642108351,0.0010132402425933789,-0.006588141578642678,0.0038420744059257145,0.993546703721733
2013-11-27,1,0.0010759820402012998,0.0012168441344082076,-0.006588141578642678,0.004149988929345117,0.9935764189771696
2013-12-02,1,0.0013601978550092286,0.0015574589022407357,-0.006588141578642678,0.0031200041450641642,0.9937445952059388
2013-12-04,1,0.0010063607691809962,0.001162284369909883,-0.004461743525047558,0.003793838938170637,0.9939708159627326
2013-12-06,1,0.0009330806308822568,0.0010675343518905794,-0.002955049723675553,0.003793838938170637,0.9946885852628636
2013-12-10,1,0.0008193039122668295,0.0009279293919040926,-0.0055656321191398656,0.0034718799816813193,0.9942928815366936
2013-12-12,1,0.0003456381067981827,0.0003951101987024216,-0.0026748386535339875,0.0065230081305080005,0.9918415332575813
2013-12-16,1,0.0002782413593389622,0.0003251360838692732,-0.0026820350668791413,0.0065230081305080005,0.991590981702815
2013-12-18,1,0.0006975477692803579,0.000804736188994849,-0.0030499979315765768,0.005205616439196581,0.9923245054193021
2013-12-20,1,0.0008521623594582468,0.0009747227156314964,-0.005663564269207828,0.0034718799816813193,0.9923242323075229
2013-12-24,1,0.0009864997074485742,0.0011371705791119993,-0.005663564269207828,0.005219907900784998,0.9918372788755428
2013-12-27,1,0.0011269485646392212,0.0012926515748370331,-0.005663564269207828,0.0066718433237510436,0.9913843055307087
2013-12-31,1,0.001226423095822497,0.0014051590449232492,-0.007053598164450361,0.007293456105128891,0.9896829435637079
2014-01-03,1,0.0010735433739597028,0.001231479025065965,-0.009107661333016414,0.007293456105128891,0.9890417893850996
2014-01-07,1,0.0013353595272936301,0.0015311123882805113,-0.009107661333016414,0.007293456105128891,0.9880358972308743
2014-01-09,1,0.0007692150625748333,0.0008617624670660053,-0.009107661333016414,0.00816849987749655,0.9877166058375887
2014-01-13,1,0.002475619044912213,0.0027871136834120283,-0.009107661333016414,0.00816849987749655,0.9904886362774326
2014-01-15,1,0.0022336231445224597,0.0025175110219931365,-0.009468676080652253,0.00816849987749655,0.9905274097048454
2014-01-17,1,0.00182670024131321,0.002047600044765997,-0.004047669116440382,0.00816849987749655,0.990898851379646
2014-01-22,1,0.0012956848847963858,0.0014264321396238598,-0.0022425537465785954,0.011433229287822014,0.9901304707310707
2014-01-24,1,0.0015954977635172975,0.0017692569156784453,-0.0022425537465785954,0.011433229287822014,0.990550472065437
2014-01-28,1,0.0020335492666657797,0.0022749547058294006,-0.006127369693613494,0.008326678461079191,0.9908206706936747
2014-01-30,1,0.0022155598696995057,0.0024714460538422904,-0.0009211579004460156,0.006561925311656768,0.9922911680735645
2014-02-03,1,0.0015297167892048377,0.0017085220696277667,0.001457095724805904,0.008033995316847117,0.9924474017552235
2014-02-05,1,0.0021042886059174605,0.00235159719826132,0.0005750198236650433,0.006743243891558972,0.9935958315679244
2014-02-07,1,0.002693322101908199,0.0030250731392079877,-0.0027461940425113577,0.006499397560930655,0.9943716644963737
2014-02-11,1,0.0030746454296357705,0.003459066901106208,-0.0035673856038685977,0.0062377040588746675,0.9943006075333118
2014-02-13,1,0.0026317178224321233,0.0029406193786432706,-0.0035673856038685977,0.0062377040588746675,0.9938256157650416
2014-02-18,1,0.002647513475320368,0.002938307566845757,-0.0035673856038685977,0.006499397560930655,0.9936575668076438
2014-02-20,1,0.0026532369064133834,0.002944219072445636,-0.005245718160959706,0.005977935314832409,0.9939663823501651
2014-02-24,1,0.0027703910066897573,0.0030669401175227235,-0.007858552345870887,0.005977935314832409,0.9920937059599089
2014-02-26,1,0.003249205847868625,0.003624472932725894,-0.007858552345870887,0.006743243891558972,0.9908504009885499
2014-02-28,1,0.0033977047542109685,0.0037820871402816907,-0.007858552345870887,0.0050345957082473585,0.9906080717779957
2014-03-04,1,0.0031272267970701437,0.003451958527928701,-0.00707046454817545,0.0050345957082473585,0.9906839185592969
2014-03-06,1,0.0029965454355303594,0.003286966717675947,-0.00707046454817545,0.003872091024994408,0.9907361691584468
2014-03-10,1,0.0025990644822781054,0.002801991646661538,-0.008105841436021785,0.002709080911306146,0.9900136662159222
2014-03-12,1,0.002261867047073531,0.0024313864784633005,-0.00707046454817545,0.005877882701368422,0.9888808640122936
2014-03-14,1,0.0015236912480963332,0.0015493215447585033,-0.00707046454817545,0.005877882701368422,0.9890553860290935
2014-03-18,1,0.0016633731408271517,0.0016935605682261937,-0.00707046454817545,0.005523837990931285,0.988705991171638
2014-03-20,1,0.0008529090598727335,0.0009367130961832838,-0.0064556778544442766,0.005523837990931285,0.9894187790197748
2014-03-24,-1,-0.0009885166673287307,-0.0006419704906113302,-0.004615135170963112,0.010265378826450497,0.9898738218326042
2014-03-26,1,0.000285617737206165,0.000495231324794272,-0.00479943994298105,0.005523837990931285,0.9917776838662656
2014-03-28,0,-1.0438395279489354e-05,0.00023990470621469424,-0.005345377778099899,0.004969420261559211,0.9915076676903704
2014-04-01,1,5.416244270468678e-05,0.00029575967390958215,-0.004765489078560832,0.004969420261559211,0.9906408392374657
2014-04-03,0,-8.129353121661385e-05,0.00016535867257074616,-0.005345377778099899,0.008748998355944252,0.9889017053431449
2014-04-07,-1,-0.0004171317488043235,-0.00016916748562066967,-0.005345377778099899,0.008748998355944252,0.9881495988054246
2014-04-09,1,0.0008824342218948299,0.0009820004935006163,-0.01185938101758308,0.007441094050158748,0.9880538615029978
2014-04-11,1,0.00021684043601545702,0.00037102808354137675,-0.007140043992255581,0.007441094050158748,0.9888718239040567
2014-04-15,1,0.0001151879675186882,0.0002870105229995239,-0.006226487124705778,0.008510549640006117,0.9886666011064109
2014-04-17,1,0.0004686660081317516,0.0005830263087916658,-0.008832220947807341,0.008510549640006117,0.9885321756743043
2014-04-22,1,0.0015861135419963947,0.0016428259161976747,-0.008832220947807341,0.007361611144846037,0.9886156099094888
2014-04-24,1,0.0013372619066635088,0.001362561203287633,-0.008832220947807341,0.008387659232844754,0.9884208408350832
2014-04-28,1,0.0007772761141706997,0.00081282280377203,-0.006787172782362816,0.008387659232844754,0.9889026035665556
2014-04-30,1,0.0014483744871478543,0.001454568439113867,-0.006787172782362816,0.008387659232844754,0.9894033907501629
2014-05-02,1,0.0010543549869677846,0.0010989205813501433,-0.005389404183911719,0.007361611144846037,0.9913728913394851
2014-05-06,1,0.00014012127322612689,0.00029632544695815105,-0.0028631253858184516,0.007277811053653348,0.9929342692038035
2014-05-08,-1,-0.0021102720847354017,-0.0016436546479915296,-0.001721066711835264,0.007277811053653348,0.9939436735212803
2014-05-12,-1,-0.002074224932617069,-0.0015971576380050124,-0.001721066711835264,0.008387659232844754,0.9938397518069696
2014-05-14,-1,-0.0011197534964504496,-0.00078036234505256,-0.0026599805895671947,0.005519447416480908,0.9945443872238641
2014-05-16,-1,-0.0014364282526551945,-0.0010715295568010745,-0.0023139879935811,0.005519447416480908,0.994776310271813
2014-05-20,-1,-0.001471864833562123,-0.0011010846275991706,-0.001721066711835264,0.005519447416480908,0.9950713765593704
2014-05-22,-1,-0.001125635929466093,-0.0008044786174404813,-0.0019405085206623594,0.005519447416480908,0.9951487362882173
2014-05-27,-1,-0.0010341169832261932,-0.0007286811285998442,-0.00326492410080055,0.0035686692408943006,0.994808058354152
2014-05-29,-1,-0.0006682937333696167,-0.00038715331342461384,-0.00326492410080055,0.0035686692408943006,0.9951792354237109
2014-06-02,-1,-0.0005348253284102487,-0.000277202339034735,-0.004628818517737032,0.005493846370776044,0.9943123096269536
2014-06-04,-1,-0.0010056645275340742,-0.0006645787812038504,-0.004628818517737032,0.006828474595483813,0.9932937352984076
2014-06-06,1,0.0004577475868973665,0.0005088962376650326,-0.005987008602329839,0.006828474595483813,0.992875610520715
2014-06-10,1,0.0005056310491905575,0.0005775702296556876,-0.006267723512701662,0.006154320700481195,0.9927604322914496
2014-06-12,0,-6.33740597800914e-05,0.00010099991947054121,-0.005700140041462237,0.006154320700481195,0.9934137847211558
2014-06-16,-1,-0.0006851447563300275,-0.00042009723781104866,-0.005700140041462237,0.006154320700481195,0.9932321036063351
2014-06-18,-1,-0.0002981374861565254,-0.00010017683539791816,-0.006267723512701662,0.005804878583832812,0.9928339435042013
2014-06-20,1,0.00033056615210304855,0.00042543317161805865,-0.006267723512701662,0.005804878583832812,0.9924208053274886
2014-06-24,-1,-0.00021934093069518438,-7.939885913140155e-05,-0.00566190750601871,0.006752885741277073,0.9926864433212917
2014-06-26,-1,-0.0005890464601838322,-0.0003462667493378201,-0.005564461677563137,0.005804878583832812,0.9936810829032915
2014-06-30,-1,-0.0004925213925198024,-0.0003162363373915327,-0.004849732609626323,0.006752885741277073,0.9940924786554156
2014-07-02,1,0.0007879967955912246,0.0008053791515507594,-0.00586615734550348,0.0029412249598579974,0.9932821341017258
2014-07-07,1,0.0007094464932000991,0.0007508144615578046,-0.005564461677563137,0.004252626065648502,0.9938005150058746
2014-07-09,1,0.0004258040173002643,0.0004450423838235488,-0.005564461677563137,0.002326708297309854,0.9934356154150428
2014-07-11,1,0.0005159727096748296,0.0005269137882369897,-0.005564461677563137,0.004252626065648502,0.9924956862805359
2014-07-15,1,0.00014228092472696687,0.00017399526519006249,-0.005564461677563137,0.005065608081367778,0.9926396950691128
2014-07-17,1,3.3229900858021145e-05,6.652286867458266e-05,-0.0052579579119173304,0.008191066618603174,0.9918157077528416
2014-07-21,1,0.0003062344948878035,0.0003064030497427594,-0.0037275862097985854,0.006751107737985232,0.992411020374366
2014-07-23,1,0.0005850466230391698,0.0006488048971098478,-0.003132036000924186,0.008709592875536758,0.9922497067454512
2014-07-25,1,0.0006162352709238137,0.0006853967639089602,-0.0037275862097985854,0.008709592875536758,0.9916025973163253
2014-07-29,1,0.0009294945812852757,0.0010468621132513692,-0.0037275862097985854,0.008656701937321256,0.9915731738440863
2014-07-31,-1,-0.00026846261227705286,-0.00023386804160791696,-0.0029795778907162214,0.008656701937321256,0.9925238079122776
2014-08-04,-1,-0.00025599775375910753,-0.00020515358413606324,-0.0035925765172037947,0.008656701937321256,0.9924866277560364
2014-08-06,-1,-0.0015488749866333594,-0.001308828138624009,-0.0035925765172037947,0.009517150229880788,0.992280629215999
2014-08-08,-1,-0.0008076143255671032,-0.0006771808441426349,-0.0029795778907162214,0.009517150229880788,0.9924862153210489
2014-08-12,-1,-0.000820492894632631,-0.0006609227420169937,-0.0035925765172037947,0.009517150229880788,0.9924370257044607
2014-08-14,-1,-0.00043578757193910803,-0.00025898447477406335,-0.005646121522180346,0.007998457189690993,0.9931097974791347
2014-08-18,1,0.0001940368994613792,0.00022134653204088024,-0.005646121522180346,0.00801927934796479,0.992940806374589
2014-08-20,1,0.0007659267776863617,0.0008065779609265361,-0.005646121522180346,0.007352959978840054,0.9933736519424426
2014-08-22,1,0.0006682029791192517,0.0007084193780700214,-0.004814662580108561,0.007352959978840054,0.9940117640552255
2014-08-26,1,0.0011439316412744807,0.0012384508691227767,-0.005044980001870316,0.0030640840729685924,0.9945185506785044
2014-08-28,1,0.0006015060632995188,0.000619386979678991,-0.005646121522180346,0.0030640840729685924,0.993916777866773
2014-09-02,1,0.000986808463466948,0.0010901433911821203,-0.005367525906750721,0.0030640840729685924,0.9940763623763585
2014-09-04,1,0.0006656866059939231,0.0006872446740478403,-0.005720649042243573,0.0025345889683048334,0.994411267209253
2014-09-08,1,0.0011126382237097708,0.0011940452059893284,-0.006013242144932065,0.0025345889683048334,0.9942109109340226
2014-09-10,1,0.0010178982581129565,0.001097512604923188,-0.00629453988884839,0.0025345889683048334,0.9924089255157191
2014-09-12,1,0.0007314621675469795,0.0008139644885715374,-0.006328929237301778,0.0025345889683048334,0.9922009501941017
2014-09-16,1,0.000866576621638835,0.0009572149073903569,-0.009370590915296354,0.0025345889683048334,0.9903134926793064
2014-09-18,1,0.0007414009925488437,0.0007846271400356579,-0.012975898570747019,0.001712015275027341,0.9881325363913617
2014-09-22,1,0.0013975098916637015,0.001589816024782682,-0.012975898570747019,0.0015915019160871917,0.987517056296967
2014-09-24,1,0.0011407027005186465,0.0012877815918862106,-0.012975898570747019,0.004261487236451712,0.9867517626429506
2014-09-26,1,0.00028406123153783546,0.0002842152482131079,-0.01124109565646781,0.012608251640831502,0.9859394413651382
2014-09-30,-1,-0.0005965061941281532,-0.00043178664248957747,-0.016788285000053766,0.012608251640831502,0.9846252320046945
2014-10-02,-1,-0.0007343580288275264,-0.0005645406971694247,-0.016788285000053766,0.017439509966304556,0.9838850588272477
2014-10-06,0,-5.220796290061403e-05,1.4081410605911864e-05,-0.016788285000053766,0.017011889663557545,0.9836624730945104
2014-10-08,1,6.598111771070962e-05,0.00013601615346471016,-0.012001258887022486,0.012510434953803738,0.9854993451209235
2014-10-10,-1,-0.0008088387616931252,-0.0006388743113685945,-0.006560169922453547,0.012510434953803738,0.986145067950509
2014-10-14,-1,-0.0019301327338029077,-0.0016447810297875948,-0.006135822757929061,0.012510434953803738,0.9871380736152068
2014-10-16,-1,-0.0034916460170064394,-0.003031391480614068,0.00016384003904499256,0.012510434953803738,0.9883590343276787
2014-10-20,-1,-0.0027264482210837765,-0.0023846579294464357,-0.002058977174655398,0.012473122937068724,0.9888614980173517
2014-10-22,-1,-0.0017188880651554839,-0.0015023669137850964,-0.004431702601375583,0.009889846751541611,0.990200753749837
2014-10-24,-1,-0.0004939305418876697,-0.00042096153383234885,-0.004570611938496883,0.007333181590858845,0.9919817765937677
2014-10-28,-1,-0.0014772893542299799,-0.0012881275332338488,-0.004220599303166618,0.007333181590858845,0.9927744365576235
2014-10-30,-1,-0.0004156765862035595,-0.00036786452503695746,-0.004220599303166618,0.007333181590858845,0.9934502697312536
2014-11-03,1,0.0003697930287900462,0.00041401773343819226,-0.004220599303166618,0.006679067412915487,0.9947493888914914
2014-11-05,1,0.0005992485405436989,0.0006660756768220525,-0.004220599303166618,0.005859898024544572,0.9948747825056687
2014-11-07,1,0.000553879974127912,0.0006239137507199554,-0.0035114674746144236,0.006679067412915487,0.9944717646714353
2014-11-11,1,0.0006083301255603844,0.0006987512752709446,-0.0035114674746144236,0.006407465188989566,0.9938321924548544
2014-11-13,1,0.0004339210798240882,0.0004746695880907758,-0.004987711612905996,0.006407465188989566,0.9920931051330119
2014-11-17,1,0.0005352653409787969,0.0006049692486914147,-0.004987711612905996,0.005794954353570571,0.9919908757911612
2014-11-19,1,0.0004376258312650057,0.0004750275210411162,-0.004987711612905996,0.006484236399993485,0.9907101621131038
2014-11-21,1,0.0006895338110501988,0.0007916378562573064,-0.007755798038056841,0.007521163766038742,0.9902068320902447
2014-11-25,1,0.0004383444151227987,0.0004931499200626264,-0.010472229883152127,0.007521163766038742,0.9888994701312002
2014-11-28,1,0.0008787882790909545,0.0009916643222563524,-0.010472229883152127,0.005794954353570571,0.9894395344555555
2014-12-02,1,0.0009824115606238844,0.00110476634277827,-0.011337740159543093,0.005794954353570571,0.9887475487006683
2014-12-04,1,0.0008735350449927132,0.0009658211975207802,-0.011337740159543093,0.007621750253008427,0.9882129321296532
2014-12-08,1,0.001204147623476241,0.0013282227957990226,-0.011337740159543093,0.011282901476996045,0.9860044005887322
2014-12-10,1,0.0004622185444016194,0.0004973057725921359,-0.010472229883152127,0.014675192506404892,0.9863733797518125
2014-12-12,-1,-0.0006777350874808765,-0.0005779717484705703,-0.004270563443534537,0.014675192506404892,0.9879681395769461
2014-12-16,-1,-0.0011667945727478974,-0.0010111267670596114,-0.004270563443534537,0.014675192506404892,0.9876999477109276
2014-12-18,1,0.00016803827648025128,0.00018065590322347797,-0.005126505733758953,0.011345421582562102,0.9883820821747981
2014-12-22,-1,-0.0004557313635648373,-0.00034521467445751804,-0.005126505733758953,0.00914261388000723,0.9887487867506555
2014-12-24,-1,-0.0011793492238183494,-0.0009922321993005388,-0.004270563443534537,0.00914261388000723,0.9900957438898654
2014-12-29,-1,-0.0014312072808510337,-0.001183780792419465,-0.005126505733758953,0.00914261388000723,0.9895195204949615
2014-12-31,-1,-0.001773795424574096,-0.0015023072987059114,-0.005126505733758953,0.01152692008660451,0.9882625288638901
2015-01-05,-1,-0.0009281252693491245,-0.0007681387724787572,-0.005126505733758953,0.010068884387737384,0.9886821256762375
2015-01-07,1,0.0012906792327003881,0.0014531670510173986,-0.006794474091787052,0.006997195135538024,0.9898377960927542
2015-01-09,1,0.0015639764560293902,0.0017500208728277406,-0.0073466321896643125,0.005690023707260636,0.9901708726600617
2015-01-13,1,0.0015908214462790414,0.0018080184773604697,-0.0073466321896643125,0.006997195135538024,0.9901096139517417
2015-01-15,1,0.0013344603895073877,0.0015073683600855528,-0.006794474091787052,0.005690023707260636,0.9908891863943681
2015-01-20,1,0.0018442740840229756,0.00211080936703486,-0.006613459527884051,0.0031077319329217484,0.9919148168868038
2015-01-22,1,0.0017712913029565907,0.0020215286114191994,-0.006772730776240344,0.002320534784323417,0.9920489233069092
2015-01-26,1,0.0017880709690284331,0.0020331898354694067,-0.006772730776240344,0.0020990048256250894,0.9921923601261584
2015-01-28,1,0.0012357386209781206,0.001414585613442011,-0.0030074031139191775,0.002320534784323417,0.993239095353011
2015-01-30,1,0.000946282550647755,0.0011128067439792892,-0.0030074031139191775,0.0022455694582758433,0.9948218872266367
2015-02-03,1,0.0012048364569050278,0.0013976007309331364,-0.006597475688916144,0.0012798928128562469,0.9944935797266233
2015-02-05,1,9.988199054991511e-05,0.00011364566289101069,-0.006597475688916144,0.0012037896683988526,0.9954274417283342
2015-02-09,-1,-0.00018512416837607182,-0.0001750839252208261,-0.004853578667334824,0.0018526884546177067,0.9951875842467756
2015-02-11,1,0.00010578199534088012,0.00014217903700507894,-0.007313768973960691,0.0017863416233242836,0.9951830623549289
2015-02-13,1,0.00021938604796751163,0.00027894443642527774,-0.007313768973960691,0.0017863416233242836,0.9945521833738036
2015-02-18,1,0.0001753673464263329,0.0002235541608764254,-0.008039437813907828,0.002028522026760374,0.9929803918857234
2015-02-20,-1,-0.00029668398466525624,-0.00026075458078077886,-0.007313768973960691,0.006614526239849896,0.9925683128694358
2015-02-24,-1,-0.00031780038012928127,-0.0002768886874067776,-0.007313768973960691,0.006614526239849896,0.9924500321992255
2015-02-26,-1,-0.00013612378260839577,-0.00010536935200246786,-0.008211223127911857,0.0035095474429697984,0.9921410217151779
2015-03-02,-1,-9.924159636734434e-05,-9.171969712690619e-05,-0.008211223127911857,0.006614526239849896,0.9918728477282712
2015-03-04,-1,-0.0002689895553783,-0.00025746853421259626,-0.010921897637724772,0.006614526239849896,0.9911925381890945
2015-03-06,-1,-0.0012537658777025105,-0.0010906192178122003,-0.009589458122668162,0.006614526239849896,0.9918381429993803
2015-03-10,-1,-0.002078168861105754,-0.0017620770451272495,-0.007030703787411823,0.004868176942308207,0.9922303168588115
2015-03-12,-1,-0.0032807768609325804,-0.002747282279357717,-0.005234294122532704,0.005263592597118925,0.9921557649254324
2015-03-16,-1,-0.002602423528181401,-0.0021638601187909277,-0.007003831874071039,0.005263592597118925,0.9920421255615021
2015-03-18,-1,-0.001878078514407349,-0.0015615012907678983,-0.007003831874071039,0.005263592597118925,0.9925991805450464
2015-03-20,-1,-0.0007654256572789142,-0.0006313050818048905,-0.009421309245460543,0.004503938701811325,0.992024371088534
2015-03-24,-1,-0.0013485793875511326,-0.0010994473112050148,-0.009421309245460543,0.004503938701811325,0.9921036748351647
2015-03-26,-1,-0.0013777921818501479,-0.0011652908454225688,-0.0059273526444035265,0.004503938701811325,0.9925895160383835
2015-03-30,-1,-0.0005306333077596409,-0.0004556253613520973,-0.008781132196727536,0.004503938701811325,0.9904481359113385
2015-04-01,-1,-0.0010963731317052362,-0.0009714636055311003,-0.004907013945212388,0.004503938701811325,0.9913295330935837
2015-04-06,-1,-0.0009684579901249253,-0.000853867306953102,-0.004907013945212388,0.006764173703521074,0.9907251570698704
2015-04-08,-1,-0.0009786970691461744,-0.000864453754360208,-0.004102143788273059,0.006764173703521074,0.9909609021168702
2015-04-10,-1,-0.000847091476737949,-0.0007533495685366828,-0.004102143788273059,0.008459095596653006,0.9908748271038716
2015-04-14,-1,-0.0005670732850635221,-0.0005050632078278751,-0.0059213662611247685,0.0056018965852819794,0.9912185424010486
2015-04-16,-1,-0.00043821830808116397,-0.00039645656394549165,-0.004530995763817261,0.0056018965852819794,0.9915948093468656
2015-04-20,-1,-0.0005241425386517445,-0.00047391856421387954,-0.003945258161905827,0.0056018965852819794,0.9924972966086041
2015-04-22,-1,-0.0005594869373855559,-0.0004976538805626438,-0.003945258161905827,0.007354516973418438,0.9921561459777939
2015-04-24,-1,-0.000244772325867002,-0.00024131831059196417,-0.005239835760199259,0.007354516973418438,0.991470325713811
2015-04-28,1,0.0010692090212827026,0.0012586341083163028,-0.005239835760199259,0.007354516973418438,0.9933936714369214
2015-04-30,1,0.0009116659738526772,0.0010845635888612412,-0.004769178881097567,0.007723031199750849,0.9928027912607856
2015-05-04,1,0.0017223710491168576,0.0020323409822518793,-0.006191953618235299,0.007354516973418438,0.9927669384870071
2015-05-06,1,0.0011307318686825678,0.001309473570989338,-0.007277258574182084,0.007354516973418438,0.9924601335546833
2015-05-08,1,0.0007073410864569588,0.0007564713524876186,-0.008152188635161204,0.0049091494918093665,0.9922474655673339
2015-05-12,-1,-0.0003959407388238814,-0.0002821717571803056,-0.006191953618235299,0.007723031199750849,0.9929542493872775
2015-05-14,1,0.0004851129336357836,0.0005435003598488648,-0.008152188635161204,0.0049091494918093665,0.9919733608512444
2015-05-18,1,0.0005900060246418874,0.0006609394889349181,-0.009232055333244074,0.005104568233128202,0.9913510809057456
2015-05-20,1,0.0003399624242058725,0.0003501561059838285,-0.009232055333244074,0.005104568233128202,0.9911584028227841
2015-05-22,-1,-0.00023589836261229933,-0.0001650634102308748,-0.008643116745213668,0.008814247197436564,0.9910283618803573
2015-05-27,-1,-0.0005609179434536776,-0.00042394601311453026,-0.009976234910085998,0.005609528006857411,0.9910138435594913
2015-05-29,1,0.0006215156907414981,0.0006614574787660761,-0.009976234910085998,0.005146672304106577,0.991179206112737
2015-06-02,1,0.0011584384443472933,0.001376079928100352,-0.012047307730060169,0.005146672304106577,0.9903539966891644
2015-06-04,1,0.0010888860983109903,0.00132711546929336,-0.009976234910085998,0.010224764973525905,0.9907276248512813
2015-06-08,1,0.0007464512525611942,0.0009301315303872145,-0.009976234910085998,0.010224764973525905,0.9908408461295002
2015-06-10,1,0.0010281087908361737,0.0012391162706494843,-0.01121305506614223,0.008281614661847049,0.990893906630889
2015-06-12,1,0.00044671861763681976,0.0006018323011804524,-0.007059716390636761,0.009997861217450471,0.9918654290398163
2015-06-16,1,0.0004370677993933174,0.0005934070431973569,-0.005949361360595971,0.008217575803721714,0.9927624700290394
2015-06-18,1,0.000956608254481953,0.0011895882974028034,-0.005949361360595971,0.008217575803721714,0.9929409134066833
2015-06-22,1,0.000787724111423698,0.0009628230613939646,-0.005654414332194595,0.006058601415195893,0.9936383364100233
2015-06-24,1,0.0002925889325226397,0.0003736265046771762,-0.005654414332194595,0.006058601415195893,0.9938974827069742
2015-06-26,1,0.0006177566724700205,0.0007632205607403626,-0.0065418296619548615,0.00367756068583842,0.9936911272742381
2015-06-30,-1,-0.0006003879235725542,-0.0005447629874076811,-0.0029588942393566292,0.008059074997472764,0.9936275125003434
2015-07-02,-1,-0.0004423200737959305,-0.00038348849681255797,-0.0029588942393566292,0.007550447649605956,0.9939474067421901
2015-07-07,-1,-0.00011000745537536049,-0.0001014963680500813,-0.005676742092230352,0.0060269194255576876,0.9940720775946016
2015-07-09,-1,-0.00041935938794754486,-0.00037720573351299896,-0.005676742092230352,0.006990425780689224,0.9937286774874065
2015-07-13,-1,-0.00012469790434255652,-0.00011706868243001431,-0.006274317889160955,0.006990425780689224,0.9935397557826388
2015-07-15,-1,-7.233746366478436e-05,-5.862808434341591e-05,-0.007454992611943865,0.007536616841023595,0.992877201975717
2015-07-17,1,0.00023978157326843337,0.0002652976991010398,-0.007454992611943865,0.007536616841023595,0.992615075337575
2015-07-21,1,0.000321160969140344,0.0003758498168044903,-0.007454992611943865,0.007856742983274665,0.9925740671710642
2015-07-23,-1,-9.937470505413736e-05,-8.821141413885929e-05,-0.007454992611943865,0.007856742983274665,0.9908119691860791
2015-07-27,-1,-0.0010476986420114168,-0.0009051127489642437,-0.008686594143019099,0.007856742983274665,0.9890471253311331
2015-07-29,-1,-0.000368891916220516,-0.00028291399024001865,-0.011180335670666737,0.007536616841023595,0.9848744651381554
2015-07-31,-1,-0.0002600861633790928,-0.00018003389751917044,-0.011180335670666737,0.0078966152587906,0.9843881242720532
2015-08-04,-1,-0.0005929251528800628,-0.00045972991169272097,-0.021668067166344486,0.0078966152587906,0.982284883981322
2015-08-06,-1,-0.00045110801661742226,-0.00035979955931159796,-0.021668067166344486,0.008589024770816276,0.9824255238810538
2015-08-10,-1,-0.00030304838998226967,-0.00024296900866234742,-0.021668067166344486,0.0087312636738093,0.981156980290942
2015-08-12,-1,-0.0001046016336946424,-8.956726668011639e-05,-0.021668067166344486,0.009151505674945278,0.9806601895008137
2015-08-14,1,0.00030784420238815375,0.0003464023893875817,-0.021668067166344486,0.0086638276641003,0.9805603234625618
2015-08-18,1,0.0002518496683411442,0.00025540923972066515,-0.021668067166344486,0.008859660985384205,0.9796548471887397
2015-08-20,-1,-0.0008319746571269402,-0.0007251055629424344,-0.021668067166344486,0.008859660985384205,0.9802038562101719
2015-08-24,-1,-0.002814398277871404,-0.0024410057645993756,-0.02061473672373395,0.008859660985384205,0.9815833040696932
2015-08-26,-1,-0.0023094348681321104,-0.0020049911632804094,-0.015851250666643897,0.0078741365888876,0.9864577810565929
2015-08-28,-1,-0.001810349433758361,-0.001563865961452372,-0.02061473672373395,0.005780499395968972,0.9854884324936511
2015-09-01,-1,-0.0032872275674774767,-0.002872133478043583,-0.015710295194736813,0.00662343095709165,0.9868077849286924
2015-09-03,-1,-0.0029404201895573538,-0.0025808403493405127,-0.015710295194736813,0.008284473082898675,0.9864894778801283
2015-09-08,-1,-0.002860940686091466,-0.002515234702851811,-0.015710295194736813,0.008284473082898675,0.9860907847378017
2015-09-10,-1,-0.002825529476504828,-0.0024808761060208097,-0.013854738532880806,0.008284473082898675,0.9860817512627936
2015-09-14,-1,-0.002941014829018024,-0.0025873088678279917,-0.011359086677720301,0.008284473082898675,0.9867170364105028
2015-09-16,-1,-0.0020467752546372226,-0.0017969916090886204,-0.020191870308012703,0.004991458038854505,0.9871781360299604
2015-09-18,-1,-0.002206417241430394,-0.0020000901963322672,-0.011359086677720301,0.015040823869172267,0.9867735860472148
2015-09-22,-1,-0.002986212591389636,-0.0026826866153079037,-0.011359086677720301,0.015040823869172267,0.9868174470207681
2015-09-24,-1,-0.002614017771002021,-0.002384476834693887,-0.00842514736179855,0.015307148646603078,0.9857685474623809
2015-09-28,-1,-0.003913476370289834,-0.0035298703403934036,-0.0014174530653540344,0.015879215574938186,0.9858634536870442
2015-09-30,-1,-0.0029709571639851195,-0.0027151550023002203,-0.0014174530653540344,0.01798041985867191,0.9853085463723132
2015-10-02,-1,-0.002703572138107502,-0.0024523555922052603,-0.003913938725766823,0.01798041985867191,0.9863377816322088
2015-10-06,-1,-0.0026440535085757353,-0.0024125307045272126,-0.0021222348727243604,0.015420022712583966,0.9881099695426081
2015-10-08,-1,-0.0016704469105530203,-0.0015625696437785383,-0.003913938725766823,0.011684059417948381,0.98907154620501
2015-10-12,-1,-0.0015737738314404652,-0.0014931315856312895,-0.004824524966331695,0.011684059417948381,0.9886862837459902
2015-10-14,-1,-0.0024126366860289065,-0.002212336207302789,-0.004824524966331695,0.011684059417948381,0.9889694780806948
2015-10-16,-1,-0.001078682037261651,-0.001040792422739942,-0.007079670755629565,0.007774019521546886,0.9905899771394316
2015-10-20,-1,-0.0011641381447595575,-0.0011567373230122776,-0.004824524966331695,0.008820491297669354,0.9907477947822001
2015-10-22,-1,-0.0003065188918825118,-0.0002132507830350196,-0.004824524966331695,0.008594885129655153,0.9921071890999154
2015-10-26,1,8.033332843333883e-05,0.00020770273749054296,-0.004824524966331695,0.007774019521546886,0.9927976616157066
2015-10-28,1,0.0011238176243951498,0.0013743951058648252,-0.007079670755629565,0.0037491216434129195,0.9937925657509112
2015-10-30,1,0.0011442589204734045,0.0014211168636161127,-0.008155520409136623,0.004472623938768001,0.9932329633938053
2015-11-03,1,0.0009643121998525805,0.001168310389848022,-0.00893623736790289,0.004472623938768001,0.9915420456084088
2015-11-05,1,0.000930725946599399,0.0011276761889357778,-0.010570837661756035,0.004472623938768001,0.9902460040827239
2015-11-09,1,0.0007963227735993813,0.0010033487403906657,-0.010570837661756035,0.004472623938768001,0.9908579939968867
2015-11-11,1,0.0006543684945074903,0.0008529789621681995,-0.010398839556033856,0.005786143089862001,0.9902930038084123
2015-11-13,1,0.00021874391013032503,0.00034430719093485226,-0.010398839556033856,0.005786143089862001,0.989511057471291
2015-11-17,1,0.000701996456207913,0.0009024943720292011,-0.010398839556033856,0.010613698701391172,0.9885400459403237
2015-11-19,1,0.0006579837057919321,0.0008107163490717972,-0.014709257321088715,0.006718251780772989,0.9867137784725799
2015-11-23,1,0.0007418526623337499,0.000928396638228995,-0.014709257321088715,0.006718251780772989,0.9866869698810313
2015-11-25,1,0.0007281236076933573,0.0009246003109818232,-0.014709257321088715,0.014175266659687531,0.9864466031218081
2015-11-30,1,0.000249832961114135,0.00036752437100420434,-0.012553197365764823,0.014175266659687531,0.986967744146349
2015-12-02,1,0.0008741586900710999,0.0010913176293068272,-0.009095414700171677,0.010449419623394712,0.9885892891866377
2015-12-04,1,0.0009477739065869517,0.0011875090643221648,-0.006846510436410769,0.010288604338160954,0.9897391825829142
2015-12-08,1,0.0010805874722693645,0.001358338099318714,-0.009620527037305973,0.010288604338160954,0.988781746385975
2015-12-10,1,0.0012392358094584967,0.0015364567556995778,-0.010015118084581295,0.005706036456833084,0.9891674163752577
2015-12-14,1,0.00037760691474795946,0.0005467880765772403,-0.010015118084581295,0.009584716816287312,0.9891629075140911
2015-12-16,1,0.0011200616663406123,0.0013560668204668062,-0.012989674886650694,0.005706036456833084,0.9889639182969143
2015-12-18,1,0.00032890795806157097,0.0005048152021132411,-0.009766779658708376,0.005706036456833084,0.990374995667399
2015-12-22,1,0.0007552605794482963,0.0010012260333716605,-0.009766779658708376,0.008699096944788305,0.9900284511028943
2015-12-24,1,0.0011546677628907246,0.0014488730683522302,-0.009766779658708376,0.008699096944788305,0.9900391205474103
2015-12-29,1,0.0013880667725590674,0.001706364132621852,-0.014147910028420132,0.007600776710544483,0.9881801670843859
2015-12-31,1,0.0011789129942027074,0.0014704716360097415,-0.014147910028420132,0.008821262521257377,0.9874164950340699
2016-01-05,1,0.0013642770941747597,0.0016779826937523468,-0.014147910028420132,0.007600776710544483,0.9875393910050988
2016-01-07,1,0.0010852186959943817,0.0013910619639679418,-0.01577470485558107,0.008821262521257377,0.9865686836966271
2016-01-11,1,0.0009438213137990238,0.001246805960782143,-0.013402894750801374,0.008821262521257377,0.9866824661148184
2016-01-13,1,0.0001198826559662714,0.00024533526520030996,-0.01298827692173796,0.007755995932356749,0.9870758765908411
2016-01-15,-1,-0.00032685856166831447,-0.00031550382489653207,-0.011785885005740312,0.007755995932356749,0.9877787735989529
2016-01-20,-1,-0.00046019581575879775,-0.00045045439169618686,-0.009064960204800574,0.008935563853866025,0.9876327865513598
2016-01-22,1,0.00028297224258295225,0.0004017026924673451,-0.009064960204800574,0.011048526518107992,0.9876756904833198
2016-01-26,-1,-0.00043705713169472167,-0.00038262962983367794,-0.008140648550704567,0.008887055248423318,0.9883189380838842
2016-01-28,-1,-0.0017050713211731747,-0.0015071721351628542,-0.006789304563172326,0.00976914332703797,0.9896263717785252
2016-02-01,-1,-0.0007406058863642059,-0.0006578883219923971,-0.007079519490432864,0.00976914332703797,0.9893480675786589
2016-02-03,-1,-0.0011497369852919632,-0.0010213416600732377,-0.005914945035370276,0.010778417968116686,0.9892911319148869
2016-02-05,-1,-0.0016549749894399389,-0.00145816306045525,-0.0047811088209825945,0.010224378681873387,0.9908426454597833
2016-02-09,-1,-0.0011668283916425222,-0.0010743558883929169,-0.004113459904409078,0.010224378681873387,0.9916056192357456
2016-02-11,-1,-0.0019074002415173633,-0.00168072266542985,-0.003700691940595896,0.011306731585314705,0.9916728965019455
2016-02-16,-1,-0.0017239973691807523,-0.0014795017504878223,-0.004113459904409078,0.010224378681873387,0.9922646050791791
2016-02-18,-1,-0.0014444031682752144,-0.0012278064111570937,-0.005162415547037824,0.009038999501728666,0.9926246666397767
2016-02-22,-1,-0.0019504043381684967,-0.0016109892310913131,-0.005162415547037824,0.01016779280982111,0.9921776783568856
2016-02-24,-1,-0.0017789574405828739,-0.0014867600456224582,-0.004471777080693954,0.01016779280982111,0.9919807753442553
2016-02-26,-1,-0.0014161537940666237,-0.0011907313999371158,-0.0038376434636526536,0.01016779280982111,0.9925415166257592
2016-03-01,-1,-0.0008846400555299693,-0.0007110824855350087,-0.0033415907379365298,0.009468381549052947,0.9939464691398389
2016-03-03,-1,-0.000281543167684983,-0.00021193949413905304,-0.0038376434636526536,0.009587900216066675,0.993566092958359
2016-03-07,-1,-0.00010763819091530493,-4.725785734479958e-05,-0.0038376434636526536,0.009587900216066675,0.9933112090614538
2016-03-09,-1,-0.0007615608071457843,-0.000589101748472181,-0.003961796650064518,0.011141525762361701,0.9921267842976047
2016-03-11,1,0.00037581586527769037,0.0003956083196139122,-0.004791683080292036,0.009587900216066675,0.9924790565264864
2016-03-15,-1,-0.00048011208942753573,-0.0003652402318759624,-0.003961796650064518,0.010695625520745823,0.9924933192581428
2016-03-17,-1,-0.00044037285434091677,-0.0003765768365419942,-0.003149621151389112,0.010695625520745823,0.9925653170637501
2016-03-21,1,0.0005236899087898963,0.0006070179760033288,-0.003149621151389112,0.008885997923122443,0.9932715126151336
2016-03-23,1,0.0012752308309454388,0.001526312576599471,-0.003961796650064518,0.008885997923122443,0.9931996889094542
2016-03-28,1,0.0010526075251228975,0.0012618339151030968,-0.004062317121725802,0.008885997923122443,0.9929758175729122
2016-03-30,1,0.001388352157494639,0.001656089531020947,-0.004062317121725802,0.007132083807351603,0.9931605679175483
2016-04-01,1,0.001634258482391013,0.0019332811736645088,-0.005066212955867784,0.006292859981729764,0.9927276095102283
2016-04-05,1,0.0017032612219804338,0.0019875616159138456,-0.005066212955867784,0.006292859981729764,0.9928918907636783
2016-04-07,1,0.002100668594962337,0.0024202072214642755,-0.0055186454668315335,0.005499358893089657,0.9932014865867843
2016-04-11,1,0.0017129912378665811,0.0019590385058124993,-0.0063834483614713606,0.006292859981729764,0.9928563433428812
2016-04-13,1,0.0022613388579593996,0.0025987089820924776,-0.007339728522748763,0.006292859981729764,0.9925454455332665
2016-04-15,1,0.00244907016067297,0.0028265678704939403,-0.007339728522748763,0.005161881958000643,0.9925404564291627
2016-04-19,1,0.0026772293395390476,0.00307533233147933,-0.007339728522748763,0.0030596061832655983,0.9917824618381706
2016-04-21,1,0.002440258693452579,0.0027966262015252682,-0.007339728522748763,0.005224308128960947,0.9919942238977034
2016-04-25,1,0.0020310079438456466,0.00231021315456343,-0.006220464504217133,0.006929493096901262,0.9920424609700171
2016-04-27,1,0.0022611861386532695,0.0025946079309580117,-0.006220464504217133,0.009423843301389598,0.9911672874081086
2016-04-29,1,0.001429241746223656,0.0016453212869141907,-0.004551432118712996,0.009423843301389598,0.992495835009039
2016-05-03,1,0.0014718505742623588,0.0016875699154816394,-0.004551432118712996,0.009423843301389598,0.9928071338168091
2016-05-05,1,0.001069772821898823,0.0012386215742101717,-0.003597630018809491,0.009423843301389598,0.9932844398616867
2016-05-09,1,0.0006704977001584015,0.0007413794529648927,-0.0034603386594311896,0.009445578621557567,0.9935323972442591
2016-05-11,1,0.0012193228874956491,0.00141665122210322,-0.0034603386594311896,0.009445578621557567,0.9935391565496313
2016-05-13,1,0.00036047524872671817,0.0003736040174637858,-0.0035595415203288666,0.009445578621557567,0.9929161689834443
2016-05-17,1,0.0006502294437440658,0.0007136429502531611,-0.003248348680025301,0.008863358749711,0.9936817651816463
2016-05-19,1,0.0009170657668254689,0.0010369033168838322,-0.0035595415203288666,0.009445578621557567,0.9914918643217245
2016-05-23,1,0.0011727934541604637,0.001339299158613249,-0.003360247707083186,0.008863358749711,0.9919691424414913
2016-05-25,1,0.0017693107842814409,0.0019980096544561267,-0.003360247707083186,0.008863358749711,0.9921964228481771
2016-05-27,1,0.0016932050388364982,0.001919261760254712,-0.006762155267172016,0.008863358749711,0.9902464201735325
2016-06-01,1,0.001284954842576846,0.0014209369574213978,-0.006762155267172016,0.009737259542481395,0.9891053878370353
2016-06-03,1,0.0011419827611018102,0.0012364943558915284,-0.006762155267172016,0.010081260874142644,0.9890032368558639
2016-06-07,1,0.0010359213716354075,0.0010987864324829147,-0.006762155267172016,0.010962934804462848,0.9886394588015525
2016-06-09,1,0.0012446569742932513,0.0013405785242192715,-0.006435134613686446,0.010167016034463372,0.9888167966655009
2016-06-13,1,0.0005296915345381792,0.0005505683422751117,-0.0008375120030130011,0.010167016034463372,0.9893322100433956
2016-06-15,1,0.0006822586217881424,0.000700786239021561,-0.00033613434444554173,0.010167016034463372,0.9895285763693552
2016-06-17,1,0.0005552898077212439,0.0005556696815679151,-0.0004612132798423027,0.009726854055264375,0.9915012966914951
2016-06-21,-1,-0.00015621853701902838,-3.913493833413643e-06,-0.002154116993172935,0.009726854055264375,0.9913046663433435
2016-06-23,1,0.0010636369439844463,0.0010979275282476729,-0.002154116993172935,0.005093214082824692,0.9925258279636778
2016-06-27,-1,-0.0005856041577053114,-0.0003994981484057989,-0.0014830351342100083,0.005093214082824692,0.9940549480061376
2016-06-29,1,2.8177030063280585e-05,0.00016567211336548248,-0.003029583508694439,0.004179692693294562,0.9953932633682668
2016-07-01,1,0.0002663400320287112,0.00038535007798748286,-0.003029583508694439,0.002646200909266692,0.9959260586890971
2016-07-06,1,0.0006630335933374151,0.0007576628246668999,-0.0047215659574340665,0.0018135015279568908,0.9958932337590323
2016-07-08,1,0.0009311941989920002,0.000969773217882233,-0.003666555876945487,0.002486080795482427,0.9915649192489184
2016-07-12,1,0.0012151862573094334,0.0012234949954069005,-0.005690722637897893,0.0018135015279568908,0.9905167978318083
2016-07-14,1,0.0012433361996665514,0.0012469596512777225,-0.005690722637897893,0.0026242117361733684,0.9898578406700635
2016-07-18,1,0.0005861896213680967,0.0006714833350963215,-0.0047215659574340665,0.0026242117361733684,0.9903563862103932
2016-07-20,1,0.00030932504233913485,0.0004284858771583557,-0.004420650431752304,0.0034559323511662386,0.9904344706611835
2016-07-22,1,0.0006163826876537364,0.0006668515786054937,-0.004420650431752304,0.0039436479614472966,0.9899006204938242
2016-07-26,1,0.0003432220409277151,0.00041781894682053216,-0.0044057961977147335,0.0039436479614472966,0.9902538280212158
2016-07-28,1,0.00046907643436560687,0.0005155423384424491,-0.005690722637897893,0.0034559323511662386,0.9895565072865065
2016-08-01,1,0.0003690717561062875,0.00044037104283743716,-0.005690722637897893,0.0034632876200945024,0.9892722290894042
2016-08-03,0,-2.0464681374138738e-05,7.278494487324171e-05,-0.004506749100703883,0.0034632876200945024,0.9898362669661445
2016-08-05,1,0.002944202077385205,0.0031974266391400262,-0.004506749100703883,0.0026589912448847395,0.9942420908408849
2016-08-09,1,0.0017966268991723225,0.0018576788040754015,-0.0044057961977147335,0.0032404764084977677,0.9954361170080752
2016-08-11,1,0.0026061100127973812,0.0028131577611069146,-0.004506749100703883,0.0032404764084977677,0.9950595784496655
2016-08-15,1,0.0023550192099435056,0.0025324169536076343,-0.005033519822062564,0.004006347475057142,0.9940015453500699
2016-08-17,1,0.0020663721775579383,0.002191119790720124,-0.00602198747537874,0.0044392151098026624,0.9932553698368628
2016-08-19,1,0.002059940537630503,0.002190288515176559,-0.006762481881923683,0.003281110115322822,0.9926889619781298
2016-08-23,1,0.002102415648934946,0.0022513916111090966,-0.006762481881923683,0.006539955797067921,0.9919312745006418
2016-08-25,1,0.0015247113991827875,0.0016097658507489632,-0.005033519822062564,0.006539955797067921,0.9928394313915363
2016-08-29,1,0.0020954767147282247,0.0022922459750235992,-0.0062485428883234965,0.006103279270979023,0.9922113538630649
2016-08-31,1,0.0017441846058475425,0.001877494756171242,-0.008546490164934264,0.0075548997667823055,0.9909535063395745
2016-09-02,1,0.001982711679154321,0.002173427660872039,-0.008546490164934264,0.008543696825393776,0.9907032929807217
2016-09-07,1,0.0018660049033876027,0.0020431178176328556,-0.008546490164934264,0.008543696825393776,0.9908717698591802
2016-09-09,1,0.0017734425197809235,0.001958321009300794,-0.0035325002549877822,0.008543696825393776,0.9915399289092318
2016-09-13,1,0.0012414173433643347,0.0013454311304364301,-0.0035325002549877822,0.008543696825393776,0.9906877180684064
2016-09-15,1,0.0013230824761753172,0.0014227437436848851,-0.0027619019111679165,0.008543696825393776,0.9909920455073675
2016-09-19,1,0.00076151631303642,0.0007859349215856796,-0.004749581875228231,0.008543696825393776,0.9909418521828601
2016-09-21,1,0.0008834021186575801,0.0008921958428127867,-0.004749581875228231,0.007087397146905807,0.9913199684996747
2016-09-23,1,0.0009570018020091605,0.0009599314713423072,-0.006933661987499694,0.007087397146905807,0.9909887571343715
2016-09-27,1,0.00026289196872831725,0.0003742150563066279,-0.006277535504318053,0.0083734603610159,0.9906922130950416
2016-09-29,-1,-0.00023980376222733303,-6.430226956458194e-05,-0.006277535504318053,0.007193976555464999,0.9911816284217757
2016-10-03,1,1.5773382178289246e-05,0.00016125780487691386,-0.008009078707021493,0.005807602507882613,0.989567858909274
2016-10-05,0,-0.00015138261858407365,3.0257356797978212e-05,-0.008312229364598748,0.0074912427109636226,0.9890652897857368
2016-10-07,0,-0.00016191858196569118,1.2180960453789724e-05,-0.008312229364598748,0.0074912427109636226,0.9885921981875375
2016-10-11,-1,-0.0006534185493991707,-0.00042525755647780943,-0.00745400244303227,0.008061516794310188,0.9896516509861
2016-10-13,-1,-0.0003252647547931216,-0.0001521020301316207,-0.00745400244303227,0.009418295433549863,0.9869026093545571
2016-10-17,-1,-0.00037717485843737975,-0.00024033547923306864,-0.00745400244303227,0.009418295433549863,0.9865812276106687
2016-10-19,-1,-0.00032742733629707686,-0.0001911917647068804,-0.008724842695759436,0.008214553400348282,0.9863325088814651
2016-10-21,-1,-0.0008001314231453358,-0.0006013635191289337,-0.00912727404010568,0.008214553400348282,0.9862711757732399
2016-10-25,-1,-0.00040557194960834484,-0.00025822595898439163,-0.010532502012443046,0.00712760579537103,0.986756998385966
2016-10-27,-1,-0.0006956043053442046,-0.0005202958934145826,-0.008225562424721982,0.008057007344374114,0.9874589422899951
2016-10-31,-1,-0.001951089742909147,-0.001633763304280516,-0.007165307828647283,0.008057007344374114,0.9886914423754174
2016-11-02,-1,-0.0022790589427230086,-0.001894290325519448,-0.007678162441990926,0.00712760579537103,0.9886096767350513
2016-11-04,-1,-0.0023474358256305927,-0.0019524909766298181,-0.010532502012443046,0.00712760579537103,0.9882744136199768
2016-11-08,-1,-0.0016147286118624728,-0.0012967700237963837,-0.010532502012443046,0.006144817618142175,0.9896414672078425
2016-11-10,1,0.0006495415699436757,0.0006977046291338432,-0.010532502012443046,0.002939063469612324,0.9919404611199627
2016-11-14,1,0.000302977351850564,0.0003587740457652588,-0.007678162441990926,0.006144817618142175,0.9927003582781608
2016-11-16,-1,-0.0010735114490843913,-0.0007869343802191591,-0.0066997406258664394,0.006470493880528115,0.9930155223760395
2016-11-18,-1,-0.000988414258282241,-0.0007567683957819275,-0.0066997406258664394,0.006470493880528115,0.9926288707536172
2016-11-22,-1,-0.000860746673209168,-0.0006657771443687715,-0.007887410543685577,0.006144817618142175,0.9921404898156163
2016-11-25,-1,-0.00026381279428979755,-0.00016837445963354108,-0.007887410543685577,0.003415388731338646,0.9925056709025841
2016-11-29,-1,-0.0002696970580679323,-0.00017676451313272695,-0.009139753202974603,0.0028584058748919467,0.9925205517803093
2016-12-01,-1,-0.0009822268070983045,-0.0008114234171641937,-0.005084699230275267,0.0028584058748919467,0.9932419294662231
2016-12-05,-1,-0.0012777571940038052,-0.001072368447859913,-0.003707407935432045,0.0028584058748919467,0.9930374198250453
2016-12-07,-1,-0.001615540070487516,-0.001353154480995924,-0.003129678032814195,0.002961743753914579,0.9929066118568464
2016-12-09,-1,-0.0010914557885667168,-0.0008825484484172033,-0.005084699230275267,0.002961743753914579,0.992513012763932
2016-12-13,-1,-0.0007882656498079426,-0.0006185374899691241,-0.005084699230275267,0.005202028690764566,0.9911610587541273
2016-12-15,-1,-0.0006994548931673883,-0.0005269549735226722,-0.009139753202974603,0.002961743753914579,0.990934425589257
2016-12-19,-1,-0.0013603316927689143,-0.0011103072542476308,-0.009139753202974603,0.002961743753914579,0.9911314637942894
2016-12-21,-1,-0.0020169761899634215,-0.0017023936309030119,-0.005956006440176307,0.005248963965254986,0.9899432004058764
2016-12-23,-1,-0.0022621889881439122,-0.0018951208734766655,-0.008949592120571047,0.005248963965254986,0.9898687757319438
2016-12-28,-1,-0.0005302609315538317,-0.0004968872795727103,-0.0062085218913938665,0.009092972365423094,0.9897249508543804
2016-12-30,-1,-0.0009330021051494876,-0.0008311949727929924,-0.006313425710075831,0.009189808076964432,0.9892668019781031
2017-01-04,-1,-0.00019095729310658152,-0.00018481871002000856,-0.006313425710075831,0.009189808076964432,0.9886635397832709
2017-01-06,-1,-0.0001717729705646786,-0.0001675196839525009,-0.006313425710075831,0.009585870183087642,0.988216374292861
2017-01-10,-1,-0.00028178809179611844,-0.0002734297197683062,-0.006313425710075831,0.009189808076964432,0.989165988210386
2017-01-12,1,0.0005434180346813747,0.00064515167854234,-0.006313425710075831,0.003814017789933326,0.9909503757107
2017-01-17,1,0.00034791572760194204,0.0004286042541706608,-0.005077284303344568,0.009253277489609722,0.99058712022307
2017-01-19,-1,-0.00026901499955934635,-0.0002462331738636279,-0.004091059706626546,0.009253277489609722,0.9908780946134399
2017-01-23,1,0.00038571982488807047,0.0004602864823432469,-0.0025247212218667595,0.009019234693779105,0.9933379527437295
2017-01-25,1,0.00011707769694731069,0.00015226414433483205,9.08384091495803e-05,0.009019234693779105,0.9932360036809599
2017-01-27,1,0.00038302496365871504,0.0004574827741408341,-0.00310806971748901,0.008711858219300164,0.9934310829576196
2017-01-31,1,0.0004488039830169718,0.0005299489365492404,-0.0004976088153650863,0.006015554600734403,0.9939273693278037
2017-02-02,1,0.001086691272414314,0.0012445612351437122,-0.002198004125133771,0.0057629102268656855,0.9953886715600042
2017-02-06,1,0.0011926050695685814,0.0013505042400369983,-0.00310806971748901,0.004821194948084683,0.9952848389248713
2017-02-08,1,0.0010282531833184446,0.001174277660904689,-0.002544695851119472,0.004821194948084683,0.9957479517390599
2017-02-10,1,0.00077524039486331,0.0008667849789786096,-0.003276538058353907,0.004821194948084683,0.9945378246994296
2017-02-14,1,0.0014397586599390671,0.0016442756924009393,-0.003276538058353907,0.002670953602771454,0.9952040991973402
2017-02-16,1,0.0013398658215016189,0.0015350894331102993,-0.0043723777972302785,0.002670953602771454,0.9949285691310763
2017-02-21,1,0.001305768603623753,0.0014878264460711798,-0.0043723777972302785,0.003641718944779323,0.9946524025948316
2017-02-23,1,0.0012690070230463133,0.0014326974113287275,-0.004472326448597,0.0018474177040116021,0.9946003335592861
2017-02-27,1,0.0013302520704250686,0.0015121384360929572,-0.0043723777972302785,0.0009265132317582733,0.9948159620584429
2017-03-01,1,0.00145483546216591,0.0016570993754981259,-0.0043723777972302785,0.0016192578397638748,0.994796863423347
2017-03-03,1,0.0015137867660825798,0.001721722423100825,-0.0043723777972302785,0.0013804390998908935,0.9949905487483126
2017-03-07,1,0.0011965236615040168,0.0013456901659828291,-0.0036891050473076403,0.0016572984053907758,0.9955509064835155
2017-03-09,1,0.00123095590412523,0.001394474291911849,-0.0043723777972302785,0.0016572984053907758,0.9952622565559355
2017-03-13,1,0.0004967265128260938,0.0005425148321764408,-0.0036891050473076403,0.0016572984053907758,0.9962734463354445
2017-03-15,1,0.0007057171980571983,0.0007847999574081789,-0.0036891050473076403,0.0016572984053907758,0.9962214974503859
2017-03-17,1,0.00031365996671106004,0.0003263174932591429,-0.0032058910078177575,0.002538979008008071,0.9964963928204359
2017-03-21,1,0.00039477357829747095,0.0004329361243476529,-0.0038962066931532272,0.002538979008008071,0.9960947331489791
2017-03-23,1,5.5303444139651274e-05,7.306758927516128e-05,-0.00353694506582947,0.002538979008008071,0.9960402322561864
2017-03-27,-1,-0.000506201950315901,-0.0003846868626807311,-0.00353694506582947,0.003063771046461954,0.9958590456675498
2017-03-29,-1,-0.0003955215492654398,-0.00028673655119936664,-0.00353694506582947,0.003063771046461954,0.995824955814735
2017-03-31,-1,-0.000477257064107765,-0.00035801407057340663,-0.0042939882330796835,0.003063771046461954,0.9958184552224338
2017-04-04,-1,-0.0001379925692863879,-8.668822697384358e-05,-0.0042939882330796835,0.004312014413078325,0.9949640137988924
2017-04-06,1,0.0005433835095524829,0.0006546482033748946,-0.00394543869199791,0.00533285763127454,0.9947222415176129
2017-04-10,1,8.696325381194843e-05,0.00011082239373035473,-0.00394543869199791,0.00533285763127454,0.9946015151384138
2017-04-12,1,0.0001023099270241558,0.00011010745141182683,-0.00394543869199791,0.006061544401955642,0.9941033536169023
2017-04-17,-1,-0.0001676334289981835,-0.00012870877314906238,-0.00394543869199791,0.006061544401955642,0.9938725164504745
2017-04-19,-1,-0.0002595819127083576,-0.00020790535770896573,-0.00394543869199791,0.00545252560443472,0.993751530023662
2017-04-21,-1,-0.0004610573157725555,-0.000393768288669521,-0.0024176189293122277,0.006731264685658704,0.9935066283408873
2017-04-25,-1,-0.00031127881720673957,-0.000260879116157103,-0.0024176189293122277,0.0077385023513079736,0.9932583799572603
2017-04-27,-1,-0.0005478356514627687,-0.00044267682952352276,-0.0022735120682436704,0.0077385023513079736,0.9932299725386312
2017-05-01,-1,-0.0007320421834051698,-0.00059745280857476,-0.0017525389652200904,0.0077385023513079736,0.9933697379948346
2017-05-03,-1,-0.00034826125754125426,-0.0002539046617815994,-0.0017525389652200904,0.006331072123158777,0.9941266747871308
2017-05-05,1,7.61792979507743e-07,3.3128960278290355e-05,-0.0017525389652200904,0.004778283020096959,0.9943518569885567
2017-05-09,-1,-0.0001454852587584964,-0.00010489728637106271,-0.002911205106925503,0.004778283020096959,0.9941576821487106
2017-05-11,1,0.0003360855413884435,0.000364079250173764,-0.006119060221052649,0.004159531757431296,0.9934565317513487
2017-05-15,-1,-0.0002633467411812977,-0.00019430143861804347,-0.006119060221052649,0.004159531757431296,0.9933018390325464
2017-05-17,-1,-0.0008699413171109917,-0.0006985782273656251,-0.003657728668808236,0.003677889805038521,0.9938910742728405
2017-05-19,-1,-0.0006032907755485135,-0.00046392807631346803,-0.004138626879379332,0.003677889805038521,0.993972578461735
2017-05-23,-1,-0.0004591593597428964,-0.0003273866388895222,-0.004138626879379332,0.004130512496595072,0.9932065922761255
2017-05-25,-1,-0.00046002830871765633,-0.00031580939888499606,-0.004138626879379332,0.0047974844817297,0.9930609151804344
2017-05-30,-1,-0.0002620832074457323,-0.00016775075222244805,-0.005850830241008898,0.0047974844817297,0.9927107105048177
2017-06-01,-1,-0.00015792046627658514,-7.551978428331499e-05,-0.006119060221052649,0.004552141441939622,0.9921200395122005
2017-06-05,-1,-0.00040038704020108973,-0.0002741597452523509,-0.005885332402955628,0.004245136935080832,0.9922938577715543
2017-06-07,-1,-0.0002952372550557223,-0.00022375916299912372,-0.005772920968309891,0.004245136935080832,0.9921275249682463
2017-06-09,-1,-0.0003648483907481849,-0.00026848109625238165,-0.0053597879244522304,0.002292603652033193,0.9934310915439513
2017-06-13,-1,-0.0013283035794226157,-0.0010857866764018708,-0.0053597879244522304,0.003870935188884784,0.9937194021968923
2017-06-15,-1,-0.0011864629148874246,-0.0009829495873810699,-0.0053597879244522304,0.003870935188884784,0.993579521722024
2017-06-19,-1,-0.001209228669876878,-0.0009787288722728571,-0.005772920968309891,0.0027295217560863185,0.9939189448368867
2017-06-21,1,7.709236558910409e-05,0.00013934444079430306,-0.005772920968309891,0.0027295217560863185,0.994666690924581
2017-06-23,1,0.0004950620966060361,0.0005022478658252089,-0.005772920968309891,0.0019899006475833547,0.9947377680631256
2017-06-27,1,0.0008111832592815585,0.000916708196829446,-0.0061325431636559315,0.0019899006475833547,0.9945303153311559
2017-06-29,1,0.00029801693035496496,0.0003571142221330679,-0.005000182777398671,0.002947639080060676,0.9938057928376786
2017-07-03,1,0.00011351229696607512,0.0001309033115066309,-0.005000182777398671,0.0028685936489197027,0.9939271154133796
2017-07-06,-1,-0.0005298713957419813,-0.0004660526143583524,-0.005000182777398671,0.0028685936489197027,0.9944310607430186
2017-07-10,-1,-0.00020246925663104222,-0.0001867982899765608,-0.005346993200672591,0.0028685936489197027,0.9941999120355394
2017-07-12,-1,-0.0002955214926933845,-0.0002900894293588606,-0.005346993200672591,0.002709354301622631,0.994394851081225
2017-07-14,-1,-6.208902068345034e-05,-2.9944215650267537e-05,-0.005373641795480156,0.0028500323669971976,0.994204279437804
2017-07-18,-1,-0.00024848996364508393,-0.00022840775473359918,-0.004934170828691142,0.003253541709543581,0.9943597968361081
2017-07-20,1,6.127483295584251e-05,0.00012468455200393926,-0.005373641795480156,0.002845915325662324,0.9939220546080451
2017-07-24,1,1.5541268031740865e-05,8.619978708706232e-05,-0.005897848169412464,0.0032040862358665447,0.9935657141219604
2017-07-26,-1,-0.0002242706195589545,-0.00017137878153689138,-0.0051355548814761435,0.003574561972631246,0.9935988519990981
2017-07-28,1,0.0008638754050640902,0.00104539632240511,-0.0051355548814761435,0.0033292375393210857,0.9948431869520751
2017-08-01,1,0.0007728267655152629,0.0009410529255546429,-0.0051355548814761435,0.003912962510981008,0.9946232137682409
2017-08-03,1,0.00012975803884414592,0.00016107409665652904,-0.00448435256142598,0.004996072494518982,0.9944058949107872
2017-08-07,-1,-5.1990994412513266e-05,-2.7218486397592663e-05,-0.0035488810846075903,0.004996072494518982,0.9947433089543596
2017-08-09,-1,-0.00046594468249055586,-0.00041882841266095987,-0.003191396573935955,0.005989083830127334,0.9946719468557793
2017-08-11,-1,-0.0004927949151928258,-0.0004435846335310946,-0.0028240814615843705,0.006343509158799093,0.9943709746977655
2017-08-15,-1,-0.000601939946640005,-0.0005236903821886382,-0.001372660788697965,0.006343509158799093,0.994419161647128
2017-08-17,-1,-0.0010104778172295506,-0.0008822758472904824,-0.0005466702976070012,0.007397729330057531,0.9944659761915339
2017-08-21,-1,-0.0007577476358332001,-0.0006720060748532867,-0.0006489346105721473,0.006343509158799093,0.9951571827785484
2017-08-23,-1,-0.0006655270045276653,-0.0005884587073663613,-0.001189548748679691,0.005989083830127334,0.995573815590725
2017-08-25,-1,-0.00015582048658213424,-0.00014214500857217378,-0.0024619527270147152,0.005293314078064167,0.9959092859099492
2017-08-29,-1,-0.0001936731044757332,-0.00016402570280347903,-0.002649167929317184,0.005016693521077573,0.9959237672347797
2017-08-31,0,-1.2397870534421957e-05,1.4901856232714855e-05,-0.0030229269665401765,0.0018257779822053732,0.9960715574709195
2017-09-05,0,-1.3016104834652595e-06,1.1731286845126882e-05,-0.0028994536018700705,0.005016693521077573,0.995709896384762
2017-09-07,1,0.0002700984132733261,0.000282600930985406,-0.0028994536018700705,0.0014690413994317324,0.9959950521336278
2017-09-11,1,0.0005939740813094317,0.0006430154842800109,-0.0030524766122892307,0.000645669197951112,0.9963387396931598
2017-09-13,1,0.0005091755752211367,0.0005205764669322031,-0.0035671954173933118,0.000645669197951112,0.996002287331644
2017-09-15,1,0.0009161811095754222,0.0009918009675126262,-0.0041172313616401925,0.00019192583790428953,0.9958701731767736
2017-09-19,1,0.000839855872680315,0.00091187288299645,-0.0041172313616401925,0.00019192583790428953,0.995947875419091
2017-09-21,1,0.0005439526525446749,0.0005690868517561311,-0.0041172313616401925,0.001093174361875574,0.9960779203818065
2017-09-25,1,0.0006303236303336612,0.0007047360275251389,-0.0041172313616401925,0.002025419381136772,0.9959878930620423
2017-09-27,1,0.0004083288357464868,0.0004629610222749032,-0.004395782206466269,0.002025419381136772,0.995767095954935
2017-09-29,-1,-7.984466146623727e-05,-5.1986929409325136e-05,-0.007011477945254771,0.002025419381136772,0.9929568950809874
2017-10-03,1,0.00041790746136052945,0.0004873328086628265,-0.007402932603663805,0.002025419381136772,0.9900448763772527
2017-10-05,1,0.0002701463188370812,0.00029156134683908477,-0.007402932603663805,0.002025419381136772,0.990027068928201
2017-10-09,-1,-4.9043681796107294e-05,-1.643273664505753e-05,-0.007402932603663805,0.002474104597758232,0.9895285212099921
