JNU-Tangyin/eata/results/Batch4_SP500/Batch4_SP500-IVZ.csv
Date,Action,Predicted_Q25,Predicted_Q75,Actual_Q25,Actual_Q75,RL_Reward
2010-12-14,0,0.0,0.0007961850218135924,-0.0017757548083228653,0.006966596386148279,0.9936003886165238
2010-12-16,1,0.0005851079787914314,0.000603566925979587,-0.0017757548083228653,0.008368583167389367,0.9928138877635498
2010-12-20,1,0.0006054433489128921,0.000625445493014746,-0.002269930847056495,0.007816379389679289,0.9923438780475151
2010-12-22,1,0.0015548917952809176,0.0016658793863429282,-0.0029476659572936917,0.0031119417666043946,0.9926246744610117
2010-12-27,1,0.0033320432504255603,0.003610873611565688,-0.0030334774696562034,0.005620654132814963,0.9914606085724282
2010-12-29,1,0.002603108234830803,0.002720034998177927,-0.0038259127803567613,0.008686857630143534,0.9894777575262605
2010-12-31,1,0.003566604337672291,0.0038592307926417165,-0.005586702581719312,0.005620654132814963,0.9896518744061549
2011-01-04,1,0.002098759486438259,0.0022026921126267886,-0.00623333275291458,0.005620654132814963,0.9892265117358693
2011-01-06,1,0.0016797986027215163,0.001835952714846589,-0.00623333275291458,0.008686857630143534,0.9889585467632103
2011-01-10,1,0.0018680573614637509,0.0019500881999047885,-0.0071857106640445334,0.008686857630143534,0.9884952960869918
2011-01-12,1,0.002028263366888246,0.002170713559167969,-0.00832990264616581,0.007891325956004815,0.9887144351794873
2011-01-14,1,0.0001386659414118344,0.0006449057794670927,-0.00832990264616581,0.008578738253256401,0.9885455785775067
2011-01-19,0,-0.0005158603471700017,3.6584902209692034e-05,-0.0071857106640445334,0.016307136030093896,0.9868282751935327
2011-01-21,-1,-0.002766704098753435,-0.0019377559458992476,-0.005791111556902878,0.016307136030093896,0.9873900759094062
2011-01-25,-1,-0.0019213555054293102,-0.00128469582994308,-0.0071857106640445334,0.016307136030093896,0.9855775152291746
2011-01-27,1,0.0007599782024244377,0.0010032966520659033,-0.0071857106640445334,0.016307136030093896,0.9866693196850808
2011-01-31,0,0.0,0.0,-0.009007817921868886,0.017111847921810523,0.984448830944552
2011-02-02,1,0.000566670255363748,0.0007153875766088118,-0.004675212221018375,0.017111847921810523,0.9840752509182442
2011-02-04,1,0.0013882518968297592,0.0014140500397957438,-0.012419717588135157,0.017111847921810523,0.9829167297189199
2011-02-08,1,0.0015485608573668655,0.0015737030792637775,-0.012419717588135157,0.017111847921810523,0.9829535149144946
2011-02-10,1,0.001654863602315853,0.0017394150109491225,-0.015576979172027028,0.017111847921810523,0.981819275033833
2011-02-14,1,0.0023642773613329043,0.002529136948335178,-0.017206142496383626,0.014475912782575078,0.9811699805465348
2011-02-16,1,0.003941954462025904,0.004341482700714968,-0.020831267720374812,0.009876674384730388,0.980243772976803
2011-02-18,0,0.0,0.0,-0.020831267720374812,0.014475912782575078,0.9797451847079709
2011-02-23,0,0.0,0.0,-0.017206142496383626,0.014475912782575078,0.9823443740131562
2011-02-25,1,0.0024464682045823817,0.0024573333282438287,-0.017206142496383626,0.014475912782575078,0.982442788611966
2011-03-01,1,0.0010456678586737512,0.0010968468181697878,-0.0156236141142689,0.009876674384730388,0.9842289871965059
2011-03-03,1,0.0014147676774456859,0.0015337941711192815,-0.0156236141142689,0.007312882245639268,0.986196273761448
2011-03-07,0,0.0,0.0,-0.010307311790213398,0.009876674384730388,0.9872618983342238
2011-03-09,0,0.0,0.0,-0.010307311790213398,0.007312882245639268,0.9876108412117506
2011-03-11,0,0.0,0.0,-0.00879296543857443,0.005793370479480442,0.9893115350051788
2011-03-15,0,0.0,0.0,-0.00879296543857443,0.005793370479480442,0.989010262149534
2011-03-17,0,-0.00012509111961570382,8.623075513526613e-06,-0.00879296543857443,0.005186677326292125,0.9913804099962339
2011-03-21,1,0.0004977623272431763,0.0005730648514402184,-0.00983460397535365,0.003937093529767455,0.9908869714406842
2011-03-23,1,0.0005207703376741388,0.0006473861377295861,-0.00983460397535365,0.005186677326292125,0.9903255118657587
2011-03-25,1,0.0009755245999167621,0.0010117441738769627,-0.00879296543857443,0.004617917018164155,0.9911375322089907
2011-03-29,1,0.0010062982007706224,0.0010083625803549794,-0.008166174383083577,0.005186677326292125,0.9912129642980347
2011-03-31,1,0.0015477817562744639,0.00167283023425299,-0.008166174383083577,0.005582202088705266,0.9909615825399082
2011-04-04,1,0.0010452107087073406,0.001065209207925874,-0.008166174383083577,0.005582202088705266,0.9912007411254097
2011-04-06,1,0.0004189496099602048,0.0005181523167317303,-0.011923566667140617,0.005582202088705266,0.9899528078160567
2011-04-08,1,0.0002260067176069566,0.00037187850146653585,-0.011923566667140617,0.005837184358239371,0.9898047606164034
2011-04-12,-1,-0.001993189764579454,-0.0015308530630438243,-0.005019676134318025,0.005837184358239371,0.9916563932226948
2011-04-14,-1,-0.0021522388310501496,-0.0016947071526409476,-0.004888484452464019,0.007073273867547605,0.9904055768880208
2011-04-18,-1,-0.003296359417346231,-0.002637121713859595,-0.00767089518603164,0.005837184358239371,0.991098130951421
2011-04-20,-1,-0.0025595035809321356,-0.0020148465666030937,-0.00767089518603164,0.005837184358239371,0.9910124805530492
2011-04-25,-1,-0.002838991430783858,-0.0022610016061341692,-0.009002991222699052,0.007073273867547605,0.9895630169299248
2011-04-27,-1,-0.0015813872021138247,-0.001232463134165747,-0.011067439322554207,0.005837184358239371,0.989812418972838
2011-04-29,-1,-0.0017008946654640488,-0.0013269760681142292,-0.011067439322554207,0.0066170148899257816,0.9895018831950875
2011-05-03,-1,-0.0012568889561354894,-0.0009532771113663895,-0.01374316973059166,0.0066170148899257816,0.9872633957196988
2011-05-05,-1,-0.0026954453876011147,-0.002234980311649459,-0.011067439322554207,0.0066170148899257816,0.9875208433064098
2011-05-09,-1,-0.002688494525095071,-0.0021990895412562755,-0.01374316973059166,0.009422020387813621,0.986760227776062
2011-05-11,-1,-0.0028066687406268854,-0.0022835470535358133,-0.01374316973059166,0.010891203831430446,0.9860934006829749
2011-05-13,-1,-0.0019729364052281165,-0.0015619745470652176,-0.01374316973059166,0.009422020387813621,0.9872627434973635
2011-05-17,-1,-0.0021720734659087435,-0.0018089718548203015,-0.011481052662916096,0.010891203831430446,0.9870207300020859
2011-05-19,-1,-0.0017060901500101343,-0.001393297459792132,-0.011481052662916096,0.009422020387813621,0.9875477557615909
2011-05-23,-1,-0.0023151538343095046,-0.0019303016821398062,-0.010018032347075437,0.009422020387813621,0.9885760186146947
2011-05-25,-1,-0.002466370372154839,-0.002086861104447061,-0.013068659576558254,0.009422020387813621,0.9876866541011404
2011-05-27,-1,-0.001723360067694594,-0.0014506813951496843,-0.015943196430835964,0.010462353501507534,0.986116180373725
2011-06-01,-1,-0.0027908573411467874,-0.00238648068946844,-0.013068659576558254,0.011704475987506728,0.9865719593108717
2011-06-03,-1,-0.0035829020432969457,-0.0030783657968656442,-0.010547234651622822,0.011704475987506728,0.9868393386287927
2011-06-07,-1,-0.0033859445511501465,-0.002950511671519449,-0.007575026233979419,0.011704475987506728,0.9881696576915908
2011-06-09,-1,-0.0025147550062004096,-0.002193478000008568,-0.010547234651622822,0.011704475987506728,0.9874807318071724
2011-06-13,-1,-0.0031906177762686767,-0.00276478210205249,-0.014117473241618477,0.011704475987506728,0.9853724856627446
2011-06-15,0,0.0,0.0,-0.014126721492779947,0.01280618566694718,0.9850122745488684
2011-06-17,0,0.0,0.0,-0.015171254402626263,0.01280618566694718,0.983324432708036
2011-06-21,0,0.0,0.0,-0.015171254402626263,0.017666857808769212,0.982867261150665
2011-06-23,0,0.0,0.0,-0.014126721492779947,0.01905241644299356,0.9824480926169392
2011-06-27,0,0.0,0.0,-0.008545255968072124,0.02030656242878298,0.983669308270685
2011-06-29,0,0.0,0.0,-0.014126721492779947,0.010108288412135836,0.9840225670133513
2011-07-01,0,0.0,0.0,-0.014126721492779947,0.00868630807818174,0.9840252949668346
2011-07-06,0,0.0,0.0,-0.015171254402626263,0.014918588958211163,0.9816744553105714
2011-07-08,0,0.0,0.0,-0.022756467208879035,0.007019053609628422,0.9794017272297123
2011-07-12,0,0.0,0.0,-0.022756467208879035,0.014918588958211163,0.9726753211943966
2011-07-14,-1,-0.0008691761497517424,-0.0008141211939594214,-0.033953064217870435,0.014918588958211163,0.9653627243713258
2011-07-18,0,0.0,0.0,-0.02618334083383203,0.02030656242878298,0.9645769158071138
2011-07-20,0,0.0,0.0,-0.02618334083383203,0.014918588958211163,0.9644849593936776
2011-07-22,0,0.0,0.0,-0.037225645553382425,0.007019053609628422,0.9617538727874315
2011-07-26,1,0.000549317813748571,0.0008178061509861556,-0.037225645553382425,0.007019053609628422,0.9593466659644987
2011-07-28,-1,-0.0007521692919929277,-0.000712142609645876,-0.04262808503986497,0.017816939971302563,0.9577774294983175
2011-08-01,-1,-0.0006865404929093366,-0.0006064191357632901,-0.04262808503986497,0.03357684201987079,0.9552635999879189
2011-08-03,-1,-0.0020574758520961627,-0.001932202412420327,-0.02798415399599288,0.03357684201987079,0.9569541777781296
2011-08-05,-1,-0.005561730435092395,-0.00497617651098704,-0.02798415399599288,0.03357684201987079,0.9584098243443003
2011-08-09,-1,-0.005627471877244453,-0.005030738297516652,-0.022273193921962323,0.03357684201987079,0.9640697569046113
2011-08-11,-1,-0.004770292353913783,-0.004333527974821684,-0.0276028533093758,0.022928551657825626,0.969466386797037
2011-08-15,-1,-0.004246210136803027,-0.003878969013454605,-0.026249657827476767,0.012307185517832537,0.9708752678425808
2011-08-17,-1,-0.004666906921330681,-0.004274039580965219,-0.018489581470728197,0.04075271048365314,0.9666596812580205
2011-08-19,-1,-0.007791849516870189,-0.007033813591894892,-0.017310317962964072,0.04075271048365314,0.9683425802552493
2011-08-23,-1,-0.005187698658755324,-0.004750590547971726,-0.035994454502626755,0.024991637261459698,0.9695531406614857
2011-08-25,-1,-0.004574609166311744,-0.004251339188528729,-0.035994454502626755,0.015608783124165129,0.9705725650686751
2011-08-29,-1,-0.0021333848294315815,-0.002092843396625213,-0.035994454502626755,0.015608783124165129,0.9709213327061034
2011-08-31,-1,-0.0013778410894105194,-0.0013021132723734844,-0.04023600672560804,0.01946407559821088,0.9683887880341322
2011-09-02,-1,-0.004547861577809695,-0.004178865275730171,-0.042398764124348384,0.01946407559821088,0.9674524331224243
2011-09-07,-1,-0.0023521363151475135,-0.0022340637967565684,-0.042398764124348384,0.030986187973006615,0.965747709728937
2011-09-09,-1,-0.005271176551850924,-0.004810579709485301,-0.0403734283042745,0.030986187973006615,0.9662636323256516
2011-09-13,-1,-0.0040843495410746895,-0.0037884305166011674,-0.0403734283042745,0.036565439814863446,0.9642521550387335
2011-09-15,-1,-0.00044024964088997724,-0.00029321305785886154,-0.0403734283042745,0.030986187973006615,0.9652817008737097
2011-09-19,-1,-0.0008016407497851152,-0.0006788759679259948,-0.0403734283042745,0.030986187973006615,0.9648602848750462
2011-09-21,0,0.0,0.0,-0.03559423371233303,0.036565439814863446,0.9637767678908006
2011-09-23,0,0.0,0.0,-0.03334852646838378,0.036898024177582124,0.9643987713491126
2011-09-27,-1,-0.002305279485995682,-0.0021896863911649795,-0.03559423371233303,0.04209907099462563,0.9620777779531091
2011-09-29,-1,-0.0029385213601774026,-0.002816934011594618,-0.03334852646838378,0.04915878551827632,0.9606233519427014
2011-10-03,0,0.0,0.0,-0.019944061665114754,0.04915878551827632,0.9637692421543642
2011-10-05,0,0.0,0.0,-0.03334852646838378,0.04253765988923494,0.9637795342851575
2011-10-07,0,0.0,0.0,-0.02366789344430821,0.045575575000092475,0.9639084873845694
2011-10-11,0,-0.00021398129322602497,5.6019194445831974e-05,-0.02366789344430821,0.041395222918937234,0.9661899415882741
2011-10-13,1,0.0010590448460024403,0.0014694477999909394,-0.03334852646838378,0.04084659013406902,0.9650451216949669
2011-10-17,1,0.0008180845481274525,0.00118117854326694,-0.023958546960608916,0.04084659013406902,0.9657324746382344
2011-10-19,1,0.0015913505004425778,0.0020853727700309165,-0.022680190614078947,0.03704422047578523,0.9680854873069505
2011-10-21,1,0.0027287676545929935,0.0033195048801305635,-0.022680190614078947,0.0328920134786,0.9694475077306539
2011-10-25,0,0.0,0.0,-0.023773540924310676,0.024354111986352445,0.9704449622098122
2011-10-27,0,0.0,0.0,-0.024967398264618985,0.010351322591692292,0.9740777240516906
2011-10-31,0,0.0,0.0,-0.022393653135461666,0.019622897963413544,0.9733058271413451
2011-11-02,0,0.0,0.0,-0.0209023503784605,0.019622897963413544,0.9749285435625317
2011-11-04,-1,-0.03733605539958028,-0.03429456402885629,-0.019980672970290287,0.01732487787410993,0.9608924189731471
2011-11-08,1,0.003218360070632989,0.0038201382309342464,-0.019980672970290287,0.015823229369512797,0.9776038663646028
2011-11-10,1,0.007179986390047386,0.008479758842007221,-0.019980672970290287,0.015823229369512797,0.9791769745770441
2011-11-14,0,0.0,0.0,-0.024967398264618985,0.009850773090159913,0.9775922964115645
2011-11-16,1,0.003807524227486066,0.004456750358878202,-0.022393653135461666,0.00814234415806056,0.9784535351815
2011-11-18,1,0.004095773786333957,0.004860469695332946,-0.025097073885998713,0.01138559258421496,0.9776703257112017
2011-11-22,0,0.0,0.0,-0.014049016120098295,0.015823229369512797,0.9782940956843741
2011-11-25,0,0.0,0.0,-0.00546462018282267,0.017361059261634112,0.9783648952957166
2011-11-29,1,0.003980560461196336,0.0047564155280998745,-0.013500400901839639,0.014542557090712472,0.9799458474494277
2011-12-01,1,0.00493198879596562,0.005735754716336267,-0.013500400901839639,0.014542557090712472,0.981991932956105
2011-12-05,1,0.005599782752058808,0.006499824760782012,-0.013500400901839639,0.014542557090712472,0.9811841199958931
2011-12-07,1,0.005288955949855094,0.006078616819163062,-0.013500400901839639,0.013175734066952858,0.9815401290521473
2011-12-09,1,0.005297224614267011,0.006117167154726192,-0.010377852138791199,0.013175734066952858,0.9834214683096735
2011-12-13,1,0.003904819970327973,0.0046050739760244005,-0.007004489987768848,0.017109590135388097,0.985517520353248
2011-12-15,0,0.0,0.0,-0.004936652463438699,0.017109590135388097,0.9849126312785249
2011-12-19,0,0.0,0.0,-0.0015241382263119273,0.017109590135388097,0.9856556519722183
2011-12-21,0,0.0,0.0,-0.002487924327748114,0.015809284186059588,0.9875494933893748
2011-12-23,1,0.004388248683689507,0.005059394863689287,-0.004936652463438699,0.013063709418587345,0.9888410477984704
2011-12-28,1,0.0022604541189557735,0.002501715082226577,-0.0008187858493367221,0.016838487338613897,0.9886433443060667
2011-12-30,1,0.002697574984191026,0.00298909940216986,-0.002487924327748114,0.013063709418587345,0.9886858012280124
2012-01-04,1,0.002654791179170827,0.0029290150460978925,-0.0014163295574903868,0.013063709418587345,0.988930441514355
2012-01-06,1,0.0031351874015971117,0.0034791203907906104,-0.0014163295574903868,0.016838487338613897,0.988177862945191
2012-01-10,1,0.0036697351288618165,0.004036231499954179,-0.0014163295574903868,0.015870406642538047,0.9890838076397045
2012-01-12,1,0.0021613170379492204,0.0021636168236805805,-0.0014163295574903868,0.013063709418587345,0.989876889086725
2012-01-17,0,0.0,0.0,-0.0014163295574903868,0.013063709418587345,0.9886495265474018
2012-01-19,0,0.0,0.0,-0.002380774247883059,0.013215199473990538,0.987855986941983
2012-01-23,0,0.0,0.0,-0.002014531854600537,0.012172512504045448,0.9882806506696744
2012-01-25,0,0.0,0.0,-0.0013739023904546638,0.012172512504045448,0.9883069750261774
2012-01-27,0,0.0,0.0,-0.0031481017988001054,0.008452364294989502,0.9897274090109894
2012-01-31,0,0.0,0.0,-0.0031481017988001054,0.008452364294989502,0.9899597701694247
2012-02-02,0,0.0,0.0,-0.004236828325404135,0.007671307416041455,0.9909142164505328
2012-02-06,1,0.001116301157361862,0.0016945816665379196,-0.005218908599661622,0.005618312235518599,0.9908614202553843
2012-02-08,0,0.0,0.0,-0.005218908599661622,0.007671307416041455,0.9901172345614199
2012-02-10,0,0.0,0.0,-0.0044211698839760095,0.008452364294989502,0.9901285365492002
2012-02-14,0,0.0,0.0,-0.004236828325404135,0.008499173576248057,0.9896258094581564
2012-02-16,0,0.0,0.0,-0.0044211698839760095,0.008499173576248057,0.990456419259628
2012-02-21,0,0.0,0.0,-0.005218908599661622,0.008499173576248057,0.9899669061202019
2012-02-23,0,0.0,0.0,-0.007889615386594499,0.01130155711438033,0.9887073417074269
2012-02-27,0,0.0,0.0,-0.007889615386594499,0.014361745682444324,0.9870738147381136
2012-02-29,0,0.0,0.0,-0.008822932191457293,0.014361745682444324,0.9868523364129778
2012-03-02,0,0.0,0.0,-0.008822932191457293,0.015530070677078123,0.9859452502182227
2012-03-06,0,0.0,0.0,-0.006753346216686482,0.015530070677078123,0.9871993578862117
2012-03-08,0,0.0,0.0,-0.0073116594784811235,0.013060119539420219,0.9874648576878765
2012-03-12,1,0.0010589574274248947,0.001080310965470748,-0.01029045666601474,0.013060119539420219,0.9852963224316313
2012-03-14,1,0.002080713916801778,0.002223799824615051,-0.01029045666601474,0.014893516288688175,0.985430686863378
2012-03-16,1,0.0025891522101730356,0.002865487542988125,-0.016025181165177958,0.012890476124740478,0.985022617670883
2012-03-20,1,0.0020249888783983516,0.002232607773612368,-0.02273835634078146,0.014993465684942866,0.9839762016038849
2012-03-22,1,0.002612127815419298,0.002769095671168527,-0.0160231511811095,0.014993465684942866,0.984639912326073
2012-03-26,1,0.001796045542992804,0.0019339511189446754,-0.019952102247230985,0.006079458761018095,0.9851030498376878
2012-03-28,1,0.0030438883953578764,0.0032576583935231985,-0.019952102247230985,0.014993465684942866,0.984165574965338
2012-03-30,1,0.0037559692604836803,0.00407093771838953,-0.019952102247230985,0.013482866898885504,0.984561129535957
2012-04-03,1,0.00295647981800666,0.003360860949651784,-0.019952102247230985,0.01394667324565572,0.983866293683232
2012-04-05,1,0.0025644687325554385,0.002998205136602954,-0.019952102247230985,0.01394667324565572,0.9829517475493976
2012-04-10,1,0.0008741600041773293,0.0010763074436268712,-0.016693502097073435,0.01394667324565572,0.9857091203972947
2012-04-12,1,0.0014011343896553816,0.001643975924266346,-0.017563799776137028,0.004464453881151629,0.9857009361507971
2012-04-16,1,0.0003145239537393483,0.000403481680187033,-0.017563799776137028,0.013223800356101266,0.9849212690133283
2012-04-18,-1,-0.0012800359080094184,-0.0010857675641517094,-0.017563799776137028,0.004464453881151629,0.9863201038463745
2012-04-20,-1,-0.0019722302049387753,-0.0016644330302447207,-0.019439432027911072,0.004464453881151629,0.9851820642612914
2012-04-24,-1,-0.002013731842366531,-0.0017470913804686643,-0.019439432027911072,0.004619055996741701,0.9856712514738124
2012-04-26,-1,-0.0007380242173052543,-0.0006558159224098901,-0.019439432027911072,-0.0006411281872874671,0.9865764446906716
2012-04-30,-1,-0.0006399935276404585,-0.000584103522523844,-0.019439432027911072,0.002119915675507565,0.9860230268255123
2012-05-02,-1,-0.0004566674545897324,-0.0004530140760444111,-0.019439432027911072,0.0012800149201685294,0.986063333236392
2012-05-04,-1,-0.0021146596304280757,-0.0018650645074411248,-0.019439432027911072,0.0012800149201685294,0.9867894732884549
2012-05-08,-1,-0.0034965793733056413,-0.0029049744336578018,-0.019439432027911072,0.013621322295718804,0.9834998750376622
2012-05-10,-1,-0.005969612521412605,-0.005083924228052159,-0.01878263323262651,0.015484458078192632,0.9829303749755791
2012-05-14,-1,-0.006035329254662494,-0.005102479122071616,-0.01878263323262651,0.013261426473369845,0.9842079224337554
2012-05-16,0,0.0,0.0,-0.017419289348457788,0.013261426473369845,0.983703729771799
2012-05-18,0,0.0,0.0,-0.011698199887929587,0.013261426473369845,0.9849749405808842
2012-05-22,0,0.0,0.0,-0.011698199887929587,0.013261426473369845,0.9844337000252453
2012-05-24,0,0.0,0.0,-0.01483316591215922,0.012437650320234167,0.9831804466614325
2012-05-29,-1,-0.0058894850008302645,-0.00493728168995097,-0.017419289348457788,0.012315615769914664,0.9825829193492288
2012-05-31,-1,-0.005804489053216982,-0.004895095279766656,-0.01483316591215922,0.012315615769914664,0.9826702012682403
2012-06-04,-1,-0.0065288586620967605,-0.005596793343418017,-0.011698199887929587,0.014758458604885163,0.9821302398697255
2012-06-06,-1,-0.003912409945727285,-0.0032905065711183908,-0.01483316591215922,0.012202605749175477,0.9848788296160627
2012-06-08,-1,-0.003600683576299197,-0.0030026972959683123,-0.01483316591215922,0.009855723442723006,0.9855241304796757
2012-06-12,0,0.0,0.0,-0.011106533660977238,0.009855723442723006,0.9861872298374865
2012-06-14,0,0.0,0.0,-0.011106533660977238,0.010516316183534151,0.9850004769598198
2012-06-18,0,0.0,0.0,-0.01241282012714618,0.010516316183534151,0.9845943960551979
2012-06-20,0,0.0,0.0,-0.01241282012714618,0.008914478168706986,0.985750953598001
2012-06-22,0,0.0,0.0,-0.01464577681948979,0.00863626493109868,0.9852067923346984
2012-06-26,0,0.0,0.0,-0.01464577681948979,0.007593525908487716,0.9854648076557289
2012-06-28,-1,-0.0022026430126377734,-0.0019400907328327287,-0.01464577681948979,0.009985337111168793,0.9824926780535488
2012-07-02,-1,-0.0011400923637328439,-0.0010218794691811517,-0.01464577681948979,0.007593525908487716,0.9836541032634619
2012-07-05,-1,-0.0017683394768672114,-0.0015653621446944537,-0.01241282012714618,0.0069574384698563654,0.9849338314416682
2012-07-09,-1,-0.0022086477877867826,-0.001949630081446338,-0.011400057458485525,0.007593525908487716,0.983431303101496
2012-07-11,0,0.0,0.0,-0.011400057458485525,0.011563693058060626,0.982715805010663
2012-07-13,0,0.0,0.0,-0.00984818443879633,0.011563693058060626,0.9839076517400236
2012-07-17,0,0.0,0.0,-0.008923503263933473,0.011563693058060626,0.9848002624824118
2012-07-19,-1,-0.0004946426874835151,-0.0004906924433360607,-0.008923503263933473,0.013636385736278766,0.9843357960652575
2012-07-23,-1,-0.0019059928441190965,-0.0017425149952195354,-0.006883862533296482,0.013636385736278766,0.9861450553312874
2012-07-25,-1,-0.0030102176043134256,-0.0027187691363877884,-0.004143798584578534,0.013636385736278766,0.9868482724122016
2012-07-27,-1,-0.00048557476514166163,-0.0004445421389700437,-0.0050468022888066864,0.006773640181020089,0.9907007445339391
2012-07-31,-1,-0.00048237447298120275,-0.0004744912651762755,-0.005050793041955133,0.006981097855219616,0.9906401769354148
2012-08-02,-1,-0.00014238703407404657,-5.501682578687558e-05,-0.004838985055054521,0.006981097855219616,0.9909874586003583
2012-08-06,1,0.000836497412777228,0.0011096511428154692,-0.004838985055054521,0.006981097855219616,0.9928371681699893
2012-08-08,1,0.001679500535521031,0.0020720493805843464,-0.004838985055054521,0.006981097855219616,0.9924553713524707
2012-08-10,1,0.0024467558005713723,0.0029425144382593978,-0.005667081221596472,0.006981097855219616,0.9922089751176634
2012-08-14,1,0.0021390804624663033,0.0025751045603989477,-0.005667081221596472,0.007679143545425871,0.9920632379841952
2012-08-16,1,0.0034855980077881177,0.0041746105286859375,-0.005667081221596472,0.007679143545425871,0.9915826459248422
2012-08-20,1,0.002886685996313061,0.003466303590513456,-0.005425751430464998,0.007679143545425871,0.991786121422957
2012-08-22,1,0.0034247577825933092,0.004110741943664446,-0.005425751430464998,0.007679143545425871,0.9911769265484075
2012-08-24,0,0.0,0.0,-0.005146252077037491,0.007679143545425871,0.991196489945913
2012-08-28,0,0.0,0.0,-0.005425751430464998,0.007679143545425871,0.9904172943190044
2012-08-30,1,0.001729417957393936,0.002046636744819652,-0.004782489802700679,0.007814841902441274,0.9901221655469542
2012-09-04,1,0.0028936645555947566,0.0034431569216093133,-0.004782489802700679,0.007679143545425871,0.9901689863813223
2012-09-06,1,0.003780301760251274,0.004395023541640372,-0.004782489802700679,0.008214981786615035,0.9910757806665674
2012-09-10,1,0.0031288412932754593,0.0036438686012056974,-0.004782489802700679,0.007679143545425871,0.9916707286192133
2012-09-12,1,0.0033186261775924597,0.003835272787739304,-0.005716918268536519,0.005258386642513063,0.9906480488842528
2012-09-14,1,0.0041828162476609965,0.004812718702602017,-0.007049953348061407,0.0012719272152512016,0.990506747524546
2012-09-18,0,0.0,0.0,-0.007049953348061407,0.0024019578606984415,0.9923990531917728
2012-09-20,0,0.0,0.0,-0.007049953348061407,0.006399215338399508,0.9921139597794111
2012-09-24,0,0.0,0.0,-0.00886963795616214,0.006399215338399508,0.9910340738104586
2012-09-26,0,0.0,0.0,-0.007049953348061407,0.006399215338399508,0.9915153844658524
2012-09-28,0,0.0,0.0,-0.007049953348061407,0.004626587353957991,0.9923841866653311
2012-10-02,1,0.0007596033713612692,0.0008269069486202442,-0.007049953348061407,0.0062238482973004765,0.9918195398476157
2012-10-04,0,0.0,0.0,-0.009253805615354993,0.0028732763358915664,0.9920796023752185
2012-10-08,0,0.0,0.0,-0.012036838468166448,0.0033069719335799353,0.9905082575109688
2012-10-10,-1,-3.823951835573969e-05,-2.1234135641552068e-05,-0.007705912966914626,0.005005042108144019,0.990899019149429
2012-10-12,0,0.0,0.0,-0.005619693093884824,0.006515073563111585,0.9909496110233061
2012-10-16,0,0.0,0.0,-0.00814283425746572,0.005005042108144019,0.990062533977337
2012-10-18,0,0.0,0.0,-0.00814283425746572,0.006515073563111585,0.9890833843506415
2012-10-22,0,0.0,0.0,-0.005619693093884824,0.007378056713759104,0.989801435822621
2012-10-24,0,0.0,0.0,-0.004887975325748812,0.00817651610349368,0.9896351448452575
2012-10-26,0,0.0,0.0,-0.004887975325748812,0.00817651610349368,0.9898418588092146
2012-11-01,0,0.0,0.0,-0.004887975325748812,0.00817651610349368,0.9902569444213052
2012-11-05,0,0.0,0.0,-0.005565807064128615,0.00817651610349368,0.9903033955692606
2012-11-07,0,0.0,0.0,-0.0054734367886506066,0.008323463130590247,0.9913352057961359
2012-11-09,0,0.0,0.0,-0.004887975325748812,0.008323463130590247,0.9917558131515117
2012-11-13,0,0.0,0.0,-0.0029915595176699806,0.009073747135620433,0.9912477235270766
2012-11-15,0,0.0,0.0,-0.0018026916846152386,0.009073747135620433,0.9920152479816742
2012-11-19,0,0.0,0.0,-0.0018026916846152386,0.01070878540974901,0.9921529033095219
2012-11-21,-1,-0.0013381925784243594,-0.0009650415760102493,-0.003235085062442841,0.01070878540974901,0.991817309004926
2012-11-26,1,0.00015138830391545072,0.00022292294936640593,-0.004554913198355331,0.009999195717928169,0.9927672490257732
2012-11-28,0,-0.0001041941698014317,2.4920630189947154e-05,-0.005783479821253793,0.009999195717928169,0.9923729278956376
2012-11-30,-1,-0.00037959129105578937,-0.0001920970708448351,-0.006217355611490862,0.010483201571471186,0.9920264242175869
2012-12-04,-1,-0.0007362974164384883,-0.0005325301807021313,-0.004564455110914582,0.012160802970378056,0.9909175819745136
2012-12-06,1,0.0001782082879302017,0.0002316343365068772,-0.004179361720068263,0.012160802970378056,0.9907953000684292
2012-12-10,-1,-0.0006226310645202043,-0.00041698018695820517,-0.004813590350195637,0.012160802970378056,0.990228025187371
2012-12-12,1,0.00033051899833237453,0.00041075936656698127,-0.004813590350195637,0.010483201571471186,0.9908006053791312
2012-12-14,-1,-0.0007182543767312396,-0.00044237028167968975,-0.004862521967315648,0.010483201571471186,0.990398695980156
2012-12-18,-1,-0.0006024489715321228,-0.0002663393086217346,-0.006991553057111617,0.007507420617645108,0.9911264775243149
2012-12-20,1,0.0011174801508305214,0.001132121724495298,-0.004862521967315648,0.007290968047162379,0.9913958171406342
2012-12-24,0,0.0,0.0,-0.006991553057111617,0.007290968047162379,0.9905803239567047
2012-12-27,0,0.0,0.0,-0.007348771855763416,0.008531692755050214,0.9899988381331525
2012-12-31,0,0.0,0.0,-0.004038777050810879,0.008531692755050214,0.9902649472724148
2013-01-03,0,0.0,0.0,-0.00785951401625565,0.008531692755050214,0.989270446392816
2013-01-07,0,0.0,0.0,-0.009512273329487612,0.008531692755050214,0.9889895054433315
2013-01-09,0,0.0,0.0,-0.008274261721124748,0.008531692755050214,0.9892418574857207
2013-01-11,0,0.0,0.0,-0.008274261721124748,0.008531692755050214,0.989632557488997
2013-01-15,0,0.0,0.0,-0.006225343072182111,0.00943772711510999,0.9900379066538156
2013-01-17,0,0.0,0.0,-0.006225343072182111,0.008788369403661803,0.9900149007598991
2013-01-22,0,0.0,0.0,-0.008274261721124748,0.01039703883342893,0.9893206692124609
2013-01-24,0,0.0,0.0,-0.00936483082745791,0.010980325888256244,0.988078709069101
2013-01-28,0,0.0,0.0,-0.0157503276646828,0.01039703883342893,0.9874409063316021
2013-01-30,0,0.0,0.0,-0.0157503276646828,0.010980325888256244,0.98595490710205
2013-02-01,0,0.0,0.0,-0.0121676922044642,0.010980325888256244,0.9874410606526093
2013-02-05,0,0.0,0.0,-0.007159630197850874,0.01039703883342893,0.9882891183780925
2013-02-07,0,0.0,0.0,-0.004961279293498006,0.01039703883342893,0.9881541659906679
2013-02-11,0,0.0,0.0,-0.006247303148798053,0.01039703883342893,0.9879544831391865
2013-02-13,0,0.0,0.0,-0.006247303148798053,0.011203842466975571,0.98736932661446
2013-02-15,1,0.0025617824824546616,0.0028664811008972425,-0.00533938719645863,0.011203842466975571,0.9885786657932739
2013-02-20,0,0.0,0.0,-0.00533938719645863,0.011203842466975571,0.9875371519996834
2013-02-22,0,0.0,0.0,-0.00533938719645863,0.010738204762253305,0.988850955999923
2013-02-26,-1,-0.0007440329470245276,-0.0006048725567888818,0.0005033814675836346,0.012110945692847508,0.9894900504968989
2013-02-28,1,0.0007514288767762442,0.000793496392697832,-0.0026321170044218715,0.010509407078416338,0.991584078614408
2013-03-04,1,0.001855502538958667,0.002083110111484686,-0.0034990820579378547,0.010509407078416338,0.9913791878991784
2013-03-06,1,0.0015451913494566281,0.001717961356401208,-0.00533938719645863,0.011049023515249456,0.9895361555882489
2013-03-08,1,0.0016065858235739948,0.0017485670058873934,-0.008452671442632603,0.012140746525037022,0.9887292809749924
2013-03-12,0,0.0,0.0,-0.008452671442632603,0.013454275758761642,0.987067686850804
2013-03-14,1,0.0011324280186924514,0.0012456909034541687,-0.008452671442632603,0.01155189283242074,0.9878942766298352
2013-03-18,1,0.0023340343121233155,0.002569937606253754,-0.01124989061686568,0.014017798208680324,0.9861044773999862
2013-03-20,1,0.001441605030046037,0.0015135188777316972,-0.011791924638479858,0.014017798208680324,0.9851769527375004
2013-03-22,1,0.0008117930649905859,0.0008578343413871313,-0.011503356538405608,0.015176453031581964,0.9845134367597581
2013-03-26,1,0.0011701464665637318,0.0011708130883720052,-0.011503356538405608,0.01635591201611479,0.984531707919354
2013-03-28,1,0.0015342160584754095,0.0016126133687534756,-0.011503356538405608,0.01635591201611479,0.9849221231843321
2013-04-02,1,0.0011237357368100074,0.0011254496402428235,-0.006576342535413202,0.017421529498271894,0.9831929667719104
2013-04-04,1,0.00033993498041502034,0.00045510253081748045,-0.006150860190921667,0.014505373786818872,0.9842436761831104
2013-04-08,0,0.0,0.0,-0.002505212232927438,0.017421529498271894,0.984132045291312
2013-04-10,0,0.0,0.0,-0.002505212232927438,0.013164830419179933,0.9853887569131102
2013-04-12,0,0.0,0.0,-0.0019444295128552198,0.017421529498271894,0.9842351657552143
2013-04-16,0,0.0,0.0,-0.0011948342202398531,0.013889649977690904,0.9863480671065136
2013-04-18,0,0.0,0.0,-0.0004798795632693522,0.013889649977690904,0.9877377239621513
2013-04-22,0,0.0,0.0,-0.0004798795632693522,0.012201109198097228,0.9888176344079458
2013-04-24,0,0.0,0.0,-0.00269519965765497,0.011577630843498304,0.9888606101111931
2013-04-26,0,0.0,0.0,-0.00269519965765497,0.011577630843498304,0.9883933968688263
2013-04-30,0,0.0,0.0,-0.005635829578722896,0.011577630843498304,0.9901918549114789
2013-05-02,0,0.0,0.0,-0.005635829578722896,0.012201109198097228,0.9892693903557924
2013-05-06,1,0.002589427459539533,0.002619945855967281,-0.008391748382637145,0.009331003701234531,0.989252141704749
2013-05-08,1,0.0033074285241811874,0.003476161224277817,-0.00882241215058388,0.009572610220738189,0.9877293154796017
2013-05-10,1,0.004503616673651673,0.0048145646346898895,-0.00882241215058388,0.009572610220738189,0.9868619625307142
2013-05-14,1,0.0053529943257434875,0.005835084258573117,-0.012131328184546156,0.004723894961855735,0.9851607764572595
2013-05-16,1,0.004843421601158871,0.0052505027662569925,-0.013863595135521439,0.00977982605535627,0.9842157799992668
2013-05-20,1,0.004799298025836219,0.0051791258787054475,-0.013863595135521439,0.014613189890224454,0.983651965975002
2013-05-22,1,0.003571025682736613,0.003747350197770432,-0.01485260163200192,0.014613189890224454,0.9822677285496212
2013-05-24,1,0.002812427843066274,0.002885737173734899,-0.016178617151978637,0.014613189890224454,0.9809307475975949
2013-05-29,1,0.0029528663341932245,0.003077268119689432,-0.016178617151978637,0.01343869984029264,0.9820315980088674
2013-05-31,1,0.0025032734966139282,0.0026012282021645964,-0.016178617151978637,0.014297097635436566,0.9820796846664768
2013-06-04,1,0.0016078004791627892,0.0016446370217545092,-0.016178617151978637,0.014297097635436566,0.9823886993265248
2013-06-06,1,0.001731446687074506,0.0017316739256177309,-0.014641749517270247,0.013736085297864877,0.9834419691011638
2013-06-10,1,0.002002970468169776,0.0020124371452383966,-0.014641749517270247,0.008125684605322089,0.9853799946069224
2013-06-12,1,0.00019238598838566313,0.00040976130851340246,-0.014641749517270247,0.013736085297864877,0.9852092938639117
2013-06-14,1,0.000893306487985479,0.001004071630776685,-0.011319773189058866,0.01230973712266527,0.9859728042622399
2013-06-18,1,0.001760715140895663,0.001789238862453865,-0.011319773189058866,0.007784485061089398,0.9865072147455867
2013-06-20,1,0.00020513888001997746,0.00040437725306820716,-0.00648236559188303,0.01230973712266527,0.9884170107899983
2013-06-24,0,-0.00012175556909690608,9.90113362149094e-05,-0.004296176234861716,0.013736085297864877,0.9899001933476924
2013-06-26,1,0.0011664908274933664,0.0011875321139157178,-0.00648236559188303,0.012712486665166806,0.9899674309276442
2013-06-28,1,0.0005064930523391512,0.000627992062114859,-0.00648236559188303,0.005810775110342356,0.9911143847071969
2013-07-02,-1,-0.00039104509492780023,-0.0001371141838593452,-0.004296176234861716,0.005810775110342356,0.9916543366844469
2013-07-05,1,9.566640890974049e-05,0.0002902724327516052,-0.004296176234861716,0.005810775110342356,0.9910515891561219
2013-07-09,1,0.00027872664306397704,0.00044297196498433415,-0.004296176234861716,0.005515856059627299,0.9910193060641412
2013-07-11,-1,-0.000263864168548628,-7.197981912157613e-06,-0.004296176234861716,0.002203170570091988,0.9927084016091754
2013-07-15,-1,-0.0005589313736508262,-0.0002448631970785964,-0.004296176234861716,0.0015972519359531267,0.9934269435302583
2013-07-17,0,0.0,0.0,-0.004302534067079012,0.002203170570091988,0.9920598005819801
2013-07-19,0,0.0,0.0,-0.007507197260681763,0.0015972519359531267,0.9919280723088829
2013-07-23,0,0.0,0.0,-0.008415697526247372,0.0015972519359531267,0.9910311860670091
2013-07-25,0,0.0,0.0,-0.008792367120664045,0.0015972519359531267,0.9902457642761217
2013-07-29,-1,-0.0014889225126829963,-0.001192552555393186,-0.008792367120664045,0.0009071592703131972,0.9911383158892068
2013-07-31,-1,-0.0014383156397125539,-0.0011606400519329034,-0.010417366454538675,0.0027636456978447064,0.9895121676725035
2013-08-02,-1,-0.0007889388363356369,-0.0005832063888607979,-0.011017525442449754,0.0018548982813770994,0.989412316111205
2013-08-06,-1,-0.0005428350494332734,-0.00039861783168010926,-0.011017525442449754,0.007765126592337566,0.9884427365112426
2013-08-08,-1,-0.0009096886916130793,-0.0007216644996455515,-0.011017525442449754,0.007765126592337566,0.9883173094845757
2013-08-12,-1,-0.0014179050689029963,-0.001150203074664785,-0.011017525442449754,0.012221227083841085,0.9872068336883564
2013-08-14,-1,-0.0011765923423122553,-0.0009265574253025981,-0.011017525442449754,0.009283747971128535,0.9883922479205981
2013-08-16,0,0.0,0.0,-0.01025093523351816,0.012221227083841085,0.988439199844487
2013-08-20,0,0.0,0.0,-0.00808580216855338,0.012628624042783625,0.9886769578500123
2013-08-22,0,0.0,0.0,-0.006178207521565362,0.012221227083841085,0.989934968794591
2013-08-26,-1,-0.002714834687104813,-0.002270752794413991,-0.006178207521565362,0.012221227083841085,0.9895929695129646
2013-08-28,-1,-0.0034142194405409262,-0.0028931799928637687,-0.004888707085384868,0.012221227083841085,0.9907316919754177
2013-08-30,-1,-0.002937201516848201,-0.00252689324813517,-0.004888707085384868,0.008801668427883783,0.9919224667016189
2013-09-04,-1,-0.0022172643298493037,-0.0019021896387273881,-0.004888707085384868,0.006484724849648964,0.9922486220021307
2013-09-06,-1,-0.0031267738831295667,-0.002671252966486134,-0.00449643868536385,0.010176483677903737,0.9917980179878091
2013-09-10,-1,-0.003020586464732174,-0.002521676522398527,-0.005802990020481748,0.004584456197662132,0.9925301691919644
2013-09-12,-1,-0.0028931391680253648,-0.002441769815710152,-0.004927998488697448,0.010176483677903737,0.9887610806788607
2013-09-16,-1,-0.0021766535309413297,-0.0018268508488264584,-0.004927998488697448,0.010176483677903737,0.9886758179927423
2013-09-18,-1,-0.0017964304592750077,-0.0015448438098184334,-0.008937674627072456,0.009058134840650338,0.9868051132762674
2013-09-20,-1,-0.0004562988051290093,-0.0003885167968446569,-0.008937674627072456,0.010176483677903737,0.9857745581969187
2013-09-24,-1,-0.0008701933139152055,-0.0007578515721503457,-0.007965052626805932,0.010176483677903737,0.9860389811844837
2013-09-26,-1,-0.00033714063720662925,-0.00032328678463177795,-0.007965052626805932,0.010176483677903737,0.986113334650589
2013-09-30,-1,-0.00039056576347640585,-0.0003877228331449925,-0.007965052626805932,0.010176483677903737,0.9860638102187879
2013-10-02,1,0.000598501367448392,0.0007864806031812471,-0.010115496096557519,0.010999024622376084,0.9853345588817328
2013-10-04,1,0.0008297859374496202,0.0010718749749978255,-0.008191806795408887,0.012289883457986112,0.9850800298657421
2013-10-08,1,1.9388759861572763e-05,0.00015081508869393463,-0.008191806795408887,0.012289883457986112,0.9849250809109836
2013-10-10,1,0.0023016501414879456,0.0027524038435781297,-0.01146912676582065,0.008937849820494656,0.987524675094565
2013-10-14,1,0.0028813781950345887,0.0033648228142409407,-0.01146912676582065,0.008014815508542866,0.9867421957458968
2013-10-16,1,0.0002668678515562942,0.0003813977528635029,-0.008173836862006973,0.008014815508542866,0.9896737435602927
2013-10-18,1,0.0012870278148103113,0.0015714705220685253,-0.008173836862006973,0.006929289269621705,0.9893004518814142
2013-10-22,1,0.0008861293205619321,0.0010938595645225203,-0.007744065056854496,0.006929289269621705,0.9893167833589417
2013-10-24,1,0.0008442358365402547,0.0010231235449101568,-0.007744065056854496,0.007867388654725062,0.9890354087188725
2013-10-28,1,0.0008335239064887641,0.0010040965991136874,-0.007744065056854496,0.009375256614747361,0.9889351078751151
2013-10-30,1,0.0013721773433094248,0.0016878423636759446,-0.004568927780088775,0.009375256614747361,0.9896910315637077
2013-11-01,1,0.001688657042193825,0.001988853811788622,-0.005541544680818086,0.008481190677534,0.9902902006977362
2013-11-05,1,0.0009824112879791933,0.0012145801224138103,-0.003948373000202676,0.008481190677534,0.9912332775407477
2013-11-07,1,0.0010122353027613915,0.0012996755221523647,-0.003948373000202676,0.009375256614747361,0.9902433157576704
2013-11-11,1,0.0011065868484284951,0.0013252918571213235,-0.004486046411427563,0.008481190677534,0.9912147429852891
2013-11-13,-1,-0.0004332264530183932,-0.000394310647579254,-0.005541544680818086,0.008481190677534,0.9904111976293092
2013-11-15,1,0.00037563864942645567,0.0004747721180771194,-0.004486046411427563,0.008481190677534,0.990931567441025
2013-11-19,1,9.357001756470009e-05,0.00014386242799553802,-0.005658118783375174,0.009375256614747361,0.9891620600644635
2013-11-21,1,0.00014809647702790862,0.00018391815069107202,-0.005658118783375174,0.011507025008574005,0.9888153681105877
2013-11-25,1,0.0008486045459225709,0.0009989791878643856,-0.005658118783375174,0.012333971202327399,0.9888248372941207
2013-11-27,1,0.0016006430523386398,0.00185776235341883,-0.005658118783375174,0.009171545212231371,0.9896429074982438
2013-12-02,1,0.001680849275777962,0.0019414354686190954,-0.005005703549118539,0.007372097353735373,0.9900047045571537
2013-12-04,1,0.0014584359341958271,0.0016909295303932674,-0.0074453177574885405,0.008157701760334531,0.9894215464035467
2013-12-06,1,0.0016672229023470527,0.0019061987214318524,-0.004681838962633072,0.007426822557056947,0.991097801107404
2013-12-10,1,0.0019272988048060812,0.002236595821331167,-0.005074915504975094,0.007426822557056947,0.9907771757012823
2013-12-12,1,0.001187145657772849,0.0014294340629538629,-0.004588639879972399,0.007426822557056947,0.9907614825416657
2013-12-16,1,0.0017100440248945185,0.0020098213205573564,-0.004588639879972399,0.006933433228108342,0.9911933654345487
2013-12-18,1,0.0015698475622740935,0.0018161010698956356,-0.005303439900794313,0.00684103022204917,0.9924831947392461
2013-12-20,1,0.001935785378361405,0.0022268333522156326,-0.005303439900794313,0.00684103022204917,0.992335245135131
2013-12-24,1,0.0028916571639776498,0.0033624625841081465,-0.008852512267761929,0.005341265300450104,0.9892140206035551
2013-12-27,1,0.002884872413212043,0.003341413857314017,-0.012313915976442632,0.00684103022204917,0.9883520743288031
2013-12-31,1,0.002444703816396481,0.002819674817860369,-0.012313915976442632,0.006933433228108342,0.9876221538033367
2014-01-03,1,0.0020619496464217126,0.002361709730871686,-0.012313915976442632,0.00684103022204917,0.9861371598088747
2014-01-07,1,0.0027139134150746588,0.0031280094323812594,-0.015374403425238693,0.005341265300450104,0.9845488827705591
2014-01-09,1,0.0017026985518118353,0.0019151978808849917,-0.014274744801529923,0.007755777973761679,0.9844314140431594
2014-01-13,1,0.000312146923061318,0.0003232501614631517,-0.011512141358319308,0.011339212592844011,0.9838152958392147
2014-01-15,1,0.0006901183627815826,0.0007329384355035306,-0.011512141358319308,0.011339212592844011,0.9841117523458924
2014-01-17,-1,-7.537689387856759e-05,-9.263308172899277e-07,-0.011512141358319308,0.011339212592844011,0.9841917905798829
2014-01-22,1,6.070167455501349e-05,0.00016696066989773235,-0.011512141358319308,0.008143625073375823,0.9847090786340852
2014-01-24,-1,-0.002973613136446729,-0.002503107883963865,-0.007940305058246172,0.009129905673906558,0.9875476286804398
2014-01-28,-1,-0.0026438473107493216,-0.0022462099648020177,-0.007940305058246172,0.00766013882735568,0.9878025301283522
2014-01-30,-1,-0.0030059274770780978,-0.002524379786693426,-0.00703962652744681,0.00766013882735568,0.9870828536259268
2014-02-03,-1,-0.00417727685615049,-0.00360344561109052,-0.006526773648236469,0.01095329768265515,0.9861357734728775
2014-02-05,-1,-0.004569819291184677,-0.003938256995134246,-0.0052931090548184135,0.00766013882735568,0.9876640849603779
2014-02-07,-1,-0.0030036945195359944,-0.002581023423868782,-0.0052931090548184135,0.00766013882735568,0.9889266044008407
2014-02-11,-1,-0.0010062132411531575,-0.0008765398415879878,-0.0052931090548184135,0.0061182353701009495,0.9900689578993846
2014-02-13,-1,-0.0007299892121531973,-0.0006331427647771424,-0.007184889839316675,0.0061182353701009495,0.9889657244959776
2014-02-18,-1,-0.0014296574024309098,-0.0012279230875817692,-0.007184889839316675,0.008947156315405021,0.988655780391528
2014-02-20,-1,-0.0018920977904594359,-0.0016377710701728915,-0.005358207831957363,0.01006587521654588,0.9870140079579637
2014-02-24,-1,-0.0018797681746088612,-0.0015687928759898634,-0.005358207831957363,0.01006587521654588,0.9874998244118716
2014-02-26,-1,-0.002412664908067793,-0.0020641958651069978,-0.0028578080754569006,0.01006587521654588,0.987881544490604
2014-02-28,-1,-0.0010991345538774926,-0.0009029725984959332,-0.003400233990136521,0.008897386363143352,0.9895211337265821
2014-03-04,-1,-0.0017001734920692663,-0.0013849345272028304,-0.0028578080754569006,0.01006587521654588,0.9908778034334432
2014-03-06,-1,-5.2600559653583226e-05,-4.1144893120251696e-05,-0.003400233990136521,0.01006587521654588,0.989609921612788
2014-03-10,1,0.0008957200323262899,0.0010407601057117,-0.005644491157066349,0.00911389460172839,0.987735338990101
2014-03-12,1,0.001277888842124559,0.0013193596771188362,-0.005644491157066349,0.011025435205242094,0.9878356100168416
2014-03-14,1,0.0005519510927445874,0.0006418509265635176,-0.008169854057418564,0.011025435205242094,0.9871837995758925
2014-03-18,1,0.0008446578557512455,0.0009228718020997347,-0.008169854057418564,0.010029066248797739,0.9872524318046089
2014-03-20,1,0.0020518322549970035,0.0021249497991979605,-0.00763713267130735,0.010029066248797739,0.9886007749546156
2014-03-24,1,0.0018489475806628018,0.0018930387579026103,-0.00763713267130735,0.010841154574505678,0.9883756307027877
2014-03-26,1,0.001781510806683742,0.001829265334412034,-0.012713528452086622,0.010841154574505678,0.9877995488781921
2014-03-28,1,0.002401277397127422,0.0025718221057489583,-0.015135506126450211,0.010841154574505678,0.9874917342715284
2014-04-01,1,0.0026909293537744072,0.002839968259882617,-0.015135506126450211,0.009657604098944504,0.9879494497420135
2014-04-03,1,0.0018449051636933147,0.0018600680144375853,-0.011710300022219193,0.010841154574505678,0.9883873280517462
2014-04-07,1,0.000526973824083629,0.0006110323955617079,-0.006479921294617982,0.010841154574505678,0.9901628303942752
2014-04-09,1,0.0011770721149293915,0.001206007579747428,-0.006925087515850111,0.009657604098944504,0.9904534776422689
2014-04-11,1,0.00042380639310305324,0.0005354394479053992,-0.0031866022310558157,0.009657604098944504,0.9917368133137068
2014-04-15,1,0.0006524714062547415,0.0007548501070994499,-0.005153959089646465,0.009585286537425262,0.9916116192142759
2014-04-17,1,0.0011444452655520112,0.0011819980984632303,-0.006925087515850111,0.009017175713719006,0.990874841797267
2014-04-22,1,0.001735833824488995,0.0017891469191924955,-0.006925087515850111,0.009017175713719006,0.9904620223104114
2014-04-24,1,0.0016783332953090265,0.0017650060606609259,-0.005243751515294793,0.009543712204166577,0.9906113590695721
2014-04-28,1,0.0011105983330332663,0.0011229215650656998,-0.005035501157785198,0.010390856436612772,0.9908029095154961
2014-04-30,1,0.0012635320514695252,0.0012783904339797336,-0.005035501157785198,0.010390856436612772,0.9903480374961382
2014-05-02,1,0.002356471403955232,0.0025460537452650996,-0.005035501157785198,0.009543712204166577,0.9916702899335061
2014-05-06,1,0.001579312572012573,0.0016574798160331207,-0.003187016716180699,0.009543712204166577,0.992204406917163
2014-05-08,1,0.0012702922841357517,0.0012946113435768618,0.0006704114905542078,0.010343587268930095,0.9918969244582362
2014-05-12,1,0.002087440821366611,0.0022029624525125883,-0.003187016716180699,0.010343587268930095,0.9925399537039752
2014-05-14,1,0.0016755107011456152,0.001756715170783854,-0.0027381224120376357,0.010343587268930095,0.9928563413103135
2014-05-16,1,0.001097695208100343,0.001132103171695744,-0.003429760194519123,0.010343587268930095,0.993176519974802
2014-05-20,1,0.0015624740734068983,0.001687818237555992,-0.0027381224120376357,0.008240782309496047,0.9937616322676311
2014-05-22,1,0.0019407353454975894,0.002114830998510295,-0.0029740492709453264,0.007389542794402096,0.9940403641564783
2014-05-27,1,0.0023641367315535666,0.0025846531426176613,-0.003429760194519123,0.007389542794402096,0.9936177591425119
2014-05-29,1,0.0027004892752890133,0.002949467030778835,-0.004542205676925806,0.007389542794402096,0.9938914867716753
2014-06-02,1,0.003002073798809808,0.00331676480202951,-0.004542205676925806,0.007746012649250465,0.9933693740252636
2014-06-04,1,0.002943735533334037,0.0032127021593378476,-0.004542205676925806,0.008859278288193348,0.9927027156562805
2014-06-06,1,0.003142051703740641,0.0033784288538322854,-0.004542205676925806,0.007746012649250465,0.9929703702751214
2014-06-10,1,0.0029480198353562938,0.0031713386718403526,-0.004542205676925806,0.007746012649250465,0.9924982682000845
2014-06-12,1,0.0022392392662216065,0.002329914133047575,-0.004542205676925806,0.007746012649250465,0.9921858988180393
2014-06-16,1,0.0020444617732305027,0.0021433455514018604,-0.003123858351368484,0.007746012649250465,0.9930280096253912
2014-06-18,1,0.0009377183715129902,0.0011180153897084096,-0.003871577011767847,0.007397444103773072,0.9926269581068432
2014-06-20,1,0.0005619997122077363,0.0007987819855342734,-0.003871577011767847,0.009007529592330818,0.9922817641993894
2014-06-24,1,0.0002879409306905512,0.0005468683036084832,-0.0032364020919307688,0.011083191385862511,0.9922872825104367
2014-06-26,-1,-0.0005424095200690989,-9.595931963410939e-05,-0.003231667221723992,0.008106679613913871,0.9927219354235962
2014-06-30,0,-0.00041865716446364215,2.4157408996708808e-05,-0.0036363663207684476,0.00614408899720216,0.9930047776852593
2014-07-02,1,0.000631885715534494,0.0008806342395867003,-0.004285014744315548,0.0051887138081801835,0.9927320932821803
2014-07-07,1,0.0020057588506048486,0.0020616127125346116,-0.004285014744315548,0.005244167142531341,0.9923312944976226
2014-07-09,1,0.0016040626503396117,0.0017027759576527244,-0.004285014744315548,0.005244167142531341,0.99189481506795
2014-07-11,1,0.0008540025379011881,0.0010707440760717294,-0.004285014744315548,0.004993672929691779,0.9927230562098242
2014-07-15,1,0.00035770347020007995,0.0006614561059028787,-0.004285014744315548,0.00963164180343804,0.9918928575871228
2014-07-17,0,-0.00019274200300137593,0.00017832341765248723,-0.003231667221723992,0.011204525979217752,0.9920955656974729
2014-07-21,-1,-0.00048548881970578183,-3.519636735969814e-05,-0.004285014744315548,0.011475368004657576,0.9915498311107205
2014-07-23,1,0.0007452281950743518,0.0009781916283438876,-0.004285014744315548,0.011475368004657576,0.9919464125872961
2014-07-25,1,0.0009598153239600613,0.0011690828369777106,-0.006326017393115057,0.011475368004657576,0.9915102957635684
2014-07-29,1,0.0003597801613250738,0.0006516314711320244,-0.0008487605720938489,0.012273199956557995,0.9904358151806107
2014-07-31,1,1.6099833029480895e-05,0.0003308861028708985,-0.005320361571594206,0.012273199956557995,0.99089518546521
2014-08-04,1,0.0010117456816388045,0.001166512725450951,-0.005320361571594206,0.011850081272411151,0.9915590065749624
2014-08-06,1,0.0003163568547456631,0.000610964384577676,-0.005143048391887508,0.011329009546654695,0.9925860767616922
2014-08-08,1,0.00018511270858451493,0.0004751834399100354,-0.0025153596205450225,0.011329009546654695,0.9925203508519344
2014-08-12,1,0.0017242800314727848,0.0018025245721240537,-0.005143048391887508,0.008735862333699137,0.9928698342050017
2014-08-14,1,0.0019707498557193204,0.0020712374397268856,-0.005143048391887508,0.007393327926970914,0.993164167556696
2014-08-18,1,0.0020950895036260155,0.0022111667858040504,-0.005143048391887508,0.006626789469541985,0.9936063461823618
2014-08-20,1,0.0024902374134605355,0.0026611594118252013,-0.005143048391887508,0.006626789469541985,0.9936869957282365
2014-08-22,1,0.00284232262266073,0.003100463713171939,-0.005970239635907955,0.006411409159870632,0.9935512453275712
2014-08-26,1,0.0033205796973859248,0.003689689669055649,-0.006492526588086523,0.006034130152377088,0.9937467711474296
2014-08-28,1,0.0021508038711791203,0.002183583910789738,-0.006922903319783559,0.006411409159870632,0.9928293504561192
2014-09-02,1,0.002659875240153114,0.0028086874016111005,-0.008802099013798543,0.006038483871105921,0.9919238770237506
2014-09-04,1,0.0015040021091831234,0.0015543795260760333,-0.009035049237734903,0.006038483871105921,0.9915925448360189
2014-09-08,1,0.0018680950574312609,0.0018788109959580455,-0.009035049237734903,0.006038483871105921,0.9910874099531707
2014-09-10,1,0.0016297260927739794,0.001643682474157061,-0.009035049237734903,0.006432447091262585,0.9903441680784721
2014-09-12,1,0.0018068125036888856,0.001895871162225437,-0.01498699022311379,0.006046460646311374,0.9880021617942015
2014-09-16,1,0.001314980996345561,0.0013206994391423614,-0.015494747308503608,0.006046460646311374,0.9869590007577064
2014-09-18,1,0.0013550801263527417,0.0013809153482100003,-0.015494747308503608,0.004897602484446402,0.9869553721719982
2014-09-22,1,0.0007941854378273138,0.0008575601145734556,-0.015494747308503608,0.00688107025072646,0.9868723216542558
2014-09-24,1,0.0008484624356214527,0.0008561648843918327,-0.016715370263611147,0.008320719321456624,0.9853032892040364
2014-09-26,0,-4.329099768956191e-05,8.757473712972291e-05,-0.015494747308503608,0.008320719321456624,0.9860903133950871
2014-09-30,-1,-0.0006639036158327838,-0.00046962874335954106,-0.015494747308503608,0.01065154165711869,0.9853593217533472
2014-10-02,-1,-0.0007582787171904715,-0.0005705509797146116,-0.010656516437203518,0.01669514872248567,0.9849951769894099
2014-10-06,-1,-0.0006118459661396948,-0.0003971115103603317,-0.010656516437203518,0.018716554977568724,0.9845408369687596
2014-10-08,-1,-0.00192184401413344,-0.0015059178485620352,-0.00784759640543745,0.018716554977568724,0.9858274487141042
2014-10-10,-1,-0.0036814975664989273,-0.003076227826856081,-0.005230784926390056,0.018716554977568724,0.9864187862255267
2014-10-14,-1,-0.0046920366243438,-0.003990261042291987,-0.002974285572915074,0.018716554977568724,0.987116078888025
2014-10-16,-1,-0.004181256056820464,-0.0035700835614744264,-0.0034048905484983807,0.018716554977568724,0.9879717282982339
2014-10-20,-1,-0.002974660875898289,-0.002530555618568206,-0.005133744769280133,0.014226054236196745,0.989096544224717
2014-10-22,-1,-0.002461329519536244,-0.002084953139691352,-0.005133744769280133,0.009259356490826185,0.9909645012705546
2014-10-24,-1,-0.001232874879388076,-0.0010162089387273387,-0.005133744769280133,0.009554505380790635,0.9911286767111249
2014-10-28,1,0.0003058227037839095,0.0003125248204929455,-0.005133744769280133,0.008299538535031405,0.9922387423683476
2014-10-30,1,0.0006758554316681031,0.0007186863661334601,-0.0042775646386594415,0.007245002917820444,0.9934154742464457
2014-11-03,1,0.0008835312702071667,0.000935464463534551,-0.003226187622935589,0.005655580056787489,0.9943665677074804
2014-11-05,1,0.0007531592637015918,0.0007555760569404982,-0.003226187622935589,0.005213183370908483,0.9946351207177789
2014-11-07,1,0.0014037073361094147,0.0014983596784716364,-0.003226187622935589,0.0018595419448402385,0.9943349459252704
2014-11-11,1,0.0010770416212468434,0.0011202969590625167,-0.0042775646386594415,0.0018595419448402385,0.9938027328482788
2014-11-13,1,0.0005764614940768861,0.0006079148590741712,-0.006587961178737896,0.0018595419448402385,0.992362580919952
2014-11-17,1,0.00017178439468289956,0.0002589985275865792,-0.0033439541691601747,0.0018595419448402385,0.9930195698057458
2014-11-19,1,0.00034895572001979435,0.0004210534939505443,-0.0022582277411280017,0.006167744640632738,0.9905954850719261
2014-11-21,1,0.000981953217590112,0.0010250688955206566,-0.0033439541691601747,0.0027967333904026868,0.9909300871098504
2014-11-25,1,0.0012652382140217805,0.00136815295357253,-0.0044510668283498315,0.0027967333904026868,0.990602406876225
2014-11-28,1,0.000977949108075696,0.0010228105571203077,-0.0044510668283498315,0.0027967333904026868,0.9907620031922453
2014-12-02,1,0.0007599786847821137,0.0007623120163611176,-0.007792049963342939,0.0010559084233630052,0.9900892489944829
2014-12-04,1,0.0006566413342610033,0.0006672039225345592,-0.009905900169429074,0.0010559084233630052,0.9882799687790462
2014-12-08,1,0.0008563768326717476,0.0008675841187418373,-0.010723266048618115,0.0010559084233630052,0.9874783262734793
2014-12-10,1,0.00025791776834727337,0.0003167100976880843,-0.010723266048618115,0.0032328090869314235,0.9869376447302206
2014-12-12,-1,-0.001090292001529129,-0.0009023459390381051,-0.009905900169429074,0.0032328090869314235,0.9889075665805538
2014-12-16,-1,-0.0015178667976240656,-0.0012640167607465393,-0.012498991529024528,0.0032328090869314235,0.9878334785859406
2014-12-18,1,0.0006067131718701787,0.0006247214775903595,-0.012498991529024528,0.0010559084233630052,0.9889292234687002
2014-12-22,0,-0.00011937880087264436,9.361247519728178e-06,-0.012498991529024528,0.007510321832737851,0.9878790658424682
2014-12-24,1,0.00025532607486478175,0.0003085145327099664,-0.012498991529024528,0.00937685306370824,0.9874106716867262
2014-12-29,0,-4.322651667713255e-05,4.958906932308959e-05,-0.01734948637916754,0.00937685306370824,0.9862160099941985
2014-12-31,-1,-0.001533784724942578,-0.0013110908236417418,-0.019079003872877663,0.010346747909081671,0.9844520751119678
2015-01-05,-1,-0.0022975361937283023,-0.002009453500350347,-0.01734948637916754,0.014253068116396594,0.9836383086713455
2015-01-07,-1,-0.0022749659671720645,-0.002016693510514351,-0.011670600811137249,0.013542047362013464,0.9844120330074625
2015-01-09,-1,-0.0021870640539697482,-0.0019469123622263258,-0.008304606707910547,0.0116134347754662,0.9861155967951383
2015-01-13,-1,-0.0020943868676193303,-0.001894933972467362,-0.008304606707910547,0.013165383746440718,0.9853343737748887
2015-01-15,-1,-0.0033893732738142068,-0.003039731951245947,-0.005877723004686846,0.013165383746440718,0.9862368251954438
2015-01-20,-1,-0.0026650252205363653,-0.002447130707863997,-0.005877723004686846,0.013165383746440718,0.9870799314274566
2015-01-22,-1,-0.0015464412677655024,-0.0014441060310911562,-0.005877723004686846,0.013165383746440718,0.9880357497846847
2015-01-26,-1,-0.0011011940805417627,-0.0010661261788222727,-0.005877723004686846,0.013165383746440718,0.9879901212097386
2015-01-28,-1,-0.0021503629568888813,-0.0019835649344115405,-0.0021847539584075077,0.013165383746440718,0.9887155312974943
2015-01-30,-1,-0.0015964666340415436,-0.0015111380495820706,-0.0016507181867993852,0.01173654185777228,0.9918553061686294
2015-02-03,-1,-9.011479827652561e-05,-6.352989034452098e-06,-0.0021847539584075077,0.00487210984927714,0.9945429150683395
2015-02-05,1,0.00032525631611579815,0.00048267617191434395,-0.0021847539584075077,0.00487210984927714,0.9944676298192835
2015-02-09,1,0.0001660598501855935,0.0002958703503713291,-0.0023109543696900113,0.005619909005167053,0.9932602181413024
2015-02-11,1,0.0010437032316273434,0.0013113852816836696,-0.0023109543696900113,0.006531316973806354,0.9927278963210077
2015-02-13,1,0.0009592077449532583,0.0011887854820053125,-0.004876992720883863,0.007174466958860598,0.9915593752385793
2015-02-18,1,0.0006449411684586968,0.000835006263014277,-0.004876992720883863,0.00935768498465574,0.9907318049694457
2015-02-20,1,0.0012030993181397778,0.0014520491061923214,-0.005876186783379601,0.00935768498465574,0.9901663899138123
2015-02-24,1,0.001078252237102477,0.0012774320668180142,-0.008882599027395492,0.007174466958860598,0.9898508663008645
2015-02-26,1,0.0009323716671826307,0.001094145242651133,-0.010963758644901959,0.007174466958860598,0.988690491076511
2015-03-02,1,0.001275492335773646,0.0015098840317309312,-0.010963758644901959,0.008203008316364823,0.9883180203489161
2015-03-04,1,0.000876663390335176,0.00102143754967268,-0.010963758644901959,0.008203008316364823,0.9881407667486731
2015-03-06,-1,-0.00021715490666396954,-0.00012067323240131088,-0.008882599027395492,0.008203008316364823,0.9886603589472803
2015-03-10,-1,-0.0015688717048483612,-0.001247357605010534,-0.008530612980668633,0.008203008316364823,0.9894356831720275
2015-03-12,-1,-0.0006426143245359593,-0.00043506758390642335,-0.008530612980668633,0.006839595284060192,0.9903964628816677
2015-03-16,1,0.00039987458851651215,0.0004606165916445037,-0.008530612980668633,0.006755513756112303,0.9913829817527133
2015-03-18,1,0.0008213740120016287,0.0008277157042705291,-0.008179248929907767,0.0067123253711070495,0.9922358446351329
2015-03-20,1,0.001257977301842649,0.0013568900285665575,-0.008179248929907767,0.0067123253711070495,0.99267508758518
2015-03-24,1,0.000850672528597129,0.0009516772963361717,-0.00587270011847295,0.006755513756112303,0.9931834778530756
2015-03-26,1,0.00014797520706688762,0.00019505197372321159,-0.005172096253499502,0.006839595284060192,0.9938394797258209
2015-03-30,1,0.0004796211846686447,0.000587465294556536,-0.005281841144819225,0.006839595284060192,0.9935507236973155
2015-04-01,1,0.0004581213200878786,0.0005727572888222026,-0.005281841144819225,0.007341137728668708,0.9927775284780151
2015-04-06,1,0.0010607380967654358,0.0012925628561173885,-0.005281841144819225,0.007341137728668708,0.9930043790629074
2015-04-08,1,0.0009430435542686559,0.0011495643424759396,-0.006488781075359005,0.007121907016948081,0.9924904080855276
2015-04-10,1,0.0008154416995791282,0.0009909804015041496,-0.006488781075359005,0.008738558632730833,0.9921491987633289
2015-04-14,1,0.0006894629616377018,0.000811415071889397,-0.007762044226682161,0.008738558632730833,0.9916026420485117
2015-04-16,1,0.0006955511580344176,0.000800197111506532,-0.009121844825058413,0.010280755690168591,0.9905409809600452
2015-04-20,1,0.0008349142176800801,0.0009963029595348903,-0.009121844825058413,0.008738558632730833,0.9911426371184875
2015-04-22,1,0.0009695644920272135,0.0011568372534231455,-0.009121844825058413,0.010280755690168591,0.9908340359118246
2015-04-24,1,0.001242380491884887,0.001463275342543122,-0.009121844825058413,0.007901665371918635,0.990747066055784
2015-04-28,1,0.0014929597003917618,0.0017518143464337632,-0.009859622310589759,0.007841912783466614,0.9906824883981248
2015-04-30,1,0.0016750948790508506,0.001956883526454585,-0.011019576413774924,0.005220845345193938,0.9910723646266972
2015-05-04,1,0.0020955843209270048,0.002456957021081338,-0.011019576413774924,0.00437045719725653,0.990955791847578
2015-05-06,1,0.0011181888336041447,0.0013142737355092693,-0.011019576413774924,0.00437045719725653,0.9916579696582511
2015-05-08,1,0.0008944459685266506,0.0010017915156146076,-0.011019576413774924,0.0015822349070979285,0.9923423459048509
2015-05-12,1,0.00028821860867434364,0.0002998757997409243,-0.009037517190263036,0.003136760195490854,0.9927291538381002
2015-05-14,1,0.0010798243079549875,0.0013147573669771966,-0.00781301144316691,0.003136760195490854,0.9937198494775584
2015-05-18,1,0.0008141043817716665,0.0010026086459114206,-0.007221686828252125,0.0030523813073486286,0.994278928912755
2015-05-20,1,0.0010309519750641718,0.001255260388576989,-0.007276614428159035,0.0030523813073486286,0.9945410246789517
2015-05-22,1,0.000796373697907367,0.000984119055340137,-0.00797779424288764,0.0030523813073486286,0.994351632899241
2015-05-27,1,0.00042624623977866364,0.0005316538752741199,-0.007707233778467562,0.0030523813073486286,0.994845171437487
2015-05-29,-1,-0.0005629141966621975,-0.0004518015208644649,-0.007707233778467562,0.0030523813073486286,0.9950365944178116
2015-06-02,-1,-0.0007087959840124277,-0.000561085324417252,-0.007874983671406897,0.0030523813073486286,0.9935260239355537
2015-06-04,-1,-0.0012059860716731865,-0.0009912874652048354,-0.007707233778467562,0.003136760195490854,0.9935762116609848
2015-06-08,-1,-0.0012709646307589458,-0.0010373379618221724,-0.007874983671406897,0.0030523813073486286,0.993378293238178
2015-06-10,-1,-0.0019504040498779156,-0.001595287958174241,-0.007874983671406897,0.0036959574041377672,0.9924078972723658
2015-06-12,-1,-0.0017008814084439514,-0.0013800657994112193,-0.007874983671406897,0.005825917551065035,0.9914586233629217
2015-06-16,-1,-0.001171162558843353,-0.0009544750412729652,-0.007874983671406897,0.006483177391284667,0.9909122163829738
2015-06-18,-1,-0.0012268265292629736,-0.001003589773930549,-0.007742021038313979,0.006896452724430227,0.990657684988439
2015-06-22,-1,-0.0020812199266814586,-0.001720721895341739,-0.005684620737197275,0.006896452724430227,0.9911591321538306
2015-06-24,-1,-0.002307479320761255,-0.0019170574070833527,-0.0057637288747413315,0.006896452724430227,0.9910674853434757
2015-06-26,-1,-0.0016803994436718527,-0.0014322968308177972,-0.010423799111441815,0.006896452724430227,0.9902418317365875
2015-06-30,-1,-0.0022528442394751497,-0.001948929880035658,-0.00616124113356765,0.009651517790060677,0.9906393203332894
2015-07-02,-1,-0.0022388830634722454,-0.0019306359521733519,-0.009677707493033016,0.012146456529977288,0.9891543983871166
2015-07-07,-1,-0.002314582671295028,-0.0020193880277356905,-0.005423528334066583,0.012146456529977288,0.9894214615002418
2015-07-09,-1,-0.0026849958407171226,-0.002353782477634848,-0.0036980124898286313,0.012146456529977288,0.9903351962531628
2015-07-13,-1,-0.001956714919748545,-0.0017011382666111182,-0.005423528334066583,0.009651517790060677,0.9906634726143674
2015-07-15,-1,-0.0011709397138164076,-0.0010360287533779712,-0.010773649523320687,0.008481730741219658,0.9901628487905177
2015-07-17,-1,-0.0007056275966689986,-0.0006310465049173116,-0.010773649523320687,0.0036476953788684313,0.9904693310859479
2015-07-21,-1,-0.0006682653785785632,-0.000602925721103884,-0.01195852641388356,0.005082019818755153,0.9899828285800741
2015-07-23,-1,-0.0008863146128369154,-0.0008010618188036625,-0.013008878270217536,0.005082019818755153,0.989086677852819
2015-07-27,-1,-0.002151352529679261,-0.0019219647806571305,-0.013060919589144753,0.005082019818755153,0.9866282095829579
2015-07-29,-1,-0.0009509456325503503,-0.0008505135506600117,-0.014180718579266212,0.00200079617401803,0.9844107412700575
2015-07-31,-1,-0.0005929850788769736,-0.0005165544501312516,-0.014180718579266212,0.0020847964634578345,0.9842745352431705
2015-08-04,-1,-0.00031372402984380547,-0.00030202194546749377,-0.01653524094139433,0.0020847964634578345,0.9820126899292586
2015-08-06,1,3.795205442638181e-05,9.275222254827032e-05,-0.01653524094139433,0.001464870812367456,0.9823272480564291
2015-08-10,1,0.00029238549649055097,0.00038951300474559023,-0.02213973585431485,0.001464870812367456,0.980732492342186
2015-08-12,-1,-0.00012061001403270292,-7.409055749133743e-05,-0.02213973585431485,0.0021391975226300133,0.9812304186752784
2015-08-14,-1,-0.000448184583167498,-0.0004313179775678532,-0.02213973585431485,0.0040682548525821875,0.9813016658524768
2015-08-18,-1,-0.0008372614730565378,-0.0007522509232170193,-0.02213973585431485,0.008224198899115237,0.9805476539849156
2015-08-20,-1,-0.0015283401710015254,-0.0013670093655179345,-0.026379437247141934,0.008224198899115237,0.980631852341426
2015-08-24,-1,-0.0028539299423765464,-0.0025335181763175363,-0.016694962872975984,0.011692622185341674,0.9829524623822945
2015-08-26,-1,-0.002421428034739918,-0.0021621711987955027,-0.012496835636765988,0.007611809925730884,0.9855585297062411
2015-08-28,-1,-0.001603925595965641,-0.0014403101871023776,-0.016694962872975984,0.004820989194549494,0.9860041024376284
2015-09-01,-1,-0.0023691797622764953,-0.0021178354396143486,-0.008301335362837859,0.007611809925730884,0.9874700977416891
2015-09-03,-1,-0.0021450231453062187,-0.0019284074012361823,-0.008301335362837859,0.008773900850166435,0.9869595029186753
2015-09-08,-1,-0.002016140367091556,-0.0018232644891958438,-0.00679814733610754,0.008773900850166435,0.9881889016484561
2015-09-10,-1,-0.002060606703123306,-0.0018622681008313153,-0.00611483539323473,0.011635936196053296,0.9879222150006973
2015-09-14,-1,-0.001988318706673564,-0.0018037003068502335,-0.007240465958077213,0.011635936196053296,0.9879060430976194
2015-09-16,-1,-0.0012885342122336751,-0.0012019085202952349,-0.00858591980979434,0.005183085159250796,0.9875093366239885
2015-09-18,-1,-0.0018273265793081644,-0.0016897329398195664,-0.00766391791414751,0.011435186829896945,0.9869765069997871
2015-09-22,-1,-0.001887795193775402,-0.0017564026171266994,-0.00766391791414751,0.00912885446810606,0.9874353809345442
2015-09-24,-1,-0.0017473488647540285,-0.0016457499961785153,-0.00858591980979434,0.012700797049872172,0.9848048063409754
2015-09-28,-1,-0.0028661445554858463,-0.0026266652529777714,-0.00766391791414751,0.013823437707409765,0.9848163380702372
2015-09-30,-1,-0.0022087597624640856,-0.00207109818786643,-0.00858591980979434,0.018512400262023103,0.9834807171080081
2015-10-02,-1,-0.0020549461322599783,-0.0019285708051973694,-0.011368605808215212,0.018512400262023103,0.9827141111795823
2015-10-06,-1,-0.0011117248034712701,-0.0011049333717006384,-0.011368605808215212,0.013221189608940712,0.983382519801566
2015-10-08,-1,-0.0006506600216974736,-0.0006019982847399595,-0.011368605808215212,0.010951453436298636,0.9837220258464222
2015-10-12,-1,-0.0007852552406247076,-0.0007412171092760008,-0.013237629806720223,0.010951453436298636,0.9831708049847379
2015-10-14,-1,-0.001815263086748672,-0.0017293613606208342,-0.013237629806720223,0.010951453436298636,0.9840988473019359
2015-10-16,-1,-0.0007672874571363636,-0.0007231586132379693,-0.015379918972044982,0.009135253365240927,0.983956548733953
2015-10-20,-1,-0.0011409824094992774,-0.0011271619073197846,-0.013858576998389436,0.010343120935806428,0.9843973087237019
2015-10-22,-1,-0.00023775020703183038,-0.0001255717815953602,-0.013303086450273342,0.010343120935806428,0.9858522127082272
2015-10-26,1,0.00015321946655692402,0.0002993128416480047,-0.013303086450273342,0.009135253365240927,0.9873093900771007
2015-10-28,1,0.0007264632603236953,0.0009580128599085978,-0.010680133271902528,0.009135253365240927,0.9888538698705873
2015-10-30,0,-1.3814514282019382e-05,0.00011684292614794336,-0.0036760498064403856,0.009135253365240927,0.9903294569802272
2015-11-03,1,0.0005303809363769677,0.0007494892565133794,-0.005034341596311624,0.007253144835288639,0.9904361152516926
2015-11-05,1,0.0008014091984929019,0.0010634383215631666,-0.009688802735801288,0.007253144835288639,0.9895422324403826
2015-11-09,1,0.0005925831508194096,0.000830907020810566,-0.009688802735801288,0.007253144835288639,0.9892835922376612
2015-11-11,1,0.00043733062134894754,0.000639978817533124,-0.009688802735801288,0.007688009797236821,0.9891248197934046
2015-11-13,-1,-0.000568689418348662,-0.0004980790984778114,-0.009688802735801288,0.007688009797236821,0.9877175009439
2015-11-17,-1,-0.00023315009648891956,-0.00011974414196358848,-0.009688802735801288,0.012282661617897954,0.9860990143623719
2015-11-19,1,0.00026202699850961527,0.0004091478391385886,-0.014473758772665272,0.007688009797236821,0.9859111212139754
2015-11-23,1,0.00031044697849669884,0.0004725110888499549,-0.014473758772665272,0.012282661617897954,0.9845882237732659
2015-11-25,1,0.0006080605312944308,0.000796188846943716,-0.014473758772665272,0.014198409274371203,0.982864795938356
2015-11-30,1,0.0004909873871051856,0.0006384880375024259,-0.014473758772665272,0.01802821625713719,0.9820759430538774
2015-12-02,1,0.0008806131150319542,0.0011267239423342216,-0.014473758772665272,0.01802821625713719,0.9824218504732944
2015-12-04,1,0.0012834079878584806,0.001602613419616138,-0.014473758772665272,0.014198409274371203,0.9833351833238777
2015-12-08,1,0.0008553721608260749,0.0011466779846364707,-0.015264028012574319,0.014198409274371203,0.9824517528497183
2015-12-10,1,0.000909051863561802,0.0012101448536479304,-0.018479657749957575,0.006713950417922582,0.9812430570077495
2015-12-14,-1,-0.0009993651342378508,-0.0009625754180925083,-0.0151259278953688,0.006713950417922582,0.9837472831393994
2015-12-16,0,-4.894685590391503e-06,0.00012321177214995348,-0.018479657749957575,0.0026446728279790567,0.9836398837821521
2015-12-18,-1,-0.0004960315165491164,-0.00040519876049184127,-0.01820687114698901,0.0026446728279790567,0.9843796864103638
2015-12-22,1,0.0007031418488043508,0.0009911879182524402,-0.01820687114698901,0.00419649416892259,0.9836148192746687
2015-12-24,1,0.001618406528233069,0.0020223468510613784,-0.021830777145248552,0.00419649416892259,0.9835687237554651
2015-12-29,1,0.0022417950708727907,0.0027394213617220374,-0.021830777145248552,0.002313599233504245,0.9828846743385978
2015-12-31,1,0.0023991563110048377,0.002935215531820843,-0.024634887238543297,0.0035143333388775004,0.9796011066448003
2016-01-05,1,0.0018905743809819622,0.0023253837143014707,-0.02733601666546426,0.0035143333388775004,0.9778087864918452
2016-01-07,1,0.0007124309006202221,0.000983302090634272,-0.02733601666546426,0.009385469534305795,0.978475601456251
2016-01-11,-1,-0.000495851595516968,-0.00037677332166894143,-0.02733601666546426,0.009385469534305795,0.9786496896913343
2016-01-13,-1,-0.0015821336044395007,-0.0015102847987125698,-0.028456533680848495,0.015234129414734125,0.9772267448733045
2016-01-15,-1,-0.0031741157758970956,-0.0028052774199433363,-0.02733601666546426,0.015234129414734125,0.9771866789486199
2016-01-20,-1,-0.0034045772486997012,-0.0030254121204519786,-0.02733601666546426,0.02030711085595494,0.9762700858594939
2016-01-22,-1,-0.0013310642787272787,-0.0012555111002694691,-0.027563863536391356,0.02030711085595494,0.975292219249651
2016-01-26,-1,-0.002375691029926726,-0.0021160935447293652,-0.02825146442157119,0.01704208865804088,0.9762119434560371
2016-01-28,-1,-0.00294672066815619,-0.002623453379997817,-0.02825146442157119,0.026080808141763882,0.9752291608281591
2016-02-01,-1,-0.0022526038462282465,-0.0020150102345156537,-0.02825146442157119,0.026080808141763882,0.9760519208779662
2016-02-03,-1,-0.003819018942612668,-0.003394766096702556,-0.018043912574981936,0.026080808141763882,0.976928819938844
2016-02-05,-1,-0.004224316105214558,-0.0037535735635166744,-0.013697176819710381,0.026080808141763882,0.9780194885225868
2016-02-09,-1,-0.004962903089049639,-0.004456544564373839,-0.013697176819710381,0.026080808141763882,0.9786546805043086
2016-02-11,-1,-0.005822930776372706,-0.005172462656790176,-0.008161587635509619,0.027370171816521106,0.9778098131995212
2016-02-16,-1,-0.00426269823601476,-0.0037818899169740033,-0.0123330226226686,0.019632210878471914,0.9806719598509681
2016-02-18,-1,-0.0038198468255230987,-0.003388982080143041,-0.007844543450887965,0.01998395937261478,0.980354867867407
2016-02-22,-1,-0.004162426314249967,-0.003649153330806581,-0.0036760787577642187,0.017325985159784372,0.982726137148492
2016-02-24,-1,-0.004998479052946729,-0.0044062695040529955,-0.0032734086337145667,0.017325985159784372,0.9832644461923254
2016-02-26,-1,-0.0036265628982554534,-0.0032135526291119905,-0.0032734086337145667,0.014382463769348531,0.9854035277041271
2016-03-01,-1,-0.0020388347207212984,-0.00186066526921215,-0.002414487002642002,0.012841619920536035,0.9872339981300963
2016-03-03,-1,-0.0007545699210213318,-0.0007486222587255096,-0.0032734086337145667,0.013758418297915161,0.9871119967514914
2016-03-07,-1,-0.0005039190905352139,-0.0004866028394392414,-0.009935137437774317,0.012505754527216053,0.9870827193948246
2016-03-09,-1,-0.002149145524254053,-0.001904112186704701,-0.009935137437774317,0.012505754527216053,0.9864502246286772
2016-03-11,1,0.0005356629738318347,0.0006838824192596895,-0.009935137437774317,0.007072259416143155,0.9895713858864879
2016-03-15,0,-2.0118900388088292e-05,3.0363395697642588e-05,-0.005942919411981466,0.013357707551606349,0.9876228952842777
2016-03-17,1,0.0016515022914480111,0.001977165796609389,-0.005942919411981466,0.007072259416143155,0.9895576013179138
2016-03-21,1,0.0020664577164647693,0.00248546990752214,-0.005942919411981466,0.010078034389087307,0.989130981379678
2016-03-23,1,0.001896762204515063,0.0023259180592127746,-0.0022524286919927868,0.012505754527216053,0.9892321744514149
2016-03-28,1,0.0015430042748320071,0.0018717163604829589,-0.00398715424245581,0.012505754527216053,0.9886064406500785
2016-03-30,1,0.0024438011926925826,0.0029166328182198375,-0.00398715424245581,0.01084475392269392,0.9884766806686599
2016-04-01,1,0.0026661239875548663,0.003179219875635358,-0.010147608062800203,0.009258752623149975,0.9873030445033419
2016-04-05,1,0.0019494546318320337,0.00234807392491138,-0.005487503259412255,0.009258752623149975,0.9871046232779075
2016-04-07,1,0.001057087204686232,0.0013362951546276739,-0.009710806873272103,0.009258752623149975,0.9878230399546584
2016-04-11,1,0.00045224107754650533,0.0005763547519154297,-0.009710806873272103,0.009258752623149975,0.9872483485855602
2016-04-13,1,0.0020324984330179967,0.0023873429331016803,-0.014016501420849335,0.008497258965478585,0.987521104364542
2016-04-15,1,0.0024565682057652604,0.002915480923532088,-0.015604013931528597,0.008497258965478585,0.9863326232099493
2016-04-19,1,0.002878596230945348,0.0033892690669094848,-0.015604013931528597,0.0034617498741887666,0.9864786818109986
2016-04-21,1,0.0034918442974782088,0.004106887949747248,-0.015604013931528597,0.0034617498741887666,0.9858745630260093
2016-04-25,1,0.0031483684119284865,0.0037222479492798445,-0.014016501420849335,0.009730825200152428,0.9856773540648471
2016-04-27,1,0.003906752148139182,0.004580563937389545,-0.014016501420849335,0.012186853267428866,0.9844600465803691
2016-04-29,1,0.0026653477657076928,0.0031859806683700535,-0.008460623972086198,0.012248909158143648,0.9866860800961911
2016-05-03,1,0.0015986148755077242,0.0019349692760260888,-0.007277129450793606,0.012248909158143648,0.9879217716019901
2016-05-05,1,0.0010857920757470245,0.0013555259769138807,-0.00732590935235642,0.012248909158143648,0.9876029164133747
2016-05-09,1,0.0001538998329273141,0.00018500821686228924,-0.009860996981821184,0.012248909158143648,0.9865485650370898
2016-05-11,1,0.0004366467870444761,0.0005823396961020804,-0.00993844320813841,0.011191975529756417,0.9875271398068995
2016-05-13,-1,-0.0006517206868981979,-0.0006045516727430421,-0.01404996041165169,0.011191975529756417,0.9869283880329242
2016-05-17,-1,-7.96019756107393e-05,-5.671995635041406e-06,-0.015632319551177245,0.011191975529756417,0.9860585199543628
2016-05-19,1,0.0008439801324631728,0.0010999018367999767,-0.015632319551177245,0.00879062276334115,0.9866949830759235
2016-05-23,1,0.0021109829310769325,0.0025674681887490284,-0.015632319551177245,0.006931873540608141,0.986554015008819
2016-05-25,1,0.0033744999494927748,0.0039963781266298985,-0.015632319551177245,0.0047855855363538626,0.9870112736654869
2016-05-27,1,0.003413309122247396,0.004028646660678564,-0.018099649163936943,0.00405809340967629,0.9781981929177246
2016-06-01,1,0.0026398431021189073,0.0030768342266673764,-0.018099649163936943,0.006931873540608141,0.9758156422981019
2016-06-03,1,0.0011409461899927519,0.0012988720098963077,-0.018099649163936943,0.01293945537077709,0.9757769825125167
2016-06-07,1,0.00025600717956122336,0.00025948641246211407,-0.018099649163936943,0.013602918062967543,0.9757697933811764
2016-06-09,-1,-0.0007385550689034368,-0.0006011078888551397,-0.017322728210629825,0.02095196864552454,0.9756775215128388
2016-06-13,-1,-0.0022871191725750573,-0.0019401304459279616,-0.002055608695119702,0.028211134839536346,0.9745132947445719
2016-06-15,-1,-0.002059702957700651,-0.0018046847905715054,-0.001151418529267535,0.028211134839536346,0.9743269018363888
2016-06-17,-1,-0.0018275356895308468,-0.0015867000838908157,-0.001151418529267535,0.028211134839536346,0.9740941589662782
2016-06-21,-1,-0.001213806392828612,-0.0010135496852946178,-0.0038429844548300085,0.02095196864552454,0.9752075060402243
2016-06-23,1,0.00016529984316332883,0.00017385883981005203,-0.0038429844548300085,0.018163344844095354,0.9764758643910681
2016-06-27,-1,-0.006561277871604204,-0.005691599439023076,-0.0014064856639644844,0.018163344844095354,0.9822348795970995
2016-06-29,-1,-0.0045202382990867035,-0.0038697193940937175,-0.0014064856639644844,0.012785275359249827,0.9860352509873267
2016-07-01,-1,-0.004767673442302918,-0.004018967898688669,-0.0014064856639644844,0.011150351237711454,0.9869879226535136
2016-07-06,-1,-0.005771297711110202,-0.004874593153421089,-0.0014064856639644844,0.012785275359249827,0.9852196921706888
2016-07-08,-1,-0.004101393675479473,-0.0034736496823900118,-0.0017784826870725,0.012785275359249827,0.9866614329299525
2016-07-12,-1,-0.0024228161252046665,-0.002009653183165306,-0.0030291060843032026,0.011150351237711454,0.989498313816138
2016-07-14,-1,-0.0020881553110713843,-0.0017178316024235485,-0.0029308585805437586,0.01061972757849904,0.9901458672038373
2016-07-18,-1,-0.002235625461244969,-0.0017930850678856108,-0.0029308585805437586,0.01061972757849904,0.9906888172916766
2016-07-20,-1,-0.001309484138511579,-0.001025778892812453,-0.0031511699591666377,0.009379707587531035,0.9911028427298403
2016-07-22,-1,-0.0004142330561571136,-0.000274487067766716,-0.0031511699591666377,0.008592305612851119,0.9914065015342952
2016-07-26,-1,-0.000112458311822088,-4.300068270555088e-05,-0.0031511699591666377,0.009379707587531035,0.9910174301529393
2016-07-28,1,0.0006291755181533862,0.0006698062218581126,-0.0031511699591666377,0.00779756192848427,0.991942077099413
2016-08-01,1,0.00020904869044462027,0.0002662348679067887,-0.0010108427444124218,0.00735915811018136,0.9921764978244413
2016-08-03,1,0.0011657544287856716,0.0013306189519230248,-8.253737685354108e-05,0.00735915811018136,0.9948738474094989
2016-08-05,1,0.0014407114683915164,0.0016180187741658683,-8.253737685354108e-05,0.00735915811018136,0.9954921174047673
2016-08-09,1,0.0019466301528242998,0.002262433500288653,-8.253737685354108e-05,0.00735915811018136,0.995938694421851
2016-08-11,1,0.0021603452101906636,0.002506564584336893,-8.253737685354108e-05,0.006120664294933751,0.9953614979622222
2016-08-15,1,0.0020762780604242177,0.002379787622465649,-0.0009689984005737948,0.00735915811018136,0.9924607330450019
2016-08-17,1,0.0020899767668303725,0.0023985101425439597,-0.0009689984005737948,0.007366411537160007,0.9922345612742274
2016-08-19,1,0.002688197669925241,0.0031148160156218643,-0.0033553883264903044,0.0052729769940211895,0.9915370323299815
2016-08-23,1,0.0029358663039777693,0.003399308740501941,-0.0033553883264903044,0.006312700112941579,0.9914847239961911
2016-08-25,1,0.0026930276862083304,0.0030871983995351595,-0.005130559514874023,0.007679394951485536,0.9902401704957503
2016-08-29,1,0.002355448246759997,0.0026457590911694905,-0.0067989709604775045,0.009275723689374018,0.9891703527850764
2016-08-31,1,0.0024743923714063655,0.002777752124191334,-0.010619605501517,0.009546715673042728,0.9882584805558062
2016-09-02,1,0.003360012279001903,0.003863124419791247,-0.010619605501517,0.009546715673042728,0.9878208490237599
2016-09-07,1,0.003309229316940743,0.0038045437612897193,-0.010619605501517,0.01199153708920789,0.9872523189994903
2016-09-09,1,0.002918296869107242,0.003387709490465945,-0.010619605501517,0.01199153708920789,0.9869825384954705
2016-09-13,1,0.0029145462231891213,0.0034084291252815544,-0.010619605501517,0.009546715673042728,0.9887127975603992
2016-09-15,1,0.002868405375255092,0.0033320987631455965,-0.016166344213736323,0.008583012256827241,0.9884147811307683
2016-09-19,1,0.0029434902357617625,0.0034630743757557442,-0.013874985226766735,0.008583012256827241,0.9879649216759725
2016-09-21,1,0.00262813763429115,0.003019899398306652,-0.013874985226766735,0.008451305183736376,0.9882571484108038
2016-09-23,1,0.0019115042059780225,0.002161358333289458,-0.011824818686120554,0.006685392912350877,0.9894557709145573
2016-09-27,1,0.0016839852916755995,0.0018663311424164661,-0.013874985226766735,0.006685392912350877,0.9892700921014336
2016-09-29,1,0.0014212706256930946,0.0015692288173730883,-0.013874985226766735,0.005574437061962428,0.9893595691348072
2016-10-03,1,0.0020251883507689363,0.00222197139720176,-0.01625075352832152,0.0039053280067061526,0.9888342518560159
2016-10-05,1,0.0020016978081109794,0.002153056063576851,-0.01625075352832152,0.0027284055649179685,0.9888979417130503
2016-10-07,1,0.0011716998938552014,0.001209962491824743,-0.015802798696717107,0.0039053280067061526,0.9903045730424422
2016-10-11,1,0.000743905357515206,0.0007441073943058496,-0.013839556835024908,0.0043944243825717304,0.990492319816984
2016-10-13,1,0.0009840684006530952,0.0010727052799595718,-0.013195836530070717,0.00568173307722559,0.9873587554455376
2016-10-17,1,0.0010016655381264957,0.0011702548600475726,-0.005405605745687038,0.007141765011730265,0.987282028246243
2016-10-19,1,0.00117610592630444,0.001371221892383515,-0.013838441020054175,0.009447238248543922,0.98620960376185
2016-10-21,1,0.0011712019748636765,0.001358235594666715,-0.013838441020054175,0.009447238248543922,0.9855411146954881
2016-10-25,1,0.0005393468114751864,0.0005967198843664242,-0.012233015802578209,0.008845312316233336,0.9862769374840185
2016-10-27,-1,-0.0002183614811632739,-0.00015494761790766252,-0.005084789482630728,0.008845312316233336,0.9873351652545637
2016-10-31,-1,-0.0016497571182801552,-0.0013839217915666367,-0.004428217443006928,0.008845312316233336,0.9878963565461526
2016-11-02,-1,-0.0027288435679725825,-0.0022849337490588604,-0.0021204501287381355,0.010965924929142178,0.9868601890719381
2016-11-04,-1,-0.0029101662343637,-0.0024178172578524296,-0.003688023260235934,0.010965924929142178,0.9866372429193953
2016-11-08,-1,-0.0022298464143115006,-0.001831931012834979,-0.0029994872586403985,0.012768557186529063,0.986317987621543
2016-11-10,1,0.0006726254783131021,0.0006930486475831181,-0.007065328832713717,0.010965924929142178,0.9900599752386046
2016-11-14,1,0.0019540442897632865,0.0021407217376998838,-0.011346542049853477,0.010084534333364445,0.9898210037098191
2016-11-16,-1,-0.001578384263558459,-0.0010759635964974845,-0.009753930924094358,0.009636284224452465,0.9910006778654606
2016-11-18,-1,-0.0008789938112605147,-0.000548681503952565,-0.008245648532773,0.009636284224452465,0.9912942878509444
2016-11-22,-1,-0.000575352755565885,-0.0003047975333321829,-0.009753930924094358,0.010415424316024732,0.9904718036375767
2016-11-25,-1,-0.0010346183074546752,-0.0006901975754695319,-0.011431635352086033,0.010415424316024732,0.9897619226075867
2016-11-29,-1,-0.001408197419794294,-0.0010483274130505737,-0.011431635352086033,0.010415424316024732,0.9890583466075559
2016-12-01,-1,-0.0002913522776863964,-0.0001105831668761851,-0.011431635352086033,0.009591349988438608,0.989261206799717
2016-12-05,-1,-0.0001785577598276622,-1.6448563562668282e-05,-0.011431635352086033,0.013276922035691877,0.9877314919753122
2016-12-07,1,0.000854460690919661,0.0008762529494208552,-0.011431635352086033,0.008410384962593302,0.9885785802151384
2016-12-09,1,0.0009509417875915957,0.0009513276570981238,-0.012290584860100925,0.005086607653136256,0.9882987670261049
2016-12-13,1,0.00018033775799855463,0.0002539023544576718,-0.007983478734120489,0.008410384962593302,0.9894160119628319
2016-12-15,0,-4.785633616900928e-05,5.901180656011913e-05,-0.009241067326925517,0.008410384962593302,0.9890707159043399
2016-12-19,0,-4.323328085270914e-05,4.0837387803423165e-05,-0.012290584860100925,0.008410384962593302,0.9888387769355831
2016-12-21,0,-1.6779809212959712e-05,6.0331400465333694e-05,-0.009279079438574318,0.008410384962593302,0.9894364635293855
2016-12-23,-1,-0.0006118992716631429,-0.0004630801636541456,-0.007961102106987325,0.010191208060931812,0.9893250771865648
2016-12-28,-1,-0.0008890196145911092,-0.0007260123107397111,-0.009287573650913131,0.008880295838588575,0.9886190753841543
2016-12-30,-1,-0.0009784996769716052,-0.0008000880033253506,-0.010809835448222671,0.008734913490312711,0.988523228483214
2017-01-04,1,0.0005021955255129868,0.0005067970616555181,-0.010809835448222671,0.003152649913703463,0.9892608937606533
2017-01-06,1,0.00033753663649449127,0.00034173865257990836,-0.012888823448266001,0.008734913490312711,0.9868020639298406
2017-01-10,-1,-0.000480286384914817,-0.0003806741508278106,-0.010809835448222671,0.008734913490312711,0.9881357782834571
2017-01-12,1,3.3174591970349074e-05,5.9731415479594374e-05,-0.010809835448222671,0.01099547690051252,0.9867539445687451
2017-01-17,-1,-0.00029303062308091125,-0.00024225481249888042,-0.00993713477781717,0.01099547690051252,0.9871309160682955
2017-01-19,-1,-0.0005799682020968014,-0.0005022045757013219,-0.0061254015218044225,0.01190163549632731,0.9864319547910767
2017-01-23,-1,-0.0001684421985895462,-0.00014885616538184472,-0.0061254015218044225,0.01428933413981557,0.986135321254621
2017-01-25,1,0.0004918409453494325,0.0005687414518528357,-0.00993713477781717,0.012781785929181428,0.9863099153995879
2017-01-27,-1,-0.0007701282688398182,-0.0007048770616349188,-0.0061254015218044225,0.012781785929181428,0.9883313822062786
2017-01-31,-1,-0.001288271110168685,-0.0011633101014302907,-0.0037921737549838886,0.012781785929181428,0.9880645484179317
2017-02-02,-1,-0.0009543814018620346,-0.0008393883151673399,-0.0037921737549838886,0.00905834928481416,0.9892575517742574
2017-02-06,-1,-0.00018830554609239265,-0.00015217136404692855,-0.004470698144687012,0.008177810409130612,0.9916543448242172
2017-02-08,-1,-3.460131757184835e-05,-2.4801347199226114e-05,-0.004470698144687012,0.008177810409130612,0.9913438583849882
2017-02-10,1,0.0008618109539575404,0.0009472830843421272,-0.005454865026452015,0.0064803871431050285,0.9923172474947448
2017-02-14,1,0.0011829978211931405,0.0013369106447291721,-0.005454865026452015,0.0064803871431050285,0.9912576008240349
2017-02-16,1,0.0014412479764908286,0.0016123997919433443,-0.00793455537777905,0.005662125738116992,0.9900632046633692
2017-02-21,1,0.002023517916868065,0.0022771961929943904,-0.010350953032771134,0.0025488347101183715,0.9890701319384518
2017-02-23,1,0.0017830211214485425,0.0019865215353156575,-0.00793455537777905,0.0021608858348405495,0.9895035103446891
2017-02-27,1,0.0019509160574170954,0.002231755277018545,-0.006244661381593663,0.0021608858348405495,0.9895946245059308
2017-03-01,1,0.0020184019259009717,0.002335545605584573,-0.005873529632747894,0.0021608858348405495,0.9891091168478868
2017-03-03,1,0.001480271023921384,0.0016790635326780026,-0.005873529632747894,0.004052438411966979,0.989349271370568
2017-03-07,1,0.0008228859273766554,0.0009001762830603835,-0.0048246030647487075,0.004052438411966979,0.9898510083536721
2017-03-09,1,0.0009417622872448028,0.0010188376241478132,-0.005873529632747894,0.004052438411966979,0.9893377228558025
2017-03-13,-1,-0.00014073669080134,-4.225487827810159e-05,-0.005873529632747894,0.004571913256430181,0.9896947608814833
2017-03-15,1,0.0007384557728355868,0.0007507983445582862,-0.006180264363977631,0.004052438411966979,0.9903549063364104
2017-03-17,-1,-0.0005640026497972734,-0.0004240591671630329,-0.006180264363977631,0.004052438411966979,0.9913606926838937
2017-03-21,-1,-0.0017509388448102077,-0.0014592885119535145,-0.005873529632747894,0.0057467362352786435,0.9923488130737805
2017-03-23,-1,-0.0021879920631447877,-0.0018175693151588164,-0.00610926621951291,0.010697258544494494,0.9917330781371239
2017-03-27,-1,-0.003085369360471473,-0.002558270273510589,-0.00610926621951291,0.01218488916779598,0.990302487549813
2017-03-29,-1,-0.0028573645116349447,-0.002329572956373642,-0.004173659499625911,0.01218488916779598,0.9901717686712197
2017-03-31,-1,-0.002797657732439599,-0.002283955303246153,-0.006963573166407352,0.01218488916779598,0.9901456494648404
2017-04-04,-1,-0.00276322590775667,-0.0022748779647643103,-0.006963573166407352,0.01218488916779598,0.9900063297476116
2017-04-06,-1,-0.0009348014181771718,-0.0008012867305599524,-0.007291291991183138,0.01218488916779598,0.9904914149087388
2017-04-10,-1,-0.00012462978572446435,-0.00011031457870825303,-0.005973483270233245,0.009313631930661261,0.9910328359480874
2017-04-12,-1,-0.000493279893254446,-0.0004545199334411318,-0.005928501132743304,0.009313631930661261,0.9910933507234354
2017-04-17,-1,-0.0003240615403753501,-0.00029286895995715056,-0.00527459119225167,0.00696692370387992,0.9927471670446092
2017-04-19,1,0.00011731045971909835,0.0001536382043527297,-0.005928501132743304,0.00490105983061619,0.9910456777155606
2017-04-21,1,0.000369299104442055,0.00043556476382398994,-0.00527459119225167,0.00696692370387992,0.9907039964477092
2017-04-25,1,0.000860423258803774,0.000945339491033622,-0.005928501132743304,0.006687157519879299,0.9906841955066353
2017-04-27,1,0.0021006430072126638,0.00239040141463465,-0.005928501132743304,0.003957944582828142,0.9903628935579404
2017-05-01,1,0.0016832916503488563,0.0019220444429617015,-0.005768300326783459,0.003957944582828142,0.9906477136220393
2017-05-03,1,0.002155024932366803,0.0025154870923080946,-0.005768300326783459,0.006687157519879299,0.9889921131247906
2017-05-05,1,0.0019117497141339897,0.0022438994717351914,-0.0029852904066808472,0.008496378648407188,0.9890772775753657
2017-05-09,1,0.0014957627623363831,0.0017104028573179941,-0.0029852904066808472,0.008496378648407188,0.9893240355939213
2017-05-11,1,0.0010470336963978838,0.0011960494405415776,-0.0010102782829831884,0.012584729124152705,0.9888059411307402
2017-05-15,1,0.0009465246252747753,0.0010662215810056906,-0.00031037332411428464,0.012584729124152705,0.9888201362862258
2017-05-17,-1,-0.0006028035964752576,-0.0005296069525349593,0.00022787371172845657,0.012584729124152705,0.9900923636551571
2017-05-19,1,8.355894425868183e-05,0.00010793895220102104,0.00022787371172845657,0.012584729124152705,0.9908202229286289
2017-05-23,-1,-0.0006781733649305539,-0.0005379857409143326,-0.00055999755859375,0.012584729124152705,0.9909658919544244
2017-05-25,1,2.964617359941355e-05,8.92352332471511e-05,-0.00014290123466884799,0.007244264331081177,0.9922874951794859
2017-05-30,1,0.0005041737249857664,0.0005841006576099741,-0.00014290123466884799,0.007244264331081177,0.9927345581332014
2017-06-01,1,0.0016336858305873126,0.00184777441587095,-0.001149569283887822,0.007244264331081177,0.9936109486286916
2017-06-05,1,0.001510035123155089,0.0016526367472794036,-0.001149569283887822,0.00640497333135457,0.9936295244104036
2017-06-07,1,0.0017015511634754397,0.0018898698522748958,-0.00387637762564518,0.00640497333135457,0.9930922564162152
2017-06-09,1,0.0021415931799838926,0.0023547414716558464,-0.00387637762564518,0.00640497333135457,0.9925738270234891
2017-06-13,1,0.00198548304467816,0.002148573604650629,-0.007066067922569122,0.009549672018889982,0.9911465658980227
2017-06-15,1,0.0021099536302826307,0.002301804969540408,-0.007066067922569122,0.009549672018889982,0.9909869162884694
2017-06-19,1,0.003053945006745296,0.0034050064899395285,-0.007066067922569122,0.006660538354464002,0.9914930845606561
2017-06-21,1,0.0014264652076369905,0.001467563243279119,-0.005951365727866925,0.007699125340305056,0.9922116826647377
2017-06-23,1,0.0010401458853930992,0.0010872609406240076,-0.005951365727866925,0.007699125340305056,0.9920806027213592
2017-06-27,1,0.0011143382910773628,0.0011275385367585363,-0.003321624304024811,0.007699125340305056,0.9919884768476741
2017-06-29,1,0.0019250253504562252,0.002055091514885951,-0.005951365727866925,0.007184894077844221,0.9902791303618991
2017-07-03,1,0.0022820933842545455,0.002457744412669674,-0.005951365727866925,0.008155313207100157,0.9897860033217044
2017-07-06,1,0.0025137575830256657,0.0028050154192860014,-0.005951365727866925,0.008155313207100157,0.9893651142342255
2017-07-10,1,0.003734641542648834,0.004192066411749432,-0.005951365727866925,0.006369105018016588,0.9905235715958295
2017-07-12,1,0.0036255183104552187,0.004099201576972986,-0.00469031400860956,0.005912834621288355,0.9914371811963073
2017-07-14,1,0.003886641328057664,0.004428524686684877,-0.0048261416328172916,0.006369105018016588,0.9898344075568016
2017-07-18,1,0.003528291625238339,0.004009722834331072,-0.004559961138399035,0.006369105018016588,0.9899054334714174
2017-07-20,1,0.003439096361453695,0.0038825199049605406,-0.005704683654638607,0.005647708707500242,0.9884551748545042
2017-07-24,1,0.003454155481118298,0.0038812024951463166,-0.005704683654638607,0.003433828066920365,0.9886510310746082
2017-07-26,1,0.0033943872738541273,0.0038004209452499518,-0.008059416950661823,0.003433828066920365,0.9880398983750286
2017-07-28,1,0.00107784264422382,0.0011495287869638295,-0.006176231643820873,0.005579980445245171,0.9911739398248346
2017-08-01,1,0.002027873636881213,0.0022406199524978906,-0.009058164915340417,0.0015554344022058728,0.990886127056456
2017-08-03,1,0.0009007183892738855,0.0009215323755928863,-0.007290410533348088,0.005579980445245171,0.9916720484606922
2017-08-07,1,0.0015309351012108565,0.0016871520895002962,-0.009058164915340417,0.0060027272073266275,0.9899830856827065
2017-08-09,1,0.00044136287939213154,0.0005028624192027848,-0.009461518010066367,0.0060027272073266275,0.9897515815399412
2017-08-11,-1,-0.0009702187485976573,-0.0006892069283496197,-0.008956997738407524,0.0060027272073266275,0.9914025433015589
2017-08-15,-1,-0.0013399906310696198,-0.0010090226477749375,-0.008956997738407524,0.007668435650342207,0.9906632094212358
2017-08-17,-1,-0.002780578054164716,-0.0022649666236174166,-0.007290410533348088,0.009226186408752498,0.9911832573889052
2017-08-21,-1,-0.002306662278119,-0.001879365664758637,-0.007290410533348088,0.010399360633988924,0.9907959209799818
2017-08-23,-1,-0.0023858735417754853,-0.0019484710295546441,-0.00657711065573926,0.009226186408752498,0.9915906731421421
2017-08-25,-1,-0.002704191505425747,-0.002217651667519343,-0.0030447055647311546,0.010399360633988924,0.9909720308930339
2017-08-29,-1,-0.003335155268480597,-0.0027780553393404353,-0.0018152648865019205,0.010399360633988924,0.9905402791964822
2017-08-31,-1,-0.002643657560565302,-0.002175890006056012,-0.0022894231643081804,0.010499790178008603,0.9907296316531508
2017-09-05,-1,-0.00347416549829741,-0.002892445745947772,-0.0018152648865019205,0.01135510371808788,0.990818931679055
2017-09-07,-1,-0.003979017646385667,-0.0033495438630200677,0.000210258570094862,0.01135510371808788,0.9903352152341207
2017-09-11,-1,-0.0034430644639732236,-0.002889848093143405,-0.0009080363355938819,0.009540864833275424,0.9913639044385664
2017-09-13,-1,-0.002614898427748775,-0.002170449659999029,-0.0009080363355938819,0.009269150574365748,0.9920721353759246
2017-09-15,-1,-0.0016616222337856317,-0.0013762047416068738,-0.001286320208700942,0.009269150574365748,0.9931270637120377
2017-09-19,-1,-0.0005428425287848636,-0.00044041435161661953,-0.002214941091994894,0.007128446590646955,0.9937580027616618
2017-09-21,-1,-0.0007994794777866815,-0.0006432699647181353,-0.0017108237716316778,0.009269150574365748,0.9929761252905397
2017-09-25,-1,-0.00012145431360637254,-4.195479408257481e-05,-0.0024790056352295355,0.009269150574365748,0.9934022877955181
2017-09-27,-1,-0.00020128068097150404,-9.487958555470588e-05,-0.0024790056352295355,0.007303981092749871,0.9931027492151263
2017-09-29,1,0.0005161940915879538,0.0005293367864576944,-0.002501723838212583,0.006958743522683164,0.9936427678470859
2017-10-03,1,0.0008708579556757966,0.0008738690886886055,-0.004081812367031509,0.0058404071091397655,0.9930301810694505
2017-10-05,1,0.0008299209427902884,0.0008319320815650877,-0.0036489422328869507,0.006468981032181341,0.9929662263697268
2017-10-09,-1,-0.00040260053465349,-0.0001765887934535523,-0.004141614804606901,0.006468981032181341,0.9928647336322628
2017-10-11,1,0.0005937693862303708,0.0006544498913741858,-0.005478989514373354,0.004194998793926979,0.9929563681992326
2017-10-13,1,8.105413470078948e-05,0.00023401298143865048,-0.006952230417129365,0.004194998793926979,0.9925362254987414
2017-10-17,1,0.00043856581015917285,0.0005204582109710073,-0.0070611210932461105,0.002841192272677118,0.9918422984857018
2017-10-19,1,0.000748446748399174,0.0008182546926968085,-0.0070611210932461105,0.0023374314781261303,0.9924894615104864
2017-10-23,1,0.0017562509763941923,0.0018844134611748936,-0.0070611210932461105,0.0029641114647915782,0.9917506691906494
2017-10-25,1,0.0015082515663267931,0.0016230816053059488,-0.0070611210932461105,0.0031562075325276707,0.9919790043381904
2017-10-27,1,0.00147989617150019,0.0015908430367477882,-0.007014640190017931,0.0027413633621968976,0.9923948994409424
2017-10-31,1,0.0008813591930585916,0.0009665644887293249,-0.00507570076573603,0.0035496577888325656,0.9929695287963891
2017-11-02,1,0.00127695471009643,0.0014228586383267063,-0.00507570076573603,0.002867004948814753,0.9935107141641283
2017-11-06,1,0.0009679271434213546,0.0010771715050309375,-0.0056873717584241205,0.0035496577888325656,0.9927662470157502
2017-11-08,1,0.0012006053676907706,0.0013877250030445258,-0.004311296911721853,0.008020268418089367,0.9924589928669023
2017-11-10,1,0.00036772888093265495,0.0004092444271544209,-0.0020797773315482417,0.009593238270596565,0.99220742284163
2017-11-14,-1,-0.00021102971800477033,-0.00018903335646551126,-0.0043928247550851125,0.009593238270596565,0.992361197479679
2017-11-16,-1,-0.00022179563328957085,-0.00018850206055440335,-0.00570825960306058,0.009593238270596565,0.991270586693226
2017-11-20,1,0.0007697187391561156,0.0008765442527123772,-0.00570825960306058,0.006988575246111537,0.9921850034346261
2017-11-22,1,0.0008029310544067727,0.0009429068892773519,-0.005487418308293345,0.006988575246111537,0.9927578847440859
