JNU-Tangyin/eata/results/Batch4_SP500/Batch4_SP500-CL.csv
Date,Action,Predicted_Q25,Predicted_Q75,Actual_Q25,Actual_Q75,RL_Reward
2010-12-14,0,0.0,0.0,-0.0056969329539833845,0.002398818210165559,0.9962949589340206
2010-12-16,1,0.004498011780233978,0.005331072022126869,-0.0056969329539833845,0.00021793179378554962,0.9926517436973372
2010-12-20,1,0.0023386167013881207,0.0026835474153030898,-0.005025183507006736,0.0015013159809795981,0.9948338798689559
2010-12-22,1,0.0026069268284331284,0.002990620999051869,-0.004821629148234326,0.0009411276827585182,0.9953371593402095
2010-12-27,1,0.002232153529526166,0.002558078620357464,-0.0041779832021177936,0.002794730844847177,0.9957285916440144
2010-12-29,1,0.0017323442935731142,0.001936698930043151,-0.005025183507006736,0.0015013159809795981,0.9944407024643924
2010-12-31,1,0.002064574876701782,0.00236113120758219,-0.005280807482737992,0.0015013159809795981,0.9939482311457166
2011-01-04,1,0.0013605729216602358,0.0015301459962527202,-0.005280807482737992,0.0015013159809795981,0.994238887196729
2011-01-06,1,0.0005270346506594623,0.0005552640577917679,-0.0033501009799625082,0.002794730844847177,0.9949506324843995
2011-01-10,1,0.00023112417460701746,0.00024062571268482636,-0.0015178270301837546,0.003650989740414207,0.9940918370756009
2011-01-12,1,0.00023928116890520033,0.00025447565405243357,-0.002906888102938878,0.0017387705187308137,0.9938504999592145
2011-01-14,0,0.0,0.0,-0.002906888102938878,0.003650989740414207,0.9931550318944429
2011-01-19,0,0.0,0.0,-0.0035833835882307713,0.0035889195780751185,0.9929194629092117
2011-01-21,0,0.0,0.0,-0.0035833835882307713,0.0035889195780751185,0.9928315122442694
2011-01-25,0,0.0,0.0,-0.0035833835882307713,0.001429168417014055,0.9932712600728111
2011-01-27,-1,-0.0002667167169467505,-0.0001996938944852826,-0.0035833835882307713,0.0026801013108065817,0.994273896209115
2011-01-31,-1,-0.0004785003378682772,-0.00038574439303599295,-0.004174509642222669,0.003896465100337092,0.9938544279558276
2011-02-02,-1,-0.0007374687671706417,-0.0006184434112721981,-0.0033860067527757332,0.00434206903825383,0.9935558773284972
2011-02-04,0,0.0,0.0,-0.005109638170434581,0.004155858551236566,0.993455142954337
2011-02-08,0,0.0,0.0,-0.005109638170434581,0.005320997829916135,0.9940314824819735
2011-02-10,1,0.0007299805508992523,0.0007843371769194983,-0.0032894004767003264,0.005320997829916135,0.9945216885179642
2011-02-14,1,0.001050529513535843,0.0011354700350651736,-0.00774074637379329,0.004155858551236566,0.9939332819979455
2011-02-16,1,0.0008153233984292843,0.0008664686728406541,-0.0074494285360479405,0.0031792482784319047,0.9941885049850195
2011-02-18,1,0.000649668266939113,0.0006832123603448034,-0.0074494285360479405,0.005320997829916135,0.9933424889361544
2011-02-23,1,0.0002445917633661831,0.0002814611678824462,-0.0074494285360479405,0.005320997829916135,0.9934898903578422
2011-02-25,1,6.0130575756579954e-05,0.0001346880947370498,-0.005109638170434581,0.005935884483903618,0.9928741057459844
2011-03-01,-1,-0.0006981877514582056,-0.0004761124508783391,-0.002495795175739494,0.005277197734680502,0.9933991174765336
2011-03-03,-1,-0.00013806408632461344,-8.029043827991746e-06,-0.0027862984605746587,0.005277197734680502,0.9933884069245409
2011-03-07,-1,-0.0005337114130322822,-0.00035039670970683063,-0.002143969497897965,0.0067529256527361975,0.9932905864037397
2011-03-09,1,0.0004455028508583373,0.000494571376602258,-0.0024092171751229053,0.0047339096980066634,0.9936595196263321
2011-03-11,1,0.0005035313936040517,0.0005272061227998885,-0.003087137245173414,0.0047339096980066634,0.9935769225393942
2011-03-15,-1,-0.00021441395418709576,-0.00011338059194704271,-0.001956429842323383,0.00679108049020069,0.9940586640495266
2011-03-17,-1,-0.0006812310665926393,-0.0005138661500524845,-0.001956429842323383,0.00679108049020069,0.9937260741331504
2011-03-21,1,0.0004318852243955652,0.00046867642457783525,-0.0024092171751229053,0.0047339096980066634,0.9945542377155631
2011-03-23,0,-4.9981410007690554e-05,7.753873414250725e-05,-0.0024092171751229053,0.0047339096980066634,0.9945969190510462
2011-03-25,1,0.0015453189305053862,0.0016927536499657873,-0.003960068414503632,0.004105546567092907,0.9947664080507104
2011-03-29,1,0.0015736973868479356,0.0017537255992552175,-0.003960068414503632,0.006240078887136912,0.9944751378456302
2011-03-31,1,0.0012551908728613828,0.0013594236549135954,-0.003087137245173414,0.006782349001070161,0.9934119583697809
2011-04-04,1,0.0012899897099806835,0.0013753978617181786,-0.0025245182784496677,0.006782349001070161,0.9937803816514806
2011-04-06,1,0.0012488488052737861,0.0013184630706003404,-0.003980473785758213,0.006782349001070161,0.993317322360496
2011-04-08,1,0.001243955106696046,0.0013382484014156358,-0.002787431848135487,0.006782349001070161,0.9935278975300331
2011-04-12,1,0.0014173360495746863,0.0015083859317268997,-0.004828341922749554,0.005819103692664593,0.9936401635444752
2011-04-14,1,0.0013811474509519556,0.0014921393550576779,-0.004828341922749554,0.006782349001070161,0.992733747450515
2011-04-18,1,0.0008045012588979386,0.0008080849403087304,-0.005155768375307487,0.006782349001070161,0.9925482290876392
2011-04-20,1,0.000527852241851334,0.0005716627811585817,-0.005155768375307487,0.008036602178797295,0.9922224453823895
2011-04-25,-1,-0.00045208118214968293,-0.00027246226314314086,-0.004161583092564184,0.008036602178797295,0.9924553913653548
2011-04-27,1,0.00041668822389202104,0.00047052943725429063,-0.0054820057613957475,0.006237188085240305,0.9926267932387677
2011-04-29,1,0.0016248613806222891,0.0017167239273647853,-0.0054820057613957475,0.003964381162430945,0.994210321062006
2011-05-03,1,0.001893664919673509,0.0020386338455714633,-0.0056781561618897145,0.004928272167159546,0.992825024065223
2011-05-05,1,0.0017468681955966684,0.0018405190273226273,-0.006289165257135197,0.003964381162430945,0.9920383810164762
2011-05-09,1,0.002154137519978201,0.002359535121358197,-0.006530001086686342,0.00402546612111183,0.9916335909321224
2011-05-11,1,0.0021474557966896,0.0023615112769133214,-0.006530001086686342,0.004032949161525699,0.991658273764806
2011-05-13,1,0.0024836754094531674,0.0027050330783927982,-0.006155005856762817,0.004032949161525699,0.9926359137252043
2011-05-17,1,0.0025043336712458086,0.002754201009869822,-0.006155005856762817,0.005405206165358138,0.991967260119134
2011-05-19,1,0.0026235475513801242,0.002867821648543203,-0.006155005856762817,0.008028288508022589,0.9914434586897424
2011-05-23,1,0.002335983252541485,0.0025451255293437646,-0.006155005856762817,0.00972590271806555,0.9913419406297025
2011-05-25,1,0.001996033839311874,0.0021518466478601126,-0.007737354267805719,0.00972590271806555,0.9903372964089594
2011-05-27,1,0.0022727899191040918,0.002464935086344993,-0.008949696911844468,0.00972590271806555,0.9898333114385578
2011-06-01,1,0.0023017204579178774,0.002481327939200037,-0.008949696911844468,0.00972590271806555,0.9906817358488728
2011-06-03,1,0.0006471565696925531,0.000707837347337963,-0.005124238327434395,0.010606629332567178,0.9913723003514893
2011-06-07,1,0.0005763324580837031,0.000632023750693832,-0.004909922014052395,0.010606629332567178,0.9913387397079527
2011-06-09,1,0.0009596364321868108,0.0009736335079910146,-0.004909922014052395,0.009763723128598873,0.9916020159183863
2011-06-13,1,0.001208260627172066,0.0012336180574872954,-0.004425874807409282,0.009763723128598873,0.9918539603097019
2011-06-15,1,0.00117552780182997,0.001197618813015668,-0.004425874807409282,0.00815445877981071,0.9924523149903398
2011-06-17,1,0.002063487210404975,0.002233760136279485,-0.00632885405050526,0.005681883192147388,0.9917743023177327
2011-06-21,1,0.002315922330050783,0.002469012732481725,-0.00632885405050526,0.005256657603586892,0.9922372162500908
2011-06-23,1,0.0010948108256518176,0.0011279776186278177,-0.004425874807409282,0.005256657603586892,0.9930444160404823
2011-06-27,1,0.00046763900165150386,0.0005768952051957128,-0.004425874807409282,0.005256657603586892,0.9931162833138378
2011-06-29,1,0.001001840179016976,0.0010467867580088775,-0.007683703356546541,0.004976577407296175,0.9924992363580138
2011-07-01,1,0.0021059302501495797,0.0022486432007968148,-0.007683703356546541,0.001968556175664073,0.9922641580846637
2011-07-06,1,0.0017205070485271762,0.0017857965253899,-0.007683703356546541,0.001968556175664073,0.9922493145042661
2011-07-08,1,0.00195551243098259,0.0020745460870991647,-0.009393308629025434,0.0021927878490083357,0.9905923401313386
2011-07-12,1,0.0014750163809395711,0.0015122720656908714,-0.010055031548593833,0.005232157547556927,0.9901426473619201
2011-07-14,1,0.0011857218246711623,0.0012238759891428446,-0.012470972512167099,0.006027210298384082,0.9865932047260576
2011-07-18,0,0.0,0.0,-0.01106656975022341,0.0067903581283351765,0.9872005664772093
2011-07-20,0,0.0,0.0,-0.01106656975022341,0.0067903581283351765,0.987442696083841
2011-07-22,1,0.000715425497090122,0.0007510597675116259,-0.010868763745464603,0.0067903581283351765,0.9875694076552017
2011-07-26,0,0.0,0.0,-0.009030099362594263,0.009479237410850733,0.9870679857717941
2011-07-28,0,0.0,0.0,-0.005542015282289382,0.009479237410850733,0.9877875474775855
2011-08-01,-1,-0.0006346900073673249,-0.0005495628832268003,-0.0052224678862848005,0.012024309034218575,0.9865647978629535
2011-08-03,-1,-0.0017068455939130303,-0.0013575707687838764,-0.005713983526342578,0.012024309034218575,0.9861854954898112
2011-08-05,-1,-0.0025928359554103367,-0.0020803454286288893,-0.005713983526342578,0.010935091973945057,0.9871630718547
2011-08-09,0,0.0,0.0,-0.0018721981484089282,0.012024309034218575,0.9869479820126751
2011-08-11,0,0.0,0.0,-0.005713983526342578,0.010935091973945057,0.989679587605036
2011-08-15,-1,-0.001205740637473204,-0.0009295515438801753,-0.009028601122537814,0.010118333300003578,0.9892295066961077
2011-08-17,0,0.0,0.0,-0.009028601122537814,0.01350815867164437,0.987772916345853
2011-08-19,0,0.0,0.0,-0.005713983526342578,0.015929794408902583,0.9876391291144329
2011-08-23,0,0.0,0.0,-0.009028601122537814,0.012206151246477347,0.9864021224157877
2011-08-25,-1,-0.0003694795327876037,-0.00021105673278980225,-0.014130184875826107,0.015289552180295537,0.9846351057235351
2011-08-29,0,0.0,0.0,-0.014130184875826107,0.015289552180295537,0.9850310723940983
2011-08-31,1,0.0008955966645226794,0.0009033009331558487,-0.014865809106567688,0.015289552180295537,0.9842621990845772
2011-09-02,1,0.000510284036553041,0.000523007716898561,-0.014130184875826107,0.015289552180295537,0.9843360971020728
2011-09-07,1,0.0015088313455434085,0.0016051534052639138,-0.014130184875826107,0.012817785810229444,0.9855968679479996
2011-09-09,1,0.00015658227113037195,0.0002447700204287396,-0.005614942367440797,0.012817785810229444,0.9865426729781196
2011-09-13,1,0.000246410105463607,0.0003283610032627216,-0.005614942367440797,0.012817785810229444,0.9867555211418269
2011-09-15,0,0.0,0.0,-0.005614942367440797,0.01027555071879019,0.9876363909767393
2011-09-19,1,0.001407048253979227,0.0014517032972184327,-0.010991366727768254,0.01027555071879019,0.9874133475972826
2011-09-21,1,0.0008115179825482315,0.000855241378690628,-0.005614942367440797,0.012535868477365594,0.9888641149751287
2011-09-23,1,0.0004569503167425894,0.00045997526966510736,-0.004732540198013934,0.012535868477365594,0.9894930301031462
2011-09-27,1,0.0012306221103974499,0.001337542904138874,-0.010655907687727329,0.01027555071879019,0.9885662854015139
2011-09-29,1,0.0006352398455949789,0.0006630903654833578,-0.006957446178320264,0.01027555071879019,0.9895610320271788
2011-10-03,0,0.0,0.0,-0.006885811790781105,0.01027555071879019,0.9896481219412229
2011-10-05,0,0.0,0.0,-0.010441004525109853,0.008951389003318993,0.9889943607962448
2011-10-07,1,0.0008019811864209058,0.0008942144728405666,-0.010441004525109853,0.008951389003318993,0.9887937221071326
2011-10-11,0,0.0,0.0,-0.006885811790781105,0.008951389003318993,0.98961083298738
2011-10-13,1,0.0015623376106795972,0.0017162007924733018,-0.010441004525109853,0.008099047195747666,0.9885845887235727
2011-10-17,1,0.0007884759919090369,0.0008312031023701686,-0.006885811790781105,0.008099047195747666,0.9891539322595887
2011-10-19,1,0.0012418880994669566,0.0013555645613113876,-0.006885811790781105,0.006919067674656598,0.9898207059010565
2011-10-21,0,0.0,0.0,-0.007406230709758542,0.006504579697389462,0.9907694316863547
2011-10-25,0,0.0,0.0,-0.006065874104274694,0.006919067674656598,0.9917741150007181
2011-10-27,0,0.0,0.0,-0.007406230709758542,0.006504579697389462,0.9914082027890573
2011-10-31,0,0.0,0.0,-0.006065874104274694,0.008090591189778819,0.9902578806940063
2011-11-02,0,0.0,0.0,-0.006065874104274694,0.009316915110756562,0.9898498325472016
2011-11-04,0,0.0,0.0,-0.006065874104274694,0.009316915110756562,0.9902592628126375
2011-11-08,1,0.0006388523466789925,0.000690340739323943,-0.006065874104274694,0.008090591189778819,0.9908227338471397
2011-11-10,1,0.00037295172128366604,0.00041313052508727655,-0.006065874104274694,0.007640066706815849,0.9917816409832881
2011-11-14,1,6.817016261959877e-07,5.934290615937932e-05,-0.006015451869660224,0.00667813270406592,0.9921596306279076
2011-11-16,-1,-0.0002676561396155157,-0.0001662966128815878,-0.006015451869660224,0.007640066706815849,0.9913991705774476
2011-11-18,1,2.4894744457469028e-05,7.162213066574992e-05,-0.006104999468552466,0.007640066706815849,0.9916628599895884
2011-11-22,1,0.00013263102094523936,0.0001370776760696014,-0.004702300575224869,0.014627926685670159,0.9910803106121258
2011-11-25,-1,-0.0003081143608498233,-0.00025119345606931266,-0.004702300575224869,0.014627926685670159,0.991467576634986
2011-11-29,1,0.0006809415010323587,0.0007428223756520163,-0.005829073415690334,0.007306771758822241,0.992765654740934
2011-12-01,1,0.0006294811781678563,0.000671885671679828,-0.005829073415690334,0.00578548927726455,0.9937949475253618
2011-12-05,1,0.0006225814382663727,0.0006431388494377206,-0.006151359698753748,0.00578548927726455,0.9928683677740756
2011-12-07,0,0.0,0.0,-0.006151359698753748,0.0033352136753804712,0.9929495155189483
2011-12-09,0,0.0,0.0,-0.005829073415690334,0.0033352136753804712,0.9931577254512146
2011-12-13,0,0.0,0.0,-0.006151359698753748,0.0033352136753804712,0.9930377686946839
2011-12-15,0,0.0,0.0,-0.006151359698753748,0.0033352136753804712,0.993268270921532
2011-12-19,1,0.00012999357489815167,0.00019841319350795308,-0.005458452254477983,0.005579044083162718,0.9931521730866778
2011-12-21,1,0.0007981513495471644,0.000808372304995506,-0.006671034611278041,0.0010103458033915544,0.9935867740107064
2011-12-23,1,0.0007906220360591829,0.0007994234460129632,-0.006671034611278041,0.0010103458033915544,0.9935181985484467
2011-12-28,1,0.00028107607481527437,0.00037540664990626417,-0.007534887685269613,0.0016599862718232362,0.9926627036760641
2011-12-30,-1,-0.0002229473327811372,-4.3590772474138726e-05,-0.00777024707506787,0.0019548952743104367,0.9924296451415574
2012-01-04,-1,-0.0008469838530226441,-0.0006088126790638606,-0.0055775947113621115,0.005005460193274771,0.9931543436856387
2012-01-06,-1,-0.0007847128546875242,-0.0005903131404977668,-0.004593232443651116,0.006635707980868027,0.992983183121454
2012-01-10,-1,-0.0009953238497476943,-0.000776360899697652,-0.004593232443651116,0.006635707980868027,0.9929532761385292
2012-01-12,-1,-0.0016556482399828082,-0.0013294530616844832,-0.004431042237283262,0.006635707980868027,0.9929972564873979
2012-01-17,-1,-0.0008815955189182058,-0.0006851355391610974,-0.004431042237283262,0.005482356314467623,0.9932821369849847
2012-01-19,-1,-0.0008913709165464666,-0.0006885803936991201,-0.0040654318620868156,0.005654293204711331,0.9929478557109297
2012-01-23,-1,-0.0008394223710087014,-0.0007003496086411358,-0.0016768626996441676,0.005654293204711331,0.9936140361933444
2012-01-25,-1,-0.0004708375578764158,-0.00037443312826626173,-0.002505909644322232,0.004678321934555872,0.9941831542466971
2012-01-27,-1,-0.00032759228409890594,-0.00023120600151691964,-0.002505909644322232,0.003595887957461908,0.9953132709701429
2012-01-31,1,0.0002123357227078523,0.0002265833694511199,-0.001189355732388234,0.003595887957461908,0.9960767935457973
2012-02-02,-1,-0.000396049936987149,-0.0002848110813411122,-0.001189355732388234,0.0034084249073819206,0.9960016862954426
2012-02-06,-1,-0.00020684128665411321,-0.00012554874520041633,-0.00075375034003913,0.0031998525437957935,0.9964503902595566
2012-02-08,1,0.0004168758399304502,0.00046438842104311784,-0.0011784163835031295,0.0033202123615034777,0.995898557049662
2012-02-10,1,0.0004855819678165961,0.0005626303136454973,-0.0004285961968740232,0.004115932784315911,0.9961633526823146
2012-02-14,0,-1.8821379350499176e-06,4.317145978501109e-05,-0.0007726005688491275,0.004157198450577099,0.9959661819154865
2012-02-16,1,0.00019310158371340565,0.00022912827503921305,-0.0012459064188182268,0.0030705681978765455,0.9962755579436824
2012-02-21,1,0.0007620435470255967,0.0008630725636182062,-0.0012459064188182268,0.004157198450577099,0.9960629052718963
2012-02-23,1,0.0005410079383365535,0.0005842986183060863,-0.0004510928753123889,0.0053493235431331075,0.9959603872350524
2012-02-27,1,1.786377853998537e-06,4.6517920026565717e-05,-0.0002903826113567619,0.005607041047525255,0.9956888955907978
2012-02-29,1,0.00034385078699590956,0.0003622682825794217,-0.0016575337682663946,0.0053493235431331075,0.9957726127201535
2012-03-02,1,0.0003817692071211064,0.0004008480603423963,-0.0008883018045923425,0.0062549035411653,0.9952922844329041
2012-03-06,1,0.00038319352876267805,0.00039893696979880275,-0.0013080190047947576,0.006684863297095232,0.9949357957773558
2012-03-08,1,0.0006732103219338712,0.0007419797986007809,-0.0013080190047947576,0.0062549035411653,0.9955431831710103
2012-03-12,0,0.0,0.0,-0.0036156270239092315,0.0062549035411653,0.9946022142246145
2012-03-14,0,0.0,0.0,-0.0036156270239092315,0.0062549035411653,0.9943850417772773
2012-03-16,0,0.0,0.0,-0.002653178205013035,0.0062549035411653,0.9945011146705617
2012-03-20,0,0.0,0.0,-0.002653178205013035,0.006684863297095232,0.99443794124127
2012-03-22,0,0.0,0.0,-0.0033193781135356652,0.006844845737601177,0.9942501737932483
2012-03-26,0,0.0,0.0,-0.003403676282009405,0.006844845737601177,0.993934064536487
2012-03-28,0,0.0,0.0,-0.0025825279577130927,0.007163709797467596,0.9936905725659916
2012-03-30,0,0.0,0.0,-0.003403676282009405,0.006844845737601177,0.9937540632561151
2012-04-03,0,0.0,0.0,-0.003403676282009405,0.007163709797467596,0.9934900894837522
2012-04-05,0,0.0,0.0,-0.004840804155695913,0.007163709797467596,0.9932359159053673
2012-04-10,0,0.0,0.0,-0.00333340842041814,0.007163709797467596,0.9937994019569419
2012-04-12,0,0.0,0.0,-0.00333340842041814,0.0060971254451916935,0.994313559101226
2012-04-16,0,0.0,0.0,-0.003455848687918001,0.0060971254451916935,0.9941485792325031
2012-04-18,0,0.0,0.0,-0.003455848687918001,0.0060971254451916935,0.9935094488106304
2012-04-20,0,0.0,0.0,-0.00531285345627092,0.005707431003606154,0.9927823089955373
2012-04-24,0,0.0,0.0,-0.0037447998498237253,0.004979012672417673,0.9935197028827786
2012-04-26,0,0.0,0.0,-0.005178976796428933,0.004979012672417673,0.9933816127732479
2012-04-30,0,0.0,0.0,-0.0037447998498237253,0.004972943810159591,0.9937593822379444
2012-05-02,0,0.0,0.0,-0.005341277539699558,0.0032636910458930684,0.9939339027558992
2012-05-04,0,0.0,0.0,-0.005341277539699558,0.004972943810159591,0.9932685936562221
2012-05-08,1,0.0010266167480241489,0.0011127452832544126,-0.005341277539699558,0.005689224416831907,0.9931420410826809
2012-05-10,0,0.0,0.0,-0.005341277539699558,0.0060389152995047905,0.9925360793137136
2012-05-14,0,0.0,0.0,-0.005341277539699558,0.0060389152995047905,0.9927349041061401
2012-05-16,0,0.0,0.0,-0.005341277539699558,0.0060389152995047905,0.9932574186664141
2012-05-18,0,0.0,0.0,-0.0021799370967190055,0.0060389152995047905,0.9943275653481073
2012-05-22,0,0.0,0.0,-0.004062914279143544,0.0060389152995047905,0.9940695347117433
2012-05-24,0,0.0,0.0,-0.004062914279143544,0.004810697611825656,0.9939882242182142
2012-05-29,0,0.0,0.0,-0.005341277539699558,0.005181621602662297,0.9937579560296719
2012-05-31,0,0.0,0.0,-0.0022575054501721165,0.007327113172732188,0.9933573314541205
2012-06-04,0,0.0,0.0,-0.0022575054501721165,0.008659229416248844,0.9934228474446262
2012-06-06,-1,-0.00042879977853433466,-0.00029799098265053715,-0.0022575054501721165,0.008035240271410862,0.9934828059380924
2012-06-08,1,0.0003443507774542194,0.00040802884118487583,-0.003489827249325078,0.005584021588939364,0.9944125549458132
2012-06-12,1,0.00024274050553009635,0.00031761449145812476,-0.0034994782302963092,0.005584021588939364,0.994287124668864
2012-06-14,0,0.0,0.0,-0.0034994782302963092,0.005584021588939364,0.9938602802656727
2012-06-18,0,0.0,0.0,-0.0036419602083244654,0.007640272803068834,0.993146972180118
2012-06-20,0,0.0,0.0,-0.0034432609984585286,0.007640272803068834,0.9933884591220947
2012-06-22,-1,-0.0001339399165555615,-2.8965601118353653e-05,-0.003502261455724816,0.007640272803068834,0.9929627823924284
2012-06-26,-1,-0.00012941079344674613,-2.3886402204560382e-05,-0.003502261455724816,0.0055129822316674374,0.9932331661652997
2012-06-28,1,0.0003375164298453472,0.0003670267489080066,-0.003502261455724816,0.007461970910265297,0.9917652413838569
2012-07-02,1,0.0006719506792334767,0.0006799517033132481,-0.0034432609984585286,0.004278694935413823,0.9927350999548545
2012-07-05,1,0.0007502869529979433,0.0007565370130215834,-0.0068043058134032485,0.0029068697783293787,0.9921391678600691
2012-07-09,1,0.0006201108791544476,0.000624525248987351,-0.0068043058134032485,0.004278694935413823,0.9918489622259209
2012-07-11,0,0.0,0.0,-0.007893164247931423,0.004645451493162508,0.9912484644347495
2012-07-13,0,0.0,0.0,-0.007893164247931423,0.003789387568806176,0.9918842287221821
2012-07-17,0,0.0,0.0,-0.0068043058134032485,0.0033517731892164053,0.9926209251890511
2012-07-19,0,0.0,0.0,-0.0068043058134032485,0.0032756170176987667,0.9926447564685338
2012-07-23,0,0.0,0.0,-0.00238457334595052,0.003410014663417119,0.9937048766164226
2012-07-25,0,0.0,0.0,-0.0025296526436215136,0.003410014663417119,0.9938382154477846
2012-07-27,0,0.0,0.0,-0.003060346896337605,0.0031727786565161095,0.9953928632489865
2012-07-31,0,0.0,0.0,-0.003060346896337605,0.003410014663417119,0.9953106690900893
2012-08-02,0,0.0,0.0,-0.0025296526436215136,0.003410014663417119,0.9959073803638191
2012-08-06,0,0.0,0.0,-0.0025296526436215136,0.003789387568806176,0.9958127867177755
2012-08-08,0,0.0,0.0,-0.0025296526436215136,0.004182833623154565,0.995888648005452
2012-08-10,-1,-0.00036771911330375545,-0.00027450296735670633,-0.0037978543026785123,0.0036617450740833372,0.9944942098035887
2012-08-14,-1,-0.00038040832070396934,-0.00028686380905045764,-0.00593500746249292,0.0036617450740833372,0.9941562949426918
2012-08-16,-1,-0.00020712738899799317,-0.00014269665767411812,-0.006376551843271142,0.0048436996161801485,0.9930533753576333
2012-08-20,-1,-0.00048369707374604324,-0.0003705832845505132,-0.006376551843271142,0.008274075094702352,0.9922635989436773
2012-08-22,-1,-0.00022782399455772078,-0.00016844504137790702,-0.006376551843271142,0.008514527139924259,0.9920117094359608
2012-08-24,-1,-5.862474792457682e-05,-2.0452795414464478e-05,-0.006047882311309547,0.008258948569250928,0.9925138293987277
2012-08-28,1,0.00011997723485362988,0.0001358538146720294,-0.006047882311309547,0.008258948569250928,0.9925966377644384
2012-08-30,-1,-0.0005892922734303717,-0.00045442374770139095,-0.003712651229280231,0.008258948569250928,0.9926458379283178
2012-09-04,1,0.00019360319140403459,0.00021243528856278133,-0.003712651229280231,0.007430797921093927,0.9928343817708485
2012-09-06,1,0.00013379827350165925,0.0001622243351722235,-0.00250398103634384,0.0060108121037511526,0.9934024953977909
2012-09-10,-1,-0.0012103650472616734,-0.001037188092001833,-0.0013945041813590217,0.0060108121037511526,0.9949372152742755
2012-09-12,-1,-0.0011705456659606272,-0.0010120792055878475,-0.00115173755454353,0.0060108121037511526,0.9947411218003973
2012-09-14,-1,-0.0010692055217871145,-0.0009127250958785474,-0.00115173755454353,0.0043904326699062005,0.9958638773835784
2012-09-18,-1,-9.054356838701378e-05,-5.726757566085375e-05,-0.00115173755454353,0.0038816313301887886,0.9968712663105279
2012-09-20,1,3.324148293655574e-05,5.6617800081918717e-05,-0.0007888956441833711,0.0038816313301887886,0.9964440499499366
2012-09-24,1,0.0002025641692477404,0.000225846552122594,-0.0007888956441833711,0.003362976998392566,0.9954711073210276
2012-09-26,-1,-0.00028038486469491534,-0.00021388308426119275,-0.0007888956441833711,0.003362976998392566,0.9950175871563912
2012-09-28,-1,-0.00012338414288262602,-7.868991986450795e-05,-0.002716679696927333,0.002604444454029295,0.9941447510125713
2012-10-02,1,0.0001694710716286881,0.00017384101181393776,-0.002716679696927333,0.003362976998392566,0.993609598033132
2012-10-04,1,0.00024373878980798325,0.0002622913246286897,-0.007383065467053668,0.002718631056988324,0.9933036569816991
2012-10-08,1,0.000582227803632006,0.0006594348996684684,-0.007383065467053668,0.0033419296970928943,0.9928378699556607
2012-10-10,-1,-0.00017226464866964682,-0.0001054357186536276,-0.007377668235378853,0.0033419296970928943,0.9929052935648055
2012-10-12,0,-3.354376163731623e-05,1.5768581971608317e-05,-0.007377668235378853,0.003981145677722519,0.9928927296746012
2012-10-16,1,0.0001838332544237072,0.00019766229872482594,-0.007537604420303143,0.002903384320032795,0.9927061926328071
2012-10-18,1,0.0007958582368727628,0.0008439084064785599,-0.007537604420303143,0.003981145677722519,0.992049119769714
2012-10-22,-1,-0.00034077944268961433,-0.00022978710037771375,-0.007032238812961312,0.003981145677722519,0.9934714140618887
2012-10-24,-1,-0.0007936088077250118,-0.0006175736869097348,-0.006501439654625204,0.005344511808744399,0.9933904026833185
2012-10-26,-1,-0.0014774653354994445,-0.0012396097138610497,-0.0019512386659142097,0.005344511808744399,0.9942635084616733
2012-11-01,-1,-0.00020511170505357684,-0.0001517486095850952,-0.0019512386659142097,0.003981145677722519,0.9950572682079181
2012-11-05,-1,-0.0006021420406643094,-0.0004886051831611769,-0.002474478179359484,0.003981145677722519,0.9952127060728077
2012-11-07,-1,-0.0005752408410172163,-0.0004897959628265443,-0.003524203741901014,0.002798981256844609,0.9953307202537687
2012-11-09,-1,-0.0007123738923116954,-0.0005727351245168711,-0.003524203741901014,0.004311159967184274,0.9942945088538732
2012-11-13,-1,-0.0008027046005407272,-0.000676460989629339,-0.004013686609909183,0.005954176293076471,0.9936350619860934
2012-11-15,-1,-0.0010923116730867702,-0.0009194466736388108,-0.004013686609909183,0.005954176293076471,0.9936954184358419
2012-11-19,1,1.2870242194776269e-05,5.022980753803831e-05,-0.004013686609909183,0.0037560509176537827,0.9943422539418577
2012-11-21,1,0.0002732584417417387,0.0003065874922683402,-0.0048445223930495655,0.0037560509176537827,0.9936616774998132
2012-11-26,1,0.000700973709136202,0.0008043821190067753,-0.00554812261733827,0.002613944907001112,0.9938014838307018
2012-11-28,1,0.000784554593284252,0.0009134699923677792,-0.00554812261733827,0.0037560509176537827,0.9935169367674694
2012-11-30,1,0.0008884838769608372,0.001025026463717367,-0.006831204055543834,0.0038233626056027826,0.9929141502620603
2012-12-04,1,0.00046617832385421063,0.0005377435700449191,-0.006831204055543834,0.004941403152652226,0.9925906673209868
2012-12-06,1,0.0005497089367208286,0.0006685089345074933,-0.007880735709767234,0.006482586658186844,0.991678880609018
2012-12-10,1,0.0004401655410961785,0.0005310907626671426,-0.006831204055543834,0.004941403152652226,0.9929892660512988
2012-12-12,1,0.0005311787166649279,0.0006437887971110275,-0.00405803842806057,0.004941403152652226,0.9931772999717438
2012-12-14,-1,-0.00012974515264249122,-0.00011178356727395848,-0.002904336396218043,0.005972037503398104,0.9932442938852629
2012-12-18,1,0.00023637186823781775,0.0002501092646159201,-0.002904336396218043,0.005972037503398104,0.9933532260828881
2012-12-20,-1,-0.00013211673961765664,-0.00012112697860150999,-0.002904336396218043,0.005972037503398104,0.9937362167126963
2012-12-24,-1,-0.00017529887738790127,-0.00016556529551810462,-0.002038706837291256,0.008088607788670795,0.9934478356212207
2012-12-27,-1,-0.0005068036778477296,-0.000424961720700055,-0.0017670873826038224,0.008088607788670795,0.9935983069863185
2012-12-31,-1,-0.0005182555569773193,-0.00045372910743713345,-0.0008458751669295956,0.008088607788670795,0.9940296867036661
2013-01-03,-1,-3.901826144604591e-05,-2.195807096929163e-05,-0.0017670873826038224,0.008088607788670795,0.9925065654756734
2013-01-07,-1,-0.0003587928983221641,-0.0003076311884626234,-0.0017670873826038224,0.0071357529015103945,0.9930084214544643
2013-01-09,-1,-0.00027672095087574765,-0.00023090669237217103,-0.0008458751669295956,0.0071357529015103945,0.9928740988506208
2013-01-11,-1,-3.664059286181765e-05,-2.5690527378609512e-05,-0.0017811821025366722,0.006760304572117175,0.9928217434519084
2013-01-15,1,0.00015826942182228007,0.00016702512650673145,-0.0019366576840189212,0.004274830966501469,0.9931421217671003
2013-01-17,1,0.00031929310195358225,0.00034451333799736427,-0.0019366576840189212,0.004667340398489565,0.9927503995947894
2013-01-22,1,0.00042266057808444153,0.0004456483900327257,-0.0015020601453059478,0.006760304572117175,0.9921478234932286
2013-01-24,1,0.0007931454310319549,0.0008721181334326397,-0.0015020601453059478,0.007120140277842229,0.9920339715515107
2013-01-28,1,0.0006647392774748604,0.0007084518021895881,-0.0015020601453059478,0.007120140277842229,0.9920652609192171
2013-01-30,1,0.0010409535930095372,0.0011609984654463459,-0.0015020601453059478,0.006980743300233032,0.9922608847780673
2013-02-01,1,0.0018512863766471798,0.002077167420368734,-0.0015020601453059478,0.006476433549329623,0.9946148540807233
2013-02-05,1,0.0012717606975697936,0.0013671944772332782,-0.0015020601453059478,0.006691919254585449,0.9948035367761412
2013-02-07,1,0.0013215333015162446,0.0014161434746212866,-0.0015020601453059478,0.006691919254585449,0.9948867407766946
2013-02-11,1,0.000870200240633606,0.0009177350832523769,-0.0010048920479878319,0.006691919254585449,0.9954262906493415
2013-02-13,1,0.0010464933885768887,0.0011635701687490328,-0.0010054630761671172,0.006691919254585449,0.9951152797927698
2013-02-15,1,0.0017897374766434634,0.002010718560936502,-0.001742024979083253,0.0052205743086494345,0.9950553043971204
2013-02-20,1,0.0021636724864817097,0.0024317732218405406,-0.001742024979083253,0.0052205743086494345,0.9949263953725053
2013-02-22,1,0.002485221874942806,0.002785682003642842,-0.0028751579974912495,0.003351573688700424,0.9947108361123264
2013-02-26,1,0.0024710718464878967,0.002772029407064785,-0.0028751579974912495,0.005160262504519508,0.9937467962456202
2013-02-28,1,0.0024105912385634313,0.002710032804337634,-0.003587319083083785,0.006216363015745017,0.9932091638112007
2013-03-04,1,0.002556783336424461,0.00288057936531276,-0.003587319083083785,0.006510983842195671,0.9929949526373124
2013-03-06,1,0.002536371770248349,0.0028586187512311305,-0.0050402371895885215,0.003683503257732285,0.9924939851304582
2013-03-08,1,0.002477743261504392,0.0027731196827126678,-0.0050402371895885215,0.006758916384939924,0.9920526698074673
2013-03-12,1,0.00218132061633874,0.002431515225005722,-0.004272952355128394,0.008600466856332738,0.9920474351534077
2013-03-14,1,0.0018890120401375786,0.0021089757422659006,-0.003964266392550557,0.008600466856332738,0.9923838033051234
2013-03-18,1,0.001927380436752263,0.002179596382884009,-0.003964266392550557,0.009051901829967093,0.9916208421428683
2013-03-20,1,0.0020555698518779962,0.0022858857914833486,-0.004272952355128394,0.008600466856332738,0.9915073058982412
2013-03-22,1,0.0017275193475930753,0.001891334488614275,-0.003964266392550557,0.008949230015206058,0.9916117938028939
2013-03-26,1,0.0019341633957766862,0.0020834440564266783,-0.004272952355128394,0.008600466856332738,0.9910181230357296
2013-03-28,1,0.0019440345329977565,0.002133767905974775,-0.003964266392550557,0.008600466856332738,0.9910314038786798
2013-04-02,1,0.001942304254417404,0.0021147582987795744,-0.003964266392550557,0.008495149789478572,0.9915119249627893
2013-04-04,1,0.0013759000798199755,0.0014631632131536063,-0.003689265513208027,0.008600466856332738,0.9915935039205322
2013-04-08,1,0.0013030963234558495,0.001362972604327296,-0.003964266392550557,0.008528104740896887,0.9915867964393308
2013-04-10,1,0.0013689584948102286,0.001437764726977357,-0.003689265513208027,0.006699860983591419,0.992198171237405
2013-04-12,1,0.001146634573745518,0.0011728457044645417,-0.0029537499124219642,0.006699860983591419,0.9922324035741827
2013-04-16,1,0.0016510092828894477,0.0017854109459478015,-0.002380386331001373,0.006699860983591419,0.993074632206542
2013-04-18,1,0.0013650351827864137,0.0014499055477200803,-0.0003139630439906735,0.00877800304551526,0.9935005998789397
2013-04-22,1,0.0017301854284744534,0.0018754701466535979,-0.0029537499124219642,0.005425013086028835,0.9933422366512468
2013-04-24,1,0.001007532443598892,0.001050267050592714,-0.0027437322111697124,0.003711534963387818,0.9949073502382525
2013-04-26,1,0.0012747372266205378,0.0013582328821078237,-0.0027437322111697124,0.0033298942042942117,0.9952334468316582
2013-04-30,1,0.0007333938247436956,0.000783390107874519,-0.0034331183368496105,0.003711534963387818,0.993309243635305
2013-05-02,1,0.001267031298519097,0.0013202181744691403,-0.005879084059667527,0.0033298942042942117,0.9925461491086571
2013-05-06,1,0.0010116527902359967,0.0010211397421750995,-0.0034331183368496105,0.004459134930961688,0.9923282179869659
2013-05-08,1,0.0010432133569391283,0.0011117243814378964,-0.005879084059667527,0.004459134930961688,0.9914602197585032
2013-05-10,1,0.000714038814229102,0.0007583271142485217,-0.005879084059667527,0.005335655792300558,0.9906588026421815
2013-05-14,1,0.0014269841998607834,0.001495453501311124,-0.007335484793904241,0.003612067867508392,0.9909090422076785
2013-05-16,1,0.0012262194523383445,0.00124527548559117,-0.007335484793904241,0.0047451801517263996,0.9909336309708028
2013-05-20,1,0.0006028739274885387,0.0006719320431596331,-0.00534451771861032,0.0054081452430103745,0.9911039416539227
2013-05-22,1,0.0004990069079943036,0.0005914597136224986,-0.01000458660573715,0.0054081452430103745,0.9880258491617967
2013-05-24,1,0.0003230216887570891,0.00040907918648924025,-0.012832487338385368,0.006498568940182265,0.9871274782798073
2013-05-29,-1,-0.0003098283417749171,-0.00019162156294990756,-0.008789769245483582,0.00790346716055783,0.9883091622346954
2013-05-31,-1,-0.0011941226652538496,-0.0009382102155919604,-0.005515068009953632,0.008416487581054411,0.9893066001436068
2013-06-04,-1,-0.0005786639489346636,-0.00039781156289587106,-0.005515068009953632,0.008011653988799518,0.989543740013781
2013-06-06,-1,-0.0008351514900762695,-0.0006325651169338754,-0.00416112612255527,0.008011653988799518,0.9902627063612895
2013-06-10,-1,-0.0005946591603284164,-0.0004228072920748154,-0.003542395447661684,0.008011653988799518,0.9904201631599028
2013-06-12,-1,-0.0007978774676749579,-0.0006175884334038477,-0.0022990606530769796,0.008011653988799518,0.9902658169181926
2013-06-14,-1,-0.00048686058638431376,-0.0003346349606562061,-0.004329419169206264,0.008011653988799518,0.9905475187488471
2013-06-18,0,-5.576233566879029e-05,3.184253472975047e-05,-0.005503250594160376,0.006831695950333073,0.9909897355453627
2013-06-20,0,0.0,0.0,-0.0025312066988652368,0.0070164176526644195,0.9937180698060197
2013-06-24,0,0.0,0.0,-0.003921914313153232,0.006831695950333073,0.9947285008337927
2013-06-26,-1,-0.0018077675632521663,-0.0014990368785096652,-0.003921914313153232,0.006831695950333073,0.9942800451757521
2013-06-28,-1,-0.0017979002602469772,-0.0014810429547080022,-0.003921914313153232,0.007006019047761746,0.9940494544079408
2013-07-02,-1,-0.0014608922554386373,-0.0011928224214252745,-0.0039527066467523195,0.00592918943650496,0.9944172481935667
2013-07-05,-1,-0.0017557483582652294,-0.001426020636983324,-0.0039527066467523195,0.007006019047761746,0.9939705637928768
2013-07-09,-1,-0.0012769802405411296,-0.000994803794829885,-0.0039527066467523195,0.006080717708955936,0.9946138155724992
2013-07-11,-1,-0.0009904139589236162,-0.0007709115335678147,-0.00309272031805717,0.004275871005427145,0.9951857433851921
2013-07-15,-1,-0.0007556528895076164,-0.0005917752676874363,-0.0030601736638732058,0.0053193484554482865,0.995222704152565
2013-07-17,-1,-0.0007302144235737122,-0.0005941066595840125,-0.0030601736638732058,0.0053193484554482865,0.9950999425141424
2013-07-19,-1,-0.0004950870558195495,-0.00038383452719111547,-0.0039527066467523195,0.0031509225004137786,0.994692751365548
2013-07-23,-1,-0.0006980726956243529,-0.0005695525751518503,-0.004177256418234632,0.0031509225004137786,0.9947724977217606
2013-07-25,1,1.1801225069163018e-05,5.287894910315626e-05,-0.0054568119285613535,0.0021421900726966594,0.9951688208515941
2013-07-29,1,0.00030433976390216064,0.0003060171371167489,-0.0057990388263949805,0.0021421900726966594,0.9945475457702557
2013-07-31,1,0.00021139100662434442,0.00022073303281092398,-0.006492493162345388,0.0006151546748171148,0.9941897897217009
2013-08-02,1,0.00040782226543328306,0.00041068366698790085,-0.006492493162345388,0.0006151546748171148,0.9942196975564427
2013-08-06,1,0.0003875060824863448,0.00040688887884418097,-0.006492493162345388,0.0002302140286428316,0.9940166018198142
2013-08-08,0,-2.4444969050269863e-05,6.770290791205342e-05,-0.006492493162345388,0.0026299993484798882,0.9936675342357784
2013-08-12,1,0.0003335396676836109,0.0003535786898216705,-0.006492493162345388,0.0029994686397900798,0.993454863049177
2013-08-14,1,6.351489323615375e-05,0.00012011979171369549,-0.005868286628011709,0.006611588621994882,0.9934056735648362
2013-08-16,-1,-0.00015204972041794735,-0.00010973547239523711,-0.005420444763084527,0.008397998363771728,0.9937829087925885
2013-08-20,-1,-0.0002633259267801378,-0.00021759457949564528,-0.004888266662316317,0.009269128307451094,0.9927487733669043
2013-08-22,-1,-0.00048729369800282456,-0.0004274553446587565,-0.004888266662316317,0.009269128307451094,0.9926517470632767
2013-08-26,-1,-0.0009289666045549029,-0.0007924208517123283,-0.004873905674064174,0.008397998363771728,0.9933971651432881
2013-08-28,-1,-0.0013679287578349762,-0.0011894475291726256,-0.004145955782583296,0.009269128307451094,0.9927473403388224
2013-08-30,-1,-0.0009374714860145885,-0.0008177019439805645,-0.0054961189097212145,0.008584149243036413,0.9925096935414462
2013-09-04,-1,-0.0008833769647769308,-0.0007719850840942621,-0.00601560345982092,0.009852597830582073,0.9918814957522267
2013-09-06,-1,-0.0005873780451520346,-0.0005246209464809539,-0.00601560345982092,0.009852597830582073,0.9922229020367475
2013-09-10,-1,-0.00035749848974481354,-0.00031153689108136425,-0.00601560345982092,0.004379704745228099,0.99247234473564
2013-09-12,1,0.00030661160190166196,0.0003716597390383498,-0.00601560345982092,0.010776263033120454,0.9914130255365949
2013-09-16,1,0.0003683605192074975,0.00040227557897672063,-0.00601560345982092,0.011473311305519792,0.9914031875873102
2013-09-18,1,0.0011638760256132141,0.0013205022601978662,-0.00601560345982092,0.011473311305519792,0.9915357980517842
2013-09-20,1,0.0008019164632999641,0.0009168198065354638,-0.00601560345982092,0.01368053336312389,0.9909240095092712
2013-09-24,1,0.000666025938502185,0.0007844900680701765,-0.007902009011468725,0.015078221663172568,0.9900915230954578
2013-09-26,1,0.0008811511091464412,0.0010195172152070572,-0.006985429223528747,0.01368053336312389,0.9909778295028099
2013-09-30,1,0.0003343518393055712,0.0004054221416527131,-0.004385609389514314,0.015078221663172568,0.9906316012488444
2013-10-02,1,0.00044774121358767764,0.0005376656077346127,-0.004385609389514314,0.016321195838870765,0.990416122724391
2013-10-04,1,0.0007960480855937936,0.0009765170276105562,-0.00535045831139053,0.016321195838870765,0.9898971247319744
2013-10-08,1,0.0008322200097080252,0.0010416567596871647,-0.005915562380822156,0.016321195838870765,0.9897808763538889
2013-10-10,1,0.0016262302335326598,0.0019147821789894733,-0.006959394184104284,0.012429895714064896,0.9898936818381016
2013-10-14,1,0.001999076201643272,0.002332966132501638,-0.006959394184104284,0.011934214411578251,0.9900352460199042
2013-10-16,1,0.002317625828343093,0.002685212759210162,-0.006959394184104284,0.010007742215098491,0.9908953609006611
2013-10-18,1,0.0021747032617321087,0.0024705372415452765,-0.005915562380822156,0.009148643328929146,0.9919428046031429
2013-10-22,1,0.0019397716835252029,0.0021417486906847,-0.005915562380822156,0.008097306135642007,0.9927066152549151
2013-10-24,1,0.0019368344517790694,0.0021716065674955267,-0.003836702707599554,0.009148643328929146,0.9927008858027537
2013-10-28,1,0.002479424835547468,0.002753338318115875,-0.004916245474907701,0.006246478756213777,0.9933591315171958
2013-10-30,1,0.002841602151031109,0.0031864575625924546,-0.003599074467730738,0.005328939123225941,0.9943670673180152
2013-11-01,1,0.0026122944056938104,0.0028995833258668923,-0.003599074467730738,0.004482676753556367,0.9945957891347648
2013-11-05,1,0.002670510960981332,0.002983754196026419,-0.003599074467730738,0.0031188532407382744,0.9946387332668991
2013-11-07,1,0.0025285374869941776,0.002849302282914896,-0.003599074467730738,0.0031188532407382744,0.99487007669594
2013-11-11,1,0.0011408314965623192,0.0011466826854874767,-0.004771016686373056,0.0031188532407382744,0.99465889624664
2013-11-13,1,0.0013933094893885123,0.0014295550623218793,-0.005708055472170563,0.003024076565620672,0.9939335170044636
2013-11-15,1,0.001862226655533197,0.001985262646105481,-0.005708055472170563,0.0014176003351355159,0.9939635044191034
2013-11-19,1,0.001577197994243217,0.001666069414183715,-0.005581910335155297,0.002000199151731744,0.9934931391450266
2013-11-21,1,0.001933616655230648,0.0020805337321881463,-0.0064368559119572615,0.002000199151731744,0.9931957139193699
2013-11-25,1,0.001824798966789757,0.0019563028866588996,-0.0064368559119572615,0.0012730670474487018,0.9934705734910203
2013-11-27,1,0.001969291963717434,0.0021553657901141913,-0.0064368559119572615,0.002356998636611345,0.993371312052585
2013-12-02,1,0.0015819869152965877,0.0017101102624437453,-0.005333196899309555,0.002356998636611345,0.9938314963255015
2013-12-04,1,0.001303371924383729,0.0013860081331147594,-0.0064368559119572615,0.002356998636611345,0.9933308358565448
2013-12-06,1,0.0013765338576030087,0.0014480332150807072,-0.004068828600194831,0.0013920002090752354,0.9944085905337967
2013-12-10,1,0.0009113873428665899,0.0009361064512117183,-0.004068828600194831,0.002356998636611345,0.9937632817150474
2013-12-12,1,0.00020803991032920793,0.0002857533490967763,-0.0040199467099455,0.0013920002090752354,0.9943788311720381
2013-12-16,1,0.0006044935285677026,0.0006072571180701452,-0.0040199467099455,0.002009170672905986,0.9942028523658625
2013-12-18,1,0.000998088162742114,0.001065767617361393,-0.003599072121771707,0.002009170672905986,0.995015922622093
2013-12-20,1,0.0009124266700029414,0.0009585028878361472,-0.003599072121771707,0.0013920002090752354,0.9951040881677327
2013-12-24,1,0.0010411928106463346,0.0011230023668892658,-0.006720689472925807,0.0011651792092362018,0.9938373233854171
2013-12-27,1,0.0014654101057405221,0.001616217161586601,-0.006720689472925807,0.0009260085288642012,0.9931543484992781
2013-12-31,1,0.0011928370350652617,0.0013049723707290557,-0.009248762990953768,0.0009260085288642012,0.9923513103761289
2014-01-03,1,0.0006302618591418389,0.0006675307889045792,-0.009248762990953768,0.0009260085288642012,0.9923480701884158
2014-01-07,1,0.0005016471183723977,0.0005106722160089633,-0.009248762990953768,0.0014882399001102998,0.9923037062647118
2014-01-09,1,0.00047408164932804815,0.000505819369171525,-0.006720689472925807,0.0025997424870153837,0.9936637836004514
2014-01-13,1,4.4220507033705854e-05,0.00014139454117134318,-0.005592137671540382,0.003015507725766518,0.9928468494482522
2014-01-15,-1,-0.00026107251093305676,-0.00010456007508728661,-0.007995499262503404,0.003388198626873188,0.9923634013634284
2014-01-17,-1,-0.0005004086266120024,-0.000308303037265671,-0.007995499262503404,0.004702356902765793,0.9922258705912861
2014-01-22,-1,-0.0013786300773299578,-0.0010503624190509272,-0.007995499262503404,0.005506959083779041,0.991939450735594
2014-01-24,-1,-0.0022101700239528254,-0.0017982143023597388,-0.004682429355151762,0.0060281511903099,0.9924419586716388
2014-01-28,-1,-0.001997369883420015,-0.001609724454199377,-0.004682429355151762,0.005506959083779041,0.9931028414432795
2014-01-30,-1,-0.0028173485672437723,-0.002336020458776144,-0.004327945766391586,0.0060281511903099,0.9928744853769473
2014-02-03,-1,-0.0032849578532651827,-0.0027707017084121805,-0.002606635374522572,0.006307694310070561,0.9923460686108608
2014-02-05,-1,-0.0028732737432712735,-0.0024277726524517844,-0.004682429355151762,0.006348394452246355,0.9923720442244605
2014-02-07,-1,-0.002428657407128146,-0.002053455751203523,-0.004682429355151762,0.006348394452246355,0.992837360859291
2014-02-11,-1,-0.00119220407309398,-0.000992978871104999,-0.004682429355151762,0.0060281511903099,0.994234175450543
2014-02-13,-1,-0.0015041735940200212,-0.0012482884339281145,-0.002606635374522572,0.006037343951953395,0.994258289429384
2014-02-18,-1,-0.0017150289252978886,-0.0014167523718348705,-0.0014337624842617907,0.006348394452246355,0.9941599241246172
2014-02-20,-1,-0.0019098842319052551,-0.0015999755852193539,-0.0014337624842617907,0.006348394452246355,0.994131583740161
2014-02-24,-1,-0.0022713898167935785,-0.0018878833562550735,-0.0019610537815319307,0.004451837088124217,0.9945006009301679
2014-02-26,-1,-0.0022620153904331086,-0.0018824848473321246,-0.0014615323528767395,0.007409519511610838,0.9937573635955341
2014-02-28,-1,-0.0018711886549914836,-0.0015321545069773247,-0.002124186948607094,0.006607275058638146,0.9946413984461785
2014-03-04,-1,-0.0019562192984599967,-0.0015952579826939688,-0.002124186948607094,0.006607275058638146,0.9946401280587815
2014-03-06,-1,-0.0013632987593375102,-0.0011216561905563467,-0.0014615323528767395,0.004671352122780088,0.9952409908503563
2014-03-10,-1,-0.001135100268452414,-0.000939039330794848,-0.001340602149715482,0.007409519511610838,0.9948551333565676
2014-03-12,-1,-0.0008476403508825272,-0.0007031424395702326,-0.0012111246022867253,0.008112954468017665,0.9944625890061737
2014-03-14,-1,-0.00032849149128863064,-0.00025954004481156467,-0.002124186948607094,0.007409519511610838,0.9944465076025404
2014-03-18,1,0.00013532590979831242,0.00013762965158938526,-0.002124186948607094,0.007767952728983162,0.9941566023613279
2014-03-20,-1,-0.000417364211024257,-0.00034313522363507416,-0.002124186948607094,0.007985818674703455,0.9941875473793098
2014-03-24,-1,-2.768350111743263e-05,-9.317487393192889e-06,-0.0019373375038587769,0.007985818674703455,0.994029062854188
2014-03-26,1,0.0005551863611506252,0.0006640259542337077,-0.0033437034791051466,0.008441455674798216,0.9941013368491077
2014-03-28,1,0.0005258533426575004,0.0006357877870780135,-0.0030382577121813113,0.009101163326637789,0.9929429404227219
2014-04-01,1,0.000591046804332253,0.000709419508314175,-0.0030382577121813113,0.008441455674798216,0.9932534771457602
2014-04-03,1,0.00048774154572347344,0.0005772690839746673,-0.0037566143239760237,0.008441455674798216,0.9930250784754754
2014-04-07,1,0.0007307847144422488,0.0008475750918157202,-0.0037566143239760237,0.007913153845060547,0.993283704649454
2014-04-09,1,0.0011745482640447803,0.0013618701062958502,-0.0037566143239760237,0.007756547700732246,0.9933289862812134
2014-04-11,1,0.001158570197282579,0.001362279313498515,-0.0037566143239760237,0.007895439828870629,0.9932273156054293
2014-04-15,1,0.001480963764797249,0.0017133131582523812,-0.004346895108848406,0.004857484437626142,0.9934793324916402
2014-04-17,1,0.0018686200651381057,0.0021699514113361655,-0.005045184067137696,0.0048286058739649695,0.9933370384277174
2014-04-22,1,0.0015910555485628445,0.0018540527046482353,-0.004346895108848406,0.0048286058739649695,0.9935997392412134
2014-04-24,1,0.00158324607393517,0.0018416761245691384,-0.0033224080270588033,0.003786585673605854,0.9940529077387839
2014-04-28,1,0.0020262065432476647,0.0023278906028547956,-0.0033224080270588033,0.0022901818274467774,0.9950838363631481
2014-04-30,1,0.0017165242034913773,0.001969930830942453,-0.0033224080270588033,0.0022901818274467774,0.9949836263286872
2014-05-02,1,0.0018118364848237966,0.0020945467614078388,-0.002983814956107166,0.0047368781126101035,0.9940627046260068
2014-05-06,1,0.001399261799240294,0.0016006493597384855,-0.00336022583461325,0.007162299809142114,0.9935771547395239
2014-05-08,1,0.0013520809786816124,0.0015262934724452905,-0.00336022583461325,0.004564483651998236,0.9939172519989007
2014-05-12,1,0.0013636453794583603,0.0015393593071381753,-0.0028777297302419015,0.0043606923305523695,0.9943171692924733
2014-05-14,1,0.001374792489681529,0.00156689212586061,-0.0028777297302419015,0.0043606923305523695,0.9938805928509046
2014-05-16,1,0.001346057603944845,0.001535831545407671,-0.0027931434443283524,0.003708165080959421,0.9945148894951272
2014-05-20,1,0.0011567204184566179,0.0013194821958051725,-0.0028176711118790007,0.0043606923305523695,0.9941537204931223
2014-05-22,1,0.0013322477908565087,0.0015356024212414745,-0.0028176711118790007,0.006378531384192648,0.993258541022703
2014-05-27,1,0.0013304420928883182,0.0015285508659371055,-0.0042137383881357526,0.006378531384192648,0.9928755993212569
2014-05-29,1,0.0011447821377401316,0.0012884083811647378,-0.0028176711118790007,0.0043128476583575584,0.9937234105868427
2014-06-02,1,0.001675659555079023,0.0018877177876378249,-0.003116275262993037,0.0043128476583575584,0.9943620129886801
2014-06-04,1,0.0016288322507191832,0.0018564721404402023,-0.001498611088004094,0.0038692031619396716,0.9952020815392689
2014-06-06,1,0.0016470019102376515,0.0018659674336036953,-0.001498611088004094,0.004578047904678119,0.9951097787287393
2014-06-10,1,0.0019339466002274456,0.00219129276657843,-0.001498611088004094,0.004578047904678119,0.9949879132225479
2014-06-12,1,0.001479320654101183,0.0016722050666133875,-0.0012861369338991004,0.004578047904678119,0.9955572253558218
2014-06-16,1,0.0013373473014806005,0.001490127495800226,-0.0021313298083967557,0.004578047904678119,0.9954193070980146
2014-06-18,1,0.0011418791275956716,0.0012195974928070237,-0.003086622463073333,0.00401291759239939,0.9952655860328588
2014-06-20,1,0.001013534845181952,0.0010852345420746556,-0.0022776257656183345,0.004006182679656895,0.996212602057061
2014-06-24,1,0.0003699024539538996,0.0004284887226584718,-0.0026080236224070323,0.004006182679656895,0.9962730330606226
2014-06-26,-1,-0.0002510688416553406,-7.76429862931498e-05,-0.003086622463073333,0.004006182679656895,0.9960014630105358
2014-06-30,0,-0.00015716025583132124,3.6320553137243533e-06,-0.003438365609352296,0.0025896805266672155,0.9956553629930434
2014-07-02,1,1.3948727103370144e-05,0.00014801585405931582,-0.004415810174994743,0.0016199376711614002,0.993610149691885
2014-07-07,1,0.0006236943175504375,0.0006417019839850449,-0.004415810174994743,0.0016199376711614002,0.993035209526161
2014-07-09,1,0.0008525603265354039,0.0008577086151708705,-0.004415810174994743,0.0004777750175775211,0.9926334892604576
2014-07-11,1,0.0007017987941886554,0.0007168695729480744,-0.005581825184252513,0.0010886127629328433,0.992118980224763
2014-07-15,1,0.0004675906579827689,0.0005304653574280487,-0.006501179224724373,-0.0006208696645863064,0.9918964783387818
2014-07-17,-1,-0.00018426227150346493,-4.51680637688982e-05,-0.005581825184252513,-0.00042648664315915637,0.9928561040192998
2014-07-21,-1,-0.00022090899145223077,-7.42176770170936e-05,-0.005581825184252513,-0.00042648664315915637,0.9927529470513076
2014-07-23,-1,-0.0003444948391161916,-0.00020295301965234254,-0.00544375633996652,0.0017127207284607481,0.9926274055347809
2014-07-25,-1,-0.0007114622847283896,-0.0005255308198426121,-0.004235313494323689,0.0032186876054802454,0.9928588913378215
2014-07-29,-1,-0.0014699518727274675,-0.001193466120779737,-0.0037191569785694194,0.005079692820503848,0.9935148614989457
2014-07-31,-1,-0.003181640927009957,-0.002704678015993742,-0.0031541068207016506,0.005079692820503848,0.9949099597096954
2014-08-04,-1,-0.0029157689315456514,-0.0024744787888622416,-0.003974625546437382,0.003719299036439323,0.995182808887697
2014-08-06,-1,-0.0020702689135568284,-0.0017459848877027766,-0.003974625546437382,0.0024762063132109115,0.996275999754746
2014-08-08,-1,-0.0016828634408250372,-0.0014178135683374877,-0.003974625546437382,0.0024762063132109115,0.9957934711880094
2014-08-12,-1,-0.0023468112538085144,-0.00198469295523688,-0.003400622666404026,0.003719299036439323,0.9954772483303168
2014-08-14,-1,-0.0025730170202245646,-0.0021765048839379126,-0.003400622666404026,0.005079692820503848,0.9949107025083528
2014-08-18,-1,-0.002046652112762411,-0.0017366733444698045,-0.003400622666404026,0.005079692820503848,0.9948742476466576
2014-08-20,-1,-0.0021099483376188985,-0.0017867960281956054,-0.0021056145942545787,0.003719299036439323,0.9951120056429257
2014-08-22,-1,-0.0021442335030824435,-0.0018198385432894432,-0.0013518363483670311,0.005054799198308324,0.9948833132838945
2014-08-26,-1,-0.0019963141007032573,-0.0016910030701352667,-0.0021056145942545787,0.006351137950570351,0.9944816124860544
2014-08-28,-1,-0.0019223665137808087,-0.001643408541075267,-0.0021056145942545787,0.006351137950570351,0.9940500623512286
2014-09-02,-1,-0.0016809336396959402,-0.0014520790702966758,-0.0021056145942545787,0.006351137950570351,0.9942833606328462
2014-09-04,-1,-0.0018852029774362056,-0.0016216426270481157,-0.0035785200041172976,0.006351137950570351,0.9941427253057518
2014-09-08,-1,-0.0018504055039862308,-0.0016196344366486998,-0.0030018791986412335,0.006351137950570351,0.9948261131505656
2014-09-10,-1,-0.0014322035757998786,-0.001266349783019341,-0.003280602117801074,0.006351137950570351,0.9945482935776944
2014-09-12,-1,-0.0012942707633987645,-0.0011310484456339644,-0.004575972968307943,0.004089953224500806,0.9945482718675354
2014-09-16,-1,-0.000897006733771111,-0.0007825811646341588,-0.005212040695149366,0.0033766158605911673,0.9941641803888701
2014-09-18,-1,-0.0003347267550777727,-0.000323337538713097,-0.006338067465946414,0.0033766158605911673,0.9932899855888776
2014-09-22,-1,-0.0002649581547950467,-0.0002482812484957548,-0.006338067465946414,0.005026532911924125,0.9924677103818421
2014-09-24,-1,-2.4572964961518918e-05,-1.6384203168198297e-05,-0.006338067465946414,0.005026532911924125,0.9925126297804481
2014-09-26,-1,-0.00041333975493481007,-0.00036577443215890114,-0.0058132852332019366,0.0059148497462895785,0.992897595740904
2014-09-30,-1,-0.0005438749973023117,-0.0004922122640044603,-0.005212040695149366,0.009992342677763007,0.9924235305803545
2014-10-02,-1,-0.0007202372427661254,-0.0006515917448700469,-0.005047481122671789,0.009992342677763007,0.9921826746594313
2014-10-06,-1,-0.0004860978637983892,-0.00043969955659223795,-0.005047481122671789,0.008834216255476852,0.9920680760584035
2014-10-08,-1,-0.00016384375347536296,-0.00015504857693135433,-0.004310187150648757,0.008751724046243229,0.9925304218869007
2014-10-10,-1,-0.0005717753653400731,-0.0005061737724211225,-0.0021797822516572453,0.008751724046243229,0.992959709786758
2014-10-14,-1,-0.0010389247704608584,-0.0009213195776505896,-0.0012574338297197936,0.008751724046243229,0.993422749440906
2014-10-16,-1,-0.0017402912725657327,-0.001545237723330383,-0.0009524335491527377,0.008751724046243229,0.9934813417139282
2014-10-20,-1,-0.0007584358603885049,-0.0006855777982977983,-0.0012574338297197936,0.00749183800818042,0.9943546233916757
2014-10-22,1,0.00013497475647566474,0.00021336041643862626,-0.0009524335491527377,0.007144747444018444,0.9950460064462544
2014-10-24,1,5.1571015724686674e-05,0.00010468527797019016,-0.0009524335491527377,0.007144747444018444,0.9950680302878062
2014-10-28,1,0.0004002655727763892,0.0005102773359080205,-0.0009524335491527377,0.005963602195786748,0.9954632036756172
2014-10-30,1,0.000944830863331993,0.0011491490076582583,-0.0009524335491527377,0.005963602195786748,0.9952147872477788
2014-11-03,1,0.0012102580539009888,0.001422271092742637,-0.0015578442503299927,0.005394559378279706,0.995424447597386
2014-11-05,1,0.0016323863406505022,0.0019073168010456825,-0.0028896618408510953,0.005394559378279706,0.9950241446396278
2014-11-07,1,0.0017155553344917985,0.0020190739057216493,-0.0028896618408510953,0.005394559378279706,0.9951046453986637
2014-11-11,1,0.0018236193524072404,0.0021313026264484104,-0.003952716849146416,0.005283570364837151,0.9949240643049609
2014-11-13,1,0.0016024477673638818,0.0018674755084601357,-0.003952716849146416,0.005394559378279706,0.994585940980452
2014-11-17,1,0.0014149452454312785,0.001653649261767399,-0.0058988821336866965,0.005349523713500892,0.9944615261758042
2014-11-19,1,0.0017284646389864856,0.002019170502415478,-0.0058988821336866965,0.005723737808707335,0.9933749230304667
2014-11-21,1,0.0018137841623550662,0.0021238407379893134,-0.0058988821336866965,0.006121947735660906,0.9933880734450247
2014-11-25,1,0.0019213848409622984,0.0022576130473536786,-0.006515185344642662,0.006770250337563729,0.9930712875244676
2014-11-28,1,0.002708636502572289,0.003171123725173792,-0.006515185344642662,0.006121947735660906,0.9931852122623074
2014-12-02,1,0.0028002046483382153,0.003270907031480372,-0.006842383628289877,0.005851813513002516,0.9924289156733215
2014-12-04,1,0.002678448791073213,0.00313843732175727,-0.006822953958488871,0.005851813513002516,0.9925217503387795
2014-12-08,1,0.0023955398738230785,0.0027869062866481328,-0.007406482529989589,0.0062639693360663955,0.9919461637407871
2014-12-10,1,0.0021619660490852957,0.0025271088834749205,-0.00785905243805546,0.007388096606884654,0.9914703276086033
2014-12-12,1,0.0018580225699442953,0.00216517677092214,-0.007406482529989589,0.007388096606884654,0.9916876873020467
2014-12-16,1,0.0011504104560715461,0.0013452870045539995,-0.006528968313469902,0.007388096606884654,0.9921748031233124
2014-12-18,1,0.0017580521222879818,0.0019960645383532167,-0.006528968313469902,0.006963170558730407,0.9926111798342587
2014-12-22,1,0.0012848746152421251,0.0013674554268677708,-0.007406482529989589,0.007154952026834866,0.9919267440987034
2014-12-24,1,0.001371729731888338,0.0014734820279293586,-0.009088099236674797,0.006084880587223854,0.9904811852212998
2014-12-29,1,0.0015421048143909898,0.0016956189425860525,-0.009581552506271497,0.0002969965848639794,0.9899535570021744
2014-12-31,1,0.0005827823833554716,0.0006347753281043564,-0.009581552506271497,0.007154952026834866,0.9873646707657546
2015-01-05,1,0.0002510095593628007,0.00026069633877919706,-0.009581552506271497,0.009082938186376848,0.9867980793271383
2015-01-07,1,9.810286869806187e-05,0.0001307708446862651,-0.00901020104805473,0.009504909378534555,0.9873259685370127
2015-01-09,1,0.0002261554250936264,0.00023840408180069458,-0.008379578167134936,0.0072956090908874345,0.9879103583239502
2015-01-13,1,0.00023560190842899207,0.0002472492859322939,-0.008379578167134936,0.006149210398691168,0.9882267257304875
2015-01-15,1,2.370938791622559e-05,6.322024418966567e-05,-0.008379578167134936,0.006233977876166747,0.9881421685287723
2015-01-20,1,0.0002506751327051768,0.0002614032044411938,-0.008379578167134936,0.005385179934943982,0.9885981461866988
2015-01-22,1,0.0002721468443330342,0.0002872192075237175,-0.007321824036350667,0.005079063574086504,0.9894797205746068
2015-01-26,-1,-0.000867548051862182,-0.0007164592579270664,-0.003658769376198504,0.005385179934943982,0.9908115678038808
2015-01-28,-1,-0.0013459766098444545,-0.0011365351890666626,0.00010833761905560031,0.005385179934943982,0.9911963311090792
2015-01-30,-1,-0.0005918971105976893,-0.00045800819637034727,0.00010833761905560031,0.005079063574086504,0.9953024627617177
2015-02-03,1,2.478631557992019e-05,8.212211520248667e-05,-0.0008297379033367865,0.004748328056382919,0.9966063731918384
2015-02-05,1,0.0002767407544390272,0.000297110944913689,-0.003508764100385156,0.004748328056382919,0.9949797528547965
2015-02-09,1,0.0001190352879150438,0.0001489665618772792,-0.0010195503903747962,0.004928881656415296,0.9943894472885347
2015-02-11,1,0.00024941152409693664,0.00026305749061947335,-0.004220465778669356,0.004928881656415296,0.9938448062241003
2015-02-13,1,0.00047349134928486105,0.0004937714605763669,-0.004220465778669356,0.004928881656415296,0.9938184633061735
2015-02-18,1,0.0006570236024959576,0.0007110408976186838,-0.0046549994888230445,0.0047291408099405475,0.9935294044625134
2015-02-20,1,0.00042277843941975564,0.00043362414643391715,-0.004220465778669356,0.005248338770136934,0.9928643133490742
2015-02-24,1,0.0005262299060062217,0.0005383499437720825,-0.005349486676630712,0.00572725169443081,0.9923049300631888
2015-02-26,1,0.00040197123295476604,0.00041616468939002587,-0.006408821930675027,0.00572725169443081,0.9919534958634871
2015-03-02,1,0.00041097595382231925,0.0004176311019470312,-0.006408821930675027,0.00793589996543123,0.9919017622897038
2015-03-04,1,0.0003506467176258455,0.00035617877842820706,-0.006408821930675027,0.00793589996543123,0.9919698812440372
2015-03-06,-1,-0.0003272774528823699,-0.00023089910345977527,-0.004218993418347778,0.00793589996543123,0.9935283703983042
2015-03-10,-1,-0.0008900422309024774,-0.0007100605958433583,-0.003474599513219218,0.00793589996543123,0.994332765031524
2015-03-12,-1,-0.0011994640942155851,-0.0009573821265142165,-0.003474599513219218,0.004568996899573701,0.9948729867509475
2015-03-16,-1,-0.0007396612732690782,-0.0005774092697946318,-0.003781509413740506,0.00375959074482242,0.9948963919775546
2015-03-18,-1,-0.0008570806840153309,-0.0006937716645465901,-0.003474599513219218,0.003847038469800394,0.9949009870836347
2015-03-20,-1,-0.0004445043788083137,-0.0003293983470787134,-0.0044830363206523095,0.0035029588506553188,0.9948155703792628
2015-03-24,-1,-0.00046633823998648956,-0.00035687708811820725,-0.003781509413740506,0.0036709118535789,0.9952171919141697
2015-03-26,-1,-0.0005533580690554117,-0.00044431725709687353,-0.003474599513219218,0.0036709118535789,0.9955290632723329
2015-03-30,-1,-0.00019250491205572597,-0.0001410666576314361,-0.003474599513219218,0.0035029588506553188,0.9957096579184614
2015-04-01,-1,-0.0001253906208055096,-9.371929587042815e-05,-0.003912921337061251,0.0035029588506553188,0.9948478731584548
2015-04-06,1,0.00011779836455687561,0.00012302630232131903,-0.003912921337061251,0.0030441877790444707,0.9950001191615682
2015-04-08,1,0.0001584619921801063,0.0001648314723276394,-0.0044830363206523095,0.0036709118535789,0.9946501520207477
2015-04-10,1,1.939561126060123e-05,3.314349442768723e-05,-0.003912921337061251,0.004088554303637216,0.9946610857040441
2015-04-14,-1,-6.340264914578912e-05,-3.4184220931089676e-05,-0.004191766129929922,0.0036709118535789,0.9948059147513619
2015-04-16,1,0.00012389090985939462,0.000126268174373611,-0.004449968540344011,0.004112870072324271,0.9941412227462849
2015-04-20,-1,-0.0003896289687286477,-0.0003274669718935705,-0.0032285030609738377,0.004112870072324271,0.9953137120677483
2015-04-22,-1,-0.00014081896963311254,-0.00010728442965560403,-0.003657048605894859,0.003173233530655898,0.9953478826534485
2015-04-24,1,4.604653226033982e-05,5.42044671208157e-05,-0.0038667061138386314,0.003173233530655898,0.9951105062626914
2015-04-28,-1,-2.5871784732595104e-05,-2.2219191079290945e-05,-0.0042561330650989675,0.0049876188092908245,0.9941425861061202
2015-04-30,-1,-0.0005913442455724881,-0.0005224268324673632,-0.0042561330650989675,0.0049876188092908245,0.9946742656405232
2015-05-04,-1,-0.0003842009719981739,-0.0003397429258165701,-0.0042561330650989675,0.00241377099612904,0.9949355506602882
2015-05-06,-1,-0.0005066502694145427,-0.000439224817717542,-0.0042561330650989675,0.001407422116542973,0.9950433108079386
2015-05-08,-1,-0.0004251837187422294,-0.00036252722948810367,-0.004843642162882753,0.00018426736331146533,0.9949712223791541
2015-05-12,-1,-0.0007639344090989064,-0.0006438346418241554,-0.0042561330650989675,0.0026871925783699515,0.9940275634921871
2015-05-14,-1,-8.200803601430011e-05,-7.433402107390359e-05,-0.005156024707147504,0.0004117405631221872,0.9942144946138352
2015-05-18,1,4.39266310361498e-05,6.549325376422715e-05,-0.0069442700159322145,0.0026871925783699515,0.9929915476042896
2015-05-20,1,0.00016883747514949275,0.0002112212884215258,-0.0069442700159322145,0.005985195340919711,0.9926412526154995
2015-05-22,1,7.211317033450483e-05,0.00010225054296215427,-0.0069442700159322145,0.005985195340919711,0.9925059921287352
2015-05-27,-1,-0.0004129215608269396,-0.00036426279096027315,-0.0069442700159322145,0.005440900724760082,0.9933527449033744
2015-05-29,-1,-0.0007628115572559894,-0.0006638731039111541,-0.004683371013734061,0.005440900724760082,0.9938779159921002
2015-06-02,-1,-0.0007766002800044559,-0.0006741467409959795,-0.0069442700159322145,0.005440900724760082,0.9932636151500114
2015-06-04,-1,-0.0009663949220467165,-0.0008461413614136385,-0.004683371013734061,0.007336604736273423,0.9931461299048518
2015-06-08,-1,-0.0011195219349458732,-0.0009840024720398884,-0.0039350521046444655,0.009986316363709394,0.9923106470690018
2015-06-10,-1,-0.00061531896663306,-0.0005331877711376707,-0.00509851818948487,0.005440900724760082,0.9929522043742788
2015-06-12,-1,-0.0007139269458527417,-0.000630391682576705,-0.004068120404918279,0.007775958245174103,0.9924517448454013
2015-06-16,-1,-0.0007345449024784775,-0.0006548553774940482,-0.004068120404918279,0.006663581865271727,0.9933162729548523
2015-06-18,-1,-0.000783157060600528,-0.0006580284015021185,-0.004068120404918279,0.005587351894393642,0.9936840096659754
2015-06-22,-1,-0.001067840597008723,-0.0008884450589494613,-0.004498123305940029,0.005109101085296573,0.9933160465056344
2015-06-24,-1,-0.001250782222366094,-0.0010784894860502475,-0.0033207018051624156,0.005109101085296573,0.9935569254550084
2015-06-26,-1,-0.0007228979998311205,-0.0006485150625823654,-0.0033207018051624156,0.005133976960235032,0.9934185470351262
2015-06-30,-1,-0.0010197002285769361,-0.0009244582160867663,-0.0026463947174110818,0.008574742153341792,0.9929092469798493
2015-07-02,-1,-0.0008253385920206767,-0.000739704926420812,-0.0033207018051624156,0.007301177698002537,0.9929545844638539
2015-07-07,-1,-0.00017199895316331022,-0.00017186673621733648,-0.002944052892494865,0.006186218395364381,0.9938208077148248
2015-07-09,-1,-0.00048202590720370145,-0.00045966474811777013,-0.001961208848798907,0.007301177698002537,0.9938028998673978
2015-07-13,1,0.00017434019996657885,0.00024780083278263653,-0.0023782483262600696,0.00482840463396569,0.9946394196746637
2015-07-15,-1,-5.878062252672829e-05,-2.1901353038804834e-05,-0.00270028628019596,0.00482840463396569,0.9944467484512448
2015-07-17,1,0.0003625578050063727,0.00047438450002237485,-0.004106734208061686,0.0044527816139841156,0.9948056411065983
2015-07-21,1,0.0002032895925505904,0.0002976044789962217,-0.00270028628019596,0.0038570403884111096,0.9955112239403661
2015-07-23,1,0.0002720332975641012,0.0003764338973383497,-0.005306127435441524,0.0038570403884111096,0.9942826986805727
2015-07-27,1,0.0003995929111332522,0.0005236657943236515,-0.00804648868667546,0.0023535401547636293,0.9914174941948677
2015-07-29,1,0.0005723138602562511,0.000671952374608072,-0.01172869221691613,0.0008128642454973494,0.9896973839890348
2015-07-31,1,0.00016672959244495,0.00019745364796375865,-0.00804648868667546,0.0037678935740516444,0.9896429328158298
2015-08-04,1,0.0003280576681245084,0.0003828808143843416,-0.011936888338082298,0.0023535401547636293,0.9882596645659231
2015-08-06,1,0.00043448928185875187,0.0005110360121098574,-0.011936888338082298,0.0037678935740516444,0.9877260354850184
2015-08-10,1,0.0003129236079625676,0.0003604081286293137,-0.014352293997567106,0.00606602726406732,0.9853451329729231
2015-08-12,1,0.00032651195544451347,0.0003981127454131282,-0.015577960279151022,0.00606602726406732,0.9847223941594375
2015-08-14,1,0.0002494508334254605,0.00030772312508675116,-0.015577960279151022,0.00606602726406732,0.9849111039196662
2015-08-18,1,0.00014119056865197926,0.0001754480609902223,-0.015577960279151022,0.010663828465032553,0.9843063223627462
2015-08-20,-1,-0.00026639985957067593,-0.00025833490157601007,-0.015577960279151022,0.010663828465032553,0.9849256216255484
2015-08-24,-1,-0.0015904164611700992,-0.0014254764228628092,-0.010599559880237308,0.010663828465032553,0.9867027865480957
2015-08-26,-1,-0.0012207968375705352,-0.0011140332341497026,-0.00868479295825674,0.007467954771005073,0.9893016546004652
2015-08-28,-1,-0.0007747136080295664,-0.0007212218840978075,-0.010599559880237308,0.007467954771005073,0.9888729326220854
2015-09-01,-1,-0.0015414536305291514,-0.0013982449931434758,-0.007821494045458687,0.010663828465032553,0.9890976839494221
2015-09-03,-1,-0.0008432054679696821,-0.0007834648435061371,-0.007821494045458687,0.007102189558675731,0.9899849246936785
2015-09-08,-1,-0.0005016528653532573,-0.0004925524778559345,-0.007672022722627324,0.007102189558675731,0.9915287156860898
2015-09-10,-1,-0.0012809238001527598,-0.0011572326145858304,-0.0003624486080169043,0.008679556257369199,0.9914176249117047
2015-09-14,-1,-0.0009936756347028242,-0.0009191856257123992,-0.0010631029068124145,0.008679556257369199,0.991402544099179
2015-09-16,-1,-0.0005905607247481504,-0.0005635036010391096,-0.003557749879211699,0.008473018272516862,0.9920346099222758
2015-09-18,-1,-0.0007493229653089298,-0.0006993166299155769,-0.001851161238415861,0.008679556257369199,0.9915316031296258
2015-09-22,-1,-0.0011878556050653548,-0.00106443432903163,-0.0017237731128598639,0.008679556257369199,0.9922475755734268
2015-09-24,-1,-0.0009689791799218491,-0.0008821384861928897,-0.0029527032394035813,0.009709177799660013,0.9909758452323809
2015-09-28,-1,-0.0009960233515667663,-0.0009074726790073649,-0.0029167859180376805,0.008679556257369199,0.9920629494979507
2015-09-30,-1,-0.00036417431904823525,-0.00035826616835642503,-0.0029167859180376805,0.008473018272516862,0.9930093197535228
2015-10-02,-1,-9.838015213217364e-05,-7.515710797840173e-05,-0.0032271156519738707,0.008300586125428364,0.9913813917927364
2015-10-06,1,0.000213430077368257,0.00029121909563606407,-0.0029167859180376805,0.008300586125428364,0.9914896984968056
2015-10-08,1,0.0005874494330390381,0.0007157937931468478,-0.0032271156519738707,0.0068967048322723015,0.9919066703838467
2015-10-12,1,0.0007900098966783817,0.0009531482739812846,-0.0033585759130391984,0.006247757828730802,0.9909246884599321
2015-10-14,1,0.000593518395425753,0.0007247471473402981,-0.0029167859180376805,0.007733036653913903,0.9908990295464833
2015-10-16,1,0.0008798903513524179,0.0010308562159370791,-0.004484027967171284,0.004730865765727246,0.990394814984912
2015-10-20,1,0.0007469787627703982,0.0008661965136584325,-0.0047712918010404445,0.006247757828730802,0.9896582695619872
2015-10-22,1,0.001260739635358441,0.0014465395043362199,-0.0047712918010404445,0.006247757828730802,0.9904988555225396
2015-10-26,1,0.0011184516571460716,0.0012678670200063666,-0.005075342197925414,0.007986218985555755,0.9900580113180979
2015-10-28,1,0.0010057771951155333,0.0011268681860345973,-0.006289177440123323,0.007986218985555755,0.9898502774989673
2015-10-30,1,0.0005031006316483115,0.0005923920458012778,-0.006289177440123323,0.007986218985555755,0.9914172826989527
2015-11-03,1,0.0009070076607027395,0.0010333308924410397,-0.006289177440123323,0.002923886773185387,0.992332823789247
2015-11-05,1,0.0006890100008999684,0.0007793395325909331,-0.004622731525680216,0.005951746292804573,0.9921561372594938
2015-11-09,1,0.0003003047145062665,0.0003635276106698981,-0.0039140693813959435,0.005951746292804573,0.993398065689776
2015-11-11,1,0.0005477438590452829,0.0006453541972546591,-0.0039140693813959435,0.002923886773185387,0.9937271304480334
2015-11-13,-1,-0.0002282583704755303,-0.00021071751318563127,-0.002761998491205366,0.006086666627075606,0.994047856023557
2015-11-17,1,5.943445469504167e-05,7.824863916817137e-05,-0.0023119041848897984,0.010193029803832233,0.99316594679184
2015-11-19,1,0.00022543460945288562,0.0002428642319157459,-0.004622731525680216,0.004166476702553184,0.9919069321369091
2015-11-23,1,0.0005342660979177254,0.0006084463991098643,-0.003267960370899659,0.006963096853639124,0.9919666550904901
2015-11-25,1,0.0005836471957091152,0.0006887495567111214,-0.002441657381542343,0.008806924277561676,0.9918248008959678
2015-11-30,1,0.00010915562146247121,0.00012736910379787926,-0.0023119041848897984,0.009273839972175443,0.991894093418485
2015-12-02,1,0.00035403694981747094,0.00043218901931828566,-0.002441657381542343,0.009273839972175443,0.991360620698299
2015-12-04,1,0.0005071880031416694,0.0005949356554632457,-0.005267374575052506,0.008806924277561676,0.9903662313499327
2015-12-08,1,0.0005731494501043479,0.0006829614341179939,-0.013584566506878427,0.008806924277561676,0.9889773323175073
2015-12-10,1,0.0004537497890642063,0.0005358528685811745,-0.013584566506878427,0.008806924277561676,0.9885270465993004
2015-12-14,1,0.0003860604579762843,0.000461809204874868,-0.013291942432810813,0.008802259738625352,0.9888844018254127
2015-12-16,1,0.0012965281614833312,0.001497575122008937,-0.013291942432810813,0.006867524560212708,0.9899195900190503
2015-12-18,1,0.0006311110069149112,0.0007768243732542813,-0.008869400391815566,0.008802259738625352,0.9899677745168933
2015-12-22,1,0.0008715743459551727,0.0010334505719548745,-0.008869400391815566,0.009270070240717233,0.9890239227784627
2015-12-24,1,0.0010879352452601411,0.0012869513253553624,-0.01120121305891314,0.009270070240717233,0.9887490518773915
2015-12-29,1,0.0013623088384952936,0.0016021166607929891,-0.01120121305891314,0.009270070240717233,0.9887992321360642
2015-12-31,1,0.0010672362930430042,0.001272284170481473,-0.01120121305891314,0.010190851833442784,0.9868269283181643
2016-01-05,1,0.0003784003983053324,0.0004778598297785984,-0.011065710158298162,0.010487520277519391,0.9872702459069247
2016-01-07,-1,-0.00036717107397881495,-0.00036511454029699946,-0.007329212538211451,0.010487520277519391,0.9885123143946236
2016-01-11,-1,-0.0004179356607365063,-0.00040974926170841584,-0.00401073302637103,0.010487520277519391,0.9888820802716448
2016-01-13,-1,-0.0007281291713287294,-0.0006522232996032679,-0.004788003915403555,0.010487520277519391,0.9886904206608955
2016-01-15,-1,-0.0017031233562429396,-0.0014256932115058124,-0.004788003915403555,0.012107618440353433,0.9880772585156954
2016-01-20,-1,-0.0020278241774779764,-0.0017202291114085842,-0.0020786967885231466,0.012168675492985883,0.988864858450374
2016-01-22,-1,-0.0007208499887088734,-0.0005903802575950364,-0.0020786967885231466,0.007255372915946216,0.9906468206172774
2016-01-26,-1,-0.001510939104831229,-0.0012370995204324395,-0.003672892563684779,0.005240473058996051,0.9904903194088645
2016-01-28,-1,-0.0007494343724570061,-0.0006015839752760509,-0.007720376103141836,0.005240473058996051,0.9895553410521751
2016-02-01,-1,-7.322165460838236e-05,-1.335438198764202e-05,-0.006962183297847653,0.005240473058996051,0.9906397819810565
2016-02-03,-1,-0.0006445811970340687,-0.0004824130867245554,-0.004300852700089748,0.004652999413885677,0.9912487243021872
2016-02-05,-1,-0.0005874263543576258,-0.0004339404367383772,-0.006712224605253579,0.007959480564307456,0.9905983994298827
2016-02-09,-1,-0.0005113527511888094,-0.00038801759325678126,-0.006712224605253579,0.007959480564307456,0.9904121514124248
2016-02-11,-1,-0.0013706082923246254,-0.0011357682265827056,-0.004300852700089748,0.007959480564307456,0.9908537401970066
2016-02-16,-1,-0.0009142125828796376,-0.0007173433267542165,-0.004300852700089748,0.006973078520765035,0.9917940588788918
2016-02-18,-1,-0.000280824194398825,-0.0001576624736248084,-0.004300852700089748,0.006973078520765035,0.9920439312891463
2016-02-22,-1,-0.0002028627418349485,-8.350068509094065e-05,-0.004300852700089748,0.007959480564307456,0.9918864629208154
2016-02-24,-1,-0.0004906135415825548,-0.0003689110031470672,-0.0023543813191885636,0.007959480564307456,0.9919804111254937
2016-02-26,-1,-0.0003109999397120741,-0.00022863901002704331,-0.0010074708066564284,0.006973078520765035,0.9935365470408938
2016-03-01,1,0.00031831356813081656,0.0003209636043235668,-0.0006213602751206715,0.006973078520765035,0.9948518893521567
2016-03-03,1,0.0006583252484660546,0.0007338508396803076,-0.0006213602751206715,0.006944027184700942,0.9951388064780329
2016-03-07,1,0.0006961366123545801,0.0007846158222626228,-0.000569275670937299,0.00551264404961361,0.9958773218617084
2016-03-09,1,0.0007245958913540502,0.0008027310037918139,-0.0005986437053001573,0.0041287785326081725,0.9955137783190113
2016-03-11,1,0.001153593859986432,0.0013225880076463488,-0.0007795519516997406,0.005368502590512671,0.9954248954472054
2016-03-15,1,0.0012106191690976812,0.0013848027944922165,-0.0007795519516997406,0.0045877825897207404,0.9953010588246994
2016-03-17,1,0.002025337898689566,0.002345617148429073,-0.0007795519516997406,0.0045877825897207404,0.9957679552978268
2016-03-21,1,0.0022374035019264186,0.002586581495314899,-0.0006687312787906515,0.004257806282328664,0.9960480325716589
2016-03-23,1,0.0020031889130193237,0.0023235006546611647,-0.0011996469685866245,0.004257806282328664,0.9947508769043203
2016-03-28,1,0.0016167934133186198,0.001824584666220225,-0.0011996469685866245,0.0048786932474641255,0.9946772334329117
2016-03-30,1,0.002331676942873638,0.0026773521875400087,-0.002775766032598266,0.004844322389104518,0.9944106702254794
2016-04-01,1,0.0024233902259648914,0.0027687946823713805,-0.003933476866169815,0.004844322389104518,0.9933409459997348
2016-04-05,1,0.0018211861601183366,0.002034679995775949,-0.005868304281563937,0.00510975483120976,0.9922801040624609
2016-04-07,1,0.0016974697175672886,0.0019104573317464014,-0.0056376984312389005,0.00510975483120976,0.9925686498913823
2016-04-11,1,0.001287756387402974,0.00139265194415969,-0.0056376984312389005,0.004941699653592507,0.9927138177407172
2016-04-13,1,0.0013229625562324815,0.001451093213772698,-0.003955542740514139,0.00510975483120976,0.9927420342848456
2016-04-15,1,0.0016484268139816166,0.0018453306603823418,-0.005934501904596909,0.00510975483120976,0.991916717754266
2016-04-19,1,0.001873403954135191,0.0021105452122436924,-0.006766078726423267,0.00510975483120976,0.9910360323969726
2016-04-21,1,0.0006553994423036608,0.0007172954353874851,-0.005934501904596909,0.00510975483120976,0.9923744862748151
2016-04-25,1,0.0006240675670449044,0.0006601231683305007,-0.0060226560423625565,0.004941699653592507,0.9922826192918099
2016-04-27,1,0.0005292845663464117,0.0005507570292492069,-0.005733280766860421,0.00520572294310527,0.9921673776204797
2016-04-29,1,0.0012947862826446755,0.001432337424968065,-0.005733280766860421,0.004886889022516072,0.9933799017042404
2016-05-03,1,0.0015652991502375598,0.001731142609116204,-0.0037112260974388987,0.004886889022516072,0.9939951616695962
2016-05-05,1,0.001325301233958122,0.0014547665136893486,-0.0028783504888119336,0.004886889022516072,0.994316494532194
2016-05-09,1,0.0012974738185639696,0.0014123441058859043,-0.0031552409923619462,0.00442922831078499,0.9942545591740325
2016-05-11,1,0.0018941045659533109,0.0021517059731419107,-0.002986588702679305,0.004762496676046038,0.9944062677704972
2016-05-13,1,0.0010603882047696164,0.0011325028971897952,-0.003150818350488419,0.004388902994330967,0.9948379367515421
2016-05-17,1,0.0008949196803733189,0.0009691484054127976,-0.003150818350488419,0.004388902994330967,0.9953408912582576
2016-05-19,1,0.0007748861459520245,0.0008420558381429113,-0.003150818350488419,0.004108583566311665,0.9954687068900289
2016-05-23,1,0.0007392440316824799,0.0008176172424891569,-0.0028768762748540913,0.004108583566311665,0.9956289825365567
2016-05-25,1,0.0006807729829792161,0.000723278450933262,-0.002672650950693595,0.004973405594294765,0.9957642157640708
2016-05-27,1,0.00013684474015522867,0.00020284117864615282,-0.0038930681819265467,0.004973405594294765,0.9939615411349941
2016-06-01,-1,-0.0002811790068726946,-0.00011468031158764222,-0.0038930681819265467,0.005748612085204729,0.9932842516188335
2016-06-03,-1,-0.00030258800871697767,-0.00012283578499352392,-0.0038930681819265467,0.005824884371829829,0.9925008024897954
2016-06-07,-1,-0.0004153947054172726,-0.00022054186740118212,-0.0038445769730792237,0.005824884371829829,0.9925648988746777
2016-06-09,0,-7.551514678006804e-05,7.667234135097788e-05,-0.0038445769730792237,0.005961967038061247,0.9925025366016297
2016-06-13,-1,-0.0008308524139513031,-0.0005591883079234005,-0.0038445769730792237,0.005961967038061247,0.9922159576673405
2016-06-15,-1,-0.0002335381812073719,-8.781732348375185e-05,-0.0008538251722085743,0.006458484099011188,0.9923853055788359
2016-06-17,-1,-0.0005791229424372483,-0.00038183095729653533,-0.0007360854426825408,0.006458484099011188,0.9926716150674474
2016-06-21,-1,-0.00031164126967212164,-0.0001590225230559541,-0.003062081500256197,0.006458484099011188,0.992722878658809
2016-06-23,1,0.00037741418052235506,0.0004185091508565167,-0.0033835066758785993,0.007778269518431569,0.9927581179723581
2016-06-27,-1,-0.0010111543457059103,-0.0007989634187336343,-0.003369159964880596,0.007778269518431569,0.9939307866351877
2016-06-29,-1,-0.00013914633441636796,-3.1879302440793666e-05,-0.0033835066758785993,0.003555138751776613,0.9949703578646801
2016-07-01,1,0.00017318823432608654,0.0002572566894810433,-0.003369159964880596,0.005150712790288535,0.994823031928611
2016-07-06,-1,-0.00025268835163209306,-7.207010734375696e-05,-0.0038029600531586274,0.004182179919586222,0.9944038499210116
2016-07-08,1,0.0005187140958902311,0.0005736011079915053,-0.0038029600531586274,0.004182179919586222,0.9942966125190921
2016-07-12,1,0.0006991203989483933,0.000701292706549773,-0.003369159964880596,0.005284747391507131,0.9944260920210486
2016-07-14,1,0.00101834501035397,0.0010651124047633105,-0.003369159964880596,0.0017795983737482455,0.9947261361249049
2016-07-18,1,0.0004486369626610561,0.00051042423822519,-0.00339670208522588,0.001976789506747325,0.994897119967752
2016-07-20,1,0.00013853201914609196,0.00024219385645110408,-0.00339670208522588,0.003799406695013753,0.9948477638469312
2016-07-22,1,0.0005944978084373969,0.0006233062308623786,-0.0033929533785464427,0.0016757969303840027,0.9953101697536116
2016-07-26,1,0.0002569126811824008,0.0003210029095795432,-0.0028046746197714053,0.0016757969303840027,0.9958202570820421
2016-07-28,-1,-0.00020647002030500143,-8.496258785524051e-05,-0.0024797289620649243,0.003531545395504286,0.9960108977980847
2016-08-01,1,0.0007259880179153062,0.0007318971616843064,-0.0024797289620649243,0.0016757969303840027,0.9968310232023221
2016-08-03,1,0.00024089859553937866,0.00029683245706527833,-0.0022144788479761947,0.0016757969303840027,0.997298641779845
2016-08-05,1,0.00044831724372182863,0.00047699240095718377,-0.002144817697105296,0.0016757969303840027,0.9974061929160336
2016-08-09,1,0.0007778250317143794,0.000823244321079656,-0.0022144788479761947,0.0016757969303840027,0.9964231434679938
2016-08-11,1,0.000929969143850971,0.001006830684288597,-0.003637011379443817,0.0016757969303840027,0.9943347454640769
2016-08-15,1,0.0005906883057844076,0.0006061672768994015,-0.004412893056475898,0.003531545395504286,0.9927032041110547
2016-08-17,1,0.0004959643651745735,0.0005000721318461056,-0.002847060812985457,0.003517338202228903,0.9929992402696911
2016-08-19,1,0.0005869188367127894,0.0006222239320463777,-0.002847060812985457,0.003517338202228903,0.9928415960219223
2016-08-23,1,0.0006616095362693855,0.0007174006198228942,-0.002847060812985457,0.004154278989024696,0.9923799399206014
2016-08-25,1,0.0006434393278017501,0.0006933423294132889,-0.003891914383299866,0.004692678740440461,0.99213174970893
2016-08-29,1,0.0005696075089857281,0.0005941105630872236,-0.003891914383299866,0.004858982430060953,0.9921277747014882
2016-08-31,1,0.00040009846099671215,0.00040797299327393396,-0.003908945607968706,0.004858982430060953,0.9921851167132015
2016-09-02,1,0.0005472982809850081,0.0005705521743396489,-0.004912370712093155,0.004858982430060953,0.9917344522992113
2016-09-07,1,0.00011781567590432227,0.00013969271262650998,-0.004912370712093155,0.004209713552231527,0.9923064116943029
2016-09-09,-1,-0.0011503177880223285,-0.0009890808272916924,-0.0033059292774521953,0.004383037246123548,0.9937411583832139
2016-09-13,-1,-0.001424897183151897,-0.0011708808935374884,-0.003908945607968706,0.004074964005269991,0.9952762660982482
2016-09-15,-1,-0.001213098845256173,-0.0009932937981600477,-0.003908945607968706,0.004074964005269991,0.9952251433976003
2016-09-19,-1,-0.0012357790789057225,-0.001010329752651536,-0.003908945607968706,0.004074964005269991,0.9952220778717126
2016-09-21,-1,-0.0004368623589234297,-0.0003412953454020262,-0.003908945607968706,0.0025477652384305093,0.9955223685016491
2016-09-23,-1,-9.994327899482197e-05,-6.280866738381785e-05,-0.004570606463003125,0.0021427568566414253,0.99544151802744
2016-09-27,-1,-0.00013311351376104358,-8.296980715581293e-05,-0.004570606463003125,0.0021427568566414253,0.9955031255210954
2016-09-29,-1,-0.00015808725093648267,-0.00011076135064357664,-0.005740817879275901,0.0021427568566414253,0.9953055061796224
2016-10-03,1,2.3148218216640127e-05,4.577772076003154e-05,-0.0042074319565524815,0.0024187793282948425,0.9956282831792076
2016-10-05,-1,-0.00036609255269880495,-0.0002910478487861181,-0.004092022077690927,0.002671390860638533,0.9959733810073077
2016-10-07,-1,-0.0005667483221680715,-0.00045046467018162133,-0.005740817879275901,0.002226396599510003,0.9953001464483735
2016-10-11,-1,-0.001053151387532953,-0.0008722186199509912,-0.004092022077690927,0.0028037613782501123,0.9943596911327721
2016-10-13,-1,-0.0011392463340462642,-0.0009429627816506664,-0.008848095016472875,0.002671390860638533,0.9917429566021498
2016-10-17,-1,-0.0011109246114982358,-0.0009261127983242988,-0.009981825256345288,0.0028258077883165883,0.991222220908449
2016-10-19,-1,-0.0013177312461137261,-0.0011065661455643527,-0.009981825256345288,0.0028258077883165883,0.9911345785250061
2016-10-21,-1,-0.0015174063078122744,-0.001295465795185675,-0.010071573864219183,0.0028258077883165883,0.9911289668561817
2016-10-25,-1,-0.0012384089152963156,-0.0010575151652893154,-0.010071573864219183,0.0028258077883165883,0.9910530842430789
2016-10-27,-1,-0.001546888141540991,-0.0013303937714968302,-0.009236783380813095,0.0038219082568701143,0.9908302962361709
2016-10-31,-1,-0.000985673537342169,-0.0008507664849873503,-0.009236783380813095,0.0028258077883165883,0.9913314726031949
2016-11-02,-1,-0.0012308473236488742,-0.0010536477962724386,-0.011543018452222456,0.002507917097528616,0.9907781533080438
2016-11-04,-1,-0.0018934137630162043,-0.001640812616521713,-0.006958156668736655,0.002507917097528616,0.9915922255094737
2016-11-08,-1,-0.0010644806724379268,-0.0009030254005839653,-0.006958156668736655,0.002507917097528616,0.9919642060927507
2016-11-10,-1,-0.002882520218951768,-0.00251711464140233,-0.003897935868910413,0.0038219082568701143,0.9940314021450676
2016-11-14,-1,-0.002946818611018232,-0.002593700409312943,-0.002596833860165554,0.005646887173973711,0.9940387728244711
2016-11-16,-1,-0.003699616735388113,-0.003200447761896012,-0.003897935868910413,0.005646887173973711,0.9932602200375241
2016-11-18,-1,-0.0035309595982858702,-0.003096328855365693,-0.00279732487107822,0.005646887173973711,0.9935344825202727
2016-11-22,-1,-0.0028169302777065917,-0.0024927766164399203,-0.003896749042556757,0.005293889970664667,0.9939540074499358
2016-11-25,-1,-0.002526164009581589,-0.00224595215667844,-0.00279732487107822,0.004890197054305633,0.9942800881506075
2016-11-29,-1,-0.002185136509228871,-0.0019685261049135093,-0.004222745425019141,0.004890197054305633,0.994286740482384
2016-12-01,-1,-0.0028615302739328466,-0.0025636484686359265,-0.004222745425019141,0.004890197054305633,0.9945018304783745
2016-12-05,-1,-0.0027465858469283,-0.002482357404818305,-0.0035972648217939135,0.005293889970664667,0.9938331954527124
2016-12-07,-1,-0.0020060494187069846,-0.00182796871719918,-0.0035972648217939135,0.005481413084966035,0.9941861774670174
2016-12-09,-1,-0.0017933984266022454,-0.0016355782703549064,-0.0053558262769410146,0.004890197054305633,0.9935707666877982
2016-12-13,-1,-0.0012934078415258725,-0.0012089530811908863,-0.0053558262769410146,0.004890197054305633,0.9937000569478144
2016-12-15,-1,-0.0016777302922920826,-0.0015386805377782056,-0.004222745425019141,0.005653878013500889,0.9935445802822161
2016-12-19,-1,-0.001910134432717557,-0.0017327018403774583,-0.0053558262769410146,0.007788857592980706,0.9924719969184571
2016-12-21,-1,-0.0012199952845345047,-0.0011644235234083617,-0.005929871579548865,0.008427270242974575,0.9921086277492592
2016-12-23,-1,-0.0012463165200144984,-0.0011691086540409265,-0.005929871579548865,0.009305875270903551,0.9916706173810841
2016-12-28,-1,-0.0013445014549559153,-0.0012717330000169241,-0.006122323411306826,0.009305875270903551,0.9894331391541425
2016-12-30,-1,-0.0010579734500359894,-0.0010128491021483203,-0.003554094696043786,0.009305875270903551,0.989874964126262
2017-01-04,-1,-0.000583656802935288,-0.0005657637665754905,-0.003554094696043786,0.009305875270903551,0.9897319477578831
2017-01-06,-1,-0.00011813227008211185,-3.763211190087947e-05,-0.006233965196160658,0.008828884740122136,0.9901064330922665
2017-01-10,-1,-0.0008248831693607336,-0.0008151822733859732,-0.0024334986950074137,0.010714641730154609,0.9904576456268344
2017-01-12,-1,-0.0005510140004530443,-0.0005237067603610637,-0.0024334986950074137,0.01188828955441937,0.9901288483625647
2017-01-17,1,3.86283055697838e-05,0.00015024128329305353,-0.0024334986950074137,0.010714641730154609,0.9913104340870005
2017-01-19,1,0.000113136286708202,0.00024099631364024588,-0.0006905570650105135,0.011093855332529552,0.9915951974871604
2017-01-23,1,0.0004334910978823044,0.0006121993721619093,7.572898892530141e-05,0.013340727005292586,0.9897814014919202
2017-01-25,1,0.000760316216562212,0.0009742699970495901,7.572898892530141e-05,0.013403521847133375,0.9896567436366791
2017-01-27,-1,-0.0005235274570893206,-0.0004649251862937297,7.572898892530141e-05,0.013403521847133375,0.9905349364444025
2017-01-31,-1,-0.0006551369044416736,-0.000635135299222373,0.0003698371926218678,0.013403521847133375,0.9899753036328813
2017-02-02,-1,-0.0007237196519539724,-0.0006800725488654945,7.572898892530141e-05,0.01286419665702643,0.9905612797876963
2017-02-06,-1,-0.0004955082650005361,-0.00048793906064687457,7.572898892530141e-05,0.01286419665702643,0.9910670585262888
2017-02-08,1,6.672192363787723e-05,0.00015664257506675932,-0.0003479322742864272,0.008143630444041556,0.991733704332949
2017-02-10,1,0.0005877827513232982,0.0007501495018922373,-0.001220024128728205,0.007965386611824228,0.991906005803506
2017-02-14,1,0.0008035467309507025,0.0010143189057894666,-0.0023713836233159604,0.007965386611824228,0.9916866543074292
2017-02-16,1,0.0013889822968501636,0.001684512234327606,-0.0023713836233159604,0.0050510348919146995,0.992546884140015
2017-02-21,1,0.0030098285659703595,0.0035243737074479456,-0.002468195902906737,0.0040121902624319,0.9948520943291153
2017-02-23,1,0.003427807040231365,0.003993818987971829,-0.002468195902906737,0.003395870382262107,0.9949217935864478
2017-02-27,1,0.0028708832592922555,0.003371311742771983,-0.002436893993598267,0.003395870382262107,0.996096197207862
2017-03-01,1,0.0030368061214990244,0.0035447670206295687,-0.0029494405789731943,0.002967131248861554,0.9958400448557201
2017-03-03,1,0.003087661603061481,0.003603667872380179,-0.0032888153478948154,0.0027559692631981933,0.995483741649504
2017-03-07,1,0.0029356660072495425,0.0034115262756720197,-0.0032888153478948154,0.002967131248861554,0.9957955542389005
2017-03-09,1,0.0027957221683291137,0.0032518252151497204,-0.0032888153478948154,0.0026588423394524685,0.9957910223311014
2017-03-13,1,0.0029552861091976437,0.003429919888228275,-0.0029494405789731943,0.0032948217595176314,0.9964709215208211
2017-03-15,1,0.002858213070404659,0.0033101464597540186,-0.002341697437667442,0.0032948217595176314,0.9966629937305508
2017-03-17,1,0.002673635036482997,0.0030821327668649257,-0.0029494405789731943,0.003508591440266949,0.9965126990822664
2017-03-21,1,0.0026211142048028083,0.0030300674096000466,-0.0032888153478948154,0.00387171936794516,0.9961392211744645
2017-03-23,1,0.0024927701815050662,0.002866175566766933,-0.0032888153478948154,0.00387171936794516,0.9957995038389378
2017-03-27,1,0.0024400571520352653,0.002822936438529121,-0.00285035822547667,0.004146889706682778,0.995873856458256
2017-03-29,1,0.0024143826621261183,0.002788457201862502,-0.003267573381605353,0.004055347456391206,0.9953634764202246
2017-03-31,1,0.0018446031642872737,0.002104946085650145,-0.00362165602475341,0.004055347456391206,0.9946200553985471
2017-04-04,1,0.0024366384622384564,0.0028201460759870573,-0.004517835519451006,0.004146889706682778,0.9937037542013344
2017-04-06,1,0.001287136231608121,0.0014205760083393524,-0.0036472258871464306,0.004412405014614472,0.9935952053321795
2017-04-10,1,0.0012985117800432748,0.0014166747159370158,-0.00462908100154218,0.004183529551837156,0.9935052016464845
2017-04-12,1,0.0013426773352455538,0.0014669361733188192,-0.00462908100154218,0.004277466295818133,0.993384296067131
2017-04-17,1,0.0010911630788883074,0.001159660542295699,-0.0048410647288692436,0.004277466295818133,0.9934100816785995
2017-04-19,1,0.000873980327821179,0.0009208779916139931,-0.0036817617820585425,0.004795257538449102,0.9914399442910171
2017-04-21,1,0.0006889700071771083,0.0007149941409972849,-0.0048410647288692436,0.006111158488019879,0.9900729257003507
2017-04-25,1,0.0010079020160304087,0.001072256319514371,-0.006247007617693475,0.004277466295818133,0.989975877556953
2017-04-27,1,0.00028184590248944344,0.0003405540750613489,-0.0053555360285781495,0.006783680832178814,0.9899128214780444
2017-05-01,-1,-0.0004774063302040531,-0.0003183086668785963,-0.0048410647288692436,0.008934961670557432,0.9904937779191842
2017-05-03,-1,-0.0005078028938885113,-0.00036825226099339563,-0.0030633981206482043,0.008934961670557432,0.9909812557272623
2017-05-05,-1,-0.00021904191752914024,-0.00011819734892074696,-0.0030633981206482043,0.006331150116356469,0.9913471434554433
2017-05-09,-1,-0.0002577460068408462,-0.00016221218040093883,-0.0026247661113733643,0.006331150116356469,0.9913370840525669
2017-05-11,-1,-0.0004365230402129008,-0.00030589987248240527,-0.0035251687010447227,0.006331150116356469,0.9907762583199992
2017-05-15,-1,-0.0005360758016573222,-0.0003881588936522177,-0.002922119689699239,0.006228035260930286,0.9910533520183139
2017-05-17,1,0.0008730624419820889,0.0008883909059344969,-0.002922119689699239,0.005655929227951156,0.99380866781629
2017-05-19,1,0.0005323698038716253,0.0005572604495198191,-0.0011187961521614185,0.005655929227951156,0.995050303445279
2017-05-23,0,-8.378322892030066e-05,2.923004694853923e-05,-0.0011187961521614185,0.005655929227951156,0.9947842751569329
2017-05-25,1,0.0003151372581070926,0.00038873240664405494,-0.0022123971568910428,0.004532119528713433,0.9955122258075003
2017-05-30,1,0.0006446309637835784,0.000667483920064829,-0.002922119689699239,0.0037417789362642092,0.9955313428705453
2017-06-01,1,0.0009635855398232528,0.00099973135268459,-0.004499312769997961,0.002186019855776874,0.9949091030763312
2017-06-05,1,0.000576051785300939,0.0006288864542504564,-0.004499312769997961,0.0019092943683472687,0.9950978753782345
2017-06-07,1,0.0005183061931506158,0.0005731177597958881,-0.004865162249541336,0.0005643989959584476,0.9949863404235255
2017-06-09,1,0.00021049101125401342,0.0002788365938721837,-0.003837040691415671,0.0005643989959584476,0.9957836269413596
2017-06-13,1,7.351332840092612e-05,0.00016285545931279933,-0.004865162249541336,-0.00026264198357618,0.9955300874730596
2017-06-15,1,0.0003199687526825488,0.000374911215414367,-0.004865162249541336,-0.0004917204904769615,0.995562797841416
2017-06-19,1,0.0006078399318074539,0.0006157068296873368,-0.004865162249541336,-0.0006175524072048738,0.9956598604341163
2017-06-21,-1,-0.0008699078386379511,-0.0005979123563463921,-0.003837040691415671,-0.00040903080949485673,0.9970567623991234
2017-06-23,-1,-0.001070865912074849,-0.0007474703913764618,-0.004531673552024901,-0.00040903080949485673,0.995719310050483
2017-06-27,-1,-0.001111121928767752,-0.000810375168879073,-0.003837040691415671,0.0004460015793043517,0.9951652591341922
2017-06-29,-1,-0.0018781427856532737,-0.0014754743284006878,-0.003709515696049612,0.0004460015793043517,0.9956813113915394
2017-07-03,-1,-0.001744497486107616,-0.0013809410831804266,-0.004894848800087319,3.4623274268489224e-05,0.9953956567343055
2017-07-06,-1,-0.0017172009757126688,-0.00138194424363825,-0.004894848800087319,0.0001353864658065212,0.9954647681584995
2017-07-10,-1,-0.001961664199517053,-0.00159565842770244,-0.004894848800087319,0.0017305198755507096,0.9952279098671379
2017-07-12,-1,-0.0019518224900246031,-0.0016176589194861674,-0.0025315849226834257,0.0017305198755507096,0.9955153201812587
2017-07-14,-1,-0.0007972773135633006,-0.0006857776424071447,-0.004211622710942916,0.0001353864658065212,0.9957323641730945
2017-07-18,-1,-0.00046115555377966875,-0.00041554445273052414,-0.004211622710942916,0.0026955748415632592,0.9953593189636617
2017-07-20,-1,-0.0011177521375594192,-0.0009579228561816415,-0.004211622710942916,0.0026955748415632592,0.9951244870611421
2017-07-24,-1,-0.0010088101984995859,-0.0008791015864307401,-0.003958649413373578,0.0026955748415632592,0.9962838573842311
2017-07-26,-1,-0.00042774485205272967,-0.0003691369427206867,-0.004211622710942916,0.000766825796525816,0.9967766427443995
2017-07-28,-1,-0.0005910603390771524,-0.0005164862362750651,-0.004211622710942916,0.002024464862673681,0.9965083685205529
2017-08-01,-1,-0.00106396128623692,-0.0009270189109009777,-0.003617067135826949,0.0029089906914097803,0.9965641519650794
2017-08-03,-1,-0.0009462779222336464,-0.0008355631436823339,-0.003958649413373578,0.003952632067796843,0.9958762853159845
2017-08-07,-1,-0.0008476165197148777,-0.0007501744980116388,-0.004226316978268658,0.0032243186933735334,0.9958542816048302
2017-08-09,-1,-0.0008943710801087027,-0.0007927938419639935,-0.004226316978268658,0.004980838125353892,0.9955210846614536
2017-08-11,-1,-0.0010859377042555887,-0.00095720374204031,-0.004131844055399106,0.004980838125353892,0.995283232632842
2017-08-15,-1,-0.0007375310547677481,-0.0006552059982666671,-0.004313599288847759,0.00403188457799313,0.9955842328234716
2017-08-17,-1,-0.0010895445429497791,-0.0009560308036340279,-0.003987743516899945,0.005256576917042994,0.9955904252452907
2017-08-21,-1,-0.0008694441500920829,-0.0007654976513558297,-0.0036776522136431665,0.005256576917042994,0.9957633984804387
2017-08-23,-1,-0.0011353566161987046,-0.000992825649569757,-0.0037205217369677026,0.005256576917042994,0.9951585940619866
2017-08-25,-1,-0.0010173834130919374,-0.0008991752039873302,-0.003527993209182868,0.005418288705917804,0.9943489606242099
2017-08-29,-1,-0.0009718202958466019,-0.0008496520478160123,-0.0037205217369677026,0.005342791751112812,0.9943358792237489
2017-08-31,-1,-0.0006376151423400031,-0.0005676742345603923,-0.003703447956762209,0.004060622856016403,0.9948130083697545
2017-09-05,-1,-0.0007738216965397447,-0.0006944361140957398,-0.003703447956762209,0.004060622856016403,0.9946838349755948
2017-09-07,-1,-0.0005289527612031817,-0.00048059890202405,-0.003703447956762209,0.004731626733106178,0.9945020587890135
2017-09-11,-1,-0.0004718232389133416,-0.0004170350001099531,-0.004183117935127779,0.004731626733106178,0.9943478767141227
2017-09-13,-1,-0.0007352892035336982,-0.000642276180061104,-0.004131896594511297,0.005869890933208865,0.9928760590173847
2017-09-15,-1,-0.00011078574919062693,-0.00010485212578272921,-0.004131896594511297,0.005869890933208865,0.9925521433950277
2017-09-19,-1,-9.150493235046361e-05,-8.075749776640043e-05,-0.004405607456993339,0.0058340189100292515,0.9922675560871002
