JNU-Tangyin/eata/results/Batch4_SP500/Batch4_SP500-HAS.csv
Date,Action,Predicted_Q25,Predicted_Q75,Actual_Q25,Actual_Q75,RL_Reward
2010-12-14,0,0.0,0.0,-0.012067154269900833,0.0015352975663963354,0.9916169511174489
2010-12-16,0,0.0,0.0,-0.012067154269900833,0.0005329989895292992,0.9915545261263664
2010-12-20,0,0.0,0.0,-0.012067154269900833,0.0005329989895292992,0.9908098642771027
2010-12-22,0,0.0,0.0,-0.012067154269900833,0.0005329989895292992,0.9910322089354455
2010-12-27,0,0.0,0.0,-0.010331804479027375,0.0005329989895292992,0.9919334577097764
2010-12-29,0,0.0,0.0,-0.008966696406167738,0.0012390632753076294,0.9933149444383432
2010-12-31,0,0.0,0.0,-0.008966696406167738,0.0025765058184774323,0.9931140748075366
2011-01-04,0,0.0,0.0,-0.006077183022048784,0.0025765058184774323,0.9935591412478317
2011-01-06,0,0.0,0.0,-0.006077183022048784,0.003198756222585822,0.9923906721454765
2011-01-10,-1,-0.0017709847637452192,-0.001567099240929436,-0.006077183022048784,0.0046332064279148545,0.9914192432891875
2011-01-12,-1,-0.003254096147110274,-0.002884467412952691,-0.005658044574058069,0.0046332064279148545,0.9916678523988808
2011-01-14,-1,-0.002256890057631218,-0.0021849888162377477,-0.005685158532313359,0.0046332064279148545,0.9916770371345772
2011-01-19,-1,-0.00028883254150334297,-0.0002874734040011175,-0.005685158532313359,0.0046332064279148545,0.9914085663107378
2011-01-21,0,0.0,0.0,-0.005685158532313359,0.006400906698307272,0.9905116991070367
2011-01-25,0,0.0,0.0,-0.008784578321744674,0.006400906698307272,0.9889376545833589
2011-01-27,0,0.0,0.0,-0.008784578321744674,0.006918995404790834,0.988842228069839
2011-01-31,0,-0.00028420428202245165,0.0,-0.0077144872718805475,0.007756950207907166,0.9899414722548224
2011-02-02,-1,-0.00017569272696689377,-8.915592684466899e-06,-0.007129898267629558,0.011879732371264926,0.988650500647948
2011-02-04,-1,-0.003145341123569681,-0.0026433371057009176,-0.007129898267629558,0.010360195470936046,0.9887915051635245
2011-02-08,-1,-0.001753304040762222,-0.0014402797748645727,-0.007129898267629558,0.009898671394276597,0.9898392100764007
2011-02-10,-1,-0.0013264035401208845,-0.001111690395597593,-0.0077144872718805475,0.009898671394276597,0.9900674037647512
2011-02-14,0,0.0,0.0,-0.007844954388610232,0.009898671394276597,0.9898734780791085
2011-02-16,-1,-0.0009081814002816787,-0.0008170959547744859,-0.007844954388610232,0.009068700211847393,0.9906948053357043
2011-02-18,0,0.0,0.0,-0.007844954388610232,0.009275002083998155,0.9908125325556288
2011-02-23,0,0.0,0.0,-0.004774023295495613,0.009275002083998155,0.9915758738809204
2011-02-25,-1,-0.0020171103028970745,-0.001656153610144651,-0.004774023295495613,0.009275002083998155,0.9907814362631093
2011-03-01,-1,-0.002064896064015436,-0.0017109726235977978,-0.005046591469554705,0.009275002083998155,0.9908659639063471
2011-03-03,-1,-0.001224624065271603,-0.0009586873054905874,-0.00877763045204501,0.008868935697441759,0.9920050480365753
2011-03-07,-1,-0.0007628423007062614,-0.0005634644820687576,-0.00877763045204501,0.0077082315048338885,0.9922629546963395
2011-03-09,-1,-0.0016670677691571726,-0.0012593695889711787,-0.00877763045204501,0.0077082315048338885,0.9925390400834879
2011-03-11,0,0.0,0.0,-0.009220851258901128,0.0077082315048338885,0.9923420321242534
2011-03-15,-1,-0.00047692954912683587,-0.00040466150334600746,-0.009220851258901128,0.0077082315048338885,0.9917391804246424
2011-03-17,-1,-0.0008687097198216691,-0.0007397026233601489,-0.009568112196982613,0.0077082315048338885,0.9906852887831193
2011-03-21,0,-3.2858861922763715e-05,1.5901693558437782e-06,-0.009782213314182274,0.005727913662869448,0.9908085929104024
2011-03-23,-1,-0.0005675368582780812,-0.00046349663722101763,-0.009568112196982613,0.007691661399795347,0.9909425060538848
2011-03-25,0,0.0,0.0,-0.009568112196982613,0.004480582763939719,0.9903805031067879
2011-03-29,0,0.0,0.0,-0.008390976713472756,0.009211879491957845,0.9903730969002512
2011-03-31,-1,-0.0005275028672797185,-0.00016771949764127648,-0.005169248266574531,0.00822381646885413,0.9907755224708734
2011-04-04,-1,-0.0006561107325791472,-0.00024613356148431797,-0.005977310963951378,0.007594685734331542,0.9909368134729148
2011-04-06,-1,-0.0008029811686129397,-0.00038130445144282936,-0.005977310963951378,0.00822381646885413,0.990382980194536
2011-04-08,-1,-0.0008491839439793633,-0.0003918121796151195,-0.005977310963951378,0.00822381646885413,0.9904163393713283
2011-04-12,-1,-0.0007517881387600139,-0.0002837873829922709,-0.004167740472299213,0.009384836258051194,0.9909556485795702
2011-04-14,0,0.0,0.0,-0.004167740472299213,0.010760372078233557,0.991595873035481
2011-04-18,0,0.0,0.0,-0.005070497711546237,0.010760372078233557,0.9914260653705569
2011-04-20,-1,-0.0041832005526421185,-0.004042364270654014,-0.005070497711546237,0.010760372078233557,0.9900283071766134
2011-04-25,-1,-0.002758160930018467,-0.002705619630573608,-0.005070497711546237,0.009889793549959423,0.9916382302825147
2011-04-27,-1,-0.002081820903942352,-0.0018878242363841303,-0.00575592983932674,0.008392135566156872,0.9922182119695437
2011-04-29,-1,-0.0013089954651261397,-0.0009846440093467428,-0.007885914002961838,0.008024718391829028,0.9918912918704849
2011-05-03,0,0.0,0.0,-0.008340155123653761,0.006376630007741401,0.9914646032990456
2011-05-05,0,0.0,0.0,-0.008545811042022245,0.003051529371230746,0.9911275188612244
2011-05-09,0,0.0,0.0,-0.008829364136354247,0.003051529371230746,0.9906858108532063
2011-05-11,0,0.0,0.0,-0.010433687998717977,0.0011495831904933997,0.9906037129806519
2011-05-13,0,0.0,0.0,-0.012452051622001421,0.0011495831904933997,0.9905030038558919
2011-05-17,1,0.0012085339890825907,0.0016933242015224205,-0.010433687998717977,0.005362221662719023,0.9905710765767693
2011-05-19,1,0.0031213856540529116,0.003665888361683682,-0.010433687998717977,3.0224377788821684e-06,0.9899236123984932
2011-05-23,1,0.002501936999968574,0.0029515051508466417,-0.009256808023717738,0.0018350799059618729,0.9902476673637535
2011-05-25,1,0.0013954321034750283,0.0016410259961432486,-0.009159892336017331,0.0018350799059618729,0.9910886591520162
2011-05-27,-1,-0.0003794995361297977,-0.000331172487743277,-0.007698658042602148,0.005362221662719023,0.9923082912491079
2011-06-01,-1,-0.0004929012922346417,-0.0004336919378805148,-0.007028589953764885,0.0059618208410743235,0.9917270639150851
2011-06-03,-1,-0.0015910655879051421,-0.0014010131080315505,-0.006256561901624333,0.007536926122395268,0.9909866007326344
2011-06-07,0,0.0,0.0,-0.006256561901624333,0.010765698508200378,0.9902285375306987
2011-06-09,1,0.0008882845139948172,0.0009289973047062947,-0.006256561901624333,0.010765698508200378,0.9896793545914822
2011-06-13,1,0.0003366135461301392,0.0003590341376525975,-0.006256561901624333,0.010765698508200378,0.9888651964397491
2011-06-15,-1,-0.003111238730980011,-0.002678924335595699,-0.010200386718057185,0.006434042631707136,0.988406317667223
2011-06-17,-1,-0.0034706626883442026,-0.0029877761370103416,-0.014264575079117148,0.006434042631707136,0.9860710460795147
2011-06-21,-1,-0.002392346996965217,-0.0020647628751074747,-0.014264575079117148,0.004160609105295824,0.9866533122516296
2011-06-23,-1,-0.0033237926472446024,-0.0028416897261289596,-0.014264575079117148,0.006434042631707136,0.9851885782822071
2011-06-27,-1,-0.0036684206194074736,-0.0031089243672697943,-0.014264575079117148,0.004160609105295824,0.9858823131706781
2011-06-29,-1,-0.0020551746610558584,-0.0017602101670326714,-0.014264575079117148,0.0026427951201171036,0.9866557177004452
2011-07-01,0,0.0,0.0,-0.014264575079117148,0.0016607823852349197,0.9878259560919819
2011-07-06,0,0.0,0.0,-0.020550338943638894,0.0016607823852349197,0.9862442508647646
2011-07-08,0,0.0,0.0,-0.021282720526356345,0.0005534167913325344,0.9858218399081681
2011-07-12,0,0.0,0.0,-0.021282720526356345,0.0005534167913325344,0.9824621543219423
2011-07-14,-1,-0.0023454923646393892,-0.0020632624892836277,-0.006327062088676896,0.0016607823852349197,0.9829207054538257
2011-07-18,0,0.0,0.0,-0.004833511014974291,0.011994437774687616,0.983599049275337
2011-07-20,-1,-0.004222906522109257,-0.0036912429310129473,-0.006159566601112722,0.011994437774687616,0.9834879083050195
2011-07-22,-1,-0.003581871792783261,-0.0031466052967547183,-0.00967120721408221,0.011994437774687616,0.9820485716058343
2011-07-26,0,0.0,0.0,-0.00967120721408221,0.015118047937197687,0.9800248237907041
2011-07-28,0,0.0,0.0,-0.013313637966218131,0.015118047937197687,0.9790438522795837
2011-08-01,-1,-0.003237244702980916,-0.0030304352717378117,-0.013313637966218131,0.020256231773530912,0.9775066684939404
2011-08-03,-1,-0.003335005166816546,-0.0031038601472643673,-0.0070317892063767795,0.01796814429923595,0.9787795123755029
2011-08-05,0,0.0,0.0,-0.013313637966218131,0.01796814429923595,0.9784840502352394
2011-08-09,0,0.0,0.0,-0.013313637966218131,0.01796814429923595,0.9812588274822034
2011-08-11,0,0.0,0.0,-0.013313637966218131,0.01448183157064035,0.9832603297442815
2011-08-15,0,0.0,0.0,-0.016315358311138617,0.01231385836495722,0.9834925160571459
2011-08-17,-1,-0.0022108853144753057,-0.0020049800677766137,-0.024601932430057268,0.01796814429923595,0.9812868773635485
2011-08-19,-1,-0.003672326436610398,-0.003305505475359981,-0.016268196892718235,0.01231385836495722,0.9842140378550953
2011-08-23,0,0.0,0.0,-0.021626661078510644,0.0106221058740626,0.9841185928654117
2011-08-25,0,0.0,0.0,-0.015292160248342821,0.007915594263664566,0.9849195157753884
2011-08-29,0,0.0,0.0,-0.015292160248342821,0.007915594263664566,0.9853837601622967
2011-08-31,0,0.0,0.0,-0.021626661078510644,0.0029154461224646473,0.9853665848762875
2011-09-02,0,0.0,0.0,-0.019422104766055184,0.0029154461224646473,0.985279170110709
2011-09-07,-1,-0.005932524300145328,-0.005390929208185277,-0.01488265369231614,0.006783178358622759,0.9859878987727406
2011-09-09,-1,-0.006065641813555058,-0.005483541906312978,-0.01488265369231614,0.006783178358622759,0.9861893484093849
2011-09-13,-1,-0.005762324254789394,-0.005235088907368053,-0.013635295567707515,0.007449845537255341,0.9842772436166842
2011-09-15,0,0.0,0.0,-0.012469976079854252,0.004128600266707832,0.9856675518603447
2011-09-19,0,0.0,0.0,-0.012469976079854252,0.007449845537255341,0.9853179852573352
2011-09-21,0,0.0,0.0,-0.012469976079854252,0.007449845537255341,0.9857775473573823
2011-09-23,0,0.0,0.0,-0.009406951249885259,0.009549423752708525,0.9854911835470161
2011-09-27,1,0.04759714135026494,0.05018402765022187,-0.01450450068147002,0.009549423752708525,0.9549889553646564
2011-09-29,0,0.0,0.0,-0.009406951249885259,0.02332829736051033,0.9807312534138253
2011-10-03,0,0.0,0.0,-0.007084069742951449,0.02332829736051033,0.9827512304071463
2011-10-05,0,0.0,0.0,-0.007084069742951449,0.01732662216712267,0.9841239097605747
2011-10-07,0,0.0,0.0,-0.00694199229838499,0.01732662216712267,0.9836813692249881
2011-10-11,0,0.0,0.0,-0.00694199229838499,0.012977257903910196,0.9856564932706429
2011-10-13,0,0.0,0.0,-0.00694199229838499,0.012977257903910196,0.982869497277145
2011-10-17,0,0.0,0.0,-0.008805643990039472,0.01621773206150251,0.9823189871926608
2011-10-19,0,0.0,0.0,-0.008805643990039472,0.01621773206150251,0.9816566417506292
2011-10-21,0,0.0,0.0,-0.01487864440308069,0.01621773206150251,0.9808650784465187
2011-10-25,0,0.0,0.0,-0.01487864440308069,0.0122002236934032,0.9828792275435687
2011-10-27,1,0.003076990059169943,0.003673458793045015,-0.018575974607475846,0.008750850027678054,0.9847906826753831
2011-10-31,1,0.0022866276195345663,0.0027706469530643504,-0.014893103060323237,0.010459923828789809,0.984350513394315
2011-11-02,1,0.0025659152904980503,0.003069750757843745,-0.014893103060323237,0.010459923828789809,0.9832720592573995
2011-11-04,1,0.0030526538163359908,0.0036570664265040053,-0.014893103060323237,0.016754473710087762,0.9825595903765925
2011-11-08,1,0.003252745188767792,0.0038731892723288617,-0.014893103060323237,0.016754473710087762,0.9822077353983701
2011-11-10,1,0.002543736707420103,0.0031041653851207225,-0.014356552145608725,0.016754473710087762,0.9844907056552935
2011-11-14,1,0.0023545692812442136,0.0028781568931108576,-0.017009697835059946,0.012039560709252708,0.9831057529428749
2011-11-16,1,0.002240348643767829,0.002765985830058242,-0.017009697835059946,0.014275956918177273,0.9828719978513596
2011-11-18,1,0.002484123708772826,0.0030767758060633284,-0.017009697835059946,0.010460569656486281,0.9824026493590235
2011-11-22,0,0.0,0.0,-0.01270527008017446,0.012478153918507139,0.9838385920574578
2011-11-25,1,0.0011168693627231273,0.0016285228229264727,-0.01270527008017446,0.012478153918507139,0.9831408110065364
2011-11-29,1,0.0016262681578532998,0.0021811559323975235,-0.015552631326153268,0.010188631959952846,0.983548760611226
2011-12-01,1,0.0018515688604852315,0.00238456907212266,-0.015552631326153268,0.010188631959952846,0.9846759495141291
2011-12-05,1,0.002411247924458796,0.0029369275815873666,-0.015552631326153268,0.009380676908881414,0.9854083031146721
2011-12-07,1,0.0019235913441188282,0.0023004001575967015,-0.018022750700030704,0.008630536143288368,0.9848264529290401
2011-12-09,1,0.0017482302760160493,0.0021030142376475556,-0.01710223510583854,0.012235241168831441,0.9847778663511385
2011-12-13,0,0.0,0.0,-0.010518222315209562,0.012235241168831441,0.9866488639956748
2011-12-15,0,0.0,0.0,-0.00972884667646604,0.012235241168831441,0.9874400569812425
2011-12-19,0,0.0,0.0,-0.009125882808516603,0.012235241168831441,0.9891018605219662
2011-12-21,0,0.0,0.0,-0.009125882808516603,0.012377251419993261,0.9880272355806884
2011-12-23,0,0.0,0.0,-0.005844610486732389,0.012716274698456632,0.9883074996237287
2011-12-28,0,0.0,0.0,-0.0035268249057745786,0.012716274698456632,0.9891121071276807
2011-12-30,0,0.0,0.0,-0.003559407419673392,0.013103712340985176,0.9884683750099246
2012-01-04,0,0.0,0.0,-0.003559407419673392,0.012671203532601932,0.9891555023913764
2012-01-06,0,0.0,0.0,-0.001465197696106936,0.01447464838080744,0.9882767891949987
2012-01-10,-1,-0.0011630135428299486,-0.0011212418764126695,-0.005313874549914567,0.012671203532601932,0.9883675275718127
2012-01-12,-1,-0.001253282603469832,-0.0011774803388969848,-0.004061256483509482,0.014916357327057353,0.98747163098657
2012-01-17,-1,-0.00044051594661867634,-0.0003410294720457491,-0.003402344340320141,0.014916357327057353,0.9886550080001821
2012-01-19,-1,-0.0009436020531977168,-0.0009409548080258688,-0.003402344340320141,0.014916357327057353,0.9868382552523536
2012-01-23,0,0.0,0.0,-0.004555005864276167,0.012777077896911961,0.9877131791871371
2012-01-25,1,0.0010678539713971534,0.0013364226844438244,-0.008776802174132164,0.012777077896911961,0.9871005322347188
2012-01-27,0,0.0,0.0,-0.008790395573253049,0.013523186623309744,0.9862800657286102
2012-01-31,0,0.0,0.0,-0.006823952874463131,0.013241623345091231,0.9875013401810526
2012-02-02,1,0.0010337010355045274,0.0012268204714691176,-0.006823952874463131,0.013241623345091231,0.9875775844963315
2012-02-06,1,0.0021965681842186385,0.0025291857675154524,-0.008790395573253049,0.008342610218080608,0.9874391570396596
2012-02-08,1,0.001309179547654083,0.0015228646122153083,-0.005734861848404469,0.009196977580621104,0.9884486319199688
2012-02-10,1,0.0021503673296010464,0.0024600308151661336,-0.005734861848404469,0.008367739329127611,0.9891710453325039
2012-02-14,1,0.0012908115805186442,0.0014220371241704232,-0.006333851650124395,0.008367739329127611,0.9889517935278699
2012-02-16,1,0.000746802312673158,0.0008012485887927698,-0.005566963640584596,0.007743015810291974,0.9907983158047705
2012-02-21,1,0.0006609755684627508,0.0007291615606441143,-0.005566963640584596,0.008367739329127611,0.9901802956968953
2012-02-23,-1,-0.00028598185005953577,-0.00019168252561306646,-0.005566963640584596,0.007743015810291974,0.9918271735706697
2012-02-27,-1,-0.0013339048740038757,-0.0010170042495128572,-0.003885693301911029,0.008367739329127611,0.9912095103329582
2012-02-29,-1,-0.0004768630195469464,-0.00034155552003096984,-0.0037520875075246225,0.008367739329127611,0.9910445133858532
2012-03-02,-1,-0.0008656582666092816,-0.000664738390172731,-0.0039517507747645975,0.008367739329127611,0.9907993918229377
2012-03-06,-1,-0.0005769960273193132,-0.0004840230356263451,-0.002415494187941542,0.008367739329127611,0.9918773423831216
2012-03-08,-1,-0.0005796193975766195,-0.00045869773964347775,-0.0039517507747645975,0.008013624877112277,0.9918108134886067
2012-03-12,1,0.0002636798489556352,0.00027539445397712124,-0.008237399294996124,0.006758030567286213,0.9907003993878005
2012-03-14,-1,-0.00019946857890194527,-0.00011705022350949837,-0.008237399294996124,0.007982879661407864,0.9904359300113392
2012-03-16,1,0.00023858251656988077,0.0002473795697188849,-0.009213606679601772,0.007982879661407864,0.9898886067132496
2012-03-20,1,0.0010441396165290994,0.0012010058360734863,-0.008647712762576878,0.007982879661407864,0.9901548947860888
2012-03-22,0,0.0,0.0,-0.010660538582136867,0.007982879661407864,0.9897953047867708
2012-03-26,0,0.0,0.0,-0.011383554380649322,0.006404929620084909,0.9872524820097559
2012-03-28,0,0.0,0.0,-0.011383554380649322,0.013470980549956473,0.9858564398908225
2012-03-30,0,0.0,0.0,-0.010735579881270812,0.013470980549956473,0.9861780180667433
2012-04-03,0,0.0,0.0,-0.010735579881270812,0.00809192367063431,0.9866019756820239
2012-04-05,0,0.0,0.0,-0.012491280412621193,0.00809192367063431,0.985926460297449
2012-04-10,1,0.000586256409953924,0.0007360415916358884,-0.008217861272475263,0.008707379967384844,0.9871282589480014
2012-04-12,0,0.0,0.0,-0.011567881809727551,0.00570619238424297,0.9868876375110237
2012-04-16,0,0.0,0.0,-0.01245048394429759,0.00602879140536322,0.9864944293745312
2012-04-18,0,0.0,0.0,-0.01245048394429759,0.00602879140536322,0.9865191623899963
2012-04-20,1,0.0012011669120079618,0.0012666338366165795,-0.014645497862403016,0.00602879140536322,0.9851225970986336
2012-04-24,1,0.0010130160647079172,0.0010841771734503777,-0.0121929068142719,0.005314401134456611,0.9889722378788357
2012-04-26,0,0.0,0.0,-0.0121929068142719,0.0050253916947898825,0.9901690287726576
2012-04-30,0,0.0,0.0,-0.0121929068142719,0.0053257056263907735,0.9891953338189753
2012-05-02,0,0.0,0.0,-0.0121929068142719,0.0053257056263907735,0.989097005409979
2012-05-04,0,0.0,0.0,-0.012257005389674917,0.0053257056263907735,0.9891305768077461
2012-05-08,1,0.001790922023441554,0.0018947720163075285,-0.012257005389674917,0.0053257056263907735,0.9895629517696651
2012-05-10,1,0.0008337117650250213,0.0008864486682449255,-0.010961526947137376,0.0053257056263907735,0.9898303199771273
2012-05-14,-1,-0.001054101614948486,-0.0007095580053128571,-0.010961526947137376,0.006229260541331443,0.9894190813473205
2012-05-16,0,0.0,0.0,-0.012257005389674917,0.005467437187469692,0.9897867556472305
2012-05-18,-1,-0.0027198936700597058,-0.0022473303477789077,-0.00750911168009113,0.006965749753754286,0.9914992165870908
2012-05-22,-1,-0.00308531302553032,-0.002525088364966434,-0.007828044759207715,0.009333175449670057,0.9912267213704617
2012-05-24,-1,-0.002905286109557342,-0.002375816145631722,-0.010961526947137376,0.009333175449670057,0.9909820423914619
2012-05-29,-1,-0.0015654175256616895,-0.001226034079773055,-0.012257005389674917,0.004313745485892394,0.9912092282338023
2012-05-31,-1,-0.002223186273090561,-0.0017682695432606956,-0.01316390945414445,0.007047705388084804,0.9896999307248451
2012-06-04,0,0.0,0.0,-0.01138177606430302,0.010231307263633752,0.988518138233083
2012-06-06,-1,-0.002171497552019484,-0.0017810127038363052,-0.01138177606430302,0.010413866386988475,0.9884748412346263
2012-06-08,-1,-0.002644982917043858,-0.0021979406866077253,-0.0093568750709855,0.010413866386988475,0.9886826551227629
2012-06-12,-1,-0.003115962087195179,-0.002593557387082535,-0.008287530335431495,0.008152115424964045,0.9898481708746493
2012-06-14,-1,-0.0026788798647639986,-0.0022678223346088355,-0.008287530335431495,0.008152115424964045,0.9898061370885004
2012-06-18,-1,-0.0014858836821762971,-0.0012739546838066843,-0.011317008165622073,0.008152115424964045,0.9879818162213562
2012-06-20,0,0.0,0.0,-0.011317008165622073,0.009138785230155037,0.9876082779367494
2012-06-22,0,0.0,0.0,-0.008287530335431495,0.013909783740170385,0.9864385308487288
2012-06-26,0,0.0,0.0,-0.0073410079432701105,0.013909783740170385,0.9870716828201999
2012-06-28,-1,-0.000999514355021167,-0.0009376697724315553,-0.006689708703242025,0.015762069461746377,0.9870378011463031
2012-07-02,0,0.0,0.0,-0.0073410079432701105,0.013909783740170385,0.9879899038029429
2012-07-05,0,0.0,0.0,-0.007605422760572488,0.006050445685630979,0.9884828920622168
2012-07-09,0,0.0,0.0,-0.007605422760572488,0.014609882961511977,0.9875305528464154
2012-07-11,0,0.0,0.0,-0.006689708703242025,0.014609882961511977,0.9874777877119171
2012-07-13,0,0.0,0.0,-0.004565294268285164,0.014609882961511977,0.9877138155597727
2012-07-17,0,0.0,0.0,-0.0007515592355549312,0.01149064981977906,0.989816603546228
2012-07-19,0,0.0,0.0,-0.0005777333610896061,0.011555669856799788,0.9897144862267181
2012-07-23,0,0.0,0.0,-0.003330713760181878,0.009697042446696238,0.9916928867826345
2012-07-25,0,0.0,0.0,-0.003206163090794907,0.009697042446696238,0.9918876125552848
2012-07-27,1,0.0006423460182316094,0.0006484552237135946,-0.0035347620298399472,0.0071186470278022315,0.9933190074726665
2012-07-31,1,0.00018174833516884398,0.00021329859657450145,-0.0035347620298399472,0.0071186470278022315,0.9935286930130722
2012-08-02,1,0.00014646180061539133,0.00016448925190423958,-0.0027845062326490957,0.0071186470278022315,0.9940178215570598
2012-08-06,1,0.0009895293356605287,0.0010813913229543188,-0.003206163090794907,0.005154115397523199,0.9950521152362072
2012-08-08,1,0.0014347089237758753,0.0015871435564811464,-0.003206163090794907,0.004871979307943832,0.994531605438578
2012-08-10,1,0.002089152776192256,0.002359961805939813,-0.003685865164941171,0.003406114633243619,0.9942211817349962
2012-08-14,1,0.0018727157515668951,0.002108874389491724,-0.003685865164941171,0.005417328107828074,0.9932811933319128
2012-08-16,1,0.002718987023643203,0.0031085959092995437,-0.003685865164941171,0.005447779790094209,0.992660626862373
2012-08-20,1,0.002425176255904979,0.0027789463525401603,-0.006534828686019857,0.005447779790094209,0.9912459087283351
2012-08-22,1,0.0017179729186617837,0.001933967169968633,-0.007199833246569029,0.005447779790094209,0.991118039808975
2012-08-24,1,0.0020436591852220996,0.002339021311775263,-0.005702971534162791,0.005447779790094209,0.991624360644788
2012-08-28,1,0.0018351040271182477,0.0020886739254257995,-0.007199833246569029,0.005447779790094209,0.9908634143763062
2012-08-30,1,0.0012195684475229882,0.0013301149449984396,-0.007199833246569029,0.008113257727381851,0.9901859999116089
2012-09-04,1,0.0014447344631504976,0.001619541387432105,-0.006905398182097269,0.008113257727381851,0.9901411957146209
2012-09-06,1,0.0018472974809433057,0.0020749027375328716,-0.007199833246569029,0.006129375877518644,0.9906651701366359
2012-09-10,1,0.0019941313367150904,0.0022650832383414865,-0.006905398182097269,0.008284602239531012,0.9905506422291204
2012-09-12,1,0.0024063230115653413,0.0027080115612465217,-0.007199833246569029,0.006055123643202862,0.9901219860698655
2012-09-14,1,0.0027028505821754777,0.003020748086700821,-0.007199833246569029,0.008284602239531012,0.9888175305280218
2012-09-18,1,0.0019562294709230604,0.0022326788369763035,-0.006918404275775851,0.009880201779132947,0.9881260820050816
2012-09-20,1,0.0018447024908876592,0.0021185040530101347,-0.0066935812282581724,0.01241914409692273,0.9882965651638497
2012-09-24,0,0.0,0.0,-0.007688052488583803,0.01241914409692273,0.9875589581687739
2012-09-26,0,0.0,0.0,-0.007688052488583803,0.01241914409692273,0.9864377575203783
2012-09-28,0,0.0,0.0,-0.00827811531908526,0.009051961883222884,0.9868909219096641
2012-10-02,0,0.0,0.0,-0.010007080711614732,0.010130874499543526,0.9864218217950356
2012-10-04,0,0.0,0.0,-0.01165307083525935,0.01241914409692273,0.9851792571022361
2012-10-08,0,0.0,0.0,-0.015736369020744982,0.013625297046473219,0.9832445380674446
2012-10-10,0,0.0,0.0,-0.011264725551035991,0.013625297046473219,0.9842985150871857
2012-10-12,0,0.0,0.0,-0.011264725551035991,0.004094317286671173,0.9864575216595324
2012-10-16,0,0.0,0.0,-0.010807925175243479,0.0020049164165117507,0.9883475080777149
2012-10-18,0,0.0,0.0,-0.010807925175243479,0.002184146101340402,0.9881419787666783
2012-10-22,0,0.0,0.0,-0.008174660763344643,0.004632006341157126,0.987896353251646
2012-10-24,0,0.0,0.0,-0.007340217107964803,0.009903353185132715,0.9892099445141623
2012-10-26,0,0.0,0.0,-0.004691821083624257,0.009903353185132715,0.9895440286814001
2012-11-01,0,0.0,0.0,-0.0036796211560727096,0.007517820728304229,0.9902381301919019
2012-11-05,0,0.0,0.0,-0.004691821083624257,0.0038368288555476315,0.9906003872333591
2012-11-07,-1,-0.0010159840034669426,-0.0009208782901954302,-0.004691821083624257,0.0037567329683072396,0.9928308648099573
2012-11-09,-1,-0.0006742009047908374,-0.0006432885176829953,-0.004691821083624257,0.006026074825162689,0.992371455784154
2012-11-13,-1,-0.0009029865796715946,-0.0008475552177485531,-0.0044567949459826,0.006311794003115138,0.9918905837189885
2012-11-15,-1,-0.0021017883986700877,-0.001865031589012018,-0.006215605434511695,0.006311794003115138,0.9915701594030888
2012-11-19,-1,-0.001730823238856012,-0.0015026539132618577,-0.006215605434511695,0.006026074825162689,0.992966642805245
2012-11-21,-1,-0.00102885069454431,-0.0007631616887773078,-0.006215605434511695,0.004289472438765826,0.9935426047129756
2012-11-26,0,-8.771245428318907e-05,2.2053855106188617e-05,-0.006879174649193015,0.0021018964223512102,0.9933003288795079
2012-11-28,1,0.00033773520889410485,0.00043693903959373173,-0.00895076301803665,0.0021018964223512102,0.992582126045783
2012-11-30,-1,-0.00026223200289038524,-0.00011877983335112276,-0.00895076301803665,0.004003895947959365,0.9918602431777611
2012-12-04,-1,-0.001333601436173111,-0.0011750512142449155,-0.006493146686604568,0.005089249465502914,0.9929688826166759
2012-12-06,-1,-0.001586227236000493,-0.0013827558264870015,-0.00790288108289495,0.004003895947959365,0.9928171132447519
2012-12-10,-1,-0.0014039224243532415,-0.001202362382665354,-0.00790288108289495,0.001837465527037608,0.9928226629829816
2012-12-12,-1,-0.0011270850066552262,-0.0009727843519585916,-0.00790288108289495,0.001837465527037608,0.9914404181851673
2012-12-14,-1,-0.002108823512330346,-0.0018560936516873639,-0.007509143215452127,0.005696551769104776,0.9912138679838133
2012-12-18,-1,-0.002789076442539752,-0.002429613272856355,-0.007509143215452127,0.00877821759987515,0.9903302552124648
2012-12-20,-1,-0.002302105243691378,-0.002052239378726176,-0.007509143215452127,0.009718190142232866,0.9889962695203555
2012-12-24,-1,-0.003562459012408551,-0.003132868100639402,-0.007509143215452127,0.009718190142232866,0.9882284498121069
2012-12-27,-1,-0.0037457873918853,-0.0032656435142197605,-0.00806591952294392,0.009718190142232866,0.9876601644168359
2012-12-31,-1,-0.0027358466119946313,-0.0024256330913457642,-0.00806591952294392,0.008911399791314448,0.9882760380086556
2013-01-03,-1,-0.0018231171134814156,-0.0016600435235584942,-0.00806591952294392,0.008911399791314448,0.9881311658186854
2013-01-07,-1,-0.002326261846887421,-0.0021321568374340722,-0.005102596458499986,0.009718190142232866,0.9879897160306127
2013-01-09,-1,-0.0017273753858523238,-0.0016156616669381037,-0.005102596458499986,0.01045858681775201,0.9875060842217933
2013-01-11,-1,-0.0008648619977571441,-0.0008386662295374902,-0.004284655314605589,0.01045858681775201,0.9882488300042488
2013-01-15,-1,-0.0005825226497646001,-0.0005208833532841441,-0.003632880546934292,0.01045858681775201,0.9887075667162871
2013-01-17,0,-4.775347407458155e-06,0.00011056218184233316,-0.004284655314605589,0.011607828383480817,0.9889457333772771
2013-01-22,1,0.00036087011636105133,0.0005111908726159735,-0.004284655314605589,0.009876992487989844,0.9899579099203254
2013-01-24,1,5.464152985270806e-05,0.00016889573422228298,-0.0009412746316792477,0.009876992487989844,0.9911744161907075
2013-01-28,-1,-0.0006049099466177292,-0.0005803856357020051,-0.0003739801319993655,0.009876992487989844,0.9913458305827165
2013-01-30,-1,-0.00033448848658967207,-0.0002827218245750533,-0.002063215027677344,0.01146927309160841,0.9906380891156841
2013-02-01,1,0.00038827703557985067,0.0005556144429683074,-0.002063215027677344,0.01146927309160841,0.9912848391802462
2013-02-05,1,0.0005208869449169267,0.0006972849331110487,-0.0009349146652900407,0.01146927309160841,0.9911891650790664
2013-02-07,1,0.0016711717153585247,0.002051010938736652,-0.0009349146652900407,0.01146927309160841,0.9917455711413693
2013-02-11,1,0.0025003089817718926,0.003032104857685315,-0.0009349146652900407,0.01146927309160841,0.9926888389626284
2013-02-13,1,0.002795959468823662,0.0033071016331608447,-0.0018906091351847164,0.01037919389744299,0.9923853930586269
2013-02-15,1,0.0025835459973906354,0.003036849317702121,-0.0018906091351847164,0.009543198139699106,0.9930010379148048
2013-02-20,1,0.003134041031205863,0.003651285861812271,-0.0032498467282936236,0.009862530190866088,0.9924108845971795
2013-02-22,1,0.0027181133536920876,0.0031289155822029225,-0.0032498467282936236,0.012461232200668897,0.991175752270421
2013-02-26,1,0.0020633723158077063,0.0024420308891691493,-0.0032498467282936236,0.012461232200668897,0.9922429622695607
2013-02-28,1,0.001753481838228807,0.0020648259623168557,-0.003218643996621098,0.011193760707917066,0.9928111521233416
2013-03-04,1,0.001611816995892441,0.001880736401624478,-0.0038009671472268134,0.011193760707917066,0.9921074524998669
2013-03-06,1,0.00283709207391378,0.003319689799379807,-0.003884013947251862,0.010006126508964285,0.9923078648080278
2013-03-08,1,0.0029211416197824666,0.0033459626084418556,-0.003884013947251862,0.009849439177470101,0.9923281732630272
2013-03-12,1,0.004012162996623422,0.0046497380137716865,-0.003884013947251862,0.010006126508964285,0.9918176299917358
2013-03-14,1,0.004147711705355334,0.004778614356418225,-0.0038009671472268134,0.009849439177470101,0.9921304647768415
2013-03-18,1,0.0043145802560801225,0.004997437382813566,-0.003884013947251862,0.010519905635523834,0.9907880925535878
2013-03-20,1,0.0038349602148189748,0.004394763260121122,-0.003884013947251862,0.012504733469851693,0.9903863717347425
2013-03-22,1,0.004856573375289963,0.005525476828766808,-0.003884013947251862,0.012504733469851693,0.9897590943320129
2013-03-26,1,0.004409615894273216,0.004965069302715318,-0.0050012454999780395,0.014103067304649742,0.9884592924038084
2013-03-28,1,0.004387226350452142,0.004931709768851209,-0.00838466616532636,0.014103067304649742,0.9879371368644538
2013-04-02,1,0.0035068260473513175,0.003919825177964022,-0.006481390243206367,0.014103067304649742,0.9881633691742644
2013-04-04,1,0.003221800980322301,0.003567767358218632,-0.006096007071707371,0.014103067304649742,0.9880825668776969
2013-04-08,0,0.0,0.0,-0.006096007071707371,0.014103067304649742,0.9876412074775308
2013-04-10,0,0.0,0.0,-0.006096007071707371,0.010639335146925572,0.9888109005595468
2013-04-12,0,0.0,0.0,-0.006096007071707371,0.010639335146925572,0.9892641029402972
2013-04-16,1,0.00346388906381229,0.003784038704912249,-0.005294742014726713,0.00910717523821648,0.9908057491782265
2013-04-18,0,0.0,0.0,-0.005294742014726713,0.008218913056340956,0.9917773105674685
2013-04-22,0,0.0,0.0,-0.005294742014726713,0.006940769015795425,0.9932603845864466
2013-04-24,0,0.0,0.0,-0.005294742014726713,0.006940769015795425,0.9932548620338466
2013-04-26,0,0.0,0.0,-0.005294742014726713,0.004677506739309828,0.9935324292770484
2013-04-30,0,0.0,0.0,-0.007166900127143638,0.0032236562404384934,0.9913654293711762
2013-05-02,0,0.0,0.0,-0.007955899050845712,0.004677506739309828,0.9911443453683468
2013-05-06,0,0.0,0.0,-0.007955899050845712,0.004677506739309828,0.9911185401344316
2013-05-08,0,0.0,0.0,-0.008633699068355382,0.0025899276782993304,0.990881428120644
2013-05-10,0,0.0,0.0,-0.009165808674704665,0.004888605885034042,0.9896174223474921
2013-05-14,1,0.002465165932566824,0.0025061106749901083,-0.009682766037934562,0.004888605885034042,0.9882959602526897
2013-05-16,0,0.0,0.0,-0.009682766037934562,0.0077015683093724484,0.988316818691201
2013-05-20,0,0.0,0.0,-0.009682766037934562,0.0077015683093724484,0.9885374421343984
2013-05-22,1,0.0014136200050642765,0.0015707594726078191,-0.009682766037934562,0.005597142452596186,0.9890673380630715
2013-05-24,0,0.0,0.0,-0.009760185552361442,0.0077015683093724484,0.9885776543778799
2013-05-29,0,0.0,0.0,-0.008133268919628806,0.0077015683093724484,0.991102645301205
2013-05-31,0,0.0,0.0,-0.006169917224855927,0.007990420058375322,0.9911294039288501
2013-06-04,0,0.0,0.0,-0.006169917224855927,0.010110811850345382,0.9904792611269739
2013-06-06,0,0.0,0.0,0.000552820787167787,0.011407905244529164,0.9904370293424707
2013-06-10,-1,-0.0019803405929125616,-0.0014986265586051457,0.0023865582809017476,0.011181937519534132,0.9902783838000735
2013-06-12,-1,-0.002424959695437716,-0.0019271209195378571,0.002496697173573966,0.011181937519534132,0.9904887910890788
2013-06-14,-1,-0.0018082643652737361,-0.0014205880094808922,0.002496697173573966,0.010061404152173,0.9910397433783789
2013-06-18,-1,-0.001675717809182888,-0.0012753838498285176,-0.004473264679611615,0.0084938021832317,0.9907019096523272
2013-06-20,-1,-0.003275291666750636,-0.0026268727017854064,-0.004473264679611615,0.01011531974960523,0.9899132998402151
2013-06-24,-1,-0.0041231400579590195,-0.0033366655565338,0.0006120180872150839,0.011181937519534132,0.987773062631704
2013-06-26,0,0.0,0.0,-0.004473264679611615,0.011181937519534132,0.9888763730947321
2013-06-28,0,0.0,0.0,-0.004473264679611615,0.01011531974960523,0.9895564688968905
2013-07-02,0,0.0,0.0,-0.00673896735346681,0.00815473215931286,0.989531232115861
2013-07-05,0,0.0,0.0,-0.00673896735346681,0.00815473215931286,0.9892231758597418
2013-07-09,0,0.0,0.0,-0.009350162015027181,0.007175090297927773,0.9891104589324763
2013-07-11,0,-9.60706069701926e-05,3.925670315136709e-05,-0.009350162015027181,0.007887904232687416,0.9890417734545778
2013-07-15,1,9.777266239515672e-05,0.0001852991236627788,-0.011971967050945335,0.0032923527944376464,0.9884968145529455
2013-07-17,-1,-0.0010127358205915412,-0.0007954935322288934,-0.009350162015027181,0.007800169962807986,0.989539447622499
2013-07-19,-1,-0.0022846051921434204,-0.0018677479987271163,-0.008720766338126778,0.0029894301089787704,0.9908887833240689
2013-07-23,-1,-0.0008291054570690241,-0.0005755743447399014,-0.008720766338126778,0.0008508787101396068,0.9930958289820578
2013-07-25,-1,-0.001438055122527893,-0.001113952257962213,-0.008144864332198779,0.0021732740258279377,0.9929988587761059
2013-07-29,-1,-0.0009164106638346478,-0.0006681057898134645,-0.008144864332198779,0.006428618514044023,0.9917408803985029
2013-07-31,-1,-0.0015489925699559693,-0.0012681911410977974,-0.007346723842410566,0.006428618514044023,0.9919210731919387
2013-08-02,-1,-0.0006865644938884032,-0.0005168150884929154,-0.007346723842410566,0.0046925694401282496,0.99293791530683
2013-08-06,-1,-0.0012462659326569535,-0.0010103368133248158,-0.0071073143786918695,0.007800169962807986,0.9923265764108217
2013-08-08,-1,-0.001299544424425556,-0.0010527696582079667,-0.005714200244277001,0.009211772789646347,0.9916611410740154
2013-08-12,-1,-0.0021550467882226676,-0.0017994027597518997,-0.00364443687735847,0.009211772789646347,0.9911293982599108
2013-08-14,-1,-0.0012887044982528846,-0.0011168342913723704,-0.004105893173658446,0.009211772789646347,0.9913031915877235
2013-08-16,-1,-0.0018832720786851362,-0.001627311702955324,-0.000441011934564978,0.010085251673221976,0.9904115502034889
2013-08-20,-1,-0.0016538491292234915,-0.0014290011737010642,-0.00043824035071593227,0.01142158591373385,0.9894074025663809
2013-08-22,-1,-0.0016361353706741363,-0.001386394332017077,-0.00043824035071593227,0.01236679387015279,0.9891876698809225
2013-08-26,-1,-0.0010013336428633716,-0.000831240064458966,-0.0030838217203948116,0.010336149053675449,0.99053221100284
2013-08-28,-1,-0.0016664745812300197,-0.0014037048430946405,-0.004984787597450347,0.010336149053675449,0.9907126456380164
2013-08-30,-1,-0.0008356761719041376,-0.0007404059470240271,-0.00567130514322453,0.010336149053675449,0.990400941959879
2013-09-04,-1,-4.790455410743389e-06,-3.764576082804911e-06,-0.005930750195279463,0.009326519373067475,0.9908522256855524
2013-09-06,1,0.0005096999228964802,0.0005519997399073247,-0.006516517061783546,0.008304015287824536,0.9912194733483911
2013-09-10,-1,-0.0002136719113154764,-0.00017341415188450437,-0.008448031927807085,0.008304015287824536,0.9909966375663916
2013-09-12,-1,-0.00019321791843038435,-0.00015549252976166105,-0.006516517061783546,0.008304015287824536,0.9912596541640285
2013-09-16,1,0.0007613316191643827,0.0009405084917891766,-0.006516517061783546,0.008123478246258265,0.9914251969569841
2013-09-18,1,0.0016405121923687553,0.0019214789039202805,-0.008448031927807085,0.0034789515231539512,0.9916964897693299
2013-09-20,1,0.0014449451597027764,0.0017057005767632644,-0.006516517061783546,0.007244173821243147,0.9918690340094228
2013-09-24,1,0.0010297747825853852,0.0012213392586509744,-0.006516517061783546,0.008834130273707372,0.989720674892437
2013-09-26,1,0.0007926799389596878,0.0009711573687023234,-0.005930750195279463,0.009251854332353399,0.990066830046935
2013-09-30,1,0.0006744944841650849,0.0008511955716692236,-0.004680592826994413,0.009841604001154903,0.9892186493526037
2013-10-02,1,0.0008666818880175559,0.0010689261382221583,-0.005164573102907639,0.009841604001154903,0.9878886431901546
2013-10-04,1,0.0010209405609674098,0.0012515250633485606,-0.006058859331155804,0.00929999287645609,0.9880860855987819
2013-10-08,-1,-0.0001887579714076718,-0.00013512901897258983,0.00026192620018254697,0.00929999287645609,0.9885239866987204
2013-10-10,1,0.00023157322399220288,0.0003614965893802944,-0.0032237535767737314,0.00929999287645609,0.9873822367309645
2013-10-14,1,0.0004368549937858421,0.0005817753142667266,-0.0024964883626288127,0.011302908468887866,0.9872634032859168
2013-10-16,1,0.00033947016750730086,0.0004712995120690865,-0.000592880116123575,0.015398984816492397,0.9862734664617757
2013-10-18,0,-2.799695662744056e-05,2.252388548204629e-05,-0.0024964883626288127,0.011302908468887866,0.9870763067524874
2013-10-22,1,0.0012242982829381325,0.0013259968030626874,-0.004414598003265549,0.008283564004163286,0.9890505142270307
2013-10-24,1,0.0016057833684201947,0.0017716093331032756,-0.004414598003265549,0.004819148923486427,0.9893327850636393
2013-10-28,1,0.002145703513322379,0.0023650593877062647,-0.004414598003265549,0.009143711280609809,0.9894938101137906
2013-10-30,1,0.002109266062547232,0.0023195521292703595,-0.003145041122315563,0.004819148923486427,0.9916489282015182
2013-11-01,1,0.0015726038920684466,0.0016787194781720872,-0.0028967614727229683,0.004819148923486427,0.9919840968507821
2013-11-05,1,0.0017041238058029139,0.0018377687482744947,-0.004414598003265549,0.0038430187919623123,0.9908769100369609
2013-11-07,1,0.0008740556369756932,0.0009243072637007347,-0.004414598003265549,0.004330494304677936,0.9918412480342657
2013-11-11,1,0.0008315830584810693,0.0008335171910571433,-0.004414598003265549,0.004330494304677936,0.9919221187823948
2013-11-13,1,0.0020257247760968305,0.002183502562978934,-0.007232295770308679,0.0032025980022014015,0.9925449565052743
2013-11-15,1,0.0015289379653693886,0.0016305265761771945,-0.009432410602465155,0.004249874668684076,0.9923143580828921
2013-11-19,1,0.0010523984655741345,0.0011179526982693197,-0.00446311558025368,0.005519601411181181,0.9923586859303085
2013-11-21,1,0.0016153382881985098,0.0017885426807109951,-0.004747362587336035,0.005519601411181181,0.9922356032684534
2013-11-25,1,0.002953957683754771,0.00332478131287906,-0.004747362587336035,0.005443048014797885,0.9926905195772866
2013-11-27,1,0.002872458870149897,0.0032399727317522836,-0.004747362587336035,0.005531800130012874,0.9922038520731129
2013-12-02,1,0.0026320114659057333,0.002971007365823353,-0.004747362587336035,0.0069405790575529465,0.9921569334273065
2013-12-04,1,0.001961652892929519,0.002209412008752933,-0.00452805846937686,0.0069405790575529465,0.9927005484114961
2013-12-06,1,0.0008221582984118741,0.0008653465569094863,-0.004329571995328393,0.0067109188684030575,0.9929391173608557
2013-12-10,1,0.0007503810546015245,0.0007596118725301984,-0.0072212376074598,0.005443048014797885,0.9928740336911726
2013-12-12,1,0.0011137999775114797,0.0012336386104574014,-0.0072212376074598,0.005443048014797885,0.9929564121923167
2013-12-16,1,0.0007816426384714302,0.0008241192871136635,-0.004329571995328393,0.0046873209034447826,0.9935108657563662
2013-12-18,1,0.0017678266152617121,0.0019443121028241733,-0.006769992716343036,0.004264540330197771,0.9939094287725948
2013-12-20,1,0.001569695842361575,0.001668319483085032,-0.006769992716343036,0.0046873209034447826,0.9936322306737344
2013-12-24,1,0.0015585947684550537,0.00169309782490276,-0.008015331515953822,0.001243882899504405,0.9931674464826373
2013-12-27,1,0.0017482290110480245,0.0018734986190420974,-0.008015331515953822,0.001136484481964729,0.9927384520444839
2013-12-31,1,0.0018732581417418375,0.002007209481507362,-0.00889301823017521,0.001136484481964729,0.9916355437417275
2014-01-03,1,0.001527231032800876,0.0015988942576257103,-0.01197638015176801,0.001136484481964729,0.9896153314917202
2014-01-07,1,0.00045010705136029443,0.0005122488230673908,-0.01197638015176801,0.0015586936579015146,0.9898381010514865
2014-01-09,-1,-0.00032928066178148925,-0.00015009023730993458,-0.010147972610949357,0.008363098058830377,0.9893952953386522
2014-01-13,-1,-0.0008432000040979862,-0.0006132793423443043,-0.007448896931915649,0.009196334112835033,0.9879081768309962
2014-01-15,-1,-0.0007346977797019318,-0.0005248232059040622,-0.008449459922040901,0.011226299861697007,0.9866999275858229
2014-01-17,-1,-0.0006689010027071296,-0.00048718236023460437,-0.008449459922040901,0.011226299861697007,0.9868696572480058
2014-01-22,-1,-0.0006288774212111871,-0.00042741935003559714,-0.008449459922040901,0.01361575048237644,0.9863362413783894
2014-01-24,-1,-0.0015199353490131674,-0.0012080693833566142,-0.0022461664510167122,0.01361575048237644,0.9867824894884528
2014-01-28,-1,-0.0005299638928158857,-0.00036780733437006175,-0.00032918892467137496,0.009613957198807444,0.9875149076097011
2014-01-30,-1,-0.0007190551223820139,-0.0005728140828912863,9.778385599437213e-05,0.009613957198807444,0.9887185183294193
2014-02-03,-1,-0.002905624429604566,-0.0024712497766919018,0.0004623151814675149,0.009613957198807444,0.9895405823010948
2014-02-05,-1,-0.002848281168486153,-0.002398717975338101,9.778385599437213e-05,0.007733705310648104,0.9901786830418039
2014-02-07,-1,-0.0017270844606543084,-0.0014330965743392398,-0.0006086976364812916,0.005900255009248963,0.9920693162791628
2014-02-11,1,4.630979550677407e-05,8.681234527457122e-05,-0.002008538655908898,0.004837764726532762,0.9946222664022335
2014-02-13,1,0.00028898219424914175,0.00031183975527214377,-0.0006086976364812916,0.0038932013760638634,0.9959617799807514
2014-02-18,0,-6.873344925745746e-05,7.405363298883721e-06,0.00022909923059798049,0.004791775720846915,0.9957099488400788
2014-02-20,1,0.00022096307089487931,0.00028358304646779366,-0.000727620313911657,0.0035209678006313107,0.9965833160317992
2014-02-24,0,-6.480510092095473e-05,4.835083273077958e-05,-0.002906226377312398,0.0038932013760638634,0.9962301690032246
2014-02-26,1,0.0004033491575714143,0.00045558212521803766,-0.0048037895690784815,0.0026395075555037738,0.9963171471672022
2014-02-28,1,0.00038589533243542373,0.00044102897612907166,-0.0048037895690784815,0.003743083188810759,0.9958394209123501
2014-03-04,-1,-0.0005974870703410415,-0.0003716624177458319,-0.002906226377312398,0.004648499433276272,0.995354843643444
2014-03-06,-1,-0.0005426572144943551,-0.00032631125558006343,-0.0048037895690784815,0.0038320350814848225,0.995211516162868
2014-03-10,-1,-0.0006629695672192625,-0.00043832878426015994,-0.005908841176377916,0.0038320350814848225,0.9944773772427807
2014-03-12,-1,-0.0009337640271720747,-0.0006675834358631539,-0.004849698068425803,0.005058631398869105,0.9942532974379568
2014-03-14,-1,-0.0007496763415101312,-0.0005553012255549709,-0.007050323663318933,0.005058631398869105,0.9931347993286973
2014-03-18,1,0.0002080721096527719,0.00024848895529721264,-0.007050323663318933,0.0038320350814848225,0.9932178995823426
2014-03-20,1,0.00030036716762921645,0.00031015446800046443,-0.007050323663318933,0.0071823103763767856,0.9926455469042658
2014-03-24,1,0.00046564346863416843,0.0005327148247981579,-0.007050323663318933,0.008408922399568725,0.9918624558710675
2014-03-26,1,0.0002804813816760056,0.0003200776433549355,-0.0069876462037255,0.008408922399568725,0.9919796968479339
2014-03-28,1,0.0005771415563409249,0.000648214273621302,-0.0069876462037255,0.008408922399568725,0.991473676992066
2014-04-01,1,0.001162916936858687,0.0013178795950997667,-0.00869972489315493,0.002816937092595798,0.9917616455751027
2014-04-03,1,0.00030866593313412364,0.0003259387102914317,-0.0069876462037255,0.006998474887146174,0.9921708871599572
2014-04-07,-1,-6.4780688142779e-05,-2.9135915282320148e-05,-0.004537421865016371,0.006998474887146174,0.9929542137091488
2014-04-09,1,0.0008651945897975876,0.001019342792056954,-0.004537421865016371,0.003211835237818696,0.9931748161601761
2014-04-11,-1,-0.0002078665304198631,-0.00019105357075912258,-0.0034229458345229145,0.004030253988356245,0.9943849066119089
2014-04-15,-1,-0.0004763323722976549,-0.0004000355419921478,-0.004259885367328975,0.004030253988356245,0.994064007934555
2014-04-17,1,0.00028775777793740853,0.00032171770405574405,-0.004537421865016371,0.0027293510221671246,0.9940219311536774
2014-04-22,1,0.0007169074557510104,0.0008653458779281132,-0.005002483666824126,0.0021606987339335367,0.994392716106779
2014-04-24,1,0.0005675170310093812,0.0006930017105020609,-0.004838308332559535,0.0027293510221671246,0.994474770005453
2014-04-28,1,0.0009930714723701956,0.0011630130675939962,-0.00591446409824448,0.0027293510221671246,0.9950603243464003
2014-04-30,1,0.0004679287363306882,0.0005372758719388972,-0.004838308332559535,0.0027293510221671246,0.995431100003991
2014-05-02,1,0.00020905893587042912,0.0002192350276573275,-0.00591446409824448,0.0027293510221671246,0.9941978445363218
2014-05-06,-1,-8.862159611941799e-05,-7.01644751277457e-05,-0.006916439795393849,0.0027800728216928697,0.993392290733812
2014-05-08,-1,-0.00027715406378864114,-0.00024509933971186376,-0.006916439795393849,0.0028618202097452686,0.9929312327797671
2014-05-12,1,2.6845377187256558e-06,1.9912934988623696e-05,-0.006916439795393849,0.0037350633077871667,0.9923308073441652
2014-05-14,1,0.00017765733133637653,0.00023001366322138227,-0.0065830761257393835,0.0037350633077871667,0.9922894373664407
2014-05-16,1,4.4715620408192994e-05,4.6836805387678895e-05,-0.00591446409824448,0.0037350633077871667,0.9930021205783023
2014-05-20,-1,-0.00048200940262960277,-0.00044476806165041655,-0.003959250766636989,0.0046573514183317006,0.9936295220005735
2014-05-22,-1,-6.802600496581853e-05,-2.26828328167842e-05,-0.003959250766636989,0.004009216764062178,0.9936713590027155
2014-05-27,1,8.702540981384347e-05,0.0001657180207894069,-0.003835836760990793,0.0046573514183317006,0.9928329764587314
2014-05-29,-1,-0.00012442909975493422,-0.00011164927630510408,-0.004586900641754951,0.0046573514183317006,0.9923615119434326
2014-06-02,-1,-0.0009497699310822832,-0.000869699517900821,-0.003943403692237951,0.00474500994964221,0.9936019036234103
2014-06-04,-1,-0.0009429997182880696,-0.0008430166694580257,-0.003759422831813725,0.00474500994964221,0.9939871146815836
2014-06-06,-1,-0.0013222396660103955,-0.0011600397597232477,-0.003759422831813725,0.0049093830411951036,0.9936801839917168
2014-06-10,-1,-0.0007682470463576,-0.0006738355149427215,-0.003759422831813725,0.0049093830411951036,0.9940079218917609
2014-06-12,-1,-0.001195070026135824,-0.0010469828177949916,-0.003759422831813725,0.007866573586107652,0.9935583875948956
2014-06-16,-1,-0.0010785480895398726,-0.0009604060719155207,-0.004287404268201595,0.007866573586107652,0.9930153068810387
2014-06-18,-1,-0.0017180675600668885,-0.0015219295915896497,-0.005103302760434399,0.007866573586107652,0.9920781647897678
2014-06-20,-1,-0.0011900313581122242,-0.0010920834951262835,-0.0075087948706184186,0.007866573586107652,0.9908019794112686
2014-06-24,-1,-0.000951034597707936,-0.0007905756949452141,-0.009048540847996375,0.007172824754353939,0.9915748728883869
2014-06-26,-1,-0.002199053668026199,-0.0017783267309545775,-0.007590409636375119,0.007866573586107652,0.9914332323673257
2014-06-30,-1,-0.001475379030295931,-0.0011524062806163476,-0.008922888254103789,0.00747077890001296,0.9912594885917799
2014-07-02,-1,-0.0014335204968508495,-0.001164121745806797,-0.009464482278607515,0.005870213739711831,0.9913810061641077
2014-07-07,-1,-0.0006519092288857255,-0.0005210346579237724,-0.008922888254103789,0.0030333125457661036,0.9916397651753198
2014-07-09,1,1.9102461218080147e-05,4.971750334907177e-05,-0.008922888254103789,0.004666718453088723,0.9913976654354341
2014-07-11,1,0.0001248444477282466,0.00015577469487251615,-0.009878094019078009,0.004666718453088723,0.9910265062558066
2014-07-15,-1,-0.0002309260470199204,-0.00019516315892622227,-0.008922888254103789,0.004666718453088723,0.9914145679474385
2014-07-17,-1,-0.0018637546371488142,-0.001845393815468752,-0.007455136864223494,0.004666718453088723,0.9918884369668023
2014-07-21,-1,-4.078829630217468e-05,-2.768571014981067e-05,-0.006674545385112141,0.005006639959719582,0.9924906851544119
2014-07-23,-1,-0.0005950801243869615,-0.0005232343091256137,-0.006304739593284,0.006216625614180991,0.9924671553690219
2014-07-25,-1,-0.0006533678404724303,-0.0005633987344526973,-0.006153121145667889,0.006216625614180991,0.9928400186853977
2014-07-29,-1,-0.0007343507776378219,-0.000638564626801318,-0.004767460864802625,0.006216625614180991,0.9928232880073387
2014-07-31,-1,-0.0013533449223228503,-0.0011802788218349255,-0.0030873834293693864,0.006216625614180991,0.9932474855991921
2014-08-04,-1,-0.0013878661170629238,-0.0012134964542841798,-0.002523298442174425,0.007335350904453452,0.9930380695598844
2014-08-06,-1,-0.0010340629850555262,-0.0008922477805069948,-0.002523298442174425,0.01053997665461483,0.9926126453616948
2014-08-08,-1,-0.0006402032491283862,-0.0005577785331012963,-0.0008955389745908342,0.009206968789043084,0.993823788911786
2014-08-12,-1,-0.000890200420615493,-0.0007794557773205351,-0.0008955389745908342,0.009206968789043084,0.9938301270000224
2014-08-14,-1,-0.00010991651097504148,-8.684052723184865e-05,-0.002523298442174425,0.006712303236602688,0.994533004568444
2014-08-18,1,2.433988648250536e-05,4.7111600670983564e-05,-0.002434476717185947,0.004970412884695066,0.995350482563522
2014-08-20,1,0.0006400546741697243,0.0007264734194509786,-0.002434476717185947,0.004974297148340838,0.9955446737088989
2014-08-22,1,0.0013174136709518754,0.0015334520204467023,-0.0024863444143211,0.004065023537066016,0.9952788120184239
2014-08-26,1,0.0007801153422274444,0.0009014383477827254,-0.0024863444143211,0.004465319195297584,0.9936433941197739
2014-08-28,1,0.000368383626087072,0.0004125973962339164,-0.0028372222188776603,0.007221569052530835,0.9928623847501997
2014-09-02,1,0.0007038353549355836,0.0008158451281718184,-0.004326957696548967,0.004465319195297584,0.9930664492109679
2014-09-04,1,0.0010610438263913878,0.0011732320514442935,-0.004326957696548967,0.003347233158565094,0.9935314920997732
2014-09-08,1,0.0009595873577854335,0.001061936381356559,-0.005160318069126267,0.003347233158565094,0.9932938436638181
2014-09-10,1,0.0010187599076930402,0.0011749969764951592,-0.005160318069126267,0.004465319195297584,0.9926811906726346
2014-09-12,1,0.0012622491207935416,0.0014344259897925717,-0.00553814187832651,0.004465319195297584,0.992292478539945
2014-09-16,1,0.0010566245148120336,0.0011943350144085364,-0.005873213058401921,0.004465319195297584,0.9921620286549034
2014-09-18,1,0.0017023856415335939,0.0019628728919878413,-0.006173406627467919,0.003306469816058536,0.9917341618834956
2014-09-22,1,0.00118391745385737,0.0013560596509888663,-0.006173406627467919,0.0042013610256514695,0.9898853612410107
2014-09-24,1,0.0029295378492167315,0.0033184855657519105,-0.006173406627467919,0.0042013610256514695,0.9900800779542912
2014-09-26,1,0.0023808966532142756,0.0026857873527006736,-0.006173406627467919,0.0042013610256514695,0.9907561644122628
2014-09-30,1,0.001991067887787903,0.002242394900638256,-0.006173406627467919,0.007365131133062953,0.9906878234776448
2014-10-02,1,0.0022783637790789266,0.002572777589601293,-0.006296578853205421,0.004164761717420232,0.9904823102058723
2014-10-06,1,0.0017886183607951833,0.0019896725935511757,-0.006296578853205421,0.006422878919653909,0.9907255046957886
2014-10-08,1,0.0021044560687245605,0.002321129591343207,-0.006296578853205421,0.006422878919653909,0.9910293492368681
2014-10-10,1,0.0013397519052205024,0.0014197635905524289,-0.005451017214589491,0.006422878919653909,0.9913689027941549
2014-10-14,1,0.0011127470475700066,0.001169202945055961,-0.0067763806878877765,0.006422878919653909,0.9905857598134961
2014-10-16,1,0.0012932252052174238,0.001374094671695621,-0.0067763806878877765,0.0076320241238347145,0.9884526337626095
2014-10-20,1,0.0024423871987915196,0.0026754854622136046,-0.007296277270166743,0.0076320241238347145,0.9881933003013289
2014-10-22,1,0.0011014944782583589,0.0011965571317451014,-0.005701303255147935,0.006422878919653909,0.9896315716792837
2014-10-24,1,0.0014763630113663988,0.0016359703981718204,-0.005701303255147935,0.006283233252715903,0.9897383637196542
2014-10-28,1,0.0013837333205376288,0.0015101856241836178,-0.005439028696255352,0.006283233252715903,0.9895595449840874
2014-10-30,1,0.0014084814475943497,0.0015591725902785831,-0.004540666562211563,0.009013751263436183,0.9889232814613915
2014-11-03,1,0.0013016276622722757,0.0014204911168778655,-0.005439028696255352,0.009013751263436183,0.9875862360854021
2014-11-05,1,0.0013078715662311214,0.0014211587297722568,-0.006755677663242657,0.007684337365613166,0.9874972821304497
2014-11-07,1,0.0011842707681912316,0.00128335119910728,-0.00835769522885316,0.008950481782865005,0.9868694540647333
2014-11-11,1,0.0007956831114562144,0.0008494446774503623,-0.007930407773718574,0.008950481782865005,0.9871696454189951
2014-11-13,1,0.0007970775664377825,0.000865501935139554,-0.005989355669429432,0.008950481782865005,0.9891123795010116
2014-11-17,1,0.0012730265447693475,0.0013993440504922246,-0.004771585270506766,0.008950481782865005,0.9914310026008422
2014-11-19,1,0.0013824747608030266,0.001556055154131084,-0.004642477514435588,0.010934508848555388,0.9906866781271085
2014-11-21,1,0.0005814215156378398,0.0006676770181762131,-0.005989355669429432,0.010934508848555388,0.9875292327701571
2014-11-25,1,0.0010275938986059655,0.0011669010875443595,-0.005989355669429432,0.010934508848555388,0.9875209330942875
2014-11-28,1,0.001770637834822385,0.0020267324845831673,-0.005989355669429432,0.008309580156851345,0.9883282194751579
2014-12-02,1,0.0010010850600225686,0.0011654417147912407,-0.005989355669429432,0.008309580156851345,0.9890013808381093
2014-12-04,1,0.0003892799471388749,0.00043804529833265803,-0.00456999819734224,0.008309580156851345,0.9894820199613811
2014-12-08,1,0.0003701014172933458,0.0004202288093604902,-0.00456999819734224,0.006926384252548409,0.9896033745937757
2014-12-10,-1,-0.0007603920706142184,-0.0006296967683558176,-0.00456999819734224,0.006926384252548409,0.9884211041954281
2014-12-12,-1,-0.0008421956169620651,-0.0006777457477774507,-0.011861416186608735,0.006147644696824201,0.9881543211211001
2014-12-16,-1,-0.00013811116273195178,-6.203583964743616e-05,-0.011861416186608735,0.005699020123723426,0.988458087389594
2014-12-18,1,0.00022619285302686483,0.0002752288543895901,-0.011861416186608735,0.00533331646968664,0.9886930064655456
2014-12-22,-1,-0.002618319721647602,-0.0022073555716209097,-0.009431879309710354,0.006147644696824201,0.9900575222650594
2014-12-24,-1,-0.0024131694933042687,-0.002025161022026542,-0.009431879309710354,0.006147644696824201,0.9900121423648393
2014-12-29,-1,-0.0018396258892735614,-0.0015362120681974793,-0.009431879309710354,0.006357003894215831,0.9903395078897376
2014-12-31,-1,-0.0023575730037860903,-0.00200041160194425,-0.009431879309710354,0.008280063954441962,0.9895914889243846
2015-01-05,-1,-0.00228732398912777,-0.0019302919158548193,-0.009431879309710354,0.011641611414972459,0.9884491309873649
2015-01-07,-1,-0.0022748981552092777,-0.0019382934128211828,-0.0081538193547422,0.011641611414972459,0.9885477573608646
2015-01-09,-1,-0.0030775518963699114,-0.002662216713047587,-0.007199447202583524,0.013361498035053732,0.9866175587982309
2015-01-13,-1,-0.0033246058812983806,-0.002883031557131614,-0.0051119902511815715,0.01548436985775338,0.9855909866714708
2015-01-15,-1,-0.003293914481204155,-0.0028634770020916495,-0.004668024992318614,0.016592413484455625,0.9845609976865691
2015-01-20,-1,-0.003294214322139044,-0.0028508133222608758,-0.004628292833805276,0.016592413484455625,0.9853638528811994
2015-01-22,-1,-0.0023243364257711664,-0.0019917777180029758,-0.005505641513377358,0.013730845910621146,0.9870267690742414
2015-01-26,-1,-0.0015091816386589739,-0.0012849019167058026,-0.005505641513377358,0.010267851965408432,0.987788699427491
2015-01-28,-1,-0.0012183309094167352,-0.0010630607410571482,-0.005505641513377358,0.010267851965408432,0.9878462547135011
2015-01-30,-1,-0.001307164305378201,-0.0011405727719374925,-0.004595931398244681,0.010327688186712421,0.9884273957446216
2015-02-03,-1,-0.0006546647809422402,-0.0005581457693487467,-0.005505641513377358,0.00807624520123392,0.9895074698456112
2015-02-05,-1,-0.0008904450117061024,-0.000764105902809862,-0.005505641513377358,0.00740677286986907,0.9896536973589422
2015-02-09,1,0.0008153505825971531,0.0008906671538633419,-0.005505641513377358,0.0055842987857000065,0.9926782211447299
2015-02-11,1,0.0010029785273544312,0.0011173074930270074,-0.005505641513377358,0.0055842987857000065,0.9935821210468887
2015-02-13,1,0.001478938393490081,0.0016345793045768264,-0.005904341652398999,0.00360233647018481,0.9931284382576464
2015-02-18,1,0.0016888935276612102,0.0019352336212145977,-0.005807257345717218,0.00360233647018481,0.9935000204620941
2015-02-20,1,0.0017061215340842255,0.001949744508214131,-0.00573129569304353,0.00360233647018481,0.9934414751025853
2015-02-24,1,0.0014060011950186046,0.0015947996135836006,-0.00573129569304353,0.004981330781478237,0.9934912738582785
2015-02-26,1,0.0017151230283221912,0.0019557065007846084,-0.006899877345570422,0.002571988135363879,0.9927814500219616
2015-03-02,1,0.0018479038500183987,0.0020932440746821465,-0.006899877345570422,0.004981330781478237,0.9920951268662512
2015-03-04,1,0.0016405918864122113,0.0018732430359783814,-0.005821983889195374,0.007994895180675515,0.9921417075006044
2015-03-06,1,0.0011047666289123658,0.0012467778446617582,-0.00534049297508598,0.009199770873997764,0.9920336159811802
2015-03-10,1,0.0008810780846556938,0.0009830947663510246,-0.00534049297508598,0.009199770873997764,0.9919900003566612
2015-03-12,1,0.000977701541886196,0.0010850150049494386,-0.0034022807878975624,0.007994895180675515,0.9928713479531085
2015-03-16,1,0.0014240180082418998,0.0016609791561283524,-0.003393358731450612,0.007994895180675515,0.993664891201709
2015-03-18,1,0.0011891196213392535,0.0013937057950861775,-0.002806753077362377,0.00887092288192037,0.9927679747115603
2015-03-20,1,0.0012393085834109213,0.0014711245748950455,-0.0020887929482509577,0.009721494810892833,0.988176539232027
2015-03-24,1,0.0016524113574517987,0.00189985184925377,-0.005303225172689839,0.009721494810892833,0.98669022082563
2015-03-26,1,0.0011520805847999931,0.0013179590647281784,-0.003140422728908631,0.009721494810892833,0.987252522950781
2015-03-30,1,0.0021208512578034136,0.002426573074648889,-0.005303225172689839,0.00887092288192037,0.9882507988769407
2015-04-01,1,0.002607959087655238,0.002982812268459185,-0.005966265668621096,0.005644658872903901,0.9883297735009211
2015-04-06,1,0.00274025012622295,0.0031327649894835547,-0.006887846925050269,0.005644658872903901,0.9881752727097154
2015-04-08,1,0.002247307856291951,0.0025332389660340142,-0.006887846925050269,0.003869583124614992,0.9881692371729569
2015-04-10,1,0.0018851903203714344,0.0020947770267640757,-0.006887846925050269,0.006302833543140553,0.9878941266504323
2015-04-14,1,0.0024345561672333075,0.0027271879094846285,-0.007962683059342392,0.00654738160993638,0.9872975160907052
2015-04-16,1,0.003048583286354223,0.0034091364144423295,-0.007962683059342392,0.005144068949969114,0.9866111838172613
2015-04-20,1,0.005450556743826456,0.006141583396738564,-0.007962683059342392,0.004010294018755684,0.9898831510469879
2015-04-22,1,0.004308956478396038,0.004871323762927857,-0.006751080998068501,0.004010294018755684,0.9919566134333943
2015-04-24,1,0.0046780022943542394,0.005335065751180195,-0.006751080998068501,0.006969514292358453,0.9921106473335253
2015-04-28,1,0.003814473603397849,0.004292541660928651,-0.006751080998068501,0.006969514292358453,0.9923564923924965
2015-04-30,1,0.003319569499478024,0.003701824500609073,-0.00599110240910224,0.006969514292358453,0.9925084689102066
2015-05-04,1,0.003257786319987491,0.00361874077363879,-0.004763096653768826,0.005077113262739958,0.993121340783196
2015-05-06,1,0.002434042324433656,0.0026446739395816063,-0.004763096653768826,0.006489873059822806,0.9932608550968398
2015-05-08,1,0.002769815340499619,0.0030360016937595975,-0.004763096653768826,0.005077113262739958,0.9935077468441896
2015-05-12,1,0.002714545640086443,0.002998253519512075,-0.004110774671254494,0.005077113262739958,0.9941432283661895
2015-05-14,1,0.0034903017696165817,0.003917394097920208,-0.004110774671254494,0.005077113262739958,0.9946840064400034
2015-05-18,1,0.0019114607801873661,0.0019699217171405153,-0.0032815216404636642,0.003909533889764236,0.995472100259462
2015-05-20,1,0.0019037847893651446,0.0019835686390605968,-0.0032815216404636642,0.008097325474376268,0.9943450056653157
2015-05-22,1,0.0024006519138535247,0.0025613503014480397,-0.0032815216404636642,0.008097325474376268,0.9943624079175682
2015-05-27,1,0.001692084824149839,0.0017179135218799958,-0.0004481128465640389,0.008559883488302781,0.9940445858491911
2015-05-29,1,0.001407528847563428,0.0014194718940543159,-0.0004481128465640389,0.008559883488302781,0.9937586649679996
2015-06-02,1,0.0010449158298042333,0.001119083218870486,-0.0045419724865738914,0.008559883488302781,0.992091994209656
2015-06-04,1,0.00017838309521250385,0.00041074215374730836,-0.000690523801048273,0.008947112634407086,0.9920192357875752
2015-06-08,-1,-0.0005558398004778826,-0.0001905274776727063,-0.0016937030146034955,0.008947112634407086,0.9916519373394793
2015-06-10,-1,-0.0006452332317579447,-0.00025851218166139927,-0.00222692099726102,0.009776716008967169,0.9909816855832561
2015-06-12,-1,-0.0008401720856378622,-0.00042711692456076904,0.0004904478450742239,0.01228698941168152,0.9900709549482827
2015-06-16,-1,-0.00036084491007500887,-4.782109944920655e-05,-0.0026612777872330596,0.01228698941168152,0.9897446440509667
2015-06-18,1,0.0009057313532455124,0.0010433745127653364,-0.0035956066743800448,0.009776716008967169,0.9913473492199116
2015-06-22,1,0.0009189274041574178,0.0010128212961473344,-0.008236489075524947,0.012001940031650048,0.9872973490410878
2015-06-24,1,0.0012969530293606138,0.0013484392142134954,-0.008236489075524947,0.007428010654223096,0.9874485111070292
2015-06-26,1,0.0011523356726116558,0.001202976412225879,-0.007323548987680573,0.007428010654223096,0.9876804485720733
2015-06-30,-1,-0.0004387254325252136,-0.00018938022543286612,-0.0033977896442193545,0.012001940031650048,0.9887857944761662
2015-07-02,1,0.000616310690131404,0.0006196658437272915,-0.007323548987680573,0.007428010654223096,0.988233453923893
2015-07-07,1,0.0008622933251269283,0.0008859440815823089,-0.008292909103989353,0.012001940031650048,0.9871730240962248
2015-07-09,1,0.0010000212926292182,0.001074287198259331,-0.008292909103989353,0.007744034892105607,0.9867804825173462
2015-07-13,1,0.001500187253765304,0.0016247196362327214,-0.008292909103989353,0.006066402221280545,0.9865814375593007
2015-07-15,1,0.0016595575335934904,0.001764165571230531,-0.007737404497235302,0.005460631867695521,0.9867787004068391
2015-07-17,1,0.0014638093054657225,0.0015474293417253194,-0.007737404497235302,0.008013380625863573,0.9865131068461302
2015-07-21,1,0.0009567696580893998,0.0010131723812758695,-0.007100434301701202,0.005460631867695521,0.9908677733113763
2015-07-23,1,0.0005106208881569677,0.000523296548394837,-0.009639023711611022,0.005460631867695521,0.9900175817793162
2015-07-27,-1,-0.0008803740516724857,-0.0007852159834324454,-0.0134317577550806,0.005460631867695521,0.9861645630565565
2015-07-29,1,0.0017641208644892485,0.001802816539928715,-0.0134317577550806,0.005460631867695521,0.9855501660104169
2015-07-31,1,0.0007560442037863784,0.0008500714668876498,-0.010639507397513792,0.008013380625863573,0.985244409472895
2015-08-04,1,0.0008594867691799522,0.0009402009001229035,-0.01454129125884561,0.005460631867695521,0.9845193023766229
2015-08-06,0,-6.546910164615186e-06,0.0001833314830788509,-0.010510474250702548,0.014405061459168908,0.9833903555740274
2015-08-10,1,0.0007767838540667369,0.0008739937735791961,-0.013984386989856112,0.012488586666794615,0.9834214567174515
2015-08-12,1,0.0003821539820222134,0.0005443681768592015,-0.01477570546345851,0.012488586666794615,0.9827841179171916
2015-08-14,1,0.0005320248322890262,0.0006769870034877591,-0.01477570546345851,0.01116237294118665,0.9825357338744501
2015-08-18,1,4.821116424903358e-05,0.0002704100071783404,-0.01477570546345851,0.01550009471665866,0.9811532719400952
2015-08-20,-1,-0.00041649686739458436,-0.00017831675214174155,-0.01477570546345851,0.01550009471665866,0.9806698565560392
2015-08-24,-1,-0.0014133201237558246,-0.0010769121593388318,-0.012447665981893952,0.01550009471665866,0.9835261485579422
2015-08-26,-1,-0.0014832408859072404,-0.0011540523238917336,-0.012447665981893952,0.012853597752624533,0.9842831350826461
2015-08-28,-1,-0.000515514583754475,-0.0002657292257319761,-0.01477570546345851,0.01116237294118665,0.9841572616025511
2015-09-01,-1,-0.0020446095630267226,-0.0016245423653753865,-0.010572903657030825,0.01116237294118665,0.9852570565529836
2015-09-03,-1,-0.0005391203457997705,-0.0002996045932202509,-0.010572903657030825,0.009593173133028843,0.9877272288997213
2015-09-08,-1,-0.0004580582240668532,-0.00025668799020179135,-0.009911170802804181,0.009593173133028843,0.987167943007925
2015-09-10,1,0.001212451682480442,0.0013588630284968773,-0.008095867137632676,0.008190364644745948,0.9876099803099846
2015-09-14,1,0.0009063183014033955,0.000927912264354209,-0.008095867137632676,0.0075108690241111635,0.9881129142639091
2015-09-16,1,0.001640111827147382,0.0017533323291912177,-0.008095867137632676,0.004307961606561723,0.9889315648032434
2015-09-18,1,0.00045116056651082754,0.0004972103624015786,-0.0066739630151616365,0.0075108690241111635,0.988548086075404
2015-09-22,-1,-0.0010582030310817905,-0.0008486282043996335,-0.0066739630151616365,0.007705412669683444,0.9857284202030492
2015-09-24,-1,-0.001177924407970524,-0.0009566507237034288,-0.006248096530350119,0.01149577907762776,0.9835887366382128
2015-09-28,-1,-0.0024788699428694473,-0.0020847341152029943,-0.006248096530350119,0.016429739508058705,0.9837795490177359
2015-09-30,-1,-0.0020668438321713757,-0.0017328325656920428,-0.0048995367950538824,0.016429739508058705,0.9844543747317094
2015-10-02,-1,-0.0024834399173382558,-0.002097292993241811,-0.005676424560688156,0.016429739508058705,0.9840506027996552
2015-10-06,-1,-0.0016470436179669258,-0.001388436005693289,-0.004498405910996811,0.01149577907762776,0.9858707791681657
2015-10-08,-1,-0.0014180020085425662,-0.0011731320168730996,-0.004498405910996811,0.01149577907762776,0.986541453124549
2015-10-12,-1,-0.001329692719385372,-0.001091422308869065,-0.004498405910996811,0.014624684615557885,0.9861464637591532
2015-10-14,-1,-0.0014707205015641886,-0.0012323945793191586,-0.0035115201725886376,0.01601319387439168,0.984835073517946
2015-10-16,1,0.0003552067034168925,0.0003904167859347062,-0.007616222500711627,0.01149577907762776,0.986146373755655
2015-10-20,-1,-0.0015096308607421166,-0.0012511431974484384,-0.007616222500711627,0.007601136569884264,0.989558507968028
2015-10-22,1,3.261744712896057e-05,0.00011172325775317773,-0.007616222500711627,0.0027719994389339246,0.991402835284866
2015-10-26,1,9.808428724511102e-05,0.00017686244127111146,-0.006416053481571032,0.000966204518948482,0.9928092986457101
2015-10-28,1,0.00010395202479883574,0.00018406574922426444,-0.006416053481571032,0.0056315028673173725,0.9920929560284154
2015-10-30,-1,-0.00043928018003958443,-0.00030488130859524973,-0.010205299413551857,0.0056315028673173725,0.9908127717325427
2015-11-03,-1,-0.00034830010992785253,-0.00022207873538201826,-0.010205299413551857,0.003067096957512605,0.9906484977364145
2015-11-05,-1,-0.0004952365625865184,-0.00035563050846801445,-0.014576047695336086,0.003067096957512605,0.9882801428524606
2015-11-09,1,0.0005650051791495855,0.0006041523623164728,-0.014576047695336086,0.003157354053484151,0.9880628417925659
2015-11-11,1,0.0006531043053126703,0.0007247489994984815,-0.015740511698861204,0.0009198473473225239,0.9884870222159822
2015-11-13,1,0.00011421754382730538,0.00015126217013043043,-0.013561249580296237,0.0032782921186793076,0.9896199225324073
2015-11-17,-1,-0.000381113411350415,-0.00034391701662481373,-0.009922432827032753,0.0032782921186793076,0.9903912852231739
2015-11-19,-1,-0.0007977740500604728,-0.0006636021282251264,-0.015740511698861204,0.0020778529520261153,0.9886898487660384
2015-11-23,-1,-0.0005021044974704086,-0.0004266013462100747,-0.015740511698861204,0.0032782921186793076,0.9873773385469718
2015-11-25,1,9.4043541071542e-05,9.71420506919005e-05,-0.015740511698861204,0.0029871864792319685,0.987532305297716
2015-11-30,-1,-0.001483120938449703,-0.001287878472705225,-0.00844572301483721,0.005848956591435752,0.9889544140274469
2015-12-02,-1,-0.0010501360451639808,-0.0009570859637809398,-0.009723860148830279,0.005848956591435752,0.9887535746046519
2015-12-04,-1,-0.002460509627513245,-0.0021966640172016894,-0.006428498363077436,0.008386509621637629,0.9898639092814481
2015-12-08,-1,-0.0018249947251417185,-0.001653153605585838,-0.008033141255244038,0.008386509621637629,0.9891607380096042
2015-12-10,-1,-0.005203879923621455,-0.004974341529975364,-0.008033141255244038,0.011645826253383989,0.9870076404502391
2015-12-14,-1,-0.004626338104359726,-0.004452920474019894,-0.009080542678001177,0.011575588324401061,0.986094291377766
2015-12-16,-1,-0.0038507053050816408,-0.0037765335533135273,-0.009080542678001177,0.01925361578504624,0.983690370169647
2015-12-18,-1,-0.00248944273859632,-0.002163680233983255,-0.010419258998134496,0.01925361578504624,0.9849001099319901
2015-12-22,-1,-0.0024068823466669564,-0.002019158100096322,-0.010419258998134496,0.01993505223092821,0.9840048425496708
2015-12-24,-1,-0.0018485231868788539,-0.001551002961446789,-0.011660582455674017,0.021289181894503458,0.982571556821872
2015-12-29,-1,-0.0018434760089377238,-0.0015030537712392232,-0.014099157618638612,0.021289181894503458,0.9817495567958723
2015-12-31,-1,-0.0017143437489376728,-0.0014461401361179002,-0.01216920520615131,0.025089673361562072,0.980698845721076
2016-01-05,-1,-0.0010730373591613673,-0.0008742277081467865,-0.01216920520615131,0.025089673361562072,0.9809890610171282
2016-01-07,-1,-0.0004034723637256396,-0.000308802520210504,-0.015762728131041993,0.021298199978584634,0.9810756823690964
2016-01-11,1,2.8509661915704804e-05,8.809197535936659e-05,-0.017751422298419473,0.017548442549471552,0.980596912895204
2016-01-13,-1,-0.0013944039061734377,-0.0011153241357163368,-0.017751422298419473,0.017548442549471552,0.9807168530529603
2016-01-15,-1,-0.0006302362985173664,-0.0005116913791558561,-0.017751422298419473,0.013647348075809595,0.9822434016300439
2016-01-20,-1,-0.001328162322387403,-0.0011605595913298408,-0.009193414954375083,0.013828305593759149,0.9826314241559166
2016-01-22,1,0.0004015690984623794,0.000494708810383401,-0.009193414954375083,0.013828305593759149,0.9836209614837482
2016-01-26,-1,-0.000596828401784436,-0.000531151990538968,-0.0036882041802865743,0.013828305593759149,0.9847690238297715
2016-01-28,1,0.0006362219265597883,0.0008053066449436827,-0.0009590786594594603,0.013647348075809595,0.9864236240222525
2016-02-01,1,0.0010791423684260383,0.0012891248674598162,-0.0009590786594594603,0.013647348075809595,0.9868777783187793
2016-02-03,1,0.001504511021578895,0.001761973719994962,-0.001132312907736735,0.013828305593759149,0.9867578802723138
2016-02-05,1,0.001418296667149528,0.0017040814997947489,-0.001132312907736735,0.013828305593759149,0.987453383055186
2016-02-09,1,0.001295306922169994,0.001632794655627036,-0.001132312907736735,0.013828305593759149,0.9896698661700388
2016-02-11,-1,-0.0003701917112376698,-0.0003313149854750111,-0.0006673731844717546,0.013828305593759149,0.9910228271249265
2016-02-16,0,-6.252445457070665e-06,5.17843271121393e-05,-0.0006673731844717546,0.010196572356470786,0.9918420410143339
2016-02-18,1,0.00038406284140929696,0.0004780287101059457,-0.000863609475191511,0.006253555955293271,0.9925548452823696
2016-02-22,1,0.0009011924339478286,0.0009884300462742238,-0.0012417691876305914,0.005108842217841265,0.9938017500575387
2016-02-24,1,0.001449092288427059,0.0016168378743634591,-0.0012417691876305914,0.004406615753887584,0.9944217125551538
2016-02-26,1,0.001309975687234037,0.0014346076892764862,-0.0029901777304852904,0.0035623251725741,0.9937371769240532
2016-03-01,1,0.0020927990594784016,0.002355317321107104,-0.0012417691876305914,0.003238456570546837,0.9948151136645857
2016-03-03,1,0.002661233892949799,0.0030255091467540404,-0.0029901777304852904,0.003238456570546837,0.9941081916555885
2016-03-07,1,0.0026583746810171526,0.003035173455666728,-0.0029901777304852904,0.003238456570546837,0.9936668369395665
2016-03-09,1,0.002120456159738342,0.002405048595596409,-0.003183393053384236,0.004414366890314207,0.9924067526507993
2016-03-11,1,0.0031318566506210246,0.0036588171289942397,-0.003183393053384236,0.005649513905151352,0.9922645741289643
2016-03-15,1,0.00246507559709221,0.0027241707818652055,-0.003183393053384236,0.00737918767438484,0.99144393633383
2016-03-17,1,0.0032081017360188853,0.0036759929295238853,-0.0036028746781668337,0.009222548711865071,0.9910279732854278
2016-03-21,1,0.0019817236889685054,0.0024156540719611607,-0.0018979607672107372,0.011275825991469753,0.988691567037512
2016-03-23,1,0.0020662405659805957,0.0025080980514157677,-0.0030583001873076268,0.011275825991469753,0.9884019532218326
2016-03-28,1,0.0018665032575476013,0.0022528436820301884,-0.002107699083130626,0.009890358371496245,0.9888695754660113
2016-03-30,1,0.002086676544162859,0.002512261960560894,-0.0029707430254527502,0.009890358371496245,0.9885862894365369
2016-04-01,1,0.002345591627531291,0.00280413426518291,-0.0055164401372310426,0.007633706006691497,0.9885101826314211
2016-04-05,1,0.002017935755049224,0.002465863625023256,-0.0055164401372310426,0.009376537525564086,0.9890039132567379
2016-04-07,1,0.0023516037741656685,0.002842852206919211,-0.006278143844105848,0.007633706006691497,0.9900398498855693
2016-04-11,1,0.0021067069743460525,0.0025044113850992353,-0.006278143844105848,0.01141481826090075,0.9891183767383804
2016-04-13,1,0.0025062163750963736,0.0029344473024704365,-0.007381832525285404,0.00824951736038168,0.9889369011908665
2016-04-15,1,0.0030254918685490104,0.0035367092852420876,-0.007381832525285404,0.007810397397917733,0.9890477056375917
2016-04-19,1,0.003681686033488616,0.004274495715735958,-0.008022121743602261,0.005167322796925474,0.991127284810253
2016-04-21,1,0.003931478477897016,0.004584866128369149,-0.008022121743602261,0.005167322796925474,0.9912965158530658
2016-04-25,1,0.0031364254608880625,0.0035900135743133347,-0.008022121743602261,0.005071033137580299,0.9913616775132996
2016-04-27,1,0.00286223196118647,0.003265120586912382,-0.008022121743602261,0.007521528419882206,0.9909181310400865
2016-04-29,1,0.0014214411499591025,0.001521665296485331,-0.006038255341684454,0.007521528419882206,0.9922447336152957
2016-05-03,1,0.0014737677694220278,0.0015931731594030552,-0.003084532874880202,0.00630034050644134,0.9929685087481709
2016-05-05,1,0.0006449906874648507,0.0006748971030406192,-0.002789740068189684,0.00630034050644134,0.9930349130703862
2016-05-09,1,0.0015939633595442005,0.0017070397864961762,-0.002789740068189684,0.0054613722270729515,0.9938158815856836
2016-05-11,1,0.0009042440370348741,0.0009295771789149518,-0.0020174979486462987,0.0054613722270729515,0.994903807529263
2016-05-13,1,0.00020774198139603698,0.00034980188826737606,-0.004771369681726697,0.0043955631923908505,0.994411510842074
2016-05-17,1,0.0002550657093696724,0.000366923498193937,-0.002579776884261797,0.0054613722270729515,0.9945511191627108
2016-05-19,1,0.0003376828852613566,0.00043986602770815014,-0.004725465093240249,0.0054613722270729515,0.9943370297377531
2016-05-23,1,0.0003636598432773924,0.0004492936166239054,-0.003992056220004544,0.0054613722270729515,0.9943342692240884
2016-05-25,1,0.00025409837105875704,0.0003829699620054018,-0.003992056220004544,0.004661951954485915,0.9951881336532434
2016-05-27,1,0.0006565724409473691,0.0007365534806049439,-0.006606426886887867,0.00399908622273622,0.9921013732670741
2016-06-01,1,0.0006144238711113885,0.000695050971373609,-0.006606426886887867,0.004661951954485915,0.9908411242124416
2016-06-03,1,0.00027869173917752915,0.0003810924439004603,-0.004240944438208615,0.005631078587003355,0.9910472993543049
2016-06-07,0,-4.653990208070924e-05,0.00014045499459985347,-0.006606426886887867,0.005047699577041858,0.990396909120559
2016-06-09,1,0.0011040467664651071,0.0011588943358689387,-0.006606426886887867,0.007156102897308141,0.9894961685048502
2016-06-13,-1,-0.0003565712154054133,-0.0001815777423882445,-0.002091070766302991,0.008602518038397497,0.9896645238066951
2016-06-15,1,0.00017314895505136916,0.00022160228470629123,-0.004240944438208615,0.008602518038397497,0.9896933451205823
2016-06-17,-1,-0.00011130846539764996,-2.205260339879886e-05,-0.004930880362035808,0.008602518038397497,0.9866404691654947
2016-06-21,-1,-0.00014290176233511037,-4.4375786477853906e-05,-0.004512949448293861,0.008910433981765116,0.9863122494528789
2016-06-23,1,0.0001312459888800897,0.0001819743909139223,-0.007061683142473126,0.008910433981765116,0.9859922316718517
2016-06-27,-1,-0.0013715117470823486,-0.0011539964301191948,-0.0036942360882969327,0.00932654934801122,0.9883774554345478
2016-06-29,-1,-0.0010003739633023736,-0.0008096097683265968,-0.0036942360882969327,0.008910433981765116,0.9898800142908523
2016-07-01,-1,-0.001104829047273834,-0.0008908963327990537,-0.0036942360882969327,0.008387567875054614,0.9901966305598291
2016-07-06,-1,-0.0020567093454019855,-0.0016721799731377388,-0.0036942360882969327,0.006017572240969604,0.9908087344625893
2016-07-08,-1,-0.0019322646376970462,-0.0016207333736071245,-0.0036942360882969327,0.006017572240969604,0.9910232119120511
2016-07-12,-1,-0.0016823447590385648,-0.0014111826637645958,-0.0036942360882969327,0.002993391125892311,0.9919904806741654
2016-07-14,-1,-0.0015296203357994846,-0.0013065422406110818,-0.0030592334615707336,0.005695527689272095,0.9914348693511003
2016-07-18,-1,-0.0024913826270463015,-0.0021482612892591586,-0.0036942360882969327,0.005695527689272095,0.9943690008662723
2016-07-20,-1,-0.002454091215182143,-0.002107076365869465,-0.00489397975535075,0.003497410793662111,0.9948386606039995
2016-07-22,-1,-0.0026553803823952003,-0.0023442836561871315,-0.0036982292528196918,0.003497410793662111,0.9948880083983791
2016-07-26,-1,-0.0024352568704554788,-0.002162497102852423,-0.003430238224137858,0.003497410793662111,0.9943938805443627
2016-07-28,-1,-0.0022266394059812515,-0.0019772656498765486,-0.004905959248919027,0.003497410793662111,0.9941121159245989
2016-08-01,-1,-0.00255331000141252,-0.0022493772209786402,-0.004905959248919027,0.005494971242285277,0.9937061044960558
2016-08-03,-1,-0.0023856181651690056,-0.002106248311562209,-0.004905959248919027,0.006882082276810916,0.9936689304353583
2016-08-05,-1,-0.001781556633644054,-0.001587235375499217,-0.004905959248919027,0.006882082276810916,0.9937474089024195
2016-08-09,-1,-0.0019936384333380766,-0.0017754110475232568,-0.004905959248919027,0.006882082276810916,0.9937024986529466
2016-08-11,-1,-0.0016389237529405628,-0.001449821039021334,-0.006289462929669479,0.002654765854981557,0.993240119413437
2016-08-15,-1,-0.0020138835457923364,-0.001793475623432361,-0.007209061458425488,0.002654765854981557,0.9924118651391877
2016-08-17,-1,-0.002107268198173952,-0.0018766783587407174,-0.005067941746266147,0.0009962113506354151,0.9929697762334388
2016-08-19,-1,-0.0021646121319925304,-0.001929950277504925,-0.005921946426753356,0.0012891462396160086,0.9928731980092284
2016-08-23,-1,-0.0013170620776474554,-0.0011943568843092128,-0.005921946426753356,0.0012891462396160086,0.9927140704007957
2016-08-25,-1,-0.0023026447054883643,-0.002024062249881592,-0.0032687411087493506,0.005754213594934679,0.9923417159862268
2016-08-29,-1,-0.0016724271156180878,-0.0014895461885305564,-0.005921946426753356,0.0056587344390334185,0.9923017967959188
2016-08-31,-1,-0.0016151137616850276,-0.00145185616386255,-0.003984906514426625,0.0019437012557787983,0.992826459220639
2016-09-02,-1,-0.0007795467454087031,-0.0007472976835147906,-0.003984906514426625,0.0019437012557787983,0.9928191856015192
2016-09-07,-1,-0.0005709138562304283,-0.0005608712376838896,-0.003984906514426625,0.0019437012557787983,0.9928080817239471
2016-09-09,-1,-0.0005283325165578927,-0.000490369980523378,-0.0028864445485926706,0.0019437012557787983,0.993655392094358
2016-09-13,-1,-0.0011819611750629481,-0.0010693349202170112,-0.0028864445485926706,0.005597059467450436,0.9939118146258665
2016-09-15,-1,-0.001094977995628153,-0.00099823882122705,-0.007094082560423836,0.005597059467450436,0.9928507500116688
2016-09-19,-1,-0.0012479412799859522,-0.001133792888003722,-0.006966556773679729,0.0061145842914701095,0.9892423719053506
2016-09-21,-1,-0.001057157740605733,-0.0009689351521682381,-0.007528239858359009,0.005597059467450436,0.9899308092338562
2016-09-23,-1,-0.0006833504566232868,-0.0006413922724545248,-0.007528239858359009,0.004605227446905873,0.989446167877793
2016-09-27,-1,-0.0008781700075087451,-0.0007952704222276794,-0.0067930575257307705,0.004605227446905873,0.9893137517718633
2016-09-29,-1,-0.0005434954318437621,-0.0005428549550058929,-0.0074668469888797195,0.004605227446905873,0.9888572937310596
2016-10-03,-1,-0.00033501977449416296,-0.0003328275955073271,-0.0074668469888797195,0.0044807185628776966,0.9892340164200483
2016-10-05,-1,-0.00031374531270961416,-0.000302363198476381,-0.013189020663798479,0.0044807185628776966,0.987967149921203
2016-10-07,-1,-0.0006587507832093845,-0.0006247025908981399,-0.01012713478439772,0.0044807185628776966,0.9885228682858113
2016-10-11,-1,-0.0007636622844801268,-0.0007255792413389273,-0.0074668469888797195,0.006193281746551982,0.9881202008739788
2016-10-13,-1,-0.00132412060479091,-0.0012302302620278657,-0.006190869929076862,0.006252236252158089,0.9888396434443687
2016-10-17,1,0.0005752139093949547,0.0007474786999134617,-0.005079754740502866,0.008137382800248326,0.9913403383314676
2016-10-19,1,0.00026032419258590684,0.0004035028168232902,-0.0032049841327648873,0.008137382800248326,0.9907232454388576
2016-10-21,1,0.000917770783305891,0.0011476132277165913,-0.0074668469888797195,0.007565076968420239,0.9907137211259808
2016-10-25,1,0.000906587391795826,0.0011142157039402936,-0.0037572600599899467,0.007565076968420239,0.9906184393962476
2016-10-27,1,0.0009571567850564725,0.0011927588829072054,-0.0014578220586823451,0.008137382800248326,0.9904044899550344
2016-10-31,1,0.0011202463895452481,0.0013849933490147574,-0.004973487513458259,0.00918908063574704,0.9886712338023901
2016-11-02,1,0.00017155401379631563,0.00027449756265654143,-0.005026339398787815,0.00918908063574704,0.9882653634509679
2016-11-04,1,0.0004230846855856675,0.0005795354803214106,-0.004887159876627439,0.00918908063574704,0.9882809371496732
2016-11-08,1,0.0010622399331676538,0.0012963631924972287,-0.004887159876627439,0.00918908063574704,0.9885436291229472
2016-11-10,1,0.0012909460429504733,0.00155728662318379,-0.009776227647789692,0.00918908063574704,0.9882996714241431
2016-11-14,1,0.0024155665372272692,0.0028428098258175723,-0.009776227647789692,0.007363952424079643,0.9895796112426511
2016-11-16,-1,-0.0003103106151117255,-0.00029613144941607254,-0.009776227647789692,0.007363952424079643,0.9891336200165277
2016-11-18,-1,-0.0005905706123218407,-0.0005537191854357167,-0.013287876874919669,0.007316924734371794,0.9886914495127999
2016-11-22,1,0.00041916190009037423,0.0006065998629510704,-0.013287876874919669,0.005398091718066002,0.988467938823155
2016-11-25,1,0.0006640868055790628,0.0008585479027341787,-0.014338956927301713,0.0011401634001511082,0.988184342669072
2016-11-29,1,0.00031019818595678754,0.0004931063336921423,-0.013287876874919669,-0.0007814134700436515,0.9898781421946921
2016-12-01,-1,-0.0005170182696418308,-0.00041937441509640167,-0.00919028750816401,0.0011401634001511082,0.9913671694020346
2016-12-05,-1,-0.0005562310918796297,-0.0004835287446276015,-0.00919028750816401,0.0028188927274525556,0.9896809899746729
2016-12-07,1,0.00010053223519728872,0.0001616407891659708,-0.01049000772227539,0.0028188927274525556,0.9885442743504719
2016-12-09,-1,-9.350559345334614e-05,-3.304707498224976e-05,-0.01049000772227539,0.0033592403668196613,0.9888312774168392
2016-12-13,-1,-0.0004490470585585231,-0.0004414624828176756,-0.01049000772227539,0.005935425472006249,0.9884057588424944
2016-12-15,-1,-0.0016304033970698008,-0.0015004400144669205,-0.008071254396440063,0.012391687966371011,0.9889911463018515
2016-12-19,-1,-0.0030552343184009198,-0.0027671899939563185,-0.007313827501547532,0.012391687966371011,0.9900242056204718
2016-12-21,-1,-0.003047021478855445,-0.0027606939450044287,-0.0052593870210000514,0.0066249614178345555,0.9909350870690342
2016-12-23,-1,-0.0038353398801438754,-0.0034596267404170163,-0.0035901288201731422,0.01454694555637763,0.9894087161734381
2016-12-28,-1,-0.0010874932495776365,-0.000960636106856639,-0.0035901288201731422,0.01454694555637763,0.9869714961990156
2016-12-30,-1,-0.0011656582630451147,-0.0010170578437860402,-0.0052593870210000514,0.01454694555637763,0.9862820622606132
2017-01-04,1,0.00014414717624733835,0.0001761059788297587,-0.005274046405983416,0.012132720569389448,0.9880290799439565
2017-01-06,1,0.00043161323352523237,0.00047229151249038467,-0.004590902037558865,0.012132720569389448,0.9852798785596035
2017-01-10,-1,-0.0002765889304983893,-0.00026623793289893855,-0.004590902037558865,0.01377004336543294,0.9842270624096208
2017-01-12,1,0.00014073803409573498,0.0001782620382177065,-0.001995471177886663,0.01377004336543294,0.9845407770622222
2017-01-17,1,0.0006525197550564426,0.0007862231657707843,-0.0036735105856602933,0.01200627318092617,0.9852664777040488
2017-01-19,-1,-0.00012833315226149457,-0.00012572602982885344,-0.0013551114736410994,0.01200627318092617,0.9857076887457634
2017-01-23,1,6.643498968276382e-05,0.00010989554936566414,-0.0013551114736410994,0.01200627318092617,0.9853493292767991
2017-01-25,1,0.0006702607589357124,0.0007924366887449316,-0.0023737986975115605,0.008966984116107943,0.9862000180699804
2017-01-27,-1,-0.0004214083257816565,-0.0004192495453425205,-0.002172281980558418,0.00784335673631754,0.9890515942706452
2017-01-31,-1,-0.000562498858710329,-0.000542243224534594,-0.002172281980558418,0.00784335673631754,0.9891349904722965
2017-02-02,-1,-0.0009211512440840681,-0.0008203136801852758,-0.002172281980558418,0.00784335673631754,0.9891838973979585
2017-02-06,-1,-0.0006906551946364164,-0.0005932768418226032,-0.0027582768225068864,0.007208682213076516,0.9939063458558349
2017-02-08,-1,-0.00018471563558399522,-0.00014604651439492554,-0.0027582768225068864,0.004173724294695799,0.995043103551456
2017-02-10,-1,-0.0003014496290849824,-0.00024126113952420444,-0.0027582768225068864,0.002657297968403527,0.9954841386071527
2017-02-14,1,3.95011184295097e-06,8.082211597264898e-06,-0.002172281980558418,0.004147341233101324,0.9949840941084761
2017-02-16,1,6.887901498548558e-05,8.938358323558143e-05,-0.002595904584905059,0.0056423463103300545,0.9944903450872095
2017-02-21,1,0.0003244299583225992,0.00038003277281651465,-0.0030561449565953275,0.003498372989471302,0.9941260892610589
2017-02-23,-1,-0.00026355037001464326,-0.0002305171667492353,-0.002595904584905059,0.0056423463103300545,0.9943348535112849
2017-02-27,1,0.00020880405178467343,0.0002616969004075651,-0.0030561449565953275,0.003498372989471302,0.9945089850769764
2017-03-01,1,0.00019450184949575808,0.00023238573364641523,-0.0009093787150971907,0.0031278002061836834,0.995094005309716
2017-03-03,1,1.5896418666554866e-05,1.7708405519327726e-05,-0.00040665809232876644,0.0031278002061836834,0.9951601388098452
2017-03-07,-1,-0.0003018017450336182,-0.0002522644060626452,-0.001102886924501974,0.0031278002061836834,0.9945563097704813
2017-03-09,-1,-0.0006372764834117133,-0.0005215072487110918,-0.0024064703325037315,0.0031278002061836834,0.9939468856204298
2017-03-13,1,0.00028013612857022126,0.00034322547023466973,-0.003797941148204833,0.0031278002061836834,0.9938648004553927
2017-03-15,1,0.00030196508383160904,0.0003314052459508207,-0.003797941148204833,0.0026344551646670495,0.9944138841980122
2017-03-17,1,0.0008476184298769128,0.0009816168672497237,-0.007589498492915502,0.0026344551646670495,0.9943301180424905
2017-03-21,1,0.00038545947930076195,0.000464689891304685,-0.00349107345774956,0.002436348389542754,0.9952190312256609
2017-03-23,1,0.0005938238962704463,0.0006881750803398445,-0.00349107345774956,0.002436348389542754,0.9954796940247361
2017-03-27,0,-6.282452707427957e-05,3.345990150405799e-05,-0.001986853358328708,0.0027501970173745807,0.9930770668218897
2017-03-29,-1,-9.47005122636457e-05,-3.91104902949737e-05,-0.005164405211080465,0.001926636018783684,0.992855216704929
2017-03-31,-1,-0.00010768904428058094,-5.048069192824375e-05,-0.005676485781689295,0.0006763476383009877,0.9921631534630603
2017-04-04,-1,-0.00017054497281412026,-9.259993775142131e-05,-0.005393422608237521,0.0021879899032102345,0.9924160983338626
2017-04-06,-1,-0.00033742190707158925,-0.00027602492006441955,-0.005164405211080465,0.003900400867651044,0.9925432923430447
2017-04-10,1,0.0001368167524308109,0.0003189069872108972,-0.004654870453422745,0.005257471556592567,0.9920337463718272
2017-04-12,0,-8.500787336016002e-05,2.9426879408008368e-05,-0.004654870453422745,0.0054827614425531,0.9918336467919208
2017-04-17,-1,-0.0002682603412106683,-0.00019677803575164816,-0.0043637784573421785,0.0054827614425531,0.9924576795453017
2017-04-19,0,-1.0989485307869127e-05,0.00012578562983188717,-0.004654870453422745,0.0054827614425531,0.9917233508545507
2017-04-21,1,0.0004326385311577085,0.0006479351926787709,-0.004654870453422745,0.0067575540021559775,0.9911547264778338
2017-04-25,1,0.0001832178624105095,0.0003445374448567325,-0.004654870453422745,0.0037516737805964716,0.9939150003169543
2017-04-27,-1,-0.000157333023109851,-8.591638138716632e-05,-0.003577582994833309,0.0067575540021559775,0.9928767177630687
2017-05-01,-1,-0.00038868046646162163,-0.0003521862917365082,-0.002690528526650616,0.0067575540021559775,0.9935826013653444
2017-05-03,1,5.843680569547028e-05,0.0002064607766983752,-0.0012583185585996717,0.007147035874474058,0.9936955273441609
2017-05-05,1,0.00014224372305387037,0.0002773381014454475,-0.0012583185585996717,0.007505183258295429,0.9934199976401659
2017-05-09,1,0.0004760143909833194,0.0006526540766764304,-0.0002712399937580532,0.006355711649089425,0.9942200848359645
2017-05-11,1,3.1643375588278396e-05,9.780485966297844e-05,-0.0002712399937580532,0.0061655772701681155,0.9942016812322616
2017-05-15,-1,-8.940169362747086e-05,-7.63368527909348e-05,0.0003599645135608569,0.007505183258295429,0.9931434991014767
2017-05-17,-1,-0.0005630746282237735,-0.00048324841065395857,0.0003599645135608569,0.007505183258295429,0.9932950530281959
2017-05-19,1,0.00011593867941597598,0.00013090375430183015,0.0003599645135608569,0.007505183258295429,0.9933982988007716
2017-05-23,-1,-0.0005480064845437581,-0.00045017220331214065,0.0003599645135608569,0.007505183258295429,0.9931899343476929
2017-05-25,-1,-0.000264205135559681,-0.0002024566823094874,-0.0001432206093746355,0.007505183258295429,0.9939419766871581
2017-05-30,1,0.0001909118233964709,0.0002207100413279584,-0.0018092288475267232,0.007505183258295429,0.9934835818798095
2017-06-01,1,0.0005173504476364353,0.000604807241174773,-0.0036009902799937236,0.005965990971936465,0.993861631976274
2017-06-05,1,0.0005774997371667401,0.000659940641663335,-0.005902053257984431,0.005244447753751321,0.9936685887736179
2017-06-07,1,0.00078047015034826,0.0009229395665102252,-0.006772040344580176,0.007317403518273742,0.9929505934549785
2017-06-09,1,0.0006301650490398303,0.0007536817816097986,-0.006772040344580176,0.008311551531294124,0.9929019131467118
2017-06-13,1,0.0009087391628192388,0.0010374813562971134,-0.006772040344580176,0.0062969578729472064,0.9935407595023942
2017-06-15,1,0.0005097614464763973,0.0005879765183439101,-0.006772040344580176,0.008311551531294124,0.9928935794663686
2017-06-19,1,0.0010509287088306025,0.0012134760807551244,-0.006772040344580176,0.0062969578729472064,0.993566995289307
2017-06-21,1,0.0010506899277357307,0.0011624848315548875,-0.006772040344580176,0.007352350746885072,0.993141598848897
2017-06-23,1,0.0010360255779048567,0.0011165777472268478,-0.0068698024978127315,0.007352350746885072,0.9890047847895879
2017-06-27,1,0.00037468513650828285,0.0003996636741239739,-0.0037032036165136964,0.007940499485477528,0.9888152939743059
2017-06-29,-1,-9.280483510744556e-05,-3.7815750856377904e-05,-0.0037150189430275094,0.007940499485477528,0.9885476531805188
2017-07-03,-1,-0.0001389414419366369,-6.240294651674064e-05,-0.0022148296259639896,0.007352350746885072,0.9894196831977666
2017-07-06,-1,-9.700136549532234e-05,-1.9914121212690546e-05,-0.0039692218285901784,0.0062969578729472064,0.9894535576655039
2017-07-10,1,6.584829348184757e-05,0.0001608350685725971,-0.005386650117507481,0.005724336538816261,0.989504180280643
2017-07-12,1,0.00016749439570221792,0.0002828171300458644,-0.009051687176728967,0.005228093534941938,0.9884031623397913
2017-07-14,1,0.00037756852395963,0.0005365039457528875,-0.009114051227081888,0.004994505688828853,0.9882997786861623
2017-07-18,1,0.0001245752972200099,0.00020937436695744925,-0.009114051227081888,0.005228093534941938,0.988319159199865
2017-07-20,1,0.0008028185952702448,0.0009961766148484596,-0.011877598084108215,0.002265384111616377,0.987621619402267
2017-07-24,-1,-0.0007903627168874838,-0.0007833529398827868,-0.011877598084108215,0.0010181222675886142,0.9918680571923498
2017-07-26,-1,-0.0006613807428375013,-0.0006526664371217247,-0.011877598084108215,0.0007248832487561487,0.9921369396098334
2017-07-28,-1,-0.0007724646465098829,-0.0007612803524187431,-0.011877598084108215,0.0010181222675886142,0.9921022271154566
2017-08-01,-1,-0.0006450425085114898,-0.0006357842250573622,-0.011877598084108215,0.001081636265579845,0.9918257736832052
2017-08-03,-1,-0.0010880615098869536,-0.0010522282553144312,-0.00878587359159054,0.0027714826946583482,0.9909697096191298
2017-08-07,-1,-0.0013275834606270727,-0.0011798931087049676,-0.014432262281563496,0.0027714826946583482,0.9899241194253702
2017-08-09,-1,-0.0016549475379453783,-0.001467564403148019,-0.012173232260249512,0.0027714826946583482,0.9899495222661169
2017-08-11,-1,-0.002290723299277075,-0.0020059814362705032,-0.007903825999468312,0.00657353718222258,0.9891983431402867
2017-08-15,-1,-0.0024397713740745824,-0.002248558913791085,-0.009531942220069329,0.0075443778178158685,0.9887674519795101
2017-08-17,-1,-0.002312232026538505,-0.002025805116718018,-0.00920806370520636,0.006298127332621001,0.9896585240700283
2017-08-21,-1,-0.002570234457753828,-0.0022618616505106688,-0.00920806370520636,0.01122534576490455,0.9888880849874222
2017-08-23,-1,-0.0027442824863621014,-0.002411726207269157,-0.00920806370520636,0.01122534576490455,0.9884819115194331
2017-08-25,-1,-0.0026866105181833286,-0.0023450890326724926,-0.00920806370520636,0.011644285964655755,0.988260005391627
2017-08-29,-1,-0.002729556390670925,-0.0023733411014881423,-0.00920806370520636,0.011644285964655755,0.9881110686679415
2017-08-31,-1,-0.0016973133005615247,-0.0014650285815992065,-0.00920806370520636,0.009105608579516217,0.9896601960090503
2017-09-05,-1,-0.0025953522200732816,-0.0022629717547729953,-0.0076356621722116465,0.009105608579516217,0.9908764336390966
2017-09-07,-1,-0.003187316766964962,-0.002781551154783092,-0.0037813329756115135,0.009105608579516217,0.9912566304195368
2017-09-11,-1,-0.00249913227253636,-0.002168336248765409,-0.004264716977244088,0.00588548679239766,0.9930735075427573
2017-09-13,-1,-0.0023461937432903424,-0.002036617519186436,-0.0035975909663733636,0.004983390117671795,0.9936499542273818
2017-09-15,-1,-0.002318657099587176,-0.0019771350416407114,-0.0028299281619347757,0.004983390117671795,0.9938012537345714
2017-09-19,-1,-0.002088028622144537,-0.0017593028034278745,-0.0028299281619347757,0.004908097942976083,0.9950954228303349
2017-09-21,-1,-0.0027143321148453926,-0.002285900340941213,-0.0018250956781495045,0.004470924202682418,0.9952075071099667
2017-09-25,-1,-0.0019457392196641759,-0.0016342096764893096,-0.0028299281619347757,0.0038964928555720773,0.9916067142717518
2017-09-27,-1,-0.0012867537779929186,-0.0010651992481330273,-0.0019862236786936955,0.004594342642922981,0.9896895602140281
2017-09-29,-1,-0.0009234288535651325,-0.0007551733739689253,-0.0014427814188071899,0.005362363387206566,0.9887030601965934
2017-10-03,-1,-0.0010465561172094975,-0.0008593670288468852,-0.004804925727588689,0.005362363387206566,0.9864967019309071
2017-10-05,-1,-0.001524771849016079,-0.0012724246781569116,-0.006777795634659647,0.005362363387206566,0.9855665656171468
2017-10-09,-1,-0.0017999807524244535,-0.0014873333117485653,-0.006777795634659647,0.007223856984683387,0.9849671121570215
2017-10-11,-1,-0.0013298087343406044,-0.0011089983879663359,-0.010418876861267109,0.007223856984683387,0.9845278995105947
2017-10-13,-1,-0.0016755413740654995,-0.001398560565629954,-0.010418876861267109,0.012911824993740863,0.9829720980215912
2017-10-17,-1,-0.0012461213566026899,-0.001076059642836493,-0.010418876861267109,0.01554883004183236,0.9802344894837232
2017-10-19,-1,-0.0010617868669581048,-0.0009179600816687982,-0.012433578478057244,0.01554883004183236,0.9791907417597941
2017-10-23,-1,-0.0016793158650815123,-0.0014890828836950048,-0.010418876861267109,0.012975554447457158,0.9836792659855678
2017-10-25,1,9.242388239269708e-05,0.00013741387893999413,-0.010418876861267109,0.007223856984683387,0.9860320587922504
2017-10-27,1,0.001020350595556907,0.0011886313053766037,-0.010604362370630815,0.0011189679053800366,0.9863130830828454
2017-10-31,-1,-0.0006858772720433754,-0.0006268625925325103,-0.009848155728982004,0.0015224812510527313,0.9886593871923862
2017-11-02,-1,-0.0008153292793772347,-0.0007879625962420359,-0.009848155728982004,0.002336242186935735,0.98944874728731
2017-11-06,-1,-0.0006293593475424652,-0.0005975365945583993,-0.010026870628477857,0.0011250619020743697,0.989566535441103
2017-11-08,-1,-0.0006537244909852566,-0.0006505520126211608,-0.009310564876508873,0.002270763098961279,0.990121670767888
2017-11-10,1,0.00040289546977067495,0.0005371553837886162,-0.009310564876508873,0.002270763098961279,0.9915877619796271
2017-11-14,1,0.0014534521002072768,0.0017468937569367971,-0.009310564876508873,0.003298223694433868,0.9927181728782253
2017-11-16,1,0.0017373402357117504,0.00202790692212548,-0.009310564876508873,0.003298223694433868,0.9927158446902458
