JNU-Tangyin/eata/results/Batch4_SP500/Batch4_SP500-RCL.csv
Date,Action,Predicted_Q25,Predicted_Q75,Actual_Q25,Actual_Q75,RL_Reward
2010-12-14,1,0.0,0.0030920034093143076,-0.0009901479789428502,0.011745198506746952,0.9881063210116499
2010-12-16,1,0.004398330555127349,0.004507301945307577,-0.0009901479789428502,0.014253809942513167,0.9854733558646438
2010-12-20,1,0.0066908757191902314,0.007162357882104052,-0.007459494069983085,0.01081331490330506,0.9855231880536283
2010-12-22,1,0.009883956293197368,0.010829625193770058,-0.00934951228221035,0.01081331490330506,0.9874159473587475
2010-12-27,1,0.009522172720465889,0.010369376888534374,-0.010049095953252714,0.010678541646024478,0.9863560066678644
2010-12-29,0,0.0,0.0,-0.010049095953252714,0.01151646817692235,0.9849509009399361
2010-12-31,1,0.0047763602042824975,0.0050246931030082445,-0.015447079609143561,0.01151646817692235,0.9817791314050027
2011-01-04,1,0.0022778902033989265,0.002451478475067794,-0.015447079609143561,0.010678541646024478,0.9825731761952238
2011-01-06,1,0.0018001268072877585,0.0020265669430462596,-0.012250526084278571,0.00816037767933842,0.9835054794280104
2011-01-10,1,0.002055922138852568,0.0022089218964781907,-0.012250526084278571,0.011684704405365481,0.9825933062244525
2011-01-12,1,0.0003577156706048041,0.0008191089874886133,-0.012250526084278571,0.011024857928799682,0.9831304899793786
2011-01-14,1,0.0010346646115792046,0.0015024573445885697,-0.01328128744308786,0.011024857928799682,0.9843340254275552
2011-01-19,-1,-0.0015636984638698463,-0.0007864261872516385,-0.01039268307285581,0.011024857928799682,0.9856163500981037
2011-01-21,-1,-0.00203303160437108,-0.0012021408863431187,-0.008988508572492122,0.009221202939904007,0.9873495112220062
2011-01-25,0,-0.0004360519593539832,0.00011748863933956047,-0.01328128744308786,0.009221202939904007,0.9837148060755184
2011-01-27,-1,-0.0005227064251715047,-5.754111470655842e-05,-0.009841521642759442,0.009221202939904007,0.9868099394873064
2011-01-31,-1,-0.00212572312799619,-0.001435153241320777,-0.00831672246974948,0.009221202939904007,0.9859329672361786
2011-02-02,-1,-0.0013289994438794412,-0.0007624264618779218,-0.00831672246974948,0.009221202939904007,0.9845989663527286
2011-02-04,-1,-0.001342635852536484,-0.0008018449564389251,-0.009353456016715589,0.009221202939904007,0.9844862371996136
2011-02-08,-1,-0.0014182365478166378,-0.0009061886829157624,-0.009353456016715589,0.007805609548875135,0.9836253815626584
2011-02-10,-1,-0.0006039093967470546,-0.00023822291573744178,-0.013179704271559026,0.00550738342303854,0.9834934428272374
2011-02-14,-1,-0.0011253167978386637,-0.0006748634761545031,-0.015098302549143527,0.003120880065529277,0.9834060151609991
2011-02-16,-1,-0.0004922858892883488,-0.0001575255804734736,-0.0196387288405284,0.003750224574611689,0.9821415207960713
2011-02-18,-1,-0.0010372225754769343,-0.000631553620225945,-0.0196387288405284,0.00942218002774067,0.9801085078788144
2011-02-23,-1,-0.0036369963040760733,-0.0029161919617563987,-0.015098302549143527,0.00942218002774067,0.9819148799079807
2011-02-25,-1,-0.003798486787987999,-0.0030365908501853766,-0.015098302549143527,0.00729217855479391,0.9824870369949267
2011-03-01,-1,-0.00543741701703152,-0.004534460559199414,-0.015098302549143527,0.009531677658655771,0.9835879476716816
2011-03-03,-1,-0.003293609533460754,-0.0026791126157177858,-0.018910538295207984,0.009531677658655771,0.9843883376514154
2011-03-07,-1,-0.004875499938545642,-0.004088584229444409,-0.015206581353565757,0.009531677658655771,0.9847972278980149
2011-03-09,-1,-0.0036644449528720063,-0.0030318564667301756,-0.015206581353565757,0.00729217855479391,0.9867527148971599
2011-03-11,-1,-0.0036488480722386826,-0.0030251622627214055,-0.019963565253795088,0.00729217855479391,0.9853617379532745
2011-03-15,-1,-0.005285635706193959,-0.004433302120064643,-0.01717658855828423,0.011066840217165811,0.9844433774456882
2011-03-17,-1,-0.005650315640358675,-0.0047457025239102685,-0.020053164433066498,0.011066840217165811,0.9839110304146292
2011-03-21,-1,-0.002827642046727246,-0.00242088173287118,-0.021764123857460207,0.003962403415712681,0.9850409218332707
2011-03-23,-1,-0.003922811636561277,-0.003363311432297185,-0.019805694516605906,0.00780389940763059,0.9856995661210072
2011-03-25,-1,-0.004479528923333485,-0.003829453116911989,-0.019805694516605906,0.010896846255451152,0.9856504187741147
2011-03-29,-1,-0.003469292731219214,-0.0030071035988137127,-0.01774690836641547,0.013557453880948901,0.9852293712735757
2011-03-31,-1,-0.003211366071373999,-0.0028285709403643258,-0.011938805111741526,0.010896846255451152,0.9868214165442059
2011-04-04,-1,-0.0036958703615126813,-0.0032404637469272846,-0.00883127076409632,0.010896846255451152,0.9865440343486205
2011-04-06,-1,-0.0036197490232149345,-0.003171767438554059,-0.014099968247291832,0.013557453880948901,0.9830696026119409
2011-04-08,-1,-0.005709379330345494,-0.0049747882153152135,-0.015076907659619297,0.013557453880948901,0.9827911851806019
2011-04-12,-1,-0.0035953809354578497,-0.003173263940066764,-0.015076907659619297,0.012652456899973963,0.9844839627976366
2011-04-14,-1,-0.005096106963408581,-0.004476202119770786,-0.005070606201123449,0.01369973641208166,0.9847349420114343
2011-04-18,-1,-0.0062561566783021355,-0.005444217105211665,-0.005070606201123449,0.01369973641208166,0.9842194422770564
2011-04-20,-1,-0.00527391476132312,-0.004613999414661051,-0.00785219332196892,0.012652456899973963,0.9850830807836102
2011-04-25,-1,-0.005380324057103229,-0.004672662643428862,-0.01275630809486225,0.010103439011017927,0.9845874380485693
2011-04-27,-1,-0.003640188102554617,-0.003208369151254781,-0.015076907659619297,0.005363499240609511,0.9857273328477105
2011-04-29,-1,-0.0034388605206409958,-0.0030381153642281894,-0.015076907659619297,0.007419106701181443,0.9852639219873897
2011-05-03,-1,-0.002873973621516526,-0.0025755565338710074,-0.021425706675363886,0.010103439011017927,0.9826601198205854
2011-05-05,-1,-0.00040879657741830003,-0.00034031970508075334,-0.02143327529136236,0.010103439011017927,0.9848833451222879
2011-05-09,-1,-0.0032947155816199104,-0.0028333104428792345,-0.018850296639099484,0.010103439011017927,0.9859476291559103
2011-05-11,-1,-0.0030374405163022186,-0.002594944735430803,-0.02143327529136236,0.010156690059032903,0.9832624590110308
2011-05-13,-1,-0.0014346071542246396,-0.0012521986032815115,-0.025206059330583792,0.003431512116664784,0.9828781369029078
2011-05-17,-1,-0.0008751208568571195,-0.0008455653373575329,-0.022130760393082455,0.010156690059032903,0.981953424717872
2011-05-19,-1,-0.0007664894395039723,-0.0007557203081596923,-0.022130760393082455,0.01316421807295471,0.9815451872450386
2011-05-23,-1,-0.001560363040692991,-0.001467757609189229,-0.018850296639099484,0.015984208640504583,0.9787504806630317
2011-05-25,-1,-0.002084087577846523,-0.0019412654173680975,-0.018850296639099484,0.016232178954815414,0.977666110655233
2011-05-27,-1,-0.0010506764580866306,-0.0010212211228600697,-0.018850296639099484,0.017102180212826987,0.976817269255514
2011-06-01,0,0.0,0.0,-0.018008297421284486,0.0171742295643783,0.9788430122936085
2011-06-03,0,0.0,0.0,-0.013247145261813456,0.023402125814894707,0.9781098048376063
2011-06-07,-1,-0.0002131978581675413,-0.00017915328887085436,-0.013247145261813456,0.023402125814894707,0.977720805219722
2011-06-09,-1,-0.004440916036608106,-0.004310111890216907,-0.012994921244159914,0.023402125814894707,0.9790299332482663
2011-06-13,-1,-0.006037959253376834,-0.005673486024251745,-0.017144056629766535,0.023402125814894707,0.9768985289062412
2011-06-15,-1,-0.0049052297317046245,-0.004671085339681747,-0.020255763764750728,0.023402125814894707,0.975580055224505
2011-06-17,-1,-0.003634253278174518,-0.0035322162182503075,-0.020255763764750728,0.01745478433305938,0.9757377877113639
2011-06-21,0,0.0,0.0,-0.020255763764750728,0.015558897638994033,0.9779976448224066
2011-06-23,0,0.0,0.0,-0.017144056629766535,0.015558897638994033,0.9793903293412047
2011-06-27,0,0.0,0.0,-0.01601884818502938,0.015501731898258795,0.980900899771096
2011-06-29,0,-7.433215500999885e-05,0.000350173241735006,-0.02324165779648751,0.01342270414405268,0.976485930520815
2011-07-01,1,0.0004436719884619632,0.0009902013020963367,-0.02324165779648751,0.008432162768964377,0.9772328938307646
2011-07-06,0,0.0,0.0,-0.02324165779648751,0.008432162768964377,0.9765423805678694
2011-07-08,0,0.0,0.0,-0.031057952206268752,0.004481650935376043,0.9749827871074966
2011-07-12,0,0.0,0.0,-0.026978740991934837,0.008432162768964377,0.9706043909024208
2011-07-14,0,0.0,0.0,-0.02822571924800797,0.008432162768964377,0.9672309298719627
2011-07-18,0,0.0,0.0,-0.02822571924800797,0.010877998569330487,0.9664556469250705
2011-07-20,0,0.0,0.0,-0.04804155879882112,0.007802422494175572,0.9658122659982614
2011-07-22,0,0.0,0.0,-0.05389169196201914,0.0019590307373740833,0.9613908020496454
2011-07-26,0,0.0,0.0,-0.05389169196201914,0.006922501421289911,0.9596317603966991
2011-07-28,0,0.0,0.0,-0.050573725429709906,0.014242520078914245,0.9616872768713098
2011-08-01,0,0.0,0.0,-0.050573725429709906,0.035042131185632146,0.956951889999098
2011-08-03,0,0.0,0.0,-0.050573725429709906,0.035042131185632146,0.9589314434892316
2011-08-05,0,0.0,0.0,-0.050538157740360454,0.035042131185632146,0.9584482584364752
2011-08-09,0,0.0,0.0,-0.04254720707700593,0.035042131185632146,0.9633708299589413
2011-08-11,0,0.0,0.0,-0.03922737400043231,0.028228343965086736,0.9673556125549534
2011-08-15,0,0.0,0.0,-0.03922737400043231,0.02706924237160316,0.9675105288115488
2011-08-17,0,0.0,0.0,-0.028527062199021718,0.0307601547838004,0.9677960826940106
2011-08-19,0,0.0,0.0,-0.02148042873405348,0.0307601547838004,0.9712806785779176
2011-08-23,0,0.0,0.0,-0.028158805864748747,0.030842767042543334,0.9693631909693713
2011-08-25,0,0.0,0.0,-0.028158805864748747,0.030842767042543334,0.9691351242773686
2011-08-29,0,0.0,0.0,-0.028158805864748747,0.016775239455721295,0.9725180052985094
2011-08-31,0,-0.003381173839866195,0.0,-0.037556895041946356,0.017925369583264402,0.9715863903101672
2011-09-02,-1,-0.004510437623194103,-0.00415273345966087,-0.037556895041946356,0.017925369583264402,0.9697025737228934
2011-09-07,-1,-0.0037870695292434556,-0.003462181562865645,-0.037556895041946356,0.017925369583264402,0.9692268574769753
2011-09-09,0,0.0,0.0,-0.03482636229067512,0.030842767042543334,0.9693920760399171
2011-09-13,0,0.0,0.0,-0.03482636229067512,0.034603227201182696,0.9678036998471029
2011-09-15,-1,-0.003804434483612504,-0.003495987481866726,-0.03482636229067512,0.03684770119489492,0.9665123360545379
2011-09-19,-1,-0.006084644554081694,-0.005764233143662787,-0.03482636229067512,0.04392993658225972,0.9637551445457857
2011-09-21,-1,-0.005150717175998203,-0.0049629741414966184,-0.032956984365085144,0.04726293387411745,0.9636270156277624
2011-09-23,-1,-0.008459716674039913,-0.007907768474239152,-0.02122796473279892,0.04726293387411745,0.9628454923361223
2011-09-27,-1,-0.004792556715605294,-0.0047648902576824005,-0.032956984365085144,0.051327850613989326,0.9609056285717811
2011-09-29,-1,-0.006706142598883859,-0.006412111414085906,-0.015977847184749913,0.05201281746483982,0.9582227836557363
2011-10-03,-1,-0.010899554129524439,-0.01016704307464756,-0.005555429082791211,0.05201281746483982,0.9600661956773523
2011-10-05,-1,-0.002609936935556136,-0.002548506733189139,-0.013411675424746345,0.051327850613989326,0.9611895933951327
2011-10-07,0,0.0,0.0,-0.015102067627880317,0.051327850613989326,0.9618562626160173
2011-10-11,-1,-0.0007832139986424615,-0.0006033277781036601,-0.015102067627880317,0.03976813181105265,0.9646726144738053
2011-10-13,1,0.0004649361078405893,0.0008377635419756185,-0.024934603131999213,0.035871041454566197,0.9639967961223186
2011-10-17,0,0.0,0.0,-0.015102067627880317,0.03500019085851117,0.9667837747615627
2011-10-19,1,0.0013707803060982317,0.0017981675536461136,-0.018372750003581885,0.03336958009207948,0.9691780142594094
2011-10-21,0,0.0,0.0,-0.019472984312780932,0.024087539967432327,0.9699962382224121
2011-10-25,0,0.0,0.0,-0.018372750003581885,0.019226336900849763,0.9751042371784014
2011-10-27,0,0.0,0.0,-0.019980999931370647,0.010203778249105608,0.9745994920039072
2011-10-31,1,0.002075842166429147,0.0025833831391864756,-0.019356706122137596,0.013390713780695174,0.9718704170844151
2011-11-02,1,0.00047562083195627704,0.0007561726209186828,-0.018372750003581885,0.013390713780695174,0.9721014097557021
2011-11-04,1,0.0008934886055000487,0.0012328041920092745,-0.018372750003581885,0.013390713780695174,0.9725806723149325
2011-11-08,0,0.0,0.0,-0.018887557860667592,0.013390713780695174,0.9720005233437697
2011-11-10,0,0.0,0.0,-0.018887557860667592,0.019226336900849763,0.9727708415193944
2011-11-14,1,0.003304246468559341,0.004030401792614463,-0.019356706122137596,0.012176665441507613,0.9719749513741869
2011-11-16,1,0.0025895057165311527,0.003222349447423329,-0.019980999931370647,0.02147316737414734,0.9709021002379696
2011-11-18,1,0.0029904992198412374,0.0037080619167948574,-0.02004449238333665,0.01944465105415979,0.9695317520498
2011-11-22,1,0.0034910898434462557,0.004350517828181929,-0.02004449238333665,0.01944465105415979,0.969611218669969
2011-11-25,1,0.0010988719824448529,0.0016041873418609904,-0.01822992633898877,0.024158788595208217,0.9724733298094119
2011-11-29,1,0.0030537106637022974,0.003825415698848492,-0.019236667042806837,0.022624047391464445,0.9740421424873322
2011-12-01,1,0.004041434334578889,0.004842178135238516,-0.019236667042806837,0.01944465105415979,0.9779234262939778
2011-12-05,1,0.004676493795913679,0.005542728050451131,-0.019236667042806837,0.01944465105415979,0.9769860141779075
2011-12-07,1,0.00416235349875832,0.0049637661962466904,-0.019569028000868093,0.01944465105415979,0.9772325438144007
2011-12-09,1,0.0044133406264894315,0.005302533665750682,-0.017019760688639668,0.01944465105415979,0.9782615586747333
2011-12-13,1,0.004110308715579667,0.0049942485209353545,-0.011984657662088614,0.024713788421738034,0.9764318868684607
2011-12-15,1,0.00378842627749363,0.004642468700931516,-0.017019760688639668,0.024713788421738034,0.9751470723816656
2011-12-19,1,0.0016467781590599204,0.0020467107755156953,-0.011984657662088614,0.027127301935884505,0.9767102290113303
2011-12-21,1,0.0011591619814604326,0.0014569463774110462,-0.007516348975374603,0.027127301935884505,0.9766267629350038
2011-12-23,1,0.001775026178172448,0.002098450560701132,-0.017009689106599713,0.01899560197653067,0.977745043255054
2011-12-28,1,0.00032794679925574565,0.0003776704589688915,-0.009715826216872905,0.01899560197653067,0.9783659556626677
2011-12-30,-1,-8.10343242408715e-05,-4.028016433536208e-05,-0.010249689113413844,0.015317716011267406,0.9789728290813269
2012-01-04,1,0.0009785063324811638,0.0010598899937228564,-0.010249689113413844,0.018532549590838127,0.9790637455937947
2012-01-06,1,0.0009897868844504654,0.0011353565659315916,-0.007484726853614122,0.029493999281398623,0.9771242900057893
2012-01-10,1,0.0016345247999164732,0.0017894363355927458,-0.007484726853614122,0.019097763179765866,0.9786041017129273
2012-01-12,1,0.002136478417265489,0.0021887400855262664,-0.010249689113413844,0.014846304751783898,0.9815815855613479
2012-01-17,1,0.0002758902885149378,0.0004044326724060241,-0.007484726853614122,0.014846304751783898,0.984487409896399
2012-01-19,1,0.0006294307839686758,0.0007506374544961304,-0.007484726853614122,0.014846304751783898,0.9850800686307415
2012-01-23,1,0.0024062239166047716,0.00268607990938497,-0.010249689113413844,0.014846304751783898,0.9834797483157185
2012-01-25,1,0.002240911731752388,0.0025024461639955873,-0.010249689113413844,0.014846304751783898,0.9826139389820494
2012-01-27,1,0.0008738081798507351,0.0008918819326626107,-0.01880161656313014,0.014846304751783898,0.9818324227764929
2012-01-31,1,0.0009348256093720099,0.0009760984186042616,-0.016044472646336516,0.015476955005571572,0.9820544595606352
2012-02-02,1,0.001282963106651327,0.0012892536408202946,-0.016044472646336516,0.011968680431605953,0.9836952629994689
2012-02-06,1,0.0026381455695072887,0.0028347171245892157,-0.020385228450055796,0.009909056004983912,0.9838467158052268
2012-02-08,1,0.003620114646989503,0.00400032425907182,-0.020385228450055796,0.009909056004983912,0.9827379020857147
2012-02-10,1,0.0026808121665581742,0.0028804783094006914,-0.020040470043597505,0.01217889718286851,0.9819498212679147
2012-02-14,1,0.0018989710806709646,0.0019995675330980837,-0.019230185116254767,0.016146523995712946,0.9818117293367054
2012-02-16,1,0.0010003409427236515,0.0011163818633573512,-0.019230185116254767,0.019389192347525442,0.9806000961037462
2012-02-21,1,0.0006403604100009266,0.0007754492811659827,-0.015803921695008154,0.019389192347525442,0.9820586467340835
2012-02-23,-1,-0.0006228004762387288,-0.00029912620029809347,-0.01572784681053815,0.019389192347525442,0.983330219538036
2012-02-27,-1,-0.003114241660637318,-0.0023874594619844674,-0.010520118665291667,0.023420130064133876,0.9835218308470521
2012-02-29,-1,-0.0020195192396047453,-0.0015018303429524525,-0.01280359827248588,0.023420130064133876,0.9835352720457017
2012-03-02,-1,-0.002188833394663076,-0.0016762519534237056,-0.01280359827248588,0.023420130064133876,0.9833276763492014
2012-03-06,-1,-0.0024706078848113354,-0.001998211723532279,-0.01051206943674711,0.023420130064133876,0.984829052953615
2012-03-08,-1,-0.0006782439932798932,-0.0004847855026247202,-0.01148622831792957,0.008499977764551688,0.985319818605751
2012-03-12,0,0.0,0.0,-0.01148622831792957,0.004684130196431707,0.984756706279883
2012-03-14,0,0.0,0.0,-0.01148622831792957,0.008489417240977824,0.9848561151075325
2012-03-16,0,0.0,0.0,-0.013217334477717372,4.25395979930525e-05,0.9860928689344747
2012-03-20,1,0.0017446345997683705,0.0019883161290243333,-0.013217334477717372,0.004684130196431707,0.9847129444722631
2012-03-22,1,0.001839646707533661,0.002146867940197531,-0.013217334477717372,0.008489417240977824,0.9810700278198552
2012-03-26,0,0.0,0.0,-0.015775949086346365,0.004684130196431707,0.9812728201556093
2012-03-28,1,0.001251028142292838,0.0014100290262657883,-0.013217334477717372,0.016664330431790143,0.9793921124453419
2012-03-30,1,0.0011668147894836013,0.0013358279890568515,-0.017167694590134112,0.016664330431790143,0.9785872337475213
2012-04-03,1,0.0010667056034339352,0.0012255154643503157,-0.017167694590134112,0.023180809150728853,0.9784090532467133
2012-04-05,-1,-0.00039088221193894963,-0.00029739810287963183,-0.017872302553160694,0.023180809150728853,0.9778472083929518
2012-04-10,-1,-0.0004389377308546498,-0.00035177575576597565,-0.015741552057185467,0.023180809150728853,0.979882707096808
2012-04-12,-1,-0.0007443911114193274,-0.0005830494663955825,-0.017872302553160694,0.013880455266197576,0.9805188935432386
2012-04-16,-1,-0.0011735062903632156,-0.000963259445336395,-0.022177129881773738,0.013880455266197576,0.9806707692117382
2012-04-18,-1,-0.001157825398399196,-0.0009384361843326485,-0.022177129881773738,0.006251287847120174,0.9810183784744123
2012-04-20,-1,-0.0016633077067390982,-0.001287359666802469,-0.022855861260965987,0.0029774542897541764,0.9834971840872482
2012-04-24,0,0.0,0.0,-0.022177129881773738,0.0075616904602885246,0.9826946970926307
2012-04-26,0,0.0,0.0,-0.022177129881773738,0.005282092005468026,0.9840035128648327
2012-04-30,1,3.1187966576306446e-05,3.827052216536665e-05,-0.020834259610857612,0.005282092005468026,0.9846704642918743
2012-05-02,-1,-0.00010519494149599089,-4.659639372484183e-05,-0.022855861260965987,0.004605006846790748,0.9835705094013413
2012-05-04,-1,-0.001548800254956787,-0.0013015101129282601,-0.022855861260965987,0.004605006846790748,0.9836696398421441
2012-05-08,-1,-0.0021987899945474666,-0.0018302063611875816,-0.022855861260965987,0.008172342105434618,0.9812498225448457
2012-05-10,-1,-0.003493555902093876,-0.0029317369104829563,-0.021461845366343102,0.013240400432893512,0.9815962208387616
2012-05-14,-1,-0.004800172056111914,-0.00404074160532422,-0.02294001995823459,0.014252593502798751,0.9795650271370093
2012-05-16,-1,-0.005440319182339399,-0.0045949432268046495,-0.02294001995823459,0.014535714738935614,0.9787349382574686
2012-05-18,-1,-0.006384493602035078,-0.005500736752328277,-0.020000962968019786,0.015804337837988625,0.9780059800151041
2012-05-22,-1,-0.005687936187168736,-0.004840448210741154,-0.020000962968019786,0.018454272567504787,0.9779946660773698
2012-05-24,-1,-0.005823228015234872,-0.004960053158392373,-0.020846517506830642,0.018454272567504787,0.9776880635147204
2012-05-29,-1,-0.0045981421184461664,-0.003945843038197411,-0.023014484922443255,0.01893144294647879,0.9768796041716287
2012-05-31,-1,-0.006446629884191597,-0.005546333084690108,-0.019542200107889023,0.01893144294647879,0.9772144256687822
2012-06-04,-1,-0.0066192771068263965,-0.0057868031529807445,-0.0164029368921117,0.021506005210995837,0.9754973476914822
2012-06-06,-1,-0.003061666415316654,-0.0027767740185885965,-0.0164029368921117,0.01893144294647879,0.9793942828733064
2012-06-08,-1,-0.004297917791794345,-0.0037452736997337153,-0.021640038555515634,0.01893144294647879,0.9783046172419476
2012-06-12,-1,-0.003636740409062379,-0.003219698257250053,-0.019542200107889023,0.017940600458151372,0.9800530562092643
2012-06-14,-1,-0.0033496748546884775,-0.0029910942449580145,-0.019440655862270968,0.01893144294647879,0.9799007062712679
2012-06-18,-1,-0.0023638484938438248,-0.0021122091454559458,-0.019440655862270968,0.0187905111440718,0.9816982577042545
2012-06-20,-1,-0.001118086696654811,-0.0009908781917730668,-0.019440655862270968,0.015772364722640726,0.9830436539364146
2012-06-22,-1,-0.0031279099723273106,-0.002739421516000407,-0.019834961321978286,0.015772364722640726,0.983317831641683
2012-06-26,-1,-0.002324605656608543,-0.0021201320732443254,-0.016400678217052374,0.012647311983485735,0.9845785029479026
2012-06-28,-1,-0.0004424322449471087,-0.0002989144022531141,-0.016400678217052374,0.012034873779421062,0.9851051356356214
2012-07-02,1,0.002007869266305494,0.0025354191335387587,-0.016400678217052374,0.012034873779421062,0.9869946544657368
2012-07-05,1,0.0016789963697863889,0.002133771112725704,-0.016400678217052374,0.012034873779421062,0.9862086462068548
2012-07-09,0,-0.00016033687936598017,3.1788315056603894e-06,-0.012082548847323092,0.014417584390959661,0.9863840671806207
2012-07-11,-1,-0.0005596372690752566,-0.0004131595132858623,-0.010306433660600958,0.016028090428616307,0.986385920918802
2012-07-13,-1,-0.0006669023741206843,-0.0005640159761142701,-0.006844127684393493,0.014349005012900415,0.9880652304316822
2012-07-17,-1,-0.0003681039498313653,-0.0002685911814289122,-0.006844127684393493,0.013329635386501911,0.9890185554654298
2012-07-19,-1,-0.00027205762323482706,-0.000217886367477229,-0.006844127684393493,0.012034873779421062,0.9894012623830614
2012-07-23,-1,-0.0012742989350608665,-0.001231462059522473,-0.00354703400089826,0.012562177447085165,0.9903054366186512
2012-07-25,-1,-0.0008971772344211455,-0.0008786634343530377,-0.00354703400089826,0.012562177447085165,0.991058876211811
2012-07-27,-1,-0.001379528843267848,-0.001228640863191719,-0.0063567476799775875,0.007460611557908848,0.9911536275120356
2012-07-31,0,-2.7816025005159407e-05,6.350520268693472e-05,-0.0063567476799775875,0.01272302220725615,0.9894831268337582
2012-08-02,-1,-0.0004301363273977914,-0.00036802482709328405,-0.0032069740950571527,0.01272302220725615,0.9892864199914213
2012-08-06,1,0.0015737683073567782,0.001953151550797862,-0.003949388402800316,0.007432978327482907,0.9915187801882441
2012-08-08,1,0.0026504174653845,0.0032680744675793482,-0.0025884573082131136,0.012277073362725419,0.9897696394612143
2012-08-10,1,0.002519131703835541,0.0031145981481910884,-0.0025884573082131136,0.014256294172284228,0.9881787143726648
2012-08-14,1,0.002112346552230929,0.002605505774279318,-0.004008730244728942,0.020528942910202515,0.9870490172909981
2012-08-16,1,0.0030389054965936067,0.003717870210907422,-0.004008730244728942,0.022374278163223564,0.9857011722651879
2012-08-20,1,0.002917888352950514,0.0035450107464653252,-0.004008730244728942,0.022374278163223564,0.9853811236955243
2012-08-22,1,0.0028911354697402393,0.0035059518485939614,-0.00693172349476958,0.02340958950376077,0.9836328429083876
2012-08-24,1,0.0021587048869645808,0.0026413730853146787,-0.00693172349476958,0.02340958950376077,0.9830511691439429
2012-08-28,1,0.00311360042349469,0.0036607728743633695,-0.010591995193509163,0.022374278163223564,0.9844854366572511
2012-08-30,1,0.0024960520907545206,0.0028914635380663505,-0.00693172349476958,0.022374278163223564,0.9852076094638421
2012-09-04,1,0.0031107922226924017,0.0036532497074750047,-0.00693172349476958,0.022374278163223564,0.9855334198040209
2012-09-06,1,0.004553750141073844,0.0052368123259644815,-0.00693172349476958,0.013564360487139767,0.9880032374373182
2012-09-10,1,0.005382620000791082,0.006222442389945453,-0.004841825619781973,0.01307003455104919,0.9894003321679865
2012-09-12,1,0.005231831092137623,0.006000816159174804,-0.009940150512555089,0.008142187957388485,0.9891275472896979
2012-09-14,1,0.005756757096534713,0.0065341563808560855,-0.01108856504667055,0.006574752052158974,0.98924721524874
2012-09-18,1,0.0059191024979135184,0.006817765582453354,-0.009940150512555089,0.007572821805189477,0.9899925331264794
2012-09-20,1,0.006366998414459811,0.007301904586900845,-0.006071417910122202,0.008876920039367013,0.9905259505922086
2012-09-24,1,0.006078665544053036,0.007008158318827631,-0.006071417910122202,0.008876920039367013,0.9909643489777137
2012-09-26,1,0.004834434932299882,0.005522674726083239,-0.006071417910122202,0.008876920039367013,0.9898104686928495
2012-09-28,1,0.00441049542534422,0.005031490235990813,-0.006074523856076933,0.010999603819772764,0.985890402880334
2012-10-02,1,0.004303698311453881,0.004870380495610526,-0.006074523856076933,0.01307003455104919,0.9849750870276335
2012-10-04,1,0.0043875673953279294,0.004919729624847375,-0.006074523856076933,0.011361936094452168,0.985233547604002
2012-10-08,1,0.004210316605103559,0.004683592798053345,-0.01108856504667055,0.008876920039367013,0.9848804506114114
2012-10-10,1,0.002495525411389591,0.0026392098110760735,-0.006882746436665431,0.012716645534019015,0.9837707188634798
2012-10-12,1,0.00279536342802412,0.003031313315901063,-0.004377952486952361,0.011163327905812273,0.9844792340758857
2012-10-16,1,0.003107578728233208,0.003370415055950879,-0.01066951425269234,0.007557853219851522,0.9838312543410519
2012-10-18,1,0.004198279540552241,0.0046255510296156505,-0.014720722994435921,0.007040116574654341,0.9834991162642479
2012-10-22,1,0.0029357359498930185,0.0031154585751461744,-0.01066951425269234,0.007040116574654341,0.984325185025831
2012-10-24,1,0.0011431086734513551,0.0012709532391546703,-0.005684528991682554,0.010605572405228995,0.9847597478790749
2012-10-26,1,0.0035535630937219157,0.003824056094433221,-0.005992991864678566,0.007040116574654341,0.9884037624482785
2012-11-01,1,0.00406180452926445,0.004414966476576412,-0.005992991864678566,0.007040116574654341,0.9888772832672036
2012-11-05,1,0.004059892743554747,0.004394872547811488,-0.009607344337406558,0.006486571258046429,0.9881180099142128
2012-11-07,1,0.0033392262335592907,0.003564606368163554,-0.009607344337406558,0.008485322041458835,0.9882031256610379
2012-11-09,1,0.0035272742615081046,0.0038140665933256573,-0.005992991864678566,0.006486571258046429,0.9901255797839187
2012-11-13,1,0.0039078261844335375,0.004300220992610191,-0.005992991864678566,0.005430520709445847,0.9901693880542358
2012-11-15,0,0.0,0.0,-0.006199640367254786,0.005430520709445847,0.9909227121100744
2012-11-19,0,0.0,0.0,-0.004856050208062511,0.007681138171913711,0.9906914119816208
2012-11-21,1,0.0028414385611397934,0.002954574503398769,-0.01036019505506022,0.006893148913161504,0.9893316914357954
2012-11-26,1,0.0065795114530708175,0.0071912967609853145,-0.011197464470050877,0.004736277983109957,0.9875418504652667
2012-11-28,1,0.005812988607674222,0.006293659024024308,-0.011197464470050877,0.004736277983109957,0.988077362273675
2012-11-30,1,0.004739353159457191,0.004925270036700941,-0.011665162602154517,0.004736277983109957,0.9875239081037646
2012-12-04,1,0.0029390616668723956,0.003069742188012161,-0.011665162602154517,0.011822965798745899,0.9868628786594048
2012-12-06,1,0.0023457169263617654,0.002562677446647402,-0.011132522035618233,0.006701561010399365,0.9878326109579743
2012-12-10,1,0.0023445493751505127,0.002532933307711255,-0.011132522035618233,0.01091760221053929,0.9872524091147252
2012-12-12,0,0.0,0.0,-0.011132522035618233,0.01091760221053929,0.9877283928157194
2012-12-14,0,0.0,0.0,-0.010958127504577123,0.011787776722047748,0.9879117385072793
2012-12-18,0,0.0,0.0,-0.010958127504577123,0.011112913015753276,0.98847736156713
2012-12-20,0,0.0,0.0,-0.0073584907179192124,0.011112913015753276,0.9890731770728053
2012-12-24,0,0.0,0.0,-0.005105345245430244,0.011787776722047748,0.9889193465497307
2012-12-27,-1,-0.0010841379148500332,-0.0007548741145464162,-0.005312176353062579,0.013496186750364611,0.9879830634118345
2012-12-31,1,0.00013295280921492796,0.00027147015674401593,-0.006488154738496807,0.011787776722047748,0.9887779274014326
2013-01-03,1,0.0005094600291349757,0.0006107598810585018,-0.007945473094949732,0.011598018565788895,0.9891800811208454
2013-01-07,1,0.0001379489181378188,0.00028735668497220553,-0.009765518192945412,0.011598018565788895,0.9873169527354244
2013-01-09,-1,-0.00039745093696893564,-0.00015454734134867827,-0.007945473094949732,0.011598018565788895,0.9881464815094645
2013-01-11,-1,-0.0005361368294079491,-0.000292828625769007,-0.007945473094949732,0.011598018565788895,0.9881336845584296
2013-01-15,1,6.67736698187416e-05,0.000243747377375952,-0.01023779729951478,0.010150586355773674,0.9877773188259954
2013-01-17,1,0.00040552464011538663,0.0005511206634614663,-0.01023779729951478,0.005623869245650081,0.9892731553909767
2013-01-22,-1,-0.000394240572764193,-0.00013291499177425174,-0.010837313510551193,0.005623869245650081,0.9884523445745286
2013-01-24,1,0.0007635505255062876,0.0008246206427649867,-0.016426450909568794,0.00369094385771108,0.9884188398685615
2013-01-28,1,6.50358545662477e-05,0.00024718977465075184,-0.016426450909568794,0.00369094385771108,0.9893573300765238
2013-01-30,-1,-0.00047201026375278353,-0.00022051701045478248,-0.011935655633500412,0.005775592852203041,0.9890620982731474
2013-02-01,1,0.0004975042902581194,0.0005341373101839398,-0.004529871983495665,0.005616974792704477,0.990913628487016
2013-02-05,-1,-0.00026483078809174136,-0.00011306803076578485,-0.00663563713786165,0.00418772292271389,0.9922556042448204
2013-02-07,-1,-0.00043891688404019914,-0.00027565574627098617,-0.009505594720488775,0.00418772292271389,0.9908115469499479
2013-02-11,1,0.00030537665613967026,0.00034411872969365855,-0.009505594720488775,0.004238297458231543,0.9901358054864599
2013-02-13,-1,-0.0006401923801372038,-0.0004811922614040565,-0.00663563713786165,0.004238297458231543,0.9901991181169323
2013-02-15,-1,-0.00017268808730836935,-7.979171358768141e-05,-0.009505594720488775,0.004238297458231543,0.9890250131149751
2013-02-20,-1,-0.001567429083456655,-0.0012796480894907128,-0.006889815169332433,0.004238297458231543,0.9898704273294385
2013-02-22,-1,-0.0027739128758959967,-0.0023006484094972557,-0.006889815169332433,0.004238297458231543,0.9902989352317169
2013-02-26,-1,-0.002624113846302325,-0.0021716101983810607,-0.0070159543224437146,0.004238297458231543,0.9895994185066886
2013-02-28,-1,-0.001476511583819388,-0.001173234570531618,-0.0070159543224437146,0.003799807610808821,0.9893820985148044
2013-03-04,-1,-0.0009375092308575605,-0.0007273770037448338,-0.012216465867427032,0.004467234879704992,0.9883660669649155
2013-03-06,-1,-0.001400296260561434,-0.0011511516867389084,-0.018208295382824213,0.004467234879704992,0.988188847782078
2013-03-08,0,0.0,0.0,-0.008964291374969622,0.009025629174784907,0.9882422769339632
2013-03-12,0,0.0,0.0,-0.008964291374969622,0.007757282258641699,0.9885221569604518
2013-03-14,0,0.0,0.0,-0.008964291374969622,0.006241184321645403,0.9898476856454494
2013-03-18,0,0.0,0.0,-0.008964291374969622,0.007757282258641699,0.9892673137325046
2013-03-20,0,0.0,0.0,-0.007132289743381349,0.009435577764608781,0.9893666947361355
2013-03-22,-1,-0.007047502812110838,-0.006165892885911589,-0.00474585599235639,0.010205287124453387,0.9870591365825936
2013-03-26,-1,-0.004823604152575128,-0.0041861453029753345,-0.004137279984037977,0.010205287124453387,0.9879032249171419
2013-03-28,-1,-0.0017323772487710832,-0.0015064975591369634,-0.004206594474816953,0.010205287124453387,0.987667255714114
2013-04-02,-1,-0.0018318020818087113,-0.0016178302478969003,-0.0040893083855175925,0.010205287124453387,0.9877951417468602
2013-04-04,-1,-0.0029226669508231346,-0.002556714933460557,-0.001241891891113844,0.010205287124453387,0.9877131225743545
2013-04-08,-1,-0.0020663678127588675,-0.001805074036494074,-0.001241891891113844,0.010197366734572806,0.9883766222182102
2013-04-10,-1,-0.0014702650470649159,-0.001284490275722861,-0.001241891891113844,0.011704664876053775,0.9887532953174768
2013-04-12,0,0.0,0.0,-0.0040893083855175925,0.011704664876053775,0.9888470177956297
2013-04-16,-1,-0.001396004785652632,-0.001203094525132089,-0.002816074148248181,0.011704664876053775,0.9894830968876627
2013-04-18,-1,-0.0012004751118840922,-0.001034469104661804,-0.002816074148248181,0.010086131446191297,0.9901439390175847
2013-04-22,-1,-0.0008865523558094015,-0.0007980344731165703,-0.0040893083855175925,0.009579945492003436,0.9902915486797266
2013-04-24,-1,-0.0001921943412710825,-0.0001717948961359418,-0.005444684590940384,0.008228791383491078,0.9895825503498815
2013-04-26,1,0.0021551073190675773,0.002474997803941601,-0.005444684590940384,0.007394786935348229,0.9924398532450772
2013-04-30,1,0.0025598285041438834,0.0029002084915768465,-0.00724126383190014,0.00648200120635375,0.9913341167324146
2013-05-02,1,0.002500578283323283,0.002829577666874203,-0.009637973210136016,0.0066276636825177695,0.9898244162532877
2013-05-06,1,0.003056728310652849,0.0034565452068473154,-0.012515137407965254,0.0055697478221296125,0.9889105600001937
2013-05-08,1,0.0034520049964316193,0.0038998906061883214,-0.0156602569045932,0.0031928848660919542,0.9874120025562543
2013-05-10,1,0.002769951938419786,0.0030602396355622185,-0.0156602569045932,0.005283781199488864,0.9873754005660867
2013-05-14,1,0.0026920355525480136,0.0030712663243924296,-0.017623146467214145,0.0031928848660919542,0.9867288537987003
2013-05-16,1,0.002165920272203255,0.002425857705693511,-0.017623146467214145,0.003196815028094974,0.9854650919872929
2013-05-20,1,0.0016484355080296827,0.0017964245556239124,-0.017623146467214145,0.0032993134088787506,0.9861985771742862
2013-05-22,1,0.00027233382706494944,0.0003132043967668329,-0.017335769462543234,0.0032993134088787506,0.9857669006457251
2013-05-24,1,0.0003322736932889895,0.0003463100968176333,-0.017335769462543234,0.0032993134088787506,0.9853989747760241
2013-05-29,1,0.0002927716617734837,0.00035308404729762093,-0.015913958991312788,0.00536954978581681,0.9847420887067369
2013-05-31,1,0.00017315927562985692,0.00020999133572762975,-0.013567097121094721,0.00536954978581681,0.9863271880833719
2013-06-04,-1,-0.0002968888151836206,-0.0002744648751198329,-0.01198287553999064,0.0059992230693907255,0.985491342727101
2013-06-06,-1,-0.0011687333445737928,-0.001041620317466689,-0.01198287553999064,0.010673669481904012,0.9846713585274133
2013-06-10,-1,-0.00010916388380497487,-8.188605728463084e-05,-0.01198287553999064,0.009809205176271266,0.9850111480155763
2013-06-12,-1,-0.0001869657971659877,-0.00011930903491933354,-0.009259063847002078,0.020000759587553422,0.9844573761569848
2013-06-14,1,0.00016486876908973583,0.00026363991219443303,-0.008924111681154439,0.009809205176271266,0.9856598917388744
2013-06-18,1,0.0007536160732944544,0.0009707659704354082,-0.008924111681154439,0.020000759587553422,0.9840468260682106
2013-06-20,-1,-0.0005526351275643221,-0.0004972959304600186,-0.0078098044235884005,0.020000759587553422,0.9861613911937557
2013-06-24,-1,-0.0010856376133328394,-0.0010458543260403782,-0.004810750103275858,0.020000759587553422,0.9861331210518642
2013-06-26,0,-4.206335047499796e-05,4.060887156652346e-05,-0.007738272932423279,0.015015604854695812,0.9877432580797717
2013-06-28,-1,-0.0002275680759284707,-0.00020701357315931393,-0.008252585541901534,0.015015604854695812,0.9871261000168853
2013-07-02,1,0.0002713372704216657,0.00036049734229134586,-0.007738272932423279,0.017879951423553055,0.9870787553756425
2013-07-05,1,0.0006340985488181871,0.0007850031898521143,-0.004383666697241674,0.017879951423553055,0.9878495237414036
2013-07-09,1,0.0007733009790604575,0.0009179899866170837,-0.007738272932423279,0.01532605562489123,0.9877257380603699
2013-07-11,1,0.001577035890465141,0.0018302374588509314,-0.008123721812508079,0.013385201794341516,0.9884197168567861
2013-07-15,1,0.0007341293221248822,0.0008297511655840374,-0.008123721812508079,0.013385201794341516,0.9886524683715081
2013-07-17,1,0.0014322256168631154,0.001585209638447571,-0.008123721812508079,0.01134365600513135,0.9887289108541018
2013-07-19,1,0.0011171000518646955,0.0012320075365386354,-0.008123721812508079,0.01134365600513135,0.9884823633699263
2013-07-23,1,0.0016630257170870502,0.0018900436389041593,-0.008632409563044497,0.010397887136333285,0.9875235427731573
2013-07-25,1,0.0016334953433268695,0.0018629805671666016,-0.008575077324816164,0.012891688405736866,0.9874979836325855
2013-07-29,1,0.0014546647665200025,0.0016350798540177612,-0.007420426664025266,0.010319949835776217,0.9884365502379158
2013-07-31,1,0.0017968306268207814,0.0019705598048309955,-0.011841512957179877,0.006334836183900538,0.9862634773046149
2013-08-02,1,0.0024509025787758988,0.002722162071234578,-0.011841512957179877,0.008095541393714108,0.9868882209533513
2013-08-06,1,0.002128143786602134,0.002382270320627741,-0.008872455243221404,0.008095541393714108,0.9880028041337494
2013-08-08,1,0.001762715238347768,0.0019290006708078667,-0.008188270840814704,0.006284520483306178,0.988764098844891
2013-08-12,1,0.0010279764966443002,0.0010572593581028196,-0.0031536237478526873,0.008095541393714108,0.9880358548953182
2013-08-14,1,0.0016068185275097682,0.0016750898581417025,-0.0031536237478526873,0.008095541393714108,0.9893171721447708
2013-08-16,1,0.0011483658889177466,0.0011670219730311364,0.0014335683977147176,0.009564417739984047,0.9892321765257248
2013-08-20,1,0.000966094179812484,0.0009962078000677042,0.002008712148437758,0.009178652515446025,0.9902006890747529
2013-08-22,1,0.0010968854395389616,0.0011233701016121137,0.0014335683977147176,0.0070809651542356015,0.9895369704946304
2013-08-26,1,0.0005772459095335547,0.0006434278137595158,0.0010628438995808932,0.0070809651542356015,0.9884787409782241
2013-08-28,-1,-0.0010743284353357768,-0.00083766328107442,0.001890253295044452,0.007979879602799328,0.9901557994061023
2013-08-30,-1,-0.0004019995234280462,-0.00025804231207396237,0.0001132593232433185,0.0063176771156612565,0.9914518477500646
2013-09-04,-1,-0.0002300917466984216,-0.00010725749023699865,-0.0006493407410460633,0.007093891771500164,0.9911168170409625
2013-09-06,-1,-0.0003202483878197799,-0.0001761651274561351,-0.002729290073486781,0.00921829543016819,0.9893048022537559
2013-09-10,1,0.00033060722265923286,0.0003977066357496314,-0.013616298535095845,0.007093891771500164,0.9876635459110519
2013-09-12,1,0.0009146688083457509,0.0009299013814583877,-0.013616298535095845,0.007093891771500164,0.9877363812818207
2013-09-16,1,0.0014960561342868173,0.001608181022448362,-0.013616298535095845,0.007093891771500164,0.9880192731099274
2013-09-18,1,0.002412127067929754,0.002705693845133468,-0.013650697789755853,0.008518073911040572,0.9865190096265372
2013-09-20,1,0.0020429366886798314,0.002309055863476078,-0.012072056769277858,0.012056514146162852,0.9862394996706356
2013-09-24,1,0.0015596810617096624,0.0017602613467165439,-0.005829470809270563,0.012056514146162852,0.9868139159313996
2013-09-26,1,0.001602308017814863,0.0018288427788196024,-0.0032819112915478065,0.013980277228031156,0.9846058672999509
2013-09-30,1,0.001547205681026135,0.0017819871437462034,-0.0019733280925739215,0.017460959646681075,0.9836922748744781
2013-10-02,1,0.0019239326456961677,0.0022067475443737026,-0.009073581444674038,0.014199861000660598,0.9832779961413631
2013-10-04,1,0.001930367352477241,0.0022275187710394323,-0.008032647507424072,0.012056514146162852,0.9843605148649378
2013-10-08,1,0.00036524953343609364,0.0004553896085754109,-0.0019733280925739215,0.012056514146162852,0.9868093939894114
2013-10-10,1,0.0007776950729817929,0.000920031562563583,-0.004819987119681948,0.014455178893875955,0.9851068014320392
2013-10-14,1,0.0003568101167590198,0.0003793163964533737,-0.003040884250247738,0.019455361034145975,0.9844204665286238
2013-10-16,1,0.0006423517265711359,0.000699224504815107,-0.003040884250247738,0.014455178893875955,0.9855053427392394
2013-10-18,1,0.0012403457715757125,0.0013300097979386423,-0.003040884250247738,0.010860771069814028,0.9869469753110934
2013-10-22,1,0.0014536759886565245,0.0015632031081648742,-0.008180756048311087,0.010733557664634946,0.986419637114035
2013-10-24,1,0.0026848041845401504,0.002924633448216557,-0.008669859278155919,0.010733557664634946,0.9879391187047492
2013-10-28,1,0.0026568446603642444,0.0028388018292844703,-0.00914780132101254,0.010733557664634946,0.987984170756754
2013-10-30,1,0.0022364202202753945,0.0023941193116358388,-0.008669859278155919,0.012159097179404731,0.9888365047124537
2013-11-01,1,0.001827572432110174,0.0018864961551122235,-0.008669859278155919,0.012159097179404731,0.9889639315682497
2013-11-05,1,0.00212946900487465,0.0022466097446575944,-0.00914780132101254,0.012159097179404731,0.9886365391376147
2013-11-07,1,0.0016533830941218926,0.0017136618000210047,-0.00914780132101254,0.012159097179404731,0.990050056585431
2013-11-11,1,0.0012152810682964053,0.0013014460198502208,-0.00914780132101254,0.012159097179404731,0.9905710319115828
2013-11-13,1,0.0006998833439743983,0.0008818318878407891,-0.00967306907543795,0.012159097179404731,0.9903905435423407
2013-11-15,1,0.0016076107738746104,0.0016346474640755362,-0.00967306907543795,0.012485625655701358,0.9895130833681324
2013-11-19,1,0.000867045337332321,0.0009852324332136992,-0.009451586503896825,0.01273016633570205,0.9901473900701532
2013-11-21,1,0.0014279455315885626,0.0014602303702023413,-0.007072865396141921,0.014311650711551934,0.9894337621557294
2013-11-25,1,0.0014440526691083505,0.001476242892146457,-0.005034088883488763,0.01273016633570205,0.9903707755954423
2013-11-27,1,0.0018113657757188371,0.0018385895876145606,-0.006007699616093633,0.01273016633570205,0.9904635650088474
2013-12-02,1,0.0018410190799758538,0.0019202223104486283,-0.0024468440386209538,0.01273016633570205,0.9910853589053626
2013-12-04,1,0.0009753211083093923,0.0010393019185424529,-0.0014883965470355745,0.01273016633570205,0.9912700874219041
2013-12-06,1,0.0015774000916210851,0.0016526061693493015,-0.002942767905040971,0.010260926836764923,0.9913569693395751
2013-12-10,1,0.0016318343088832495,0.0016851754121669212,-0.002942767905040971,0.011195858019530954,0.9905835241653814
2013-12-12,1,0.0009330253535546097,0.0009596021245150369,-0.0005415861917875418,0.013290812958317156,0.9898278136462629
2013-12-16,1,0.001487945917119552,0.0015194731991431988,-0.0005415861917875418,0.012209926181572874,0.9902839208717995
2013-12-18,1,0.0017822786521620206,0.0018482682867133982,-0.002942767905040971,0.011193428389207973,0.9904299895589285
2013-12-20,1,0.003522613538416031,0.003878658419038166,-0.005534968365009451,0.008930632436884231,0.9912250376610039
2013-12-24,1,0.0040723031932141844,0.004538483959513625,-0.006641480248567238,0.00871267039432822,0.9885749107867842
2013-12-27,1,0.003162084392150677,0.0034703989957753805,-0.006641480248567238,0.0125319261879271,0.9872564907579201
2013-12-31,1,0.0031191694450329703,0.0034178160724950392,-0.008414714748853623,0.014955984455171923,0.9848367445228626
2014-01-03,1,0.0025195403375203765,0.0027158624622488185,-0.013625980727080511,0.014955984455171923,0.9823541896581081
2014-01-07,1,0.0023084029955238844,0.0025355690814059103,-0.013500559926958396,0.014955984455171923,0.9832792237486854
2014-01-09,1,0.0028235707786263948,0.0030822714943096663,-0.013500559926958396,0.014955984455171923,0.982816186303406
2014-01-13,1,0.0029686726338257335,0.0032166949072381257,-0.013500559926958396,0.014955984455171923,0.9832762249064958
2014-01-15,1,0.0035603746860752824,0.003904374706385891,-0.013500559926958396,0.014955984455171923,0.9829267860162594
2014-01-17,1,0.0032731656200533778,0.003569650418377261,-0.013500559926958396,0.014955984455171923,0.9825620429512755
2014-01-22,1,0.0020007263782954154,0.002003191712295532,-0.012557763298352127,0.01342081121077393,0.9831055590211891
2014-01-24,1,0.0006748234015480308,0.0008028943540618876,-0.009939031897721565,0.014370159612370004,0.9845855128252543
2014-01-28,1,0.0020765317629487167,0.0021196337890063877,-0.009939031897721565,0.010431721083140447,0.9866505808138655
2014-01-30,1,0.0024961451253524658,0.002590528143158255,-0.007858838783162049,0.0098223612596541,0.9885678192087625
2014-02-03,1,0.0011599950499379392,0.0011967398539526205,-0.0025353694911679162,0.0098223612596541,0.9892804557824071
2014-02-05,1,0.0016009520348015576,0.0016418122475120927,-0.007858838783162049,0.00968390677033136,0.9888275615944726
2014-02-07,1,0.0026737775773864646,0.0028807917024507123,-0.009939031897721565,0.009272187225632573,0.9899619142222205
2014-02-11,1,0.0034956939383509987,0.0038216416134054017,-0.010131095804257471,0.008906606108860474,0.9906056712005717
2014-02-13,1,0.0030060475599308226,0.003218279529268867,-0.010148393726256184,0.008649941193900642,0.9905366085705382
2014-02-18,1,0.002230854244099385,0.0023048186962541456,-0.009556424903660855,0.009288654162264669,0.988889462583461
2014-02-20,1,0.0018493710188621302,0.0018536690105805016,-0.007922860085340684,0.0098223612596541,0.9882177603541233
2014-02-24,1,0.0021467936515737534,0.0021655348845479303,-0.010148393726256184,0.008906606108860474,0.9877092507314945
2014-02-26,1,0.0024163376235736118,0.002483270791477636,-0.011401804429532347,0.008649941193900642,0.9869528879270291
2014-02-28,1,0.0020801142491207727,0.0020809348458784,-0.011401804429532347,0.010080211755836005,0.9863471823537634
2014-03-04,0,-0.00019749746414554083,0.00017840020577451808,-0.010148393726256184,0.015442178772002258,0.9864134872037779
2014-03-06,0,-0.00036056727911245885,1.8250991982536298e-05,-0.010148393726256184,0.015442178772002258,0.9863387989536668
2014-03-10,-1,-0.0006713718783220445,-0.00025113361218828375,-0.012444258810526559,0.015442178772002258,0.9848285363143394
2014-03-12,-1,-0.0008723343046918499,-0.00043461614400869416,-0.012444258810526559,0.018020736179008942,0.9845439758736012
2014-03-14,-1,-0.0008367665640948423,-0.00046017946409321656,-0.016243568022287155,0.018020736179008942,0.9833494228136637
2014-03-18,1,0.000873163338311969,0.001038925977048833,-0.016243568022287155,0.01409396678268023,0.9846247736750631
2014-03-20,1,0.002563042121040292,0.002694990334740052,-0.016243568022287155,0.00923879358749029,0.9850974622703622
2014-03-24,1,0.0020308254939970525,0.0021271967150646685,-0.014937014318506971,0.01409396678268023,0.9853122937278266
2014-03-26,1,0.0006910861992658604,0.0008064605668338873,-0.01355105927793425,0.01409396678268023,0.9858733444018017
2014-03-28,1,0.0014896528547608686,0.0015140239166058249,-0.014937014318506971,0.008654074314508159,0.9859812220191624
2014-04-01,1,0.0028154792952353167,0.002969872732246364,-0.014937014318506971,0.008388980302798013,0.986378402783199
2014-04-03,1,0.0021062839451988667,0.002129001597132293,-0.01355105927793425,0.008078515179448329,0.9867648413013798
2014-04-07,1,0.0006160360730729896,0.0007347576925005807,-0.010776056472122243,0.008078515179448329,0.9888547007994118
2014-04-09,1,0.0010368751078165175,0.0011137897745947852,-0.010776056472122243,0.007221354056146257,0.989179488886481
2014-04-11,0,-0.00019885155395884494,8.00175579170081e-06,-0.006738486841998331,0.008078515179448329,0.9901155908637712
2014-04-15,-1,-0.0013959951434098213,-0.0010151284701950525,-0.006738486841998331,0.009765378827454037,0.9897841531856898
2014-04-17,-1,-0.0009148411079029757,-0.0006082713079410137,-0.00912339753031827,0.009765378827454037,0.9895539751923578
2014-04-22,-1,-0.0005692083976462772,-0.0003009264387241763,-0.00912339753031827,0.009765378827454037,0.9896747571685413
2014-04-24,-1,-0.0003054357913173662,-8.18756570941557e-05,-0.00912339753031827,0.010545247636848502,0.9892212840024267
2014-04-28,-1,-0.0013898020555222922,-0.0010173128757932197,-0.005263385307732654,0.010545247636848502,0.9900113327971506
2014-04-30,-1,-0.0006787860854658555,-0.0003650826943520039,-0.005263385307732654,0.008100643229398926,0.9911437685826027
2014-05-02,-1,-0.0009455877822229768,-0.0005950638637766503,-0.0032392477307234355,0.0096573553668074,0.9915040145612086
2014-05-06,-1,-0.0014323030379630715,-0.001040974106416002,-0.0016900004215111763,0.0096573553668074,0.9915818446569319
2014-05-08,-1,-0.0024139208373556566,-0.0018655283132361074,-0.0011465829302919049,0.009862196988500547,0.9904326853614728
2014-05-12,-1,-0.001436719518690015,-0.0010380584479296965,-0.000998527366778271,0.009657077556110664,0.9918659985935738
2014-05-14,-1,-0.0011660276354831947,-0.0008196362247649499,-0.0011465829302919049,0.008789238647138375,0.9912579988267065
2014-05-16,-1,-0.0009909942483078396,-0.0007315982566536712,-0.0016900004215111763,0.008789238647138375,0.9915348135175085
2014-05-20,-1,-0.00021095408679312104,-5.4977771451181527e-05,-0.0016900004215111763,0.009657077556110664,0.9911830763713546
2014-05-22,1,5.89045953952667e-05,0.00020005782681022452,-0.0011465829302919049,0.009657077556110664,0.991496256952025
2014-05-27,1,0.00020046591215146318,0.00031959069814593654,-0.0016935742589494838,0.009657077556110664,0.9907969353430235
2014-05-29,1,0.0003034747031562065,0.0004236236710537101,-0.0016935742589494838,0.009652714889612685,0.9911998922313964
2014-06-02,0,-7.630675929426553e-05,0.00013232680412101022,-0.003758853616206722,0.008787784424972384,0.9913708292211825
2014-06-04,1,0.0007384911220403482,0.0008030646732230235,-0.003758853616206722,0.008787784424972384,0.9911502812090717
2014-06-06,1,0.001588379674600546,0.0016647940910167053,-0.003958837086927495,0.008166012206594929,0.9910036851647824
2014-06-10,1,0.0019402673898271533,0.002093921543401654,-0.0060307277108288685,0.008166012206594929,0.9892625378947957
2014-06-12,1,0.0002326080847211799,0.0003071177462758099,-0.004693493914266102,0.008166012206594929,0.9915491828729963
2014-06-16,-1,-0.0003289660057043282,-0.00018359455538780088,-0.0036509042693445718,0.008166012206594929,0.9920333749447067
2014-06-18,-1,-0.0003898008052680105,-0.00014399617865293107,-0.003958837086927495,0.00584566375888781,0.9921168398723902
2014-06-20,1,0.0011876011891269514,0.0012111706465681815,-0.003958837086927495,0.00584566375888781,0.9910513489918779
2014-06-24,1,0.0014124290615010466,0.0015045661961190578,-0.003958837086927495,0.00584566375888781,0.9907589936430411
2014-06-26,0,-2.2784985249248157e-05,0.00014180361097166955,-0.003958837086927495,0.009365798858468511,0.9854130649831473
2014-06-30,0,-0.00016288837561806435,2.9899508548147068e-06,-0.006349252201066637,0.009365798858468511,0.9849840679889129
2014-07-02,1,0.0008766150057297231,0.0008934215794493595,-0.006674116774368151,0.008371763870394391,0.9835124035805003
2014-07-07,1,0.001598126441876247,0.0017648976961690938,-0.006674116774368151,0.010192375787461272,0.9826149834787857
2014-07-09,1,0.0004344937493727164,0.0004422714670929421,-0.006674116774368151,0.010192375787461272,0.9841325232914397
2014-07-11,1,0.0002554621545052243,0.0002893362970567158,-0.007663875461414104,0.010192375787461272,0.9833516706453301
2014-07-15,1,7.460132687509664e-05,0.0001395442562148328,-0.007663875461414104,0.021290519907577667,0.9824068904319205
2014-07-17,-1,-0.00017118625116362458,-0.00011077614813097733,-0.006674116774368151,0.021290519907577667,0.9825998183402236
2014-07-21,1,0.0007702689266458952,0.0008402985063250522,-0.006674116774368151,0.020178578660990692,0.9829644545949484
2014-07-23,1,0.0011159671588334915,0.001227151459809374,-0.004892424698233623,0.017361082111979523,0.9840903061666207
2014-07-25,1,0.004142679572630539,0.004603230317029819,-0.004892424698233623,0.005623605120880083,0.9885658927850018
2014-07-29,1,0.0033675243074545863,0.0037101297823768707,-0.0031098397618810414,0.006909468443171392,0.9898896971119977
2014-07-31,1,0.0020377955030318443,0.002193398642767818,-0.002871675635022614,0.006909468443171392,0.9914209292032973
2014-08-04,1,0.002660762990604078,0.002887076073642512,-0.0022373444758747242,0.007603406353400158,0.9925190380450256
2014-08-06,1,0.002073728832358005,0.0021887065226623326,-0.0014479038196470763,0.01012631667875901,0.9921597242421973
2014-08-08,1,0.002025650507144563,0.0022269157539221854,-0.0014479038196470763,0.011319444676048332,0.9922958306685089
2014-08-12,1,0.002941940173736321,0.003303852841626192,-0.0022373444758747242,0.01012631667875901,0.993023391759954
2014-08-14,1,0.0031791369986099542,0.0035249451887226467,-0.003113766032259804,0.009622178496314393,0.9928753348385853
2014-08-18,1,0.003147037441755747,0.00344492297543543,-0.0033972162906814596,0.009052904790677663,0.993015542566462
2014-08-20,1,0.0033510379879642333,0.003721351821852044,-0.0033972162906814596,0.009622178496314393,0.9929006789776079
2014-08-22,1,0.003921408909372633,0.004442984648195373,-0.00528213322554422,0.009622178496314393,0.9925403582789244
2014-08-26,1,0.0039045027438787904,0.004405911097805658,-0.006305231659503706,0.010294280625743618,0.9915440195643808
2014-08-28,1,0.0025842478519697253,0.0028172878484443364,-0.006305231659503706,0.011823336517002157,0.9903790050298722
2014-09-02,1,0.0031374865276552525,0.0034735058261700234,-0.008046055750524458,0.011823336517002157,0.9903617162893182
2014-09-04,1,0.0030664010919028077,0.0033173720230628835,-0.008460829443300219,0.009615042684913786,0.9883486190503612
2014-09-08,1,0.0028299549458814296,0.0030040650725514035,-0.008046055750524458,0.009615042684913786,0.9875259168914852
2014-09-10,1,0.0027552821990464013,0.0029300126842240273,-0.00923467940656636,0.009615042684913786,0.9848318642273489
2014-09-12,1,0.0032464548194263755,0.0034924852885304847,-0.011805955245089594,0.006967906139791772,0.9822992495282411
2014-09-16,1,0.0030135167732754835,0.0032336456311525576,-0.013814224598450768,0.007701474563374621,0.9801921191663967
2014-09-18,1,0.0029626669057568264,0.0031310444285352597,-0.02090054288108566,0.006988009251467066,0.9781933901226857
2014-09-22,1,0.0031313284903614373,0.003365903797830267,-0.02090054288108566,0.017771448583297954,0.9751877224888394
2014-09-24,1,0.0029672484991404577,0.00315795751147546,-0.02090054288108566,0.02306148288236134,0.9745924692225034
2014-09-26,1,0.0023632576271742684,0.0024332834264995415,-0.020738291003272298,0.02442645185592269,0.9737136891410215
2014-09-30,1,0.0018297531269897214,0.0018580646697103726,-0.020738291003272298,0.027453107609217244,0.9723971966880696
2014-10-02,1,0.00023888987321371124,0.00042724006951940527,-0.012820041924079525,0.027453107609217244,0.9737625800314691
2014-10-06,1,0.0011909760204145922,0.0012717220354723897,-0.012820041924079525,0.02442645185592269,0.9754865431334674
2014-10-08,-1,-0.0015419141726521043,-0.0011107347951339914,-0.012820041924079525,0.02442645185592269,0.9758230104922142
2014-10-10,-1,-0.0036277208238360776,-0.0029864545174741117,-0.009206383357567937,0.02442645185592269,0.9775498938013998
2014-10-14,-1,-0.004063842154402537,-0.0033965401275845115,-0.004345862641632257,0.02442645185592269,0.9797321340740621
2014-10-16,-1,-0.004121345080184427,-0.003455285687666787,-0.003018035049292719,0.021863064670399276,0.981101245797369
2014-10-20,-1,-0.0010329360103465315,-0.0007420531123042264,-0.004573640880408282,0.016959135312639644,0.9853448554835573
2014-10-22,1,0.00022831906327655857,0.00036206400956749176,-0.004573640880408282,0.016435292832622062,0.9862811149981102
2014-10-24,1,0.0009093213569468022,0.0009517293257929653,-0.003018035049292719,0.01262759266749694,0.9888397803195772
2014-10-28,1,0.0017519316597019757,0.0018441879409630203,-0.003018035049292719,0.011758541221940708,0.9903373279732
2014-10-30,1,0.002553133821291358,0.002756081033568675,-0.004012632117947583,0.011758541221940708,0.9889238270354683
2014-11-03,1,0.0017171775854712456,0.0017255805173591351,-0.006817281343563013,0.013081500078234786,0.9849721132155907
2014-11-05,1,0.0007070770051668827,0.0008339712008410131,-0.005047823151928083,0.01264467749999497,0.986298289008689
2014-11-07,1,0.0009842258039911315,0.0010377655699937952,-0.003590876966062244,0.01264467749999497,0.9860182326231283
2014-11-11,1,0.001336385852923304,0.001344641177055607,-0.005047823151928083,0.01264467749999497,0.9856672471802889
2014-11-13,1,0.0016004458288978438,0.001631631025770877,-0.005047823151928083,0.011864146945786145,0.9866173357147795
2014-11-17,1,0.0011664297199371178,0.0011982588170092556,-0.005047823151928083,0.011864146945786145,0.9859520676965611
2014-11-19,1,0.0014494969175517446,0.001465137206672262,-0.006817281343563013,0.011864146945786145,0.9822224442052176
2014-11-21,1,0.0015934432935069747,0.001606215224615797,-0.006817281343563013,0.01288479054272968,0.9812381498907029
2014-11-25,1,0.0017043069199210374,0.0017407361439995273,-0.005552015887906998,0.01288479054272968,0.9818716931751889
2014-11-28,1,0.002046538935186263,0.0020599295973096087,-0.001976125729534942,0.01288479054272968,0.9839133489122455
2014-12-02,1,0.0029415738148403816,0.003067532090466435,-0.0020652635976131355,0.011944184626697715,0.9870649126578699
2014-12-04,1,0.002889763538243304,0.002996376809287571,-0.003990361034506369,0.01116720727226319,0.9869239870222868
2014-12-08,1,0.0029419102066904072,0.003009488672175451,-0.003990361034506369,0.010924584486179886,0.9871265359519765
2014-12-10,1,0.0024605363556541673,0.0024995433891131045,-0.0026541138688458794,0.013182260802603474,0.9872164222970696
2014-12-12,1,0.0025110128215662256,0.002569160310713004,-0.0072022482839261045,0.013182260802603474,0.9868833972499023
2014-12-16,1,0.0038197046090333074,0.004228047457700373,-0.0072022482839261045,0.013182260802603474,0.9872721953704475
2014-12-18,1,0.004386867513165182,0.004830229261535651,-0.005772726573443423,0.013182260802603474,0.9910125637401823
2014-12-22,1,0.004315153952136545,0.004672758020963658,-0.005772726573443423,0.009297503246212452,0.9909158929162062
2014-12-24,1,0.004758012887480952,0.0052124337314378485,-0.007056832276524378,0.00851406787708543,0.9903583751234747
2014-12-29,1,0.004794112952417178,0.00523225132778706,-0.0074283378585780725,0.0037799786873975827,0.9889450560565273
2014-12-31,1,0.0037974962141012793,0.004043282625197345,-0.009635624188735308,0.0037799786873975827,0.9862774268571435
2015-01-05,1,0.0036257304320497473,0.0038822723572542617,-0.008578800612668936,0.0030725818899702715,0.9866646397530754
2015-01-07,1,0.004295377663555011,0.0046796869981021545,-0.009280397823175246,0.002999595173535735,0.9853515684507822
2015-01-09,1,0.004525555024400839,0.004957294859758644,-0.012034101065345408,0.002607550902070957,0.9843909738374791
2015-01-13,1,0.00397404249554088,0.004318232855875424,-0.012034101065345408,0.00438960206630216,0.9842879148878684
2015-01-15,1,0.003121314730194662,0.003344232785889082,-0.01191731305707918,0.005611069390933368,0.9850274317887858
2015-01-20,1,0.0034971619765339856,0.003772376762101157,-0.01592989092121507,0.005611069390933368,0.9840946952091004
2015-01-22,1,0.003817851327197624,0.004105261122332841,-0.01592989092121507,0.005611069390933368,0.9835745658263817
2015-01-26,1,0.0036508394648791893,0.003935847266392475,-0.01592989092121507,0.007442170174533187,0.9838810296584584
2015-01-28,1,0.0027439752489604365,0.002936935770974203,-0.01191731305707918,0.008544843763227249,0.9850960691625911
2015-01-30,1,0.00039217975752249947,0.00048680242605897146,-0.01023465363747023,0.01117331291551155,0.9871381130382031
2015-02-03,0,-1.4172576565007664e-05,0.000134646404551875,-0.009145446220974811,0.011316764330551277,0.9869768319698023
2015-02-05,1,0.0005464338918947529,0.000613441969184699,-0.01023465363747023,0.010387029695830247,0.9867169237484297
2015-02-09,-1,-0.00064521251438321,-0.0004306065260596578,-0.01023465363747023,0.010387029695830247,0.9868270589796218
2015-02-11,1,0.0007615021444282339,0.0007841400007764897,-0.011671503964315832,0.010387029695830247,0.9863238337107115
2015-02-13,1,8.641558149394583e-05,0.0002065882123669927,-0.01035108134897389,0.014986175261631582,0.9858715192952158
2015-02-18,0,-4.445047745166167e-05,9.469823255166282e-05,-0.01035108134897389,0.015140105529634247,0.9853872655150351
2015-02-20,1,1.5498864600429845e-05,0.00015694067911090922,-0.010220447636692128,0.014285986115731326,0.9860653000960456
2015-02-24,1,0.00010490377301455373,0.0002460380880366219,-0.012422233348528301,0.014285986115731326,0.9855145281504708
2015-02-26,-1,-0.0010930241608186932,-0.0007281971405009365,-0.018716786128422876,0.014285986115731326,0.9845063498078873
2015-03-02,1,0.0002587307785751322,0.0004190722610218832,-0.018716786128422876,0.014285986115731326,0.9825619722359901
2015-03-04,-1,-0.0005792811986724217,-0.0002197175299094591,-0.018716786128422876,0.014285986115731326,0.982638263641957
2015-03-06,-1,-0.0024678801402584598,-0.0017847797977232972,-0.012422233348528301,0.01396035973955238,0.9841954846434683
2015-03-10,-1,-0.004070232263059503,-0.0031482819045715684,-0.012422233348528301,0.01396035973955238,0.9834647660557078
2015-03-12,-1,-0.0040905365720823525,-0.0031591243428629946,-0.009626081894025666,0.011858932556168598,0.9849795384875494
2015-03-16,-1,-0.0023331127283061034,-0.001752422681749011,-0.010888490435328302,0.009786321270751014,0.9859166750330881
2015-03-18,-1,-0.0020185129542312054,-0.0015169028970518615,-0.00834128782628061,0.009674980049234793,0.987229682652848
2015-03-20,-1,-0.001517402423606066,-0.0010896362263278982,-0.015493818075886375,0.007294007745374265,0.9836296883620377
2015-03-24,-1,-0.0017488009381305594,-0.0013415451504219114,-0.010888490435328302,0.009674980049234793,0.9833495330424026
2015-03-26,-1,-0.0025136697670406355,-0.002052695434732092,-0.009247574569872553,0.009674980049234793,0.9849038973654474
2015-03-30,-1,-0.000561205675141256,-0.000330484383055101,-0.010888490435328302,0.0049557772797923175,0.9869478526441758
2015-04-01,-1,-0.0005124996587686258,-0.0002588383377793962,-0.015493818075886375,0.001573724433481982,0.9865204427277282
2015-04-06,-1,-0.0007037576519433979,-0.0004188265762796278,-0.015493818075886375,0.0019110140782897923,0.9865393454463324
2015-04-08,-1,-0.0010066698098433178,-0.0006930068367182592,-0.015493818075886375,0.0016311137130103686,0.986798897547725
2015-04-10,-1,-0.0010008441082902178,-0.0007000892325261719,-0.015493818075886375,0.003428784407638864,0.9835443158030577
2015-04-14,-1,-0.0016476565297787406,-0.0012596420927153435,-0.010854222825045272,0.003428784407638864,0.9843723702042214
2015-04-16,-1,-0.0013354106670556824,-0.0010100650961134064,-0.01089548354334259,0.003428784407638864,0.9828829648297394
2015-04-20,-1,-0.004045757024839645,-0.003406483517875772,-0.008312372047671232,0.006513279754859316,0.9865454158852657
2015-04-22,-1,-0.0038108747052452542,-0.0032046780955395588,-0.007840653287683868,0.006513279754859316,0.9865569203608038
2015-04-24,-1,-0.003535375091573565,-0.0030133208663536883,-0.007840653287683868,0.006513279754859316,0.9861709676189101
2015-04-28,-1,-0.004084133994115549,-0.003552228196828221,-0.007533752684803955,0.01449199764499611,0.9860309444703766
2015-04-30,-1,-0.004676950091968267,-0.004092681166274391,-0.0057987338620093705,0.01449199764499611,0.9862996312579159
2015-05-04,-1,-0.004072119303424741,-0.0035956531831002874,-0.0057987338620093705,0.015388693199182252,0.9857287622218647
2015-05-06,-1,-0.004964680403770383,-0.004358296174067286,-0.0057987338620093705,0.018651928813626546,0.9853990304652662
2015-05-08,-1,-0.002239609900469115,-0.0019602820199515437,-0.007385096135559277,0.013546561027067907,0.9894698463068846
2015-05-12,-1,-0.0025466990503374256,-0.002209327173851271,-0.007533752684803955,0.013546561027067907,0.9889148891551705
2015-05-14,-1,-0.0008580487994230218,-0.0007749266706099853,-0.007533752684803955,0.013099205551322908,0.9899380211031851
2015-05-18,1,0.0001821832785763375,0.00027606740092836794,-0.007533752684803955,0.009019099619459538,0.9903900311003935
2015-05-20,1,0.0006610158521914765,0.0008358434211544738,-0.007385096135559277,0.009019099619459538,0.9899814214126438
2015-05-22,1,0.0008388785311492456,0.0010653326546037067,-0.007308231994341962,0.013398104069384955,0.9895537512056762
2015-05-27,1,0.0011490974908132164,0.0013945749140139877,-0.0075210984130427185,0.009019099619459538,0.9898841822123784
2015-05-29,1,0.0005188435334259298,0.0006677422038102288,-0.007308231994341962,0.009019099619459538,0.9907680335370885
2015-06-02,1,0.0012880430847143382,0.0015694900434868907,-0.0075210984130427185,0.009019099619459538,0.9885260298554306
2015-06-04,1,0.0018397345876723617,0.0022141286991315175,-0.007308231994341962,0.005931190886690749,0.9894919408238233
2015-06-08,1,0.0017680623418938383,0.0021210567538449596,-0.007133038823869599,0.007274730979791543,0.9889987362973846
2015-06-10,1,0.0008913719138775938,0.0010912904315292943,-0.005387828754999199,0.007274730979791543,0.9891794895751476
2015-06-12,1,0.0012860333185641406,0.0015722421232137141,-0.003294500306339209,0.011593428366231263,0.9875811667357325
2015-06-16,1,0.001801766487177968,0.002200719519562442,-0.003294500306339209,0.011593428366231263,0.9876461047246403
2015-06-18,1,0.0027069975148257134,0.003219441645260528,-0.005387828754999199,0.010711046223332892,0.9880209193523607
2015-06-22,1,0.0025665654263014185,0.00299357329277552,-0.005387828754999199,0.0065446000318292305,0.988512249932815
2015-06-24,1,0.001090008196411369,0.001198914591622058,-0.003294500306339209,0.0065446000318292305,0.9884937983529453
2015-06-26,1,0.000891142432852598,0.0009585234792521023,-0.007111814676615839,0.0065446000318292305,0.9877011160740254
2015-06-30,1,0.0006893977979592991,0.0007506989867462418,-0.005331000669778781,0.009734508735745582,0.9893700392095574
2015-07-02,1,0.0001744091175324203,0.00022386413134613264,-0.007111814676615839,0.012930629810447606,0.9847954627640958
2015-07-07,1,0.000985405211428629,0.001093373235141768,-0.008669453639448647,0.009734508735745582,0.9849090607179506
2015-07-09,1,0.0003688170819986252,0.00037845264725319255,-0.007111814676615839,0.009821128025356347,0.9853720454826512
2015-07-13,1,0.001712663718430103,0.0018974867155416037,-0.007111814676615839,0.010081822089617767,0.9873687793525318
2015-07-15,1,0.0018632986285267157,0.002076755395022892,-0.011359154097230094,0.010081822089617767,0.9862667071819089
2015-07-17,1,0.0021012445524444317,0.00235689251505779,-0.011359154097230094,0.00906048645294792,0.98716083044882
2015-07-21,1,0.0020814363734531134,0.0023296411792977194,-0.011359154097230094,0.00906048645294792,0.9871466949284854
2015-07-23,1,0.001936031845149594,0.002203975774511072,-0.011359154097230094,0.00906048645294792,0.9864430814127219
2015-07-27,1,0.0017880535603838226,0.0020618250537071036,-0.013304396676456411,0.00906048645294792,0.9854735390664204
2015-07-29,1,0.0021536232811368104,0.0024583371519141094,-0.013304396676456411,0.00906048645294792,0.9839546197918803
2015-07-31,1,0.003403739791993594,0.00383625199361947,-0.01256226825058089,0.009008024688918247,0.9878422421928932
2015-08-04,1,0.003248016303872286,0.003668889857130455,-0.01256226825058089,0.009008024688918247,0.9872721053614159
2015-08-06,1,0.003485074723024807,0.003945477151738836,-0.01256226825058089,0.009163795225120319,0.9861201743860228
2015-08-10,1,0.0037513869934608177,0.00423844595459318,-0.01256226825058089,0.00720054977942835,0.9847153411164464
2015-08-12,1,0.0032611301631340424,0.003699974139140326,-0.008668437051636838,0.00720054977942835,0.9863554351845095
2015-08-14,1,0.002952543924509707,0.0033181002103665875,-0.008668437051636838,0.008577629624453856,0.9862794744365047
2015-08-18,1,0.0023448654835854827,0.0025681790127382058,-0.008668437051636838,0.011179441407647154,0.9852299687303988
2015-08-20,1,0.0023715719132372643,0.002696319146963395,-0.008668437051636838,0.011179441407647154,0.9863468195675195
2015-08-24,1,0.0016579766668802052,0.0019098056676179977,-0.008008043540448553,0.0140316126918744,0.9849918203047715
2015-08-26,1,0.0028813996174835094,0.00329501944109053,-0.008668437051636838,0.01156596695713054,0.9860289752643899
2015-08-28,1,0.0026725965337169384,0.0030426472106016016,-0.008839355849218631,0.01156596695713054,0.9843636777792554
2015-09-01,1,0.0019837194313538174,0.0022568888658013883,-0.008839355849218631,0.015191189340324558,0.9832683910578452
2015-09-03,1,0.002467039505456513,0.0027823610989707423,-0.008839355849218631,0.014524927220397481,0.9839428114805121
2015-09-08,1,0.0030380406893396415,0.0034287036568043596,-0.011883910569532675,0.014524927220397481,0.9834128726983726
2015-09-10,1,0.002172849692756501,0.0023014847038246565,-0.011883910569532675,0.014524927220397481,0.9826404352293272
2015-09-14,1,0.0024333645981427024,0.002599383333023282,-0.011883910569532675,0.014524927220397481,0.9828924371336561
2015-09-16,1,0.0028746290813648845,0.0030748809373221586,-0.018556660498635826,0.010405343575632985,0.9809579754263139
2015-09-18,1,0.001905136009500679,0.0019147269948857298,-0.018556660498635826,0.014524927220397481,0.9792527748026703
2015-09-22,1,0.0002874693893205449,0.0005176201241196583,-0.013226189106407393,0.014524927220397481,0.9812167314253616
2015-09-24,0,-0.00021080837158720853,8.395730112419173e-05,-0.0076965061228871316,0.014493900258469077,0.9819216444418978
2015-09-28,-1,-0.0021328407667372527,-0.0015773131611855086,-0.001170525292714976,0.017122424677685284,0.9813149798020906
2015-09-30,-1,-0.0003976796808097051,-0.00015265650393207005,-0.001170525292714976,0.014493900258469077,0.9830399341021087
2015-10-02,1,5.1771143785153315e-05,0.00025447122723288413,-0.001170525292714976,0.011385445319592994,0.9840111475616821
2015-10-06,1,3.31685239966091e-05,0.00020504197789947504,-0.0014172581088426988,0.009699154112193692,0.9858670431259146
2015-10-08,1,0.0006106678914754192,0.0006957968340671243,-0.0014172581088426988,0.01321391533705995,0.9856188523628144
2015-10-12,1,0.0009072836672549393,0.0009518470425605682,-0.0076965061228871316,0.01321391533705995,0.9852235097108555
2015-10-14,-1,-0.0010996462859944088,-0.0008089223658955889,-0.0013664343727531586,0.01321391533705995,0.9868791348449946
2015-10-16,1,0.0005335552220536962,0.0006177340437895599,-0.006126757651239856,0.011116858564296426,0.9887047436090736
2015-10-20,1,0.0006744148513784865,0.0007745044994548543,-0.007693713240569676,0.010125789442777297,0.9888804728047843
2015-10-22,1,0.0009754175573871444,0.0010227754129861174,-0.007541242032301055,0.008169775236026132,0.9896790580673513
2015-10-26,1,0.002051765533474706,0.002152090160833393,-0.007541242032301055,0.0054175507774050806,0.9909775756014381
2015-10-28,1,0.0015339013707578765,0.001563191506167496,-0.007541242032301055,0.004736614594713379,0.9907433703839241
2015-10-30,1,0.0012417145932182854,0.0012842032730337072,-0.007541242032301055,0.004536670282270002,0.9908665708035652
2015-11-03,1,0.0005770948141410707,0.0007012303504281741,-0.005811063640146523,0.007636022494262356,0.9908156785584884
2015-11-05,1,0.0011447679430358596,0.001207139104775786,-0.007541242032301055,0.004679035066049149,0.9888574153160805
2015-11-09,1,0.0010586799563590675,0.0010949946694724375,-0.0062011509754138355,0.004679035066049149,0.9891925716363914
2015-11-11,1,0.0013165466621468465,0.0013364463064317737,-0.006300107334193404,0.004679035066049149,0.9889029033100193
2015-11-13,1,8.166529863088724e-05,0.00023551617225702235,-0.006300107334193404,0.004679035066049149,0.9890450958833344
2015-11-17,-1,-0.000605329980868204,-0.0003638157926824331,-0.004175194976162866,0.010974806926048283,0.9873081372013006
2015-11-19,-1,-0.0008226950408428741,-0.0005383998660563723,-0.006300107334193404,0.015925143556255416,0.9850298087146592
2015-11-23,-1,-0.000816762786596518,-0.0005273404187843563,-0.006300107334193404,0.019523220501770775,0.9838793323337502
2015-11-25,-1,-0.0013826867737542574,-0.0010417469626366812,-0.004580390391000382,0.019523220501770775,0.9849337311950332
2015-11-30,-1,-0.0018889032893765522,-0.0014562379912938202,-0.004580390391000382,0.02103990783958106,0.9835484038960012
2015-12-02,-1,-0.00040770959644461757,-0.00022491005752494947,-0.006300107334193404,0.02103990783958106,0.9842131985271946
2015-12-04,-1,-0.0005562525395893818,-0.0003562072648148016,-0.008631628733846042,0.016335993564546795,0.9851113990718946
2015-12-08,-1,-0.0007889829491751899,-0.0005682489838925294,-0.015172887555681953,0.016335993564546795,0.9834517696031725
2015-12-10,-1,-0.0005705962300415437,-0.0003803375895514527,-0.015172887555681953,0.020061461582119872,0.9831760530477928
2015-12-14,-1,-0.001520843959402812,-0.0011946619101868474,-0.015172887555681953,0.020061461582119872,0.9817636429007798
2015-12-16,-1,-0.0005342252013841817,-0.0002840116607720315,-0.01978170811211682,0.006583484218702824,0.981060611809655
2015-12-18,-1,-0.0005532696106234764,-0.00033931051735316866,-0.01777492337598191,0.006583484218702824,0.9817506148605619
2015-12-22,1,0.0014529866963506081,0.0015708384143548594,-0.01777492337598191,0.006583484218702824,0.9812981886851982
2015-12-24,1,0.0016115369491982376,0.0017315144488895765,-0.023609629862035943,0.0068138342498593124,0.9798891740548878
2015-12-29,1,0.0025263114674059168,0.002777181632040345,-0.03024611056326832,0.0035784942135963322,0.9769635418866174
2015-12-31,1,0.002400118323924033,0.0026707772426022916,-0.03024611056326832,0.014538783787005426,0.974480340053294
2016-01-05,1,0.00034078264825051883,0.000385245085656453,-0.031832291691210705,0.017537679414114653,0.9708885703216892
2016-01-07,-1,-0.0011506109336019898,-0.0009343314136861058,-0.0369960994101009,0.017537679414114653,0.9704085761266181
2016-01-11,-1,-0.000679354664357955,-0.0005226736490900406,-0.040284417914379846,0.01910451954338875,0.9681527008292141
2016-01-13,-1,-0.00314656753596229,-0.0026427729684631333,-0.0369960994101009,0.021630228696107867,0.9693283058592422
2016-01-15,-1,-0.006428500827194294,-0.00547599473408175,-0.030070769958864464,0.0269998349222127,0.968617256663701
2016-01-20,-1,-0.005427885213020201,-0.004689373693769311,-0.0369960994101009,0.0269998349222127,0.9678057451882389
2016-01-22,-1,-0.004024574494455265,-0.0034490673857439733,-0.0369960994101009,0.0269998349222127,0.9673028771882032
2016-01-26,-1,-0.005239635914923928,-0.004469809559708703,-0.0369960994101009,0.0269998349222127,0.9681802249892479
2016-01-28,-1,-0.007139773205517279,-0.006211078728991059,-0.017479210577035956,0.0269998349222127,0.9685707221085277
2016-02-01,-1,-0.003668320879163923,-0.003191655476643597,-0.017479210577035956,0.02383441943735606,0.9717081430135335
2016-02-03,-1,-0.005871905417127797,-0.005157283492249497,-0.016805329883250956,0.02087590658043502,0.9762104756832687
2016-02-05,-1,-0.00752866751685289,-0.006651150891142571,-0.016805329883250956,0.02087590658043502,0.977452061039355
2016-02-09,-1,-0.007253145101307589,-0.006473170728141449,-0.016805329883250956,0.01555478408994541,0.979378752509512
2016-02-11,-1,-0.007272485069722394,-0.006476979740309016,-0.01230034457530942,0.01628951433702814,0.9788156484468151
2016-02-16,-1,-0.005331722524816228,-0.004715873565598413,-0.01230034457530942,0.01167779261687265,0.9825933238457226
2016-02-18,-1,-0.006747911094529198,-0.005956933164626745,-0.008140460582807443,0.01628951433702814,0.9828567750194941
2016-02-22,-1,-0.005544425600909014,-0.004816639937566062,-0.008140460582807443,0.013021278616384479,0.9838373959363617
2016-02-24,-1,-0.005459857149293399,-0.004781406369959408,-0.012621399556669891,0.013021278616384479,0.9822510587766434
2016-02-26,-1,-0.0036180724538228994,-0.0032009457685713213,-0.012621399556669891,0.013658757229073795,0.9826088718508887
2016-03-01,-1,-0.0029877219239230904,-0.0026311855535173243,-0.009856159006361604,0.013658757229073795,0.9811704265570839
2016-03-03,-1,-0.0028826146210503448,-0.0025730106836116397,-0.0056555587720899265,0.01757183880387786,0.9811086152826642
2016-03-07,-1,-0.0035033258922170392,-0.003144378066437209,-0.0047915046836158135,0.01757183880387786,0.980352387041312
2016-03-09,-1,-0.006427610624981844,-0.005622093195583282,-0.003460650753607869,0.01757183880387786,0.9794497683549922
2016-03-11,-1,-0.0036714594780817736,-0.003286955019769271,-0.006305683927489638,0.015379552048789085,0.9821134545208864
2016-03-15,-1,-0.003078315309989415,-0.0028089472242694116,-0.005783899680511316,0.01757183880387786,0.9792682340452785
2016-03-17,-1,-0.001545332329846884,-0.0014732712142532757,-0.016363734504201862,0.015379552048789085,0.9796610097001932
2016-03-21,1,0.0007799233494226085,0.0010957533316523593,-0.01865503845762545,0.014829924557113468,0.98104034261741
2016-03-23,-1,-0.0013075157717771576,-0.0012846100190094117,-0.016363734504201862,0.014829924557113468,0.9823980273254602
2016-03-28,0,-6.394471152970161e-05,0.0001476215997691727,-0.01865503845762545,0.014829924557113468,0.9813377846523651
2016-03-30,1,0.0018846743696894765,0.002326281104542099,-0.01865503845762545,0.015454138399736023,0.982479099882762
2016-04-01,1,0.00299816587963339,0.0036384502617599983,-0.021032483038006533,0.015454138399736023,0.9816133258390698
2016-04-05,1,0.0022175164240928664,0.002726717150194287,-0.018680104721515746,0.016328416645697598,0.9815761171646431
2016-04-07,1,0.0023451169329242677,0.0028818334588471516,-0.01873461436886645,0.016328416645697598,0.981753313604367
2016-04-11,1,0.0016917573003668869,0.002093335091431062,-0.01873461436886645,0.016328416645697598,0.9815489588962281
2016-04-13,1,0.0033221053340112914,0.003906609693791475,-0.01873461436886645,0.013389899134011111,0.983117178889848
2016-04-15,1,0.0021986347179239933,0.00264655636678884,-0.018056764228557245,0.016328416645697598,0.9836303146872918
2016-04-19,1,0.0016699460370901617,0.0020635751341486226,-0.01794769046102806,0.016328416645697598,0.9840199040300335
2016-04-21,1,0.0004087713394517313,0.0005944530421778422,-0.017906399252362228,0.016663543459405534,0.9834599736237498
2016-04-25,-1,-0.0002041390903572932,-9.614576959790185e-05,-0.012510311206122893,0.01732899012335063,0.9844456253289308
2016-04-27,1,0.0015249947534909274,0.0019100269172904459,-0.017906399252362228,0.01732899012335063,0.9837774612379184
2016-04-29,1,0.0013281855320579356,0.0016829442855664954,-0.017906399252362228,0.017742123611737187,0.9831437057603604
2016-05-03,1,0.001231430368886835,0.0015596281282505803,-0.012510311206122893,0.015164267469003113,0.9842012250691478
2016-05-05,1,0.0007958499854377116,0.0010877225232512702,-0.012092319320853473,0.015164267469003113,0.9842693854560135
2016-05-09,1,0.0006103837728605174,0.0008427559993790998,-0.010141336372323595,0.015164267469003113,0.9850989377635518
2016-05-11,1,0.0013752410625039754,0.0018164759150335573,-0.010141336372323595,0.015164267469003113,0.985147305417664
2016-05-13,1,0.0015487119732097666,0.001997477837469094,-0.014709691094889264,0.009933627578620863,0.9848923484008463
2016-05-17,1,0.002377888824050511,0.002998751327386525,-0.014709691094889264,0.011480777284428523,0.9840340878236382
2016-05-19,1,0.0030709086550141963,0.0038127846645697027,-0.012709551723383814,0.009993069290405637,0.9853171955252666
2016-05-23,1,0.004314146282091945,0.005280163970079875,-0.012709551723383814,0.009993069290405637,0.9858714507277018
2016-05-25,1,0.003921120288591725,0.004812136571183722,-0.007661419443824603,0.009912160611981838,0.9875047070685065
2016-05-27,1,0.003298455733999335,0.004012631874759522,-0.012709551723383814,0.005427485530860144,0.9827388030066752
2016-06-01,1,0.0023285007902765506,0.002834176661630374,-0.012709551723383814,0.009912160611981838,0.9818453168008006
2016-06-03,1,0.0023834256054468166,0.0029228675481815444,-0.01057176196129672,0.013612158575063147,0.981167663667731
2016-06-07,1,0.0017018758428483764,0.0020624694129048014,-0.01369027484824306,0.013612158575063147,0.9793673445653663
2016-06-09,1,0.0005529280459468778,0.0006375677736072035,-0.01369027484824306,0.015381777994037246,0.9785496506153062
2016-06-13,-1,-0.0009872471317824022,-0.0008735057306756902,-0.01057176196129672,0.020923319563701314,0.9774768406883794
2016-06-15,1,0.00022315354751041935,0.00032945525582466206,-0.009739711471667798,0.017932999216443653,0.9786259757164429
2016-06-17,1,0.00036699449559173214,0.0004681779291692065,-0.010898669669583135,0.017932999216443653,0.9779757341305382
2016-06-21,-1,-0.00020461496772045492,-0.00011024491895768139,-0.013303881639297332,0.018893860634999614,0.977274951403789
2016-06-23,1,0.0013413246224073618,0.0015744398859735642,-0.013303881639297332,0.018893860634999614,0.9774873694955151
2016-06-27,-1,-0.004770516702812215,-0.004152763336114952,-0.009739711471667798,0.018893860634999614,0.9840132284377402
2016-06-29,-1,-0.00472209888263779,-0.0040254287129771115,-0.009739711471667798,0.01123984421814262,0.9853546369530545
2016-07-01,-1,-0.004365065752051251,-0.003683567739669804,-0.009964177429577455,0.008734802732551115,0.9868444636914229
2016-07-06,-1,-0.005736060540074318,-0.004889635366439762,-0.008416136635417132,0.01123984421814262,0.9839869971977578
2016-07-08,-1,-0.003680347906403248,-0.003170926863002816,-0.008416136635417132,0.01638780069651326,0.9818527912580852
2016-07-12,-1,-0.002181721266384779,-0.0017918004506027845,-0.009964177429577455,0.008734802732551115,0.9822400712400667
2016-07-14,-1,-0.0016391892553510004,-0.0013971850617805013,-0.00873572106448561,0.013592517883443546,0.9812152116667486
2016-07-18,-1,-0.0022426894535016407,-0.0019111144726251682,-0.007036571268487427,0.013592517883443546,0.9818994401409175
2016-07-20,-1,-0.0011922289816903022,-0.0010340095694269034,-0.004212064022484725,0.01060454172089078,0.9838650571517187
2016-07-22,-1,-0.00037274309629215945,-0.00033847546807419255,-0.008465065447394267,0.01060454172089078,0.9834173881881194
2016-07-26,-1,-0.0005452823317059084,-0.0004741646095549598,-0.008465065447394267,0.013592517883443546,0.9819105234683561
2016-07-28,-1,-0.0009800683711439716,-0.0008161849095101718,-0.010110963865508858,0.013592517883443546,0.9810911566864514
2016-08-01,-1,-0.0025486270365526285,-0.00212664650500593,-0.009052765106405326,0.013592517883443546,0.9815754440615704
2016-08-03,-1,-0.0031559809774796372,-0.0027221367774938887,-0.0072324711548244465,0.013061484546209283,0.9845051279290177
2016-08-05,-1,-0.000603373398620925,-0.0004621291048044171,-0.009052765106405326,0.01060454172089078,0.9859377398302397
2016-08-09,-1,-0.002376584757485324,-0.0020781824247562363,-0.010701186324145157,0.01060454172089078,0.9873152577423978
2016-08-11,-1,-0.0005418319394067073,-0.0005257873521395957,-0.012962217365818167,0.003949447155814141,0.9881860543694355
2016-08-15,-1,-0.001524268055683819,-0.0012957833937548126,-0.012962217365818167,0.003949447155814141,0.9876735232529328
2016-08-17,-1,-0.0009495132082682745,-0.0008331277914965854,-0.012962217365818167,0.003949447155814141,0.9874633941110277
2016-08-19,-1,-0.0006206766463511272,-0.0005950589948696477,-0.012962217365818167,0.003949447155814141,0.9874677621864577
2016-08-23,1,0.0006899082558084377,0.0009277944200292787,-0.012962217365818167,0.0024319214733126244,0.9863480401665216
2016-08-25,-1,-0.00016646654319502747,-6.90877017231651e-05,-0.012713109569314773,0.014002195327833554,0.9846520955069179
2016-08-29,0,-7.949185881031106e-05,3.3704017233511074e-05,-0.012713109569314773,0.016189951088441807,0.9826659627834714
2016-08-31,1,0.00034476100224584323,0.0005028051134107371,-0.012713109569314773,0.016189951088441807,0.9833086907713664
2016-09-02,1,0.0009583577140202757,0.0013091817713090509,-0.009196305167407836,0.010592299114612772,0.9854493912849107
2016-09-07,-1,-0.0008420078526111279,-0.0007967423692826005,-0.005677771381876669,0.010592299114612772,0.9869976219816419
2016-09-09,-1,-0.0015277762899076782,-0.0014561245909397258,-0.005677771381876669,0.010592299114612772,0.9867939380936874
2016-09-13,-1,-0.0011629405999791535,-0.0010900479691155758,-0.007635742175630032,0.008894389016104759,0.9872097308665913
2016-09-15,-1,-0.0016378628117696783,-0.001476236758671454,-0.007635742175630032,0.008894389016104759,0.9873153413575257
2016-09-19,-1,-0.0016774395174551822,-0.0015760420431603387,-0.007635742175630032,0.008894389016104759,0.986398639650107
2016-09-21,-1,-0.0005473587657277091,-0.0005201066743508703,-0.005677771381876669,0.009818701261006124,0.9874518846048858
2016-09-23,1,0.0012743585482199824,0.0015443985601002702,-0.009467299457291169,0.002697575237295273,0.9889762233771625
2016-09-27,1,0.0019130892298415037,0.0022283570690797686,-0.007644016087795071,0.005164227322545612,0.9903555402709439
2016-09-29,1,0.0019096311852064458,0.0022277615918061544,-0.015461814332401019,0.005164227322545612,0.9886217548484099
2016-10-03,1,0.0017390641828541563,0.0020152133573147083,-0.015461814332401019,0.009285521950616774,0.9834225673900081
2016-10-05,1,0.0019500789553584077,0.0022663003680353957,-0.015646838045905068,0.005733086693854077,0.9826550404549138
2016-10-07,1,0.0015947801691203406,0.0018728591839686638,-0.015646838045905068,0.011775845585879139,0.9824812583210628
2016-10-11,1,0.0012526690085070211,0.0015029341443245944,-0.012379917972953059,0.014127224100220468,0.9822547272389297
2016-10-13,1,0.0014854113369605635,0.0018006108989300118,-0.012379917972953059,0.01670174122872112,0.9810335697875865
2016-10-17,1,0.0001751645481819321,0.00030473071731151755,-0.008925763399501404,0.017647004391810456,0.9808619915989109
2016-10-19,1,0.0010874967317892564,0.001347060443800005,-0.010577196868426803,0.017075821346709343,0.9814420493361748
2016-10-21,1,0.0004348863185541152,0.0005931934390384394,-0.008925763399501404,0.017075821346709343,0.9820909257050643
2016-10-25,1,0.0008737136546338501,0.0010796902757215874,-0.008925763399501404,0.017075821346709343,0.9826783415964264
2016-10-27,0,-4.8554340313510305e-05,4.0399357237688315e-05,-0.004218984120522959,0.017075821346709343,0.9839950085889484
2016-10-31,1,0.003336548299577852,0.0038674588618294054,-0.007176012003039356,0.01670174122872112,0.9888460596996655
2016-11-02,1,0.0019874708482834347,0.002264347769465905,-0.007887626820593258,0.01670174122872112,0.987735191447751
2016-11-04,1,0.002217062857775765,0.0025439598037843365,-0.004218984120522959,0.01707569637004733,0.9881586171710367
2016-11-08,1,0.003148414485912496,0.003614752973263776,-0.004218984120522959,0.017423415393168915,0.9883447268959423
2016-11-10,1,0.0044784825030707714,0.005159918937036776,-0.004218984120522959,0.017423415393168915,0.9882625815618801
2016-11-14,1,0.005904324199738485,0.006788097448060009,-0.006889420757955518,0.005300292914243449,0.9883327353298376
2016-11-16,1,0.0030575104330517583,0.0032920539287769105,-0.00241877586323586,0.005300292914243449,0.9904063329955105
2016-11-18,1,0.003484962190849955,0.0038186598413308256,-0.009885293510098772,0.0048863951062264165,0.9884471117717614
2016-11-22,1,0.0034289333958339467,0.0037817495675291127,-0.009885293510098772,0.00826065664192507,0.9873098889901435
2016-11-25,1,0.002785557818416924,0.002973305704457971,-0.012940917839429678,0.007940606364420361,0.9867773465402778
2016-11-29,1,0.0030151720517252274,0.0032792562945531496,-0.009826877740517888,0.0036538922659085904,0.9874457014549902
2016-12-01,1,0.0025833453539888824,0.002904805584875536,-0.007809104828122733,0.0036538922659085904,0.9892069282256223
2016-12-05,1,0.002856405874730253,0.0031828057962500792,-0.007809104828122733,0.005462681795308434,0.9887192891948747
2016-12-07,1,0.0033098888208033224,0.0036693797088659576,-0.008238736557529967,0.005064073701122037,0.9890197280379888
2016-12-09,1,0.004412435853887546,0.004932485268563083,-0.008238736557529967,0.003435899829891417,0.9892553188066164
2016-12-13,1,0.004245651104181235,0.004763105340307329,-0.008647728025788587,0.006315767857500006,0.989388065755547
2016-12-15,1,0.004114542117426824,0.004609520897901703,-0.009309532709107931,0.006315767857500006,0.9888977539449639
2016-12-19,1,0.0029698054722403773,0.0033127274929311275,-0.008647728025788587,0.006466711002992975,0.9905136548637179
2016-12-21,1,0.0034106493786422516,0.0037724959172774452,-0.008647728025788587,0.005967474145144599,0.9918700189106996
2016-12-23,1,0.0022739747154380354,0.0024004374256050127,-0.008018661888776158,0.007641149123535446,0.9915653558854465
2016-12-28,1,0.002716638066120272,0.0030468245984828606,-0.008018661888776158,0.00917090468104552,0.9876388078570723
2016-12-30,1,0.00118885489069213,0.0011927709592856367,-0.007950954746590093,0.00917090468104552,0.987428777932713
2017-01-04,1,0.0022318816972228266,0.0024157166158381626,-0.007950954746590093,0.007614669037803367,0.9883399819504166
2017-01-06,1,0.002115203550590477,0.0022879404739208995,-0.004424473709537312,0.007614669037803367,0.9888182869336903
2017-01-10,1,0.0024680437915408798,0.0026817275616082153,-0.004424473709537312,0.006457884307748948,0.9893804950278459
2017-01-12,1,0.001850220520849987,0.0019286786559859553,-0.0020640932701690437,0.005786966291606239,0.9898797808402967
2017-01-17,1,0.0018501528166975285,0.0019737528290711165,-0.0011285678368754336,0.006310441952036371,0.9902772985822934
2017-01-19,1,0.0012298125834964352,0.0012317359380988584,-0.0011285678368754336,0.005978990953005042,0.9903957547500394
2017-01-23,1,0.0011673336841547819,0.0011830268251000696,-0.0020640932701690437,0.005629939125481515,0.9902039148215773
2017-01-25,1,0.002046318326509827,0.0021644709398216957,-0.0034795827347254087,0.004844963438370595,0.9913350163327709
2017-01-27,1,0.003686026770010273,0.003987990333164802,-0.0020640932701690437,0.00499885040081466,0.9959646892882004
2017-01-31,1,0.002504162365919306,0.0025711825087424527,-0.0012686045819899734,0.005312368661853993,0.9958262405603339
2017-02-02,1,0.0021127722016677348,0.0021280898617612766,-0.0020962466014571987,0.00499885040081466,0.9950970740786936
2017-02-06,1,0.0023743933445859863,0.0024210949716732873,-0.0048084497323206046,0.004844963438370595,0.9946054495549408
2017-02-08,1,0.002074085730874059,0.002082836473471872,-0.0048084497323206046,0.005100138874104225,0.9943750030194761
2017-02-10,1,0.0015279693680964796,0.00165166621868504,-0.0048084497323206046,0.005834709724655779,0.9936404298868662
2017-02-14,1,0.0019732230951600696,0.001998602639799317,-0.006330821410019737,0.005834709724655779,0.9929800984880931
2017-02-16,1,0.002338154638204672,0.002445164950891853,-0.0048084497323206046,0.006955460016199294,0.9932197640200816
2017-02-21,1,0.002342380859714777,0.0024970008802232533,-0.0048084497323206046,0.006955460016199294,0.9931424791624578
2017-02-23,1,0.0021826533049986913,0.002303361574689567,-0.004301858387015771,0.008374260346672923,0.9926545121059773
2017-02-27,1,0.002353931773721159,0.002494156535579524,-0.006330821410019737,0.008374260346672923,0.9922799665218203
2017-03-01,1,0.002376302173793911,0.002516018761526508,-0.007225682525156964,0.008374260346672923,0.99199513579598
2017-03-03,1,0.0015086755532795625,0.0015146088837692992,-0.007225682525156964,0.008374260346672923,0.9919702466578243
2017-03-07,1,0.0006946127148160343,0.0008263862120660612,-0.005097019941196943,0.008374260346672923,0.9920822660895146
2017-03-09,1,0.0006624755554474481,0.0008108269924852734,-0.005097019941196943,0.007622658656665101,0.9922277777242314
2017-03-13,1,2.275069433111418e-05,0.0003149578899391616,-0.008084160319689131,0.00724717896739506,0.992254940972248
2017-03-15,1,0.00017011889213015233,0.00041898404582133,-0.008084160319689131,0.006537874748967405,0.9915164690155195
2017-03-17,0,-0.00016726659535654044,0.00015871499743695433,-0.008084160319689131,0.006537874748967405,0.9910242963283962
2017-03-21,-1,-0.0003903640645274483,-5.304758929171945e-05,-0.006527302202478862,0.006537874748967405,0.9911106768730312
2017-03-23,-1,-0.0007079993588926194,-0.00024951426042316605,-0.006527302202478862,0.006537874748967405,0.9915800680133513
2017-03-27,1,0.001336511417989014,0.0014043348742975676,-0.004655780828765119,0.0065820600400833176,0.9913966689007059
2017-03-29,1,0.00045899900080859156,0.0006773483113820708,-0.004093530657619457,0.0065820600400833176,0.9919932716893454
2017-03-31,0,-4.4184112731137314e-05,0.00020586898716038078,-0.003866770099119297,0.01337345035640282,0.9891960166437145
2017-04-04,1,0.0002558560948173461,0.0004403090123370663,-0.003302379417617523,0.01337345035640282,0.9895147508605076
2017-04-06,1,0.0008454487639225296,0.0009100082049523371,-0.003302379417617523,0.01337345035640282,0.9894093251281433
2017-04-10,1,0.0011515600155989568,0.0011875012146595856,-0.003302379417617523,0.01337345035640282,0.9897116847345601
2017-04-12,-1,-0.00022056867686192283,-6.206602617317051e-05,-0.0020329154315542916,0.01337345035640282,0.9909312608642112
2017-04-17,1,0.00012350031020990151,0.00023690266665932864,-0.0020329154315542916,0.00923269687606424,0.9914497847519591
2017-04-19,0,-0.000116202893344942,3.733497707774936e-05,-0.0034549550824182493,0.00923269687606424,0.9897554872797593
2017-04-21,1,0.0002651514099443118,0.0003746495679560899,-0.0034549550824182493,0.0115666372573634,0.9893502548654786
2017-04-25,1,0.0006275651431879489,0.0007014614681794366,-0.0034549550824182493,0.01027562498203862,0.9896601026626464
2017-04-27,1,5.461763236072885e-05,0.000260350928415808,-0.0034549550824182493,0.01027562498203862,0.9890015391066981
2017-05-01,1,0.0023065952580424874,0.0023976257215778066,-0.004771151571998409,0.008331140757394363,0.9918820657519273
2017-05-03,1,0.0023137755684133057,0.0024404111499179916,-0.004771151571998409,0.00977666206636996,0.9910149851550257
2017-05-05,1,0.0027195803142354754,0.0029483766174607886,-0.005884783793142078,0.00977666206636996,0.9906221498828803
2017-05-09,1,0.0024842831652102685,0.002661698088904107,-0.005982130972947884,0.01027562498203862,0.9901704768925527
2017-05-11,1,0.0021739854711929647,0.002303553433228035,-0.006583742077921945,0.01027562498203862,0.9890219749682797
2017-05-15,1,0.0014705299574285997,0.0014961037385770762,-0.006192305456274829,0.01027562498203862,0.9890786213703534
2017-05-17,1,0.0005969300301209173,0.0006848908357651045,-0.0010556603857416042,0.01027562498203862,0.9906289632496317
2017-05-19,1,0.0008841143073641385,0.0009599495625680584,-0.0017036389460549995,0.00977666206636996,0.9911176656973556
2017-05-23,1,0.0006740677177777851,0.0008014171703317373,-0.003160821197199952,0.010212097453196048,0.9899367556426583
2017-05-25,1,0.0010580073557484835,0.0011671004743697044,-0.007088183815586024,0.007693283456955419,0.9903218642182207
2017-05-30,1,0.001339923638229473,0.0013825084854597193,-0.011008899858894668,0.007596911513313042,0.9894990582650436
2017-06-01,1,0.001646671564194062,0.0016626019182444944,-0.012072562270640585,0.007596911513313042,0.9892191030665836
2017-06-05,1,0.001521110700428615,0.0015335211117962818,-0.011439199589399256,0.007596911513313042,0.9897307951177945
2017-06-07,1,0.0012926645926541061,0.001338468909256119,-0.01361925284619204,0.007596911513313042,0.9891660262238003
2017-06-09,1,0.0002772842246656698,0.00046181122019712693,-0.006894406240773324,0.007596911513313042,0.9906946317432721
2017-06-13,1,0.00021539585271562658,0.0004230413134850442,-0.006894406240773324,0.007043993057524783,0.9907896174503569
2017-06-15,1,0.00035646297071643257,0.0005493904696082831,-0.007859375021336153,0.006090970644852418,0.9907144571401371
2017-06-19,1,0.0008779590000426592,0.0009590962439832373,-0.007859375021336153,0.006090970644852418,0.9899465026527978
2017-06-21,1,0.002397646313646736,0.002589292525866423,-0.005059710760500593,0.006499792995421043,0.989986069837685
2017-06-23,1,0.001549653439364962,0.001607104814154599,-0.004388432950989902,0.007022624332443229,0.9906361000444357
2017-06-27,1,0.000665779490246473,0.0007184276529058988,-0.004135332324995087,0.007022624332443229,0.9914809239177359
2017-06-29,1,0.0007902473057299086,0.0008217973506238322,-0.004135332324995087,0.006499792995421043,0.9924146603587982
2017-07-03,1,0.0005364465179147808,0.0005986857063649841,-0.004135332324995087,0.007022624332443229,0.9909047510827159
2017-07-06,1,0.00045253881962806024,0.0005062833798138357,-0.0032999027574018985,0.007022624332443229,0.9913921549549272
2017-07-10,1,0.0006355472763480064,0.0006631274749720932,-0.004135332324995087,0.007022624332443229,0.9907518944097752
2017-07-12,1,0.0006296778254142433,0.0006711281723589038,-0.004135332324995087,0.009748089329963058,0.9900002861218827
2017-07-14,1,8.909139034284823e-05,0.00020683637349345617,-0.0032999027574018985,0.009748089329963058,0.9891643474916454
2017-07-18,1,0.0007946667561266653,0.0008345009284196334,-0.0032999027574018985,0.017402700396366808,0.988655716324218
2017-07-20,1,0.0017168370104015535,0.0018080080470299028,-0.0048385699256179495,0.009748089329963058,0.9888180972588203
2017-07-24,1,0.001788708543877884,0.0018929197555022166,-0.0048385699256179495,0.011779714276297183,0.9886571313277236
2017-07-26,1,0.000989004794291376,0.0010226470003044125,-0.0035856919876440067,0.011779714276297183,0.9888575551886444
2017-07-28,1,0.00032737985293595975,0.0004590631257700723,-0.003276914526604364,0.011779714276297183,0.9893470483126293
2017-08-01,1,0.0012909767855484552,0.001299948074081019,-0.0034694842804603946,0.00885851478619664,0.990676519659377
2017-08-03,1,0.0020529022816169,0.002161971999481343,-0.0034694842804603946,0.010149766310505718,0.9902522156865702
2017-08-07,1,0.0013611807069893137,0.0013672564169396296,-0.0034694842804603946,0.010149766310505718,0.9890198597863576
2017-08-09,1,0.0020752083904405022,0.0021791200020558534,-0.0036769918871202966,0.00885851478619664,0.9890863653622876
2017-08-11,1,0.0009205511937533799,0.000981419716046438,-0.0034694842804603946,0.010149766310505718,0.9890311892077631
2017-08-15,1,0.002193531566425142,0.0023332387735578433,-0.0034694842804603946,0.005392480731920306,0.990224717145387
2017-08-17,1,0.0014014834783305668,0.0014308605043827187,-0.003276914526604364,0.00885851478619664,0.9899827162730312
2017-08-21,1,0.0013657160517255877,0.0013786343132272069,-0.0033073478264297935,0.005392480731920306,0.9895291648003792
2017-08-23,1,0.0012029499148642952,0.0012304858218735663,-0.005363734874946638,0.004673737313142461,0.9886500274392045
2017-08-25,1,0.0009407798717677844,0.0010057918964563501,-0.01113695529265224,0.004673737313142461,0.9878363239820209
2017-08-29,1,0.0007994999640178273,0.0008717940515367809,-0.01226582226261437,0.0069202241471327565,0.9861643799621531
2017-08-31,1,0.0015007923672820105,0.0015142694615187463,-0.01226582226261437,0.004673737313142461,0.9864242850930245
2017-09-05,-1,-0.0007281531866431623,-0.0003985170793135772,-0.01113695529265224,0.0050761015519655275,0.9889456511193827
2017-09-07,-1,-0.0011324058359997529,-0.0007640112535962529,-0.008866974838793607,0.012436599289463984,0.987512595296169
2017-09-11,0,-0.0002472426576720432,2.6985024496704022e-05,-0.008866974838793607,0.009711798004768159,0.988804033167333
2017-09-13,0,-8.024103767804536e-05,0.0001601629006854592,-0.008866974838793607,0.009711798004768159,0.9888260627847517
2017-09-15,-1,-0.00029214366741955964,-4.831473891680094e-05,-0.0037042037698855183,0.011018185466928811,0.9892924413174918
2017-09-19,-1,-0.0008580721006694534,-0.0005638738664238351,-0.00238109861348807,0.011018185466928811,0.9899744112023429
2017-09-21,-1,-0.00014809252643410242,-3.929897230124646e-05,-0.004167041081556783,0.011018185466928811,0.9891461905865873
2017-09-25,-1,-0.0010293092736917036,-0.0008105827957317982,-0.00238109861348807,0.011018185466928811,0.9894222878674787
2017-09-27,-1,-0.00040366895154577385,-0.0002635307967624723,-0.00238109861348807,0.008709376303350062,0.9908152600233057
