JNU-Tangyin/eata/results/Batch4_SP500/Batch4_SP500-IRM.csv
Date,Action,Predicted_Q25,Predicted_Q75,Actual_Q25,Actual_Q75,RL_Reward
2010-12-14,0,0.0,0.0,-0.0041865246933766665,0.0018935419772637034,0.9953356246786037
2010-12-16,0,0.0,0.0,-0.0041865246933766665,0.0018935419772637034,0.9957329722956464
2010-12-20,0,0.0,0.0,-0.00608051517823567,0.001906097063628323,0.995310650633496
2010-12-22,0,0.0,0.0,-0.005155010271091907,0.0028245306989030964,0.9953580087166888
2010-12-27,1,0.2784914976563989,0.28210719943286555,-0.005155010271091907,0.0028311581240548756,0.7809581795605421
2010-12-29,1,0.003525672352588668,0.004041318571729159,-0.005155010271091907,0.005398645941700403,0.9934587758093425
2010-12-31,0,0.0,0.0,-0.00674866187456688,0.005398645941700403,0.9913773676012635
2011-01-04,0,0.0,0.0,-0.005269783077439448,0.009679096440663143,0.9911621550465393
2011-01-06,1,0.0025898664799035432,0.002879425231609357,-0.005269783077439448,0.009679096440663143,0.9914085353451243
2011-01-10,0,0.0,0.0,-0.005269783077439448,0.01104710341020863,0.9889633653704235
2011-01-12,0,0.0,0.0,-0.002065632560694537,0.010369441424888982,0.9895620684788624
2011-01-14,0,0.0,0.0,-0.001125716622051996,0.010369441424888982,0.9900007427033843
2011-01-19,1,0.0006103193837102691,0.0007443490988268489,-0.001125716622051996,0.010369441424888982,0.9904171304058286
2011-01-21,1,0.0009402685310506193,0.001103548926111707,6.67031410600343e-08,0.010812948623224579,0.9902232352905763
2011-01-25,1,0.0030833670553986853,0.003184919327794574,-0.002059767159321866,0.010812948623224579,0.9888964841822085
2011-01-27,1,0.004483751036829616,0.004603099631160484,-0.0069753756681821795,0.010514647067089716,0.9872231088408947
2011-01-31,1,0.0011009255945392507,0.001436585473442822,-0.0029394338495855954,0.010514647067089716,0.9882919742967657
2011-02-02,0,0.0,0.0,-0.0032698867008310517,0.00701684839496531,0.9887329387961559
2011-02-04,0,0.0,0.0,-0.007350390321116835,0.00701684839496531,0.9884600175063478
2011-02-08,-1,-0.0003324341358455243,-0.00019132235794836085,-0.007350390321116835,0.00570449351646876,0.9889275656523531
2011-02-10,0,-0.00011059447736785845,9.992929028295459e-05,-0.007350390321116835,0.01289894873848858,0.9854272919028713
2011-02-14,0,0.0,0.0,-0.007350390321116835,0.01289894873848858,0.9853241389735194
2011-02-16,0,0.0,0.0,-0.007937706205953372,0.01289894873848858,0.9851124696897209
2011-02-18,0,0.0,0.0,-0.007937706205953372,0.011367613944438259,0.9853521074948505
2011-02-23,0,0.0,0.0,-0.002412508560489869,0.023945381820445682,0.9840351714214219
2011-02-25,0,0.0,0.0,-0.002412508560489869,0.01919347466915418,0.9862364399898643
2011-03-01,0,0.0,0.0,-0.001540300290718858,0.019415724770945792,0.9861597298674498
2011-03-03,0,0.0,0.0,-0.0019032838449675312,0.019415724770945792,0.9862663249430851
2011-03-07,0,0.0,0.0,-0.0010046409957768564,0.023945381820445682,0.9859858778212822
2011-03-09,1,0.0056931522739148005,0.005998331526439997,-0.0007677760715386431,0.023295565552505157,0.9876028904653172
2011-03-11,0,0.0,0.0,-0.001768511590364352,0.011741250650093512,0.9888122729428533
2011-03-15,0,0.0,0.0,-0.004684212539684191,0.011741250650093512,0.9880879344264759
2011-03-17,0,0.0,0.0,-0.004283221701122759,0.019415724770945792,0.9861790261789488
2011-03-21,-1,-0.00025308642666438576,-0.00011674081394292776,-0.004684212539684191,0.019415724770945792,0.985826025947416
2011-03-23,-1,-0.0013778754927078441,-0.0012414433803899184,-0.005103301477071932,0.011741250650093512,0.9851317762065774
2011-03-25,0,0.0,0.0,-0.006205815704840781,0.011741250650093512,0.9838846204140553
2011-03-29,0,0.0,0.0,-0.006205815704840781,0.009568629795584482,0.9846467946274302
2011-03-31,0,0.0,0.0,-0.005797777840691151,0.009568629795584482,0.9846646509202568
2011-04-04,0,0.0,0.0,-0.005797777840691151,0.0066517456096935185,0.9859834692096828
2011-04-06,1,0.000391758933833456,0.0005343687709359864,-0.009963611959358333,0.004249956740457132,0.9868418784430962
2011-04-08,1,0.00036500420220809406,0.0005133327308149436,-0.006214878192187823,0.004390746570958907,0.9866125080616146
2011-04-12,-1,-0.00027642519167834655,-2.269266997830682e-05,-0.0031972178262887857,0.007009969523965741,0.9869275576089446
2011-04-14,1,0.00221848309236344,0.0022602498590082974,-0.006104594756464525,0.006866876305386116,0.9875891432180758
2011-04-18,1,0.0014965638394241717,0.0015565050277114262,-0.0031972178262887857,0.009034029013978309,0.9883503644770995
2011-04-20,1,7.168375770771559e-05,0.0002650230122213658,-0.0031972178262887857,0.00760776715472093,0.9917625532433281
2011-04-25,-1,-0.0010257241783076217,-0.0006920931507713304,-0.002930277959766376,0.00760776715472093,0.9931358193710287
2011-04-27,-1,-0.00018491181163429596,-2.706261424467775e-05,-0.0025893665649341212,0.00760776715472093,0.9931800316923215
2011-04-29,0,0.0,0.0,-0.0025893665649341212,0.009034029013978309,0.9920695076959314
2011-05-03,0,0.0,0.0,-0.002930277959766376,0.008150422642112654,0.9913671959875988
2011-05-05,1,0.002361555591009456,0.002440957585010744,-0.0027237392020943102,0.008150422642112654,0.9915347804035552
2011-05-09,1,0.0035735510446797997,0.003727220307814564,-0.00476043919406164,0.007466854297917538,0.9914621889563162
2011-05-11,0,0.0,0.0,-0.00476043919406164,0.007466854297917538,0.9911321142509358
2011-05-13,0,0.0,0.0,-0.00476043919406164,0.007466854297917538,0.9911519467454414
2011-05-17,0,0.0,0.0,-0.008942428778762328,0.007466854297917538,0.9910268876262409
2011-05-19,0,0.0,0.0,-0.005017200028451791,0.008332707930379468,0.9910195708296744
2011-05-23,1,0.0009214910895950615,0.001006090490149596,-0.005017200028451791,0.009389571351425884,0.9904024500994054
2011-05-25,1,0.0009109885101753665,0.001006243959088896,-0.00915654167066463,0.009389571351425884,0.9901022064623096
2011-05-27,1,0.0014171612804910192,0.001505023411140124,-0.009911452934020761,0.009238000895333054,0.9905043549711585
2011-06-01,1,0.000355488946797346,0.0005566021045185918,-0.00915654167066463,0.009389571351425884,0.99093999057703
2011-06-03,-1,-0.0005785047594705964,-0.0002652488648639203,-0.005017200028451791,0.009902282948738874,0.9905868674497036
2011-06-07,-1,-0.0013008534863881832,-0.0009099807288683419,-0.0027933361806942642,0.010662324456031892,0.9905033699669342
2011-06-09,-1,-0.0011970328107512365,-0.0007992756856820577,-0.0011418358031482702,0.010870376135869674,0.9904805926012805
2011-06-13,-1,-0.00014006796903266304,-7.741408282880373e-05,-0.0011418358031482702,0.010870376135869674,0.9914856326833484
2011-06-15,-1,-0.00017935773965225624,-0.000110490853290646,-0.0011418358031482702,0.010870376135869674,0.9918820403836839
2011-06-17,0,-3.97730575080059e-05,1.3217276078420615e-05,-0.007000411894711389,0.009583502108850681,0.9913443301735727
2011-06-21,0,0.0,0.0,-0.007000411894711389,0.009271236480778388,0.9915760674847809
2011-06-23,0,0.0,0.0,-0.004659127470882476,0.009271236480778388,0.9917881075261659
2011-06-27,0,0.0,0.0,-0.004659127470882476,0.009271236480778388,0.9921379041962125
2011-06-29,0,0.0,0.0,-0.007966825487385493,0.008071332594250198,0.9891593169177365
2011-07-01,0,0.0,0.0,-0.007966825487385493,0.004523272495545174,0.9898125296344111
2011-07-06,0,0.0,0.0,-0.009254572081165187,0.0034816188708999204,0.9890752359724406
2011-07-08,1,0.0010257743859610746,0.0011686126216699493,-0.012891672281566836,0.002082542795562326,0.9879653438170963
2011-07-12,1,0.0006113972508373386,0.0007811937630860807,-0.01729774246756876,0.002082542795562326,0.9821575832551191
2011-07-14,1,0.001082797373957513,0.001179225544517461,-0.01962567983374155,0.0031878258000745474,0.9780871609426481
2011-07-18,-1,-0.0014316169798436022,-0.0009460472442439072,-0.01962567983374155,0.014197432188382687,0.9781047479941486
2011-07-20,-1,-0.0009959289565275688,-0.0005865400171022081,-0.01962567983374155,0.009358152090334746,0.9787868262197646
2011-07-22,-1,-0.0018358766166674902,-0.0012575900940964735,-0.02294489825575822,0.004717605398459361,0.9769266121686944
2011-07-26,-1,-0.0022380663190394814,-0.0016151239909179388,-0.02294489825575822,0.014459969999342893,0.9746296758388454
2011-07-28,-1,-0.005122379934182188,-0.004159129130633261,-0.01962567983374155,0.014459969999342893,0.9761432283541702
2011-08-01,-1,-0.00422981319665305,-0.0034180674746262163,-0.01962567983374155,0.018570763417997085,0.9742942842174495
2011-08-03,-1,-0.003700470634827364,-0.0030198362740103514,-0.008768637251520122,0.018570763417997085,0.9753735012087166
2011-08-05,-1,-0.004662274504164645,-0.0038638250653491852,-0.008768637251520122,0.018570763417997085,0.9748078498290838
2011-08-09,-1,-0.006489724982365299,-0.005480098186889871,-0.002716079041153039,0.018570763417997085,0.9781521219687781
2011-08-11,-1,-0.004925648059217172,-0.004116253620905893,-0.005292439943604068,0.013136859993626907,0.9820126125982017
2011-08-15,-1,-0.0020327523153246723,-0.0017057953922087472,-0.005292439943604068,0.010141420861716944,0.9837441261317899
2011-08-17,-1,-0.002794206910892889,-0.002353063824460273,-0.005292439943604068,0.01695802051562068,0.9811165321114703
2011-08-19,-1,-0.0043125929756546565,-0.0037253904324023954,-0.0017870891557227628,0.01695802051562068,0.9824967809591905
2011-08-23,-1,-0.001807412260633246,-0.0015071039198552322,-0.006713472352329955,0.013109332262705959,0.9840269687656563
2011-08-25,-1,-0.0020389213418005887,-0.001787060614982849,-0.008781467155667886,0.013109332262705959,0.9834792835488698
2011-08-29,1,0.0004212438311171021,0.0005246110388595328,-0.008781467155667886,0.01695802051562068,0.9828024105566702
2011-08-31,1,0.0003487716752553407,0.00042300158552119327,-0.010899426023080113,0.01695802051562068,0.9820799049397824
2011-09-02,-1,-0.0012261226370380055,-0.0010758183204137358,-0.014788801348377234,0.01695802051562068,0.9807068402141362
2011-09-07,1,0.0016486834062311461,0.001983412095384076,-0.01672133898187383,0.009687920223600849,0.9814326447386693
2011-09-09,-1,-0.00029761394408618354,-0.0002644589859601037,-0.013593072676479523,0.009687920223600849,0.9825571652145152
2011-09-13,1,0.00027056218564407906,0.00030469927933742273,-0.013593072676479523,0.00817351368259262,0.9820978261611767
2011-09-15,1,0.001180346580482335,0.0012844818367215433,-0.013593072676479523,0.005648156232022863,0.9824587381867061
2011-09-19,0,0.0,0.0,-0.013593072676479523,0.009435034024011755,0.9817956806771422
2011-09-21,0,0.0,0.0,-0.013593072676479523,0.020560152681056626,0.9822843715912548
2011-09-23,-1,-0.0003806121982807269,-0.0001547029691256989,-0.012716200980634175,0.020560152681056626,0.9832858421949097
2011-09-27,1,0.0015421088486074987,0.0015671118407427874,-0.013593072676479523,0.014504078166242131,0.9843682908353998
2011-09-29,1,0.0018339670157342838,0.0018612764221125292,-0.015703423654785484,0.014504078166242131,0.9835287061152213
2011-10-03,-1,-0.0004460874648225335,-0.0002457869816865028,-0.013593072676479523,0.014504078166242131,0.9853089170992848
2011-10-05,1,0.0001670960714555864,0.00035531042785607106,-0.014119924748308607,0.014504078166242131,0.9842174696106908
2011-10-07,0,0.0,0.0,-0.011287642843213222,0.014504078166242131,0.9841779675399087
2011-10-11,0,0.0,0.0,-0.011287642843213222,0.01105368968041546,0.9856962906835415
2011-10-13,0,0.0,0.0,-0.017290967531596278,0.00884735587387867,0.9856658447016351
2011-10-17,0,0.0,0.0,-0.017290967531596278,0.00884735587387867,0.985623030744652
2011-10-19,0,0.0,0.0,-0.011537140430959034,0.008289893008171886,0.9866819894143768
2011-10-21,1,0.0033379784400438886,0.00351661217345744,-0.011537140430959034,0.00761779620017135,0.9870096750034981
2011-10-25,1,0.0026482973678454086,0.002701643425928998,-0.011009841545159842,0.0071277343114919366,0.9875045405879876
2011-10-27,1,0.001863522560170518,0.0019279565586345572,-0.009978291771660803,0.003985214679901622,0.9887463403287845
2011-10-31,1,0.0007597981821817165,0.0009608000550611714,-0.009092527200052321,0.007680401112523296,0.9888906325973786
2011-11-02,1,9.273645934909842e-05,0.0003758795034705675,-0.009092527200052321,0.007680401112523296,0.9885184336572013
2011-11-04,1,0.00022302491926085954,0.0005004385441785182,-0.009092527200052321,0.009243622365845916,0.9883829904363778
2011-11-08,1,0.000254881696735398,0.000504940558006062,-0.009978291771660803,0.009243622365845916,0.9878890478723727
2011-11-10,1,0.00019581017375690495,0.00040467536101414627,-0.009978291771660803,0.009946875257717095,0.9879647654891747
2011-11-14,0,0.0,0.0,-0.0117037017629366,0.009243622365845916,0.9885290253292935
2011-11-16,0,0.0,0.0,-0.0117037017629366,0.009946875257717095,0.9883243950291202
2011-11-18,0,0.0,0.0,-0.0117037017629366,0.011021290807035879,0.9877158975546909
2011-11-22,0,0.0,0.0,-0.010521049605362197,0.014645850755977588,0.9868784444296756
2011-11-25,0,0.0,0.0,-0.007931995663374821,0.014645850755977588,0.9872431980959063
2011-11-29,0,-0.00015944728256943016,0.0002708827223728478,-0.007931995663374821,0.011021290807035879,0.9890400471061336
2011-12-01,1,0.0011019299710404845,0.0014760188897128825,-0.007101823884980013,0.010289504849299486,0.9905064555417086
2011-12-05,0,0.0,0.0,-0.007101823884980013,0.007801836341152498,0.9907934568745236
2011-12-07,0,0.0,0.0,-0.005005803738688842,0.011484474852844576,0.9907366230735246
2011-12-09,0,0.0,0.0,-0.004576835610602093,0.011484474852844576,0.9912024801872776
2011-12-13,-1,-0.0003821201796707121,-0.00019769973406952984,-0.004576835610602093,0.011484474852844576,0.9911822581519715
2011-12-15,0,-0.0001430845974520037,6.267189951426628e-05,-0.0032741398662076886,0.007801836341152498,0.991953128648721
2011-12-19,1,0.0016942837542248397,0.0017983978757993304,-0.002157124254596235,0.006848663624874553,0.9928574997834219
2011-12-21,1,0.001828228778638976,0.0019339014357188564,-0.002840953845375932,0.005270363678302245,0.9940150613174717
2011-12-23,1,0.0016092779143916849,0.0017436918330672436,-0.002840953845375932,0.006848663624874553,0.993741540405602
2011-12-28,1,0.0007766922756827159,0.0010370588762002452,-0.005393111398467642,0.006848663624874553,0.9928292199767882
2011-12-30,1,6.74941401122885e-06,0.0004012835005023289,-0.004252960347989944,0.005270363678302245,0.99330894075343
2012-01-04,1,0.0014504811526263994,0.0015579938689547043,-0.004252960347989944,0.003303317692737245,0.9931934244299551
2012-01-06,1,0.0008873053084330477,0.0011756534979669175,-0.005393111398467642,0.0029277152202878878,0.9935633773194769
2012-01-10,1,0.001100884109167785,0.0013981872270811373,-0.004269745205402455,0.0029277152202878878,0.9942523118835246
2012-01-12,1,0.0007233175903101651,0.0009585742509174974,-0.004269745205402455,0.0029277152202878878,0.9946005984527913
2012-01-17,1,0.001996143772162654,0.002008951788354715,-0.0057887992428403865,0.0029277152202878878,0.9934179822323883
2012-01-19,1,0.0016184582417226975,0.001706279768451427,-0.007000151459492532,0.0015430642589736058,0.9933643553641408
2012-01-23,1,0.002036782787559211,0.0020894302562758137,-0.007000151459492532,0.003263260246273301,0.9927174711287716
2012-01-25,1,0.0021930158616281867,0.00227176285750527,-0.007589549720965755,0.003263260246273301,0.9918818962741154
2012-01-27,1,0.0005210749433351237,0.0006968723287147622,-0.007000151459492532,0.005137098511011538,0.9916103764604436
2012-01-31,1,0.0009526681275368325,0.001001482387846701,-0.007589549720965755,0.005137098511011538,0.9908778590176857
2012-02-02,0,-0.0001615713388232352,8.251217868907122e-05,-0.008502009662445166,0.005137098511011538,0.9901729067079547
2012-02-06,1,0.0001895622543765385,0.0004281731334178821,-0.012243464146981572,0.005137098511011538,0.9881339553834098
2012-02-08,0,0.0,0.0,-0.012243464146981572,0.0035860136592846923,0.988504149099276
2012-02-10,0,0.0,0.0,-0.01148773193732933,0.003979865544733343,0.9888496909835641
2012-02-14,0,0.0,0.0,-0.01148773193732933,0.003979865544733343,0.9892425472548293
2012-02-16,0,0.0,0.0,-0.01148773193732933,0.003979865544733343,0.9894521050808471
2012-02-21,1,0.0005594002369637879,0.0006419403663158261,-0.008558183306115599,0.003979865544733343,0.9903110013212266
2012-02-23,1,0.0010004210150122753,0.0010615058685450466,-0.008558183306115599,0.0038003704047740216,0.9904901930737492
2012-02-27,1,0.0021573385499032024,0.002224725266820952,-0.008558183306115599,0.0031285131260239667,0.9912870595645243
2012-02-29,0,0.0,0.0,-0.008558183306115599,0.0038003704047740216,0.991723923222721
2012-03-02,0,0.0,0.0,-0.004545865877783102,0.004002990037163765,0.9923992857046189
2012-03-06,1,9.493771390522196e-05,0.0003010183148221743,-0.002498030363133319,0.004002990037163765,0.9947285988539856
2012-03-08,1,0.0005958026083919762,0.0006919901738753572,-0.002498030363133319,0.004002990037163765,0.9945798152820552
2012-03-12,1,0.0007870251249773245,0.0008466464963764259,-0.00318418407422849,0.003981189830229146,0.9942758668118657
2012-03-14,1,0.000894125784505001,0.0009420567814184794,-0.00318418407422849,0.004608115770119871,0.9930883482402344
2012-03-16,1,0.0017188265398829492,0.0018129353782289997,-0.004396438494609301,0.004608115770119871,0.9929615201106452
2012-03-20,1,0.0016192475155159779,0.0016868228968123203,-0.00450998865911831,0.0037405582293427242,0.9927025835925927
2012-03-22,1,7.466789208960273e-05,0.00013573332192180117,-0.0031722250013402264,0.008792237860655354,0.9920155622834805
2012-03-26,1,0.0003192027040472336,0.0004080931615276657,-0.0031722250013402264,0.005398695926236928,0.992576931838796
2012-03-28,-1,-0.0009087835355613228,-0.0007524986145131126,-0.0019437180459859749,0.005582269392342598,0.9931866369949028
2012-03-30,-1,-0.0006906383440811772,-0.000557424978831206,-0.0031722250013402264,0.009342958258972363,0.9922105700424126
2012-04-03,-1,-0.0006117782990013544,-0.0004881757659084245,-0.0023478028527795787,0.011358900060172941,0.9912853391385893
2012-04-05,-1,-0.0009252057993363342,-0.0007367200401904878,-0.004735307955124862,0.011358900060172941,0.9906428844258576
2012-04-10,-1,-0.0010164854961650627,-0.0008317340802352313,-0.004735307955124862,0.012824684343140347,0.9897057360645322
2012-04-12,1,1.979917674421966e-05,8.33242552024276e-05,-0.00599867166565561,0.011070521104175482,0.9907140616011397
2012-04-16,-1,-0.0002484236125377776,-0.0001393341785487813,-0.007478329212813817,0.011070521104175482,0.9904521099790452
2012-04-18,-1,-0.0009476194883542222,-0.0007224038383211609,-0.009955213595006434,0.011070521104175482,0.9901137477313802
2012-04-20,-1,-0.0004075836847213216,-0.00024314931662089678,-0.010612072198399092,0.004889679800525007,0.9893836552170199
2012-04-24,-1,-8.862393016554896e-05,-1.4145648659576079e-05,-0.010612072198399092,0.006642148440965972,0.9892020128946921
2012-04-26,1,0.00019134684426305943,0.00024279758527737732,-0.010612072198399092,0.007218002722700345,0.9886626360503173
2012-04-30,1,0.0006893781544226632,0.000721012964464908,-0.010306506890656408,0.004847088265722901,0.9896416652256269
2012-05-02,1,0.0011694712493858777,0.0012446950822522758,-0.013381202420015467,0.004461561671948162,0.9887878933871425
2012-05-04,1,0.0010851550371687789,0.0011760455630805966,-0.013893513141184435,0.004441832446048974,0.9878919644400153
2012-05-08,1,0.002225775798639738,0.0022492281862090766,-0.013429529501170458,0.004461561671948162,0.9826287413191984
2012-05-10,-1,-0.000145277848823978,-0.00013229635850793412,-0.013429529501170458,0.004847088265722901,0.9825966418597676
2012-05-14,-1,-0.00045195853602477743,-0.0004492732649886153,-0.013429529501170458,0.004847088265722901,0.9828636840676795
2012-05-16,-1,-0.0009923817852531911,-0.00097765895155224,-0.008411833617822016,0.006231678943228097,0.9835558786491657
2012-05-18,-1,-0.003317747673681165,-0.003044255097151686,-0.004720836228458859,0.008261604309781656,0.9847425725234983
2012-05-22,0,0.0,0.0,-0.005743904142397058,0.008261604309781656,0.9850761755351432
2012-05-24,-1,-0.000666415539970493,-0.0006155439438384891,-0.006056850244404689,0.007209450202339083,0.9849874176248709
2012-05-29,0,0.0,0.0,-0.006749148231321947,0.007209450202339083,0.9849332086257928
2012-05-31,0,0.0,0.0,-0.006037589292110828,0.007209450202339083,0.9862382100882899
2012-06-04,0,-0.0023220495317196354,0.0,-0.006037589292110828,0.008737391003304468,0.987218663193912
2012-06-06,0,0.0,0.0,-0.006037589292110828,0.007209450202339083,0.9921341576617884
2012-06-08,0,0.0,0.0,-0.006037589292110828,0.0044834121356758195,0.9926089858714062
2012-06-12,0,0.0,0.0,-0.008143977681464508,0.0044834121356758195,0.9914625650913879
2012-06-14,0,0.0,0.0,-0.008143977681464508,0.004642007700183424,0.9910182386700879
2012-06-18,0,0.0,0.0,-0.00898962874559224,0.004642007700183424,0.990709494762436
2012-06-20,1,0.001989725359009568,0.0022244297129048215,-0.00898962874559224,0.007544547564786916,0.9904598283064948
2012-06-22,1,0.001304204447704764,0.0014443881584937457,-0.00898962874559224,0.004460619676825538,0.9903628956303419
2012-06-26,1,0.0010041602455461095,0.0010840719261765463,-0.009282428606412232,0.004460619676825538,0.9904486728461223
2012-06-28,1,0.0006462482066407414,0.0006755640172768031,-0.009282428606412232,0.011973631671657851,0.9887279097327211
2012-07-02,1,0.00098243726344428,0.0010765820217498636,-0.009282428606412232,0.008556246834569087,0.9894127678748027
2012-07-05,1,0.001032041610413419,0.0011207321751041802,-0.009282428606412232,0.004460619676825538,0.9897796744607106
2012-07-09,1,0.00044053151910968035,0.00045048483768605834,-0.008596136781887942,0.00879784453123636,0.9892925903241611
2012-07-11,-1,-0.0010497742962115395,-0.000891795805831904,-0.006336770119838796,0.012806254233722433,0.9898570403347553
2012-07-13,-1,-0.00010951008677737968,-7.322921668948081e-05,-0.006336770119838796,0.011502929311421247,0.9902834134940036
2012-07-17,1,0.000560830553358319,0.0006179976580387508,-0.005727432061232107,0.008399346047823553,0.9909348249346175
2012-07-19,1,0.0015188918835960198,0.0017750264233235267,-0.005727432061232107,0.0063927571415324,0.9910959708675894
2012-07-23,1,0.00040331740972306606,0.0004722909906733439,-0.00548507542165241,0.006598037649700225,0.9917901993126975
2012-07-25,-1,-0.00012709423759161743,-8.048812782214269e-05,-0.00548507542165241,0.006598037649700225,0.9918535491528253
2012-07-27,1,0.0015086924869771804,0.0015776148430728225,-0.005979020749761082,0.0019041081521437833,0.9930115707613364
2012-07-31,-1,-0.00046015208518869103,-0.0003299873219839558,-0.005599858004845067,0.0019041081521437833,0.9939511905863614
2012-08-02,0,0.0,0.0,-0.004521507197616237,0.004890626082096328,0.992806271674449
2012-08-06,0,0.0,0.0,-0.005599858004845067,0.0018974490737951758,0.9936057486757448
2012-08-08,0,0.0,0.0,-0.005599858004845067,-0.0002183764139190703,0.9935803309847695
2012-08-10,1,0.0020898210602445155,0.00221766266928793,-0.005599858004845067,-0.0005247741836860978,0.9926310065879519
2012-08-14,1,0.0012141434182032064,0.0012323744404724023,-0.006571808977478394,3.339040412356231e-06,0.9927069115694019
2012-08-16,0,0.0,0.0,-0.006571808977478394,0.0019658759098511174,0.9926299496628573
2012-08-20,0,0.0,0.0,-0.004995097678736813,0.0004561037976739721,0.993277612748621
2012-08-22,1,0.0012164907702361897,0.0013343618830703313,-0.004538923187401988,0.006152216904749369,0.9926846054619128
2012-08-24,-1,-0.002030340161453874,-0.0018587678954919504,-0.003407054510404674,0.006792470335242644,0.9931041501610846
2012-08-28,0,0.0,0.0,-0.003407054510404674,0.006792470335242644,0.9931332248063433
2012-08-30,0,0.0,0.0,-0.003407054510404674,0.006792470335242644,0.9937945444139628
2012-09-04,1,0.0006697781843175444,0.0007462055475811354,-0.0026005486208768055,0.011282387508379569,0.9932151503750186
2012-09-06,0,0.0,0.0,-0.0018718625696097814,0.010729213881403243,0.9933476262255815
2012-09-10,-1,-0.013731906245808933,-0.01021453325444576,-0.0012722420108023953,0.010729213881403243,0.9852314776946531
2012-09-12,1,0.00029864716874763097,0.0005434515817223485,-0.002045012682937528,0.00979123344371969,0.9934622378864555
2012-09-14,1,0.0004701707586174824,0.0007157218854828237,-0.002045012682937528,0.00979123344371969,0.9909462179306945
2012-09-18,1,0.000708466659747686,0.0010007591534506451,-0.002045012682937528,0.011534531732640782,0.9894655383585511
2012-09-20,-1,-0.0017918880468975361,-0.001332202127098085,-0.005801413773106993,0.012548397055436134,0.9832390907500625
2012-09-24,0,0.0,0.0,-0.011591256155198945,0.012548397055436134,0.9828232221154529
2012-09-26,0,0.0,0.0,-0.008203739254085286,0.012548397055436134,0.9830888713367623
2012-09-28,1,0.0016440557977786925,0.00174986690808229,-0.008203739254085286,0.010888470667924649,0.9832041218664982
2012-10-02,1,0.0010839324802842565,0.00108809714253947,-0.004573834760283624,0.015392291753202853,0.9826624977936657
2012-10-04,1,0.0010225040761006397,0.00104191795657421,-0.008203739254085286,0.015392291753202853,0.9826351967546632
2012-10-08,1,0.0009623018865459747,0.001007708390182769,-0.011673584836352753,0.015392291753202853,0.982301804588636
2012-10-10,1,0.0005523866404033023,0.000695709593771946,-0.008203739254085286,0.015392291753202853,0.9827357018603697
2012-10-12,1,0.0007440944576099912,0.0008683703634728567,-0.008066632920176191,0.01058884074412497,0.9850370173227588
2012-10-16,1,0.0017409238513638138,0.0017552290157463553,-0.011485364824829845,0.008055110852115091,0.9848502946187976
2012-10-18,1,0.0013381028071496786,0.0013490792645122777,-0.011032327084793438,0.008055110852115091,0.9905492944335051
2012-10-22,1,0.0015024123675320454,0.0015527880483705496,-0.011074045823102561,0.004806707030950566,0.9903135100733728
2012-10-24,1,0.0006854409850993023,0.000848024595796869,-0.011832890779817912,0.004806707030950566,0.9900775546974675
2012-10-26,1,0.004306677923365084,0.0047004222426361994,-0.011832890779817912,0.0014763559694896615,0.9880951684207085
2012-11-01,1,0.0048157255079312655,0.005289703056552821,-0.011832890779817912,0.0005178378373915434,0.9883996205767315
2012-11-05,0,0.0,0.0,-0.011074045823102561,0.000546606280327843,0.9920274847271378
2012-11-07,0,0.0,0.0,-0.010009927058989097,0.000546606280327843,0.9923969253390744
2012-11-09,1,0.0035449505389874778,0.003929761698347252,-0.010009927058989097,0.000546606280327843,0.9903048366104613
2012-11-13,1,0.002807833102920468,0.0030873332609796145,-0.008627094651921328,0.0014302770925100146,0.9918165934542179
2012-11-15,1,0.0018577730947249007,0.0019925996994347855,-0.006794418082354687,0.0020560596864394394,0.9928645595319393
2012-11-19,1,0.0020432086088438828,0.002177508379996344,-0.006794418082354687,0.0014302770925100146,0.9931674642481677
2012-11-21,1,0.0014742680912311773,0.0015309814503276255,-0.004942071421606198,0.0023160497558325486,0.994243183034197
2012-11-26,1,0.001306900305490259,0.0013630503282816009,-0.004942071421606198,0.0036645415049108136,0.9945817752300462
2012-11-28,0,0.0,0.0,-0.004802705273795458,0.0036645415049108136,0.9950475555901946
2012-11-30,0,0.0,0.0,-0.004954829692822323,0.004255787152399965,0.9943960595140863
2012-12-04,0,0.0,0.0,-0.004802705273795458,0.0064338366272499465,0.992179861736514
2012-12-06,0,0.0,0.0,-0.004802705273795458,0.008039526731240405,0.9915077234923578
2012-12-10,0,0.0,0.0,-0.005117623159387726,0.008039526731240405,0.9912007652117251
2012-12-12,0,0.0,0.0,-0.006481835534305754,0.0102824645428215,0.9903349178108645
2012-12-14,-1,-0.0004294756848738979,-0.000367418212734839,-0.005117623159387726,0.013100697632509862,0.9900974936238278
2012-12-18,-1,-0.00041415141549199766,-0.0003422350739633004,-0.005744557455288143,0.013927099380681823,0.9897266097540731
2012-12-20,-1,-0.001266306468929532,-0.0011842428408889568,-0.005744557455288143,0.013927099380681823,0.989387819333849
2012-12-24,-1,-0.0012469369228145562,-0.0011681574648229006,-0.005689070029730671,0.013927099380681823,0.9896380691866761
2012-12-27,-1,-0.0014433018421382646,-0.001240687624688376,-0.005689070029730671,0.013927099380681823,0.9896714013736699
2012-12-31,-1,-0.0011044851454307357,-0.0009614428600117661,-0.004474977701399019,0.013927099380681823,0.9901978363865322
2013-01-03,-1,-5.451550968486954e-05,-4.864053872070855e-05,-0.005689070029730671,0.009012837397616285,0.9922303385599988
2013-01-07,1,0.000179821865603096,0.0002133606689698361,-0.005689070029730671,0.008596953218137278,0.9921831996970712
2013-01-09,0,0.0,0.0,-0.004474977701399019,0.008596953218137278,0.992301321285136
2013-01-11,0,0.0,0.0,-0.005689070029730671,0.007609291212386615,0.9927111760035983
2013-01-15,1,0.00020695604804193268,0.00021415899200104266,-0.005689070029730671,0.007609291212386615,0.9932488705780079
2013-01-17,1,0.0035104164344787942,0.003563747685874306,-0.004512671791584219,0.0055474234051557745,0.9944586280019154
2013-01-22,1,0.00046288205773140626,0.0005012621037995924,-0.005876898445186627,0.005523239846261069,0.9938904616989279
2013-01-24,1,0.00029863060951134865,0.0003026654200864446,-0.006181692093566985,0.005523239846261069,0.9938230853268267
2013-01-28,1,0.00040783372661324697,0.0004483017751655106,-0.0065481346655062705,0.007226681131861479,0.9926692208452619
2013-01-30,1,0.000392621952097299,0.0004202524946109664,-0.00726563575726748,0.007609291212386615,0.991775464533697
2013-02-01,1,0.00048394595347296703,0.0005345737782800254,-0.00726563575726748,0.007226681131861479,0.9923250444874537
2013-02-05,0,0.0,0.0,-0.00726563575726748,0.007226681131861479,0.9921602794736927
2013-02-07,0,0.0,0.0,-0.00726563575726748,0.005256813132317097,0.9923652427780242
2013-02-11,0,0.0,0.0,-0.003669718335793621,0.011688676123348327,0.9911411865274375
2013-02-13,0,0.0,0.0,-0.003669718335793621,0.008220617887969213,0.9915905657822227
2013-02-15,0,0.0,0.0,-0.005423184275005693,0.008220617887969213,0.9915925874576893
2013-02-20,-1,-0.0004579453588968962,-0.00018052955816029253,-0.0032906679142886033,0.006274933447319536,0.9922900793899128
2013-02-22,-1,-0.0009904984259048307,-0.0006522974642891383,-0.0037539610739287235,0.006274933447319536,0.9918145512832689
2013-02-26,-1,-0.0011153814896309431,-0.000766046151281585,-0.002900846978730147,0.00444882060095237,0.9929375589258123
2013-02-28,0,0.0,0.0,-0.00262570595262019,0.00444882060095237,0.9931768559638736
2013-03-04,1,0.00012574114370275528,0.00014722218452621903,-0.002900846978730147,0.005191326836805541,0.9926797213309788
2013-03-06,1,0.0008708875377372956,0.001013063902585137,-0.002900846978730147,0.005191326836805541,0.9933094666380307
2013-03-08,1,0.000759504757732242,0.0008726539451026138,-0.0036948686159717567,0.007350418827388133,0.9928310168886777
2013-03-12,0,0.0,0.0,-0.0036948686159717567,0.005031895785657373,0.9938452240479659
2013-03-14,0,0.0,0.0,-0.0047461465067331916,0.007350418827388133,0.9925090801349805
2013-03-18,0,0.0,0.0,-0.005512002403054347,0.008789576590969041,0.9905599284242381
2013-03-20,0,0.0,0.0,-0.008116892520657464,0.008789576590969041,0.9899514707773918
2013-03-22,0,0.0,0.0,-0.005512002403054347,0.008789576590969041,0.9905252241077497
2013-03-26,1,0.0030526172018012967,0.003484736873896362,-0.005512002403054347,0.010799101142392485,0.99037466172117
2013-03-28,0,0.0,0.0,-0.005512002403054347,0.008802648723319699,0.9902253834775218
2013-04-02,0,0.0,0.0,-0.005250963089100088,0.010799101142392485,0.9897338388774795
2013-04-04,0,0.0,0.0,-0.006489986397737882,0.01537739104289599,0.9892031512368664
2013-04-08,0,0.0,0.0,-0.004395278824209014,0.01537739104289599,0.9895926536869974
2013-04-10,0,0.0,0.0,-0.004395278824209014,0.010674517352523004,0.989801576500749
2013-04-12,0,0.0,0.0,-0.0027348393412436668,0.008771762997097107,0.9910361245225658
2013-04-16,0,0.0,0.0,-0.0027348393412436668,0.008600995047836395,0.9929960449779129
2013-04-18,0,0.0,0.0,-0.004011831015587965,0.008600995047836395,0.992625659309386
2013-04-22,1,0.002084906783919944,0.002194160439940438,-0.005002749719952947,0.008771762997097107,0.9914863513219172
2013-04-24,1,0.00205854446729308,0.0021219411933587995,-0.005781109183528376,0.008600995047836395,0.9909675214065725
2013-04-26,0,0.0,0.0,-0.007299916670174465,0.008432366499881935,0.9900835333301208
2013-04-30,0,0.0,0.0,-0.010754398135323898,0.008432366499881935,0.9897956372230017
2013-05-02,1,0.002450417648600646,0.002474235652439715,-0.014794939665279644,0.006747879938880215,0.9898804436301449
2013-05-06,1,0.002684971696425955,0.002737476014795643,-0.018175558710166788,0.005180325337450651,0.9881043253396212
2013-05-08,1,0.0030341889870706224,0.0031174205855230737,-0.018175558710166788,0.0027300960446323902,0.9874021167696235
2013-05-10,1,0.002541393394109614,0.002564367920490521,-0.019013588137372552,-0.0005717666235561761,0.9819187443531894
2013-05-14,1,0.0023275674054600605,0.0023914728460626487,-0.019013588137372552,0.0020931523956631204,0.9809982230311844
2013-05-16,0,0.0,0.0,-0.019013588137372552,0.003131510664143783,0.983161446471864
2013-05-20,0,0.0,0.0,-0.01642622471596542,0.003131510664143783,0.9837210922908131
2013-05-22,-1,-0.0012521885985613788,-0.0007872797456314057,-0.01642622471596542,0.0006058390799497769,0.9835005547271207
2013-05-24,-1,-0.0022012528467492895,-0.0016204465067979391,-0.020673142040088993,0.0006058390799497769,0.9828329320523125
2013-05-29,-1,-0.001427900600434303,-0.001049809863322227,-0.016967241024804732,0.0018948307011019772,0.9833736276789387
2013-05-31,-1,-0.0018949118234208454,-0.0014765211131010545,-0.016967241024804732,0.004263060307277626,0.9835644307403955
2013-06-04,-1,-0.0035745771633255924,-0.0029259949884454287,-0.013389416452306442,0.008018844472793706,0.9842488074254558
2013-06-06,-1,-0.0035229850478473053,-0.0028938508682730697,-0.013389416452306442,0.007072593853111476,0.9850620741513586
2013-06-10,-1,-0.0017465099583144628,-0.0013737855765659276,-0.008559087932073831,0.00827306660497765,0.98917544956979
2013-06-12,-1,-0.001176432965499544,-0.0008795494149585034,-0.006247820382319205,0.00827306660497765,0.9880610833425535
2013-06-14,-1,-0.0008500728235350748,-0.0006177464729979279,-0.009411296890492872,0.00827306660497765,0.9870054305788136
2013-06-18,-1,-0.0012172427386845102,-0.0009337013594421321,-0.006247820382319205,0.00827306660497765,0.9871228862740609
2013-06-20,-1,-0.002671018711018035,-0.002208653729170596,-0.005314140204950695,0.00827306660497765,0.9883523965493817
2013-06-24,-1,-0.004678247233270356,-0.003997749989423351,-0.004902220867949459,0.00827306660497765,0.989477271727949
2013-06-26,-1,-0.0041941812793306905,-0.003574302006634401,-0.005314140204950695,0.008533502103197862,0.9897240934415256
2013-06-28,-1,-0.004397829338881807,-0.0037361362901832604,-0.005893177510208088,0.008533502103197862,0.9892243730856332
2013-07-02,-1,-0.003167844611421972,-0.002674438649825268,-0.005893177510208088,0.0061157743108498225,0.9904705078549473
2013-07-05,-1,-0.004195135314947954,-0.003539327469298507,-0.00521988763867884,0.008533502103197862,0.9892833100278775
2013-07-09,-1,-0.0030681275394411995,-0.002571278314046358,-0.007197097169646618,0.0061157743108498225,0.9900162165797336
2013-07-11,-1,-0.00040313498323410143,-0.00022999376311649182,-0.007197097169646618,0.005245492100626544,0.9925258113370805
2013-07-15,-1,-0.0014550522368590104,-0.0011520399940455838,-0.007197097169646618,0.005882829663265985,0.993022769140202
2013-07-17,-1,-0.0007926077138572994,-0.0005612052404969641,-0.007920933229342895,0.0033272808530613344,0.9935391150071514
2013-07-19,-1,-0.0009441707639295589,-0.0006959932048505932,-0.008909036523061466,0.0026049924361785555,0.9925107455955042
2013-07-23,-1,-0.001520162340138086,-0.001215681523807325,-0.008268920933985962,0.004933334368672877,0.9925478766859434
2013-07-25,-1,-0.001562760012187745,-0.0012549526073589797,-0.007920933229342895,0.0026049924361785555,0.9930826866670815
2013-07-29,-1,-0.002122405372242938,-0.0017614235664805706,-0.006986397648805129,0.004933334368672877,0.9935912114148772
2013-07-31,-1,-0.002270721231100093,-0.0018962661636091292,-0.007920933229342895,0.004933334368672877,0.9932895725751423
2013-08-02,-1,-0.0002887727303250907,-0.00024296653132021626,-0.008268920933985962,-0.0007356531217436286,0.9920985414270459
2013-08-06,-1,-0.00018039005104017675,-0.00015458449744010005,-0.008119717903610628,-0.0006378336646815692,0.9918742614769164
2013-08-08,-1,-0.0004141023144896027,-0.00035781141314421294,-0.009051022409402528,0.0006805169100495673,0.9912463604344793
2013-08-12,-1,-0.0008194098941926304,-0.0007071265056350926,-0.008305465356223996,0.000386523286726341,0.9919972363647984
2013-08-14,-1,-0.0017288641426049614,-0.0014640132885726921,-0.007767256147060824,0.003002986571028606,0.9910500052624344
2013-08-16,-1,-0.003227006954534815,-0.002797342448493732,-0.003896714755590922,0.005157553390113086,0.9914748604372395
2013-08-20,-1,-0.002296885465003784,-0.0020187425580145317,-0.003896714755590922,0.010866573425927294,0.9897588443200477
2013-08-22,-1,-0.002782012653559964,-0.002442652621283741,-0.00352516156285036,0.011341969599773651,0.9877684616143634
2013-08-26,-1,-0.0020991650035362595,-0.0018525669599573186,-0.00771875140840733,0.014062423047152198,0.9873436588202696
2013-08-28,-1,-0.0026243535758077967,-0.002316982399432876,-0.00771875140840733,0.014062423047152198,0.9862735491898987
2013-08-30,-1,-0.0032009206813880735,-0.0028735999213918124,-0.006925077424549089,0.014062423047152198,0.9859921552481831
2013-09-04,-1,-0.002063743717974756,-0.0018769191857336762,-0.0099896893241374,0.011341969599773651,0.9867157865461126
2013-09-06,-1,-0.00290632546447252,-0.0026165432525615904,-0.0099896893241374,0.011341969599773651,0.986601426165497
2013-09-10,-1,-0.0031797018254543412,-0.0028339911635033846,-0.01193707230316019,0.011341969599773651,0.9861174634531104
2013-09-12,-1,-0.0014341727859825974,-0.0013142047309282602,-0.01193707230316019,0.007689596855673961,0.987015640133267
2013-09-16,-1,-0.0007250233578442887,-0.0007110422293242572,-0.013063955179142868,0.006741643749074361,0.9861166832987268
2013-09-18,1,0.0015143116613293905,0.0018126143018664309,-0.013063955179142868,0.004460017419979021,0.9874594322257181
2013-09-20,1,0.0025161001015785644,0.002978999585998122,-0.013063955179142868,0.006380621929426638,0.9877450002294539
2013-09-24,1,0.003175162930561132,0.003755084163739502,-0.013063955179142868,0.006380621929426638,0.9885765386810231
2013-09-26,1,0.0018833097204112668,0.0023147748498377483,-0.010977101211301212,0.006741643749074361,0.9898864897019662
2013-09-30,1,0.0012691907255655162,0.0016624979945078398,-0.010977101211301212,0.007219159288995101,0.9900044188784954
2013-10-02,1,0.0008888425822200802,0.0012502291550547555,-0.007539392923184816,0.007219159288995101,0.9902877428242761
2013-10-04,1,0.00013748764126590956,0.00038089179245804673,-0.007539392923184816,0.007219159288995101,0.9903514326887415
2013-10-08,-1,-0.0006467962455770577,-0.0005618238249869061,-0.006163249415470532,0.007219159288995101,0.9905966037092806
2013-10-10,-1,-0.0005135190124138943,-0.0004149655021315907,-0.0055280659937263716,0.008296594957919576,0.9903354551839423
2013-10-14,-1,-0.0011882175060063714,-0.0011741584251019996,-0.003989632054148914,0.010416031508472768,0.9905246503310488
2013-10-16,-1,-0.001427090480032341,-0.0013491019419402774,-0.0055280659937263716,0.010416031508472768,0.9899772057675079
2013-10-18,1,1.1880500770336386e-05,9.240088940390493e-05,-0.0055280659937263716,0.010416031508472768,0.9855892483125683
2013-10-22,1,0.0002734734560991165,0.00036921974100472986,-0.007128804575359475,0.008296594957919576,0.985449474385057
2013-10-24,-1,-0.0004801392000242069,-0.00041622981566090286,-0.007514787592576247,0.008296594957919576,0.984467195461655
2013-10-28,-1,-0.0007668609354769976,-0.0006662517738351,-0.005969359312452391,0.006164110437714701,0.9856944100551372
2013-10-30,-1,-0.00028637812321608805,-0.0002511278216508578,-0.006668911219554631,0.006164110437714701,0.9854289530558893
2013-11-01,-1,-0.00020041809512782478,-0.00011887070528998183,-0.005509056886923141,0.004572057789787845,0.9862549875896638
2013-11-05,-1,-0.00017125473951979173,-7.748415551808919e-05,-0.006157992118770767,0.008296594957919576,0.9852884581992306
2013-11-07,1,0.0005565717956297926,0.0007426725937354784,-0.006183071202054087,0.0063005120929455535,0.9850038093197838
2013-11-11,1,0.0005874699575443407,0.000689836318976952,-0.006183071202054087,0.0014138604056990515,0.9855619787173023
2013-11-13,-1,-0.0007944324979219698,-0.0005482220686531577,-0.005958709900076933,0.0063005120929455535,0.9857938264892446
2013-11-15,1,0.005431353329951917,0.005997781382431026,-0.005958709900076933,0.0016532946936334305,0.9886512292770133
2013-11-19,1,0.004699078801439698,0.005170956114736247,-0.005958709900076933,0.0063005120929455535,0.9884453063956047
2013-11-21,1,0.003522470818103837,0.0038803746581147452,-0.004888350196405653,0.014675365574664163,0.9900664481905342
2013-11-25,1,0.0025585661721087795,0.002776668204175918,-0.004218973360137488,0.014999223605161299,0.9900663793448717
2013-11-27,1,0.0027945211939303647,0.0030795719159640617,-0.004094872890971501,0.014999223605161299,0.9903890901618612
2013-12-02,1,0.003741651110645247,0.004292134848459396,-0.004218973360137488,0.014999223605161299,0.9902661297702791
2013-12-04,1,0.004061738529237703,0.0046080233524473675,-0.004218973360137488,0.014626340086196137,0.9896281258044731
2013-12-06,1,0.0033071764089099035,0.0038689329915586575,-0.004548686155295333,0.011033716372757567,0.989384638934322
2013-12-10,1,0.0030951334428630855,0.0036204708612802916,-0.005683654449528472,0.011033716372757567,0.9883308891611066
2013-12-12,1,0.0035086378152285845,0.004059841132524968,-0.006437472730297551,0.0034140431535241243,0.9885171395606818
2013-12-16,1,0.004055250282932866,0.004674905964084132,-0.0072781572909932524,0.00032732917966534706,0.98813572901191
2013-12-18,1,0.0034372060625862165,0.003932612665712641,-0.006382146534795323,0.00032732917966534706,0.9900264839855373
2013-12-20,1,0.003874324722919175,0.004415079947680103,-0.006382146534795323,0.00032732917966534706,0.990182711583791
2013-12-24,1,0.00500846391880613,0.005732177636996511,-0.0072781572909932524,-0.0005452511778798275,0.988620547166442
2013-12-27,1,0.004892063204278447,0.005597789855090981,-0.007498471546211782,-0.0005452511778798275,0.988426504199945
2013-12-31,1,0.004300959132332352,0.004900431672395773,-0.009960588039135236,-0.00028050500625608355,0.9883879134652934
2014-01-03,1,0.0030550998526366353,0.003484453522702465,-0.013193129142763684,-0.00028050500625608355,0.9894981745336232
2014-01-07,1,0.0019515751174874205,0.0022126959217090543,-0.008738992253556795,0.000636719904761628,0.9910176825817328
2014-01-09,1,0.00021048278490032953,0.00025149360950136993,-0.008245188592782908,0.001671322691747329,0.9917211425803156
2014-01-13,-1,-0.00015736850961110374,-8.479823761671032e-05,-0.008245188592782908,0.0032105399111584374,0.9916569511786397
2014-01-15,-1,-0.00075293813982272,-0.0005898257111799721,-0.008245188592782908,0.006135620542955779,0.99107399631849
2014-01-17,-1,-0.0005181348002731522,-0.0004010541797572079,-0.008245188592782908,0.010187290774476871,0.9901102955706421
2014-01-22,-1,-0.00042593617888468904,-0.00028506345390948406,-0.008245188592782908,0.00893788615082451,0.9907563477685867
2014-01-24,-1,-0.001279742127700726,-0.0009232703702847192,-0.0021958746443429115,0.00947000111360266,0.9907225146340023
2014-01-28,-1,-0.0011836961610165774,-0.0008730162783999967,-0.002624242130203696,0.00947000111360266,0.9904201893754012
2014-01-30,-1,-0.0024122387281849647,-0.0019075697633134782,-0.005498335957989684,0.00947000111360266,0.9887651104466133
2014-02-03,-1,-0.004204121555985235,-0.00349905269659661,0.00017385440074470373,0.009631921063976558,0.988040645214161
2014-02-05,-1,-0.0025840174612799943,-0.0021287484713767395,-0.002079528889087346,0.009029284554248791,0.9900171658309742
2014-02-07,-1,-0.0018187436226295524,-0.0014761846012740299,-0.0006263664142639243,0.009527835731786016,0.990605172290036
2014-02-11,1,7.491372159879956e-05,9.297232038169264e-05,-0.002079528889087346,0.009527835731786016,0.9907505429953978
2014-02-13,1,0.0012437938016485136,0.0014225657321707504,-0.0046049302988250326,0.008991859467615809,0.9910209887367203
2014-02-18,1,0.002365006326411955,0.0027090357878130945,-0.0046049302988250326,0.009527835731786016,0.9904915844572173
2014-02-20,1,0.0015848118621942667,0.001734289010173516,-0.0065077145640008065,0.009527835731786016,0.9895250094113045
2014-02-24,1,0.001359155602283063,0.00139109890481175,-0.008713527004287625,0.008308730211153803,0.9895018162103454
2014-02-26,1,0.0006348882201384343,0.0007270750252322351,-0.008713527004287625,0.008308730211153803,0.989483481486309
2014-02-28,-1,-0.0020916089519819707,-0.0016362298119959805,-0.008713527004287625,0.008308730211153803,0.9914417836641721
2014-03-04,-1,-0.0016158884775549693,-0.0011922369508332842,-0.008713527004287625,0.009979388266741152,0.9909179886000936
2014-03-06,-1,-0.001938628506049182,-0.0014600490119983166,-0.009212635020238393,0.009979388266741152,0.9893807769733577
2014-03-10,-1,-0.0014615785235829975,-0.0009973277558715655,-0.009212635020238393,0.008129060029952364,0.9900543342962131
2014-03-12,-1,-0.001993485865948347,-0.0014588486572511936,-0.008713527004287625,0.009722040991213219,0.9903057134482044
2014-03-14,-1,-0.0018665377463298585,-0.0014311181162193108,-0.01089892928467007,0.009722040991213219,0.9878933039200397
2014-03-18,0,-1.2575925905920532e-05,0.00018499787598673855,-0.01089892928467007,0.006377980049239215,0.9890455178051271
2014-03-20,-1,-0.0011209407174301396,-0.0007821800806407925,-0.009212635020238393,0.0073497941960454,0.9879470679014872
2014-03-24,-1,-0.0016162301479944762,-0.0012015734580540466,-0.007157987762148269,0.0087479141691705,0.9876680286230318
2014-03-26,-1,-0.0029831014541659576,-0.0024347367904385287,-0.004276890881036273,0.009722040991213219,0.9868252228567206
2014-03-28,-1,-0.003516625286763722,-0.0029053232320428806,-0.004276890881036273,0.009722040991213219,0.986210482560805
2014-04-01,-1,-0.0024169938820569536,-0.0019242507008430118,-0.004276890881036273,0.0087479141691705,0.986829991460324
2014-04-03,-1,-0.002762580534468341,-0.002266274474495786,-0.00551417046154566,0.008355542293303753,0.9881085794388734
2014-04-07,-1,-0.0021777895587353343,-0.0017905843366493393,-0.0075290419143118625,0.008355542293303753,0.9876676134309047
2014-04-09,-1,-0.0019126742473952916,-0.0015128598909665172,-0.010959705679503478,0.008009311802965921,0.988083870291478
2014-04-11,-1,-0.0005636523612851938,-0.0005508917982736323,-0.0065228367549559395,0.008355542293303753,0.9898062803728205
2014-04-15,-1,-0.0007477241711451572,-0.0007028266319824152,-0.0065228367549559395,0.011035865434000501,0.9859763094160844
2014-04-17,-1,-0.000609118465029214,-0.0005261807192714808,-0.0065228367549559395,0.011035865434000501,0.9873112223414653
2014-04-22,-1,-0.0002337218363212968,-0.0002255409022972712,-0.00774086601964644,0.011035865434000501,0.9874012093586542
2014-04-24,1,0.00045164932523493315,0.0005210765283489496,-0.00774086601964644,0.008797848277091208,0.988381482647883
2014-04-28,1,1.512858047334814e-05,1.605538449994431e-05,-0.0065228367549559395,0.011035865434000501,0.9884001402534799
2014-04-30,1,0.0010742558126341996,0.001244426874227955,-0.0065228367549559395,0.00966957165601553,0.9887867272513925
2014-05-02,1,0.0008111486924753266,0.0009658590585131689,-0.004779058151446518,0.00966957165601553,0.9893237970301241
2014-05-06,-1,-0.0001445262635874215,-0.00012387014964405197,-0.00407967376374538,0.00966957165601553,0.9896393502752691
2014-05-08,-1,-0.0003884899079708757,-0.00035669211532049277,-9.424712843416092e-05,0.012834831916486997,0.9890817371841631
2014-05-12,1,0.0007181542518747546,0.000936248220941935,-0.0020147644160978468,0.010774252287707283,0.990050018109098
2014-05-14,1,0.003685866557108011,0.004284999750221581,-0.004413764742373089,0.008660907355163418,0.9929756487554451
2014-05-16,1,0.004337413146825417,0.0050573823771714,-0.004413764742373089,0.0074461097743339635,0.99328874103498
2014-05-20,1,0.004585903857140602,0.005393376116246983,-0.004285542269625923,0.0074461097743339635,0.9934518262909041
2014-05-22,1,0.004562022774364846,0.005366308504711917,-0.005704513141829625,0.0074461097743339635,0.992419370882051
2014-05-27,1,0.005358168563283433,0.006253888233259332,-0.00790963124648126,0.003944449152008601,0.9914886910102557
2014-05-29,1,0.006465432051444037,0.007237255168185791,-0.00790963124648126,0.0028246008658109876,0.985875051515146
2014-06-02,1,0.004308105812156441,0.00474191157717852,-0.008766845554353937,0.003944449152008601,0.9855116756326683
2014-06-04,1,0.0034175592148551954,0.0036887926920019676,-0.008766845554353937,0.004235300347349617,0.9865427696496173
2014-06-06,1,0.003766307631911906,0.004067268242328424,-0.008766845554353937,0.0018618571591353938,0.9866182334070469
2014-06-10,1,0.0037561463507152343,0.004036761459799083,-0.008766845554353937,0.0018618571591353938,0.9866486292412653
2014-06-12,1,0.0031883528304895367,0.003397384585888398,-0.004095670599228497,0.00216841609222395,0.9878576225933365
2014-06-16,1,0.0032083707211298077,0.0034303671180437745,-0.005524828050911976,0.00216841609222395,0.987481070099899
2014-06-18,1,0.0028484270361318616,0.0030025073593969473,-0.008527141028016634,0.0019888169635623584,0.9874707423102631
2014-06-20,1,0.00232594860811139,0.0023939253168581967,-0.0050981501246392695,0.0019888169635623584,0.9881190155358834
2014-06-24,1,0.0015204076454482427,0.001587118512293138,-0.004624859580138359,0.0031296488281061137,0.9885584920850811
2014-06-26,1,0.0035418570335100995,0.0037023144981884284,-0.00711495779320539,0.0019888169635623584,0.991920903066377
2014-06-30,1,0.0036236523302266236,0.003816517779498565,-0.004624859580138359,0.0018622189625019595,0.9938563927747395
2014-07-02,1,0.003515868215518719,0.0037173669445694575,-0.00711495779320539,0.0013062297311345603,0.9929222257727128
2014-07-07,1,0.003398363305922636,0.003605818594581343,-0.008592865570965561,0.0018622189625019595,0.9921210907716985
2014-07-09,1,0.0035450513234373104,0.0037921108941482793,-0.009043812328997267,0.0013062297311345603,0.9913916414864433
2014-07-11,1,0.003465732978878391,0.0037463913610471804,-0.009043812328997267,0.00247330529781632,0.9910911927491363
2014-07-15,1,0.0033380967591542213,0.0035851638887950403,-0.00886970389622495,0.004178028821246677,0.9914390754567609
2014-07-17,1,0.003147440682785803,0.003379514582381022,-0.007449832262722217,0.006265653929414649,0.9917198725053248
2014-07-21,1,0.0027167084405806175,0.002882854731407973,-0.0052339852107488,0.007631250389037587,0.9919073506960984
2014-07-23,1,0.002369597998467387,0.0024005051870011947,-0.004044565647276278,0.007439801120257,0.9923019319537247
2014-07-25,1,0.0023580591009861145,0.002409058077235331,-0.004044565647276278,0.008175536687608257,0.9919005977030372
2014-07-29,1,0.002161519905738179,0.002182954405483669,-0.00454874079233301,0.008175536687608257,0.9915813515385515
2014-07-31,1,0.0021160116895488764,0.0021672269230856426,-0.00454874079233301,0.008175536687608257,0.9923536072554683
2014-08-04,1,0.0019813363215928316,0.0019952637202702954,-0.0013366585122299912,0.008175536687608257,0.9931458117784595
2014-08-06,1,0.0012035840008502324,0.0012996495085934039,-0.00042527945668122856,0.008175536687608257,0.9936084711647355
2014-08-08,1,0.002118765514687827,0.002172946008124603,-0.0006218939764507047,0.007439801120257,0.9944341496308338
2014-08-12,1,0.0022300271185391575,0.0022688422902845846,-0.0011087047523842084,0.006620311728866821,0.9940434192561226
2014-08-14,1,0.0022522324851845022,0.002300248304492781,-0.00468471812372254,0.0051770819565812734,0.9934211050730051
2014-08-18,1,0.002424990396412359,0.0024646537707929874,-0.00468471812372254,0.0051770819565812734,0.9936499778634232
2014-08-20,1,0.0023021868029975794,0.0023143147962569202,-0.00468471812372254,0.004567692478954216,0.9937826543279077
2014-08-22,1,0.00209946743660066,0.0021393391195691867,-0.00468471812372254,0.003417746392417438,0.9941934414372059
2014-08-26,1,0.001961031935535915,0.0019772694777631626,-0.00408763855287796,0.003417746392417438,0.9942645253689048
2014-08-28,1,0.0015363638001122026,0.0015936184625165491,-0.00408763855287796,0.003417746392417438,0.9935266574971281
2014-09-02,1,0.002031715871108561,0.0020614917519087817,-0.006295651625365236,0.0030430114343790024,0.9891757795485584
2014-09-04,1,0.0012577528704971713,0.0013877394148418033,-0.009681213761412247,0.004567692478954216,0.9883540631219526
2014-09-08,1,0.0012650456443947127,0.0014107657231335886,-0.009681213761412247,0.004567692478954216,0.9878313663848381
2014-09-10,1,0.0013173854676645038,0.0014177017613285694,-0.009681213761412247,0.006214621976554738,0.9867998063922298
2014-09-12,1,0.0010340831385255427,0.0011584769547584484,-0.014504645149899633,0.006214621976554738,0.9855870303183205
2014-09-16,1,0.0013389666373550544,0.0014062810085187886,-0.014504645149899633,0.006820158450740549,0.9844580747033741
2014-09-18,1,0.0014482263274465494,0.001519212366039371,-0.014504645149899633,0.0057872204756504,0.9842862445303042
2014-09-22,1,0.0012242376763188405,0.0012914031407525834,-0.014504645149899633,0.01398818168272939,0.9836532559283299
2014-09-24,1,0.0013249707465414775,0.0014242082807025102,-0.014504645149899633,0.016274891505642146,0.9822798924191369
2014-09-26,1,0.00032158733626574195,0.0005725972374795855,-0.013009063919398987,0.02185675345247265,0.9817999748491877
2014-09-30,1,0.0003481360646500842,0.0006271741395651947,-0.012570370919670164,0.0202567773143505,0.9850621029189454
2014-10-02,1,0.0004610893132994396,0.0007078755730039472,-0.008608105195660833,0.0202567773143505,0.9857815603225488
2014-10-06,1,0.0014012579705497278,0.0014439365401201993,-0.008608105195660833,0.0202567773143505,0.9850294240583624
2014-10-08,1,0.001586117644612012,0.0015998915527426485,-0.007790582204466337,0.019605519256395042,0.9861839311463293
2014-10-10,1,0.0006704639560036162,0.0008001446210044918,-0.005595537789679923,0.0202567773143505,0.9857995830009858
2014-10-14,1,0.0006354116835815115,0.0007797195805890954,-0.005595537789679923,0.019605519256395042,0.98667405365366
2014-10-16,1,0.0007553738006392926,0.0008641838794097747,-0.005595537789679923,0.019605519256395042,0.9864035832077573
2014-10-20,1,0.0017384758619430126,0.0017725325566482972,-0.006217068220965991,0.01693554783617776,0.9870093141795727
2014-10-22,1,0.002308499425844538,0.0024152101419210375,-0.006217068220965991,0.012525340222350047,0.9883754533608502
2014-10-24,1,0.002674791640754428,0.0028028292685492685,-0.006217068220965991,0.008799872820297443,0.9895560655225469
2014-10-28,1,0.00295192561614031,0.003146210226823481,-0.006217068220965991,0.007678678642602111,0.9898345089916791
2014-10-30,1,0.00257687831972038,0.0027138727614772467,-0.0037541942051035697,0.010030936260391275,0.989946581207834
2014-11-03,1,0.003007475539685658,0.0031666905850924673,-0.0037541942051035697,0.008799872820297443,0.9904998180604296
2014-11-05,1,0.002421957943097082,0.002509038502624351,-0.0031771507625564456,0.008799872820297443,0.9892427144551597
2014-11-07,1,0.003319640871383164,0.0035206082939894714,-0.0031771507625564456,0.006220294088812337,0.991147459478679
2014-11-11,1,0.0030129037495484996,0.0031184345785132106,-0.0031771507625564456,0.006220294088812337,0.9911945486569372
2014-11-13,1,0.0029800352584409694,0.00306203840965276,-0.0039456744543568635,0.004600104932390009,0.9904182578633435
2014-11-17,1,0.004191724059732445,0.004708842191841884,-0.0031771507625564456,0.006324169129938806,0.9906134075191125
2014-11-19,1,0.004038948276626026,0.004504138833768758,-0.0030112084977530606,0.010521852343511037,0.9877177549635924
2014-11-21,1,0.0038758893603821703,0.004348088060184847,-0.007718859012668911,0.010521852343511037,0.9865459204665706
2014-11-25,1,0.003155163651486502,0.0035158109683291828,-0.0039456744543568635,0.010521852343511037,0.9877339035109363
2014-11-28,1,0.003776573566597356,0.004219890944180622,-0.0039456744543568635,0.00548288343559585,0.9882559794996502
2014-12-02,1,0.0043351347514554535,0.0048406653221063235,-0.007975090223073435,0.004983083165749264,0.9871889659796199
2014-12-04,1,0.002740095122069798,0.0030123985321934125,-0.00626819367011438,0.00548288343559585,0.9893574828805709
2014-12-08,1,0.0024329567784125263,0.002647117301122985,-0.00626819367011438,0.006405425893771039,0.9892910339952384
2014-12-10,1,0.0017360975317392933,0.001824476775224347,-0.007975090223073435,0.008118784205327606,0.9878757993183631
2014-12-12,1,0.0011344570854111473,0.0011386592011565205,-0.004670617034477742,0.009248975666796168,0.9881845756922291
2014-12-16,1,0.0014436743754037854,0.0014621138902867685,-0.004670617034477742,0.00904884146722942,0.9884372339615676
2014-12-18,1,0.003951045463030514,0.004299091584175234,-0.004670617034477742,0.00810792868274722,0.9921933607019044
2014-12-22,1,0.0025179607838235678,0.0026301736874706693,-0.0015706302350868432,0.00904884146722942,0.9918443299324501
2014-12-24,1,0.0026039134277782423,0.0027243567212806973,-0.0015706302350868432,0.009248975666796168,0.9917084163705862
2014-12-29,1,0.002245415883931053,0.002281115236503563,-0.005161875023392294,0.009248975666796168,0.9907194183282301
2014-12-31,1,0.0013992470366630846,0.001429874354649823,-0.004216433748768872,0.009598358167095766,0.9906215163473024
2015-01-05,1,0.0019043736201633003,0.0019611516334541446,-0.004377261469651797,0.010226213608327825,0.990313628120534
2015-01-07,1,0.0021514672927813857,0.002246720448761424,-0.004377261469651797,0.010567411971036415,0.9898702984599353
2015-01-09,1,0.0022136642071868477,0.0023452651707567373,-0.004462399409974811,0.010226213608327825,0.9897161865733098
2015-01-13,1,0.002386912846321154,0.0025554018003708405,-0.004462399409974811,0.010226213608327825,0.9902447724646775
2015-01-15,1,0.0026443833902771953,0.0028296507569751115,-0.0065899953850735386,0.010567411971036415,0.9887803813019068
2015-01-20,1,0.0027431938690497706,0.0029270318135941483,-0.00858368255141509,0.011149341242084027,0.9883946688311671
2015-01-22,1,0.0021750489207642745,0.0022654235224001096,-0.013604678036973496,0.010501394805224228,0.9861214145707918
2015-01-26,1,0.0027060534732370987,0.002893149499754737,-0.013604678036973496,0.009408512834838382,0.9855726045527963
2015-01-28,1,0.0019034988390080367,0.001970888526506868,-0.01300772927941523,0.010485576710971172,0.985988071121813
2015-01-30,1,0.0015486652698166337,0.0015726018798320404,-0.008384699632229,0.010485576710971172,0.986452407358065
2015-02-03,1,0.0014444785041700507,0.001463984745525624,-0.01300772927941523,0.009065450831313297,0.9858656081895799
2015-02-05,1,0.0016258228537841968,0.0016589569579936443,-0.01300772927941523,0.0061718701108878175,0.9862195700822479
2015-02-09,1,0.0001761285015794452,0.00036814901992206477,-0.009219680786117877,0.007786168731983067,0.9876615399189402
2015-02-11,1,0.00035799224045796735,0.0005266650869203344,-0.009219680786117877,0.008529034054606942,0.9866282448862395
2015-02-13,-1,-0.0005747837967149147,-0.00026964683962165574,-0.008474035632182247,0.008529034054606942,0.987707112832201
2015-02-18,-1,-0.0006810626642079578,-0.0003542964229022084,-0.008474035632182247,0.008529034054606942,0.9873453132443024
2015-02-20,-1,-0.004036734346173226,-0.0032720467281482702,-0.007737589726146249,0.009982736010998198,0.989539399365278
2015-02-24,-1,-0.004083603505486316,-0.0033312298883289952,-0.007903390242987854,0.009982736010998198,0.9897981353490101
2015-02-26,-1,-0.003969934461927702,-0.0032248018837514702,-0.008327641344017762,0.008270736050780152,0.9888428983091017
2015-03-02,-1,-0.0032028247667721345,-0.002560543832074454,-0.008327641344017762,0.007497240888968878,0.9892742966561288
2015-03-04,-1,-0.004201020573199637,-0.003458050845821169,-0.007903390242987854,0.007497240888968878,0.9899582500124936
2015-03-06,-1,-0.005603918741557849,-0.004610502110685588,-0.007737589726146249,0.011484781960496593,0.9880298990711464
2015-03-10,-1,-0.005716926608779159,-0.004715602439063942,-0.007737589726146249,0.017062844623480598,0.9865184495667686
2015-03-12,-1,-0.005351304157123336,-0.0043887099118362135,-0.007454724957545516,0.011484781960496593,0.9879279318470953
2015-03-16,-1,-0.0037480712207765055,-0.003030942644153003,-0.007454724957545516,0.008050154353880684,0.9892270370935208
2015-03-18,-1,-0.0019860475506802847,-0.001541241442208797,-0.007903390242987854,0.008050154353880684,0.9892601769566172
2015-03-20,-1,-0.0012084186186957081,-0.0009172750376708564,-0.007580069065344929,0.00410757849981055,0.9897628940275848
2015-03-24,-1,-0.002033422571114653,-0.0016557395396365987,-0.006679309954651751,0.00410757849981055,0.9905055704829574
2015-03-26,-1,-0.003984059211122878,-0.003350766581307439,-0.005628121047179555,0.004123047379471233,0.9917827405918257
2015-03-30,-1,-0.0027163864330462762,-0.002300057978904136,-0.006679309954651751,0.005494262762837734,0.9908605976011349
2015-04-01,-1,-0.003460345082416178,-0.0029329455341065855,-0.007788840891087174,0.005494262762837734,0.9877590642637433
2015-04-06,-1,-0.0007072279859113057,-0.0005994882917315337,-0.007788840891087174,0.0030644282600362704,0.9887828130078367
2015-04-08,-1,-0.0009994752663273123,-0.0008471038115038594,-0.007788840891087174,0.0016326629849771576,0.9901843073517066
2015-04-10,-1,-0.0010896998099033102,-0.000953464962401418,-0.007788840891087174,0.0041982863453611866,0.9888341806715331
2015-04-14,-1,-0.001681326499416447,-0.0014518398710577501,-0.007788840891087174,0.00667373045217908,0.9883480695553873
2015-04-16,-1,-0.0017649590421985545,-0.0015177755065902852,-0.003972154141513533,0.007230657837459466,0.9884798731816846
2015-04-20,-1,-0.0018609537234863733,-0.0016015872115403705,-0.003972154141513533,0.008236823816855327,0.9875494726125764
2015-04-22,-1,-0.0025470747184030878,-0.0021856672675448913,-0.0015057812502147392,0.010459194421543446,0.9866526321146527
2015-04-24,-1,-0.0018845712559710324,-0.0016417803046342352,-0.008210348062265659,0.010459194421543446,0.9866646818602941
2015-04-28,-1,-0.00044343905417319345,-0.00041527826848875146,-0.00532580745918876,0.010459194421543446,0.9879932439990755
2015-04-30,-1,-0.004321011002586604,-0.003767491632685271,-0.00394942419899545,0.010459194421543446,0.9900913954998899
2015-05-04,-1,-0.0038254328049156386,-0.003329206577953673,-0.0051559019630314845,0.010459194421543446,0.9878392858733226
2015-05-06,-1,-0.004488095716079894,-0.0039018787026598835,-0.008174360182961174,0.010459194421543446,0.9864797307032811
2015-05-08,-1,-0.0034826706059221165,-0.002988785629319859,-0.01006025428737204,0.007902533201643639,0.9881222774143962
2015-05-12,-1,-0.0025260712314944824,-0.0021810949087636934,-0.010748835015210966,0.007902533201643639,0.9884024832164957
2015-05-14,1,2.9748832994341812e-06,0.00011407660014976578,-0.010748835015210966,0.005320945696441889,0.9882741496953696
2015-05-18,1,0.00019173976976406414,0.00027933843099926553,-0.010748835015210966,-0.0017592432290531425,0.9885198889370588
2015-05-20,1,0.0004142873686556311,0.0005522265389003593,-0.010748835015210966,0.0014909757533025391,0.9878830835837211
2015-05-22,1,5.488814018465572e-05,0.00015875879565398687,-0.008394216946396683,0.0059203114424225866,0.9880936632288483
2015-05-27,-1,-0.00016736050278351325,-0.0001503892635385304,-0.010748835015210966,0.0014909757533025391,0.9871898083016093
2015-05-29,-1,-0.00029170345714368915,-0.0002633556157383936,-0.010748835015210966,0.0059203114424225866,0.9868543819382856
2015-06-02,-1,-0.001724452775805199,-0.0016028880273418783,-0.010748835015210966,0.0014909757533025391,0.9894728702903192
2015-06-04,-1,-0.003551438271448145,-0.0032194193721770074,-0.006639266904628282,0.0059203114424225866,0.9912154794247224
2015-06-08,-1,-0.003879277756330299,-0.003524406200927782,-0.0069764073960754,0.0059203114424225866,0.9911894041273611
2015-06-10,-1,-0.0037553139685762267,-0.0034511593478803973,-0.0069764073960754,0.0059203114424225866,0.9906665016391925
2015-06-12,-1,-0.003092713517904956,-0.0028910847657635293,-0.0069764073960754,0.00826730267623097,0.9901106871034276
2015-06-16,-1,-0.0034429436562486283,-0.0031918911037406715,-0.0069764073960754,0.009064018244267592,0.989561029005013
2015-06-18,-1,-0.0017163811284447994,-0.0016969903937737035,-0.0069764073960754,0.00826730267623097,0.9905528983224162
2015-06-22,-1,-0.0017779659113530315,-0.0017293580386823389,-0.009019816273653069,0.00761672417816428,0.9908579735263867
2015-06-24,-1,-0.002997835218292587,-0.0027999658052614194,-0.009019816273653069,0.00761672417816428,0.9914123569257416
2015-06-26,-1,-0.002288575626499225,-0.002197302299360962,-0.010207028456236618,0.007121097136866838,0.9919035872727661
2015-06-30,-1,-0.0025105697151150954,-0.0024406312519960295,-0.009019816273653069,0.007121097136866838,0.9923741806686683
2015-07-02,-1,-0.0023063914986964675,-0.002194975285136477,-0.010207028456236618,0.00526433733057245,0.9920768642776081
2015-07-07,-1,-0.0025388947814921317,-0.002421929643865481,-0.009050614059827976,0.00624634123254409,0.9920415656255716
2015-07-09,-1,-0.00279820123689293,-0.002637338171659377,-0.009050614059827976,0.00624634123254409,0.9920159836283291
2015-07-13,-1,-0.0019236995895081405,-0.0018805394687248728,-0.009050614059827976,0.00458368125269718,0.9925891494923123
2015-07-15,-1,-0.0028580829090337676,-0.0025888579360770626,-0.009050614059827976,0.00458368125269718,0.9917956419368648
2015-07-17,-1,-0.002475233860932405,-0.002250355618755718,-0.009050614059827976,0.00458368125269718,0.9909865640207146
2015-07-21,-1,-0.0025832480509252378,-0.0023631348303450755,-0.007975421098844821,0.00458368125269718,0.9911654105461537
2015-07-23,-1,-0.0022172808671295525,-0.0020737376254131032,-0.007740053532462661,0.0036221121294707326,0.9917511279873733
2015-07-27,-1,-0.0032198482850397006,-0.0029236560776666402,-0.007975421098844821,0.0036221121294707326,0.9882228688686523
2015-07-29,-1,-0.0031099018470573834,-0.0028182124530009814,-0.010979225005333248,0.0036544478487895915,0.9852476627314468
2015-07-31,-1,-0.0035501665179582297,-0.0032103649559582855,-0.007948491651338666,0.007417031391852842,0.9843732556487305
2015-08-04,-1,-0.003200106888990662,-0.00292743440572054,-0.01032698120119908,0.005408786928017036,0.9838221960972622
2015-08-06,-1,-0.003188814872615868,-0.0029600305214918816,-0.007188570502600878,0.013207135548478518,0.9829268835524312
2015-08-10,-1,-0.0025674924308282036,-0.002454192157882739,-0.007820120773281836,0.013207135548478518,0.9824909072334062
2015-08-12,-1,-0.0014997362828764042,-0.0014766527012299575,-0.010018345405666677,0.011459353427816893,0.9833393366245854
2015-08-14,-1,-0.0012010624497656318,-0.0011665862140039173,-0.010018345405666677,0.011459353427816893,0.9838430351568181
2015-08-18,-1,-0.001622940662923538,-0.0015476337549045595,-0.010018345405666677,0.011804901539057607,0.982847249191179
2015-08-20,-1,-0.0012244439798887367,-0.0012157365779104027,-0.010018345405666677,0.012159962975368484,0.9816928238028494
2015-08-24,-1,-0.004075734080410129,-0.00372539407201804,-0.007277614225922104,0.012159962975368484,0.9845250010462866
2015-08-26,-1,-0.0031421549791280185,-0.002965381299662711,-0.005001912765868614,0.012159962975368484,0.9866105789454134
2015-08-28,-1,-0.001684199457647485,-0.0016781841037676582,-0.007277614225922104,0.011566210239310966,0.9882371430851358
2015-09-01,-1,-0.0026010494125086898,-0.002480204674824883,-0.0002800234193265799,0.012159962975368484,0.9877296241783416
2015-09-03,-1,-0.0015853354067914495,-0.0015783552880435363,-0.0010833263397216797,0.011169712278935422,0.989356195339227
2015-09-08,-1,-0.001345696650241516,-0.0013147873402671055,0.0008033029203950999,0.012159962975368484,0.9892605616525626
2015-09-10,-1,-0.001563825363384899,-0.0015575268740531624,0.002205127135635679,0.012889057620898828,0.9889443728861459
2015-09-14,-1,-0.0010512497318964464,-0.0009862520644662322,0.0009460954749821535,0.015070605500916281,0.9879784687841494
2015-09-16,-1,-0.00020781260222383475,-1.7687610618941215e-05,-0.003443310118256062,0.015070605500916281,0.9890980170460941
2015-09-18,1,0.001087518643165167,0.0015105605060045362,-0.004364978958402128,0.01209148979053142,0.9901070011166924
2015-09-22,-1,-0.00043095000576619404,-0.00034564956903838923,-0.003474983717771471,0.01209148979053142,0.9898216890787578
2015-09-24,1,0.0006073865373345805,0.0008522444888123135,-0.003474983717771471,0.008738631607026466,0.9912858518533978
2015-09-28,1,0.0003189621206523942,0.0004998032988384536,-0.003474983717771471,0.007523251317679423,0.9917182042242424
2015-09-30,1,0.0017082418326378201,0.002134801415617298,-0.005103321555832671,0.006184901204138365,0.9910804678951755
2015-10-02,1,0.00209840684086713,0.0025991767836598756,-0.007405650624423695,0.011205291012937917,0.9902345062686716
2015-10-06,1,0.003056100532368326,0.0037245341334463575,-0.007405650624423695,0.011205291012937917,0.9888537327370647
2015-10-08,1,0.003960624719304031,0.004786562298374125,-0.00868057353394849,0.009165981587879405,0.9878070617073897
2015-10-12,1,0.003691235099369231,0.0044901342032759375,-0.00947823637736372,0.004536683360244398,0.9874743016407769
2015-10-14,1,0.0032094828828272016,0.003920912398654447,-0.01056173960714269,0.004536683360244398,0.9875461573851234
2015-10-16,1,0.00364124314315665,0.004427889452267083,-0.01248265521514521,0.0027036291818101814,0.9861916964351055
2015-10-20,1,0.0034296567956898344,0.004174108809707925,-0.01248265521514521,0.004074937130176821,0.9861027671887349
2015-10-22,1,0.0027792867946111943,0.0033652127600853256,-0.01248265521514521,0.007102732691292725,0.9861214077060318
2015-10-26,1,0.0018840149435169003,0.0022584935610949403,-0.01248265521514521,0.007102732691292725,0.9867193628688338
2015-10-28,1,0.0011543903447305554,0.0014020345574473048,-0.012201984953103706,0.003479365465197649,0.9878813945042733
2015-10-30,1,0.0009923577534668919,0.0011950751917798332,-0.012327155564313037,0.0013227217272142491,0.9877873702462677
2015-11-03,1,0.0024169297596510113,0.0028170137701385945,-0.01248265521514521,0.0004980353136609525,0.9876604048875157
2015-11-05,1,0.0016955073620910006,0.0019829084108858005,-0.012327155564313037,0.0008656253378745859,0.9886699463790491
2015-11-09,1,0.0008408735504848589,0.0010723019332034363,-0.01219444865487836,0.0008656253378745859,0.9902984201127646
2015-11-11,1,0.0005067243781878485,0.0007014459219568523,-0.011829381932394193,0.0026530713528092943,0.9907000254410915
2015-11-13,-1,-0.0008591100704947262,-0.0008197054753713662,-0.011082605116091748,0.0026530713528092943,0.9912744176812863
2015-11-17,-1,-0.0008255295270650285,-0.0008035185460067969,-0.010295822568829834,0.004602693599217451,0.9895621727767875
2015-11-19,-1,-0.0008193407435135603,-0.0007587736441115016,-0.01187110546946397,0.0026530713528092943,0.9891518032796578
2015-11-23,-1,-0.0003296162726822188,-0.00030011630403965756,-0.01187110546946397,0.005669056411459018,0.9885327550399193
2015-11-25,-1,-0.0011907264939974229,-0.0010890855184638938,-0.01187110546946397,0.007423920423486577,0.988450391829688
2015-11-30,-1,-0.0020563075635714042,-0.001841899585121215,-0.011082605116091748,0.008642323088303695,0.9877375468789181
2015-12-02,-1,-0.001964351181709817,-0.0017877243538090412,-0.01188211113101378,0.007423920423486577,0.9871320789238355
2015-12-04,-1,-0.0015620600846459976,-0.0014503245802527278,-0.01188211113101378,0.009382129793022973,0.986489486388764
2015-12-08,-1,-0.0019684224440997627,-0.0018298276435526487,-0.012862563833326918,0.009382129793022973,0.9856526575108809
2015-12-10,-1,-0.00220718029439379,-0.002026209972918991,-0.01593628197254355,0.01254847750564479,0.984609705504582
2015-12-14,-1,-0.0030588171764463034,-0.002776314446242368,-0.01593628197254355,0.01254847750564479,0.9844221553833684
2015-12-16,-1,-0.0014594011343416222,-0.0013453155729412972,-0.01593628197254355,0.005669056411459018,0.9862185430642898
2015-12-18,-1,-0.0022273945707252953,-0.0020204789587254263,-0.014331192432961038,0.005669056411459018,0.9869920692295986
2015-12-22,-1,-0.0022265183365480987,-0.0019935011203137502,-0.014331192432961038,0.011644983552485142,0.9857359661929952
2015-12-24,-1,-0.0018649019837356294,-0.0016722986001797744,-0.014331192432961038,0.011644983552485142,0.9853288644628929
2015-12-29,-1,-0.001112907776846488,-0.0009719489638829073,-0.014331192432961038,0.010669545251021375,0.9863178411432441
2015-12-31,-1,-0.0026626696252345164,-0.00233163739224569,-0.011210273512913026,0.011644983552485142,0.9849958338893846
2016-01-05,-1,-0.0017001571433447947,-0.0015202748419895174,-0.013340160894219858,0.011644983552485142,0.9844111904231783
2016-01-07,-1,-0.002624760032014807,-0.002362372413786633,-0.01236367983863039,0.011644983552485142,0.9851240308526994
2016-01-11,-1,-0.002837076210192081,-0.0025559714407229674,-0.012219962506882787,0.010995286075980194,0.9862446205622927
2016-01-13,-1,-0.003695514704579766,-0.0033196521141672366,-0.010783019925866394,0.010995286075980194,0.9870288997459578
2016-01-15,-1,-0.005768489416711698,-0.0050165026798936595,-0.009774539976072916,0.01886594630992347,0.983244204893786
2016-01-20,-1,-0.0061813542622129085,-0.005373706394301319,-0.0057189900070889685,0.01886594630992347,0.9819560977967954
2016-01-22,-1,-0.003979627112086338,-0.0034975472429345893,-0.009789220904849823,0.0174612518985128,0.9836096950244777
2016-01-26,-1,-0.0041811027864472414,-0.003626240837761127,-0.007571894401740753,0.015582205466437613,0.9849631526928464
2016-01-28,-1,-0.0031636076624964237,-0.0027768164572435357,-0.01125506859578967,0.0174612518985128,0.9838728972740952
2016-02-01,-1,-0.0018402403054239174,-0.0016098847346900347,-0.007571894401740753,0.0174612518985128,0.9860099366323233
2016-02-03,-1,-0.0020756544985326086,-0.0017942266554167737,-0.00617989795174771,0.015582205466437613,0.9871773240173427
2016-02-05,-1,-0.0018064470918679318,-0.0015871493802283752,-0.00617989795174771,0.017973791031905495,0.9865388419215524
2016-02-09,-1,-0.0018611837113346142,-0.0016761855903844923,-0.004889303533144408,0.017973791031905495,0.9859669140424625
2016-02-11,-1,-0.0010947054993367502,-0.0010480657255016249,-0.00617989795174771,0.021927054628283784,0.9834227804349255
2016-02-16,1,0.001053261328912283,0.0012546290056594349,-0.006577141915404375,0.01692279583870952,0.9865802368834927
2016-02-18,1,0.002218172964346575,0.0026264493157551155,-0.006577141915404375,0.017973791031905495,0.9855550325176564
2016-02-22,1,0.002405818299200965,0.002833122098025289,-0.006577141915404375,0.01762543015824358,0.9861188016931374
2016-02-24,1,0.002576652134964122,0.003082708833214526,-0.006305408996679763,0.01821893474103217,0.9859435158459491
2016-02-26,1,0.0031750939905080934,0.0037707507906059217,-0.004117500112259087,0.01700451040841841,0.9873962602642168
2016-03-01,1,0.004011517124830194,0.004757468327694816,-0.003368104616642369,0.013494503100867628,0.9883184018132459
2016-03-03,1,0.004576209427696021,0.005431155602172043,-0.00433358879676601,0.013494503100867628,0.9865375889399162
2016-03-07,1,0.004933826749801108,0.005803471307634575,-0.003368104616642369,0.01042137606031392,0.9875124184000341
2016-03-09,1,0.00537077595360385,0.006274767362224426,-0.00436385316333793,0.009414619823012175,0.9869861526814627
2016-03-11,1,0.005827347784391895,0.0068039030497381615,-0.0033941940313853254,0.009414619823012175,0.9896842553819076
2016-03-15,1,0.0051294494581844464,0.006002100378118277,-0.0031265777302051877,0.010067671810567249,0.9908734286646799
2016-03-17,1,0.006457148818688488,0.007496195680661557,-0.0031265777302051877,0.009204087007237039,0.991863131895531
2016-03-21,1,0.00611586274750964,0.007100174122258816,-0.002590514953575515,0.010067671810567249,0.9915340982186767
2016-03-23,1,0.006202377190609021,0.007162497885605983,-0.0008379220507342525,0.009204087007237039,0.9921525774316381
2016-03-28,1,0.006373926886939751,0.007355060339982424,-0.0007210946019316082,0.009318928541448973,0.9921275780408159
2016-03-30,1,0.0074821701610665,0.008693674720871833,-0.0007210946019316082,0.009318928541448973,0.9917754208535723
2016-04-01,1,0.006254292649870437,0.0072622605299518615,0.00078054797886301,0.009318928541448973,0.994089402024855
2016-04-05,1,0.005253822293572951,0.006036220082889957,0.0011903644020992614,0.009318928541448973,0.9942891106149768
2016-04-07,1,0.004630862909809821,0.005298717921838322,0.0017846752081577778,0.010412196413203054,0.9947221896970427
2016-04-11,1,0.004494075031926391,0.005081266993924488,0.0017846752081577778,0.010412196413203054,0.9943379885867409
2016-04-13,1,0.004643541952350571,0.0052340090766051575,0.0013281587306826074,0.009318928541448973,0.9934755554701644
2016-04-15,1,0.005091904876044544,0.005762929931382553,0.0004637239026428827,0.010978157009715045,0.9927872988760115
2016-04-19,1,0.006280297940913998,0.007106309841097027,-0.0016715668305919901,0.00855769177122415,0.9931566309728116
2016-04-21,1,0.0060003227321172685,0.006745619626544956,-0.0032965390630283393,0.00855769177122415,0.9911675231340468
2016-04-25,1,0.005682965199543175,0.006333214778520387,-0.005054677586313516,0.00658134559377134,0.9908009764534109
2016-04-27,1,0.005714481083660286,0.0063385987840033145,-0.005054677586313516,0.00658134559377134,0.9904243941375898
2016-04-29,1,0.005950735435576057,0.006602464912583116,-0.005054677586313516,0.005283486319225605,0.9900165601396137
2016-05-03,1,0.0052236417179280965,0.005724305630707329,-0.005054677586313516,0.005283486319225605,0.9901915250265422
2016-05-05,1,0.005457230924235279,0.005966958692660016,-0.005054677586313516,0.0040162429585391055,0.9901508881904906
2016-05-09,1,0.005408854251617093,0.005846364814885192,-0.005781762941379537,0.0028989447574594433,0.9902061800011203
2016-05-11,1,0.005342925611733855,0.005859163193752149,-0.005054677586313516,0.005013847975502018,0.9913420560571932
2016-05-13,1,0.0049031468854930866,0.005296605225311011,-0.0042027472486493,0.005013847975502018,0.9916742639529217
2016-05-17,1,0.004619912524560831,0.004985518225930882,-0.002800650791135913,0.0073932368268695816,0.9920011179713445
2016-05-19,1,0.00331298684593002,0.003512328695530622,-0.0024891182138944614,0.0073932368268695816,0.9938818530773909
2016-05-23,1,0.0033579640429205687,0.0036143430436889595,-0.002046049160633724,0.0073932368268695816,0.9943022751927793
2016-05-25,1,0.002780192180400958,0.002864692336130038,-0.001835188906258905,0.0073932368268695816,0.9950322619272286
2016-05-27,1,0.0032640211753505247,0.0033241964765323645,-0.0024891182138944614,0.006822391976766826,0.9938143323796508
2016-06-01,1,0.0021620224984547527,0.002319963478431704,-0.00126584903491285,0.008715110581316927,0.9927587211566917
2016-06-03,1,0.0016301707210131962,0.001888660597025507,0.00013286144774064725,0.008715110581316927,0.992514145098205
2016-06-07,1,0.00044670958776891144,0.0009089464170692167,0.00013286144774064725,0.009873523181383861,0.9917077062325492
2016-06-09,1,0.00031339866715246836,0.0008354884209252462,-0.002870670374342843,0.012806542184657498,0.9905988598069511
2016-06-13,1,0.00038100275798284996,0.0009197145935622485,-0.002870670374342843,0.012806542184657498,0.9903736260401966
2016-06-15,1,0.001202840803846708,0.0015875855927813545,-0.005688759075118396,0.011787215040584893,0.9902791381933211
2016-06-17,1,0.0005910095869959909,0.0010369356503509778,-0.007420514216562941,0.011787215040584893,0.9899472006551865
2016-06-21,1,0.0002878130946031238,0.0007445864211867064,-0.007420514216562941,0.011787215040584893,0.9896761602252658
2016-06-23,1,0.0009949876454118782,0.0013330806565833289,-0.007420514216562941,0.013016882526033656,0.9892263617811523
2016-06-27,1,0.00019149276688342474,0.0006390921233711143,-0.004051468517511882,0.013016882526033656,0.9902842947354082
2016-06-29,1,0.0012003962524396391,0.0015542407391824122,-0.006149613808122151,0.008195623936876303,0.9919182631121007
2016-07-01,1,0.0007823869734748493,0.0012329377348204774,-0.006149613808122151,0.008174229713294923,0.9919031854197219
2016-07-06,1,0.0005074666650493006,0.0010185385669757977,-0.006149613808122151,0.006153071133735893,0.9920495626178494
2016-07-08,1,0.0014509438522704906,0.0017010383495313132,-0.006149613808122151,0.005214305210933219,0.990300942174145
2016-07-12,1,0.0025713428880670417,0.0026539956592524154,-0.007420514216562941,0.0023443135418656155,0.9894780436864041
2016-07-14,1,0.0016347999868463643,0.001838011591411961,-0.0059617523022720866,0.003804405358805434,0.9904096145907403
2016-07-18,1,0.00044305398921299895,0.0008082034562868895,-0.004940073914339459,0.003804405358805434,0.9912520611590766
2016-07-20,1,0.0009580926605896153,0.0012504718387539452,-0.005929488491340322,0.0026406878456779743,0.9912355172872197
2016-07-22,1,0.001728075178283814,0.0019170439379537314,-0.005929488491340322,0.0032811545650213163,0.9911005604576167
2016-07-26,1,0.0016407748917570725,0.0018386636750514543,-0.005929488491340322,0.00482403352307617,0.9908405953079417
2016-07-28,1,0.0017124841242210885,0.0018699366038930085,-0.004940073914339459,0.0049635866253404624,0.9907497993118485
2016-08-01,1,0.0016231849356452442,0.0017646012980355194,-0.00484192319171906,0.005720607078271259,0.9907429643198487
2016-08-03,1,0.000869689924594472,0.0010952062556943256,-0.003076489916259471,0.005720607078271259,0.9917300733136886
2016-08-05,-1,-0.002046224995373294,-0.0014302149722534576,-0.0018887327040393088,0.006272271418758978,0.993981806624077
2016-08-09,-1,-0.002335301561312705,-0.0017734447466882905,-0.0016409336600612463,0.0066008138630374025,0.993747100906597
2016-08-11,-1,-0.0025044819697681744,-0.0019054061417417812,-0.0021344026931053375,0.006272271418758978,0.9904554220763904
2016-08-15,-1,-0.002281375873889837,-0.0017304834073000506,-0.003076489916259471,0.0066008138630374025,0.9893257633377371
2016-08-17,-1,-0.0024468285984721896,-0.0018849160991427953,-0.003076489916259471,0.007847492444915078,0.9885849108716679
2016-08-19,-1,-0.0013981448311484641,-0.0009807774078323455,-0.004330079175820958,0.007847492444915078,0.988718914193954
2016-08-23,-1,-0.0017972851890973726,-0.0012783573398265748,-0.004330079175820958,0.009029223663440996,0.9886844475776333
2016-08-25,-1,-0.0018418281784425127,-0.0013031768730641907,-0.004330079175820958,0.009029223663440996,0.988191016173215
2016-08-29,-1,-0.0022623530108327045,-0.001645170445453455,-0.0027650030144603256,0.009029223663440996,0.9879015667638907
2016-08-31,-1,-0.0021185401648219047,-0.0015431698554876393,-0.007423148504725084,0.010362499660756792,0.9865960707527663
2016-09-02,-1,-0.001568254673102405,-0.0010740679804385072,-0.012401915603817211,0.010362499660756792,0.9859346013852925
2016-09-07,-1,-0.0007672961072570192,-0.00038689332168531285,-0.02222975113583856,0.009029223663440996,0.9841435383108087
2016-09-09,-1,-0.0033455273203963406,-0.002734169183407794,-0.013241549768800572,0.009029223663440996,0.9872806037880221
2016-09-13,-1,-0.0037324959748328912,-0.003083293863442512,-0.010832426545138054,0.009089394867580007,0.9879799243181466
2016-09-15,-1,-0.003485805534986194,-0.0028836425068788562,-0.009561045437079571,0.01075729079663193,0.9865412672325932
2016-09-19,-1,-0.002555610316907361,-0.0020845505158925194,-0.013241549768800572,0.009089394867580007,0.9864789903148458
2016-09-21,-1,-0.0018150622698262888,-0.0014651140686954118,-0.013241549768800572,0.00714192561960318,0.9868038927813351
2016-09-23,-1,-0.0011447239898704116,-0.0008797722090298027,-0.013241549768800572,0.003590575830674731,0.9875124965169001
2016-09-27,-1,-0.00045980090226708863,-0.00033293004971731994,-0.013241549768800572,0.004109600281109542,0.9873234451901297
2016-09-29,-1,-0.00013112464198589122,-8.936770023427813e-05,-0.01464559722401174,0.0013915475385906794,0.9865942231343404
2016-10-03,-1,-0.0019124395873525175,-0.0016283769828224696,-0.009561045437079571,0.004109600281109542,0.9870143349494893
2016-10-05,-1,-0.004029738567428706,-0.0035236917628545363,-0.009561045437079571,0.004109600281109542,0.987870174948191
2016-10-07,-1,-0.004895348399277616,-0.004285845483296147,-0.007218294447747187,0.008272345675060543,0.9875150316089464
2016-10-11,-1,-0.005443296677173273,-0.004693097566914594,-0.007218294447747187,0.01094781698190372,0.9859269728257051
2016-10-13,-1,-0.003432895737519033,-0.002874043827556935,-0.01834340569878113,0.004109600281109542,0.9859460920296708
2016-10-17,-1,-0.004340377037912006,-0.003701086802190701,-0.009406129209755606,0.005004733198238097,0.9862978756524883
2016-10-19,-1,-0.004005312063102003,-0.0034264664286180607,-0.009406129209755606,0.00838829826857303,0.9856718959250101
2016-10-21,-1,-0.004151634106773931,-0.0035326874608913833,-0.014697510883846916,0.00838829826857303,0.9851679122649981
2016-10-25,-1,-0.0036278418648867166,-0.003066780656320757,-0.014697510883846916,0.01231149047238215,0.9833095871912422
2016-10-27,-1,-0.005249342186413727,-0.004498031106708074,-0.009098796266883214,0.013658315750083267,0.9833875027788429
2016-10-31,-1,-0.0037357363377872104,-0.0031848715412289394,-0.011982677971111971,0.013279895676654344,0.9844330712517675
2016-11-02,-1,-0.005148472706628358,-0.004490973474616291,-0.011982677971111971,0.013279895676654344,0.9846868509999339
2016-11-04,-1,-0.004182329963486438,-0.003670706803972441,-0.011982677971111971,0.013900078109648375,0.9832310990781439
2016-11-08,-1,-0.0027367686670885976,-0.0023831896995425697,-0.011982677971111971,0.013900078109648375,0.9841012494496213
2016-11-10,-1,-0.005177691402920613,-0.004541019152874406,-0.0080124317845419,0.013900078109648375,0.9857123118877762
2016-11-14,-1,-0.0047298108296142585,-0.004186759458774545,-0.011982677971111971,0.013900078109648375,0.9848977728542422
2016-11-16,-1,-0.004542694380742199,-0.0040565699451520325,-0.01455589306664067,0.013900078109648375,0.9845062146281631
2016-11-18,-1,-0.003985129789221443,-0.0036375938118951377,-0.01455589306664067,0.013900078109648375,0.9843401163756099
2016-11-22,-1,-0.0015035780943080937,-0.001471337238115723,-0.01455589306664067,0.008775074499819343,0.986243648875349
2016-11-25,-1,-0.0006045955674501401,-0.0005113453725056711,-0.01455589306664067,0.007943755890031228,0.9866757615436993
2016-11-29,-1,-0.00043146261835450575,-0.000317329550046045,-0.01455589306664067,0.0075046256710639995,0.9873007867542822
2016-12-01,-1,-0.0010161504092999949,-0.0009076776364378373,-0.009830186362689512,0.007856060919641,0.9883875401929497
2016-12-05,1,0.0004528339394301984,0.0007237386164740551,-0.009830186362689512,0.008182406828315315,0.988571920456357
2016-12-07,1,0.0010744229486585573,0.0014108874641829,-0.011158646575886125,0.007856060919641,0.9893897616035688
2016-12-09,1,0.001359937642642533,0.0017674903607387124,-0.011158646575886125,0.005978349802917966,0.9898358474674857
2016-12-13,1,0.0003863120113682711,0.0007207727327703157,-0.004268548582887349,0.008182406828315315,0.9911172551108124
2016-12-15,-1,-0.000806189460372139,-0.0006096872262019728,-0.0029002038916787903,0.008775074499819343,0.9916837500618221
2016-12-19,-1,-0.00030559064886065954,-3.361629075175729e-05,-0.0037971416711477064,0.008182406828315315,0.9919971869532014
2016-12-21,1,0.00014409224186545796,0.0004722170656262818,-0.0037971416711477064,0.010037840834626994,0.9910589063845143
2016-12-23,1,0.0004033346213116483,0.0007275077816622503,-0.0037971416711477064,0.011058162351810261,0.9910641579581098
2016-12-28,-1,-0.0007202159915205198,-0.0006965450021153663,-0.0008258304269654427,0.015415344946681108,0.9898804785351268
2016-12-30,-1,-0.0007671115653172839,-0.0007347305531720373,-0.0037971416711477064,0.015415344946681108,0.989944178034313
2017-01-04,1,0.0010966724662728293,0.0013253416592660465,-0.0037971416711477064,0.008702301894868598,0.9921075830586067
2017-01-06,1,0.000795697829687291,0.0009868794709392019,-0.0008258304269654427,0.009985333452885152,0.9923006635447326
2017-01-10,1,0.0005914969975605471,0.0007487403532701765,0.0002073984670337157,0.009985333452885152,0.9925397109435103
2017-01-12,1,0.001446030482527197,0.0017616409963550116,0.00027865338557677474,0.009722053818562488,0.993116212302893
2017-01-17,1,0.002029586234235445,0.0024516956038856856,0.00027865338557677474,0.008702112030372139,0.9935411333344321
2017-01-19,1,0.0022093602822895724,0.0026741773570800684,0.00027865338557677474,0.008702112030372139,0.9934621940225535
2017-01-23,1,0.003426791486387252,0.004057852356379996,0.00027865338557677474,0.007117956756275285,0.994259313536598
2017-01-25,1,0.003770689077374341,0.004446491565512152,-0.001138864095070714,0.006176020845911149,0.9933750922675285
2017-01-27,1,0.004947342265705956,0.005802588546658689,-0.005732554553942473,0.006123747856596674,0.9935404169460919
2017-01-31,1,0.005105854968791811,0.006026037243211954,-0.005732554553942473,0.006123747856596674,0.9937841544735474
2017-02-02,1,0.003977162411869552,0.00456678995293355,-0.005732554553942473,0.005788835008118904,0.9934824977532037
2017-02-06,1,0.004203486151897991,0.0047972080186365436,-0.0068257875409273834,0.004457569370633016,0.9925701733743943
2017-02-08,1,0.004254325195362951,0.004851680321925908,-0.008423255850246667,0.004457569370633016,0.9900247285333947
2017-02-10,1,0.004879206982434499,0.005602191488014775,-0.008423255850246667,0.0036958018201845976,0.9892607397488435
2017-02-14,1,0.004676987709381597,0.005395175067351888,-0.0072798662661491854,0.0036958018201845976,0.989620614226482
2017-02-16,1,0.005030304983764266,0.005830286574556509,-0.007127706054917236,0.0036958018201845976,0.9894106526233111
2017-02-21,1,0.005847377126645931,0.00677049282281119,-0.008423255850246667,0.0003736845126642917,0.9879789932095512
2017-02-23,1,0.0050110152163679806,0.00581052762872459,-0.007127706054917236,0.0026336841224519213,0.9896423968430866
2017-02-27,1,0.004029612528066857,0.004622718261635901,-0.008423255850246667,0.0026336841224519213,0.9900442467437185
2017-03-01,1,0.002628851650868958,0.00287917086675475,-0.007322080067872898,0.0051447831764005495,0.9905670519307652
2017-03-03,1,0.002087747768916524,0.002244014916200929,-0.007322080067872898,0.007999387535859648,0.9907375145180322
2017-03-07,1,0.0014669134496398191,0.0015436430073414791,-0.007332274188758609,0.007999387535859648,0.9908127896679736
2017-03-09,1,0.0006720107748333322,0.0007455517807145687,-0.005692048690457263,0.008772449801416409,0.9926145527805706
2017-03-13,-1,-0.00011148512150178745,-2.7414314804565708e-05,-0.004773637970748812,0.008772449801416409,0.9927279478078868
2017-03-15,1,0.0005285456353606533,0.0005329799472228076,-0.004773637970748812,0.007999387535859648,0.9932301310601513
2017-03-17,1,0.0009423490671587403,0.0009672345228407864,-0.004773637970748812,0.007999387535859648,0.9930516040618363
2017-03-21,1,0.0005753471767994942,0.0005910454952610913,-0.004519878568786892,0.008772449801416409,0.9925093182767298
2017-03-23,1,0.0001135405388597431,0.00027012446826514536,-0.004651003914063168,0.008406543625749616,0.992610792015609
2017-03-27,1,0.00032048677476817256,0.00041023587980173966,-0.004519878568786892,0.008406543625749616,0.993037236206122
2017-03-29,-1,-0.0003072752253344166,-4.418376699000259e-05,-0.0053241465204003306,0.006652198286379177,0.9919542933637931
2017-03-31,1,3.975982555185539e-05,0.00022739712053016642,-0.0053241465204003306,0.006884189597053814,0.991540774379722
2017-04-04,1,0.00028661072972465377,0.00039653231171648536,-0.004651003914063168,0.006884189597053814,0.9912172853193627
2017-04-06,-1,-0.0010992465875307264,-0.0007104694340747258,-0.00461248207351455,0.006884189597053814,0.9911947186176561
2017-04-10,-1,-0.0008045661513769108,-0.0004569508754491725,-0.006022829650337745,0.00519381322403502,0.9910388657038374
2017-04-12,-1,-0.0007185711828704371,-0.0004068896490254419,-0.00702977945956554,0.008244481393202954,0.9906218383659446
2017-04-17,-1,-0.0007786994534985374,-0.0004101634533066141,-0.0085654811021699,0.004995383558785828,0.9910048804294646
2017-04-19,1,0.0007264363167087818,0.000824431373374985,-0.006783314721417988,0.008053594238582457,0.9914550099831844
2017-04-21,1,0.0011544628020109917,0.0011727905631662874,-0.008791707060247846,0.00520212977159491,0.9913231665687191
2017-04-25,1,0.0012490195253191455,0.001255985528501203,-0.008791707060247846,0.00520212977159491,0.9909842796730309
2017-04-27,-1,-0.0017168751728514303,-0.0012883624931509395,-0.0052127542975442,0.008046051727953762,0.992948987931263
2017-05-01,1,0.00011122991256961451,0.00023514991963842057,-0.0052127542975442,0.00520212977159491,0.9934005087554643
2017-05-03,1,8.590072373314793e-05,0.00017198253755532991,-0.00398715756742763,0.00520212977159491,0.9941995709882647
2017-05-05,1,0.0007066950988104429,0.0007251411579602247,-0.0052127542975442,0.0051197153685768534,0.9939508660855366
2017-05-09,-1,-0.0011144845278243292,-0.0008171430746999911,-0.0052127542975442,0.006022720028826881,0.9925283578384668
2017-05-11,-1,-0.0021463952141690906,-0.0016704005219582885,-0.005425828874824822,0.004555157339558635,0.9928659676434273
2017-05-15,-1,-0.0023685432961148894,-0.0018871686297214849,-0.004353966614331235,0.006022720028826881,0.9918282174882398
2017-05-17,-1,-0.001783294019168043,-0.0013974645369188067,-0.004353966614331235,0.004555157339558635,0.9920224463384052
2017-05-19,-1,-0.002050817170004702,-0.0016452749341634152,-0.004353966614331235,0.006022720028826881,0.9915234731348824
2017-05-23,-1,-0.002768432326446941,-0.002250428556063,-0.00491992781705819,0.006022720028826881,0.9904986841588675
2017-05-25,-1,-0.0021977833017350606,-0.001764319795408305,-0.00491992781705819,0.006022720028826881,0.9903391229787524
2017-05-30,-1,-0.001233351362583576,-0.0009871965383653064,-0.008303499700654396,0.006926191645707302,0.9896322751986272
2017-06-01,-1,-0.0015910393771976835,-0.0012791370105763836,-0.01207270876096898,0.008718139215287626,0.988510641859648
2017-06-05,-1,-0.0019013735224022003,-0.0015351971174893135,-0.008303499700654396,0.011936727451723228,0.9883552733184555
2017-06-07,-1,-0.002997386496592455,-0.002530490083567896,-0.010701553913387637,0.011936727451723228,0.9894120172919936
2017-06-09,-1,-0.003212227685821611,-0.002732861671330796,-0.012141131798601837,0.011936727451723228,0.9877342102577014
2017-06-13,-1,-0.0020710922208973955,-0.001717180088344874,-0.012141131798601837,0.011936727451723228,0.9883813531105706
2017-06-15,-1,-0.000873827920135996,-0.0007202804740568385,-0.012141131798601837,0.012075291002787284,0.9878822962683187
2017-06-19,-1,-0.0011249042777932783,-0.0010082040370062617,-0.010999824358388956,0.010855717716493631,0.9891083943757408
2017-06-21,-1,-0.0012421323363224616,-0.0011592971797715263,-0.008159724386686048,0.010855717716493631,0.989535802388345
2017-06-23,-1,-0.0009634759802699728,-0.0008964938742770108,-0.008159724386686048,0.009343874311847668,0.9897070000315827
2017-06-27,-1,-0.0011509000879630301,-0.0010922948621592253,-0.004549569926285215,0.009343874311847668,0.9905170332969705
2017-06-29,-1,-0.0008504283341232138,-0.0008476135425878747,-0.00411996641530212,0.009343874311847668,0.9909928887746834
2017-07-03,0,-4.4003227899137637e-05,7.473638213440804e-05,-0.00411996641530212,0.010944354070433213,0.989633130809696
2017-07-06,-1,-0.00044019903599451467,-0.0003413343494451684,-0.0020810850182535158,0.012151077504049285,0.9900270875320849
2017-07-10,-1,-0.0011135999998684602,-0.0011099048166011722,-0.0020810850182535158,0.012151077504049285,0.9910996742330526
2017-07-12,-1,-0.00045377895167168195,-0.0003728599242356338,-0.0015351217408426333,0.012151077504049285,0.990752454164522
2017-07-14,1,0.0007737378807974952,0.0010618748691017669,-0.0037873673790185538,0.009721729598124673,0.9907947302108178
2017-07-18,1,0.0003391151682960997,0.0005332319506125632,-0.005885117929952914,0.012151077504049285,0.9899071607517711
2017-07-20,1,0.00024477735417448694,0.00041584570028894627,-0.005885117929952914,0.012151077504049285,0.9900194342376526
2017-07-24,1,0.0003312047634672474,0.0005102582159141096,-0.0063994060390432485,0.0125282064195391,0.989400052756963
2017-07-26,1,0.0004293889144751903,0.000617757862836531,-0.0063994060390432485,0.013117431107463438,0.9886027724858777
2017-07-28,1,0.0004593826067431818,0.0006198607737564303,-0.0063994060390432485,0.013117431107463438,0.9892245820248916
2017-08-01,1,0.0011419581015027266,0.0012823731223978898,-0.0063994060390432485,0.013117431107463438,0.9907541609370507
2017-08-03,1,0.0015404041671146572,0.0017257977995246165,-0.0063994060390432485,0.00852703593916036,0.990998959622152
2017-08-07,1,0.0013900223003161837,0.0015879113533251044,-0.003302914816308493,0.00852703593916036,0.9915370811593192
2017-08-09,1,0.0026821388630329773,0.003083895305894861,-0.0063994060390432485,0.00852703593916036,0.992003693023553
2017-08-11,1,0.0012404398598567577,0.001423339125234842,-0.0017373506863093938,0.009735183943931485,0.992911982515674
2017-08-15,1,0.0017074300672516789,0.00197879816591207,-0.0031943256685287203,0.007283364103462619,0.99308747079927
2017-08-17,1,0.0010782920101031343,0.0012426237114217006,-0.0031943256685287203,0.008253140141084653,0.9924069029317578
2017-08-21,1,0.0019088897669602845,0.002224989448625845,-0.0017373506863093938,0.008253140141084653,0.9933141246140648
2017-08-23,1,0.0027595101706304453,0.003202667663875264,-0.00246143655787492,0.007203906781079589,0.9939526008078874
2017-08-25,1,0.0025145402324449626,0.002887182330175676,-0.00246143655787492,0.008253140141084653,0.9936643866221404
2017-08-29,1,0.0032158234809032647,0.0036883030961322736,-0.006479926053141099,0.007203906781079589,0.9915316709641031
2017-08-31,1,0.0033791889557362943,0.0038842127813897504,-0.006479926053141099,0.008253140141084653,0.9912584364792811
2017-09-05,1,0.0033631161604494733,0.0038571119286198935,-0.007754712190816696,0.008617981513001572,0.9906355393952736
2017-09-07,1,0.003841828487135673,0.004428336556023527,-0.00636850652628738,0.008253140141084653,0.9914097687694294
2017-09-11,1,0.004843599504513145,0.00544173723989305,-0.008410597996441223,0.005978378113058873,0.9898322678919731
2017-09-13,1,0.004208135396118759,0.004725981167075581,-0.004169839194325979,0.008379609545852481,0.9909164715469504
2017-09-15,1,0.0041175281680145975,0.0046295223068713405,-0.0017031519771466001,0.009011058427034336,0.9909996869974594
2017-09-19,1,0.0033765689458679347,0.0036855277768233496,-0.001693783747725842,0.007901179133253052,0.991306252410852
2017-09-21,1,0.0033576580086126934,0.0036998564686146563,-0.0012480415132691597,0.009011058427034336,0.9910726544864333
2017-09-25,1,0.003219820248599965,0.0035069081047202754,-0.0028516015709381753,0.007901179133253052,0.9901388405860689
2017-09-27,1,0.0017268029319650658,0.0018504792337556018,-0.0015046891138825987,0.007901179133253052,0.9921912017193172
2017-09-29,1,0.0020297173117117748,0.0021639564497270667,-0.002633716054866506,0.007795050018976003,0.9923750303953238
2017-10-03,1,0.0019428611481761193,0.002064863067675816,-0.0023773504805682157,0.005818901308859064,0.9929271559027402
2017-10-05,1,0.0017285765870199835,0.001804994754488912,-0.0029988389893491393,0.005818901308859064,0.9926925878873337
2017-10-09,1,0.0013546808420571432,0.0014124505702403341,-0.0023773504805682157,0.007795050018976003,0.9932792228111055
2017-10-11,1,0.0016513390850688712,0.0017257999778943012,-0.0023773504805682157,0.0062083274381201274,0.9936926557671276
2017-10-13,1,0.002148273150531284,0.0022668967118390825,-0.0029153256774061822,0.004581892029556128,0.9943840487965782
2017-10-17,1,0.0023680705427865626,0.002529377089904231,-0.0029153256774061822,0.004581892029556128,0.9944030689877615
2017-10-19,1,0.0029374942019310046,0.0031631434570842817,-0.0035173957764151383,0.004581892029556128,0.9940946430569981
2017-10-23,1,0.001975428052650761,0.0020646101920737117,-0.0029153256774061822,0.004581892029556128,0.9954215003662118
2017-10-25,1,0.0015268643296205348,0.001547056796097278,-0.0029153256774061822,0.0061131876596636015,0.9951260720382048
2017-10-27,1,0.0008299911676281748,0.0009650395547387144,-0.0029153256774061822,0.0061131876596636015,0.9943134373860509
2017-10-31,1,0.0005223014112182779,0.0007366067286052517,-0.0035586950723697,0.0061131876596636015,0.9942001922425825
2017-11-02,1,0.0008654041225085711,0.0010000367445597608,-0.0030605553057597,0.007189451023758462,0.993932761715717
2017-11-06,1,0.0016813770216806377,0.0017079859064219206,-0.004060140262949332,0.0051221431067557605,0.9939801826098466
