JNU-Tangyin/eata/results/Batch4_SP500/Batch4_SP500-MHK.csv
Date,Action,Predicted_Q25,Predicted_Q75,Actual_Q25,Actual_Q75,RL_Reward
2010-12-14,0,0.0,0.0,-0.007682351067785326,0.00555435037154943,0.9918700822409355
2010-12-16,0,0.0,0.0,-0.008851627437504122,0.004904152711591175,0.9909612205438412
2010-12-20,1,0.0007957728927512141,0.0009581737306782217,-0.008851627437504122,0.004316262791406745,0.9914711122939174
2010-12-22,1,0.0005391902316554366,0.0007186994621927799,-0.010656809021301911,0.004904152711591175,0.9906510303153677
2010-12-27,1,0.0006825010141824292,0.0008026006754817139,-0.008851627437504122,0.0063021834717491496,0.9908130630135664
2010-12-29,1,0.0029129405415668583,0.003238491187606915,-0.008851627437504122,0.007397548594771207,0.9908226378929919
2010-12-31,1,0.001568930758306622,0.0016769612090242166,-0.005038972514779982,0.007397548594771207,0.9894769485294695
2011-01-04,0,-0.00010611135756590905,0.00014188017168183015,-0.005038972514779982,0.007397548594771207,0.989842340297546
2011-01-06,-1,-0.0006316268528276702,-0.0002679040260261901,-0.005038972514779982,0.007828014256148602,0.9895174132086852
2011-01-10,-1,-0.0005385439531159429,-0.0002183190365302425,-0.003274784982060364,0.010700841545837433,0.9876960337847079
2011-01-12,-1,-0.0013809910239166033,-0.0008989316378984389,-0.004258025112154316,0.010700841545837433,0.9874221813563955
2011-01-14,-1,-0.001734656020588495,-0.0011653951005647432,-0.004258025112154316,0.009278240572148783,0.9881158779986228
2011-01-19,-1,-0.001567268284311203,-0.0010610151651904171,-0.006175624152972666,0.010700841545837433,0.986157649011407
2011-01-21,-1,-0.002348488124872067,-0.001742314204183638,-0.0035924375321948056,0.01320248886635756,0.9862830261364516
2011-01-25,-1,-0.0013031475450970456,-0.0008561196221556103,-0.006175624152972666,0.010802893730972285,0.9857286774408631
2011-01-27,0,0.0,0.0,-0.009966150119206553,0.013973612488914912,0.9843796913086358
2011-01-31,-1,-0.0032147073808017107,-0.002548643029853597,-0.009966150119206553,0.013973612488914912,0.9854121762669057
2011-02-02,-1,-0.002878851576430248,-0.0022955689793168936,-0.006630092147135499,0.013973612488914912,0.9851522191634909
2011-02-04,0,0.0,0.0,-0.01645837162505357,0.013618390415757508,0.9840198085952043
2011-02-08,-1,-0.0005054721583012546,-0.0003227714608722567,-0.01645837162505357,0.013618390415757508,0.9832231237246384
2011-02-10,-1,-0.000484846131291176,-0.00014611783922623492,-0.02165092300648219,0.013618390415757508,0.9822563326934258
2011-02-14,0,0.0,0.0,-0.02165092300648219,0.013618390415757508,0.982094882028405
2011-02-16,0,0.0,0.0,-0.017961188110676662,0.010561849845856773,0.9834457141412504
2011-02-18,1,0.0003520086235130085,0.00039227354346084474,-0.017961188110676662,0.010561849845856773,0.9829775345999716
2011-02-23,0,0.0,0.0,-0.015384992627789567,0.010561849845856773,0.9843084189936616
2011-02-25,0,0.0,0.0,-0.011496067775857644,0.011919536878527794,0.9849471949924119
2011-03-01,-1,-0.0012441270194566826,-0.0010762459688477936,-0.010540989334170345,0.011919536878527794,0.9850607309967382
2011-03-03,-1,-5.7477566564124025e-05,-4.8678515765179484e-05,-0.010540989334170345,0.012548479475158449,0.9849908269235543
2011-03-07,-1,-0.001462707190231829,-0.0012363060058883017,-0.0074756383899246106,0.015850489335663957,0.9855263229359652
2011-03-09,0,0.0,0.0,-0.0074756383899246106,0.011555740507376885,0.9890772250120069
2011-03-11,0,0.0,0.0,-0.0074756383899246106,0.011555740507376885,0.9893250029901933
2011-03-15,0,0.0,0.0,-0.008361375025674897,0.011555740507376885,0.9896689749930941
2011-03-17,-1,-0.00012480685455208853,-9.777275547135008e-05,-0.007111587104711662,0.011555740507376885,0.9899713826305803
2011-03-21,1,0.0009292804254879693,0.0010509233824866494,-0.008361375025674897,0.010780310755742362,0.9906295542482944
2011-03-23,1,3.9871909999100025e-05,8.185121193316238e-05,-0.007111587104711662,0.011555740507376885,0.990617226452725
2011-03-25,1,0.0008621934146148369,0.0009245111988195188,-0.008401576908149858,0.006916843918693356,0.9909911349460858
2011-03-29,1,0.001003494860024897,0.0011187052624075378,-0.007111587104711662,0.007180673835661544,0.9914138170570554
2011-03-31,1,0.002276574136152106,0.002583199411826757,-0.007111587104711662,0.003920795922985576,0.9921210641037527
2011-04-04,1,0.0012324575717035098,0.0012876432953023648,-0.007111587104711662,0.003920795922985576,0.9921305861836683
2011-04-06,1,0.0011986606754676133,0.0012554916868871293,-0.007111587104711662,0.006986648627504837,0.99070325148433
2011-04-08,0,-6.353426431764667e-05,8.030102129837551e-05,-0.004944709060711103,0.011006343074468575,0.9883118929796354
2011-04-12,-1,-0.0006719692116529227,-0.0004093417052958644,-0.004944709060711103,0.011006343074468575,0.9875954226149704
2011-04-14,-1,-0.000584531641104443,-0.00037522423439355845,-0.0021873872216120983,0.011006343074468575,0.9878629568863692
2011-04-18,-1,-0.0012239702759899024,-0.0009037003969557218,-0.00266140139790497,0.011006343074468575,0.9876052947401355
2011-04-20,-1,-0.000761816003365131,-0.0005079436124678018,-0.004797001094030473,0.011504449321009176,0.9874244144367903
2011-04-25,-1,-0.0017044485885575691,-0.0013166079067411863,-0.004797001094030473,0.011504449321009176,0.9872528348155873
2011-04-27,1,0.0007473028417352143,0.0007868971641924185,-0.004797001094030473,0.00914722212803664,0.9876230700129572
2011-04-29,1,0.00044134224845510106,0.00044564684765841694,-0.0046756640302862175,0.010581034693793422,0.9871055638514364
2011-05-03,1,0.0007220705371164219,0.0007321737839303373,-0.0046756640302862175,0.009567904070526755,0.9873381686857194
2011-05-05,1,0.0026482757098086583,0.0029668417364361746,-0.010271159527808733,0.007997411451350168,0.9868523447088491
2011-05-09,1,0.004413765717429153,0.004972703939720588,-0.016232254015944976,0.0036186066395884897,0.9874970718346772
2011-05-11,1,0.004417482120096017,0.005034780485858998,-0.010736963455364111,0.0039519260372161,0.9875704848357303
2011-05-13,1,0.004582328281360012,0.005237086651052544,-0.018295905926862747,0.008162382652164839,0.9855900869565368
2011-05-17,1,0.0034646948634196885,0.0039353980362567004,-0.020689131098779373,0.008437734922758544,0.9851375388803467
2011-05-19,1,0.0032493507843089336,0.0036599102834794185,-0.020689131098779373,0.007889981709943521,0.9856605972247151
2011-05-23,1,0.0023209907894715413,0.0025793810587575834,-0.011403203583615748,0.009567904070526755,0.9858784778066322
2011-05-25,1,0.0014268080315076779,0.0015010204230769156,-0.020491555815957838,0.011076716532085073,0.9838724448408249
2011-05-27,1,0.0019084042161815963,0.0020513960651546434,-0.020491555815957838,0.010137817568772304,0.9831235447343943
2011-06-01,1,0.0014478735982744718,0.0015518850485234758,-0.01602776532861165,0.009320614742108348,0.9843897671426086
2011-06-03,1,6.343170582066276e-05,0.00014156941948289254,-0.012729074881259251,0.013697216546218116,0.9845961230892861
2011-06-07,-1,-0.0013298023687353469,-0.0010894462992373645,-0.011935764481662193,0.013697216546218116,0.9856022806359919
2011-06-09,-1,-0.000641919215368318,-0.0005164702527491044,-0.01602776532861165,0.010231374261504746,0.9830542344634268
2011-06-13,-1,-0.0014304779677527756,-0.0011975015132103769,-0.012729074881259251,0.007329255088984889,0.9848823350281801
2011-06-15,-1,-0.0035506051277327958,-0.003030365034479658,-0.011935764481662193,0.008754518364471898,0.9862065744964981
2011-06-17,-1,-0.002862942356974476,-0.002482863440715973,-0.012729074881259251,0.008754518364471898,0.9856345511618152
2011-06-21,-1,-0.0011386800471974595,-0.000965506667311911,-0.012729074881259251,0.006204294057361367,0.9855527631133123
2011-06-23,-1,-0.0016736006361183402,-0.001334830734341892,-0.012729074881259251,0.004699457912556918,0.9866803081177424
2011-06-27,-1,-0.0033988023164919865,-0.002848932167483497,-0.011901679593116297,0.004699457912556918,0.9873992670264289
2011-06-29,-1,-0.0025280712319498363,-0.002114959939355274,-0.015634182017393042,0.00021047881810969614,0.985548937976248
2011-07-01,-1,-4.487291217971898e-05,-1.1222177495062873e-05,-0.015634182017393042,-0.00129652557278215,0.9853800300334985
2011-07-06,-1,-0.0007580390058454137,-0.0006323052429191626,-0.01976877725486633,6.394003771356812e-05,0.9822523496351789
2011-07-08,-1,-0.0036658481508827986,-0.0031961808983840805,-0.015634182017393042,0.006233879182854932,0.982963498094191
2011-07-12,-1,-0.0035168030988361244,-0.0030428145102101615,-0.01976877725486633,0.012321867346936063,0.9787105429372196
2011-07-14,-1,-0.002758358336239688,-0.002395225892439794,-0.02367325442845737,0.012321867346936063,0.9739983253952677
2011-07-18,-1,-0.003548217339147428,-0.003062346026994447,-0.02367325442845737,0.018454304876500183,0.9728899027684873
2011-07-20,-1,-0.0022888702617641274,-0.001969415436739995,-0.025606173440071503,0.01408217776024867,0.9734732205283821
2011-07-22,-1,-0.004223734171242594,-0.0036187312786593057,-0.036627776827508306,0.01408217776024867,0.9718621543382744
2011-07-26,-1,-0.004124915484795702,-0.0035727201122400143,-0.036627776827508306,0.018454304876500183,0.9703648219722565
2011-07-28,-1,-0.006675354450768207,-0.005743078699452352,-0.03135944520321482,0.023072298421446858,0.9699626973252629
2011-08-01,-1,-0.0047305836248592425,-0.004158013359000167,-0.03135944520321482,0.027614870537410966,0.9655088736024247
2011-08-03,-1,-0.005609400193285563,-0.0048919489991484325,-0.021958946300175964,0.02452538699271258,0.9683587908284188
2011-08-05,-1,-0.007486252464297934,-0.0065672079006815305,-0.021958946300175964,0.02452538699271258,0.9705649298003322
2011-08-09,-1,-0.008564698028481622,-0.00747414047140308,-0.019079237112706156,0.026029843213543815,0.9724622446149829
2011-08-11,-1,-0.007441140060650803,-0.006547292050142008,-0.021958946300175964,0.023072298421446858,0.9733649018949211
2011-08-15,-1,-0.007072996228911087,-0.006216488399503843,-0.021958946300175964,0.01378203874250628,0.974394399040117
2011-08-17,-1,-0.007538150418962842,-0.006684666044080756,-0.019079237112706156,0.026029843213543815,0.9728917751628312
2011-08-19,-1,-0.009648534867289558,-0.008553693431976902,-0.01847131259089651,0.026029843213543815,0.9742725625528593
2011-08-23,-1,-0.007188790309108159,-0.006433891512365091,-0.020812188951210932,0.01378203874250628,0.9751992856533328
2011-08-25,-1,-0.007333475745110301,-0.006580341242370609,-0.02241606566170197,0.00913130098505688,0.9755333989946561
2011-08-29,-1,-0.0027308031222079455,-0.0025253440799649822,-0.02241606566170197,0.00913130098505688,0.9769660917032403
2011-08-31,-1,-0.003151224023251694,-0.0028636417517091065,-0.02241606566170197,0.013783397179592293,0.9759500423278805
2011-09-02,-1,-0.004044276971695813,-0.0036555703912559143,-0.03129927664846969,0.013783397179592293,0.9729651483352287
2011-09-07,-1,-0.0037419794439278826,-0.0033908067497692767,-0.03129927664846969,0.026968907199279128,0.9687376103043207
2011-09-09,-1,-0.007936801996391763,-0.007087927671526756,-0.02169350832735204,0.034477299859943765,0.9709277970192296
2011-09-13,-1,-0.006506355008175666,-0.005859869320678703,-0.02169350832735204,0.03731371743898489,0.9687788822907372
2011-09-15,-1,-0.005568118513363715,-0.005015100408953735,-0.02169350832735204,0.034477299859943765,0.9700976029404579
2011-09-19,-1,-0.0052628764883026705,-0.004790207119748053,-0.026217933063232213,0.034477299859943765,0.9687521749686944
2011-09-21,-1,-0.007186546422729865,-0.006486971857475733,-0.019485146134004115,0.03824072796070843,0.9674996595865147
2011-09-23,-1,-0.007119653283072264,-0.006472590361398672,-0.016182025525412258,0.03824072796070843,0.9659725693283918
2011-09-27,-1,-0.0030114222300067096,-0.002924560824578923,-0.016182025525412258,0.0343773852138424,0.969624242095942
2011-09-29,-1,-0.001147990071536493,-0.0008489000639439463,-0.012743596971350322,0.0343773852138424,0.9706150952085012
2011-10-03,-1,-0.00444776586112249,-0.004320927279130422,-0.012743596971350322,0.0343773852138424,0.971348098725463
2011-10-05,1,0.0009150284779212005,0.0014869519938300192,-0.019485146134004115,0.024501667395547086,0.9757331293238065
2011-10-07,0,0.0,0.0,-0.012743596971350322,0.021819411849493563,0.9767600877337378
2011-10-11,0,0.0,0.0,-0.012743596971350322,0.021819411849493563,0.978321311649614
2011-10-13,0,0.0,0.0,-0.015244910121542353,0.021819411849493563,0.977170525107523
2011-10-17,0,0.0,0.0,-0.010373171880335446,0.0238875177896313,0.9770046890659674
2011-10-19,0,0.0,0.0,-0.013682515061787491,0.021819411849493563,0.9781403874196811
2011-10-21,0,0.0,0.0,-0.013682515061787491,0.01847549930986591,0.9799267189529725
2011-10-25,-1,-0.04173439669301744,-0.041731887281641254,-0.023013645065091595,0.012700635179464065,0.9623945561609492
2011-10-27,0,0.0,0.0,-0.027015821084171946,0.009722201102537582,0.9794276625256964
2011-10-31,1,0.00538330406926063,0.006440952072767016,-0.01296275019485186,0.012700635179464065,0.9809521681876747
2011-11-02,1,0.004711375566855074,0.005647827498702634,-0.009686657026138554,0.012700635179464065,0.9820131699252639
2011-11-04,1,0.004800306695721968,0.0056487748852478556,-0.009686657026138554,0.014278304575366076,0.9816776527675888
2011-11-08,1,0.005021694799007762,0.005898740818834371,-0.008246054919518868,0.014046258673285924,0.982524245270154
2011-11-10,1,0.004498922274012815,0.005383435881992495,-0.008246054919518868,0.022987579756246948,0.9821756598293566
2011-11-14,1,0.005667813957750635,0.006729847892308061,-0.022785308678363515,0.014046258673285924,0.9811257398011519
2011-11-16,1,0.0043153623199736904,0.005133714510254648,-0.025615064521777035,0.022987579756246948,0.9807619876094043
2011-11-18,1,0.00472567930542434,0.00562041823381761,-0.025615064521777035,0.022987579756246948,0.9800801875549318
2011-11-22,1,0.004389815288701415,0.005309202369031683,-0.017613285960805254,0.023800751392120647,0.9793640126082669
2011-11-25,1,0.0038340385548767627,0.00465993421365786,-0.002968201243022184,0.024342530896236187,0.9787334983643393
2011-11-29,1,0.0035986414705762968,0.004257863970272273,-0.007469722367136347,0.023800751392120647,0.9793364950394526
2011-12-01,1,0.005141275112435921,0.0059829286401606036,-0.013905876040604562,0.022987579756246948,0.981148321609626
2011-12-05,1,0.005889348801151571,0.006838888663461997,-0.013905876040604562,0.019164446054634285,0.9811761898477779
2011-12-07,1,0.006523586122892552,0.007537803210220939,-0.013905876040604562,0.017789726177687912,0.9812836601066552
2011-12-09,1,0.00666176074886392,0.00774608344954505,-0.011856331510868994,0.016050766691364862,0.983236659581176
2011-12-13,1,0.003969899007423256,0.004635942571942409,-0.005659966568667463,0.017789726177687912,0.9846741695816695
2011-12-15,1,0.003948198895745959,0.004578174815587274,-0.005487216555227707,0.017789726177687912,0.9853273046401639
2011-12-19,1,0.002866581414796436,0.0032637223464214646,-0.0032528499208276983,0.016331791382038763,0.985830726456442
2011-12-21,1,0.00520922973856665,0.005931545186035211,-0.005487216555227707,0.010051282855307968,0.9867926860821921
2011-12-23,1,0.006129238540494953,0.006944591910334022,-0.005487216555227707,0.008674215358650348,0.9881802038804293
2011-12-28,1,0.00503727627236381,0.005587054814311008,-0.0062578700896607975,0.008674215358650348,0.988280441631678
2011-12-30,1,0.003958358720530868,0.004294314039180489,-0.007319022114693947,0.008674215358650348,0.987306088320981
2012-01-04,1,0.003636014900350712,0.0039235726657481694,-0.0062578700896607975,0.011359654440443819,0.9864821237988582
2012-01-06,1,0.003795552399507148,0.004146019753366179,-0.0062578700896607975,0.015584531827307985,0.9841812511577888
2012-01-10,1,0.0034346258075868413,0.0036632028481530373,-0.0062578700896607975,0.01145332933733512,0.984638782280984
2012-01-12,1,0.0032727226624602768,0.0033456308076435966,-0.008378583516536163,0.00751468599153115,0.9862899381839623
2012-01-17,1,0.00416575670418572,0.0044205702090982174,-0.007490181504942768,0.00751468599153115,0.9864716842800191
2012-01-19,1,0.003952937480700555,0.004149257086392692,-0.012210251417169232,0.004285895946016884,0.9861067765631613
2012-01-23,1,0.004514793302557916,0.0049916654435513495,-0.010317893330799634,0.00751468599153115,0.9865671022030846
2012-01-25,1,0.004583014175780685,0.00505795323986551,-0.013034405947782764,0.004285895946016884,0.9848726956379161
2012-01-27,1,0.003707798682940827,0.004007059348661093,-0.014544563910213543,0.009545561731461882,0.983791443222326
2012-01-31,1,0.002743715364369426,0.002927230495685318,-0.013034405947782764,0.017623288551202702,0.9844249955579005
2012-02-02,1,0.001358241152386472,0.0015353411080755628,-0.013034405947782764,0.009384627947359742,0.9853009006455027
2012-02-06,1,0.0025836611537515546,0.002594793728160853,-0.014651758818910328,0.004924463748197509,0.9856245308776508
2012-02-08,1,0.0027028097741547885,0.002740971099132159,-0.014651758818910328,0.01740248994116975,0.9841230391437545
2012-02-10,1,0.0019345119940786897,0.002024747790867076,-0.014651758818910328,0.01740248994116975,0.9840691712653034
2012-02-14,1,0.0010306853328721313,0.0013094882225163562,-0.014651758818910328,0.01740248994116975,0.9831218015585828
2012-02-16,0,-0.0003088027546994585,0.00016614428352156952,-0.015979030432275804,0.017623288551202702,0.982220010666071
2012-02-21,1,0.000852208225993174,0.0010804495443647436,-0.015979030432275804,0.01740248994116975,0.9827905635624179
2012-02-23,0,-0.0003719482290042702,7.024534422168851e-06,-0.010225154726706953,0.01740248994116975,0.9839856246334516
2012-02-27,-1,-0.002288899983430022,-0.0015500638971632542,-0.010209634181410404,0.01740248994116975,0.9847076649137132
2012-02-29,0,-3.4077561395879415e-05,0.00020678116670568968,-0.009081512818762235,0.014909052293332474,0.9854984431217001
2012-03-02,-1,-0.001293522741307737,-0.0008908404694940514,-0.007463224536142795,0.014909052293332474,0.9857599868384308
2012-03-06,-1,-0.0014352929468771437,-0.001098571340797919,-0.005314047903158801,0.014909052293332474,0.9873978664294023
2012-03-08,0,-0.00015247875558615544,5.090434407846011e-05,-0.0073806199374304195,0.011644532626580842,0.9893972516562738
2012-03-12,-1,-0.0005076063768691177,-0.0002183164555225487,-0.008574491526224337,0.010389248662321679,0.9860776548695972
2012-03-14,1,0.000700750943002286,0.0007788932882157682,-0.007829986171747514,0.011644532626580842,0.9861716246829819
2012-03-16,1,0.0010578834510523846,0.0010895614982009273,-0.007402614075016753,0.010389248662321679,0.9876389013525192
2012-03-20,1,0.0012784574432605548,0.0013340326967899892,-0.007470611661789635,0.011627837119507583,0.9873334119439422
2012-03-22,1,0.001386491197823026,0.0014740905139801828,-0.007747899248402595,0.011627837119507583,0.9868983087554966
2012-03-26,1,0.0005832661460879781,0.0006501915155072346,-0.007747899248402595,0.011627837119507583,0.9860631638945527
2012-03-28,1,0.000581060875372406,0.0006598364769346944,-0.007747899248402595,0.013963399330529876,0.9834985758359975
2012-03-30,1,0.0009310162925779101,0.0009672671121880935,-0.007747899248402595,0.015119421768838818,0.9825537216964361
2012-04-03,1,0.001223604718533275,0.0012274414999918276,-0.007747899248402595,0.015610238068576563,0.9812348943708227
2012-04-05,1,6.1001005937507194e-05,0.0002698022567535524,-0.00959609494614298,0.019323122033784685,0.9771524971271395
2012-04-10,-1,-0.002155052873452061,-0.0017500469866692518,-0.007471129337157091,0.019323122033784685,0.9803109203560045
2012-04-12,-1,-0.0012536100571046635,-0.0009196083091898621,-0.007913800310054873,0.018564516648756055,0.9811226922860825
2012-04-16,-1,-0.0015453357511728636,-0.001180430506154186,-0.010089139052792696,0.018564516648756055,0.9796342569579025
2012-04-18,-1,-0.0019886953749613566,-0.0015309614731734199,-0.015152243679611583,0.018564516648756055,0.9797316869985979
2012-04-20,-1,-0.0024061553896556074,-0.001863929283849154,-0.015905818906386766,0.018564516648756055,0.9785473585543003
2012-04-24,-1,-0.0025806555860522513,-0.0020364522301911017,-0.015152243679611583,0.01741461365755413,0.9799710471248732
2012-04-26,1,0.00017372503248602153,0.0003276930356723153,-0.015152243679611583,0.014845260509590643,0.9823131956858528
2012-04-30,0,0.0,0.0,-0.010105359771347263,0.012443463229600922,0.9831722370940904
2012-05-02,0,0.0,0.0,-0.015905818906386766,0.005919190180307055,0.9839035914611933
2012-05-04,0,0.0,0.0,-0.019411449292038533,0.003972290954132194,0.9846714275933584
2012-05-08,0,0.0,0.0,-0.019411449292038533,0.009692615615240617,0.9826397585836079
2012-05-10,0,0.0,0.0,-0.019411449292038533,0.009692615615240617,0.9829807243169776
2012-05-14,0,0.0,0.0,-0.019411449292038533,0.010404989130590693,0.9825986793192185
2012-05-16,-1,-0.00016449685112143579,-1.754021665665369e-05,-0.024246426444592354,0.014637810497226438,0.9817306051487468
2012-05-18,0,0.0,0.0,-0.009965104607703478,0.016166358656676004,0.9822554823326372
2012-05-22,0,0.0,0.0,-0.014953230511451716,0.016166358656676004,0.9822225014597138
2012-05-24,0,0.0,0.0,-0.024246426444592354,0.014637810497226438,0.9809264316046283
2012-05-29,0,0.0,0.0,-0.024246426444592354,0.016166358656676004,0.9792681033821591
2012-05-31,0,0.0,0.0,-0.01577050193276081,0.017563972292251595,0.9794643498595998
2012-06-04,0,0.0,0.0,-0.009418375223206911,0.020779797927321826,0.9809392854519448
2012-06-06,0,-3.056195095053736e-05,0.0,-0.009418375223206911,0.015466570738446029,0.9837466042458111
2012-06-08,0,0.0,0.0,-0.009418375223206911,0.014637810497226438,0.9848536172927437
2012-06-12,1,0.000626597135364632,0.0006721386770691601,-0.009418375223206911,0.01181226833077114,0.9854613798148679
2012-06-14,-1,-0.00046192892844617033,-0.0003172569469758128,-0.008092500932554135,0.013455159942647728,0.9859331901782287
2012-06-18,0,0.0,0.0,-0.009418375223206911,0.008090588000556424,0.9865063754326466
2012-06-20,0,0.0,0.0,-0.008092500932554135,0.015656054293022723,0.9849087471212234
2012-06-22,-1,-0.00216123215791932,-0.0017707051451531352,-0.006629418322245577,0.015656054293022723,0.9863466194902436
2012-06-26,-1,-0.00014469364781556074,-4.2519255379991e-05,-0.009480003674602135,0.013052449915648096,0.9869477037987266
2012-06-28,1,0.0005447625798365065,0.0005821382786522298,-0.009480003674602135,0.013367492185836195,0.9859062243828898
2012-07-02,1,0.0017135327361113592,0.0019174739254639943,-0.015113601187070246,0.012423832555585799,0.9842289125569315
2012-07-05,1,0.0014029427268312787,0.0015396741095830366,-0.015113601187070246,0.012423832555585799,0.9838615831980719
2012-07-09,1,0.0017006875811524428,0.001921211055092085,-0.015113601187070246,0.0172988107579786,0.980336786151758
2012-07-11,1,0.0003176899817451582,0.0003260178350906026,-0.01414091499175561,0.0172988107579786,0.9810732023114632
2012-07-13,0,0.0,0.0,-0.01414091499175561,0.015509598425241824,0.981650039078289
2012-07-17,0,0.0,0.0,-0.011332020464934884,0.015509598425241824,0.9819940577031145
2012-07-19,0,0.0,0.0,-0.011332020464934884,0.01362374634505493,0.9831597957773618
2012-07-23,0,0.0,0.0,-0.011332020464934884,0.01362374634505493,0.9821135245907565
2012-07-25,-1,-0.0011970219460163685,-0.0008815902181229804,-0.009953561875046339,0.01362374634505493,0.9834415101093167
2012-07-27,-1,-0.00034714864769430664,-6.36447791285945e-05,-0.009953561875046339,0.011683323440580842,0.9849109361442994
2012-07-31,-1,-0.0020643725603517226,-0.0016661878236469922,-0.0075583743649743195,0.011683323440580842,0.9875600131274684
2012-08-02,-1,-0.0017606106501265326,-0.001449106186115096,-0.005007802339808961,0.011683323440580842,0.9877308760160968
2012-08-06,1,0.0010857192417583071,0.0011578057456509416,-0.005007802339808961,0.009094717291027331,0.9913954804386305
2012-08-08,1,0.000818608445681642,0.0008494031879076172,-0.0033904441157223625,0.009903025128446312,0.991296761892604
2012-08-10,1,0.0012157288858946637,0.001308835969232197,-0.0033904441157223625,0.009094717291027331,0.9919598786744442
2012-08-14,1,0.0015542729527320924,0.0016740402133896253,-0.0033904441157223625,0.009274197985099791,0.9920467272279636
2012-08-16,1,0.0023016853105635466,0.0025294538675611072,-0.0033904441157223625,0.010441467210663693,0.990390810870156
2012-08-20,1,0.0018462295782499041,0.002032996019408723,-0.0036006513188402284,0.009274197985099791,0.99150434747924
2012-08-22,1,0.0011838333890219464,0.0012657354621661095,-0.0031167554476041644,0.010441467210663693,0.9912536761212808
2012-08-24,1,0.001654269721969022,0.001818051487507029,-0.0036006513188402284,0.010541464753766959,0.9893603039770585
2012-08-28,1,0.0008830293106604278,0.0009217044094366751,-0.005303368487489635,0.010541464753766959,0.9881051353698542
2012-08-30,-1,-0.0009295863597886513,-0.0006048829258900867,-0.004482302483135039,0.012258573553090608,0.9872712679806553
2012-09-04,1,0.00044223470188941964,0.0005231042240987598,-0.00839470895657444,0.012258573553090608,0.9866696554309001
2012-09-06,1,0.0011341309039140596,0.0011492302520930788,-0.00839470895657444,0.012881190048262756,0.9866294489047868
2012-09-10,1,0.0007556575172402503,0.0008066014841953853,-0.005774643884124488,0.015673245103539735,0.9861599674614495
2012-09-12,1,0.0012137325932430744,0.001216739110192412,-0.009739570751854955,0.015673245103539735,0.9845328715016937
2012-09-14,1,0.002797185121752931,0.002972485685697631,-0.009739570751854955,0.011028311355078582,0.9866629752287029
2012-09-18,1,0.0033648400991963053,0.003760830927055895,-0.007362034333880996,0.012881190048262756,0.9861549240735388
2012-09-20,1,0.004195254490406441,0.004695509091127187,-0.007362034333880996,0.014069469470236406,0.9860671492309008
2012-09-24,1,0.005467327632089576,0.006232182129599579,-0.007362034333880996,0.011424404495736465,0.9874987128075668
2012-09-26,0,0.0,0.0,-0.0049840320336929705,0.013579787682384385,0.9887461391054667
2012-09-28,0,0.0,0.0,-0.007151067293795337,0.011400098572448811,0.9890558105904401
2012-10-02,1,0.004689076872380474,0.005366257083565953,-0.006336126813167297,0.01442295304957256,0.9870249857397194
2012-10-04,1,0.004558699288253497,0.005168892843545107,-0.006336126813167297,0.017572374470887976,0.9862768111083043
2012-10-08,1,0.004712897659136317,0.00528983104032631,-0.009404276681818211,0.014522505860069687,0.9849387719355167
2012-10-10,1,0.002116337353087154,0.0022474332712888864,-0.009404276681818211,0.014522505860069687,0.9865794518986231
2012-10-12,1,0.0020560560664946593,0.0021995136258293477,-0.009404276681818211,0.014522505860069687,0.986492808532243
2012-10-16,1,0.0033674063920064515,0.0037322242571785347,-0.011801312016198547,0.013579787682384385,0.9853017967161526
2012-10-18,1,0.004058157464648444,0.004503687534678093,-0.011801312016198547,0.014449588090206723,0.9844303906794634
2012-10-22,0,0.0,0.0,-0.011275902566242585,0.018325963813601888,0.9845029741529416
2012-10-24,0,0.0,0.0,-0.012782326588075288,0.018325963813601888,0.9838447896913005
2012-10-26,0,0.0,0.0,-0.012782326588075288,0.018325963813601888,0.9844586932725984
2012-11-01,0,0.0,0.0,-0.012782326588075288,0.012953988715661205,0.9866672406850575
2012-11-05,0,0.0,0.0,-0.012782326588075288,0.004691045819263506,0.9887973002721889
2012-11-07,1,0.003195622444097283,0.0033499191130704556,-0.00988512797630291,0.006743098145044523,0.9879784829221409
2012-11-09,1,0.0030725080847909293,0.0032764799208957864,-0.008562930017269845,0.006743098145044523,0.9879917078161976
2012-11-13,1,0.002356735371891283,0.0024328333165938836,-0.007196947757188172,0.006743098145044523,0.9883534165849851
2012-11-15,-1,-0.0009132653968680123,-0.0004932338250528299,-0.003913516042484592,0.006743098145044523,0.9906584999941174
2012-11-19,1,0.0009333908274406881,0.0010930378391124293,-0.003913516042484592,0.005389772946825339,0.9904009647000827
2012-11-21,0,0.0,0.0,-0.0065018044294230795,0.005389772946825339,0.9897056510305791
2012-11-26,0,0.0,0.0,-0.0065018044294230795,0.005389772946825339,0.9885107270820236
2012-11-28,0,0.0,0.0,-0.0065018044294230795,0.005389772946825339,0.9883054490160128
2012-11-30,0,0.0,0.0,-0.0065018044294230795,0.005389772946825339,0.9880992087992809
2012-12-04,0,0.0,0.0,-0.0065018044294230795,0.007112141963320157,0.9867281428592543
2012-12-06,0,0.0,0.0,-0.0065018044294230795,0.007112141963320157,0.9881129086299818
2012-12-10,1,0.04392742563541943,0.045578681094129415,-0.004311382866126627,0.011932873041895794,0.9635969765608823
2012-12-12,1,0.00023299377745094046,0.000359912425178753,-0.0033520831926181415,0.011932873041895794,0.9883210909681539
2012-12-14,-1,-0.0004679202230550723,-0.00021840929879330285,-0.0026461172507201793,0.011932873041895794,0.9883047583093874
2012-12-18,0,0.0,0.0,-0.004311382866126627,0.011932873041895794,0.9883815721285664
2012-12-20,0,0.0,0.0,-0.004311382866126627,0.009498947155188455,0.989730445715551
2012-12-24,0,0.0,0.0,-0.0026461172507201793,0.011932873041895794,0.9910205769200378
2012-12-27,1,0.0012499178131128333,0.0015323407361574203,-0.0017233840641764438,0.014210637385107073,0.9908115019138893
2012-12-31,1,0.0029864142937315657,0.0030606578295260273,-0.0017233840641764438,0.017324022682283027,0.9895353226936752
2013-01-03,1,0.0036618494793543206,0.0037781949233239103,-0.0023973426320032416,0.014210637385107073,0.99037348547275
2013-01-07,1,0.003404869998372035,0.0034895456626322717,-0.0017233840641764438,0.014210637385107073,0.9905063918475197
2013-01-09,1,0.003911454605573822,0.004091696254364471,-0.00349307995746018,0.01094313784710882,0.9900374362094996
2013-01-11,1,0.003785845822104859,0.003994303336432366,-0.00349307995746018,0.01690682962522712,0.9895138645300239
2013-01-15,1,0.003219824939060589,0.0033006442359189035,-0.00349307995746018,0.01690682962522712,0.98885482806459
2013-01-17,1,0.0039168050532753015,0.0040441334793056925,-0.00349307995746018,0.015211333546389955,0.990446410888386
2013-01-22,1,0.003643726894932571,0.0037573934905616464,-0.00349307995746018,0.015211333546389955,0.9882893444285856
2013-01-24,1,0.004431829366906412,0.004604920554387492,-0.004407749721510702,0.013771557921568495,0.9870368096575868
2013-01-28,1,0.00465638643729972,0.004860200966306361,-0.0059865422074276385,0.013771557921568495,0.9839153893555449
2013-01-30,1,0.004333601193623634,0.004485077269776757,-0.004407749721510702,0.013771557921568495,0.9851176417522606
2013-02-01,1,0.004306053553170973,0.004492926174635464,-0.004407749721510702,0.014697133074363296,0.9851034006217053
2013-02-05,1,0.004182092357357677,0.004302068083521923,-0.004407749721510702,0.014846340453291145,0.9844766438138534
2013-02-07,1,0.0036923115949138133,0.003746079166541746,0.001971443728491692,0.014846340453291145,0.985236713397826
2013-02-11,1,0.005472367004834789,0.00589266309166547,-0.001539275803058103,0.014697133074363296,0.9864346230948868
2013-02-13,1,0.005774982104122122,0.0061927524696816375,-0.001539275803058103,0.011231363214602776,0.9867493111606269
2013-02-15,0,0.0,0.0,0.00035453486798627735,0.011231363214602776,0.9858178340898043
2013-02-20,0,0.0,0.0,0.00035453486798627735,0.014846340453291145,0.9872160728694526
2013-02-22,0,0.0,0.0,-0.001539275803058103,0.011231363214602776,0.988195476702589
2013-02-26,0,0.0,0.0,0.00035453486798627735,0.011231363214602776,0.9909549736863871
2013-02-28,1,0.00340563902555964,0.003606114516716793,3.9987100196316964e-05,0.00871205438594574,0.9924650890489579
2013-03-04,1,0.0035798163924489366,0.003775311494655205,-0.005042431290016468,0.006198367043616137,0.9919086277959855
2013-03-06,1,0.005231590442011309,0.005706891548862355,-0.0071483527956299,0.0047434106956855335,0.9908081521869004
2013-03-08,1,0.003869679522113656,0.00404354029067788,-0.0071483527956299,0.006198367043616137,0.9899346541966967
2013-03-12,1,0.003967166730165629,0.004132362090130698,-0.0071483527956299,0.006888826128371916,0.9900492146247932
2013-03-14,1,0.004306030571771813,0.004554194539395939,-0.0071483527956299,0.007434481380601342,0.9891967489440138
2013-03-18,1,0.004089023361677158,0.004344212364646927,-0.008200320979150666,0.012159952649273907,0.9849306565181741
2013-03-20,1,0.0034658385131224882,0.0035988668660064376,-0.01154825552750531,0.007434481380601342,0.9838342675578813
2013-03-22,1,0.0017587537476758488,0.0018438725455853493,-0.007441429222901061,0.013189410886032198,0.9843682907489651
2013-03-26,1,0.002033076118899311,0.002130828468307732,-0.00892203958523934,0.01353516743197009,0.9839235033746202
2013-03-28,1,0.003484747981735869,0.003678870970203928,-0.00892203958523934,0.01353516743197009,0.98374047417362
2013-04-02,1,0.003284659671242864,0.0035306516636759155,-0.009945146299310493,0.01353516743197009,0.9835083800742053
2013-04-04,1,0.0014133544347970555,0.0014939170578942768,-0.009945146299310493,0.01353516743197009,0.9836135780081209
2013-04-08,1,0.0024517346256833147,0.002484645390761371,-0.009945146299310493,0.01353516743197009,0.9820193520312649
2013-04-10,1,0.0022921832008645495,0.002304604061478516,-0.009945146299310493,0.01729421586107297,0.9815429564934753
2013-04-12,1,0.001456656859295728,0.0016503390628933002,-0.009945146299310493,0.01255753925966868,0.9826698047868353
2013-04-16,1,0.0014913992509610649,0.0016274770384052401,-0.008833474302730487,0.008516100938790731,0.9866961544734031
2013-04-18,0,-0.00013715224189307402,0.00014410677417865247,-0.005452116678774709,0.008516100938790731,0.9876937414363364
2013-04-22,1,0.0009720597018808484,0.001150746028854194,-0.008833474302730487,0.005645362666894621,0.9880935245973552
2013-04-24,1,0.0007961118276180922,0.0009979315036644054,-0.009909084575376578,0.004836279976624006,0.9887368007482366
2013-04-26,1,0.0005022322511758308,0.0007377842950762631,-0.009909084575376578,0.004836279976624006,0.9889633183506289
2013-04-30,-1,-0.0005618233091618124,-0.0001973338443463416,-0.006922263470359869,0.005645362666894621,0.9876807584706533
2013-05-02,-1,-0.001980301719430906,-0.0014013243468595032,-0.006922263470359869,0.005645362666894621,0.9877923490305125
2013-05-06,-1,-0.0008872520467491745,-0.00038625405483338777,-0.01612990980123585,0.004836279976624006,0.9896156920162875
2013-05-08,-1,-0.0006080144735705814,-0.00011357783774314863,-0.01612990980123585,0.004836279976624006,0.9884101034348501
2013-05-10,-1,-0.0009700563916519354,-0.000412566435627721,-0.01612990980123585,0.005645362666894621,0.9875432891843237
2013-05-14,1,0.00019956852765466845,0.0005342112172706534,-0.019322581340758697,0.0009617288518919645,0.9860375654705277
2013-05-16,-1,-0.0006084154893224267,-0.000201887203050456,-0.01612990980123585,0.004353031034660806,0.9852549586624995
2013-05-20,-1,-0.0006354879424968975,-0.0002661429325249707,-0.014800461540808213,0.01387676619135446,0.9850208070760388
2013-05-22,-1,-0.001420016171902736,-0.0009515916674558652,-0.01612990980123585,0.01387676619135446,0.9838585740452058
2013-05-24,-1,-0.0014134524690193524,-0.000944754951235601,-0.02011383349557167,0.01387676619135446,0.9826418461402301
2013-05-29,-1,-0.0012357814400800562,-0.0008291948478781682,-0.01612990980123585,0.01387676619135446,0.9830305940501879
2013-05-31,-1,-0.0024510680494516128,-0.0018882798620536506,-0.012372991150542863,0.017060075396227205,0.9820096087231429
2013-06-04,-1,-0.0032107160144416915,-0.002589710042083716,-0.010652050999983335,0.017060075396227205,0.9830531030516647
2013-06-06,-1,-0.00251666088759329,-0.0019623586440936248,-0.010652050999983335,0.01387676619135446,0.9845066267485634
2013-06-10,-1,-0.0027826599224148076,-0.002190734115092496,-0.011130925094134615,0.014641885371000201,0.9827911517676022
2013-06-12,-1,-0.0036562643187759538,-0.003006447463834807,-0.009010755638131043,0.022575953864605015,0.9822677661554213
2013-06-14,-1,-0.0022259407516290637,-0.0017405604230918217,-0.009010755638131043,0.014641885371000201,0.9841163546508096
2013-06-18,-1,-0.0003780990534023558,-0.0001712305210217253,-0.009010755638131043,0.0060600270551322095,0.9853555329315508
2013-06-20,-1,-0.001666087759857144,-0.001333119869071015,-0.006436701605831445,0.0060600270551322095,0.9871883695793654
2013-06-24,-1,-0.0028702392219352516,-0.002382580631068448,-0.004496012494574301,0.009797848873157823,0.9869221421643302
2013-06-26,-1,-0.001863996478047073,-0.001494798192412364,-0.00739267388898282,0.0060600270551322095,0.9882809759817422
2013-06-28,-1,-0.001002579643971009,-0.0007439667995877518,-0.005897341022782037,0.004952396171391482,0.9900563145436184
2013-07-02,-1,-0.0020134155612377986,-0.001613654665493948,-0.005345084532238951,0.009686593528338327,0.9886299357057469
2013-07-05,-1,-0.0011714827449841806,-0.0009073805512832807,-0.005345084532238951,0.014289114542164675,0.9847994215267022
2013-07-09,1,0.00016451736449302898,0.0002112811043938514,-0.005345084532238951,0.012275259554355296,0.9872676531437836
2013-07-11,1,0.000671341824738864,0.0006827546251702893,-0.005511500353358513,0.012275259554355296,0.9878325291921213
2013-07-15,1,5.3393411270757246e-05,0.00017257625412285462,-0.005511500353358513,0.012275259554355296,0.9878272577141568
2013-07-17,1,0.0007793518627106863,0.0008091982195833555,-0.010101054702158595,0.012275259554355296,0.9865016852856635
2013-07-19,1,0.00023754778877474076,0.000306035680413692,-0.011622725769778892,0.012275259554355296,0.985691869678185
2013-07-23,1,0.00016085005128770654,0.00023408941196055458,-0.011622725769778892,0.013176956411086824,0.9843677077775078
2013-07-25,0,-1.3078132598735132e-06,6.265888578180109e-05,-0.010101054702158595,0.016484110036915144,0.9841436466633342
2013-07-29,1,0.0001635489810625552,0.00017436393417282885,-0.012505382951092037,0.016484110036915144,0.9830644272913796
2013-07-31,1,0.0012175525170086397,0.0013542851064241345,-0.01671952136102639,0.01161184333733448,0.9822648223073239
2013-08-02,1,0.0031554677619750025,0.003546420750609014,-0.018178884426925602,0.006503628779122263,0.9840938056939548
2013-08-06,1,0.0028023764778226886,0.0031566968017304902,-0.018178884426925602,0.006503628779122263,0.9851912300367378
2013-08-08,1,0.002927143943899588,0.0033034514097195523,-0.018178884426925602,0.006503628779122263,0.9843951592966012
2013-08-12,1,0.003002545157568589,0.0033901203276346372,-0.018178884426925602,0.011212620965750549,0.9833772374774964
2013-08-14,1,0.0015401148543255365,0.001673612533808986,-0.015842040479891285,0.01432639170931683,0.9843965009244391
2013-08-16,1,0.0013275307310888316,0.0014672223833881587,-0.009419079613311381,0.01432639170931683,0.9848508497046835
2013-08-20,1,0.0018517755509295064,0.0020571281485357302,-0.007203492768469117,0.01432639170931683,0.9863345467342246
2013-08-22,1,0.0017269402348210235,0.001888189475427473,-0.009419079613311381,0.011115110359054766,0.9861836805147348
2013-08-26,1,0.0011193935922674564,0.0011603479937787415,-0.009419079613311381,0.01241808676381514,0.9857965302560736
2013-08-28,1,0.00038092790476760695,0.0003859721609244009,-0.0021067645249591834,0.01241808676381514,0.9877778567849618
2013-08-30,1,0.0002750888387771652,0.00027761609102175866,0.0006904567266325978,0.010060627988998573,0.9892583591870596
2013-09-04,1,0.0006225170442416812,0.0006928678680817639,0.0006904567266325978,0.01241808676381514,0.9883908221254505
2013-09-06,1,0.001115877625791608,0.0012257361899883517,-0.0010207544385595466,0.010060627988998573,0.9895337866644809
2013-09-10,1,0.0011666561690987167,0.0012058213794728205,-0.008961104299191915,0.008769348076315768,0.9888945755975534
2013-09-12,1,0.0017601372684662533,0.0019368355770360804,-0.0057030740399930035,0.008769348076315768,0.9886712157755099
2013-09-16,1,0.0020865456187985276,0.002312157879901513,-0.010327149460077609,0.008360124833913634,0.98856091818275
2013-09-18,1,0.002803597730143143,0.0031134059575218063,-0.01924591441081362,0.00392174966405008,0.9885328248736567
2013-09-20,1,0.0018563322402423285,0.0020013569477321273,-0.012920999007161189,0.00392174966405008,0.9888081234512104
2013-09-24,1,0.0013294399736986525,0.0013685938584394168,-0.00832903547285285,0.004652827524949077,0.9891944085517043
2013-09-26,1,0.0021091930128802564,0.0023319071341811664,-0.00832903547285285,0.006480953968830338,0.98811910646972
2013-09-30,1,0.0024424018041801126,0.002734877258894333,-0.00832903547285285,0.006480953968830338,0.9881747760890098
2013-10-02,1,0.0031435169226634776,0.0035349340541394295,-0.009219405135509885,0.006480953968830338,0.9882075026187799
2013-10-04,1,0.0025626531855811856,0.0028940477837217145,-0.007761208844710667,0.009647704133636486,0.9874920445579501
2013-10-08,1,0.0010040714426917128,0.0010913370516166757,-0.005947412618758089,0.009647704133636486,0.9887318064050404
2013-10-10,1,0.0015885572714313578,0.00173489957979239,-0.007761208844710667,0.006480953968830338,0.9892223222673061
2013-10-14,1,0.0013108029410674148,0.0013954595851428794,-0.006244202506310435,0.006099370766598187,0.9895449205743807
2013-10-16,1,0.0007774349889630563,0.0007935777462240316,-0.004839844291863068,0.012018696726484056,0.9893795444429418
2013-10-18,1,0.00013180663591374703,0.00020482647312594225,-0.0006557247208673173,0.016809194142796274,0.9883475386299306
2013-10-22,1,0.0004236789336396688,0.000499910567766286,-0.005642302958882157,0.014158889623189246,0.988041442886851
2013-10-24,1,0.0006511958211851256,0.0007469027263442552,-0.005642302958882157,0.014158889623189246,0.9879701002894297
2013-10-28,1,0.0009374939536320226,0.0009656164983855471,-0.008669836818557104,0.014158889623189246,0.9871969828158298
2013-10-30,1,0.0009018922214059378,0.0009386764930146856,-0.00873734809318475,0.01249347430515137,0.9875092427216704
2013-11-01,1,0.0010736773017714484,0.0011496443895934452,-0.008814132085550045,0.008230211107876945,0.9883410740457272
2013-11-05,1,0.0012239843113510211,0.00122749246267398,-0.008814132085550045,0.008230211107876945,0.9882507376443609
2013-11-07,1,0.0011204179425691446,0.0011474602358243044,-0.00873734809318475,0.011616146532368306,0.9881735192494209
2013-11-11,1,0.0006245643931465092,0.0007201644423893871,-0.008814132085550045,0.012951239040842003,0.9864402198934735
2013-11-13,1,0.0008963310914873915,0.0010090684335244443,-0.009356589941249886,0.011092943415310884,0.986987511548808
2013-11-15,1,0.002031993675109744,0.002101020042285973,-0.009356589941249886,0.008204805876317892,0.9875312342254979
2013-11-19,1,0.0012400735800501045,0.0012480700937376199,-0.008814132085550045,0.009244058853065548,0.986844400398197
2013-11-21,1,0.001640186827320203,0.0016487924652716297,-0.01112166646247438,0.008204805876317892,0.9865233729888426
2013-11-25,1,0.0010105263400368874,0.0010656103854925951,-0.01112166646247438,0.009244058853065548,0.9860492801959393
2013-11-27,1,0.0010368954415173443,0.0010686871534046527,-0.01112166646247438,0.009244058853065548,0.9866687734938976
2013-12-02,1,0.0006158489382895836,0.0006738700390796055,-0.008303085919266033,0.009964116850105977,0.9872715285636249
2013-12-04,1,0.00024807232477807033,0.0003444843642004274,-0.007214060769212441,0.009964116850105977,0.9877866426162066
2013-12-06,1,0.0007997145612915889,0.00083162995691133,-0.01077722837745203,0.008204805876317892,0.9876298503826151
2013-12-10,1,0.000946886270507014,0.0009707542103527358,-0.008303085919266033,0.008204805876317892,0.9890973560124611
2013-12-12,1,0.0006775899222846393,0.0007412325688726189,-0.008241192457788826,0.008972097464375224,0.9887611926737876
2013-12-16,1,0.00026248765713275267,0.0004045451829186854,-0.008241192457788826,0.009682790871338703,0.988687573159089
2013-12-18,1,0.0013404301694145584,0.001372753830965504,-0.010591547993020409,0.007215690150716612,0.9905365334901189
2013-12-20,1,0.0005547967375473204,0.000628546378138483,-0.00452700073739486,0.009682790871338703,0.9912306032371427
2013-12-24,1,0.003373921015641706,0.0037833398269149776,-0.00805281331934653,0.0060992608103601935,0.9900768209976871
2013-12-27,1,0.002996488552872309,0.003320151894494583,-0.00805281331934653,0.006650854900812517,0.990271192782609
2013-12-31,1,0.003386496569410426,0.003765452077571202,-0.009697616037182498,0.0037449207238773644,0.9896556805683108
2014-01-03,1,0.0033385577109087588,0.0037107625486493753,-0.010591547993020409,0.0060734584259846645,0.987979573688338
2014-01-07,1,0.0016895983850890148,0.0017715288822134317,-0.007822280351821365,0.00977249465757535,0.9886377958170518
2014-01-09,1,0.0013488280976570804,0.0013628592589935782,-0.0055489652152415124,0.014329014664030474,0.9875212916662259
2014-01-13,1,0.00171138042667981,0.0017807112699965123,-0.0055489652152415124,0.011062629834991016,0.9878103738782109
2014-01-15,1,0.0022504812863784755,0.00239997018086139,-0.005768383824374011,0.008040305233091792,0.98809039501167
2014-01-17,1,0.0013139345851962193,0.0013143111428673008,-0.005768383824374011,0.009824526379834742,0.9877217408073553
2014-01-22,1,0.0005536592478033835,0.0007423016856241116,-0.005942407099421893,0.009824526379834742,0.9878031771665611
2014-01-24,-1,-0.0016777038121619009,-0.0012275808150088885,-0.011128201965124393,0.009824526379834742,0.9877426460681593
2014-01-28,-1,-0.0013752173056094748,-0.0009673786075356356,-0.011128201965124393,0.012292960893696029,0.9867714719358022
2014-01-30,-1,-0.001269516553778256,-0.000917781279346103,-0.015764570803005216,0.012292960893696029,0.9862777223608822
2014-02-03,-1,-0.0016348471632683448,-0.0012919718533918173,-0.011649057406016686,0.013414023544640715,0.9867751715181566
2014-02-05,-1,-0.0005058177948277233,-0.00030172399009537314,-0.011649057406016686,0.013401659238432732,0.987538248812014
2014-02-07,1,0.0010284405383579867,0.0010322127169754452,-0.011649057406016686,0.010309029742860992,0.9892131439963625
2014-02-11,1,0.001124504583221059,0.0012064707417825513,-0.011180301189811464,0.010309029742860992,0.9895239690741916
2014-02-13,1,0.0006195217884304972,0.0006587391419549077,-0.014242639538216095,0.010309029742860992,0.9888354084045411
2014-02-18,1,6.872678372395527e-06,0.00012266617322938207,-0.011180301189811464,0.01223643797236185,0.9891095769055844
2014-02-20,1,0.0004065167519669573,0.00047983278935828086,-0.011214676536238139,0.008271072771502921,0.9893785580210822
2014-02-24,-1,-0.0013490195755372532,-0.0010765025550342235,-0.010327232261220553,0.008271072771502921,0.9904690475946415
2014-02-26,1,0.0003358791702233856,0.0003665896760421429,-0.010994135971544841,0.0039782222925471645,0.9905111939628221
2014-02-28,-1,-0.0009411436262473152,-0.0007098753190343067,-0.010825845032079737,0.006568074486624703,0.990433959809878
2014-03-04,-1,-0.0017113203815889851,-0.001315056555256113,-0.010825845032079737,0.007592109978938679,0.9907165510847141
2014-03-06,-1,-0.000634359405610067,-0.0004143553095249402,-0.012386848244842371,0.006568074486624703,0.990629927557981
2014-03-10,-1,-0.0010744327889319122,-0.0007977040644862265,-0.013111557122850443,0.006568074486624703,0.9894162502489898
2014-03-12,-1,-0.00211733792722751,-0.0016727995679269296,-0.012386848244842371,0.007592109978938679,0.9883988617575528
2014-03-14,-1,-0.002909545455904096,-0.0023552195970937724,-0.012386848244842371,0.007592109978938679,0.988375835171458
2014-03-18,-1,-0.001741707198358938,-0.001369909051318882,-0.012386848244842371,0.009469787176517513,0.9877536202156091
2014-03-20,-1,-0.0016211106326515894,-0.0013203881468403789,-0.012386848244842371,0.009469787176517513,0.9877420965000432
2014-03-24,-1,-0.0023451274766593594,-0.0019548383045220412,-0.012158231480446122,0.010108202207773486,0.9874170688141514
2014-03-26,-1,-0.00303556100417165,-0.0025675348833679927,-0.009567140743956266,0.010108202207773486,0.9879151112805961
2014-03-28,-1,-0.0024625348739338916,-0.0020953542294209117,-0.009567140743956266,0.009583239695813196,0.9873989114967006
2014-04-01,-1,-0.0018464295363643584,-0.0015351643143281407,-0.009567140743956266,0.008102644644423519,0.9884003154016944
2014-04-03,-1,-0.0027168355765355414,-0.0022749945682934173,-0.005777564577093158,0.010029274011002603,0.9859821543918558
2014-04-07,-1,-0.003104809982911966,-0.0026627667396149778,-0.006966857341991144,0.010029274011002603,0.9865937355817337
2014-04-09,-1,-0.0010335301597476543,-0.0008970242697830713,-0.009223511348720626,0.008102644644423519,0.9876372103513898
2014-04-11,-1,-0.0016687320112436597,-0.0014987117066330587,-0.005194989111063224,0.010029274011002603,0.9874888296397052
2014-04-15,-1,-0.0014876206680887816,-0.0012794346037242159,-0.006966857341991144,0.007076533915253743,0.9875099162993951
2014-04-17,-1,-0.000972852586018822,-0.0008885312563011197,-0.009223511348720626,0.007076533915253743,0.9868688678079696
2014-04-22,-1,-0.0007381502739324944,-0.0006345832113384704,-0.009223511348720626,0.0036321513194139104,0.9873200649352409
2014-04-24,-1,-0.0008036920289126947,-0.0006864362521397192,-0.007480221989481996,0.0023766927972857675,0.9879295644806236
2014-04-28,-1,-0.001791204874535116,-0.0015345873359371583,-0.004811164713181807,0.00786260844006625,0.9877391498724002
2014-04-30,-1,-0.0024216511476314855,-0.0020807382402125048,-0.007480221989481996,0.00786260844006625,0.9869246798196474
2014-05-02,-1,-0.00029619422596996936,-0.00023251288609337555,-0.007480221989481996,0.0030196848149739233,0.9900256145916732
2014-05-06,-1,-0.0010012399913800318,-0.000865769841902037,-0.005294220388799483,0.0030196848149739233,0.9908259932662447
2014-05-08,-1,-0.0011853276788083603,-0.0010278488800603126,-0.004343707316838046,0.006007736686086519,0.9906224942710228
2014-05-12,-1,-0.00011991463097290171,-8.867895756025715e-05,-0.005294220388799483,0.004483914227792053,0.9917620541755142
2014-05-14,-1,-0.00032762733355114416,-0.0002863018456721219,-0.005294220388799483,0.004483914227792053,0.9922609659755888
2014-05-16,-1,-0.0019078449472941267,-0.001673783688443581,-0.0049126334998118235,0.004483914227792053,0.993133481401337
2014-05-20,-1,-0.0008466998491832196,-0.0007904939126741069,-0.0049126334998118235,0.004483914227792053,0.9934015068956473
2014-05-22,-1,-0.0005549252162126246,-0.0005442468393847475,-0.0049126334998118235,0.004483914227792053,0.9933291838293755
2014-05-27,1,0.0007577690427250619,0.0009451215758117448,-0.0049126334998118235,0.0032455162799578585,0.9941376484713944
2014-05-29,1,5.8038028246406843e-05,0.00015243547678305165,-0.004033731611541247,0.004483914227792053,0.994855155844491
2014-06-02,-1,-0.00013863632815196028,-0.00011046016520971694,-0.004033731611541247,0.006970604379019604,0.9942037812716896
2014-06-04,-1,-0.0002657531027639796,-0.00024567963230007575,-0.0029325803238186418,0.00788104995230527,0.9936154419157259
2014-06-06,1,0.00029641950447476,0.0004009043993156169,-0.004223373672532506,0.00788104995230527,0.993221330258025
2014-06-10,1,0.0003011742591433423,0.00044293161094860814,-0.0051734952780138795,0.00788104995230527,0.9926939589417254
2014-06-12,-1,-0.0005715085655333441,-0.0005627299269994185,-0.004601989132085006,0.00788104995230527,0.9919072802497391
2014-06-16,-1,-0.00012641986886631596,-4.0169503808697995e-05,-0.004601989132085006,0.00788104995230527,0.9918146301101103
2014-06-18,-1,-0.0003956275390489204,-0.0003641908275457793,-0.0075996061430462945,0.006970604379019604,0.9911123019274577
2014-06-20,-1,-0.00034563158046484546,-0.00033893689381214514,-0.0075996061430462945,0.008002420349507988,0.9905173061484074
2014-06-24,1,6.463205412228166e-05,0.00010063210135295425,-0.0075996061430462945,0.007071475022282725,0.9906796122838892
2014-06-26,-1,-0.0002595917039319261,-0.00021863796047938557,-0.008517456316752187,0.007071475022282725,0.9905650079928635
2014-06-30,1,0.0007788574178196389,0.0009251014063654528,-0.011594341329171247,0.005633883352467572,0.9899061949652195
2014-07-02,1,0.0009144743000212113,0.0011341069563080776,-0.012361370520414517,0.005059951767779754,0.9898756948285836
2014-07-07,1,0.0006958712316728268,0.0008545894252921184,-0.009408427234995666,0.005633883352467572,0.9896493003666608
2014-07-09,1,0.00038461773402104893,0.0005156409480918499,-0.006590290185045353,0.006397464057930497,0.990105611682367
2014-07-11,-1,-0.00039588800978142133,-0.0003923624003318177,-0.005651602362301018,0.0071622399106918335,0.9899807576211268
2014-07-15,1,5.099133189495641e-05,0.0001522867888795736,-0.006590290185045353,0.0071622399106918335,0.989940674983219
2014-07-17,-1,-0.001094540673107563,-0.0009825886157941953,-0.005651602362301018,0.012773854035249568,0.9885279020613807
2014-07-21,-1,-0.00016618956662934906,-0.00010885926104092523,-0.005651602362301018,0.014071555939465012,0.9881555312415717
2014-07-23,-1,-0.00039206072404159015,-0.00038977157892300986,-0.004601980921578571,0.017075319633124145,0.9874490969308637
2014-07-25,-1,-0.000544319512695677,-0.000538156569919185,-0.0028460035891633186,0.017075319633124145,0.9878083888570462
2014-07-29,-1,-0.0006201097148297939,-0.0006088452916270377,-0.0028460035891633186,0.017075319633124145,0.9890139918138944
2014-07-31,-1,-0.001273008522756373,-0.0011952765806508038,-0.0013005709942690356,0.017075319633124145,0.9895496874108506
2014-08-04,-1,-0.00038988004627703776,-0.00037433132850632023,-0.0013005709942690356,0.010865798932334147,0.9911678252755352
2014-08-06,-1,-0.00018686738994725213,-0.00016282820296799957,-0.0013005709942690356,0.009359586759484732,0.9915874605801962
2014-08-08,1,0.001238511989158664,0.0014831942229870758,-0.0013528086083228435,0.0062117679474087365,0.9933009370343361
2014-08-12,1,0.0003723660091565113,0.0004786933640140805,-0.0027415415501040046,0.0062117679474087365,0.9928598083672368
2014-08-14,1,0.001661756721919324,0.0019096274393880022,-0.003004345469492964,0.0037984918311564485,0.9939267151939328
2014-08-18,1,0.0015596274586386668,0.0017577021599216888,-0.004643286487945835,0.002586960846688544,0.9942669475153014
2014-08-20,1,0.002125960448882175,0.0024057451178724357,-0.004643286487945835,0.0018106879621575102,0.9939513307429301
2014-08-22,1,0.0022934027692805684,0.002618378216535433,-0.006639781845386375,0.0013851452836595127,0.9920440093774734
2014-08-26,1,0.0019206154081142846,0.0021754881028145812,-0.009637734552629914,0.0018172540883875771,0.9918259517015604
2014-08-28,1,0.0014149476569687875,0.0015536405130591102,-0.009637734552629914,0.001996743353708558,0.9920899275392796
2014-09-02,1,0.0018367935912428353,0.002091494847165984,-0.009637734552629914,0.0013604881592343355,0.9912046439292458
2014-09-04,1,0.0014846929462933461,0.0016250756755262997,-0.010013963362596313,-0.00044022052553525167,0.9904537366805669
2014-09-08,1,0.0017884457741899652,0.002013152769176854,-0.010013963362596313,-0.00044022052553525167,0.9891317325191006
2014-09-10,1,0.0013582661760126627,0.0015127692104591763,-0.009738665139703447,0.0016291504393112237,0.989413052632525
2014-09-12,1,0.001262327336732307,0.0014421926876442962,-0.01105521732928952,0.0016291504393112237,0.9882361639090402
2014-09-16,1,0.0007899854046597687,0.0009067395368533604,-0.013587287759496691,0.00202337347242486,0.987851848020305
2014-09-18,1,0.0008276833841028234,0.0009033997996389554,-0.013587287759496691,0.002558857601570335,0.9886943421711347
2014-09-22,-1,-0.0003847788291813806,-0.0002872312300988248,-0.009329886115754525,0.004410285714930982,0.9889771473915947
2014-09-24,1,0.0007045036035712546,0.0008505433786956376,-0.009272205506128756,0.0049846677800523456,0.9874830680568213
2014-09-26,1,9.933737617986904e-05,0.00011231126405182343,-0.009272205506128756,0.008291279455050708,0.9868946538476692
2014-09-30,-1,-0.0005427337023339136,-0.0004656441198974512,-0.009272205506128756,0.01043216361199522,0.9862976185045637
2014-10-02,-1,-0.0006381655560706381,-0.0005990602476494845,-0.009272205506128756,0.01043216361199522,0.9862245505680844
2014-10-06,-1,-0.0007069540536550921,-0.000602027266018497,-0.010204626018669203,0.01043216361199522,0.9852040526552672
2014-10-08,-1,-0.0008388504540942554,-0.0006862345056882337,-0.010204626018669203,0.01043216361199522,0.9857284698227057
2014-10-10,-1,-0.0023185961326932843,-0.002012240535872035,-0.0037364692407569756,0.014814167596201014,0.9866264703113016
2014-10-14,-1,-0.002881588119449029,-0.0025156864098451696,-0.0030733850588009364,0.014814167596201014,0.9875148731577846
2014-10-16,-1,-0.0017364044063295542,-0.0015605277496378207,-0.0037364692407569756,0.014814167596201014,0.9879517157380285
2014-10-20,-1,-0.0012436761371405938,-0.0010904082052284438,-0.00470654746617332,0.00946139029954534,0.9887680395361164
2014-10-22,-1,-0.00043070852488102544,-0.00037978229016492036,-0.0037364692407569756,0.00946139029954534,0.9895798986550575
2014-10-24,-1,-0.0002150291865334369,-0.0001755476822985225,-0.0037364692407569756,0.01680758845973764,0.988538309096275
2014-10-28,1,0.0005870393832864499,0.0006746280581360977,-0.00377354671461963,0.015389637921121007,0.9889208444256445
2014-10-30,1,0.00011724737010561347,0.00012237661068332926,-0.00377354671461963,0.015389637921121007,0.9890787002385374
2014-11-03,1,0.0006457742475890828,0.0006805535187710629,-0.00377354671461963,0.012603484601990698,0.9912145270902244
2014-11-05,1,0.00034549801440093066,0.00035480849508945204,-0.0012534729015425013,0.013080650299648982,0.9908721318464481
2014-11-07,1,0.0011068216904678298,0.0012158087426721034,-0.0012534729015425013,0.011950842124167613,0.9915135104577464
2014-11-11,1,0.0010447817552032522,0.0011417618252199074,-0.005298211522109764,0.011950842124167613,0.9900593658016104
2014-11-13,1,0.0011213990781746524,0.0012543887579659352,-0.006776635086911542,0.013080650299648982,0.9884473860138083
2014-11-17,1,0.0009166497677639997,0.0010247531857052754,-0.006776635086911542,0.013080650299648982,0.9869831809293305
2014-11-19,1,0.0021916092448776656,0.00249768425341647,-0.006776635086911542,0.014685051578206466,0.9864698268892491
2014-11-21,1,0.0029728418132879885,0.003366380131266092,-0.006776635086911542,0.011950842124167613,0.9877779993409375
2014-11-25,1,0.003080670130365234,0.0034868016358502495,-0.004367046205965588,0.010183138441058611,0.9885539441591898
2014-11-28,1,0.0027044542881495405,0.0030227121419599975,-0.0029269040884173404,0.007479339837079499,0.9892481700258605
2014-12-02,1,0.002212991271078095,0.0024033721456688003,-0.0022644682679256187,0.007479339837079499,0.9895116888756694
2014-12-04,1,0.0026345755323789726,0.0028846891794367334,-0.0031260874515959642,0.005280068309651247,0.9894879743445292
2014-12-08,1,0.0027127280240638054,0.0029444617015033465,-0.003953399779628549,0.005280068309651247,0.9890332957385533
2014-12-10,1,0.0019522617924966875,0.002093261229020107,-0.0031260874515959642,0.009580819817708445,0.9895180966563204
2014-12-12,1,0.0019151799172004243,0.002045300628833426,-0.0031260874515959642,0.009580819817708445,0.9905542535426626
2014-12-16,1,0.00017833747109652825,0.0002908383813952944,-0.002776857861315201,0.013086799474994096,0.989445609854576
2014-12-18,1,0.001201893671437551,0.0012343369401392637,-0.002776857861315201,0.009580819817708445,0.9900057275764655
2014-12-22,1,0.0006844624606298978,0.0008248531222202881,-0.0031635300878335966,0.009580819817708445,0.989800979384498
2014-12-24,1,0.0011360351068807892,0.0011845672614720405,-0.004065727688341446,0.009580819817708445,0.9894894617320503
2014-12-29,1,0.0015231306858018627,0.0015432193145038567,-0.005441647144079794,0.009580819817708445,0.9888247034244286
2014-12-31,1,0.0017867592700605787,0.0019025637226144619,-0.006728720277116155,0.013169018051361203,0.9867984666353106
2015-01-05,1,0.0012253041347228548,0.0012394087289488902,-0.006728720277116155,0.014296230558900242,0.9861999023874016
2015-01-07,1,0.0018965175194039455,0.0020919735975585066,-0.006771880464747266,0.014296230558900242,0.9863512530480119
2015-01-09,1,0.0029561246917666193,0.0033194304727169562,-0.006771880464747266,0.011113200512584045,0.9869993592722862
2015-01-13,1,0.0036458833429667595,0.004145600649775498,-0.006771880464747266,0.011113200512584045,0.9870786018396603
2015-01-15,1,0.004071215502096244,0.004626995944759496,-0.005781876293086094,0.011113200512584045,0.9894687690911026
2015-01-20,1,0.005092408431318408,0.005771027240565339,-0.006760621421034061,0.007241211971361028,0.9899367061537466
2015-01-22,1,0.0049349906883919305,0.005581457458824863,-0.005781876293086094,0.011113200512584045,0.9877018492362388
2015-01-26,1,0.004149590580037232,0.0046937937095102335,-0.005578290752645849,0.011113200512584045,0.9877607093336709
2015-01-28,1,0.003679149872572342,0.0041695009737757124,-0.004578036892021385,0.013251080468791405,0.9884873865422741
2015-01-30,1,0.003643254255295556,0.00412551315676879,-0.004578036892021385,0.010831467512896365,0.989954015454116
2015-02-03,1,0.004030001573812543,0.004536014208098809,-0.004578036892021385,0.007179622186277447,0.9899527625404556
2015-02-05,1,0.003031044878532964,0.003362400931544133,-0.003720480668225805,0.007179622186277447,0.9896755250604138
2015-02-09,1,0.002576420879972693,0.002814838065219964,-0.003720480668225805,0.010646698157645622,0.9884845606077495
2015-02-11,1,0.0030774786017321023,0.0034053682459142644,-0.006406029241351507,0.009146158199661998,0.9881233933924617
2015-02-13,1,0.003061879360633188,0.003325921214170343,-0.008748548790035693,0.008734919672709458,0.9882780970025099
2015-02-18,1,0.002599184469019592,0.0027879077436136334,-0.008911606061438274,0.009146158199661998,0.9877007849864761
2015-02-20,1,0.004373588038690234,0.004780485832258653,-0.008911606061438274,0.008734919672709458,0.9900007395465716
2015-02-24,1,0.0037706146437200922,0.0040645731700851276,-0.008911606061438274,0.008734919672709458,0.9904626829189176
2015-02-26,1,0.003530998234620586,0.0037514917981138975,-0.008911606061438274,0.007006477692394276,0.9903355102289106
2015-03-02,1,0.0035266564407452055,0.00376174754848317,-0.005733601261403241,0.007006477692394276,0.9904100968420474
2015-03-04,1,0.0031113303366026,0.003284155530034281,-0.0065658009488932184,0.007006477692394276,0.9905698891255685
2015-03-06,1,0.0012093491149885987,0.0013553788467237588,-0.0065658009488932184,0.007006477692394276,0.9915833664638679
2015-03-10,1,0.00046907554862839467,0.0007395081606909275,-0.0065658009488932184,0.007006477692394276,0.9921536280409035
2015-03-12,1,0.0002142678010640072,0.000499211087902945,-0.0050358828852726245,0.0063182814397778906,0.9928099810079631
2015-03-16,1,0.00041013784231667277,0.0006386396819234954,-0.0050358828852726245,0.005750667137701599,0.9929898458669295
2015-03-18,1,0.0007566597255997773,0.0009155737663800168,-0.006372666606267204,0.005300023298261359,0.9923272239357068
2015-03-20,1,0.0005805399815342177,0.0007591650248350365,-0.006372666606267204,0.00473691991098544,0.9926462796152619
2015-03-24,1,0.000707253960206156,0.0008537665803208373,-0.006372666606267204,0.005750667137701599,0.9913665028951113
2015-03-26,1,5.713032033997109e-05,0.0002954270774031723,-0.008438015575729981,0.005750667137701599,0.9906699457648752
2015-03-30,1,0.001266396188778485,0.00135392804536152,-0.008438015575729981,0.00473691991098544,0.9912753468133497
2015-04-01,1,0.0008401591111501291,0.0009977177684279252,-0.01011922711588506,0.004169508282138552,0.990652486691333
2015-04-06,1,0.0007452635917798735,0.0008900996839151635,-0.008464436509038139,0.005706910674052768,0.9898706619202469
2015-04-08,1,0.0005584574225449237,0.0007279529475540408,-0.008464436509038139,0.00473691991098544,0.9901145570325659
2015-04-10,1,0.00030239582985380016,0.000522693434689916,-0.008464436509038139,0.008728943202102208,0.9881377054165273
2015-04-14,0,-0.00015016671469993224,0.0001309368928958973,-0.009697588012828615,0.008728943202102208,0.9879353487145596
2015-04-16,-1,-0.001037658174461695,-0.000698173349352324,-0.0076443084623140515,0.010646334435226508,0.9892233154799567
2015-04-20,-1,-0.00044507690283125277,-0.00023061608068824255,-0.0076443084623140515,0.013720976139444108,0.9886658811147114
2015-04-22,1,0.0004832992235526664,0.000586586877948688,-0.0076443084623140515,0.011062187128241922,0.9890367921254494
2015-04-24,0,-0.0001136636907041387,5.381456221774356e-05,-0.007273409452420455,0.011062187128241922,0.989840234548623
2015-04-28,-1,-0.0006232125823226149,-0.0003824649190918171,-0.007273409452420455,0.015166155273484569,0.989355759001878
2015-04-30,-1,-0.001273251074731383,-0.0009733600144109845,-0.006496545713701732,0.015166155273484569,0.9897472538011464
2015-05-04,-1,-0.00018314138049029986,-2.4575215165796734e-05,-0.006496545713701732,0.012421959700570813,0.9905493952668868
2015-05-06,-1,-0.0014020898123108937,-0.0010579021815412452,-0.003839222822329102,0.012421959700570813,0.9911599162560066
2015-05-08,1,7.572046181333718e-05,0.0002521235124695938,-0.005471147674476328,0.005022091027806477,0.9932489628665196
2015-05-12,-1,-0.001506768884112818,-0.001083257396246187,-0.0033681228993248423,0.010213328955602077,0.9924726292022015
2015-05-14,-1,-0.0003616952347212371,-0.0001457048104672329,-0.003839222822329102,0.005475348551916106,0.9925357168064257
2015-05-18,0,-3.179191473748116e-05,0.00014751555412343147,-0.005471147674476328,0.005266546518951382,0.9923691336128442
2015-05-20,1,6.226658349966802e-05,0.0002392389220934022,-0.005471147674476328,0.004296011763769047,0.9927829503278436
2015-05-22,0,-0.00018535847645934707,1.1208758015221953e-05,-0.004072301773438771,0.007164844063060951,0.9924929760915673
2015-05-27,1,0.00013315115177436768,0.00030539514475867084,-0.005888804699420684,0.006136081505914847,0.9928166501020053
2015-05-29,-1,-0.0008170616319324727,-0.0005307098945100468,-0.004913274572830723,0.006677478117758156,0.9930716539510759
2015-06-02,-1,-0.0005468277143128712,-0.0002837945813790729,-0.005888804699420684,0.006677478117758156,0.992230929308525
2015-06-04,-1,-0.0003995371630360126,-0.00019182119202725944,-0.005888804699420684,0.007164844063060951,0.9915018758802318
2015-06-08,-1,-0.000573429898446377,-0.000361077532951894,-0.005888804699420684,0.008753558193679728,0.9907238394020845
2015-06-10,1,0.0005581232500553771,0.0006226304488927318,-0.007568908792187008,0.007164844063060951,0.9909437231750533
2015-06-12,1,0.000640171795413998,0.0006465632842713212,-0.005888804699420684,0.008753558193679728,0.9902036127042657
2015-06-16,1,0.0005410014780436773,0.0005665864379134375,-0.005697187845550966,0.007589761241884007,0.990670861580502
2015-06-18,1,0.00030626667044307944,0.00037156110369079213,-0.006771614430208853,0.007589761241884007,0.990690899170482
2015-06-22,1,0.0003179662911626276,0.0004102703911769394,-0.007610150128582346,0.00842779624905421,0.9901151068261126
2015-06-24,-1,-0.00016499227947851437,-1.2176271211663885e-05,-0.007035299566973192,0.012003652985877352,0.9900588251493768
2015-06-26,1,0.00045710977574897605,0.0005053644106415196,-0.008876493519141946,0.012003652985877352,0.9887537882509274
2015-06-30,-1,-0.0003061659406934942,-0.00014179866464434493,-0.008422148648603873,0.01476343620999069,0.9884427406403223
2015-07-02,0,-3.0423517599872485e-05,0.00010684574382714121,-0.008422148648603873,0.013785637473575491,0.9889229541336384
2015-07-07,1,0.0002508842284500591,0.00034550420715302423,-0.007035299566973192,0.01074005470415965,0.9894911421620513
2015-07-09,-1,-0.00025560064323255276,-0.00013802180792858292,-0.007035299566973192,0.01074005470415965,0.9893704879299499
2015-07-13,1,0.00036202457851046595,0.0004044052054255375,-0.007035299566973192,0.01074005470415965,0.9890918648276908
2015-07-15,1,0.00129433150747098,0.001469979162365845,-0.004927802205600787,0.01074005470415965,0.9895672429298764
2015-07-17,1,0.0009922734345460555,0.0011073657857901703,-0.002768028476054742,0.01074005470415965,0.9896342595911095
2015-07-21,1,0.001303536644355249,0.0014784024658642692,-0.0007194571064037135,0.01074005470415965,0.9901710822369179
2015-07-23,1,0.0014697349526065556,0.0016640308150923104,-0.002768028476054742,0.00821614060328861,0.9891043823134854
2015-07-27,1,0.0008598148173972461,0.0009671723707985883,-0.002768028476054742,0.00821614060328861,0.9871205831179205
2015-07-29,1,0.0012080630201677964,0.0013169878711789436,-0.004338047166978024,0.007353101150982698,0.9878612324974085
2015-07-31,1,0.0012727501579729266,0.0013911081619898133,-0.004338047166978024,0.008508004433862501,0.98716036998757
2015-08-04,1,0.0014059298451829319,0.0015425581840214815,-0.009705078339869973,0.007798990265929612,0.9865305948701291
2015-08-06,1,0.0007493637706251013,0.0007997178850750297,-0.003863885819292255,0.012992256588924382,0.9859910196872277
2015-08-10,1,0.0014457661179524115,0.0016115901011015004,-0.00812481801402586,0.012992256588924382,0.9856049617633372
2015-08-12,1,0.001523903016805682,0.0016684250111158622,-0.013510401596677194,0.012992256588924382,0.9849935950964136
2015-08-14,1,0.0014573987954078073,0.0015957278645815068,-0.013510401596677194,0.014576778706800053,0.9839338946817733
2015-08-18,1,0.001753540595523047,0.0019225922824923217,-0.013510401596677194,0.013655446766339972,0.9841956401327516
2015-08-20,1,0.001040275857317507,0.0011430465823875227,-0.013510401596677194,0.013655446766339972,0.9845244715070942
2015-08-24,1,0.00027546125061395695,0.0002782333685988885,-0.008167666590193579,0.013655446766339972,0.9869526948506185
2015-08-26,1,0.00010472488674471529,0.0001428381121761921,-0.013286201526479966,0.009239427057903716,0.9868126745485466
2015-08-28,1,0.0006382478825143272,0.0006819420772841524,-0.013700115692358829,0.005956626476859575,0.9844596657894872
2015-09-01,-1,-0.00028122003146967365,-0.00020303084420125815,-0.013700115692358829,0.007699718788124103,0.9834417082999447
2015-09-03,1,0.0007314364412994098,0.0007775990161080597,-0.013700115692358829,0.00834296550974896,0.9832106314009775
2015-09-08,1,0.000574748896599047,0.0006172405619579916,-0.014744305466346553,0.00834296550974896,0.9829828159724826
2015-09-10,1,0.00011423567511706714,0.00020951441019475712,-0.014744305466346553,0.016416904729248928,0.9822908820333952
2015-09-14,1,0.0009300067708029071,0.0009807653780470379,-0.014744305466346553,0.014208731108045311,0.9829219274317654
2015-09-16,1,0.0005279574771191438,0.0005661576972553596,-0.019209130871775858,0.014208731108045311,0.9814997890710268
2015-09-18,-1,-0.00017249631699539528,-4.070134200647216e-05,-0.018608879655174,0.016416904729248928,0.981549305731987
2015-09-22,-1,-0.001145387463137291,-0.0008567844339011401,-0.018608879655174,0.016416904729248928,0.9815577671094322
2015-09-24,-1,-0.0015095649109992792,-0.0012206545904798892,-0.01251616356432644,0.016416904729248928,0.9822526198113127
2015-09-28,-1,-0.003807362874773719,-0.0032228245562770223,-0.007182753859394158,0.016416904729248928,0.9846726387200939
2015-09-30,-1,-0.0023080911234459878,-0.0019664941404381373,-0.00660129770028452,0.014208731108045311,0.9865775351874009
2015-10-02,-1,-0.0015010391021895502,-0.0012223345428583967,-0.008760691275472535,0.010692816555025745,0.9869586257822347
2015-10-06,-1,-0.001369955256076773,-0.001125535305658151,-0.00660129770028452,0.010692816555025745,0.9887682045467561
2015-10-08,-1,-9.686013678959196e-05,-2.145664332228194e-05,-0.00660129770028452,0.007328908317474283,0.9903438961941287
2015-10-12,-1,-0.00011337267764684861,-4.209561388091387e-05,-0.008760691275472535,0.007032672813834825,0.9882626307183422
2015-10-14,-1,-0.0015229597492549792,-0.0012738288606002463,-0.004166964014193345,0.00785359705899339,0.9895836740529924
2015-10-16,1,6.464767819961269e-06,4.572579031715638e-05,-0.008760691275472535,0.006546755095168902,0.9892397035090743
2015-10-20,-1,-0.0008102666426612788,-0.0006360321902192142,-0.005528387550837525,0.006546755095168902,0.989869866814385
2015-10-22,-1,-0.00034346282480391337,-0.0002486086039488929,-0.005050579869368469,0.009992806540608296,0.9878986979940495
2015-10-26,-1,-0.0003515247408623125,-0.0002419896598881447,-0.005050579869368469,0.01054816456998416,0.9876666795380508
2015-10-28,-1,-0.000751136036192032,-0.0005794617562352108,-0.005257327909262691,0.01054816456998416,0.9877967521008738
2015-10-30,-1,-0.00011110485026847225,-7.331321385966967e-05,-0.005257327909262691,0.009949631013164104,0.9889057492408458
2015-11-03,-1,-0.00015062758993673566,-8.207887360785164e-05,-0.006020821918431877,0.006007285745273077,0.9893401246567344
2015-11-05,-1,-0.0001839793815853393,-0.00011450842359824549,-0.009336276787495306,0.009949631013164104,0.986578333808474
2015-11-09,-1,-0.0019884002679027247,-0.00170453613022159,-0.006020821918431877,0.009949631013164104,0.9884154525292964
2015-11-11,-1,-0.0015453793422195053,-0.001336433194776576,-0.009336276787495306,0.008796629473987084,0.9883980291661737
2015-11-13,-1,-0.0029543413204887745,-0.00256097301354621,-0.003003665978046228,0.008796629473987084,0.9891601554171835
2015-11-17,-1,-0.002440746809936498,-0.0021232500248379842,-0.003003665978046228,0.010174776632730441,0.9877833414666733
2015-11-19,-1,-0.0010748208706372235,-0.0008984032129253521,-0.009336276787495306,0.0074535919133600775,0.9878103858181667
2015-11-23,-1,-0.0003657833739916356,-0.00029324854877736277,-0.009336276787495306,0.007298181529200124,0.988115390926111
2015-11-25,-1,-0.0004432447582011098,-0.0003755199686897449,-0.009671379652759209,0.007760945131989593,0.9875231796543329
2015-11-30,-1,-0.001604532015900184,-0.0013476767237680927,-0.006132522873519845,0.008686558670717241,0.9873729786614359
2015-12-02,-1,-0.0010343793582229881,-0.0008964805612107747,-0.009909417602084048,0.008686558670717241,0.9870526688777036
2015-12-04,-1,-0.0007977897868908988,-0.0006817131855523292,-0.009909417602084048,0.007760945131989593,0.9892102512033123
2015-12-08,-1,-0.0005930305824791249,-0.0004939332079755402,-0.014088127186268389,0.007298181529200124,0.9875834722545097
2015-12-10,-1,-0.0007812586284095487,-0.0006732195953263664,-0.014088127186268389,0.007298181529200124,0.9879606395698288
2015-12-14,-1,-0.0001779865756467327,-0.0001569933915545551,-0.016923500932184143,0.008220327518237378,0.984753070542691
2015-12-16,1,0.000637413042797642,0.0006701544931041217,-0.022721610184449625,0.002805408986714562,0.9847748431850369
2015-12-18,-1,-0.000775485393374824,-0.0007096775908812748,-0.014088127186268389,0.002805408986714562,0.9872957500203451
2015-12-22,-1,-0.00020816082660892761,-0.00019307235752983692,-0.014088127186268389,0.007366929181875623,0.9862454476629245
2015-12-24,0,-1.9502880599170478e-05,3.357480280129411e-05,-0.015378635618595333,0.007366929181875623,0.9860528818224609
2015-12-29,-1,-3.643528620311069e-05,-3.0418469845105506e-05,-0.015378635618595333,0.0018752426758199582,0.985765527250239
2015-12-31,1,5.9204991426315947e-05,0.00014811073018928492,-0.015378635618595333,0.008085743101305333,0.9853084933349356
2016-01-05,-1,-0.00031095345182625706,-0.0002594506048238872,-0.01677860072058219,0.008085743101305333,0.9844356744563381
2016-01-07,-1,-0.0017279699444640991,-0.0016234529965281404,-0.013352679114253602,0.010846737751135935,0.9844600906322469
2016-01-11,-1,-0.0013598236507390634,-0.0013426560474520074,-0.018149689951522677,0.01201123076639378,0.9816446997787299
2016-01-13,-1,-0.0032200820746484983,-0.0029265507518056915,-0.018149689951522677,0.01201123076639378,0.9825596775859748
2016-01-15,-1,-0.005372225501685915,-0.004754285515362597,-0.013352679114253602,0.01586641998368349,0.9820597661007624
2016-01-20,-1,-0.00525366241296207,-0.004671670794978404,-0.011509089149314812,0.017047242016799725,0.9808740352512434
2016-01-22,-1,-0.00393736127826597,-0.003554022575277785,-0.011509089149314812,0.016640407831809312,0.9813150816836389
2016-01-26,-1,-0.004490455286008339,-0.004000353377594808,-0.010132283087767738,0.019389490116732,0.9809418967901334
2016-01-28,-1,-0.004205844049463305,-0.0038234994464047805,-0.0025588350874331586,0.02200418507034249,0.9788283996371557
2016-02-01,-1,-0.0024717476108245136,-0.002329731346235773,-0.0025588350874331586,0.022828897288675758,0.9790473228183532
2016-02-03,-1,-0.0037965435075917545,-0.0034884091100624284,0.0017911192113714079,0.022828897288675758,0.9790203226975522
2016-02-05,-1,-0.0035926599096074126,-0.0033434073525114858,0.0004955875362450089,0.022828897288675758,0.9801701626579175
2016-02-09,-1,-0.004719416834149224,-0.004352759564746465,0.0004955875362450089,0.022828897288675758,0.9819606930631742
2016-02-11,-1,-0.005079397040615004,-0.004649961614002097,0.0013735012043017217,0.022828897288675758,0.9826967303047741
2016-02-16,-1,-0.0034166172997558983,-0.0031591733657034804,0.00024291820131128075,0.01756754976142615,0.9856740436953216
2016-02-18,-1,-0.003065685593118691,-0.002805803409214028,0.0005765602700154358,0.016285174046676287,0.9860306536413806
2016-02-22,-1,-0.0038711557273816747,-0.003383025117541351,0.0002694518824902154,0.012243643922508008,0.986108311087315
2016-02-24,-1,-0.0023404566662062628,-0.0020607348340843028,-0.0009042258596558713,0.00786448450555518,0.9881513776400661
2016-02-26,1,0.00022880541900127796,0.00033693548167605414,-0.0009042258596558713,0.00786448450555518,0.9908004918254266
2016-03-01,1,0.001630669938722676,0.0019439029138302387,-0.0035719458554937344,0.007482137587210815,0.9914959958690491
2016-03-03,1,0.002566158624353041,0.0030749987185798573,-0.0035719458554937344,0.008586613678864095,0.9913725458454286
2016-03-07,1,0.0015242520550772475,0.0018974216557702238,-0.004387509645726678,0.008586613678864095,0.9921959586380591
2016-03-09,1,0.0007638874297200932,0.0009584031087436089,-0.003646541407461392,0.010678966140457071,0.9916595246635226
2016-03-11,1,0.0024649335356118768,0.0029571257085802445,-0.003646541407461392,0.010678966140457071,0.9925243477895275
2016-03-15,1,0.0019144228724760467,0.00232718663650636,-0.0027652297728882136,0.01093920453692205,0.9926170128714111
2016-03-17,1,0.0027493646810244797,0.0032822471961952097,-0.003646541407461392,0.010678966140457071,0.9928561663601028
2016-03-21,1,0.0031105014403468366,0.0037015874925782287,-0.003646541407461392,0.008648980744044844,0.993048796404377
2016-03-23,1,0.002710485140638254,0.0032427108995949083,-0.003646541407461392,0.009652195127618597,0.9928031629717844
2016-03-28,1,0.0032024847311011738,0.0037933880402950047,-0.003646541407461392,0.008244356674584605,0.9927007258321165
2016-03-30,1,0.003723083443872569,0.004407738254686489,-0.003207091155319878,0.007099275999603043,0.9934821806625223
2016-04-01,1,0.0039723573433211555,0.0046863547317918825,-0.003646541407461392,0.00543751168581918,0.9922831024708775
2016-04-05,1,0.002323061474808187,0.0026938116982857248,-0.0032728389996601126,0.007433680794127627,0.9921394698054268
2016-04-07,1,0.0027322881120473413,0.00316666320482343,-0.0029810037190004584,0.00543751168581918,0.992808212648187
2016-04-11,1,0.0023802631526388296,0.002692334969886218,-0.0029810037190004584,0.00543751168581918,0.9928380379893701
2016-04-13,1,0.0031536067981799503,0.003583509089338847,-0.0042040164608943865,0.00543751168581918,0.9912394479047998
2016-04-15,1,0.003713671394764083,0.004311771113824293,-0.004469306564818363,0.00543751168581918,0.9908568577518758
2016-04-19,1,0.004075222451498104,0.004747395399075375,-0.0059996343678477915,0.004859494749471298,0.9903101336330452
2016-04-21,1,0.0037044595154517084,0.004313893512240355,-0.005849132853064014,0.0025079669481360522,0.9906360174886691
2016-04-25,1,0.0036080949869387005,0.0041780405502522214,-0.005849132853064014,0.0025079669481360522,0.9905181545276973
2016-04-27,1,0.0034727356918146327,0.004018079597484315,-0.005849132853064014,0.0056500137337722,0.989819356159998
2016-04-29,1,0.0027508763784398586,0.003200817920272561,-0.005430908385798252,0.008773289529382942,0.9910350474118268
2016-05-03,1,0.002967482917567983,0.0034678237632670295,-0.004941574049194864,0.007658939406878491,0.9919786048732058
2016-05-05,1,0.0028803576401612067,0.0033503431219628274,-0.004941574049194864,0.007658939406878491,0.9919293418561358
2016-05-09,1,0.00334395595816078,0.0038907212635060483,-0.005430908385798252,0.007658939406878491,0.991088192695919
2016-05-11,1,0.004108907835304544,0.004836175991150777,-0.005430908385798252,0.005489337575052753,0.9923012699906288
2016-05-13,1,0.00265564571933365,0.003064772639896231,-0.005849132853064014,0.005489337575052753,0.9916405380358869
2016-05-17,1,0.002698657725946783,0.003132592947259848,-0.005849132853064014,0.006474971299216044,0.9916088757492019
2016-05-19,1,0.0023703651135243897,0.0027653771649873236,-0.004903122318191579,0.006474971299216044,0.992200605591212
2016-05-23,1,0.0027105403494565726,0.00317139115298582,-0.004903122318191579,0.006474971299216044,0.9920961942947693
2016-05-25,1,0.0029818373918034675,0.0034453906763538098,-0.004903122318191579,0.006474971299216044,0.9923714099713125
2016-05-27,1,0.0027338083367070888,0.003124332232234491,-0.006814035977906635,0.005173393141149542,0.987579000664845
2016-06-01,1,0.001930770320885185,0.002122384625622275,-0.006814035977906635,0.007883482913848215,0.9857624082774631
2016-06-03,1,0.001779723387527151,0.0019389495173418579,-0.006814035977906635,0.00936047324682042,0.9856517349216689
2016-06-07,1,0.0013848650272035017,0.0014273814731817274,-0.009263793979519375,0.009103927656621486,0.9853774892424721
2016-06-09,1,0.0012418926817987094,0.0012660406803459477,-0.0073380594572054775,0.012287214288857562,0.9845147314535265
2016-06-13,-1,-0.0009111010518010285,-0.0006081838708907127,-0.0027262431921349253,0.012287214288857562,0.9856846574166559
2016-06-15,-1,-0.0006168756544901482,-0.00038254244681985546,-0.0019530278529090075,0.012287214288857562,0.9858244378096065
2016-06-17,-1,-0.0008846825590946437,-0.0006086115598846725,-0.0012640019151019975,0.012875267817074109,0.9851788224371922
2016-06-21,-1,-0.0008358724948819896,-0.0005295499517962662,-0.002717814059685946,0.012226686541397478,0.9854453425224288
2016-06-23,0,-0.00012423193426371775,5.7575897745901195e-05,-0.002717814059685946,0.012226686541397478,0.9848534384358416
2016-06-27,-1,-0.004302962964433549,-0.0035805756795284703,-0.0004032101858721811,0.012226686541397478,0.9871276308491477
2016-06-29,-1,-0.002729917112777352,-0.002174482291087582,-0.0009449927615027195,0.010752568315467432,0.990424695431197
2016-07-01,-1,-0.002969002647176987,-0.002355021361706861,-0.00038478742177683214,0.010752568315467432,0.9899068123627881
2016-07-06,-1,-0.003668436733166447,-0.0029244345598138355,-0.00038478742177683214,0.009628209627947339,0.990472019711648
2016-07-08,-1,-0.0021349084086664523,-0.0016366826583424884,-0.0009449927615027195,0.009628209627947339,0.9913925366944013
2016-07-12,-1,-0.00187267472470883,-0.001429408751994785,-0.003307958656000639,0.009628209627947339,0.9919185387792369
2016-07-14,-1,-0.0014119775079526656,-0.0010454308541037335,-0.003307958656000639,0.009628209627947339,0.992464432141491
2016-07-18,-1,-0.0006608501567818558,-0.0004228371221385108,-0.003307958656000639,0.00873240447434935,0.992938685757734
2016-07-20,1,0.00022902343561011622,0.00030640320130181627,-0.004320711425081806,0.005611667281278188,0.9929420804846155
2016-07-22,1,0.0010581512589846727,0.0011365489844728282,-0.003307958656000639,0.004026719803933315,0.9943671540119507
2016-07-26,1,0.001178424340322177,0.00127847174231693,-0.003307958656000639,0.004026719803933315,0.9941269688838948
2016-07-28,1,0.0008131988191566714,0.0008159163622696677,-0.004320711425081806,0.0035933436952985394,0.9938797236176347
2016-08-01,1,0.001086237448271981,0.0011122337698387381,-0.004989816692929123,0.00306643973269127,0.9937472004646268
2016-08-03,1,0.0012388100609237282,0.0013316066203268924,-0.004320711425081806,0.0035933436952985394,0.9939602602214256
2016-08-05,1,0.0016284013148486643,0.001734389846085324,-0.003409642009900026,0.0035933436952985394,0.9953511352595376
2016-08-09,1,0.0015016221361544946,0.0016256683907147804,-0.0007531362579968812,0.004722301327050957,0.9955403925868468
2016-08-11,1,0.0014018918855256757,0.0015151330454509016,-0.006266600180346313,0.004722301327050957,0.9927135166649431
2016-08-15,1,0.0013311055705113332,0.0014075863447571692,-0.007829535847572027,0.005295374952398851,0.9915179062767301
2016-08-17,1,0.0010944589565604836,0.0011656126491517357,-0.0018108521656865681,0.0057779195499106425,0.9918437144723699
2016-08-19,1,0.001233044958372561,0.0013336218302825856,-0.005772104660118144,0.0057779195499106425,0.9915069504867501
2016-08-23,1,0.001647877176406916,0.0018152437617735418,-0.005772104660118144,0.005295374952398851,0.9920380978896811
2016-08-25,1,0.001048386099843689,0.0011083700966152245,-0.004730419551361022,0.005295374952398851,0.9924454324235624
2016-08-29,1,0.001097050187710895,0.0011792441051948813,-0.004730419551361022,0.004755747774939222,0.9923128537590004
2016-08-31,1,0.0014128141777278265,0.001550327848475732,-0.008262003090526444,0.004591210142074674,0.9914432624353495
2016-09-02,1,0.0017480747061321199,0.0019632368031142983,-0.00862452785728955,0.004591210142074674,0.9909153477479434
2016-09-07,1,0.0018977656887664213,0.0021195881769775046,-0.00862452785728955,0.002378151811632526,0.990779999696715
2016-09-09,1,0.0003019539966759255,0.00031947925253475494,-0.006775304433201044,0.004757086209497876,0.9930656131530752
2016-09-13,1,0.00023479690641663235,0.0002409975914524498,-0.006775304433201044,0.002378151811632526,0.9928832093405924
2016-09-15,1,0.0006937643973076175,0.0007570770346504751,-0.006775304433201044,0.002378151811632526,0.9926322727942158
2016-09-19,1,0.0004992585621240752,0.0005334113881758876,-0.006775304433201044,0.0025105814311674646,0.9925381310640866
2016-09-21,1,0.0002589937391316127,0.00028680367793826864,-0.006775304433201044,0.0025105814311674646,0.9926145370909257
2016-09-23,1,4.511760838055314e-05,0.00010157058268834386,-0.006775304433201044,0.005362727903278777,0.9925897823029078
2016-09-27,-1,-0.00042860035240333043,-0.00030629135236876105,-0.006775304433201044,0.006051851836453733,0.9900786190826325
2016-09-29,-1,-0.0008507044660399699,-0.0007269036546712246,-0.00464082017173147,0.006051851836453733,0.9904513933908445
2016-10-03,-1,-0.0007991603255352235,-0.0006845610303982479,-0.004501464801278167,0.005362727903278777,0.9908722652473453
2016-10-05,-1,-0.0008124725496123683,-0.0006851901071431622,-0.005470851305332484,0.004879231551597058,0.9898142784886785
2016-10-07,-1,-0.0011109322114406074,-0.0009518445339347478,-0.005470851305332484,0.005087584386773144,0.9866066238650048
2016-10-11,-1,-0.0021345956805055135,-0.0018272345798675217,-0.004501464801278167,0.006306769061999292,0.9867952557984654
2016-10-13,-1,-0.0016146481867742256,-0.001370731176847429,-0.004501464801278167,0.007448830437085547,0.9858208303295497
2016-10-17,-1,-0.0012475038710611209,-0.0010721462373911015,-0.006670454571514367,0.006306769061999292,0.9853221595841821
2016-10-19,-1,-0.0010966656287376524,-0.0009507905791570697,-0.006670454571514367,0.006306769061999292,0.9851870548169395
2016-10-21,-1,-0.0007104840032337246,-0.0006180618333651538,-0.006670454571514367,0.008752262635263968,0.9848861981294696
2016-10-25,-1,-0.0025923577907114694,-0.0022805012952149886,-0.005470851305332484,0.006895112653653301,0.9879351608135485
2016-10-27,-1,-0.0021714759932569437,-0.0019281415938781055,-0.002967132276370554,0.005215139115359179,0.9881651049748664
2016-10-31,-1,-0.0026073261014272478,-0.0023036134951179574,-0.0036616275498802366,0.006050666638933007,0.9875744540676501
2016-11-02,-1,-0.0038546372070037945,-0.003366143612454837,-0.008335874280683506,0.006050666638933007,0.9866390678526286
2016-11-04,-1,-0.0014090289211063744,-0.001207456906257539,-0.007824302725066576,0.006050666638933007,0.9899910854371586
2016-11-08,-1,-0.00099153749312406,-0.0008363783145753719,-0.007824302725066576,0.006050666638933007,0.9899501835118594
2016-11-10,1,0.0002866013343507184,0.00029938669240844634,-0.007824302725066576,0.0028260615028942943,0.9911351577606062
2016-11-14,-1,-0.0005554672074972891,-0.00047351046935095427,-0.006329592566726377,0.004371439361767385,0.991427074347228
2016-11-16,-1,-0.0024278483247458754,-0.0019679909108891746,-0.007809249826531653,0.004371439361767385,0.9907536147184758
2016-11-18,-1,-0.0011002056253354067,-0.0008830294312582545,-0.007809249826531653,0.004371439361767385,0.9907270517922229
2016-11-22,-1,-0.001044736404368063,-0.0008355954027743411,-0.007809249826531653,0.009121284306501122,0.9895069248297742
2016-11-25,-1,-0.0010067227563464762,-0.0008000802686065326,-0.00806431833331314,0.009121284306501122,0.9891738852917205
2016-11-29,-1,-0.0006981560706711338,-0.0005678645714768077,-0.008331074214989482,0.009121284306501122,0.9892349801165348
2016-12-01,-1,-0.0019926944425157425,-0.0017136886080041727,-0.007809249826531653,0.009121284306501122,0.9905728448619314
2016-12-05,-1,-0.001033329627852739,-0.0008806921299444872,-0.007266466128326586,0.01107238403650962,0.9906469465001649
2016-12-07,-1,-3.2358722654688806e-05,-1.1641440294046095e-05,-0.007585946906866716,0.008415523868479928,0.9916429649945423
2016-12-09,-1,-0.00014951187430623243,-0.0001316900528301254,-0.007585946906866716,0.008415523868479928,0.9920044615286618
2016-12-13,1,0.0002084220685295883,0.0002549693293942935,-0.007585946906866716,0.004601523329131337,0.9925828411711779
2016-12-15,-1,-0.00016873446090481318,-0.00016336586565379905,-0.004012558778068618,0.004601523329131337,0.993154481466481
2016-12-19,1,0.000346561446470571,0.0004345969255354428,-0.0038105229194075395,0.008041024114518586,0.9930504862166863
2016-12-21,1,0.0012826528498990262,0.001520008216562934,-0.0038105229194075395,0.006733931995302521,0.9934609376823291
2016-12-23,1,0.0009370084980882783,0.001117181827771533,-0.00309146648704313,0.009243124336604404,0.9928218514631771
2016-12-28,1,0.0011175485222902834,0.0013718129121150675,-0.0027658275320576356,0.009243124336604404,0.9932817771973209
2016-12-30,1,0.000737006230265682,0.0009199068798484219,-0.0023811164188359338,0.009243124336604404,0.9938631605058459
2017-01-04,1,0.001701061932685194,0.0020075334555377483,-0.0023811164188359338,0.003996414855731893,0.9951582011641523
2017-01-06,1,0.0014539017931214752,0.001737097530327172,-0.002765387073905747,0.003996414855731893,0.9949522190355633
2017-01-10,1,0.0010361723435348674,0.0012414313451228984,-0.0015434331337628045,0.003996414855731893,0.995284924802035
2017-01-12,1,0.0010327066917519018,0.0012451457711025998,0.0002784741360455959,0.006733931995302521,0.9938750517287891
2017-01-17,1,0.0012982972562349334,0.0015733933442424928,0.00043173120984576005,0.006733931995302521,0.9940741999924717
2017-01-19,1,0.001759070563909814,0.002078360008915547,-0.00022066031293892598,0.003559314146504546,0.9942525171028179
2017-01-23,1,0.002347465987742866,0.002744728555211957,-0.0011026833310020612,0.002961536123740302,0.9940211909418677
2017-01-25,1,0.0031610072472090115,0.003682006320667228,-0.0011026833310020612,0.0024299132071950585,0.9945357259612315
2017-01-27,1,0.003214556799591827,0.0037480243694726183,-0.00015502148011066756,0.002961536123740302,0.9946049662509732
2017-01-31,1,0.003574213936792278,0.004178809199671583,-0.0015184205458573922,0.003559314146504546,0.9931577034691603
2017-02-02,1,0.002298636101561185,0.002618275714002091,-0.00356732026548705,0.003559314146504546,0.9931883921935702
2017-02-06,1,0.0019656892976972653,0.0022466486019578186,-0.003779160249074015,0.003559314146504546,0.993323002824288
2017-02-08,1,0.0022566230317921,0.0026020319660378815,-0.005429884570256484,0.005982402006932056,0.9926219184578902
2017-02-10,1,0.0038007106159208405,0.004338099980110763,-0.005429884570256484,0.005982402006932056,0.9934790705856222
2017-02-14,1,0.003393295846116442,0.0038834126334402323,-0.005429884570256484,0.005868512922950787,0.9932957226453488
2017-02-16,1,0.00299857752054509,0.0034246666433862816,-0.005029117819578811,0.005868512922950787,0.9938065571820464
2017-02-21,1,0.0031712062169007584,0.003589807186836014,-0.005379452227130469,0.005369187898259905,0.9935615033135634
2017-02-23,1,0.002692808773139736,0.0030117494188735515,-0.00603843063048474,0.006650556823656315,0.9932103380247261
2017-02-27,1,0.003106102356376845,0.0034726150316555593,-0.006339011992417915,0.005124416988944287,0.9927129499219027
2017-03-01,1,0.0034924795742797563,0.003915036511911703,-0.00603843063048474,0.005124416988944287,0.9937241970263043
2017-03-03,1,0.002851029471227672,0.0031649013427973516,-0.0054575110263695124,0.005124416988944287,0.9942487812430135
2017-03-07,1,0.0020258270826717705,0.002168813445014554,-0.00508747982626402,0.005124416988944287,0.9945169691674846
2017-03-09,1,0.0023250103785593694,0.00252859951645167,-0.004996340308636131,0.004887713550732166,0.9948979432844492
2017-03-13,1,0.0030078411609301284,0.003343673442076204,-0.004996340308636131,0.0031895664298632505,0.9948086378352632
2017-03-15,1,0.0024931622426622303,0.002708826387686636,-0.004688194042157081,0.0033799859667832657,0.9953686992563635
2017-03-17,1,0.002320617208845384,0.0025256194706155272,-0.0034521241353812765,0.005460767559149709,0.9951079958556261
2017-03-21,1,0.0008953655723271426,0.0009652972305881604,-0.0031924057481655665,0.005460767559149709,0.9952589391187339
2017-03-23,1,0.000812330136949442,0.0008905487398793014,-0.0031924057481655665,0.005460767559149709,0.9951737170912921
2017-03-27,1,0.0002488437822707023,0.0004170760648440058,-0.003074393578503705,0.006259799064736551,0.995108083024854
2017-03-29,0,-0.0002234169808664906,4.1314582443588346e-05,-0.003074393578503705,0.005460767559149709,0.9954671685334521
2017-03-31,1,0.0010376202439529286,0.0010589436875514705,-0.003074393578503705,0.005460767559149709,0.994831254930821
2017-04-04,1,0.0008672349600121282,0.0008881893750103756,-0.0031924057481655665,0.005460767559149709,0.9941769098613322
2017-04-06,1,0.0013773625521784558,0.0014756721450162754,-0.0031924057481655665,0.006309068023767753,0.9939948448738274
2017-04-10,1,0.0006921577686898258,0.0007410350810924285,-0.0031924057481655665,0.008314101981279288,0.9936544287908606
2017-04-12,1,0.0009101147996786696,0.000930762933377572,-0.0031924057481655665,0.008314101981279288,0.9935731056906306
2017-04-17,1,0.001284606453049569,0.0013239255225565747,-0.004084273802541035,0.007468009509400569,0.993061937949342
2017-04-19,1,0.0013744010855886546,0.0014234694479137748,-0.006526072194236211,0.005373303451709389,0.9929029531271047
2017-04-21,1,0.0012827907610312823,0.001318938972553592,-0.005213193043086015,0.005247319712953119,0.993244896437075
2017-04-25,1,0.0015708411379039965,0.0016272600837750856,-0.005213193043086015,0.005862858543148492,0.9933176434975848
2017-04-27,1,0.0005800308120761464,0.0007145376156439995,-0.005213193043086015,0.0067506772563512875,0.9928056595787748
2017-05-01,1,0.0002678153434130092,0.0004075799119606955,-0.004153734575189128,0.0067506772563512875,0.9931971822544008
2017-05-03,0,-4.167431746785442e-05,9.386979794562348e-05,-0.0018969481975612142,0.006897548300883839,0.9936782667750287
2017-05-05,0,-0.00012559594212550412,3.5901396793933506e-05,-0.0017389036457722267,0.0067506772563512875,0.9940561543275437
2017-05-09,1,0.00017672579407843487,0.00030579133298172935,-0.0022970245170631067,0.00627027476258439,0.9943730650126922
2017-05-11,0,-0.00014039033954292937,5.891758507874209e-05,-0.002562353129276891,0.00627027476258439,0.9943367470193762
2017-05-15,-1,-0.00047106066300310514,-0.0002501682695814384,-0.002206482868022267,0.00627027476258439,0.9949188246106008
2017-05-17,-1,-0.0006152622095013191,-0.0004189638338984265,-0.0015233044782187262,0.0067506772563512875,0.9949164576096838
2017-05-19,-1,-0.0007280645662951698,-0.0004988760193093727,-0.002138425608998862,0.006987721661467219,0.9947822424544597
2017-05-23,-1,-0.0007029345491790277,-0.0004569575192979893,-0.002377483646490034,0.00648643186192404,0.995317240715081
2017-05-25,-1,-0.0004531535980147154,-0.00021910635585069488,-0.002377483646490034,0.006225266797008452,0.9954447287484214
2017-05-30,1,0.00019387953610690447,0.0003035879690276488,-0.002377483646490034,0.004879760256628937,0.9952566687287442
2017-06-01,0,-3.763274057157261e-05,0.0001228243184396573,-0.0028280842347172307,0.003561793568948347,0.9948556348650764
2017-06-05,0,-0.00017703693484398726,1.8501621970835815e-05,-0.0028280842347172307,0.004879760256628937,0.9946015717920371
2017-06-07,-1,-0.0004594851909978583,-0.000224792099836576,-0.003685172841982896,0.00771870485020727,0.9938701545887476
2017-06-09,-1,-0.0006381488606167296,-0.000377460368489939,-0.0028280842347172307,0.008110165737608104,0.9932195150620591
2017-06-13,0,-9.605761285550927e-05,7.28288618134743e-05,-0.0028157796656548186,0.00771870485020727,0.9935223482255434
2017-06-15,1,0.00011746061166055901,0.00023367168476619467,-0.00237338212346923,0.006061224650772173,0.994020293902005
2017-06-19,1,0.0005553764797295185,0.0005876177500001522,-0.0028157796656548186,0.004064895212240445,0.9941124485709489
2017-06-21,1,0.0003378957198898959,0.0003975277252573008,-0.0032434880942477174,0.004416997639704897,0.9930977208423667
2017-06-23,1,0.0008943368255300013,0.000897653922975858,-0.004685221583478067,0.004416997639704897,0.9931469538466268
2017-06-27,1,0.00021225158376016428,0.0002939384113359743,-0.004863296804164798,0.004416997639704897,0.9929974063146179
2017-06-29,-1,-0.0005467065203519216,-0.00035449519341818124,-0.004863296804164798,0.006111156990016442,0.9914730997777664
2017-07-03,-1,-0.0004946967378311982,-0.000314626796217225,-0.004863296804164798,0.006663852494354916,0.9912844529968843
2017-07-06,1,0.00045409603125287054,0.0004746628368031294,-0.00454691905734641,0.004416997639704897,0.9920000093988578
2017-07-10,1,0.0007322136351408906,0.0007723275644163391,-0.004863296804164798,0.002779559014774607,0.9925450844065837
2017-07-12,1,0.0006192176210650754,0.000626151850288418,-0.004863296804164798,0.0024797940975273807,0.9926279602085943
2017-07-14,1,0.0007107424003448634,0.0007540987753209312,-0.005453391778236281,0.0024797940975273807,0.9918239201217532
2017-07-18,1,0.0005139399314699066,0.0005227500264868967,-0.00503848419984131,0.004446152069886071,0.9913966817009505
2017-07-20,1,0.00030113817956332434,0.00030427961635733997,-0.00503848419984131,0.00630414866405096,0.9914816709871642
2017-07-24,1,0.0005474134934729808,0.0005988422715177095,-0.006347798229668919,0.004007849613358324,0.9916086893815378
2017-07-26,-1,-4.665339174576415e-05,-3.4263720119139267e-06,-0.006006777639697209,0.00630414866405096,0.9916757553869806
2017-07-28,1,0.0009575590344094507,0.0010274023752347115,-0.006006777639697209,0.004915911374724727,0.9934258469951129
2017-08-01,1,0.0010546064204468835,0.0011407531934100091,-0.006006777639697209,0.004915911374724727,0.9937145754973511
2017-08-03,1,0.0010665437120705452,0.0011696427086994275,-0.006006777639697209,0.006571252225293983,0.9932562177591941
2017-08-07,1,0.0008549438189317868,0.0009293427409115485,-0.004505429049488308,0.0071484187848494755,0.9933083840402108
2017-08-09,1,0.0007387170533918192,0.000784910838844053,-0.006636206347520256,0.0071484187848494755,0.9927672496886611
2017-08-11,1,0.00011473700667772986,0.0001563511291461871,-0.0016403267196410782,0.008773854365115049,0.9924770727220551
2017-08-15,1,0.0006217817697128753,0.0006424807617456353,-0.006636206347520256,0.0071484187848494755,0.9925223874418534
2017-08-17,1,0.00026619489750250784,0.0002939088664698526,-0.006636206347520256,0.006367310534655005,0.9929943923609678
2017-08-21,1,0.0002163466606516565,0.00023914000659784482,-0.0024944134834158347,0.006367310534655005,0.9934753804954368
2017-08-23,1,0.0003281010422951093,0.0003482489082094276,-0.0028175538466215155,0.00613802346657292,0.9936672249321682
2017-08-25,0,-5.650372226570987e-05,2.3125677455385226e-05,-0.0037995411979563068,0.00613802346657292,0.9924986510096416
2017-08-29,1,0.00019125612125152626,0.000238666292156346,-0.004134893466628836,0.00613802346657292,0.9925197468916779
2017-08-31,1,0.0004492473708633743,0.00047123649846401213,-0.004134893466628836,0.004212455592006323,0.9926418254935374
2017-09-05,1,0.0006793858433073062,0.000695919840089239,-0.004134893466628836,0.006114077496429817,0.9921148558575021
2017-09-07,1,0.0006310742227070296,0.0006540012944771001,-0.0030109004448567074,0.006205509596878142,0.991758328375656
2017-09-11,1,0.001158116779251088,0.0012571767894006558,-0.0030109004448567074,0.006114077496429817,0.9926369232366207
2017-09-13,1,0.0008752888861216945,0.0009293486813680561,-0.0030109004448567074,0.006114077496429817,0.9927853975591417
2017-09-15,1,0.0009343914582105397,0.0010228071133898098,-0.0030109004448567074,0.006114077496429817,0.9926275589555923
2017-09-19,1,0.0010049109340668054,0.0011047084579478457,-0.0030109004448567074,0.006783303132458629,0.9921564714837928
2017-09-21,1,0.000554216619037055,0.000555203817918181,-0.0027031176019910947,0.006783303132458629,0.9923359067765108
