JNU-Tangyin/eata/results/Batch4_SP500/Batch4_SP500-FIS.csv
Date,Action,Predicted_Q25,Predicted_Q75,Actual_Q25,Actual_Q75,RL_Reward
2010-12-14,0,0.0,0.0012537884073470693,-0.004031261713263748,0.00612343798523307,0.9917430693167792
2010-12-16,0,0.0,0.0,-0.0024655781753999306,0.00612343798523307,0.991315211767112
2010-12-20,1,0.0004681684068100553,0.0005604065359957729,-0.0021340006920875943,0.00612343798523307,0.99197901904009
2010-12-22,0,0.0,0.0,0.0005255869404823322,0.00612343798523307,0.9917118847978724
2010-12-27,0,0.0,0.0,0.0005255869404823322,0.010589286633840912,0.9909774625632798
2010-12-29,0,0.0,0.0,-4.030238707662063e-05,0.007991802848505435,0.9913769674870554
2010-12-31,0,0.0,0.0,0.0012154037744699898,0.007991802848505435,0.9909449790813801
2011-01-04,0,0.0,0.0,0.0012154037744699898,0.007991802848505435,0.9914901120777224
2011-01-06,0,0.0,0.0,0.0012154037744699898,0.0050297166273608265,0.9920591029072795
2011-01-10,0,0.0,0.0,0.0004871358351832777,0.007991802848505435,0.9908739522135869
2011-01-12,0,0.0,0.0,-0.0003218459009622565,0.004079321814444935,0.992109919853845
2011-01-14,0,0.0,0.0,-0.002141451950308856,0.0036360243926443553,0.9927198364678056
2011-01-19,1,0.0025263104719532863,0.00263128714279429,-0.002141451950308856,0.0036360243926443553,0.993441812620473
2011-01-21,0,0.0,0.0,-0.002141451950308856,0.005778153108667235,0.992382971806271
2011-01-25,0,0.0,0.0,-0.0053576555136718275,0.004079321814444935,0.9915780506598356
2011-01-27,1,0.003647756577131526,0.004055951022391383,-0.0053576555136718275,0.008695791877101379,0.9900444728232117
2011-01-31,0,0.0,0.0,-0.0048168165730071745,0.010331695293625313,0.9905554381877852
2011-02-02,0,0.0,0.0,-0.0053576555136718275,0.008695791877101379,0.9905121465818427
2011-02-04,0,0.0,0.0,-0.007635931578545933,0.008695791877101379,0.989480868523073
2011-02-08,0,0.0,0.0,-0.007635931578545933,0.008695791877101379,0.9896205643654025
2011-02-10,1,0.004502625103312339,0.005002206626925153,-0.010270560374909114,0.008695791877101379,0.9881379950943094
2011-02-14,1,0.0040654833261106835,0.004474647387601543,-0.016471301162365778,0.008695791877101379,0.987166553016988
2011-02-16,1,0.0038010800850111146,0.004180783187763622,-0.016471301162365778,0.008695791877101379,0.9872804133853724
2011-02-18,1,0.004154290819080717,0.004571278185609458,-0.016471301162365778,0.010331695293625313,0.9866698047301645
2011-02-23,1,0.0027266068299983213,0.0029217323439462836,-0.008031785339613393,0.010331695293625313,0.9883103912065266
2011-02-25,1,0.0032437996194917317,0.003469397994902603,-0.008031785339613393,0.009743222560497897,0.9886622458482769
2011-03-01,1,0.003431309696670982,0.0036865992648897946,-0.008031785339613393,0.010735950858593064,0.988022094311841
2011-03-03,1,0.0026361400875293418,0.002771652934924937,-0.007730328995228883,0.013768613221524801,0.9885157662206058
2011-03-07,1,0.0017520632401890378,0.0018242643921257459,-0.005743779160623745,0.015436075069416532,0.9891876218724857
2011-03-09,1,0.0022649411668699154,0.002427256431745096,-0.005743779160623745,0.013768613221524801,0.9900147019575007
2011-03-11,1,0.0022799088858936637,0.0024689115526823867,-0.005743779160623745,0.013768613221524801,0.9905595257700388
2011-03-15,0,0.0,0.0,-0.0036899565674462405,0.013768613221524801,0.9915068859007261
2011-03-17,1,0.0015998830319769479,0.0016905257022720899,-0.003190125648581368,0.013768613221524801,0.9918493386767314
2011-03-21,1,0.0023517205426733115,0.0025061957527271767,-0.0036899565674462405,0.007314177283093205,0.9922808057691114
2011-03-23,1,0.0015465475901890945,0.0015568840438094816,-0.003190125648581368,0.008325064737403784,0.9921911229374097
2011-03-25,1,0.0020021540915293214,0.0020753513562716554,-0.0036899565674462405,0.0064665688876631485,0.9927826962513374
2011-03-29,1,0.0023755265542441594,0.0024989252737250686,-0.003190125648581368,0.0063723338755963446,0.9936679194863538
2011-03-31,0,0.0,0.0,-0.0036899565674462405,0.0063723338755963446,0.9928196676926669
2011-04-04,0,0.0,0.0,-0.004228368904146141,0.0063723338755963446,0.9926610233090589
2011-04-06,1,0.0024068204754262206,0.0025216821215736053,-0.007619870008582782,0.005205356456345045,0.991850819381929
2011-04-08,0,0.0,0.0,-0.007619870008582782,0.005205356456345045,0.9921591003420602
2011-04-12,0,0.0,0.0,-0.007619870008582782,0.003920545335513629,0.992079933072592
2011-04-14,0,0.0,0.0,-0.0079117186937454,0.003920545335513629,0.9918445758278404
2011-04-18,0,0.0,0.0,-0.0079117186937454,0.003052631774960105,0.9921201131777372
2011-04-20,0,0.0,0.0,-0.0079117186937454,0.004851311495568827,0.9924467692000526
2011-04-25,0,0.0,0.0,-0.00880098447514129,0.004851311495568827,0.9917823670187965
2011-04-27,0,0.0,0.0,-0.009188849108703503,0.005035813126927688,0.9911699594418018
2011-04-29,1,0.0007035070711114711,0.0007903999049908321,-0.00880098447514129,0.005035813126927688,0.9919656507161053
2011-05-03,1,0.0015709277879456902,0.0016048855358483027,-0.009188849108703503,0.005035813126927688,0.9914941045210295
2011-05-05,1,0.0002955196562231207,0.00043533247125779263,-0.009188849108703503,0.005035813126927688,0.9923334790463253
2011-05-09,-1,-0.0005790683485096739,-0.0003010933087671707,-0.0088407262741684,0.005901268376237178,0.9921070218504386
2011-05-11,-1,-0.0008276510219604733,-0.0005216712490856347,-0.009600934619451561,0.007740804727632414,0.990912716090478
2011-05-13,-1,-0.0017250473714313912,-0.001267799248980776,-0.009600934619451561,0.007740804727632414,0.9911512707866443
2011-05-17,0,0.0,0.0,-0.011023204064022359,0.007740804727632414,0.9899184787722297
2011-05-19,0,0.0,0.0,-0.011023204064022359,0.006226283836933718,0.990261337288182
2011-05-23,0,0.0,0.0,-0.00804439637583069,0.0074918444203965415,0.9909505622729691
2011-05-25,0,0.0,0.0,-0.008588085479401309,0.00615617365129112,0.9903612271843611
2011-05-27,0,0.0,0.0,-0.009837936410075316,0.005081430658010451,0.990414277464615
2011-06-01,0,0.0,0.0,-0.007649307157848343,0.005081430658010451,0.9911439184847066
2011-06-03,-1,-0.0027291022918068766,-0.0021755025358978753,-0.006124036545187056,0.006512309335379851,0.990883208458917
2011-06-07,0,0.0,0.0,-0.0074393467484735396,0.0058530320181664226,0.9912780804183403
2011-06-09,0,0.0,0.0,-0.0074393467484735396,0.0058530320181664226,0.991756410002702
2011-06-13,0,0.0,0.0,-0.008269276860397941,0.0058530320181664226,0.9909080164385282
2011-06-15,0,0.0,0.0,-0.008269276860397941,0.005695940132377158,0.9916837454838306
2011-06-17,-1,-0.001204032610893392,-0.0009609508741220328,-0.009547936684681482,0.005695940132377158,0.9910342725001857
2011-06-21,-1,-0.0006969815618624869,-0.0004790189394780884,-0.009547936684681482,0.006524361448966384,0.9890428873099473
2011-06-23,-1,-0.001992591058224029,-0.0016088284227129335,-0.008269276860397941,0.007653654962622427,0.9895919365784545
2011-06-27,-1,-0.001646719988294433,-0.0013326816906875324,-0.007874198655787366,0.007653654962622427,0.9899606387615089
2011-06-29,-1,-0.001319986764500747,-0.0010423806373134358,-0.008918055456557073,0.007653654962622427,0.989098543423989
2011-07-01,-1,-0.00010521849522136172,-8.131893230937872e-06,-0.011903032645330585,0.006194846152610739,0.987588944315759
2011-07-06,-1,-0.0004193493170532394,-0.00032653647200676754,-0.014891891429388803,0.009224045956068646,0.9852115873451436
2011-07-08,-1,-0.0007275269018564864,-0.0006146566189836298,-0.02064714235165483,0.011655426552040252,0.9837360805775104
2011-07-12,-1,-0.0018373853281348053,-0.0016131308579261819,-0.02064714235165483,0.022297964655021464,0.9793012359699499
2011-07-14,-1,-0.0019111381710658773,-0.0017182489896491694,-0.021273141379965263,0.02392607007409981,0.9757705313363637
2011-07-18,-1,-0.003368913645525361,-0.0029488823750145592,-0.020995580746622736,0.02392607007409981,0.9759617751734112
2011-07-20,-1,-0.0012445416891216003,-0.0011238049133100762,-0.020995580746622736,0.011655426552040252,0.9779557559805592
2011-07-22,-1,-0.0009758070633644159,-0.0009047011537287777,-0.023810243780139143,0.011424283590494948,0.9766722921618382
2011-07-26,-1,-0.001453777562271909,-0.0012969346066471201,-0.023810243780139143,0.023054168684813137,0.9746106548787162
2011-07-28,-1,-0.001688088334293823,-0.0014565803406932716,-0.023810243780139143,0.016113566111026444,0.9746423302208841
2011-08-01,-1,-0.002663121793683121,-0.002358593417103995,-0.023393501141884838,0.025456195355041598,0.97451925745826
2011-08-03,-1,-0.0028760231421812487,-0.002535146989025425,-0.016958565245674236,0.017426021510067002,0.9771062391422737
2011-08-05,-1,-0.0033545551131459106,-0.0029268195912748518,-0.016958565245674236,0.013272733316383081,0.97774091748464
2011-08-09,-1,-0.003992636586947332,-0.003479183981198837,-0.016958565245674236,0.013272733316383081,0.9797595453560465
2011-08-11,-1,-0.0034145232899585095,-0.0030192110216533865,-0.016958565245674236,0.009110749399232718,0.9814799387998139
2011-08-15,-1,-0.0028336435650373366,-0.0025148070607271034,-0.016958565245674236,0.007327026894019404,0.9817199665943004
2011-08-17,-1,-0.0028577974344604785,-0.0025655972289457037,-0.016958565245674236,0.013272733316383081,0.9806571317857958
2011-08-19,-1,-0.003570665440887107,-0.003213978663636978,-0.016138760893289257,0.013272733316383081,0.9809009793796011
2011-08-23,-1,-0.0018042567317069877,-0.0016733761774353354,-0.0193033866567083,0.009022123796986805,0.9815667155512466
2011-08-25,-1,-0.0027735680628859826,-0.0025602799326447643,-0.021097406760808478,0.009022123796986805,0.9817722602636977
2011-08-29,-1,-0.0013489903206297075,-0.001314227259833798,-0.021097406760808478,0.009022123796986805,0.981880573571964
2011-08-31,-1,-0.0012479861082792753,-0.001208560794677657,-0.021097406760808478,0.009022123796986805,0.9812521297042338
2011-09-02,-1,-0.002324577571773624,-0.002173104407366033,-0.021454199762659623,0.009022123796986805,0.9810182817020358
2011-09-07,-1,-0.0020593986239148734,-0.0019663017657824875,-0.01860251330494037,0.009022123796986805,0.9825795567481738
2011-09-09,-1,-0.0038959149645193367,-0.003579064150354123,-0.016530371857833848,0.013628539461173695,0.9823680956618758
2011-09-13,-1,-0.002926284583583149,-0.0027545284550421095,-0.016530371857833848,0.017192318580453187,0.9813567938275635
2011-09-15,-1,-0.0018886029538010705,-0.0018350987815033111,-0.016530371857833848,0.01412181706392664,0.9820378118017424
2011-09-19,-1,-0.001744946945323757,-0.0017206778726064054,-0.016602960610838064,0.015157566214098535,0.9819423894413071
2011-09-21,-1,-0.0031928720344886665,-0.00299452555650703,-0.016602960610838064,0.019095763394268054,0.981373088592166
2011-09-23,-1,-0.0034915182224068567,-0.003289094847156888,-0.015347046155996783,0.019095763394268054,0.9817702927657529
2011-09-27,-1,-0.0024696623098922985,-0.002356170260721553,-0.016602960610838064,0.016792860419070015,0.9817710925344862
2011-09-29,0,0.0,0.0,-0.016602960610838064,0.02584087342657314,0.9801060718959526
2011-10-03,0,0.0,0.0,-0.01028618061035413,0.02584087342657314,0.9807345025757469
2011-10-05,0,0.0,0.0,-0.016602960610838064,0.01788186218200084,0.9801595759836002
2011-10-07,0,0.0,0.0,-0.012925570299291183,0.01788186218200084,0.9802958688963795
2011-10-11,0,0.0,0.0,-0.012925570299291183,0.015839333865261044,0.9803095579711819
2011-10-13,-1,-0.0023072928549742223,-0.0021933310886282044,-0.018999110306205685,0.015839333865261044,0.9786247577080517
2011-10-17,-1,-0.002756003560383817,-0.0026828622366975646,-0.02187983222182236,0.019085743258378557,0.9774087016652355
2011-10-19,-1,-0.002091914004515085,-0.002038625313738532,-0.01757434494228855,0.015839333865261044,0.9792684655818202
2011-10-21,-1,-0.002044289393756976,-0.0019919063902784787,-0.02231998151726993,0.015839333865261044,0.978363654942989
2011-10-25,-1,-0.0018765231250697475,-0.001789443073694062,-0.024893948460788302,0.013504870302492911,0.9789536427220646
2011-10-27,0,-0.000270142910751413,1.0046876529593908e-05,-0.024893948460788302,0.0037984949226474,0.9807674464226456
2011-10-31,-1,-0.003067353675798832,-0.002999071817587076,-0.019665483849953938,0.009849598552345674,0.9811754494062794
2011-11-02,0,0.0,0.0,-0.01728530013994821,0.0181788459765689,0.9795103201105526
2011-11-04,-1,-0.0004543357632300507,-0.0003624839046954336,-0.01728530013994821,0.0181788459765689,0.9799839436744703
2011-11-08,0,0.0,0.0,-0.01728530013994821,0.02301387586201476,0.9793855968610432
2011-11-10,0,0.0,0.0,-0.01728530013994821,0.02301387586201476,0.9794449948259388
2011-11-14,-1,-0.000554282236766525,-0.0005116419109217376,-0.014183396965513016,0.02117646954783907,0.9814243600788667
2011-11-16,-1,-0.0008352167015606573,-0.0008242579678697905,-0.013140006595596176,0.02117646954783907,0.9818021675888163
2011-11-18,0,0.0,0.0,-0.013140006595596176,0.02117646954783907,0.9823520978338575
2011-11-22,-1,-0.001917648130159402,-0.0018675124955421882,-0.009597962535835232,0.02301387586201476,0.9819478207567612
2011-11-25,-1,-0.002025457024214336,-0.0019671662186030946,-0.008326092162659966,0.02301387586201476,0.9810894366229961
2011-11-29,0,0.0,0.0,-0.008313625331669428,0.02117646954783907,0.9832127084286797
2011-12-01,0,0.0,0.0,-0.008313625331669428,0.012788045407700174,0.986566660902372
2011-12-05,0,0.0,0.0,-0.008313625331669428,0.0073909554688017555,0.9882901403957415
2011-12-07,0,0.0,0.0,-0.008313625331669428,0.007380919199850296,0.9890937788163273
2011-12-09,1,0.0007832512014757505,0.001112882808664593,-0.0064972251209668925,0.007380919199850296,0.990683098823495
2011-12-13,-1,-0.003097047620049374,-0.0030310101825340406,-0.0009125183081558292,0.007380919199850296,0.989332502922165
2011-12-15,0,0.0,0.0,-0.0009125183081558292,0.007380919199850296,0.9909755361874266
2011-12-19,0,0.0,0.0,0.0017498939340615436,0.007534712257569949,0.9910875403285699
2011-12-21,0,0.0,0.0,0.0017498939340615436,0.007534712257569949,0.9924799363024825
2011-12-23,0,0.0,0.0,0.0017498939340615436,0.007534712257569949,0.9928461092633114
2011-12-28,0,0.0,0.0,0.002248252431282306,0.007534712257569949,0.9931669209847448
2011-12-30,0,0.0,0.0,0.00036857822825976324,0.007534712257569949,0.993617145506509
2012-01-04,0,0.0,0.0,0.0013941679176983747,0.007534712257569949,0.9934933254243934
2012-01-06,0,0.0,0.0,0.0013941679176983747,0.007924212049232623,0.9933745073109106
2012-01-10,0,0.0,0.0,-0.0006920408716438477,0.00561263267520442,0.9940057402707159
2012-01-12,1,0.0,0.0010543278827164911,-0.0019932007672889777,0.00561263267520442,0.9947501725151594
2012-01-17,1,0.001957998088562377,0.0023692651478637175,-0.0004337199652150433,0.009017282680406956,0.9912839955924534
2012-01-19,0,0.0,0.0,-0.0019932007672889777,0.009017282680406956,0.9904101053739216
2012-01-23,0,0.0,0.0,-0.0031188827585189958,0.0061914154985956895,0.990212164649615
2012-01-25,0,0.0,0.0,-0.0031188827585189958,0.006749970229880637,0.9901893823273161
2012-01-27,1,0.002583943298100986,0.0029334129048361186,-0.0031188827585189958,0.006730609307792585,0.9900510873066718
2012-01-31,1,0.0028173359315883896,0.0032713710599712826,-0.0031188827585189958,0.00930010638313733,0.9898172426006675
2012-02-02,1,0.0019933305103662156,0.002217002689891599,-0.004318751446620793,0.00930010638313733,0.9884881710200112
2012-02-06,1,0.002460754650999761,0.002768158361221531,-0.005354748957235464,0.008093542655390354,0.9888833315351779
2012-02-08,1,0.002224069691415519,0.0025214221341176273,-0.0023439200392325827,0.009418536336068963,0.989132280521558
2012-02-10,1,0.0018941813191514466,0.0021359473329486756,-0.0012893415157501338,0.009418536336068963,0.9893338784850508
2012-02-14,1,0.002914677015838163,0.0031507682033184033,-0.0012893415157501338,0.008473887581158392,0.9929405460939553
2012-02-16,1,0.0021260066318679544,0.0022105710075833087,-0.0007946443411587083,0.008473887581158392,0.9927778502513364
2012-02-21,1,0.0020421290115983817,0.0021643794272717615,-0.0007946443411587083,0.008473887581158392,0.993226642290511
2012-02-23,1,0.0021239379075833,0.002263372823938146,-0.00015773231295197995,0.008093542655390354,0.9938131481761832
2012-02-27,1,0.0010285032538215704,0.0011382555108473552,0.0,0.008473887581158392,0.9932508291276451
2012-02-29,1,0.002353821018624517,0.0024483366451570074,-0.0012273619781870203,0.008239427847047625,0.9934653894349995
2012-03-02,1,0.0014017980962854944,0.001437156538544935,-0.00015773231295197995,0.008239427847047625,0.9947463511228051
2012-03-06,1,0.0021198553978306546,0.0022360242281461227,-0.00015773231295197995,0.008964958514933796,0.9946119669058705
2012-03-08,1,0.002340973211439545,0.0025565752874768936,-0.0012273619781870203,0.004802520728672886,0.9941587933300451
2012-03-12,1,0.0019853202159973724,0.002070442398915664,-0.003171577935302072,0.004802520728672886,0.9936540416220637
2012-03-14,1,0.0023572067505554066,0.002515385818011512,-0.003171577935302072,0.003811326236094778,0.9931883562010446
2012-03-16,1,0.0029988950734177768,0.0032614096542288376,-0.004226476018588758,0.002427426241284128,0.9926518250565218
2012-03-20,1,0.0027831874584503084,0.0030653679020105663,-0.003761722684655508,0.005364690804686047,0.9927021163764875
2012-03-22,0,0.0,0.0,-0.006817357757655409,0.005364690804686047,0.9924214858096987
2012-03-26,0,0.0,0.0,-0.007795744533671703,0.0033164221415423363,0.9923766974173862
2012-03-28,0,0.0,0.0,-0.007795744533671703,0.011914814897373739,0.9913238344651139
2012-03-30,0,0.0,0.0,-0.007795744533671703,0.011914814897373739,0.9907294091078492
2012-04-03,1,0.004851386452164662,0.005224275304655368,-0.006694076424104146,0.010866920273444184,0.9906199849244847
2012-04-05,1,0.004242512871734268,0.004556642594062108,-0.007795744533671703,0.010866920273444184,0.9903819629350843
2012-04-10,1,0.003360722127491996,0.0035112377247375664,-0.008696810876876286,0.010866920273444184,0.990097610028829
2012-04-12,1,0.0035806378813452505,0.0037027837212993027,-0.008696810876876286,0.010117168597855707,0.9902247225031925
2012-04-16,1,0.0030797983175553777,0.0030876204776938004,-0.007852651169654118,0.008279743756837658,0.9908384826196536
2012-04-18,1,0.002410842705855421,0.002591076837858232,-0.007852651169654118,0.006078984058955655,0.9914165721737791
2012-04-20,1,0.0014283515953275856,0.0017084149980462443,-0.009377447129618494,0.006078984058955655,0.9905270450615664
2012-04-24,1,0.0003291972955509223,0.0007588954913858689,-0.009377447129618494,0.010117168597855707,0.9897582988527338
2012-04-26,1,0.0018644059795012071,0.002035615914696717,-0.009377447129618494,0.007222563339411968,0.9904545922201782
2012-04-30,0,0.0,0.0,-0.009377447129618494,0.007771164863854372,0.9902705435299152
2012-05-02,0,0.0,0.0,-0.011773542891023869,0.00590945776129456,0.9902132058115687
2012-05-04,0,-2.9061395605827108e-06,0.0002547284403116224,-0.009301546346078696,0.00590945776129456,0.9893606716311893
2012-05-08,-1,-0.0014029791076909074,-0.0009346139754729467,-0.005778524046180296,0.010914181879479503,0.9890121209744278
2012-05-10,-1,-0.0014097870684844913,-0.0009281809145461949,-0.005778524046180296,0.010010010681091698,0.9891232504429769
2012-05-14,0,0.0,0.0,-0.006793954829745239,0.010010010681091698,0.9886521521920295
2012-05-16,-1,-0.0014760866108172257,-0.0009789044465878948,-0.006793954829745239,0.010245743279346194,0.9881714985348848
2012-05-18,-1,-0.0026981183555451673,-0.002090939662399916,-0.004169979087730978,0.013365701128077848,0.9882649932089851
2012-05-22,0,0.0,0.0,-0.004169979087730978,0.010074282812897677,0.9898394380385123
2012-05-24,0,0.0,0.0,-0.004475513912635631,0.010074282812897677,0.9886619184573631
2012-05-29,0,0.0,0.0,-0.006793954829745239,0.008851414911698389,0.9881079644751456
2012-05-31,0,0.0,0.0,-0.004962139777740352,0.010074282812897677,0.9871234869193759
2012-06-04,0,0.0,0.0,0.003287728363205072,0.013261934143698294,0.9879757745697368
2012-06-06,-1,-0.002320400067602943,-0.0017756536192063694,-0.0025540830493444243,0.010187425828594684,0.9877290169352282
2012-06-08,-1,-0.002321445534228516,-0.0017637620428720957,-0.005770504881398452,0.010187425828594684,0.9879730568425008
2012-06-12,-1,-0.00243520758783291,-0.0018950954731661016,-0.005770504881398452,0.010187425828594684,0.987796957897114
2012-06-14,-1,-0.002012056183600586,-0.0015550281836933582,-0.00603045534585445,0.01123617385829081,0.9880101240648507
2012-06-18,-1,-0.0013558021990276344,-0.0010047809235762088,-0.00603045534585445,0.010187425828594684,0.9891608110769843
2012-06-20,-1,-0.0002589960830828226,-1.9789894139396946e-05,-0.010603440082720465,0.00905946984285722,0.9878673907434881
2012-06-22,-1,-0.0011449930460122988,-0.0007958571720090922,-0.010603440082720465,0.008237635312380075,0.9888580274625053
2012-06-26,-1,-0.0017316612683751763,-0.0013212046902159233,-0.00976743298616639,0.00755661615743237,0.9899470500810792
2012-06-28,-1,-0.0006869349241670781,-0.00042074770145803105,-0.00976743298616639,0.00755661615743237,0.9905316544071225
2012-07-02,0,-3.7294624552501945e-05,0.00018587114174171276,-0.011457633559137802,0.00129371373860632,0.990537782274375
2012-07-05,-1,-0.0005664088246959863,-0.00026642373319904716,-0.014078515891236572,0.00129371373860632,0.9902889215785114
2012-07-09,1,0.0009478080244122371,0.0010643834272622982,-0.014078515891236572,0.0019315808674239439,0.988575281627708
2012-07-11,1,0.0006847167581417489,0.000752299398011919,-0.011707233763367908,0.0004711582578182128,0.9894148471762103
2012-07-13,1,0.001023325829706627,0.0010933259446641876,-0.011707233763367908,0.0007200349799019717,0.9900385563286088
2012-07-17,1,0.0010087309561651898,0.001100898464740686,-0.011707233763367908,0.0010330558190976141,0.9899532949004254
2012-07-19,1,3.127399478916571e-05,5.448933132691432e-05,-0.008678535592671663,0.0010330558190976141,0.992193912763212
2012-07-23,-1,-0.0006117190872530924,-0.0005349140357073394,-0.006983991341561362,0.00460928806908694,0.9913379226436865
2012-07-25,-1,-0.0016208229355350041,-0.0013870389456416667,-0.006983991341561362,0.00460928806908694,0.9914091082101697
2012-07-27,-1,-0.0006180100786783045,-0.0004959133320111323,-0.006983991341561362,0.00460928806908694,0.9920379640937219
2012-07-31,-1,-0.0011233879119772383,-0.0009723627166716687,-0.004126304200573497,0.00460928806908694,0.9929109013968989
2012-08-02,-1,-0.0019709447703440564,-0.0017261862591077264,-0.004059833464029931,0.0023134594792317063,0.9936910361819808
2012-08-06,-1,-0.0015643022501862953,-0.001386512451880466,-0.002413030928534847,0.0018189878445400473,0.9949719501904623
2012-08-08,-1,-0.0012880385064331038,-0.0011799135715865067,-0.0015020732748246494,0.00527972430121611,0.9933418082697713
2012-08-10,-1,-0.0011739728366822282,-0.0010749093354635263,-0.0033732654021877083,0.00527972430121611,0.9932018353126464
2012-08-14,-1,-0.0010332166508034684,-0.000957897742442677,-0.007632667972150623,0.0037963093971411332,0.9922096810921719
2012-08-16,-1,-0.0010196473623022215,-0.0009618062118075402,-0.007060706095289414,0.007859117676680419,0.9916496942673155
2012-08-20,1,0.00020357368653514427,0.0002886375241231758,-0.007060706095289414,0.007012531563811674,0.9924193503772234
2012-08-22,-1,-0.0006972971603976166,-0.0006340232559200586,-0.006772039838215968,0.007012531563811674,0.9922577857721988
2012-08-24,-1,-0.00018086445667580642,-0.0001758424307038439,-0.006772039838215968,0.006809063186665369,0.9923846155388891
2012-08-28,-1,-0.0009985042113049175,-0.000874311352130619,-0.006772039838215968,0.006809063186665369,0.991828441391286
2012-08-30,-1,-0.0014559299522906351,-0.0012591135977165035,-0.006772039838215968,0.006809063186665369,0.9914935144158512
2012-09-04,-1,-0.000814439805733049,-0.0007290782319129773,-0.007811693068930814,0.006809063186665369,0.9910048125747963
2012-09-06,1,0.0004335143721832671,0.0005044220547558327,-0.007811693068930814,0.003314204279048415,0.9922605749468622
2012-09-10,0,0.0,0.0,-0.007811693068930814,0.005087771708188713,0.991858728354359
2012-09-12,0,0.0,0.0,-0.006344142109181711,0.005330883786676569,0.992506486078763
2012-09-14,-1,-0.0007576285105175565,-0.0006706647218078501,-0.005676399783768487,0.006809063186665369,0.9922975147115947
2012-09-18,1,0.0007032412181984034,0.0008622670857742836,-0.005676399783768487,0.005873803618633221,0.9926132973463627
2012-09-20,0,0.0,0.0,-0.005676399783768487,0.005021232058800791,0.9926366889897048
2012-09-24,0,0.0,0.0,-0.005111782771166865,0.005792977273987107,0.9925737782275195
2012-09-26,0,0.0,0.0,-0.0037807037773074847,0.005792977273987107,0.993277733917445
2012-09-28,0,0.0,0.0,-0.002996599619442305,0.005792977273987107,0.9937882408922244
2012-10-02,0,0.0,0.0,-0.001611923415564465,0.007801555359303131,0.9936700133905442
2012-10-04,0,0.0,0.0,-0.002996599619442305,0.008809968506543722,0.9930057144723374
2012-10-08,0,0.0,0.0,-0.002996599619442305,0.008809968506543722,0.9914093890446195
2012-10-10,0,0.0,0.0,-0.002996599619442305,0.008809968506543722,0.9916267319090624
2012-10-12,0,0.0,0.0,-0.002996599619442305,0.007801555359303131,0.9921911921610587
2012-10-16,0,0.0,0.0,-0.004054731038646037,0.00677559258297815,0.9923302740290677
2012-10-18,0,0.0,0.0,-0.003372638573047487,0.007801555359303131,0.9914623904277614
2012-10-22,0,0.0,0.0,-0.002386445733747909,0.008720374754300677,0.9913168815135067
2012-10-24,0,0.0,0.0,-0.002386445733747909,0.008720374754300677,0.9912861052727229
2012-10-26,0,0.0,0.0,-0.0019980555708786394,0.010358792194620542,0.990949485085464
2012-11-01,0,0.0,0.0,-0.0019980555708786394,0.010358792194620542,0.9916752311630421
2012-11-05,0,0.0,0.0,-0.0019980555708786394,0.010358792194620542,0.9916331435926548
2012-11-07,0,0.0,0.0,-0.0007788698289945824,0.010358792194620542,0.9930187930228258
2012-11-09,1,0.0014967718563555798,0.0017316529477073548,-0.0007788698289945824,0.010358792194620542,0.9927297172387082
2012-11-13,1,0.0022251005744179575,0.0025907785234630188,-0.0025538233084063016,0.008367228142993921,0.992605286185594
2012-11-15,1,0.0017724642686181822,0.002041424158436111,-0.0025538233084063016,0.008367228142993921,0.9926005180673281
2012-11-19,0,0.0,0.0,-0.004440887299323179,0.0074535526883378524,0.9925772098634229
2012-11-21,0,0.0,0.0,-0.004440887299323179,0.0074535526883378524,0.9924908021769564
2012-11-26,0,0.0,0.0,-0.0071650558468444436,0.0074535526883378524,0.9919327147077194
2012-11-28,1,0.0035783863260233388,0.0041295277290307065,-0.009407054736340953,0.006861147716976141,0.9908494551591931
2012-11-30,1,0.0033174377075722294,0.0038400570846602615,-0.010322687708813059,0.0074535526883378524,0.9900402683681715
2012-12-04,1,0.0034514923951573864,0.0039768939454486625,-0.010322687708813059,0.0074535526883378524,0.9892065861602961
2012-12-06,1,0.004176164622839694,0.004820694839084044,-0.010322687708813059,0.006957739856247061,0.9888549658628707
2012-12-10,1,0.0034215595442654255,0.003936113385062434,-0.007548007154907082,0.007404195623990688,0.9898555421712087
2012-12-12,1,0.002280779301641737,0.0025657376383219953,-0.007548007154907082,0.011222089738278446,0.9897239143823364
2012-12-14,1,0.0015824890676365952,0.0017531597133587588,-0.007548007154907082,0.011222089738278446,0.989935921580132
2012-12-18,1,0.0011842262719600847,0.0012720859943245008,-0.005496926202898127,0.011222089738278446,0.9904846120094837
2012-12-20,1,0.0019666261552371373,0.0022010831995601604,-0.005496926202898127,0.011792151918972609,0.9905000086404393
2012-12-24,0,0.0,0.0,-0.005496926202898127,0.011792151918972609,0.9902606462340448
2012-12-27,0,0.0,0.0,-0.005496926202898127,0.011792151918972609,0.9909171191931673
2012-12-31,1,0.0006155470013433108,0.0006395420689927372,-0.003764641124134115,0.010028504918124534,0.991883023702365
2013-01-03,1,0.0006906110706808418,0.0007132262468083288,-0.002048585936804392,0.010028504918124534,0.9928600730655975
2013-01-07,1,0.0008753303777498007,0.0008755582819033893,-0.002048585936804392,0.008875788505946502,0.9923474075905654
2013-01-09,1,0.0009507642220043095,0.0009595207867094287,-0.0033496398569753923,0.007652236574652186,0.9924140923108166
2013-01-11,1,0.0014309122465461389,0.0014888987540380648,-0.0033496398569753923,0.006725906710502534,0.99286996338244
2013-01-15,1,0.0017021405830603166,0.0018796847223919362,-0.0033496398569753923,0.007652236574652186,0.9913689601699571
2013-01-17,1,0.001235720848200344,0.0013052331048943198,-0.008836464808734944,0.007652236574652186,0.990570863692444
2013-01-22,1,0.0020160976894800014,0.002207903527752314,-0.008836464808734944,0.007652236574652186,0.9904033562257535
2013-01-24,1,0.0010649752383443479,0.0010966223207765505,-0.008836464808734944,0.00957148112057565,0.9896266453553939
2013-01-28,1,0.0006283735838969499,0.0006638434529444115,-0.00781468623763314,0.00961392192088538,0.9894077970465103
2013-01-30,1,0.0010149301626954743,0.0010334998769385116,-0.00781468623763314,0.012659537872874093,0.988837141984374
2013-02-01,1,0.0016938253574134087,0.0018551083017681008,-0.00781468623763314,0.00961392192088538,0.9895848351584867
2013-02-05,1,0.0010913840275922904,0.0011414910524229537,-0.00632739203484725,0.012609625822059248,0.9901435307272417
2013-02-07,1,0.00029611405258164736,0.00037481414874013046,-0.00632739203484725,0.012609625822059248,0.9890406093928573
2013-02-11,1,0.0006225372338736992,0.0006595735788138813,-0.00632739203484725,0.012609625822059248,0.9891668520032536
2013-02-13,0,0.0,0.0,-0.002473182559225316,0.010671927111251877,0.9912058518884346
2013-02-15,0,0.0,0.0,-0.0027447475604012624,0.010671927111251877,0.9910338641748083
2013-02-20,0,0.0,0.0,-0.0027447475604012624,0.010488674259637351,0.9911058172513332
2013-02-22,0,0.0,0.0,-0.0005266364404610689,0.009067256746088766,0.9924565427602423
2013-02-26,0,-0.0002065478732553314,0.0,-0.0005266364404610689,0.010488674259637351,0.9925383871234998
2013-02-28,0,-0.00018329599610556575,6.221114240770862e-06,-6.502550657122657e-05,0.010488674259637351,0.9926938382603011
2013-03-04,-1,-0.00019476682602158043,-3.036656531282914e-05,-6.502550657122657e-05,0.010488674259637351,0.9923823282007281
2013-03-06,0,0.0,0.0,-0.0020192380507694516,0.008499469946768184,0.9928978999903485
2013-03-08,0,0.0,0.0,-0.0020192380507694516,0.00727903420216877,0.9935442239933153
2013-03-12,1,0.00018971736799009743,0.0003233827848336433,-0.0020192380507694516,0.00727903420216877,0.9930923281245593
2013-03-14,1,0.00042368225424876726,0.0005076919821051243,-0.002620749906281106,0.008862882269950271,0.9916762655747321
2013-03-18,-1,-0.0005393948160984676,-0.00035547701438255297,-0.0020192380507694516,0.011986791897114569,0.991317862166457
2013-03-20,1,4.9411490064477624e-05,0.00015426017598631122,-0.002620749906281106,0.00859225785651084,0.9915276294959576
2013-03-22,1,8.076930475755005e-05,0.0001811208840398082,-0.004481993002648867,0.013350269931946879,0.9907808579777769
2013-03-26,1,0.00015099397267100796,0.000254600398029167,-0.004481993002648867,0.009952866305551129,0.991089128914828
2013-03-28,1,0.000717770286865734,0.000736177364506656,-0.0053837915935070835,0.007506401991392071,0.9913213851677272
2013-04-02,1,0.0007032841713003144,0.0007236634462116161,-0.0053837915935070835,0.009952866305551129,0.9898882064739981
2013-04-04,1,0.0009083960309420908,0.0009461488255681633,-0.0053837915935070835,0.009952866305551129,0.9900387333124332
2013-04-08,1,0.0005605155533984243,0.0005701862534403599,-0.004446584743507505,0.010212590274985271,0.9903078241348183
2013-04-10,1,0.001284995717666321,0.0013833075884269017,-0.004446584743507505,0.010212590274985271,0.9906396129833406
2013-04-12,1,0.001295437097046155,0.001355582721692746,-0.0032598461367453046,0.008953585096910407,0.9918486179438154
2013-04-16,1,0.0014361983327047163,0.0015461743094526603,-0.0019343898055973101,0.006505407568132461,0.9929420201306771
2013-04-18,1,0.0012283288612207925,0.0013227852074839063,-0.0009489269359382032,0.00818670594882266,0.9932603780121564
2013-04-22,1,0.001385163683878891,0.0015073750199096944,-0.00018309802226196278,0.00818670594882266,0.9935589765301339
2013-04-24,1,0.00157210122080798,0.0017306304289806261,-0.00039963286915231487,0.006278639404262561,0.9938647278164542
2013-04-26,0,0.0,0.0,-0.00039963286915231487,0.006278639404262561,0.9936052192577697
2013-04-30,0,0.0,0.0,-0.00039963286915231487,0.006278639404262561,0.9939391686525291
2013-05-02,0,0.0,0.0,-0.0016409953585981285,0.008273280605300706,0.9925420866088615
2013-05-06,1,0.003358080389514888,0.003639578241689856,-0.0016409953585981285,0.006278639404262561,0.9927717337309677
2013-05-08,1,0.0025095245324440675,0.002766260278285434,-0.0019334916672451706,0.006278639404262561,0.9919071153788918
2013-05-10,1,0.00211326390935139,0.002288141152429658,-0.0019334916672451706,0.00823597249518505,0.9917292722844213
2013-05-14,1,0.001921833965543764,0.002061387247002289,-0.005465021499481328,0.00823597249518505,0.9909265924005322
2013-05-16,0,0.0,0.0,-0.013837755718735545,0.009999605048698401,0.9892994647342751
2013-05-20,0,0.0,0.0,-0.013837755718735545,0.008796743379029224,0.9893508056584283
2013-05-22,0,0.0,0.0,-0.016047923851546825,0.008796743379029224,0.9876011122367309
2013-05-24,0,0.0,0.0,-0.016047923851546825,0.008796743379029224,0.9876034244670162
2013-05-29,1,0.0013998680535121256,0.0014503653750977403,-0.013946824670790902,0.008796743379029224,0.9882682529720244
2013-05-31,0,0.0,0.0,-0.012758766745230299,0.007458621557841067,0.9899035820051836
2013-06-04,0,0.0,0.0,-0.012987438375562984,0.008796743379029224,0.989218251654401
2013-06-06,1,0.0015685507364856237,0.0016159293561855824,-0.006122534868228679,0.008796743379029224,0.9902314291066108
2013-06-10,0,0.0,0.0,-0.006519120504057734,0.009352259350782044,0.9894800756996655
2013-06-12,0,0.0,0.0,-0.004084721963384484,0.011013652667837017,0.9894155454675929
2013-06-14,0,0.0,0.0,-0.004084721963384484,0.009989319996136886,0.9912263599943355
2013-06-18,0,0.0,0.0,-0.004959641728007307,0.009989319996136886,0.9915855895921671
2013-06-20,0,0.0,0.0,-0.004084721963384484,0.009989319996136886,0.9931047901696655
2013-06-24,0,0.0,0.0,-0.004084721963384484,0.009989319996136886,0.9928879317494557
2013-06-26,0,0.0,0.0,-0.004595832608822829,0.0068003792494531635,0.9930137480265432
2013-06-28,0,0.0,0.0,-0.0046018681781764175,0.0068003792494531635,0.9929783363758574
2013-07-02,0,-0.0003206089927171407,0.0,-0.0046018681781764175,0.005693741590292411,0.9930163868655463
2013-07-05,1,0.00041470862570272424,0.0005175056373388988,-0.0046018681781764175,0.006652999240296459,0.9913578763095665
2013-07-09,0,0.0,0.0,-0.0046018681781764175,0.006540129494042113,0.9920386383776635
2013-07-11,1,0.0005964279881436409,0.0007208928859624059,-0.0046018681781764175,0.00530329402493203,0.9924862822713896
2013-07-15,1,0.0005710623668418856,0.0006707239070872565,-0.0024745703026238736,0.009076526373586517,0.9919926847988418
2013-07-17,0,0.0,0.0,-0.0024745703026238736,0.009076526373586517,0.9917690608154193
2013-07-19,0,0.0,0.0,-0.0024745703026238736,0.009076526373586517,0.9910848953288327
2013-07-23,0,-0.00010160796725820087,5.655076002513077e-05,-0.0046018681781764175,0.009076526373586517,0.9912204672327115
2013-07-25,0,-0.00011936734421534969,3.801304069014856e-05,-0.004731049451135411,0.009076526373586517,0.991199894563055
2013-07-29,-1,-0.00016512016401655082,-1.9588847462158787e-05,-0.005610201778683923,0.009076526373586517,0.9910786438989105
2013-07-31,-1,-0.001310417666671857,-0.0009986946069477686,-0.005610201778683923,0.009076526373586517,0.9912667824934763
2013-08-02,1,0.0002874251545622117,0.00039641427324726394,-0.005610201778683923,0.0056472485572627885,0.9931871473679945
2013-08-06,1,0.0005076263914509235,0.0005908246954912835,-0.005610201778683923,0.00303905365401027,0.9937156642243817
2013-08-08,1,0.00020754329251644794,0.00037250222911018187,-0.005610201778683923,0.0027779675994251325,0.9937873247565758
2013-08-12,1,0.0010438269334811933,0.0010898969985187325,-0.005610201778683923,0.0019721477448057987,0.9931460081004918
2013-08-14,1,0.0006250301901709457,0.0007205347222974885,-0.004901753571748406,0.0019721477448057987,0.9935501305505187
2013-08-16,1,0.00014815516743598854,0.0002868076919271738,-0.004203438846809727,0.005097701855093015,0.9938793944740196
2013-08-20,1,3.935123053029366e-05,0.0001706837959980474,-0.0038345234770197113,0.00533211288823982,0.9938807483011513
2013-08-22,1,8.60526123540334e-05,0.00020247782879117952,-0.0038345234770197113,0.00533211288823982,0.993870649210401
2013-08-26,-1,-0.0005375207187271489,-0.0003334783320767885,-0.0038345234770197113,0.005959623880237679,0.9935033362960108
2013-08-28,-1,-0.001590591089001616,-0.0012420865709743974,-0.0026573385509738837,0.005959623880237679,0.9943793836815045
2013-08-30,-1,-0.0011940425482421897,-0.0009224708052518334,-0.002265998262005597,0.00533211288823982,0.9948896827423241
2013-09-04,-1,-0.0009234509515515022,-0.0007022940373087526,-0.002265998262005597,0.005959623880237679,0.9943067229653955
2013-09-06,-1,-0.0006865913293321156,-0.000484843108092264,-0.0026573385509738837,0.005959623880237679,0.9934881424275092
2013-09-10,-1,-0.0003821492911648507,-0.00019728405921433183,-0.0035672830237498425,0.00533211288823982,0.9933594872854116
2013-09-12,-1,-0.0005742526130384723,-0.00037129421808909495,-0.006323456512296391,0.005959623880237679,0.9920447722014831
2013-09-16,1,7.184148808622178e-05,0.0001867570075604596,-0.006323456512296391,0.005314112438370281,0.9925578950616253
2013-09-18,1,5.3723667478252995e-05,0.00017965436836941105,-0.007481833047483952,0.005693175668647238,0.9911416960244351
2013-09-20,1,0.0004531183421463414,0.0005046768904292117,-0.007481833047483952,0.007691271108629255,0.9908480480873173
2013-09-24,1,0.0004955257736727441,0.0005340205555381301,-0.003960884775312213,0.008202152641360202,0.9910072850835683
2013-09-26,1,0.0003146850349968052,0.0003694621433075667,-0.007198020507395896,0.008202152641360202,0.9907365970755432
2013-09-30,1,0.0006040902841902252,0.0006239596499919305,-0.008271514422589894,0.008202152641360202,0.9903871307050189
2013-10-02,1,0.0010304811209070489,0.0011106927321748138,-0.009941577782837639,0.00843822117389284,0.9880935882268455
2013-10-04,1,0.0007301626544352584,0.000777324137687335,-0.008072163913482526,0.0058634695128908865,0.9892895341638835
2013-10-08,-1,-0.00012636992761127358,-8.58658571280247e-05,-0.004849985306357317,0.0058634695128908865,0.990688634409804
2013-10-10,1,0.0007645448320866628,0.0008694667836567449,-0.004849985306357317,0.004631900766890804,0.9912041727696531
2013-10-14,1,0.0008943330907955022,0.0010075473008251076,-0.004849985306357317,0.005270073911941556,0.990636776202665
2013-10-16,1,0.0011397728688269297,0.0012879343557742923,-0.003043459542915513,0.008531149277863416,0.9911494135944856
2013-10-18,1,0.0015877837333018654,0.0017869926299941344,-0.003043459542915513,0.010972232079603444,0.9904199159932185
2013-10-22,1,0.001888439713996946,0.0021158068910055077,-0.0047946344785515385,0.010972232079603444,0.9902660265005414
2013-10-24,1,0.0012758056679449932,0.0013943990741766207,-0.003043459542915513,0.010972232079603444,0.9908261387449271
2013-10-28,1,0.0007563451494400327,0.0007989954092847527,-0.0029005152069224464,0.010972232079603444,0.9913395429411335
2013-10-30,1,0.0022050058421813775,0.002461278548155597,-0.0015996965270822642,0.007286191973188254,0.9937057769688569
2013-11-01,1,0.0015715653511096282,0.0016977750571347601,-0.0018565309323770691,0.007286191973188254,0.9939346463235288
2013-11-05,1,0.0014019626237439377,0.0014898553306530653,-0.002804595913438233,0.007286191973188254,0.9939075090128067
2013-11-07,1,0.0009481895497770931,0.0010110140990120607,-0.002804595913438233,0.010972232079603444,0.993270373684162
2013-11-11,1,0.0004770333431710944,0.0005583102583109238,-0.001970707372796007,0.008301291024680827,0.9937495905777772
2013-11-13,1,0.0013089511441755114,0.0013235598106364774,-0.0032430445281792604,0.0027153093956712067,0.9939273838533562
2013-11-15,1,0.0022864819989958387,0.002442723471874423,-0.0032430445281792604,0.002571930497662118,0.9942177056233339
2013-11-19,1,0.0017099046550822876,0.0017793939484375078,-0.0032430445281792604,0.005687909181115664,0.9935446712085391
2013-11-21,1,0.0018709063101117695,0.0019489426003750075,-0.0032430445281792604,0.006026275531613189,0.993197943411754
2013-11-25,1,0.0019145736705476497,0.0020390126323053663,-0.0031673994208840845,0.006026275531613189,0.9931879259214214
2013-11-27,1,0.0021180936607731113,0.002296039621776948,-0.0031673994208840845,0.006026275531613189,0.9932114459391979
2013-12-02,1,0.0022305461070956296,0.002463209911929047,-0.0023845021290343766,0.007855028519501497,0.9930358354569021
2013-12-04,1,0.00186574227154735,0.002031228609272232,-0.0023845021290343766,0.007855028519501497,0.9926154548771479
2013-12-06,1,0.001933118202332211,0.0020885339849311176,-0.0023845021290343766,0.007356703813112453,0.9939313002316829
2013-12-10,1,0.0018693904927148675,0.001992417167302073,-0.0023845021290343766,0.005988006376939664,0.9941836688460359
2013-12-12,1,0.0013457095346118928,0.0014028027102671926,-0.0023845021290343766,0.005988006376939664,0.9939776445755883
2013-12-16,1,0.0017153087366853965,0.0018179269504356296,-0.0023845021290343766,0.004545426593264789,0.9941521867149131
2013-12-18,1,0.002127210640376496,0.0022651713626699365,-0.0010978564754662683,0.0036674774235845014,0.9953753594792116
2013-12-20,1,0.0016966320147251493,0.0017166600690032856,-0.0004764555596871656,0.004028687404976126,0.9954028074685979
2013-12-24,1,0.0021330886291001435,0.0023148850708915158,-0.0017402652298078296,0.004028687404976126,0.9931638906579706
2013-12-27,1,0.0023440729698675873,0.0025723873848042134,-0.0049157878696565495,0.0053507354251731126,0.9922458261501955
2013-12-31,1,0.002987191688499759,0.003316286652749117,-0.0049157878696565495,0.004028687404976126,0.9920418076685497
2014-01-03,1,0.0026771662614277227,0.003002324474022008,-0.006495338835024673,0.004028687404976126,0.9899050291440015
2014-01-07,1,0.0023171228854665144,0.002568552012841013,-0.005766666814840069,0.007874676366632218,0.9881923944885649
2014-01-09,1,0.0020913419410088676,0.0022702809794000692,-0.005766666814840069,0.010130651963315694,0.9863562200050252
2014-01-13,1,0.0012509103993692378,0.001301815250641675,-0.005766666814840069,0.010130651963315694,0.986527780190692
2014-01-15,1,0.0013270917005153058,0.0013827222092978558,-0.005766666814840069,0.010161036016432664,0.9862206294081526
2014-01-17,1,0.0012535302383803683,0.0012779428272788173,-0.005766666814840069,0.010161036016432664,0.9857776420244276
2014-01-22,1,0.001074716943321672,0.0011216853333212045,-0.007647786513169802,0.010161036016432664,0.9856838232126934
2014-01-24,-1,-0.0008032896519974142,-0.0005379610735414094,-0.004708142212997883,0.010607248260861908,0.9871759201740764
2014-01-28,-1,-0.000800923470509314,-0.0005333873926943626,-0.0002879096705281167,0.009859296988521064,0.987872585505708
2014-01-30,0,-0.00016439511062076083,9.394939768871038e-06,-0.004708142212997883,0.009859296988521064,0.987748970510341
2014-02-03,-1,-0.0018486703051522834,-0.0015083287725466683,-0.0002879096705281167,0.011626886695971629,0.9882403642141636
2014-02-05,-1,-0.00026791068558959215,-9.985556880865668e-05,-0.004621208638228227,0.009859296988521064,0.990438552794809
2014-02-07,1,0.0014290687424609563,0.001491984895071542,-0.00603498946341087,0.00815991619453927,0.992448296755772
2014-02-11,1,0.001051216240446205,0.0010724621098729965,-0.004355097627713171,0.00815991619453927,0.9926489374323116
2014-02-13,1,0.0014662612717439125,0.0015308731351574912,-0.006920256069725694,0.004489014650520315,0.9914176555981113
2014-02-18,1,0.0014471439381662636,0.0015049773077153693,-0.006920256069725694,0.0074447327520060225,0.99084611618226
2014-02-20,1,0.001192630952379662,0.0012013628329688828,-0.00603498946341087,0.008283502019878541,0.99089337883433
2014-02-24,1,0.0013618275039810929,0.0013788455068833327,-0.0069546948525711135,0.004768604406477821,0.9901476896597337
2014-02-26,1,0.0015554323836231708,0.0016160334725627903,-0.008127140678145864,0.0035231575783808184,0.9894992199982579
2014-02-28,1,0.0014673964653260719,0.0014884695148415013,-0.007763023605300642,0.0035231575783808184,0.9899544013353049
2014-03-04,1,0.0012776548435330902,0.0013391907865789657,-0.006964690573755473,0.007905428730804518,0.990725689414434
2014-03-06,1,0.0008115834901167331,0.0009092458048558519,-0.005595032948921113,0.007905428730804518,0.9916482711728426
2014-03-10,1,0.0004183303514234702,0.000561881706322389,-0.006790845069780772,0.007905428730804518,0.9910829445148628
2014-03-12,1,0.00011844895957105971,0.00029247334847401176,-0.006790845069780772,0.007905428730804518,0.9910415556931348
2014-03-14,-1,-0.001116781683586119,-0.0008203766033860834,-0.00671024713199966,0.007905428730804518,0.9914362542490408
2014-03-18,1,7.70355235626793e-05,0.00021570041724181893,-0.00671024713199966,0.007657210200139409,0.9917225088383895
2014-03-20,-1,-0.0002531027022160419,-5.347731594040916e-05,-0.006224891909246241,0.0069836204436327775,0.9919336243010232
2014-03-24,-1,-0.001516752058326543,-0.0011431784674964184,-0.004482732818496907,0.0069836204436327775,0.9927679455099966
2014-03-26,-1,-0.001208894402958933,-0.0009390669512101751,-0.004482732818496907,0.008048560484658887,0.9917901673975069
2014-03-28,-1,-0.0010707074844401893,-0.0008053911954298964,-0.006224891909246241,0.0069836204436327775,0.9917126912236531
2014-04-01,-1,-0.0004908506007949634,-0.0002884235897154516,-0.006224891909246241,0.0069836204436327775,0.9913030658964871
2014-04-03,-1,-0.0009066276575357303,-0.0006212928963011153,-0.006224891909246241,0.00812386916831905,0.9906368996576205
2014-04-07,-1,-0.0015691392264860578,-0.0012241327077791443,-0.005817680577151494,0.00812386916831905,0.9907134765762277
2014-04-09,-1,-0.0009486843805698763,-0.0007265299169212844,-0.005908164525264715,0.00812386916831905,0.9911128537011411
2014-04-11,-1,-0.0015774903273957134,-0.0013330779440748296,-0.0008067671918078725,0.009803797754392104,0.9909415333435422
2014-04-15,-1,-0.001155228462140113,-0.0009437792084122549,-0.004395024600122685,0.008016494601055284,0.9916256954542514
2014-04-17,-1,-0.0006737987390409536,-0.0005299765099269477,-0.007071784707589811,0.0067694283268495544,0.9915394650112489
2014-04-22,-1,-0.0009731910830535206,-0.0007858208462530621,-0.007832584851777616,0.00831999956951281,0.9908502025190931
2014-04-24,-1,-0.0009881862894574195,-0.000798690331501248,-0.007071784707589811,0.005565481988792557,0.9921980404200417
2014-04-28,-1,-0.0015457169177139588,-0.0012803300147299335,-0.005088417148137101,0.005565481988792557,0.992368792458603
2014-04-30,-1,-0.0005265997925724847,-0.00037557708173866194,-0.005088417148137101,0.004915186149195111,0.9935592278808686
2014-05-02,1,0.00020375217751258563,0.0002557641477876634,-0.005088417148137101,0.004746756185827842,0.9943521276477968
2014-05-06,-1,-0.0002567699111394509,-0.0001602552397806923,-0.004395024600122685,0.004746756185827842,0.9948704717573835
2014-05-08,-1,-0.0008064226774037668,-0.0006169002670142123,-0.0031702881880947514,0.005184675431833388,0.9941722960129918
2014-05-12,1,0.0005244594365927956,0.0005350234206288792,-0.0031702881880947514,0.004746756185827842,0.9954996433374432
2014-05-14,1,0.0004250455293603337,0.0004458344414121851,-0.003936308852448143,0.004746756185827842,0.9947452794876399
2014-05-16,-1,-0.00010405336089247724,-6.628032952942735e-05,-0.002101486212137376,0.004746756185827842,0.995201342844739
2014-05-20,-1,-0.00039153393041332967,-0.00030963924196148395,-0.0019637048172183556,0.004746756185827842,0.9955048259872682
2014-05-22,-1,-0.00037125685076688997,-0.0003000764396038326,-0.0009627599121858504,0.004746756185827842,0.9951124374262568
2014-05-27,1,0.00034904955998252057,0.00039994087500828945,-0.0011041571469172068,0.004432946164999325,0.9956064594652935
2014-05-29,1,0.0003901032546976919,0.0004255816234218779,-0.0023567670184202628,0.004432946164999325,0.9947348061223416
2014-06-02,1,0.0003743337738702482,0.00039806329023645915,-0.0023567670184202628,0.004432946164999325,0.9946191020574113
2014-06-04,1,0.00039754148705990413,0.00042534858871838663,-0.0015125966120923694,0.004432946164999325,0.9947811458973194
2014-06-06,1,0.0005696686459321228,0.0005815092971424648,-0.0025463127185206707,0.0037625914067494237,0.9948769028232809
2014-06-10,1,0.000609710525696416,0.0006384192735521736,-0.0025463127185206707,0.0037625914067494237,0.9947781696906528
2014-06-12,-1,-0.00021742625465022707,-0.0001585164631312156,-0.0020375966704516664,0.004432946164999325,0.9955187486584798
2014-06-16,1,6.586608124336084e-05,6.765743610011378e-05,-0.0014559511488708792,0.006898878984827928,0.9950719894628588
2014-06-18,-1,-0.0008675953896367785,-0.0006648547693009979,-0.0014559511488708792,0.0049831959927456836,0.9947079826225154
2014-06-20,-1,-0.0005158142644767873,-0.00036155127277353607,-0.0020375966704516664,0.007165343089173725,0.9943420995398845
2014-06-24,-1,-0.0002506728667732555,-0.0001455393771543242,-0.0026219333468039275,0.007165343089173725,0.9939452023687647
2014-06-26,-1,-0.0015698591648610142,-0.0011987002317292216,-0.0020375966704516664,0.006556302783356948,0.9948800955345082
2014-06-30,-1,-0.00025902580034125,-0.00014784037065951436,-0.0025581121412922452,0.006556302783356948,0.9951346818435097
2014-07-02,1,0.0006420020353240404,0.00072616312321714,-0.0037767436607982086,0.007165343089173725,0.9941581940430191
2014-07-07,1,0.0005005526948289696,0.0005344442221145635,-0.0041144925668255335,0.006556302783356948,0.9943482445820996
2014-07-09,1,0.0008257837913319957,0.0009404766808045529,-0.005887229154562558,0.006556302783356948,0.9936163174668495
2014-07-11,1,0.001215110212417608,0.0013871775408789686,-0.005887229154562558,0.006284508932832559,0.9936074930041722
2014-07-15,1,0.0015942531958863767,0.0018089012003899383,-0.005887229154562558,0.0036873062911339364,0.993861168434202
2014-07-17,1,0.0014786275307811557,0.0017029445532050266,-0.005395376192966074,0.00413090219154824,0.9940427631110998
2014-07-21,1,0.0016998773061867884,0.0019566816495980273,-0.0041144925668255335,0.00413090219154824,0.9940141673427028
2014-07-23,1,0.0018522313750038107,0.0021450349487178145,-0.003109253597476465,0.004273402419970859,0.9943284587126546
2014-07-25,1,0.0024058761577888145,0.0028159321220853767,-0.003283433502875833,0.004273402419970859,0.9941508077184044
2014-07-29,1,0.0019827667954562403,0.002296482390216318,-0.0031814441303960697,0.005221357419745047,0.9941999279453458
2014-07-31,1,0.0016775416577706885,0.0019298693921114248,-0.003663351926608927,0.004273402419970859,0.9946342987465056
2014-08-04,1,0.0012748331685464827,0.0014591824522267225,-0.0031814441303960697,0.005055665639238428,0.9949938459494949
2014-08-06,-1,-0.00016227074389173348,-8.516206862906934e-05,-0.0026226484518544115,0.005628271045546542,0.9950885187525745
2014-08-08,1,0.0006213056142539934,0.0007015458831563441,-0.0025792839798431328,0.005628271045546542,0.9950198612124485
2014-08-12,1,0.0005988403670930259,0.0006767320051804451,-0.002835997197305731,0.006284954078716848,0.994389702644912
2014-08-14,1,0.0005379542902337008,0.0005576286674450116,-0.003663351926608927,0.005628271045546542,0.9939719667891073
2014-08-18,1,0.0007871794414829464,0.0008128300163182456,-0.003663351926608927,0.005055665639238428,0.9946942313303253
2014-08-20,1,0.0011615691315919417,0.0012550500853542453,-0.003663351926608927,0.004125885082013205,0.9948980558413432
2014-08-22,1,0.0013588914412664393,0.0015139277774588126,-0.003663351926608927,0.00544814114339984,0.9947871444274075
2014-08-26,1,0.0013787874084819378,0.0015385387927162443,-0.0044654680099995205,0.00544814114339984,0.9944006066230577
2014-08-28,1,0.0005677289242128861,0.0005826038931780701,-0.0031445428367597303,0.00544814114339984,0.9939442151852343
2014-09-02,1,0.0007677066385644526,0.0008106344383958565,-0.0036162159744066143,0.004121072374799845,0.9938055255249708
2014-09-04,1,0.0004505448540000971,0.0005074896752276777,-0.0053246787662832255,0.0018054313129755924,0.9938140392001856
2014-09-08,1,0.0008975792027652064,0.0009214294991276435,-0.0053246787662832255,0.0018054313129755924,0.9936230536982151
2014-09-10,1,0.0009011268571033458,0.0009382108397657187,-0.0053246787662832255,0.0018054313129755924,0.9922912598002528
2014-09-12,1,8.805958935833468e-05,0.0001622267851320937,-0.0059451314692806154,0.0018054313129755924,0.9914694990277425
2014-09-16,1,4.2325674234040546e-05,0.00012326003891149367,-0.011623294457569627,0.0017463473213587045,0.9906335341410473
2014-09-18,-1,-0.0003853355386368842,-0.0002252051426390378,-0.015158749618189873,0.0017463473213587045,0.990084225575065
2014-09-22,1,0.0003314674499357187,0.00035320952160890136,-0.015158749618189873,0.0034020759151220086,0.98890716573212
2014-09-24,1,0.0009026083498572042,0.0009807034864669963,-0.015158749618189873,0.0034020759151220086,0.9885110885764561
2014-09-26,0,-2.4616666038657287e-05,3.9333818862718665e-05,-0.011623294457569627,0.01077647735357228,0.9886657756876333
2014-09-30,-1,-0.0004175623444601737,-0.00029914668589244714,-0.011623294457569627,0.014606688577563219,0.9879967621114635
2014-10-02,-1,-0.0002543319427177544,-0.0002025039294185975,-0.008272309111804866,0.016003323087969947,0.9871866051640948
2014-10-06,-1,-7.196816676505147e-05,-1.5595196583507802e-05,-0.008272309111804866,0.017477330630899283,0.9870570183519893
2014-10-08,-1,-0.000254709812920578,-0.00014947750629478232,-0.004837995931243743,0.01509802442520633,0.9887577573268741
2014-10-10,-1,-0.0019328341259642777,-0.0016250277602429268,-0.0037865281071136157,0.01509802442520633,0.9898296115170547
2014-10-14,-1,-0.0026280958602683275,-0.002234994631813255,-0.0021823599190285313,0.01509802442520633,0.9902920812048533
2014-10-16,-1,-0.002930868552569651,-0.002519873155892622,-0.0015808780331146687,0.01509802442520633,0.9900059881058867
2014-10-20,-1,-0.001881024772973372,-0.0016051984379042252,-0.002044671732986649,0.010793416253477435,0.991563789029006
2014-10-22,-1,-0.0014438948127950576,-0.001222963122002014,-0.0015808780331146687,0.009600120651758182,0.9923955708626557
2014-10-24,-1,-0.0005122889878138928,-0.0004010510309196346,-0.0015808780331146687,0.006760364181750321,0.9936372903979152
2014-10-28,1,0.0003164402408786422,0.00033119897669110706,-0.0013877460666397862,0.006022039227228819,0.9942978093316606
2014-10-30,1,0.0007819552827847313,0.0008559446267909714,-0.0011052003247199716,0.006022039227228819,0.9952627850908475
2014-11-03,1,0.000659792384238171,0.000665692952204556,-0.0005853936295512824,0.00576892143129958,0.9958960314747553
2014-11-05,1,0.0008643294479789019,0.0008936921029109648,-0.0005853936295512824,0.005726353759558473,0.9962028933936755
2014-11-07,1,0.000608216609503305,0.0006116799459728582,-0.0006995468164886673,0.005726353759558473,0.9963166002896755
2014-11-11,1,0.0007436698138855021,0.0007775152483600746,-0.0006995468164886673,0.005726353759558473,0.9961387784687598
2014-11-13,1,0.0011485751215866045,0.0012366861333193335,-0.0013680873891375091,0.005023980982195136,0.9961557306812534
2014-11-17,1,0.0011988841734967082,0.0012981331210665434,-0.0013680873891375091,0.004182164216290203,0.9962607927241424
2014-11-19,1,0.0013200033306203277,0.0014336128358088762,-0.0013680873891375091,0.005023980982195136,0.9939183576772583
2014-11-21,1,0.0013118239084312377,0.0014245701465136866,-0.002292638351788995,0.005363223204990149,0.9933691125326445
2014-11-25,1,0.001652840008175868,0.0018169448522446711,-0.004977449110303839,0.0056768223451603185,0.9930177267507017
2014-11-28,1,0.0019469306392995767,0.002145623250593353,-0.004977449110303839,0.004244199422710548,0.9931643566947054
2014-12-02,1,0.0020639494735294394,0.002290572103479817,-0.00635957552723645,0.0031516528819061965,0.992058502328301
2014-12-04,1,0.0023967270844888274,0.002693902227413624,-0.006963172300642626,0.002693178988362198,0.9912337071719886
2014-12-08,1,0.0020221849500175796,0.0022531624704217566,-0.006963172300642626,0.004434789316753512,0.9910260714878146
2014-12-10,1,0.0018173763139853311,0.0020291746069553917,-0.00635957552723645,0.007635560815313795,0.990766191908048
2014-12-12,1,0.0014739373542279597,0.0016388980948255781,-0.005171348720849748,0.007635560815313795,0.9911650190544679
2014-12-16,1,0.0013196552335127357,0.0014641321536213992,-0.00635957552723645,0.007635560815313795,0.990920437912812
2014-12-18,1,0.0031522417253583325,0.0035302861764572495,-0.00635957552723645,0.004434789316753512,0.9921622723178963
2014-12-22,1,0.0028472598329468395,0.0031771392984809898,-0.00635957552723645,0.004459765946893784,0.9917558792017521
2014-12-24,1,0.0025911732580166076,0.0028672097798455812,-0.004067768430916826,0.002841251507245866,0.9924263892956356
2014-12-29,1,0.0020823419026470575,0.0022550539763172943,-0.00922082515484519,0.002841251507245866,0.9914000304685731
2014-12-31,1,0.0013227324514231355,0.0013977552629076857,-0.00922082515484519,0.0060657165592457735,0.9913149622843052
2015-01-05,1,0.0008444509623329598,0.0008521854702653809,-0.0047064911212092156,0.014406202822862835,0.9909530916582866
2015-01-07,1,0.0014524253783854964,0.0015587679881123688,-0.007794256522374495,0.01038123897881323,0.9913682145521551
2015-01-09,1,0.0018751709632484008,0.0020621735795849083,-0.007794256522374495,0.004279758980435018,0.9917183628950845
2015-01-13,1,0.0019056837057653908,0.0021093471008165688,-0.007794256522374495,0.010653148646533498,0.991001632822394
2015-01-15,1,0.001504273754298247,0.0016478857286547981,-0.005614839559733992,0.015389168334166908,0.9907387831833043
2015-01-20,1,0.001959383902684886,0.002163217547050334,-0.005614839559733992,0.010653148646533498,0.9912594188957243
2015-01-22,1,0.0020301447937620346,0.0022192465435949835,-0.0021887424466730896,0.010504032317531008,0.9917327346237973
2015-01-26,1,0.002069990580820274,0.002273285605330782,-0.005464939739214291,0.010504032317531008,0.9912728037761805
2015-01-28,1,0.0013354698158654014,0.0014640075899279687,-0.0014875565850041715,0.010504032317531008,0.992283276471995
2015-01-30,1,0.0014074881605307846,0.0015579702174225829,-0.0014875565850041715,0.00925187326916944,0.9929197342126888
2015-02-03,1,0.002322468827372629,0.0025831789390493944,-0.005464939739214291,0.006723730879481125,0.9933322165233917
2015-02-05,1,0.0016819486251102432,0.0018184486629427047,-0.005464939739214291,0.006723730879481125,0.9927210214159465
2015-02-09,1,0.0013214907808400357,0.0014065821187131712,-0.007150427380867427,0.007416654664420018,0.9915872974281449
2015-02-11,1,0.001905017370134064,0.002057485315460931,-0.007778284327979102,0.0068738237243967165,0.9910948032769125
2015-02-13,1,0.0024808514366793984,0.0027131185323367585,-0.00827234764084789,0.0068738237243967165,0.9901973373661789
2015-02-18,1,0.0028136340153863916,0.003104536424077489,-0.00827234764084789,0.008304407478516945,0.9893787092935576
2015-02-20,1,0.0030819557152474398,0.0033643594220534798,-0.00827234764084789,0.008304407478516945,0.9896019364713702
2015-02-24,1,0.002477196932784673,0.002658308374288362,-0.00827234764084789,0.008304407478516945,0.989952234921555
2015-02-26,1,0.002106090997646604,0.0022076926071442665,-0.008822634801228423,0.008304407478516945,0.989489257620348
2015-03-02,1,0.0022534502071853966,0.0023956038119018006,-0.008822634801228423,0.008562532447087302,0.9892051872813972
2015-03-04,1,0.001505442035534361,0.0015506063057789063,-0.0061883200355486775,0.008562532447087302,0.9897591006868622
2015-03-06,0,-2.974589980656679e-05,0.00018253701950607035,-0.005389827099398356,0.008562532447087302,0.9906837774641991
2015-03-10,-1,-0.0011423540345530262,-0.0007655216723951213,-0.005215851453478721,0.009511678020050287,0.9916400208030398
2015-03-12,-1,-0.0008914625212949794,-0.0005192546967284781,-0.005389827099398356,0.006492918332581546,0.9911668665080707
2015-03-16,-1,-0.0004366641731273894,-0.00016263688112160089,-0.005389827099398356,0.0035984632052459293,0.9919569000965053
2015-03-18,0,-1.4257754671107665e-06,0.0002120038261594902,-0.005389827099398356,0.0020652932845098195,0.9926769590028962
2015-03-20,1,0.000577899310744947,0.0006895103340790741,-0.005837312165325208,0.001502880030407932,0.9919677655970073
2015-03-24,1,0.0004960209367798388,0.0006010138278145491,-0.005536209794486107,0.0025005900163227873,0.9922189806066863
2015-03-26,1,0.00033333075164378086,0.0004317241885723154,-0.005517247857838715,0.0031180015210923854,0.992344665192796
2015-03-30,1,0.0007930837582222983,0.0008266094831536586,-0.005517247857838715,0.0031180015210923854,0.9930881914986682
2015-04-01,1,0.000533591275196137,0.0005860278381171744,-0.006219574440646289,0.0031180015210923854,0.99219171229194
2015-04-06,1,0.0003830570770800123,0.00045069245085945344,-0.006219574440646289,0.0031180015210923854,0.9919568148226203
2015-04-08,1,0.0003929327703400214,0.00045942204630107985,-0.006219574440646289,0.0025005900163227873,0.9924558986157793
2015-04-10,-1,-0.00013058571514505468,-1.9244345367689546e-05,-0.003957590347228887,0.0037381206763825656,0.9934558438348587
2015-04-14,-1,-0.0011541220149398534,-0.0009270506513760801,-0.004232423413712496,0.0037381206763825656,0.9934301296110131
2015-04-16,-1,-0.0012417483118823726,-0.0010064244838221797,-0.0031907709734423514,0.005447704953326104,0.9929150561535884
2015-04-20,-1,-0.0013498730026813867,-0.0010974545580677295,-0.0020636420917787674,0.0037381206763825656,0.99372700331465
2015-04-22,-1,-0.001032027696652626,-0.0008310440399832543,-0.0020636420917787674,0.0037381206763825656,0.9939219973214947
2015-04-24,-1,-0.0010778921104916558,-0.0008848275273650435,-0.0022991170980384444,0.003381948534701232,0.9941781376921317
2015-04-28,-1,-0.0008871551385068851,-0.0007136393730580272,-0.0029017013188297864,0.003631794013501003,0.9933544621346502
2015-04-30,-1,-0.0012514693388456346,-0.0010410758337086995,-0.0030495163225304463,0.003631794013501003,0.9940318193843993
2015-05-04,-1,-0.001498444106992521,-0.0012534516312416393,-0.00308206800627186,0.002283901734505156,0.9946853953422933
2015-05-06,-1,-0.0015031055038412968,-0.0012470789443523084,-0.00485298416584035,0.002283901734505156,0.994356773503379
2015-05-08,-1,-0.0011216074455995002,-0.0008949429847291602,-0.00485298416584035,0.0014636407508770578,0.9950896754828586
2015-05-12,-1,-0.0016090696449160748,-0.001322211757426576,-0.0031029125532251014,0.002283901734505156,0.995190460661331
2015-05-14,-1,-0.0002583573436490932,-0.00021688837532350672,-0.003699509910472901,0.002283901734505156,0.9934994678819511
2015-05-18,-1,-0.0004985067814057211,-0.0004097935400850985,-0.0043593794404358545,0.002184187093881904,0.9933498840691203
2015-05-20,-1,-0.0005834838620043649,-0.000482100173370909,-0.0043593794404358545,0.0033326500916312472,0.9930899020098274
2015-05-22,-1,-0.0007259280647480041,-0.0006102305465991206,-0.004354075082739419,0.006925910148665827,0.9924014852908433
2015-05-27,-1,-0.0012580440266544198,-0.0010525649124106008,-0.005296510877807354,0.006925910148665827,0.9927327946797043
2015-05-29,-1,-0.0017383926074666604,-0.0014703846043864024,-0.004011887056263401,0.006925910148665827,0.9930127142400357
2015-06-02,-1,-0.001430577627212258,-0.0012212800556285733,-0.00718582733570804,0.006925910148665827,0.991981778479473
2015-06-04,-1,-0.0017299427916033627,-0.0014878373124207196,-0.005296510877807354,0.007585007282236303,0.9920422504850547
2015-06-08,-1,-0.0015887021611284654,-0.0013676234688059874,-0.005296510877807354,0.007585007282236303,0.9921519052068856
2015-06-10,-1,-0.0013668634102219942,-0.001160379169323098,-0.00718582733570804,0.007585007282236303,0.9914282306254616
2015-06-12,-1,-0.0010330290197182149,-0.0008839694118727092,-0.005296510877807354,0.007585007282236303,0.9919775006058169
2015-06-16,-1,-0.0007933294311711078,-0.0006907331482556678,-0.0032527770516273713,0.007585007282236303,0.9922656422957706
2015-06-18,-1,-0.0007042816923819429,-0.0006048763358654708,-0.0053049036195425905,0.007412633838951785,0.992138550390711
2015-06-22,-1,-0.0007667056128239926,-0.0006260193162704896,-0.006557100393481603,0.00421521854695693,0.992654783342589
2015-06-24,-1,-0.0013688072356711966,-0.0011570593613806726,-0.006557100393481603,0.0052432717404850004,0.9919910625277074
2015-06-26,-1,-0.000637960624227919,-0.0005615079710883651,-0.0074042817850459505,0.0052432717404850004,0.9919945056696655
2015-06-30,-1,-0.0013506963366301948,-0.001181092597984951,-0.0017060817077379311,0.005861644700729503,0.9919288165613679
2015-07-02,-1,-0.001330388003120625,-0.0011465999761160858,-0.006362010558081119,0.005861644700729503,0.9901905331264419
2015-07-07,-1,-0.0006646482067887908,-0.0005872686021619633,-0.006362010558081119,0.005861644700729503,0.99050580291177
2015-07-09,-1,-0.0007074282157828727,-0.0006504403792474309,-0.006362010558081119,0.005853592687499184,0.9908178066398435
2015-07-13,1,0.00015069985205114274,0.00021864192982553612,-0.006362010558081119,0.0052432717404850004,0.9917337720093029
2015-07-15,1,0.0004650380283664698,0.0006057839245698553,-0.006500599755476497,0.005853592687499184,0.987343257643471
2015-07-17,1,0.00022198012708191873,0.00029730152515490473,-0.006940680182239159,0.005640925756183841,0.9873501526151903
2015-07-21,1,0.00017298782010257774,0.00024391685992583285,-0.006500599755476497,0.008179774931876979,0.9868322960661637
2015-07-23,1,8.41037695529746e-05,0.00015543786346666416,-0.006500599755476497,0.008179774931876979,0.9877684533068622
2015-07-27,-1,-0.00027308742163177066,-0.00026554264986438004,-0.007064517638118236,0.008179774931876979,0.9843878278139585
2015-07-29,1,7.610525011440442e-05,0.00010482638323822965,-0.007825152932079677,0.008179774931876979,0.9818640517626356
2015-07-31,1,0.00030916092429791105,0.00035295838552816804,-0.007825152932079677,0.008179774931876979,0.9836048604349152
2015-08-04,1,0.0005785244963913722,0.0006999483467866022,-0.010852287109680508,0.008179774931876979,0.9815895489142642
2015-08-06,1,0.00042076500452699025,0.0005198629483698958,-0.008528133116001002,0.011392113868527317,0.9819734925984142
2015-08-10,1,0.0008768129537622331,0.0010532234114452354,-0.010819812039998811,0.011521027500903242,0.9801718118683705
2015-08-12,1,0.0027277906790527306,0.0031476676988564977,-0.016335429477554245,0.011404663025202967,0.9830425488424827
2015-08-14,1,0.001898910176835715,0.002197568805004461,-0.016335429477554245,0.011745996626123677,0.9824417586105932
2015-08-18,1,0.002100684895967554,0.00242136917698912,-0.016335429477554245,0.011745996626123677,0.9824500502926825
2015-08-20,1,0.002049659836562247,0.002378918360320315,-0.01646102945226098,0.011745996626123677,0.9815245528276101
2015-08-24,1,0.0009648858100360599,0.001137955332460181,-0.01603605510841843,0.012345479028174306,0.9835150928178114
2015-08-26,1,0.00250916137882112,0.0028969542727065073,-0.01603605510841843,0.012345479028174306,0.9855252725773712
2015-08-28,1,0.001954795715458097,0.0022699919241714276,-0.01646102945226098,0.011996385601073481,0.9841880106224761
2015-09-01,1,0.0011477006281889754,0.0013439458899134477,-0.014287322725276986,0.011996385601073481,0.9858747177514536
2015-09-03,1,0.0007673625231146335,0.0008578158090989453,-0.014287322725276986,0.011996385601073481,0.9856724158997172
2015-09-08,1,0.0013947680757783365,0.0015648022674665972,-0.012909678571162351,0.011996385601073481,0.9875339345242062
2015-09-10,1,0.0010472626573570219,0.0011699072798934834,-0.009916756170232511,0.01340698841067733,0.9878543940646506
2015-09-14,1,0.0008915277625016953,0.0009994745200256842,-0.009561786938859479,0.01212989410058146,0.988302352133448
2015-09-16,1,0.0010100698761144073,0.001121615897683346,-0.011844770877043258,0.01040891402895039,0.9879887703545028
2015-09-18,1,0.0006998480580568452,0.0007837377678259216,-0.007744912638996942,0.01040891402895039,0.9886333232892448
2015-09-22,1,0.0007270680873910012,0.0007923577533591888,-0.0025251150302620633,0.00992335683132404,0.9904390248430005
2015-09-24,1,0.0006037314407011051,0.0006402533017234931,-0.0025251150302620633,0.00992335683132404,0.9905830004998435
2015-09-28,-1,-0.00014933237431849028,-9.820033728919142e-05,0.0012643588179691834,0.00992335683132404,0.9915132699468207
2015-09-30,1,0.0005876179934945927,0.0006518715542238476,-0.000907876821335882,0.01040891402895039,0.9913091966250086
2015-10-02,1,0.0010549270913200617,0.0011615426165911258,-0.0017417276959880868,0.009534501195594071,0.9921860775230923
2015-10-06,1,0.0011935970633765525,0.0013248234233359853,-0.005326164461720271,0.008303577556089204,0.9876130471404898
2015-10-08,1,0.0014965269820898098,0.0016705756703021633,-0.005326164461720271,0.008303577556089204,0.9877088127598157
2015-10-12,1,0.001261305254477697,0.0014021691956027703,-0.005326164461720271,0.009455605866123748,0.9870593667281848
2015-10-14,1,0.0007466055864535743,0.0008099638332252203,0.00014690141553843234,0.009455605866123748,0.9875213386836332
2015-10-16,1,0.0008865453070828812,0.0009546501885889249,-0.0065492704611987826,0.009455605866123748,0.9866342500948604
2015-10-20,1,0.000725442469425078,0.0007521231754048935,-0.0065492704611987826,0.009455605866123748,0.9864281575066158
2015-10-22,1,0.0006347803006520442,0.0006438704300159794,-0.0017417276959880868,0.008765718217321387,0.9871967339017195
2015-10-26,1,0.0005947098450761198,0.0006064313671626232,-0.0065492704611987826,0.008107994303681894,0.9867851807858653
2015-10-28,1,0.0010457240512745144,0.0010914450165635525,-0.011545876676625723,0.007818415197613185,0.987503774878435
2015-10-30,1,0.0009701524298984232,0.0010152714751570095,-0.011935596870560667,0.007818415197613185,0.9867162428833399
2015-11-03,-1,-0.0006744949836127153,-0.0005281699317626457,-0.011545876676625723,0.007972462084690579,0.9908236378109742
2015-11-05,-1,-0.00019356860768184232,-9.871221738380479e-05,-0.011935596870560667,0.007641931436448641,0.9907701576798396
2015-11-09,-1,-0.00017503406922198022,-8.545206658534967e-05,-0.012047583480163934,0.006507853281015873,0.9906348659954467
2015-11-11,1,0.00028524345905156403,0.0003043240199046297,-0.012047583480163934,0.006194361510761392,0.99035625388018
2015-11-13,-1,-0.0007821573474204322,-0.0006128857582284341,-0.012047583480163934,0.006194361510761392,0.9905976319020918
2015-11-17,-1,-0.0006104706793954868,-0.00046249294431995546,-0.012047583480163934,0.00688980179382797,0.9902272302532938
2015-11-19,-1,-0.000886624667997012,-0.0006740912454007615,-0.014559218451860567,0.006421567054848507,0.9879604766835768
2015-11-23,-1,-0.001010015359435774,-0.0007918537371316359,-0.014559218451860567,0.00778501667214729,0.9876750774591151
2015-11-25,-1,-0.0013028001211545645,-0.001056289521367686,-0.014559218451860567,0.008993289418988203,0.98720846485346
2015-11-30,-1,-0.0018283651856018505,-0.0015072687771030702,-0.01023867612723018,0.00998820560516656,0.9875609297192556
2015-12-02,-1,-0.0009493054981018486,-0.0007594022968620272,-0.010807453469843508,0.008677217462803456,0.9879291228713377
2015-12-04,-1,-0.0009015849273190953,-0.0007174031934819682,-0.010152891366549944,0.00707665581447132,0.9884749048654033
2015-12-08,-1,-0.0016359772850483385,-0.001364596214777777,-0.010152891366549944,0.00707665581447132,0.9890845521566412
2015-12-10,-1,-0.0018682417563876974,-0.0015638764900720438,-0.013016684590913501,0.008677217462803456,0.9882731019614698
2015-12-14,-1,-0.002519799294059463,-0.0021237580680956722,-0.012165202791178584,0.00998820560516656,0.9878584351166213
2015-12-16,-1,-0.0022564228727536303,-0.0018844799340425977,-0.015353944247478367,0.011118131810533371,0.9863747134799121
2015-12-18,-1,-0.003194644424846225,-0.002738349277827354,-0.012031324990566791,0.011118131810533371,0.9879406630605928
2015-12-22,-1,-0.0022356910253914517,-0.0019226467866241596,-0.012031324990566791,0.010737660978652606,0.9878343061917969
2015-12-24,-1,-0.0018874971561479506,-0.0016119518982515568,-0.012031324990566791,0.010737660978652606,0.9876012442353158
2015-12-29,-1,-0.0018092599807999032,-0.0015352299290142773,-0.014100829045908071,0.008240709829085487,0.9868256240070368
2015-12-31,-1,-0.0019978584627259217,-0.0017159296330603417,-0.014100829045908071,0.01625679161810678,0.9852364983965937
2016-01-05,-1,-0.0010167851742891804,-0.0009394991771411486,-0.015353944247478367,0.01625679161810678,0.985052818155821
2016-01-07,-1,-0.0015027198636421188,-0.0013522541877448685,-0.015353944247478367,0.01625679161810678,0.9842430284374382
2016-01-11,-1,-0.0012262865977643884,-0.0011282629598565893,-0.015615588165497792,0.01835093680582206,0.9820857852384538
2016-01-13,-1,-0.0012565496176794482,-0.0011451097367123123,-0.01728233288434952,0.016792949390628944,0.9825175657233625
2016-01-15,-1,-0.002175046476781399,-0.001892990178675431,-0.014656410618858648,0.019075172196451197,0.9829710343224068
2016-01-20,-1,-0.0014649380671085763,-0.0013334117070365574,-0.011832986100132767,0.019075172196451197,0.9828046423371318
2016-01-22,-1,-0.0009811124191027288,-0.0009036960393993328,-0.011832986100132767,0.01649304751454872,0.983452952779342
2016-01-26,-1,-0.0011760575253948777,-0.0010347858092110422,-0.016752635178477908,0.015315431687620354,0.9839573892644771
2016-01-28,-1,-0.0017685438801508693,-0.0015740415213785052,-0.011051607269919116,0.015315431687620354,0.9841033723731147
2016-02-01,-1,-0.00037640074036264493,-0.0003717667465246591,-0.016752635178477908,0.014692648716902087,0.9838604862483541
2016-02-03,-1,-0.0009151167004915353,-0.0008373444277633131,-0.011051607269919116,0.014692648716902087,0.9844765624605332
2016-02-05,-1,-0.001332020515825547,-0.0012046622292198135,-0.009912679702509697,0.014692648716902087,0.9851921469267674
2016-02-09,-1,-0.001028613619474232,-0.0009556707637070906,-0.009912679702509697,0.014278476895426889,0.9874982046268959
2016-02-11,-1,-0.001978931820615995,-0.0017727098275953446,-0.0069509035016864715,0.01607101672246,0.9860676811289176
2016-02-16,-1,-0.0010659483507734126,-0.0009708689230915188,-0.0069509035016864715,0.014278476895426889,0.9880382543924817
2016-02-18,-1,-0.0008266274317233537,-0.0007627158883585349,-0.006708913801457287,0.010393193362771346,0.9885402894380977
2016-02-22,-1,-0.0009281681937979628,-0.0008127833406270964,-0.008474728113176292,0.009515671375201437,0.9887382924407399
2016-02-24,-1,-0.000693436455388321,-0.0006304722391390677,-0.006480307579168195,0.009515671375201437,0.9891639799658315
2016-02-26,-1,-0.00040911406476842963,-0.0004087549573731047,-0.005058573953868482,0.007273269036448325,0.9900160986618173
2016-03-01,1,4.409185031583002e-05,0.00011199405985262947,-0.004415129349736311,0.007273269036448325,0.9919853489238173
2016-03-03,1,0.0004251615967487179,0.0005777332172745231,-0.004415129349736311,0.007969737975099646,0.9910980571547732
2016-03-07,1,0.00019158824376066982,0.00030180348365617583,-0.005058573953868482,0.007286774164406736,0.9907997978551751
2016-03-09,1,0.0001235981372673566,0.00020262350320403126,-0.005058573953868482,0.007286774164406736,0.9909152439454914
2016-03-11,1,0.0012376128540404904,0.0014857186709046632,-0.005058573953868482,0.004906594715065269,0.9932124428967476
2016-03-15,1,0.0010468827637799094,0.0012729637654320639,-0.004415129349736311,0.004906594715065269,0.993336462181191
2016-03-17,1,0.0012444682353246084,0.001498437050147466,-0.004415129349736311,0.003961381277426495,0.9934543753640696
2016-03-21,1,0.0012897381573793256,0.001561439486304422,-0.003468714430936603,0.007130064200168283,0.9930792105295119
2016-03-23,1,0.001678301538992035,0.0020356849417243594,-0.003468714430936603,0.007540123466259521,0.9920871182798124
2016-03-28,1,0.0014459790694298204,0.0017661047682915893,-0.0015563790249221966,0.007540123466259521,0.9922457249818658
2016-03-30,1,0.0009287597780319992,0.0010954792481477648,-0.0015563790249221966,0.007134009792599275,0.99214153971701
2016-04-01,1,0.0022029187113505448,0.002572977614418505,-0.003883328626250249,0.006308190690685574,0.9928917324255411
2016-04-05,1,0.0013419273824194272,0.001600164220905649,-0.0012859297262593993,0.009202238381925198,0.990355490060876
2016-04-07,1,0.0017532781638709182,0.0020868788393329967,-0.0015563790249221966,0.007134009792599275,0.9909612309084006
2016-04-11,1,0.0013044863466979391,0.0015276475188322996,-0.0015563790249221966,0.008591973458695891,0.9900983990112883
2016-04-13,1,0.0015946502034524263,0.001869763491666337,-0.0023606104406960426,0.012827918251949668,0.9887061784256309
2016-04-15,1,0.0013986806941045696,0.0016541508898155247,-0.003946670574946546,0.012827918251949668,0.9874950953482365
2016-04-19,1,0.0018422729906309933,0.0021451324636220506,-0.006532191774601577,0.008697449497552886,0.9877846829962357
2016-04-21,1,0.0015648972064232066,0.001817773915050412,-0.003946670574946546,0.007169168472218273,0.989140798504574
2016-04-25,1,0.0017350621508791016,0.001987283372138492,-0.005772654893626122,0.006859611555262272,0.9889910664966404
2016-04-27,1,0.0022166058293988703,0.0025700643005596388,-0.005772654893626122,0.008697449497552886,0.9883789155692183
2016-04-29,1,0.002079576154816992,0.002419937973991062,-0.003946670574946546,0.008697449497552886,0.9887414638872856
2016-05-03,1,0.0033397547931548113,0.003805043870882161,-0.003946670574946546,0.0066069144372718795,0.9924469440915955
2016-05-05,1,0.002433885618277819,0.002759021435327047,-0.003627398141169553,0.006859611555262272,0.9924110164371156
2016-05-09,1,0.0024043660113205424,0.002706625007765048,-0.003627398141169553,0.00620381010871314,0.9929918633303211
2016-05-11,1,0.0029357307402844432,0.0033297549138659732,-0.0031299136249038515,0.0053645991374801005,0.9943852967046117
2016-05-13,1,0.0018172596797960342,0.0019777968743870406,-0.00368132469289358,0.005105096022576451,0.9942915240099794
2016-05-17,1,0.0019147878826932365,0.0021207249166505103,-0.0031299136249038515,0.004836626692919025,0.9948076097940775
2016-05-19,1,0.0022188589667184516,0.0024744657487418015,-0.00368132469289358,0.004836626692919025,0.9941610898029883
2016-05-23,1,0.001928665796232526,0.0021508785703279543,-0.0031299136249038515,0.004845968088421665,0.9945335573266005
2016-05-25,1,0.0019022319219313805,0.002096039699464557,-0.0024333286494643176,0.004845968088421665,0.9949755925728355
2016-05-27,1,0.0021152923844471056,0.0023399603465431547,-0.006542042019889666,0.003955670835779107,0.9912288166791464
2016-06-01,1,0.0022332879058569923,0.0024594021706538793,-0.006542042019889666,0.004537760186224782,0.9889159750236465
2016-06-03,1,0.002097877657998265,0.002286520652624754,-0.0050495884710925615,0.006782313004438211,0.9884701014304627
2016-06-07,1,0.0019143925615825942,0.002062620986102881,-0.006280532297272196,0.006782313004438211,0.9882104732372983
2016-06-09,1,0.001884156703006636,0.002014517473334281,-0.006280532297272196,0.010781819853787823,0.9876359178455084
2016-06-13,1,0.0012579757380855856,0.0012870476588528322,-0.0018677955020648435,0.011438583706788848,0.9881762746842753
2016-06-15,1,0.0013874818171283635,0.0014480224999924149,-0.0024475838048732814,0.011438583706788848,0.9882441735684143
2016-06-17,1,0.0013199200852082094,0.0013943532411275677,-0.0024475838048732814,0.011438583706788848,0.9885315732168233
2016-06-21,1,0.00078452693604485,0.000841856962476058,-0.0024475838048732814,0.011438583706788848,0.9879897956674754
2016-06-23,1,0.0016196581009476504,0.0017397924117187695,-0.002444812977886246,0.011438583706788848,0.9886833318585516
2016-06-27,-1,-0.0006479744699105404,-0.00045466661688300654,-0.00045373931053229447,0.013519362111619523,0.9898288505374322
2016-06-29,1,0.0004622752455318218,0.0005504650730664783,-0.0013143115622703734,0.010947117070429908,0.9927517052470151
2016-07-01,1,0.0010147536683376864,0.0010467020421576127,-0.0034679957688218853,0.005048734310544175,0.9932964333379815
2016-07-06,1,5.60562425745302e-06,0.00022799506567967225,-0.004095840897595155,0.005048734310544175,0.9930377127424017
2016-07-08,1,0.001134280336171661,0.0011794850085400598,-0.004095840897595155,0.0038421107408400964,0.9933131687117405
2016-07-12,1,0.0013098157959326553,0.0013342540863457775,-0.004095840897595155,0.003739021061464864,0.9937133992655477
2016-07-14,1,0.001063568052799874,0.0011054609890920786,-0.004095840897595155,0.004132804829444003,0.9936588498451647
2016-07-18,1,0.0009562148737404692,0.0010137845341303812,-0.004095840897595155,0.003739021061464864,0.9937622037078817
2016-07-20,1,0.0009400616888628985,0.0010170853600840924,-0.00444266166368002,0.0025278416878175575,0.9934898983160885
2016-07-22,1,0.0010198791562741633,0.001065174053299658,-0.00444266166368002,0.0025278416878175575,0.9936329429951604
2016-07-26,1,0.0019347388889776908,0.0019969101003039355,-0.00444266166368002,0.0029998031163191658,0.9949487572548936
2016-07-28,1,0.0012194524010386355,0.0012713124897049397,-0.004540619095691063,0.0029998031163191658,0.995143406312399
2016-08-01,1,0.0006729747847366446,0.0007881017503231654,-0.002339913743524224,0.0029998031163191658,0.9957969782357601
2016-08-03,1,0.0009652520986426331,0.000981411195807426,-0.0012880597455218565,0.0029998031163191658,0.9962876623824274
2016-08-05,1,0.0009515321026367077,0.0009989841187727777,-0.0012880597455218565,0.003448740587434077,0.9963044671280943
2016-08-09,1,0.0010036889520554956,0.0010432438253002556,-0.0019177345532817576,0.0029998031163191658,0.9961740458525841
2016-08-11,1,0.0009531997605702388,0.00101248427983586,-0.004786365444752368,0.002048033696114269,0.9948171011305048
2016-08-15,1,0.0006575983755436005,0.0007583980178312321,-0.0049501602232847886,0.0029998031163191658,0.9939658675149967
2016-08-17,1,3.7798375069467475e-05,0.00023567659060552606,-0.0049501602232847886,0.00315278837047858,0.9941603639500837
2016-08-19,1,7.443741512642207e-05,0.00025446878163464404,-0.006830828723567179,0.004691549345656625,0.9926783975779392
2016-08-23,1,0.000764146140243791,0.0008149331436847866,-0.006830828723567179,0.007326528869338808,0.9922350972885816
2016-08-25,0,-0.00019214978979908883,2.4078856309320078e-05,-0.006310654567242764,0.007326528869338808,0.9922323785917806
2016-08-29,-1,-0.0003720879521801211,-0.00014292889628661379,-0.006310654567242764,0.007917302838434715,0.9916833048427223
2016-08-31,-1,-0.0005015261943345294,-0.00025187129482658575,-0.006973932748782487,0.007917302838434715,0.991363083323078
2016-09-02,0,-0.0001185621876690113,8.55247588597176e-05,-0.006973932748782487,0.007326528869338808,0.9917905808783496
2016-09-07,-1,-0.000667633829139306,-0.0003827750302246469,-0.006973932748782487,0.007326528869338808,0.9915706427372191
2016-09-09,-1,-0.0013841731468136036,-0.0010453500601298586,-0.0060283551380059894,0.007917302838434715,0.9918773716454576
2016-09-13,-1,-0.0018331403921709333,-0.0014307284624649802,-0.0060283551380059894,0.007326528869338808,0.9926103117241275
2016-09-15,-1,-0.0014634423237682862,-0.001120825198494841,-0.0060283551380059894,0.007594102331345288,0.9923385660273583
2016-09-19,-1,-0.00183409756906443,-0.0014578833532489146,-0.0060283551380059894,0.005817499097362479,0.9933644227460819
2016-09-21,-1,-0.0015627977990144235,-0.001202231102056559,-0.0060283551380059894,0.004950407487391655,0.9937957722218513
2016-09-23,-1,-0.0005758840327552588,-0.0004317867254911805,-0.006996080473485494,0.0030724423880636826,0.9933316435412364
2016-09-27,-1,-0.0006050226233426678,-0.00042854796206065796,-0.006996080473485494,0.0030724423880636826,0.9932367535287189
2016-09-29,-1,-0.0008867019955980811,-0.0006972751348688798,-0.008482569009385607,0.0030724423880636826,0.9929069024165212
2016-10-03,-1,-0.00047799445724441516,-0.00036505428358094607,-0.008482569009385607,0.0040523712273134276,0.9925100307753828
2016-10-05,-1,-0.0007713642697214565,-0.0005998485449524895,-0.009550066594334217,0.0040523712273134276,0.9900437313919976
2016-10-07,-1,-0.0006393317245171394,-0.0004759637753370925,-0.009550066594334217,0.0040523712273134276,0.9909749819369146
2016-10-11,-1,-0.000927987739584456,-0.0007437613536712159,-0.006793076145543672,0.0051543368604862454,0.9908350362980695
2016-10-13,-1,-0.0011311550241548283,-0.0009148701516113835,-0.005582296373581481,0.004155282360409369,0.9914585723969634
2016-10-17,-1,-0.0011270125690315443,-0.0009330392782230238,-0.006906768828046651,0.004155282360409369,0.9909084164743165
2016-10-19,-1,-0.0007453009232806302,-0.0006099249754185559,-0.006906768828046651,0.004141543300771123,0.9907435306012013
2016-10-21,-1,-0.0010832987900974188,-0.0009175299329429044,-0.006001396390738352,0.007065033393182626,0.9901278193861712
2016-10-25,-1,-0.000947860471673394,-0.0007991378151005582,-0.006001396390738352,0.005487843845922936,0.9905148072548307
2016-10-27,-1,-0.0013925870985416785,-0.0011970998353263388,-0.0037746855059789426,0.007065033393182626,0.9902435744275094
2016-10-31,-1,-0.0015060488080668325,-0.0012912451298175793,-0.0016165586937123921,0.007065033393182626,0.9904588028689045
2016-11-02,-1,-0.0015562772948140486,-0.0013011962172197187,-0.0037746855059789426,0.005487843845922936,0.9917155227513395
2016-11-04,-1,-0.001353092572267964,-0.0011241712312513481,-0.006857276943708255,0.004941614244791262,0.9914942347705903
2016-11-08,-1,-0.0011218573991083139,-0.0009028306961361124,-0.006857276943708255,0.004141543300771123,0.9920958551795371
2016-11-10,-1,-0.0007832699947471534,-0.0006136334854792383,-0.007327607995710063,0.004941614244791262,0.9918796027422885
2016-11-14,-1,-0.0015590698991502926,-0.0013078710675064062,-0.005850960012450086,0.004941614244791262,0.9924349170554232
2016-11-16,-1,-0.003372144583263889,-0.00277260679320465,-0.003730039144809342,0.006317533899635533,0.9909866035538852
2016-11-18,-1,-0.0011507991417641478,-0.0009126484850771836,-0.006785719762845914,0.004129072395254422,0.992377678229801
2016-11-22,-1,-0.0005511671384446732,-0.00042368420854113284,-0.006785719762845914,0.004048664331718713,0.9923120750375822
2016-11-25,-1,-0.0002784796358132773,-0.00017383622000173186,-0.007774904312322195,0.0032248080169452677,0.9926239127901585
2016-11-29,1,0.00025844584373634413,0.000259526087968146,-0.007774904312322195,0.004048664331718713,0.9923398942199663
2016-12-01,-1,-0.0008598401532439045,-0.000746314700665762,-0.006785719762845914,0.005117138779552999,0.9930714157587064
2016-12-05,-1,-0.0011183213131077865,-0.0009683824274460057,-0.006007737029784022,0.006317533899635533,0.9919155051885875
2016-12-07,-1,-0.0007582005216050685,-0.0006528905529424756,-0.006007737029784022,0.007911444315810699,0.9916394656538489
2016-12-09,-1,-0.0006149076067700422,-0.0005504027690430022,-0.0061814496273353055,0.007911444315810699,0.9915392834361075
2016-12-13,-1,-0.0007819208674061178,-0.0006965091428538517,-0.005574786387912175,0.007911444315810699,0.9916557230046704
2016-12-15,1,0.0009473022678600892,0.001158404050023835,-0.005574786387912175,0.006250927971960234,0.9919761107286894
2016-12-19,1,0.00019608805238652,0.00029503633822902436,-0.004024298789970833,0.008827039583704,0.9920857320536873
2016-12-21,1,0.00026691534477602067,0.0003462403484202328,-0.004024298789970833,0.008827039583704,0.9919049264467565
2016-12-23,-1,-0.00025551407242625985,-0.00024308598036144446,-0.0034866149275977216,0.008827039583704,0.9924377139223013
2016-12-28,1,0.0002809834093686462,0.0003668480750802019,-0.003927478826090455,0.00847866685495805,0.9926026655813309
2016-12-30,1,4.367107264270756e-06,6.62765833076388e-05,-0.0034866149275977216,0.00847866685495805,0.993486486909673
2017-01-04,1,0.001385550171644445,0.0016499806195470887,-0.003927478826090455,0.0036701830515102566,0.9945934177347716
2017-01-06,1,0.0015583580739251977,0.0018352072460066293,-0.003927478826090455,0.0036701830515102566,0.994954867899565
2017-01-10,1,0.0006071959163719592,0.0007295595625248285,-0.0034866149275977216,0.004190002775169987,0.9931352327514809
2017-01-12,1,0.0006028057437936389,0.0007295046892874542,-0.0028712640213204898,0.005246912405825024,0.9928481743407473
2017-01-17,1,0.0014302174795156508,0.0016819019443881692,-0.003668832786489622,0.004623660696757704,0.9931939946253888
2017-01-19,1,0.0013613667475873264,0.0015944121268951644,-0.0028712640213204898,0.004623660696757704,0.9932729011920614
2017-01-23,1,0.0015901892863561988,0.0018453034595049185,-0.0028712640213204898,0.004103796509722859,0.9935321252908863
2017-01-25,1,0.001491471005324203,0.0017343294924628584,-0.0028712640213204898,0.004623660696757704,0.9934360297103157
2017-01-27,1,0.0016584170099127658,0.001948577860311092,-0.0028712640213204898,0.006172285676012779,0.9926563676533592
2017-01-31,1,0.0014649926196408907,0.001717974868501876,-0.003782701625330293,0.008189425597463405,0.9923699268408951
2017-02-02,1,0.0007750201716402353,0.0008775836973611863,-0.003782701625330293,0.008455692897737444,0.991603701405605
2017-02-06,1,0.0007235165085444267,0.0008047373014313196,-0.003782701625330293,0.008455692897737444,0.9915608322191116
2017-02-08,1,0.0012385455401719792,0.0013968707377106247,-0.003782701625330293,0.007999204109989968,0.9940792993155917
2017-02-10,1,0.0008513896565426185,0.0009335534366596428,-0.003349592583146834,0.006446764254414353,0.9943805738472264
2017-02-14,1,0.0011272934217970631,0.0012759438816289628,-0.0030461877233626325,0.006446764254414353,0.9947661991072716
2017-02-16,1,0.0015224949300477342,0.0017111093074118483,-0.003446564100519265,0.004518368510361834,0.9948231996651239
2017-02-21,1,0.0017713597983840842,0.0020123374487056853,-0.0055385501080281565,0.003934748578209314,0.9936480294992116
2017-02-23,1,0.0017859038358529222,0.0019994095689828415,-0.0055385501080281565,0.001308077974576417,0.9936528255920847
2017-02-27,1,0.0015424318137275705,0.001723426150162612,-0.0045381496320217605,0.0031920385987312585,0.9947330916733612
2017-03-01,1,0.0016559501808363088,0.001851839573334798,-0.003699281526331282,0.001308077974576417,0.9949415740850742
2017-03-03,1,0.0017626835093585364,0.001985641642035252,-0.003699281526331282,0.00036936873510375637,0.9952971916892318
2017-03-07,1,0.00130477783614855,0.001441703858510374,-0.004197351672542546,0.00036936873510375637,0.9954461878841441
2017-03-09,1,0.0010262350655200854,0.0011194916869357288,-0.003404311254354986,0.0017057628686662461,0.995935226933996
2017-03-13,1,0.00112994988616517,0.0012192923169548624,-0.003404311254354986,0.0017913852158685712,0.9957556831480462
2017-03-15,1,0.001077434982777921,0.001170307161141804,-0.004269697633131801,0.003448905640338234,0.9954564834711951
2017-03-17,1,0.0004677269930355093,0.00048140787291688964,-0.004044499028459289,0.0036543101538154487,0.9955620887411037
2017-03-21,-1,-0.00016590579932900158,-8.29680632125955e-05,-0.0025051286651931,0.0036543101538154487,0.996617652613897
2017-03-23,-1,-0.0006057074917069413,-0.00044512082384350857,-0.0025051286651931,0.004880523700463413,0.9955434677603759
2017-03-27,-1,-0.0003916253208204567,-0.00024953257034880324,-0.0025051286651931,0.006017656921801286,0.9951450633610763
2017-03-29,-1,-0.0003387079026784943,-0.0002225242271199861,-0.0014939639631168593,0.006017656921801286,0.9951756385610239
2017-03-31,-1,-0.0005814456783429922,-0.00044618767035116647,-0.00013075327861839124,0.006017656921801286,0.995118583685928
2017-04-04,-1,-0.0005283004798740322,-0.00041619284542224037,-0.00013075327861839124,0.006017656921801286,0.9945886970908981
2017-04-06,-1,-0.00019965521936927776,-0.00013624564336909848,-0.0017695145615725535,0.006487663737846001,0.9944330883217118
2017-04-10,-1,-0.0003548916354219999,-0.0002290688110002256,-0.002550552762079074,0.006017656921801286,0.994741985835476
2017-04-12,-1,-0.00041699059806318134,-0.0002814415983821534,-0.0014987172633815597,0.006017656921801286,0.9949768863203584
2017-04-17,1,5.8991036104494006e-05,9.452243267998195e-05,-0.0014987172633815597,0.00549879744799648,0.9951445443675021
2017-04-19,1,0.00010205595401948864,0.00012645189988456026,-0.002550552762079074,0.00549879744799648,0.9945206345754893
2017-04-21,1,0.001027663335097179,0.0011441477908809977,-0.002550552762079074,0.004504287391556727,0.995569923683219
2017-04-25,1,0.0014201318118012922,0.0015901776526740649,-0.003622991315773631,0.0038162480193141045,0.9955416177435346
2017-04-27,1,0.0007263305053812045,0.0007355287498404636,-0.003622991315773631,0.004504287391556727,0.9946712217515519
2017-05-01,1,0.0006477828243993167,0.0006619362864859552,-0.003622991315773631,0.004504287391556727,0.9946900823493278
2017-05-03,1,0.0002838655415659358,0.00033003682492061307,-0.0012728602912530232,0.00550541320810361,0.9947929796230364
2017-05-05,1,5.1495646577178335e-05,0.00013498207560514927,-0.0012104673397325596,0.004825021831054497,0.9952388192395983
2017-05-09,0,-9.948635098692277e-05,1.002651361306316e-05,-0.0012104673397325596,0.004825021831054497,0.9951664258582544
2017-05-11,1,0.0005503936183740144,0.0005628035690774272,-0.0037004625562108333,0.004504287391556727,0.9942364949668847
2017-05-15,1,1.1333182647540628e-05,9.809791902475572e-05,-0.0019049392785992108,0.005232264101689207,0.994133431564432
2017-05-17,-1,-0.00013707906738877747,-4.311965869240546e-05,-0.0012104673397325596,0.005232264101689207,0.9947122131183745
2017-05-19,-1,-0.0002618647586228386,-0.00013563914447005745,-0.0019230460872544555,0.004536628839938932,0.9944338500568384
2017-05-23,0,-4.248725295618287e-05,4.9312538143403515e-05,-0.0015262561681819373,0.0035699924945058062,0.9949965990315812
2017-05-25,1,0.000367208500191442,0.00043447642411462357,-0.0016169395708427149,0.0034835484186873087,0.9957894604494546
2017-05-30,1,0.0008166004883869829,0.0008612416439810176,-0.0016169395708427149,0.003566762814123392,0.9956216216545202
2017-06-01,1,0.0013750796589073223,0.0015041348688934518,-0.002275869886684104,0.0034835484186873087,0.9950848906948009
2017-06-05,1,0.000837930242588083,0.0008585537875927116,-0.002275869886684104,0.003566762814123392,0.9951579695315314
2017-06-07,1,0.0006924592694127805,0.0007003695226343409,-0.003035130306171069,0.003772366183008714,0.9948202305513991
2017-06-09,1,0.0003372837028131157,0.0003528572859041911,-0.001438876035925647,0.006233353502946341,0.9950102020426032
2017-06-13,1,0.0006898872272788088,0.0007193177598465484,-0.001438876035925647,0.006233353502946341,0.9950017950091838
2017-06-15,1,0.0009547520285935961,0.0010342596906619704,-0.001438876035925647,0.007051670450786265,0.994754271730826
2017-06-19,1,0.0004676753181414315,0.00047498045784320823,0.00035964873191318453,0.007051670450786265,0.9951318122485104
2017-06-21,1,0.0003507568055075639,0.0003609479979275527,0.00010804741286228863,0.007051670450786265,0.9951585722807854
2017-06-23,1,0.0001615168808730864,0.00020171876266659138,0.000578597158467233,0.007051670450786265,0.9950443288858168
2017-06-27,1,0.00017477740929888549,0.00022216107758349506,0.0004742420847788909,0.007433234904973049,0.9944862884902113
2017-06-29,1,2.452879396012576e-05,8.645997399651413e-05,0.0004742420847788909,0.007051670450786265,0.9952049455788411
2017-07-03,1,0.00036892527287150657,0.00040542152214898545,0.0004742420847788909,0.007178325348141169,0.995187356551557
2017-07-06,1,0.0005368150106194021,0.0005369927297204742,5.8391825707532164e-08,0.006275571802064643,0.9951086106359711
2017-07-10,1,0.0011948726262027954,0.0012801244066446222,-0.0004987514649645043,0.004709404876439524,0.9961279368872482
2017-07-12,1,0.001951589016121819,0.002166466801485436,-0.002977330330230812,0.003765517950427785,0.9959672399021589
2017-07-14,1,0.0023547892246997965,0.002631550288695494,-0.002977330330230812,0.0022003406802689014,0.9957829165402265
2017-07-18,1,0.0025270720143471216,0.0028480904922258193,-0.002977330330230812,0.002733742581347481,0.9952494888905838
2017-07-20,1,0.0022705827195531937,0.0025432720561306237,-0.005041509090474215,0.00405061214506272,0.9941942562495761
2017-07-24,1,0.0024930972672310855,0.0028005884281651805,-0.005041509090474215,0.0050017083018249805,0.99377664248778
2017-07-26,1,0.0026582516173038967,0.002981460954106985,-0.003511660991364007,0.0050017083018249805,0.9940045756197988
2017-07-28,1,0.0025319533898175576,0.0028257178302747927,-0.003511660991364007,0.0050017083018249805,0.9940611603866388
2017-08-01,1,0.002652461004149854,0.0029398291243137396,-0.003511660991364007,0.003408760610586286,0.9941352148169045
2017-08-03,1,0.0021486601716427522,0.0023845036678233423,-0.0011025347782717106,0.005129158103006403,0.9950498203368198
2017-08-07,1,0.0020729426131978743,0.002288533165371702,-0.0017458828606653327,0.005129158103006403,0.9945926671723502
2017-08-09,1,0.0013240344984112866,0.001416950262901618,-0.0010909198384316387,0.005129158103006403,0.9952477968256253
2017-08-11,1,0.0006515725064116537,0.0006957227003290441,-0.0010909198384316387,0.006283476923299546,0.9945742305867056
2017-08-15,1,0.0010852351009833195,0.0010884081393294474,-0.0016772667202725974,0.005129158103006403,0.9947353044362841
2017-08-17,1,0.0006107777393078605,0.0006611595519987931,-0.0016772667202725974,0.00490252181683617,0.995890645536257
2017-08-21,1,0.0009442287523213756,0.0009701343487290561,-0.002519405499769073,0.00490252181683617,0.9952644579001676
2017-08-23,1,0.0008584468270366167,0.0009103142323211128,-0.0016772667202725974,0.0033383712660297383,0.9956924304664236
2017-08-25,1,0.0005130161982820524,0.0006235028498083494,-0.0023946585191015088,0.003892957554010574,0.9955823317369862
2017-08-29,1,0.000744065341095832,0.0008217099237046466,-0.0023946585191015088,0.0036137521122180743,0.9954918166732456
2017-08-31,1,0.0012926737889605185,0.0012970547781139224,-0.0023946585191015088,0.0030045360880981277,0.9955485167724544
2017-09-05,1,0.0007677077492000831,0.0008306266153482124,-0.0020453570102278835,0.0030045360880981277,0.9961554757114742
2017-09-07,1,0.0007667189616728525,0.0008344391613759794,-0.0020453570102278835,0.0033790543107968525,0.9961237314825258
2017-09-11,1,0.0009817903294769507,0.0010296469270710978,-0.0012989893042629605,0.0033790543107968525,0.9965777915919019
2017-09-13,1,0.0009250255177891602,0.0009356553904646561,-0.0009179769709757736,0.0033790543107968525,0.997067739522741
2017-09-15,1,0.0009818170144105564,0.0010082201767074575,-0.0003983435878765432,0.0035833104323028378,0.99718591643527
2017-09-19,1,0.0012316211238326534,0.001292609722292246,-0.0003983435878765432,0.0033790543107968525,0.9978396804694409
2017-09-21,1,0.0011803521632406007,0.0012386858237744837,0.00015856428272342338,0.0036035898086690388,0.9977123795233516
2017-09-25,1,0.0006885931014477914,0.0007302430854024777,0.0004810511324350433,0.003666751294413255,0.997697816722153
2017-09-27,1,0.000638410272908098,0.0006881069203985514,0.0004810511324350433,0.0036035898086690388,0.9976028740534826
2017-09-29,1,0.0006873177231494765,0.0007332703033019975,0.0006417872045875242,0.0038475070018115834,0.9972775832033695
2017-10-03,1,0.0007171859532201464,0.0007611914174383793,0.00015856428272342338,0.0038475070018115834,0.99529652355033
2017-10-05,1,0.0003992785160973539,0.00043228172783032624,0.00015856428272342338,0.0039028421387845465,0.9950662668755984
2017-10-09,1,0.0003353406684767691,0.00038439912812793155,-0.0008844773945408754,0.003717826420387287,0.9951403918079856
2017-10-11,1,0.0004092708014344453,0.0004574909815630051,-0.0025953294471725823,0.0039028421387845465,0.9932189093388641
2017-10-13,1,0.0004896634519666114,0.0005256632677032928,-0.0025953294471725823,0.004347167295911979,0.9928786744037551
2017-10-17,1,0.000542417801320088,0.0005480822364238716,-0.0008844773945408754,0.00452377649502227,0.9931328158501284
2017-10-19,1,0.0006643700236329237,0.000668556701857176,-0.002354730620103995,0.004347167295911979,0.9932786539337168
2017-10-23,1,0.0009544163115155395,0.0010202810379475564,-0.0038754498422207844,0.0039028421387845465,0.9928479301584049
2017-10-25,1,0.0008010845647411047,0.0008398108046476056,-0.002784351716608617,0.0039028421387845465,0.9928954626667652
2017-10-27,1,0.0010150964509843315,0.0010778674773378421,-0.002784351716608617,0.0029570375568935612,0.9930021111127476
2017-10-31,-1,-0.0005267034962753339,-0.0003708730283224671,-0.0017083101523956731,0.004249251813430839,0.9946975196774515
2017-11-02,-1,-0.00020881948429717594,-0.00010620197795292664,-0.0020712308539228017,0.005819805481160132,0.9938719994931724
2017-11-06,-1,-0.00029068248533226836,-0.00018202548595542352,-0.0018515171845638807,0.006723698882162402,0.9930980003008018
2017-11-08,-1,-0.0009583814359541649,-0.0007545068920044048,-0.0015487044627923497,0.006047495207346999,0.994690021214629
2017-11-10,-1,-0.000721650494361777,-0.0005414437225733402,-0.0015487044627923497,0.005753419157038227,0.9953243961248897
