JNU-Tangyin/eata/results/Batch4_SP500/Batch4_SP500-WYNN.csv
Date,Action,Predicted_Q25,Predicted_Q75,Actual_Q25,Actual_Q75,RL_Reward
2010-12-14,0,-4.988101108463505e-05,0.0,-0.00668179651299494,0.014911574157849432,0.984941898229649
2010-12-16,0,0.0,0.0,-0.00668179651299494,0.014174047938791278,0.9868881528570299
2010-12-20,1,0.001264675224238565,0.0012668698702092542,-0.006426679808537052,0.014174047938791278,0.9871795162880522
2010-12-22,1,0.0008745220650341359,0.0009034436994898073,-0.006426679808537052,0.014174047938791278,0.9871645286801475
2010-12-27,1,0.0007244730534782211,0.000731959026185206,-0.00486910720481897,0.014174047938791278,0.9875942767280624
2010-12-29,1,0.0006486762400728319,0.0006742287367603503,-0.00486910720481897,0.018729288146392745,0.9866113780697339
2010-12-31,1,0.0008818245016274218,0.0008851354780849908,-0.00486910720481897,0.01641829456142075,0.9854672355253034
2011-01-04,0,0.0,0.0,-0.00486910720481897,0.013649558816819996,0.9881329330190749
2011-01-06,0,0.0,0.0,-0.005117186861321623,0.007317432812610127,0.9883532092743851
2011-01-10,0,0.0,0.0,-0.005117186861321623,0.007317432812610127,0.9891767373381696
2011-01-12,0,0.0,0.0,-0.005117186861321623,0.012398304521950562,0.9888648401094196
2011-01-14,1,0.0021939661586948757,0.002459649966190609,-0.0065177376168298875,0.012398304521950562,0.9853524089551908
2011-01-19,1,0.0017539149940237852,0.0020837994188542125,-0.005913905618283191,0.012398304521950562,0.9857363064680817
2011-01-21,1,0.0010414487433764515,0.0014485392230137828,-0.005166010703694645,0.012398304521950562,0.9863999066883098
2011-01-25,1,0.0004292289338849208,0.0008972880864257604,-0.009486623829019795,0.012398304521950562,0.9840688946030708
2011-01-27,1,0.0018228612627375833,0.002053857194911458,-0.009486623829019795,0.012398304521950562,0.9840046671474868
2011-01-31,1,0.0013445078715941597,0.0016285110805086102,-0.008770903925120022,0.01302191724492809,0.9851939978538444
2011-02-02,1,0.0016995726124050823,0.0019431641054581052,-0.008770903925120022,0.01302191724492809,0.9848548979842977
2011-02-04,1,0.0011927015789648533,0.0015066882566720978,-0.008770903925120022,0.01302191724492809,0.983867212080635
2011-02-08,1,0.0010314589231646084,0.0013641143444168367,-0.008770903925120022,0.009517928182793761,0.9842383409301176
2011-02-10,1,0.0017370711492784542,0.001892348079012471,-0.008770903925120022,0.008316345659780606,0.9832000720237182
2011-02-14,1,0.004549681478984971,0.004674826604232664,-0.012089561727472602,0.006291799087056522,0.9855357959233733
2011-02-16,1,0.004185856302510418,0.004233196883170859,-0.02232283572019452,0.008316345659780606,0.9838968444843125
2011-02-18,1,0.003473544568297869,0.0035497789215563316,-0.02232283572019452,0.009144707407723766,0.9815831060978614
2011-02-23,1,0.0010272756693381444,0.0014090888952009292,-0.016601502163014897,0.012649300575315147,0.9823065941959358
2011-02-25,1,0.001703417481314782,0.001950280625544637,-0.016601502163014897,0.021828966626970165,0.9816414493309394
2011-03-01,1,0.0021875575920483237,0.002382893621556118,-0.01696278231537647,0.012710134421498964,0.9820473558655491
2011-03-03,1,0.003571491974996619,0.003639444757831781,-0.01696278231537647,0.01084031644763741,0.9827185753350738
2011-03-07,1,0.0038812991951622626,0.0040996220336325,-0.014674507071672609,0.016010320416898337,0.9824640685188287
2011-03-09,1,0.003768810253142901,0.003947481071259161,-0.014674507071672609,0.016010320416898337,0.9823479465181083
2011-03-11,1,0.002871619069923387,0.0029250666362046077,-0.014674507071672609,0.016010320416898337,0.9830531861544072
2011-03-15,1,0.0018634811890174746,0.001921526751401831,-0.014038621328196875,0.016010320416898337,0.9831877166191403
2011-03-17,1,0.0016743045414743013,0.001724049860338859,-0.006861167885303498,0.021828966626970165,0.9833730837850194
2011-03-21,1,0.0027027596531793104,0.002789278095574266,-0.004068979281463018,0.021828966626970165,0.9845962553082117
2011-03-23,1,0.0029518294177100658,0.0030690985916533983,-0.004068979281463018,0.02332580978641992,0.9833423906166399
2011-03-25,0,0.0,0.0,-0.004068979281463018,0.01428873879099202,0.9850113934347854
2011-03-29,0,0.0,0.0,-0.004068979281463018,0.01428873879099202,0.9855235618630928
2011-03-31,0,0.0,0.0,-0.005059201690564567,0.011095278348806178,0.9855731055176656
2011-04-04,0,0.0,0.0,-0.006782816433480289,0.009005134444664583,0.9870022216712843
2011-04-06,0,0.0,0.0,-0.008159448672632214,0.008501922153994342,0.9863188008295226
2011-04-08,1,0.003402786078870526,0.003728950871289289,-0.006782816433480289,0.0061403699412817215,0.9874439486574519
2011-04-12,0,0.0,0.0,-0.006782816433480289,0.011095278348806178,0.9862182100734636
2011-04-14,0,0.0,0.0,-0.0072190545197389246,0.0061403699412817215,0.9873856801691595
2011-04-18,0,0.0,0.0,-0.008353246895190243,0.004615932239326314,0.9866577568938687
2011-04-20,0,0.0,0.0,-0.0072190545197389246,0.004615932239326314,0.9889405443466707
2011-04-25,0,0.0,0.0,-0.012106544514200627,0.004615932239326314,0.9876685397786957
2011-04-27,1,0.004125738207670851,0.004385986045714227,-0.012106544514200627,0.006138856182475786,0.9870631356428339
2011-04-29,0,0.0,0.0,-0.012106544514200627,0.007939045149194177,0.9871845852795202
2011-05-03,0,0.0,0.0,-0.008587297150451902,0.007939045149194177,0.987753742781854
2011-05-05,0,0.0,0.0,-0.008587297150451902,0.007939045149194177,0.9878454047278048
2011-05-09,0,0.0,0.0,-0.014034698580930541,0.007939045149194177,0.9856790245935892
2011-05-11,0,0.0,0.0,-0.014034698580930541,0.005166494765726917,0.9869809785094033
2011-05-13,0,0.0,0.0,-0.016885981008177824,0.005166494765726917,0.9857861088519427
2011-05-17,0,0.0,0.0,-0.016885981008177824,0.005166494765726917,0.98627811601436
2011-05-19,0,0.0,0.0,-0.016885981008177824,0.0031711313909256176,0.9873316864399164
2011-05-23,-1,-0.0010345689701437525,-0.0005348055938181463,-0.015220733970643793,0.007939045149194177,0.9869335777852217
2011-05-25,0,0.0,0.0,-0.016914274480031147,0.005166494765726917,0.9864017294156895
2011-05-27,1,0.0018291817054663763,0.001887396472831276,-0.016914274480031147,0.0031711313909256176,0.9852269572213843
2011-06-01,1,0.0018467869882761727,0.0018807075170298416,-0.016914274480031147,0.009740572029357348,0.9836343261362446
2011-06-03,1,0.0017253753508097264,0.0017330354340332247,-0.015220733970643793,0.022898595179223068,0.9817128075541727
2011-06-07,-1,-0.0009202797432986455,-0.0005800211148811867,-0.011071800846242215,0.022898595179223068,0.9832711591135731
2011-06-09,0,0.0,0.0,-0.006034692240093544,0.023785103811113022,0.9814723945755903
2011-06-13,0,0.0,0.0,-0.0034742947675427166,0.023785103811113022,0.982107239083136
2011-06-15,-1,-0.0033063862182428714,-0.002661159456560645,-0.0032448837919502047,0.02336712030257161,0.9826647671472892
2011-06-17,0,0.0,0.0,-0.00012635874855775834,0.023785103811113022,0.9819116648657757
2011-06-21,0,0.0,0.0,-0.005346459313316009,0.02336712030257161,0.9827463938662137
2011-06-23,-1,-0.0025865608107527196,-0.0019826683409045576,-0.000541734367496176,0.02336712030257161,0.9812782702925085
2011-06-27,0,0.0,0.0,-0.003061063808239235,0.02336712030257161,0.9834663350902153
2011-06-29,0,0.0,0.0,-0.0060792860991546425,0.022572275728893497,0.9829866115601336
2011-07-01,0,0.0,0.0,-0.011664276020481673,0.014453721700418162,0.9854592681425962
2011-07-06,0,0.0,0.0,-0.013632217371626565,0.017243971441892048,0.982716510014654
2011-07-08,1,0.0050789337453982855,0.005669895300272038,-0.017791244658966258,0.010313773467718751,0.9799204740066367
2011-07-12,1,0.0031944509049727744,0.003493597512402237,-0.017791244658966258,0.014354713408724249,0.9729676325735348
2011-07-14,1,0.0032779054548845213,0.0035749843854015243,-0.025177690576634024,0.01605667921633183,0.9699602351502348
2011-07-18,1,0.003252111467383248,0.00342983654294103,-0.025177690576634024,0.023265289394170878,0.9690276352450335
2011-07-20,1,0.002316000835350773,0.0023897850406146464,-0.025177690576634024,0.023265289394170878,0.9698080650389921
2011-07-22,1,0.0036498389839397273,0.003927708174950643,-0.034647576422402876,0.01017936444481641,0.9652014460897653
2011-07-26,1,0.004683422093599993,0.005205207850808006,-0.034647576422402876,0.02731452686954217,0.962246661806683
2011-07-28,1,0.0021057526549934924,0.0022150548284294433,-0.034647576422402876,0.02731452686954217,0.9639668624519561
2011-08-01,1,0.0020163533773711515,0.0021444018600805174,-0.034647576422402876,0.03179462234174325,0.9615585963750546
2011-08-03,1,0.0012814933617244656,0.001331222763384605,-0.022936631311394867,0.03427681080671756,0.9630292503281911
2011-08-05,-1,-0.0018644959590016447,-0.0013968960333920525,-0.02241915441695225,0.03427681080671756,0.9645436683653907
2011-08-09,-1,-0.0023201024556000357,-0.0017370537548660066,-0.015957157064963364,0.02731452686954217,0.9719089998070762
2011-08-11,-1,-0.0012866068488830477,-0.000874382134238265,-0.015957157064963364,0.02544301731570054,0.9746945438602166
2011-08-15,1,0.0002812507575630619,0.0005330686647017237,-0.015957157064963364,0.022364244917737273,0.9760643514933974
2011-08-17,1,0.00062791195781655,0.0007639375306084195,-0.014943486577858179,0.022364244917737273,0.9759965473977872
2011-08-19,-1,-0.0045734660461626605,-0.0038097079672921638,-0.010836159106515437,0.023533985753771303,0.9778327354361086
2011-08-23,0,0.0,0.0,-0.014943486577858179,0.022364244917737273,0.9786572482629002
2011-08-25,0,0.0,0.0,-0.016777605117582327,0.022364244917737273,0.9773913560581332
2011-08-29,0,0.0,0.0,-0.016846374788694246,0.01812403475071429,0.9790124822460274
2011-08-31,0,0.0,0.0,-0.03219992304772753,0.009214541195439484,0.976412145284389
2011-09-02,0,-0.00016124044150485762,0.00016887250076028028,-0.033844683296325034,0.009214541195439484,0.9728960581277257
2011-09-07,0,0.0,0.0,-0.033844683296325034,0.011710034049893231,0.9703366366984206
2011-09-09,0,0.0,0.0,-0.033844683296325034,0.01812403475071429,0.9657041098156879
2011-09-13,0,0.0,0.0,-0.033844683296325034,0.01850461597252335,0.9625553966596072
2011-09-15,0,0.0,0.0,-0.03853138254268724,0.01850461597252335,0.9613001321446284
2011-09-19,1,0.0014201746991924229,0.0015653932724335369,-0.03853138254268724,0.013437733395211713,0.9623674273870112
2011-09-21,1,0.001403391369636847,0.0015773746769925413,-0.04041399426969549,0.021721923250225733,0.9623701410896311
2011-09-23,0,0.0,0.0,-0.04041399426969549,0.021721923250225733,0.9616905917340627
2011-09-27,0,0.0,0.0,-0.04041399426969549,0.021893834209557254,0.9590198342283011
2011-09-29,0,0.0,0.0,-0.035843526373651236,0.04446213428986846,0.9588915143058144
2011-10-03,0,0.0,0.0,-0.02866693841766914,0.04446213428986846,0.9623715743216882
2011-10-05,0,0.0,0.0,-0.032417825725302093,0.03272079766530191,0.9633414184375035
2011-10-07,0,0.0,0.0,-0.032417825725302093,0.02592087896504424,0.9681265003893782
2011-10-11,0,0.0,0.0,-0.032417825725302093,0.021893834209557254,0.971510573406319
2011-10-13,0,0.0,0.0,-0.03501958976454248,0.021893834209557254,0.9702073515375118
2011-10-17,-1,-0.0048010185588652395,-0.004322891050524224,-0.03501958976454248,0.023439355328796627,0.9695540318891294
2011-10-19,-1,-0.005849002832330791,-0.005292570586228769,-0.03501958976454248,0.024676658874219194,0.9703411800364892
2011-10-21,-1,-0.0079066858270853,-0.007114560968524895,-0.032417825725302093,0.024676658874219194,0.9720513666140871
2011-10-25,-1,-0.007368009631305118,-0.006604759172971356,-0.03241978002356604,0.012186621010667024,0.9724763840357992
2011-10-27,-1,-0.004149324821433105,-0.0036641076888397884,-0.035282855700400365,0.008167428031912675,0.9760356407147018
2011-10-31,-1,-0.005978358631022926,-0.005313722969397965,-0.035282855700400365,0.00825463937671016,0.9732722712448896
2011-11-02,-1,-0.006308924018885234,-0.005548181482385081,-0.035282855700400365,0.00825463937671016,0.9711831801800019
2011-11-04,-1,-0.006165565552955251,-0.005423317637575361,-0.035282855700400365,0.007583064886336344,0.9721986968912072
2011-11-08,-1,-0.006987968146217764,-0.006143286400253115,-0.035282855700400365,0.007583064886336344,0.9717425730058079
2011-11-10,-1,-0.00860529295562484,-0.00743309762931227,-0.03373178303959824,0.007583064886336344,0.9727868592912089
2011-11-14,0,0.0,0.0,-0.034463147900517445,0.006480316778708535,0.9712881119095931
2011-11-16,0,0.0,0.0,-0.03373178303959824,0.006480316778708535,0.9720471765454024
2011-11-18,-1,-0.008775416707787538,-0.007832466124770444,-0.03373178303959824,0.006480316778708535,0.9736619977739934
2011-11-22,-1,-0.009572636843210209,-0.008689874516988522,-0.032907495421018604,0.0071866409935771045,0.9743007953988053
2011-11-25,-1,-0.011016958956420995,-0.010046359041819445,-0.023392204530558833,0.012208904143474645,0.9739299841746448
2011-11-29,-1,-0.008272505159639086,-0.007754269874176723,-0.023392204530558833,0.012208904143474645,0.9760780925288209
2011-12-01,-1,-0.0060843745067934996,-0.005764765248050769,-0.023392204530558833,0.010237170854352723,0.9803572642612375
2011-12-05,-1,-0.005785114158471613,-0.005544922832888576,-0.023392204530558833,0.01222622060527112,0.978128076729205
2011-12-07,0,0.0,0.0,-0.023392204530558833,0.01222622060527112,0.9786837507090361
2011-12-09,0,0.0,0.0,-0.017974273454559528,0.01222622060527112,0.9800723117401462
2011-12-13,0,0.0,0.0,-0.017567881714990102,0.0192029000769117,0.9800556321613797
2011-12-15,0,0.0,0.0,-0.017338025933838888,0.02148008885030653,0.9794499324589377
2011-12-19,0,0.0,0.0,-0.012133535603417117,0.031644794985888576,0.9791806819670104
2011-12-21,0,0.0,0.0,-0.01631469630747241,0.02148008885030653,0.9803508220573194
2011-12-23,0,0.0,0.0,-0.01631469630747241,0.020218901491205078,0.9799845526212304
2011-12-28,0,0.0,0.0,-0.011914901968770885,0.015806277877741946,0.9828179646857825
2011-12-30,-1,-0.0020562810544827617,-0.002003845638536704,-0.01631469630747241,0.015806277877741946,0.9818657357378536
2012-01-04,-1,-0.0013757345079934622,-0.0012009813306583417,-0.011914901968770885,0.01781219677011522,0.9819009549353287
2012-01-06,0,0.0,0.0,-0.016455222342394035,0.01781219677011522,0.9808571422064829
2012-01-10,0,0.0,0.0,-0.016455222342394035,0.018580844465152742,0.9804843994423149
2012-01-12,0,0.0,0.0,-0.011914901968770885,0.016716053225514126,0.9827310824410957
2012-01-17,0,0.0,0.0,-0.011914901968770885,0.015806277877741946,0.9840154463118672
2012-01-19,1,0.0001266587387448929,0.0002132102249851286,-0.011914901968770885,0.01237925185171149,0.9857373988270743
2012-01-23,1,0.0017836427904382086,0.0023784552804029134,-0.009505948364555435,0.01259710500152027,0.9844621157407469
2012-01-25,1,0.004377294435019136,0.005460509133381445,-0.012393684213411506,0.006897611517024017,0.9831833823514144
2012-01-27,1,0.003106377077704655,0.003913888426146916,-0.013509600875989649,0.012264168601718906,0.983143215848497
2012-01-31,1,0.0027094088269081305,0.003559116859103189,-0.012549057773756702,0.015717244026110033,0.9831153722573848
2012-02-02,1,0.004378458956198959,0.005385729012363116,-0.012549057773756702,0.015717244026110033,0.9816592589102636
2012-02-06,1,0.0021260395123808896,0.002887140753444528,-0.012549057773756702,0.015717244026110033,0.9821782334366856
2012-02-08,1,0.0029447700998403883,0.003806851779947988,-0.012549057773756702,0.017398170186780512,0.9817010347354229
2012-02-10,1,0.004046460351314118,0.005218418958384581,-0.013509600875989649,0.017398170186780512,0.9814387366413956
2012-02-14,0,0.0,0.0,-0.012549057773756702,0.025579951497969745,0.9802429414563119
2012-02-16,0,0.0,0.0,-0.012549057773756702,0.025579951497969745,0.979772583851989
2012-02-21,0,0.0,0.0,-0.012549057773756702,0.01981624493087272,0.9812853567084083
2012-02-23,0,0.0,0.0,-0.012549057773756702,0.01981624493087272,0.981434159441379
2012-02-27,0,0.0,0.0,-0.010493305082120576,0.024931211957536052,0.9814107727367798
2012-02-29,0,0.0,0.0,-0.011421432262300924,0.01981624493087272,0.9820478913185829
2012-03-02,0,0.0,0.0,-0.01183785307693663,0.010677161659980498,0.9850235663771104
2012-03-06,1,0.0010250909355095433,0.0013194885080389262,-0.009340452544038907,0.010677161659980498,0.9880398012660623
2012-03-08,1,0.0013272688697366017,0.0016212298752548687,-0.01003902231268484,0.008845775559169189,0.9879499324664536
2012-03-12,1,0.0014907511664895134,0.0018566990500774995,-0.0112559089838898,0.008845775559169189,0.9874505528957048
2012-03-14,1,0.001965635637308064,0.0022734448101225605,-0.0112559089838898,0.015444482257620695,0.9876871974780143
2012-03-16,1,0.0015153227289521022,0.0017027053543028524,-0.014062199688199377,0.009061846164971415,0.9875755809355311
2012-03-20,1,0.001738573336533873,0.0020437095347440896,-0.014062199688199377,0.012534119445540172,0.9864124997326643
2012-03-22,1,0.002583318099178733,0.003045382980001121,-0.0112559089838898,0.012534119445540172,0.9866460028496505
2012-03-26,1,0.0028779080791608335,0.003339377062205137,-0.014062199688199377,0.006440478032080886,0.9860310320825424
2012-03-28,1,0.002470650201496366,0.002895400326351958,-0.0112559089838898,0.01647320564746843,0.9845362632528855
2012-03-30,1,0.002657561240880679,0.0031899936973633102,-0.012522736023685078,0.01647320564746843,0.9844426177868071
2012-04-03,1,0.002405890345045248,0.002782883990838581,-0.012522736023685078,0.01647320564746843,0.9836950542724069
2012-04-05,1,0.0016004836542634709,0.0017643435301610698,-0.01444683820716354,0.012534119445540172,0.9828130713266707
2012-04-10,1,0.0017743323178735758,0.0021448171604804356,-0.016948307721271594,0.012534119445540172,0.9812097798489546
2012-04-12,1,0.0022047191873650444,0.002519526917649651,-0.019580474375033907,0.00754332871847492,0.9798242803423588
2012-04-16,1,0.0013959507901242139,0.0015794830244682402,-0.023428307843682043,0.00754332871847492,0.9790228295737027
2012-04-18,1,0.0024469527788747863,0.002747200552471156,-0.023428307843682043,-0.0040061619795126215,0.9794263085611874
2012-04-20,1,0.001396146057287833,0.001472074542122175,-0.02534515735047864,-0.0013330333784536779,0.9788454504355462
2012-04-24,1,0.0005943602379987934,0.0006306055803592608,-0.023428307843682043,0.004650605965539923,0.9793631660826393
2012-04-26,1,0.0033695760398745386,0.0038068568711725776,-0.023428307843682043,-0.0013330333784536779,0.9811518434813128
2012-04-30,1,0.0025096085121904263,0.0028007975568323327,-0.023428307843682043,-0.0013330333784536779,0.980689591430705
2012-05-02,1,0.001965220077963594,0.002156702650799821,-0.023428307843682043,-0.0024612545874590336,0.9808571693610734
2012-05-04,1,0.00011831530021102056,0.00020127522710549711,-0.021875364870509645,0.0005546856173438906,0.9811833927641613
2012-05-08,-1,-0.0026144645162457306,-0.0021102388260770214,-0.015973323272604097,0.005736347033165059,0.9823376017086701
2012-05-10,-1,-0.0028133673116386747,-0.002319621495805409,-0.013404043762937218,0.009908463292264769,0.983253521206012
2012-05-14,-1,-0.0055588459959187006,-0.004649640230351329,-0.013404043762937218,0.016345042292434706,0.9822190880163163
2012-05-16,-1,-0.0049482960956442395,-0.004224963519701719,-0.01229563111887206,0.016345042292434706,0.9823404970495091
2012-05-18,-1,-0.004940425559687683,-0.004257085425073082,-0.011701298967748288,0.016345042292434706,0.9832774501238788
2012-05-22,-1,-0.005333558393942268,-0.004563695100032326,-0.011701298967748288,0.016345042292434706,0.9820963103629902
2012-05-24,-1,-0.004818629468889958,-0.004151619519520861,-0.01229563111887206,0.016345042292434706,0.9807667178942784
2012-05-29,-1,-0.004065039425586569,-0.0034936569514513417,-0.01229563111887206,0.01315767950621426,0.9820463426652317
2012-05-31,-1,-0.005758038734123538,-0.004916896609722662,-0.012201895991897107,0.01315767950621426,0.9820234750315006
2012-06-04,-1,-0.006315558712170975,-0.005431592161129186,-0.012201895991897107,0.015662896737647657,0.9833917140581024
2012-06-06,-1,-0.004280480230733604,-0.0036741632965222445,-0.012201895991897107,0.009139567909495813,0.9865982043800237
2012-06-08,-1,-0.003972373036735343,-0.0034774768639280894,-0.011372277539707128,0.004664466131977663,0.9874282912341402
2012-06-12,-1,-0.0039099361811885435,-0.003427087846281651,-0.009939382639706344,0.003677652033387456,0.9899010574091665
2012-06-14,-1,-0.003918808355358619,-0.0035029294501522593,-0.009939382639706344,0.003677652033387456,0.988822504216516
2012-06-18,-1,-0.003392867845586534,-0.0030722593659146574,-0.007839550588717712,0.003677652033387456,0.9887376037361304
2012-06-20,-1,-0.0023798496584540225,-0.0021127377291992474,-0.011017099654573134,0.0036686636106520354,0.9889942565670081
2012-06-22,-1,-0.0028804636604066384,-0.0025722272698003065,-0.011372277539707128,0.00287607527137835,0.9889092000670744
2012-06-26,-1,-0.0021201758540823983,-0.0019769952330171182,-0.012107717858182817,0.00287607527137835,0.9883940392440271
2012-06-28,-1,-0.003593728216265941,-0.003164132526954014,-0.012107717858182817,0.0035282761593398494,0.9877679149291136
2012-07-02,-1,-0.003677610492286088,-0.0032726970682236847,-0.011017099654573134,0.002829279454274288,0.9889309893658149
2012-07-05,-1,-0.002875210346635483,-0.002549368632777961,-0.012966734832431959,0.0035282761593398494,0.9875926602789247
2012-07-09,-1,-0.004139400077543771,-0.0036505422403299913,-0.012885845321764271,0.011209478778742756,0.9855796022165998
2012-07-11,-1,-0.0033939951979116913,-0.002967101483008484,-0.012885845321764271,0.01629769829986312,0.9835609298851183
2012-07-13,-1,-0.00300994601618001,-0.0027131644454629613,-0.011114767477891408,0.01629769829986312,0.9847119726144163
2012-07-17,-1,-0.0038260369326296615,-0.0033979137846040846,-0.012790129211773365,0.01629769829986312,0.9847509161374095
2012-07-19,-1,-0.0026353240513995115,-0.0023481956887474622,-0.012790129211773365,0.01629769829986312,0.9844958961132017
2012-07-23,-1,-0.00403330385875778,-0.00362423092906613,-0.006534518579579656,0.01629769829986312,0.9851825876641056
2012-07-25,-1,-0.00294571193000566,-0.002777546092993058,-0.002822470877705643,0.01629769829986312,0.9859997383145765
2012-07-27,-1,-0.0033003541365687417,-0.003012349970477933,-0.005955148045067357,0.00985849938452852,0.9867921734763375
2012-07-31,-1,-0.002812303309729731,-0.0026430911349777887,-0.0031797071157345456,0.00985849938452852,0.9870618094609234
2012-08-02,-1,-0.003156110947288229,-0.0029231559653050037,-0.0036825587675948794,0.006956593948627067,0.9878275561820575
2012-08-06,-1,-0.0009311934076009387,-0.0008220505844525164,-0.005955148045067357,0.004117941564209256,0.9894004447375926
2012-08-08,1,7.558567330135822e-05,0.0003184822527280413,-0.007362925465622772,0.004117941564209256,0.9905199586157747
2012-08-10,1,0.00023944065776271913,0.0005275327077141343,-0.005955148045067357,0.005711936871250076,0.9905460041375959
2012-08-14,-1,-0.00035318874198119105,-0.00015834453565884208,-0.0024431255228884764,0.008654736387448797,0.9894324259825523
2012-08-16,1,0.00215101011978188,0.002748362242878633,-0.0024431255228884764,0.012935613816975075,0.9900512912386181
2012-08-20,1,0.0015426244403654995,0.001996295481644564,-0.0034260716235392924,0.012935613816975075,0.9900257470893322
2012-08-22,1,0.0019102472699680465,0.0024080111347160376,-0.005185686612900597,0.017309630337357308,0.9886983044128362
2012-08-24,1,0.002158568810503106,0.0027129863342957718,-0.004676110754608528,0.017309630337357308,0.9885754440327446
2012-08-28,1,0.0022373289412109766,0.0028031328689291203,-0.004676110754608528,0.017309630337357308,0.98846491499707
2012-08-30,1,0.0008890031656281084,0.0012065999338818473,-0.003120493086101556,0.017309630337357308,0.9888344672080237
2012-09-04,1,0.00101521461341779,0.0014371396448722715,-0.003120493086101556,0.017309630337357308,0.9897494159800405
2012-09-06,1,0.0012843181035213352,0.0016991223154158184,-0.003120493086101556,0.015491535204579153,0.9907678269568196
2012-09-10,1,0.0024333498520627333,0.00308763091960478,-0.004676110754608528,0.015491535204579153,0.9903679765456838
2012-09-12,1,0.0035648334361260943,0.004348767045871011,-0.006806466945953392,0.0022793728198732778,0.9904261296891238
2012-09-14,1,0.004409452159823924,0.005265954367642746,-0.006806466945953392,0.0022793728198732778,0.9912178444498616
2012-09-18,1,0.005816884893170297,0.007033187215966917,-0.006806466945953392,0.012245855611417689,0.9902078046702688
2012-09-20,1,0.006278905553822991,0.00752675188384926,-0.00579809447374802,0.010322756378098426,0.990910148162237
2012-09-24,1,0.00635106818314796,0.007622203792144353,-0.0069492471268192395,0.010322756378098426,0.990063152285429
2012-09-26,1,0.005360163934584907,0.006401199682276077,-0.008088541943191318,0.010322756378098426,0.9891986191082005
2012-09-28,1,0.004355277723982971,0.0051409975437310095,-0.008632825584429986,0.010322756378098426,0.9861369753614948
2012-10-02,1,0.0032604571263450443,0.003742592543887344,-0.008328901656916623,0.013061333624508748,0.985957922340734
2012-10-04,1,0.0026873391878515437,0.0030985938215598056,-0.010477407991496596,0.013061333624508748,0.9817444373805567
2012-10-08,1,0.0020179363779927553,0.0022913030815622454,-0.01091780406719808,0.013061333624508748,0.9817937338354725
2012-10-10,1,0.0013378974261536278,0.0014905303258025942,-0.01310033618916074,0.013061333624508748,0.9813476069285825
2012-10-12,1,0.0020467893637402187,0.00230526932761142,-0.01310033618916074,0.010655032595907572,0.9814674107799207
2012-10-16,0,0.0,0.0,-0.01629553175009988,0.0014751235166725078,0.9825809310045809
2012-10-18,0,0.0,0.0,-0.01629553175009988,0.0014751235166725078,0.9825388563996594
2012-10-22,1,0.0022189595830313345,0.0025012951589954216,-0.01310033618916074,0.010370259133021448,0.9821296403008216
2012-10-24,1,0.0008073540335941897,0.0008299438493861263,-0.01310033618916074,0.011149134361348945,0.9825110125491665
2012-10-26,1,0.002451840645589602,0.002760166651838288,-0.011894922779210733,0.011149134361348945,0.9848121340487196
2012-11-01,1,0.0038938871869130956,0.004410511373889314,-0.011894922779210733,0.007363068309804127,0.985838717753447
2012-11-05,1,0.0007933189835362091,0.0008527076616221806,-0.009066473260675445,0.009224828187523376,0.988957754320277
2012-11-07,1,0.0006517682660874634,0.0006832219001395177,-0.008324324631448981,0.010370259133021448,0.9890086101013278
2012-11-09,-1,-0.00019926440548197668,-0.00012474656370870988,-0.005566960220793433,0.010370259133021448,0.9895914166960743
2012-11-13,1,0.00027901343395231684,0.0003047643228686514,-0.0021234523758875373,0.011149134361348945,0.9885074978976714
2012-11-15,-1,-0.00044266683273113994,-0.00036172011930657124,-0.0021234523758875373,0.011149134361348945,0.9889867001188103
2012-11-19,0,0.0,0.0,-0.0020417225928216418,0.010370259133021448,0.9896755028517593
2012-11-21,0,0.0,0.0,-0.002315871760627011,0.0072480103524764205,0.9902983844408721
2012-11-26,0,0.0,0.0,-0.00306907174124917,0.006485441594604239,0.9909201520662065
2012-11-28,0,0.0,0.0,-0.0053151168508182535,0.0038849871098738022,0.9921311586773417
2012-11-30,0,0.0,0.0,-0.007208513930968728,0.005898464528958076,0.9905863232048594
2012-12-04,0,0.0,0.0,-0.0053151168508182535,0.007712886740956906,0.9894816857030294
2012-12-06,0,0.0,0.0,-0.0053151168508182535,0.007712886740956906,0.9894771956601305
2012-12-10,0,0.0,0.0,-0.0042963791696482515,0.007712886740956906,0.9898834982812558
2012-12-12,0,0.0,0.0,-0.0042963791696482515,0.007712886740956906,0.9910325433180331
2012-12-14,0,0.0,0.0,-0.003250574219599206,0.008796567351439754,0.9910878004473739
2012-12-18,0,0.0,0.0,-0.0053151168508182535,0.008796567351439754,0.9906932281495754
2012-12-20,-1,-0.00141257931875923,-0.0008810677626349941,-0.0053151168508182535,0.008796567351439754,0.9907549385640144
2012-12-24,-1,-0.002763594841766902,-0.0020431232523991523,-0.003951208565086515,0.008796567351439754,0.9904730871340274
2012-12-27,-1,-0.002348528892852131,-0.001839108509323136,-0.0019453323801526727,0.010330908037053308,0.990280126144131
2012-12-31,0,0.0,0.0,-0.0019453323801526727,0.009288014939645772,0.9918351652615669
2013-01-03,0,0.0,0.0,-0.0019453323801526727,0.009036699612119097,0.9936666993786442
2013-01-07,1,0.001640366813631636,0.0016642663838348473,-0.0032738619456931656,0.008354404196944873,0.9936570067749556
2013-01-09,1,0.001006853728732021,0.0011031097693405345,-0.004555180432260398,0.008354404196944873,0.992598747518335
2013-01-11,1,0.002150749324761366,0.0022857490462637447,-0.007416061447948544,0.008354404196944873,0.9907108441187114
2013-01-15,0,0.0,0.0,-0.009374576584192757,0.00819832628744289,0.9904558285074301
2013-01-17,0,0.0,0.0,-0.009374576584192757,0.00819832628744289,0.9905719726117597
2013-01-22,0,0.0,0.0,-0.01182731850000558,0.00819832628744289,0.9883320495121586
2013-01-24,0,0.0,0.0,-0.01182731850000558,0.009036699612119097,0.9877815969770259
2013-01-28,0,0.0,0.0,-0.013347673286325464,0.00819832628744289,0.987666830926706
2013-01-30,0,0.0,0.0,-0.013347673286325464,0.008247375931372545,0.9873488223521101
2013-02-01,0,0.0,0.0,-0.013347673286325464,0.0015053211083077237,0.9883343442904621
2013-02-05,0,0.0,0.0,-0.012434621640259264,0.0015053211083077237,0.9885663720527881
2013-02-07,0,0.0,0.0,-0.009508222261105108,0.0025298016605076407,0.9896098801813553
2013-02-11,1,0.000999731486076187,0.0011143378142190125,-0.006926929563266791,0.0025298016605076407,0.9912514982190823
2013-02-13,1,0.0004461564035168461,0.00046634901882461463,-0.0051118629087201755,0.0066062425635214405,0.9914524603337802
2013-02-15,1,0.0009782385106227882,0.0010994184900976508,-0.0051118629087201755,0.005836327252609002,0.9917861775725755
2013-02-20,0,0.0,0.0,-0.0018297068953361984,0.007599653795160842,0.9933675506097185
2013-02-22,0,0.0,0.0,-0.0018297068953361984,0.007156875335346551,0.9936771080586695
2013-02-26,1,8.978811394010567e-05,9.179727653266023e-05,-0.0018297068953361984,0.008618561126464376,0.9931070288832218
2013-02-28,-1,-0.00034266596820395193,-0.0002812598059644375,-0.0018297068953361984,0.00820628804220544,0.993735763019166
2013-03-04,1,3.0413467495546264e-05,4.190788936678797e-05,-0.0019470076853425914,0.00820628804220544,0.9931057079504917
2013-03-06,0,0.0,0.0,-0.0033701617518968325,0.007156875335346551,0.9920797352689914
2013-03-08,0,0.0,0.0,-0.004302491490317381,0.00820628804220544,0.9899316908153032
2013-03-12,1,1.05616504128711e-05,5.2334812792224696e-05,-0.004302491490317381,0.008710077253130444,0.9889021329205351
2013-03-14,1,0.000883861219893445,0.0010047104564207036,-0.004302491490317381,0.008936449981562424,0.989000385325517
2013-03-18,1,0.000978579477687907,0.0011177058676016113,-0.007311898000800683,0.013121362155585225,0.9862238523828643
2013-03-20,1,0.0010508380142920351,0.0011617972991433672,-0.010863970445063036,0.008936449981562424,0.985953408801421
2013-03-22,1,0.000615501590570431,0.000621502215565089,-0.008120249086786501,0.013866648006279642,0.9851548960498646
2013-03-26,1,0.0020365970065710833,0.002324722071541204,-0.008120249086786501,0.012255401261188629,0.9856757063416348
2013-03-28,1,0.002614250552017726,0.003031777006957049,-0.008120249086786501,0.018075689530940027,0.9851626267272173
2013-04-02,1,0.0008652072898313754,0.0008866883817005526,-0.003951937326729305,0.018075689530940027,0.9848520622003069
2013-04-04,-1,-0.0005097431394415167,-0.0003585589683921817,0.0008763314057970675,0.018075689530940027,0.9855967657017263
2013-04-08,0,0.0,0.0,0.0014443764843181939,0.016083655780366607,0.9871550516838593
2013-04-10,0,0.0,0.0,-0.0002161570124962664,0.012273423040131851,0.9885546375842148
2013-04-12,0,0.0,0.0,-0.001432673128506192,0.012273423040131851,0.9889870136517666
2013-04-16,0,0.0,0.0,-0.0002161570124962664,0.011454658080244502,0.9907512988343734
2013-04-18,0,-5.474117820335363e-05,0.00010260840031394184,-0.0002161570124962664,0.011454658080244502,0.991062763315783
2013-04-22,1,0.0006877679286333175,0.0007707752923433871,-0.0002161570124962664,0.01194268752087836,0.9917579870829236
2013-04-24,1,0.0018971125401515945,0.0020396826928365214,-0.002952661432188962,0.011208331607540709,0.9924904470545208
2013-04-26,1,0.0024241338261561853,0.002615774566115901,-0.004167342826113588,0.009555057481773712,0.9922281365768199
2013-04-30,1,0.002605289555802824,0.0027818579456857836,-0.004950368190941506,0.009717733961984998,0.9909308750986684
2013-05-02,1,0.002290216514740811,0.002432423508351025,-0.004950368190941506,0.009717733961984998,0.9903539102214708
2013-05-06,1,0.002271726616716162,0.002380237362333469,-0.006440876482507548,0.009717733961984998,0.9899285975678463
2013-05-08,1,0.0027216062821108795,0.002945015165766456,-0.010577459408454355,0.009717733961984998,0.9885416593279812
2013-05-10,1,0.002582928530222147,0.0027709587622230703,-0.010577459408454355,0.01194268752087836,0.9877814873231697
2013-05-14,1,0.0029692210963500046,0.003203794724966051,-0.015239955180341169,0.010887763246773756,0.9864260457782119
2013-05-16,1,0.002211935696693506,0.0023433631554595474,-0.011315872543628364,0.012531393834910238,0.9863454953623306
2013-05-20,1,0.0026280746635120363,0.0027792072125973136,-0.011315872543628364,0.01202947386005843,0.9860830455168752
2013-05-22,1,0.0019215560401415364,0.0019526221266962518,-0.015239955180341169,0.01202947386005843,0.9841682997918615
2013-05-24,1,0.0012399387773969945,0.001280547003155325,-0.016799933183018763,0.01202947386005843,0.9826010123660088
2013-05-29,0,0.0,0.0,-0.016799933183018763,0.0121873689229033,0.9832822398434009
2013-05-31,0,0.0,0.0,-0.012443984277429421,0.0121873689229033,0.9834310662886258
2013-06-04,0,0.0,0.0,-0.01800249371931621,0.011056918937814316,0.9836153049009148
2013-06-06,0,0.0,0.0,-0.012190255072581205,0.011056918937814316,0.9847419779203632
2013-06-10,0,0.0,0.0,-0.012190255072581205,0.008281023096097302,0.9859911645949004
2013-06-12,0,0.0,0.0,-0.010165688003675327,0.011056918937814316,0.9858480022447316
2013-06-14,0,0.0,0.0,-0.007427510113979854,0.009631153480773286,0.9865308286777877
2013-06-18,1,0.1395452099348672,0.1398147549606544,-0.008019585483389196,0.007902100271092595,0.8753508497314871
2013-06-20,0,0.0,0.0,-0.005288596972467187,0.009631153480773286,0.9894194171948603
2013-06-24,0,0.0,0.0,-0.003528291033202219,0.009631153480773286,0.9916558855828014
2013-06-26,0,0.0,0.0,-0.005288596972467187,0.005891770372978172,0.9923712745231352
2013-06-28,0,0.0,0.0,-0.00391793891615395,0.005603725520546378,0.992723606164191
2013-07-02,0,0.0,0.0,-0.0029918440511625733,0.006587922252238551,0.9930891019869038
2013-07-05,0,0.0,0.0,-0.0029918440511625733,0.00996177899725258,0.9910154515218137
2013-07-09,0,0.0,0.0,-0.0038383779528853835,0.00996177899725258,0.99023740025757
2013-07-11,0,0.0,0.0,-0.0038383779528853835,0.007944025203147465,0.9919683289690013
2013-07-15,1,9.158110712536411e-05,0.0002590946869943358,-0.004035736409355164,0.006601897229590174,0.9922865788569001
2013-07-17,-1,-0.0011503010367092592,-0.000854341395850945,-0.0016574010102484108,0.007780072690488126,0.9918290588309875
2013-07-19,-1,-0.0011938520057818225,-0.0008658837007082826,-0.004599498148265903,0.006601897229590174,0.9920833409867074
2013-07-23,-1,-0.00149775596063512,-0.0011486959370314476,-0.0031407214791078805,0.006601897229590174,0.9921964287179028
2013-07-25,0,0.0,0.0,-0.00183279875928324,0.007780072690488126,0.9918670025819901
2013-07-29,-1,-0.0017583064849865087,-0.0013764967172178177,-0.00183279875928324,0.007780072690488126,0.9912003301403948
2013-07-31,-1,-0.0014040094694544381,-0.001061893528372781,-0.00428699921097703,0.007780072690488126,0.9903503968549955
2013-08-02,1,0.00018101698883711705,0.0003357871054737533,-0.005924642832321596,0.007214179085389277,0.9924753295385018
2013-08-06,1,0.0001400617955107396,0.00028032436729452035,-0.004212795933327224,0.005658937881166185,0.9931022238409353
2013-08-08,1,8.49971977912825e-05,0.00023346761096229888,-0.004212795933327224,0.00729071482456645,0.9926120184053716
2013-08-12,1,4.573798104616169e-05,0.00017641916032868065,-0.0025047499714851767,0.008763763171613714,0.9911930133172472
2013-08-14,0,0.0,0.0,-0.004212795933327224,0.009679826877544512,0.9907748178195867
2013-08-16,0,0.0,0.0,-0.0022032696453624986,0.009679826877544512,0.9909861354222166
2013-08-20,1,0.0009717430296217473,0.0010339908504529358,-0.0022032696453624986,0.01099296953234227,0.9908825762331348
2013-08-22,1,0.0008575914100369055,0.0009634629280064521,0.0026733171424930028,0.01022900750145654,0.9913350913743134
2013-08-26,1,0.0006514843798239215,0.0008779716395380821,-0.0014474040167187893,0.01022900750145654,0.9914227431871069
2013-08-28,1,0.0006238803247886808,0.000802512994627902,0.0028966363768898884,0.01022900750145654,0.9921439587698057
2013-08-30,1,0.0008028221612685088,0.0008814261787438724,-0.0002585789162959625,0.01022900750145654,0.9922288590434769
2013-09-04,1,0.0010940470865674293,0.0011155878027664637,0.0032184716655652024,0.011450758952314344,0.9917077108108017
2013-09-06,1,0.0012366540763063553,0.0012656607470295448,-0.0015333119421718413,0.011450758952314344,0.9918923539318667
2013-09-10,1,0.0019175078813692713,0.0019242146066308487,-0.0033099162873546713,0.009657489957660973,0.992761498950132
2013-09-12,1,0.0024015456027077376,0.0025312415797723595,-0.0025926811041766494,0.009657489957660973,0.9924498944740355
2013-09-16,1,0.002683243516447698,0.0028888372824475844,-0.0016649996246268367,0.010757831556776397,0.9917199607549901
2013-09-18,1,0.003660871203878622,0.004045054312436404,-0.0016649996246268367,0.009657489957660973,0.992249323943698
2013-09-20,1,0.004493351284267725,0.004965036471387877,-0.0016649996246268367,0.01041728981149348,0.9920255135853373
2013-09-24,1,0.004148630308554483,0.004602380927437606,-0.0033099162873546713,0.01041728981149348,0.9911843823158476
2013-09-26,1,0.005003889466108472,0.005592800136749446,-0.0049865719954598434,0.009449521182680963,0.9889458590628311
2013-09-30,1,0.00419606210273,0.004675609693894863,-0.0049865719954598434,0.009449521182680963,0.9882640513709916
2013-10-02,1,0.004665288799731617,0.005205078549807828,-0.0049865719954598434,0.007342051774974301,0.9886199789052886
2013-10-04,1,0.004634783746304722,0.0052017428704318105,-0.008214356245902943,0.00837065994182254,0.988110826046231
2013-10-08,1,0.003737599282284494,0.00414926472598617,-0.007348476942906655,0.00837065994182254,0.9883608683072137
2013-10-10,1,0.004860591629605983,0.00546030201259236,-0.010345362199674229,0.007342051774974301,0.9873038347667175
2013-10-14,1,0.005535066230344706,0.006201967444489228,-0.010345362199674229,0.008110646593853358,0.9870973628205337
2013-10-16,1,0.005192125058085389,0.005762463794440949,-0.010345362199674229,0.010101307683903122,0.9865853135396911
2013-10-18,1,0.005762596451186728,0.006407711085352868,-0.013969784446001509,0.008227688664859255,0.9852508244513253
2013-10-22,1,0.005015090509521148,0.0055199828397332175,-0.017486790284196807,0.008227688664859255,0.983998585854091
2013-10-24,1,0.00540274052311669,0.005964319397335415,-0.013642608570407291,0.008227688664859255,0.9849089721216292
2013-10-28,1,0.00421740411218903,0.0045915066064620225,-0.010636007009589079,0.008227688664859255,0.9863299416456046
2013-10-30,1,0.0046907163744713265,0.005170366679681121,-0.010636007009589079,0.008919384674962106,0.9860213371489578
2013-11-01,1,0.0036965597415103716,0.003971227999857701,-0.00830813153639175,0.008425287184981133,0.9868848494227244
2013-11-05,1,0.0032467600796693436,0.00347003612303596,-0.0090072279011161,0.010694103244268761,0.9863060260194079
2013-11-07,1,0.0026449115139028498,0.0028330737216501834,-0.007279474441515422,0.014906815645094792,0.9870801649796553
2013-11-11,1,0.00299112821498185,0.00308102459685714,-0.007279474441515422,0.015233444524878806,0.9864799644753237
2013-11-13,1,0.002674523245325921,0.002753052593136394,-0.007279474441515422,0.011325923714391376,0.9870135059830462
2013-11-15,1,0.0020553784412856145,0.0021744483832055266,-0.0066272616128828215,0.013154006253899503,0.9877644365151584
2013-11-19,1,0.0003336542188960616,0.000653953570748174,-0.003135065424016312,0.01641540915477862,0.9885378914795948
2013-11-21,1,0.0007564608749843116,0.0010558472806364771,-0.003514160318044169,0.013154006253899503,0.9900137054537828
2013-11-25,1,0.0006392707323030814,0.00095120612332052,-0.0020158901929573456,0.01641540915477862,0.9895408084160539
2013-11-27,1,0.0006662949049482423,0.0009906275082089979,-0.0020158901929573456,0.01641540915477862,0.9896039163202353
2013-12-02,1,0.0010299008659719945,0.00125912863305906,-0.0012742831388942253,0.01641540915477862,0.9894259073958084
2013-12-04,1,0.00150219023820962,0.0016804377380927943,-0.0012742831388942253,0.015808030944428998,0.9898578138644752
2013-12-06,1,0.002269253862551378,0.002371268224387764,-0.0012742831388942253,0.015808030944428998,0.9898490289703014
2013-12-10,1,0.0037792586228384433,0.0038719546796408496,-0.0020158901929573456,0.014174754074816038,0.990813501316111
2013-12-12,1,0.002928503766626819,0.002980420826278127,-0.0012742831388942253,0.014174754074816038,0.9902277664021156
2013-12-16,1,0.0032762634458089234,0.0033500936992711516,-0.0012742831388942253,0.018870274407178603,0.9895949491194214
2013-12-18,1,0.00351599440900103,0.0035228085452979636,-0.0008054883198168224,0.018870274407178603,0.9894864954070295
2013-12-20,1,0.0029565931140360497,0.0029937987416719207,-0.0014425662742191506,0.018870274407178603,0.9882149692811013
2013-12-24,1,0.0043655414010726565,0.004594277665010691,-0.011326141900658178,0.013721383823927312,0.9854560254864335
2013-12-27,1,0.004262917574888443,0.004458239482733411,-0.011326141900658178,0.018870274407178603,0.9841705705889173
2013-12-31,1,0.004676959477576075,0.004884050345150291,-0.016023234260067246,0.019478957704038846,0.9817513017276231
2014-01-03,1,0.004432917062114947,0.004583627380397739,-0.01638948573227745,0.02189910361266876,0.9775977000600802
2014-01-07,1,0.0047137233587904075,0.0049681806236751115,-0.01645496792854343,0.019682767721810667,0.9772045155197217
2014-01-09,1,0.0050919455424162235,0.005290775948219113,-0.01645496792854343,0.02484599300353165,0.9758726184974346
2014-01-13,1,0.004699634336246796,0.004849044798105139,-0.01645496792854343,0.02484599300353165,0.9767940214298325
2014-01-15,1,0.005516149473760988,0.005772095193879895,-0.01645496792854343,0.02484599300353165,0.9766684525059594
2014-01-17,1,0.006141139757714403,0.006486288101976937,-0.01645496792854343,0.020665064185431632,0.9777115847932648
2014-01-22,1,0.00454431857809519,0.004632780177369308,-0.01480186471856311,0.020665064185431632,0.9786466505524771
2014-01-24,1,0.0016361442085112451,0.0019082192548770553,-0.008620344109487876,0.025103493467993364,0.9801368535369106
2014-01-28,1,0.0020626456612316373,0.002294758099620235,-0.004934116403835159,0.022331948850512293,0.981428440784263
2014-01-30,1,0.002789032663783944,0.002923441815672415,7.578872922147316e-05,0.02147683996427798,0.9832888120835126
2014-02-03,1,0.0045153623233500275,0.004654760056986675,0.0013871347883503194,0.02100644703327322,0.9883041451612675
2014-02-05,1,0.004235354653043684,0.004330496374105611,0.0006133444468209933,0.02100644703327322,0.9896506335022046
2014-02-07,1,0.005704676119110005,0.005983695775886713,-0.0010416354906020377,0.00939529863468403,0.9900622649791602
2014-02-11,1,0.005988151000739466,0.006326941960885682,-0.002015009040324438,0.00885649751145199,0.9895387620021866
2014-02-13,1,0.005234496815419735,0.005521214204510749,-0.003033128103012016,0.00885649751145199,0.9883633100065218
2014-02-18,1,0.0053420542032293575,0.0056413398937246164,-0.003033128103012016,0.012710504012011507,0.9879343805320863
2014-02-20,1,0.0053605862197382,0.005689328054634007,-0.003033128103012016,0.00950133782292093,0.9874545942328341
2014-02-24,1,0.006458381377744881,0.006898044810210098,-0.008946752973431235,0.0027573793264125913,0.987387461865919
2014-02-26,1,0.006617609888379009,0.007102122192047722,-0.013605616961805393,0.0017538432925248589,0.9849831527902453
2014-02-28,1,0.006918578100739806,0.007407802119809297,-0.013605616961805393,0.0006139985854306976,0.9846088849824831
2014-03-04,1,0.007028369770282691,0.007468685874954679,-0.013605616961805393,0.00132647041716031,0.9840727663910341
2014-03-06,1,0.00707529128308013,0.007571097580882206,-0.02115912487238533,0.002038973149861919,0.9830375121152981
2014-03-10,1,0.006020336777943364,0.006454688857705407,-0.02115912487238533,0.002038973149861919,0.9825192502743784
2014-03-12,1,0.005668187061168668,0.0060565781141679546,-0.02115912487238533,0.011639921441704618,0.9819206291598882
2014-03-14,1,0.004050335120816173,0.004287490824474842,-0.02115912487238533,0.011639921441704618,0.9825388465479663
2014-03-18,1,0.004561724870015885,0.004784538364787149,-0.021666531993473254,0.004305797606713965,0.9804968311915006
2014-03-20,1,0.003676195691575268,0.0038057044514024554,-0.02115912487238533,0.011719844384365734,0.9815978736705118
2014-03-24,1,0.0020026008623562352,0.00214545497972738,-0.02115912487238533,0.01536136959934091,0.9796120390582245
2014-03-26,1,2.3258232397223603e-05,0.00038847137817672067,-0.018485873760576643,0.01849036709677356,0.9783399243157409
2014-03-28,0,-3.8323494087172264e-05,0.0003657781427912198,-0.036759859669305,0.016308697323141073,0.9749619182667812
2014-04-01,1,0.0008371979908502068,0.0011614002238218206,-0.036759859669305,0.011719844384365734,0.9744997507577108
2014-04-03,-1,-0.0006819273688893673,-3.523075968475198e-05,-0.036759859669305,0.01860301200821861,0.9716669092746437
2014-04-07,-1,-0.002862714625209038,-0.002044664230166242,-0.036759859669305,0.01860301200821861,0.970990406251748
2014-04-09,-1,-0.0011965090892629346,-0.0006135314214573567,-0.03957653066037546,0.013737520969223673,0.9707745768380629
2014-04-11,-1,-0.0032379943921854288,-0.0023564930854208803,-0.036759859669305,0.017074483501165527,0.9712546476893441
2014-04-15,-1,-0.006675496770858123,-0.005302102826098553,-0.027142852950369504,0.017074483501165527,0.9712022298602312
2014-04-17,-1,-0.0056335195200175655,-0.004422270762323167,-0.027142852950369504,0.017074483501165527,0.9722825801151433
2014-04-22,-1,-0.004362168452653378,-0.003295354565430354,-0.027142852950369504,0.014056722793773128,0.9746334209578489
2014-04-24,-1,-0.004713142492505868,-0.0036251119707834695,-0.022818739191676197,0.016204633213291606,0.9757724764775781
2014-04-28,-1,-0.008789021951651491,-0.007179846646964333,-0.01355801261950655,0.017955522222056663,0.9764624860671735
2014-04-30,-1,-0.00678947990511128,-0.005442475195540862,-0.01355801261950655,0.016204633213291606,0.9786348579791434
2014-05-02,-1,-0.0039298278438282454,-0.0029663350881567077,-0.018052234696261386,0.01461876867380701,0.9822311195885368
2014-05-06,-1,-0.005899776083183414,-0.004849451251370597,-0.01355801261950655,0.01461876867380701,0.9816540402117818
2014-05-08,-1,-0.00820966117547804,-0.006834867708252496,-0.007296369787711299,0.01461876867380701,0.9819831459683495
2014-05-12,-1,-0.006478548547584293,-0.005366979128583296,-0.01756493622300033,0.011055359561793958,0.9839295663738218
2014-05-14,-1,-0.0063433558332141125,-0.005287582284077594,-0.017191156452464232,0.011754756472660307,0.9839049033274234
2014-05-16,-1,-0.0066212558902791,-0.005558753982492431,-0.017191156452464232,0.014696731978502447,0.983149793006874
2014-05-20,-1,-0.006025497047496117,-0.005034567077251361,-0.012048166661569824,0.014696731978502447,0.9836098270915983
2014-05-22,-1,-0.0044267461658300195,-0.0036454150262752597,-0.012048166661569824,0.011754756472660307,0.9849229865988292
2014-05-27,-1,-0.0026868122677474893,-0.0021342920944647853,-0.012048166661569824,0.010142842449591852,0.9863066919231959
2014-05-29,-1,-0.001883893808509827,-0.0014470433899183013,-0.012048166661569824,0.010953937075990284,0.9856884055929714
2014-06-02,-1,-0.0014523200499868617,-0.0011162618815432133,-0.009149326507552307,0.009759220851378009,0.9870105622668321
2014-06-04,-1,-0.0024387277134593176,-0.0020172235049244003,-0.008535872763090762,0.010514464400583911,0.988537106370795
2014-06-06,-1,-0.003491165265781759,-0.0029731776481518608,-0.008535872763090762,0.010514464400583911,0.988551738232228
2014-06-10,-1,-0.004159088092430763,-0.00362510225961654,-0.008535872763090762,0.01334719449961289,0.9873044079284352
2014-06-12,-1,-0.003392048304309457,-0.0029955455014334673,-0.008535872763090762,0.010514464400583911,0.9886063519330306
2014-06-16,-1,-0.0032224121411683184,-0.0027756569808248324,-0.006242538814219235,0.009759220851378009,0.9898578156578052
2014-06-18,-1,-0.005185033273101249,-0.004409663416477662,-0.006391518196951719,0.0077479846662708435,0.988742457736324
2014-06-20,-1,-0.0041864071492915145,-0.0035254120808383745,-0.0030798814556779156,0.007906005155882684,0.9890683107234644
2014-06-24,-1,-0.003701125360034227,-0.0031699166831349974,-0.005144758644385388,0.009245173613230876,0.9883918986567053
2014-06-26,-1,-0.0017983837082541252,-0.001547796559247178,-0.005624604827557696,0.007196005557146071,0.9903367239043489
2014-06-30,-1,-0.001838060245085188,-0.0015856898413982056,-0.00524160951310353,0.009922629296220887,0.98755035416127
2014-07-02,1,4.3912965687802465e-05,0.00010614404753892475,-0.007918357727801898,0.007906005155882684,0.9870972019521683
2014-07-07,-1,-0.0004260954032097876,-0.00036005099371265453,-0.007918357727801898,0.0109333631944438,0.9864050417089057
2014-07-09,-1,-0.0008527132775817126,-0.0008434807259925691,-0.014151414205374552,0.007906005155882684,0.98589081499599
2014-07-11,-1,-0.0007701196004717675,-0.0007472360980329132,-0.01628027445787715,0.0109333631944438,0.9839278512024175
2014-07-15,-1,-0.0005897498607303588,-0.000536996511126047,-0.01628027445787715,0.0109333631944438,0.9839801607308483
2014-07-17,0,-4.8698171249867816e-05,0.00018647093582225324,-0.008141813323105223,0.0109333631944438,0.984996875263422
2014-07-21,1,0.0008995535559391627,0.001282683550545561,-0.008141813323105223,0.009966848464524156,0.9851757028077059
2014-07-23,1,0.0021573808591397008,0.002767448968860953,-0.008141813323105223,0.006220252767213144,0.9862110030060084
2014-07-25,1,0.0023187446165390127,0.0030211824279222257,-0.0111858343925257,0.006220252767213144,0.9860569064576027
2014-07-29,1,0.004501561090690663,0.0055063169865252615,-0.0111858343925257,0.004695163157717251,0.9874351642527815
2014-07-31,1,0.0036033056795845373,0.0044405309407568126,-0.0111858343925257,0.0033604328381398145,0.9882858705916799
2014-08-04,1,0.0035618443248418463,0.004434341895993006,-0.016558946572562253,0.0024521491052212608,0.9864415918093841
2014-08-06,1,0.0009056446624522763,0.0012772701980151235,-0.006908338441265123,0.0024521491052212608,0.9906215121039492
2014-08-08,1,0.001524195927898777,0.0020292058114564,-0.005309272966449782,0.0024521491052212608,0.992677589747005
2014-08-12,1,0.0009222017272504178,0.0013410158049227483,-0.006908338441265123,0.0024521491052212608,0.9923319064358643
2014-08-14,1,0.0013984394316654116,0.0018053123927804623,-0.010166804789129265,0.0018410689065678696,0.9905303797713171
2014-08-18,1,0.0006075895633835784,0.000848655115202665,-0.010166804789129265,0.0011948316780146292,0.990593687334593
2014-08-20,1,0.0008306751578260595,0.001102252701235127,-0.010166804789129265,0.002026058190671176,0.9887804185197735
2014-08-22,1,0.0009701759352319498,0.0013653799488191711,-0.014046004023365534,0.002026058190671176,0.987620115204577
2014-08-26,1,0.0009591898194577194,0.0012822064102792979,-0.014046004023365534,0.005750178338564657,0.9868495690751214
2014-08-28,-1,-0.0002917774228319845,-0.00025365130364918113,-0.014977910013133595,0.00990251297489048,0.9861731432340052
2014-09-02,-1,-0.0019003340457945052,-0.0018501168756866696,-0.011453277475385559,0.014735557413408809,0.9855996393192413
2014-09-04,-1,-0.0025011409047427666,-0.002315525901794458,-0.014977910013133595,0.014735557413408809,0.9847400399037481
2014-09-08,-1,-0.002721118325472882,-0.0023856274820786864,-0.014977910013133595,0.014735557413408809,0.9845308148446007
2014-09-10,-1,-0.002821503983603313,-0.002535203897106705,-0.019119209084292495,0.016788416493438454,0.9831755393070258
2014-09-12,-1,-0.002153224680275067,-0.002042303489404182,-0.019687722910262297,0.014643360840189265,0.983483073944522
2014-09-16,-1,-0.0028344972684172937,-0.0026484309308668326,-0.019687722910262297,0.014643360840189265,0.9830197720544507
2014-09-18,-1,-0.0033108488026364043,-0.002886490793018311,-0.019687722910262297,0.00990251297489048,0.9829598132319246
2014-09-22,-1,-0.0036595314111912674,-0.0032662651761791806,-0.01865315244119769,0.00990251297489048,0.9839582278809414
2014-09-24,-1,-0.000919952786860201,-0.0008430857646875416,-0.01865315244119769,0.009702715118350289,0.9840789174948195
2014-09-26,-1,-0.0024098934411769576,-0.0021889750302134686,-0.013443059675488962,0.007098486488066877,0.9850357486211319
2014-09-30,-1,-0.003044342484453639,-0.002652086071827089,-0.008667030146381654,0.007098486488066877,0.9880267038243559
2014-10-02,-1,-0.003263218187651718,-0.002917992279995714,-0.006172583809455266,0.008363545189989092,0.9881225392409556
2014-10-06,-1,-0.002976043365685589,-0.0026453368282944615,-0.006172583809455266,0.00876449613482887,0.9882563276147741
2014-10-08,-1,-0.002914014008939477,-0.0025993171320061546,-0.008667030146381654,0.007178103013648711,0.9877400306348201
2014-10-10,-1,-0.004395293173150259,-0.0038970386549544824,-0.006438228137472586,0.007178103013648711,0.9886248315296029
2014-10-14,-1,-0.003881628038535663,-0.003526163241815526,-0.005695844705015687,0.00876449613482887,0.9884150504106022
2014-10-16,-1,-0.0009924133324903841,-0.0009330855766591021,-0.005695844705015687,0.00876449613482887,0.990612218358756
2014-10-20,-1,-0.0008339203138170297,-0.0006627938401809196,-0.006145796774842012,0.00876449613482887,0.9902966224087206
2014-10-22,-1,-0.00027450135871509595,-9.278873543343779e-05,-0.006145796774842012,0.007735663743936114,0.9910852764329408
2014-10-24,-1,-0.0003629954922110459,-0.0002639834166796965,-0.007684140530235985,0.00876449613482887,0.990604019126475
2014-10-28,-1,-0.0006146618690893552,-0.0005994552462472462,-0.009249499648072049,0.00789776511203039,0.9905040336049388
2014-10-30,-1,-0.0008391394976550012,-0.0007634922794923157,-0.009249499648072049,0.007773593055655488,0.9905561075326227
2014-11-03,-1,-0.00046217699617420645,-0.0004260971801319602,-0.011498822488608494,0.004867135113438146,0.9900909687599929
2014-11-05,-1,-0.002221252837597144,-0.0020009988776058868,-0.011498822488608494,0.004867135113438146,0.9897670461763475
2014-11-07,-1,-0.0026175667410929995,-0.0023570073237922217,-0.012106361079062973,0.006373085379445344,0.9881045973399951
2014-11-11,-1,-0.0016137681872657734,-0.0014876923122845247,-0.014949878559621535,0.003925316348514922,0.985834923987854
2014-11-13,-1,-0.0009069580908656631,-0.0008751224760310315,-0.014949878559621535,0.003925316348514922,0.9851451752996156
2014-11-17,-1,-0.00018235950196864508,-5.122193760763314e-05,-0.023972754883263114,-0.00026732612101855,0.9833015666726067
2014-11-19,-1,-0.0005986116711665723,-0.000522060333381022,-0.023972754883263114,0.003925316348514922,0.9814747015898474
2014-11-21,0,-0.00014308998451511982,3.9280699254366476e-05,-0.023972754883263114,0.003925316348514922,0.9798848934779436
2014-11-25,-1,-0.0005676592045855584,-0.00046456568133901137,-0.023972754883263114,0.006699925032097544,0.9791533006917302
2014-11-28,-1,-0.0005293598928296618,-0.00043910307815927445,-0.023972754883263114,0.008140025449158747,0.9788044359052722
2014-12-02,-1,-0.0016279424078109411,-0.0015551258904710106,-0.019854868242118753,0.008140025449158747,0.979055779993734
2014-12-04,-1,-0.004102306838693146,-0.003745829897971572,-0.01635807158281951,0.008140025449158747,0.9817997353845598
2014-12-08,-1,-0.005578346501248597,-0.0050273549366058245,-0.01635807158281951,0.01525844123700946,0.98199019469871
2014-12-10,-1,-0.007662057966613136,-0.0069096604452785464,-0.015832565570352657,0.01525844123700946,0.9832396624501087
2014-12-12,-1,-0.006570885974653131,-0.005992929002125656,-0.015832565570352657,0.01374690004517638,0.9834486399200495
2014-12-16,-1,-0.008174789991856734,-0.0074037006382834895,-0.011966182154098448,0.01374690004517638,0.984862150306004
2014-12-18,-1,-0.00486650228340423,-0.0046126018433134885,-0.013462309000746644,0.012147880073831246,0.9862561088255303
2014-12-22,-1,-0.004349985069895642,-0.004145228856883589,-0.011966182154098448,0.012147880073831246,0.9865559439356154
2014-12-24,-1,-0.0029012469054667672,-0.0028787807885750734,-0.011966182154098448,0.012147880073831246,0.984269285741889
2014-12-29,-1,-0.003447094540358422,-0.0032543208743098313,-0.011966182154098448,0.009827671873100833,0.9850466050865195
2014-12-31,-1,-0.004230664946571431,-0.003960139007852733,-0.010689065927802596,0.009827671873100833,0.9848227152333661
2015-01-05,-1,-0.005077211528381223,-0.004712262954547753,-0.008129221176141848,0.012198836350661293,0.98284137892018
2015-01-07,-1,-0.0038786382565983123,-0.0036727477489539055,-0.008129221176141848,0.012047783715358525,0.9821694399651364
2015-01-09,-1,-0.0024921723153175663,-0.0024661401087751073,-0.008129221176141848,0.009844657298710847,0.9825581953662503
2015-01-13,-1,-0.0019921458583523188,-0.0019505743596793302,-0.008730248459410925,0.012852076349558825,0.9800239027917209
2015-01-15,-1,-0.002420437992179153,-0.0023947516279673145,-0.008730248459410925,0.024722407807593518,0.9777990313036731
2015-01-20,-1,-0.0036026735942391013,-0.003441491783079097,-0.008730248459410925,0.024722407807593518,0.9780901974958517
2015-01-22,-1,-0.0021251808609499966,-0.002123719422257263,-0.008730248459410925,0.017086503237672936,0.9800071226847195
2015-01-26,-1,-0.000994806862849621,-0.0009608054640451876,-0.016526595455778184,0.012852076349558825,0.9803199914878342
2015-01-28,-1,-0.0013673373472838405,-0.0013555928287092166,-0.023068490429964505,0.012852076349558825,0.9796510555926211
2015-01-30,-1,-0.002523670760066544,-0.0023827566092331862,-0.016526595455778184,0.012852076349558825,0.9810419217610904
2015-02-03,-1,-0.0006826199737416129,-0.000618016880763426,-0.017939509637053905,0.0051409356995155905,0.9827156507693839
2015-02-05,-1,-0.002541385615748515,-0.0023902002327317088,-0.015156526757576415,0.003392831698418281,0.9852574705047856
2015-02-09,-1,-0.002187151450524187,-0.002058274939476492,-0.022804228086864674,0.0005607252184962896,0.9836641541962992
2015-02-11,-1,-0.00044081527275623573,-0.00026554416123057386,-0.02294517487378748,-0.00028960038715604566,0.9852509944328036
2015-02-13,1,0.0008140697068555248,0.0010900944493673192,-0.02294517487378748,-0.0005958259474711913,0.9862044790973932
2015-02-18,1,0.0012200060102968546,0.0016051728150096756,-0.02294517487378748,-0.0015760562979121743,0.9858306968540016
2015-02-20,1,0.0012300710568145742,0.001611532946426606,-0.02294517487378748,-0.0016681856257333436,0.9831262367490592
2015-02-24,-1,-0.0007882707133516308,-0.0006337385205305137,-0.01723621697967004,-0.0008722139309346993,0.986352557805118
2015-02-26,-1,-0.0021118729912661537,-0.0020515914196898763,-0.01699293852037756,-0.0008722139309346993,0.9872738229939882
2015-03-02,-1,-0.001706725546557534,-0.001688187656508726,-0.01699293852037756,-0.0004252464873737814,0.9864898374877826
2015-03-04,-1,-0.002440128983547768,-0.002376098838103125,-0.01535722472271328,-0.0004252464873737814,0.9872670249176785
2015-03-06,-1,-0.003434805387376532,-0.003195118536331516,-0.014559458139590373,0.006849014369240636,0.985932172219965
2015-03-10,-1,-0.005559332154400183,-0.005050267470691672,-0.012628245312575477,0.00973835948299789,0.9866022833488417
2015-03-12,-1,-0.004790881702618087,-0.004453991705427402,-0.011480211489659307,0.010387682253568365,0.9845998940441059
2015-03-16,-1,-0.004685486641119039,-0.004371063052258184,-0.014441472130681494,0.010387682253568365,0.9828189703233521
2015-03-18,-1,-0.004956727526524063,-0.004630495554044951,-0.0179094732382272,0.012172975228942584,0.9814463880257688
2015-03-20,-1,-0.002276478124755704,-0.0022533187071097967,-0.0179094732382272,0.012172975228942584,0.9824963857420962
2015-03-24,-1,-0.0020126488375243473,-0.0019384314950047221,-0.01712720695720237,0.012746626403792769,0.9824767354839458
2015-03-26,-1,-0.002072886997512069,-0.0019738925189703525,-0.01512160698333426,0.016305749805262743,0.9821625602608277
2015-03-30,-1,-0.0014029364388674494,-0.001180411477420777,-0.01512160698333426,0.016305749805262743,0.9817635242890208
2015-04-01,-1,-0.002314940063429389,-0.0023118764160685685,-0.01712720695720237,0.01848859913396155,0.9764507621596008
2015-04-06,-1,-0.001040341154247353,-0.0008819360092944508,-0.01712720695720237,0.01848859913396155,0.9758904817664062
2015-04-08,-1,-0.0008027012285953447,-0.0005672576670371172,-0.01712720695720237,0.01848859913396155,0.9761237411314913
2015-04-10,1,0.0012508039763200161,0.0017926896789261049,-0.01712720695720237,0.01848859913396155,0.9774009417135772
2015-04-14,-1,-0.00040205090855470905,-6.422898505757842e-05,-0.016717689102701445,0.01848859913396155,0.9779990950816523
2015-04-16,-1,-0.00036916998945891425,-4.245830482604482e-05,-0.016717689102701445,0.016305749805262743,0.9784722716071842
2015-04-20,1,0.0002994275901697324,0.0007285386154899799,-0.017275345773939584,0.014997411716119152,0.9795555743155216
2015-04-22,1,0.00048438762693735183,0.0009319231087974403,-0.017087254676810645,0.013297010679173136,0.980373994665095
2015-04-24,1,0.0010746564872670342,0.0016187136897912657,-0.017087254676810645,0.012723272078268085,0.9805444612370956
2015-04-28,1,0.0010286065139671248,0.0015310378489837631,-0.018699269777028554,0.006029187302128949,0.9801323045664408
2015-04-30,-1,-0.002296974693011898,-0.002251599288619668,-0.018699269777028554,0.0026669510340935672,0.9853933378169636
2015-05-04,-1,-0.0008559612629741894,-0.0007693008434859624,-0.020316769035559498,0.0010633349697874782,0.9856734664229657
2015-05-06,-1,-0.003101453296626328,-0.0028049853130760263,-0.018699269777028554,0.006029187302128949,0.9830171449400352
2015-05-08,-1,-0.001495790186895519,-0.0013994099205723717,-0.020316769035559498,0.001443413796538431,0.9815482187834657
2015-05-12,-1,-0.003948771042462541,-0.0034899771705776657,-0.018699269777028554,0.0051530110225047835,0.9837601084216105
2015-05-14,-1,-0.004249261866255867,-0.0038148819107067123,-0.016515561231168038,0.009871924599957978,0.9835170006607059
2015-05-18,-1,-0.004245996173007855,-0.003846744091302141,-0.014796478498330849,0.009871924599957978,0.9840126633199726
2015-05-20,-1,-0.0032253856018953555,-0.002991001181393141,-0.014796478498330849,0.010172617867431795,0.9834239511803694
2015-05-22,-1,-0.003049570713913545,-0.00286629489294956,-0.020556354385790048,0.010172617867431795,0.9825988374578406
2015-05-27,-1,-0.0043160297103098395,-0.003948184000088339,-0.020430937193451574,0.010172617867431795,0.9826174765949174
2015-05-29,-1,-0.00558087889886749,-0.0050244407480229,-0.01702595731963467,0.010172617867431795,0.9827968076936833
2015-06-02,-1,-0.005315355346087768,-0.004811174512396143,-0.01702595731963467,0.010172617867431795,0.9811179579476335
2015-06-04,-1,-0.0014221636396390962,-0.0014201529715124521,-0.01702595731963467,0.009290712636137793,0.9834513840052094
2015-06-08,-1,-0.0033386991551817933,-0.0031334257691598612,-0.015377392354857026,0.010172617867431795,0.9823071992444797
2015-06-10,-1,-0.0029449561046111373,-0.0027634159611406,-0.01702595731963467,0.010613000194137419,0.9794668283320805
2015-06-12,-1,-0.0035091761375054733,-0.003205099722180603,-0.01651061553169004,0.011135207046381546,0.9783301512857493
2015-06-16,-1,-0.002486763740846853,-0.0023619243482661126,-0.020430937193451574,0.011135207046381546,0.976911904840809
2015-06-18,-1,-0.0005721754946213416,-0.000355983029630102,-0.020430937193451574,0.005964660298795749,0.9768180943322613
2015-06-22,-1,-0.0016988642016074953,-0.00164602442168402,-0.017495647696400884,0.011133240825766676,0.977324812867714
2015-06-24,-1,-0.0028687641740800292,-0.002733733393615911,-0.015558182018985914,0.01802878394679234,0.9768273680205793
2015-06-26,-1,-0.0021871389976002627,-0.002144248114446388,-0.018480535564795172,0.01802878394679234,0.975386361258475
2015-06-30,-1,-0.0021535680725109107,-0.002116658002048183,-0.018480535564795172,0.011133240825766676,0.977716676449138
2015-07-02,-1,-0.0003027082957208242,-7.755518515549086e-05,-0.018480535564795172,0.011133240825766676,0.9756017553954607
2015-07-07,1,0.0023028020277699045,0.002918395023872273,-0.020151697793895137,0.005300434282884002,0.9769464149685894
2015-07-09,1,0.0017934329780951498,0.002438545267652597,-0.018480535564795172,0.005173519410430406,0.9800028424413728
2015-07-13,1,0.002732102327399469,0.00350875027950503,-0.018480535564795172,0.0086713710224209,0.9808743076659289
2015-07-15,1,0.001821593872600122,0.002491417286639996,-0.020151697793895137,0.0086713710224209,0.9800342064860964
2015-07-17,1,0.0004779403708952605,0.0008496832845001042,-0.021558597944215045,0.0086713710224209,0.9787572533438229
2015-07-21,1,0.00018258672613834183,0.00047566934320723733,-0.021558597944215045,0.000827411796537952,0.9796129514652872
2015-07-23,1,0.0011504075733975298,0.001575637257648045,-0.024128026542616594,-0.004425441714843172,0.9777160477243035
2015-07-27,-1,-0.000489329618101859,-0.0002997234327785273,-0.026679938875363886,-0.004425441714843172,0.975782200578248
2015-07-29,-1,-0.0013240575514149502,-0.0012850875024840655,-0.026679938875363886,-0.004425441714843172,0.9764290764290114
2015-07-31,1,5.563062328983319e-05,0.00018658256777928417,-0.026679938875363886,-0.0037617470508660325,0.977158483541417
2015-08-04,-1,-0.0010368702411889304,-0.0009940924587724398,-0.04095613532595914,-0.0037617470508660325,0.9746426014568348
2015-08-06,-1,-0.0008572745956722729,-0.0008278575982979661,-0.04095613532595914,-3.106442668679085e-05,0.9733148863758962
2015-08-10,-1,-0.00021508752047465164,-0.0001965176044719339,-0.04095613532595914,-0.0037617470508660325,0.9729354059857886
2015-08-12,-1,-0.0009711222321968863,-0.0009563436348751881,-0.04134089190227086,-0.0037617470508660325,0.9730597980225583
2015-08-14,-1,-0.0024584285354755193,-0.0022998575023314687,-0.04134089190227086,0.0006531424450527241,0.9744464595374748
2015-08-18,-1,-0.0030527594017098598,-0.002803455456860965,-0.04134089190227086,0.01946434638398416,0.9712527089424354
2015-08-20,-1,-0.004613271140712276,-0.004198221047078818,-0.04134089190227086,0.01946434638398416,0.9710306466936008
2015-08-24,-1,-0.008048104723895656,-0.007221040016537679,-0.030870081607303004,0.01946434638398416,0.9738348759084912
2015-08-26,-1,-0.007882774055875919,-0.007151104186323288,-0.039705199365114976,0.01946434638398416,0.9720208918316818
2015-08-28,-1,-0.0060774059508220514,-0.005553726305185042,-0.04174572480575038,0.013103994543236039,0.970868392086312
2015-09-01,-1,-0.0078387082907771,-0.0072114164968482,-0.030870081607303004,0.013103994543236039,0.9743259726479891
2015-09-03,-1,-0.007097654844854272,-0.006468313194147735,-0.030870081607303004,0.0013594767741667224,0.9706710748511617
2015-09-08,-1,-0.006430149598084088,-0.005898466842467177,-0.030870081607303004,0.0136982592014679,0.968301891913139
2015-09-10,-1,-0.008204639246646977,-0.007505111514339911,-0.027599302006319944,0.031996840864815385,0.9652059295898286
2015-09-14,-1,-0.008289774401179797,-0.007601429631219616,-0.03048033525002792,0.031996840864815385,0.9647385691026654
2015-09-16,-1,-0.005041710713815434,-0.004763877196920113,-0.03048033525002792,0.023464117200035092,0.9662526462965975
2015-09-18,-1,-0.007045103959787224,-0.006556791290696456,-0.026924202394592228,0.023464117200035092,0.9682547598561992
2015-09-22,-1,-0.010254681686147737,-0.009273797751631717,-0.026593372855381447,0.023464117200035092,0.9677373400662407
2015-09-24,-1,-0.010715954216839192,-0.009788354388803416,-0.026593372855381447,0.023464117200035092,0.9683998573406413
2015-09-28,-1,-0.013811261158172626,-0.012496451767587256,-0.02051965568525281,0.033268278011060574,0.9676103363217413
2015-09-30,-1,-0.013163270145532476,-0.01200872134752042,-0.021642908447167875,0.04323483093351834,0.9652997708113212
2015-10-02,-1,-0.01092678566211246,-0.00997910393230444,-0.019617734855919697,0.03958502833079469,0.9684222711971775
2015-10-06,-1,-0.008460790368169649,-0.007765966972295168,-0.019617734855919697,0.03367545560661235,0.9688224465644777
2015-10-08,-1,-0.004416094543507119,-0.004181912960149743,-0.019617734855919697,0.028793867192301065,0.9736250504291465
2015-10-12,-1,-0.005917792731536443,-0.005533359768939722,-0.019617734855919697,0.028793867192301065,0.9718584873335187
2015-10-14,-1,-0.005015115446454988,-0.004732338060550975,-0.020397313584831128,0.021573714986393957,0.9725859327105342
2015-10-16,-1,-0.004900791496543208,-0.0046003505978680775,-0.023135304879124696,0.017548080720166857,0.9718700686581027
2015-10-20,-1,-0.007881939849606095,-0.007204405815227926,-0.023135304879124696,0.022723254834880843,0.9733952235379868
2015-10-22,-1,-0.009447404031074677,-0.008593983325112829,-0.01942882999102247,0.022723254834880843,0.9744253196120557
2015-10-26,-1,-0.005251042222654207,-0.005060083462591535,-0.023135304879124696,0.015564390189213857,0.9763855173592442
2015-10-28,-1,-0.00557781712179842,-0.005265987640801951,-0.01942882999102247,0.015564390189213857,0.9770888795630246
2015-10-30,-1,-0.00350179502140794,-0.003460923355494944,-0.01984816374500893,0.015564390189213857,0.9770296025908731
2015-11-03,-1,-0.0012154295957598385,-0.0009518312228152098,-0.01984816374500893,0.015564390189213857,0.9755315458542764
2015-11-05,-1,-0.0013876186379457674,-0.0011266197442826242,-0.023770592671472628,0.015564390189213857,0.9739010664665106
2015-11-09,-1,-0.002642199304644709,-0.002484581878271125,-0.023770592671472628,0.013621738206988306,0.9764499213690426
2015-11-11,-1,-0.00380933094751251,-0.003732895389883811,-0.03178234844855044,0.021878586201913897,0.9708525535764876
2015-11-13,-1,-0.0057707491423286674,-0.005441968371717482,-0.03178234844855044,0.021878586201913897,0.9709842299623387
2015-11-17,-1,-0.005939426658276455,-0.005579732577871473,-0.023441320000470486,0.032297698941159095,0.9683006011294067
2015-11-19,-1,-0.004831612580403722,-0.004658889484696104,-0.03778634906547319,0.032297698941159095,0.9655398127323295
2015-11-23,-1,-0.004117939084172191,-0.004099170495703968,-0.025293751133432966,0.03908545017140783,0.9641492584096271
2015-11-25,-1,-0.0012856812260244076,-0.0007227877235173503,-0.025293751133432966,0.03086164514656821,0.965896918155885
2015-11-30,-1,-0.00136976560609268,-0.0008900271717126327,-0.020988335884047873,0.03086164514656821,0.9662836482249825
2015-12-02,1,0.0024300870016711537,0.0034923482770955,-0.02666595160613136,0.02671996734700773,0.969231251531624
2015-12-04,1,0.0004038001796399394,0.0011349906792826256,-0.015429105597971452,0.02671996734700773,0.970872256472688
2015-12-08,-1,-0.0007399404369943842,-0.00017110790137967748,-0.028167347515983328,0.02671996734700773,0.965984169571562
2015-12-10,1,0.0012619184105581295,0.002094976011985545,-0.026006137534903925,0.020923949417408712,0.9702735098673847
2015-12-14,1,0.0005191207370440322,0.001335156749358037,-0.026006137534903925,0.020923949417408712,0.9693281312848485
2015-12-16,1,0.0032384378501894755,0.004341242435381934,-0.026006137534903925,0.018981849661610088,0.9677256941832255
2015-12-18,1,0.0005702717549337308,0.00128893595120343,-0.026006137534903925,0.018981849661610088,0.9692734959684265
2015-12-22,1,0.004536562893054447,0.005953229051429181,-0.026006137534903925,0.014491227261530185,0.9697391590428344
2015-12-24,1,0.005209274373582908,0.006674099057977798,-0.026006137534903925,0.020689311377004787,0.9676576138271947
2015-12-29,1,0.0061227034877159294,0.007726426694717564,-0.026006137534903925,0.015813832960740584,0.9677608908380981
2015-12-31,1,0.006665785297734097,0.008417136995445109,-0.0256277865181941,0.021909694474678935,0.9658088273241633
2016-01-05,1,0.0063705455125958104,0.007970451445125065,-0.04236660853566118,0.021885170395168872,0.9625574137366749
2016-01-07,1,0.001258036055578783,0.002088875388477598,-0.022781569903071116,0.021885170395168872,0.9679488565376918
2016-01-11,0,-0.000270138793053205,0.00035952453808566344,-0.022781569903071116,0.021885170395168872,0.9678951384065154
2016-01-13,-1,-0.0031582251285645203,-0.00300937399586806,-0.0185173471422487,0.027726797147916704,0.9694917026653107
2016-01-15,-1,-0.0020813278180499112,-0.0019599284340701783,-0.009116530573841073,0.03307294877068471,0.9665191571352924
2016-01-20,-1,-0.00346294372626805,-0.0033690776108216613,-0.005465865107435693,0.03307294877068471,0.9663950506214183
2016-01-22,0,-0.00036559830807799515,6.100898852066223e-05,-0.008511419567818826,0.03056817882229561,0.9676484057359892
2016-01-26,1,0.0005949672867784901,0.0009708242174347622,-0.008511419567818826,0.02734294053491552,0.970981951675649
2016-01-28,1,0.0014285779939426848,0.0020081008439150165,-0.005465865107435693,0.02734294053491552,0.9714184198153383
2016-02-01,1,0.004016687902107552,0.004976676166565744,-0.005465865107435693,0.0251239519870825,0.9741910324293502
2016-02-03,1,0.0010351906075497677,0.0014629091552974993,-0.0011376331418847753,0.02734294053491552,0.9758014084117259
2016-02-05,1,0.00024803862900071904,0.0005468220099496754,-0.005465865107435693,0.02734294053491552,0.9748758140405415
2016-02-09,1,2.0457318637124265e-06,0.0004337009742457199,-0.0011376331418847753,0.02734294053491552,0.9746697487020966
2016-02-11,-1,-0.0003195493116930182,-7.218192667852183e-05,0.001194438454628864,0.02965640107128792,0.9733059768875337
2016-02-16,1,0.004571618450413169,0.005331677143844875,-0.011367595639132196,0.023997400216752302,0.9817332146987697
2016-02-18,1,0.005028305675493434,0.005713701825107642,-0.011367595639132196,0.025701186708478638,0.9809986355128392
2016-02-22,1,0.0035958175102220437,0.003900349332961628,-0.010723970420025646,0.025701186708478638,0.9794074957005099
2016-02-24,1,0.002976083247852872,0.0031402687093889476,-0.014453340836489798,0.025701186708478638,0.976615346889868
2016-02-26,1,0.005004788459768395,0.0055732331512415,-0.014453340836489798,0.025701186708478638,0.9770825454396384
2016-03-01,1,0.006820997580043751,0.007755364055703821,-0.014453340836489798,0.025519099058296177,0.9775631788578649
2016-03-03,1,0.010169500998093592,0.0117697246158282,-0.014453340836489798,0.02393670433335815,0.9785505495784355
2016-03-07,1,0.007365788560593153,0.008467914270813573,-0.01374656777855197,0.02393670433335815,0.9787405951369038
2016-03-09,1,0.006497251588731975,0.007510184243199873,-0.01374656777855197,0.025519099058296177,0.9760826122704951
2016-03-11,1,0.008366404166568678,0.00964005888807532,-0.01374656777855197,0.020068977438455673,0.9762627505088046
2016-03-15,1,0.005756221481319955,0.006514584665770775,-0.012479428956761868,0.020068977438455673,0.9778278719183905
2016-03-17,1,0.006664049335011956,0.007419822471344912,-0.012479428956761868,0.014043822300471345,0.9793950324970448
2016-03-21,1,0.008727417770060156,0.009847985420997577,-0.012121858822507454,0.014043822300471345,0.9798313278143085
2016-03-23,1,0.008216720965748455,0.009286524480698326,-0.012121858822507454,0.007286528175373882,0.9799069860011279
2016-03-28,1,0.009054160488275325,0.01030178426341017,-0.012673857375788727,0.0029046267628964574,0.9773358743268085
2016-03-30,1,0.010351962836526675,0.011882552135790028,-0.01409238413036493,0.0005480715170308967,0.9752613591864828
2016-04-01,1,0.010093063915888868,0.011547084747152225,-0.01409238413036493,0.00014019023434057543,0.9747880168987844
2016-04-05,1,0.00734658298493558,0.008301856868769369,-0.012121858822507454,0.0019004116566130017,0.9765956428648772
2016-04-07,1,0.009117767051876984,0.010229298170930667,-0.012656673871480298,0.0008713507495490946,0.977415341591771
2016-04-11,1,0.007228610234662668,0.007970660711464343,-0.014914465248213396,0.0019004116566130017,0.978842725305994
2016-04-13,1,0.006470400670296792,0.0070799048154491645,-0.014914465248213396,0.0019004116566130017,0.9774544139169196
2016-04-15,1,0.006128477925430512,0.006684631881340521,-0.01748612174780023,0.002881303323153321,0.976117248631576
2016-04-19,1,0.0060541395830480925,0.006537392149267478,-0.01748612174780023,0.004125563525253438,0.9781660176357783
2016-04-21,1,0.004857418465486506,0.0052353743809386965,-0.01748612174780023,0.004125563525253438,0.9794129914925228
2016-04-25,1,0.0030987172235209786,0.003247799696519795,-0.014914465248213396,0.006909265620960481,0.9816072567873457
2016-04-27,1,0.003760001959606982,0.004153904433766446,-0.012892572718012342,0.018061282323669894,0.9805872039199808
2016-04-29,1,0.002286415181485812,0.002368749866513051,-0.01748612174780023,0.018061282323669894,0.9794445283103893
2016-05-03,1,0.0035403272683596668,0.003682946011584719,-0.01748612174780023,0.015056787298715181,0.9826056039022619
2016-05-05,1,0.0025154540772596716,0.0026073417628991037,-0.00971036984397615,0.018061282323669894,0.9834436285600556
2016-05-09,1,0.0010557288334714149,0.0012547853011681378,-0.002288511288065236,0.020395697399613888,0.9836354710030579
2016-05-11,1,0.0038643070654006077,0.004190645278944602,-0.0013077348521842455,0.015376535487570902,0.9868393237853885
2016-05-13,1,0.0008537432892323482,0.001066722327691539,-0.003083233713478994,0.015376535487570902,0.9878043437170473
2016-05-17,1,0.002357386826543499,0.0024343292124416895,-0.003083233713478994,0.015376535487570902,0.9878876675100359
2016-05-19,1,0.001555320501420657,0.0015612591926242615,-0.003083233713478994,0.019181416791131504,0.9882621170794191
2016-05-23,1,0.0026891586925363053,0.002861812005908084,-0.003514298134451882,0.0161221421113618,0.987787323632155
2016-05-25,1,0.0040083507779936755,0.004318374638319076,-0.004260502065911945,0.013949849113411664,0.9890383344077336
2016-05-27,1,0.003759560101226602,0.0040491885270164275,-0.006211715844617972,0.010767220127982242,0.9834776330724171
2016-06-01,1,0.0007850668214890049,0.0011471757324789968,-0.006211715844617972,0.014198384654675298,0.9824711337435295
2016-06-03,0,-0.0003426793852857454,0.0002649382636215579,-0.005676051286962628,0.012985472792993096,0.9833610267025757
2016-06-07,-1,-0.001653819947883412,-0.000750000386376634,-0.007935085628880146,0.010469319418206112,0.9829303369420209
2016-06-09,-1,-0.0006964631205462852,-4.060562043177495e-05,-0.010726181451980225,0.010469319418206112,0.9822077598753644
2016-06-13,-1,-0.00228025505589765,-0.0013460466122687652,-0.010726181451980225,0.014198384654675298,0.9787312137881558
2016-06-15,-1,-0.0013108055842541984,-0.0005600467781356725,-0.01961657305241677,0.013304682525346903,0.9774518696314687
2016-06-17,1,0.0001967722961831314,0.0006707672186291511,-0.01961657305241677,0.013304682525346903,0.9760773523042621
2016-06-21,-1,-0.0008943716877776447,-0.0002608620777423546,-0.01575808263924456,0.010469319418206112,0.9769500511951136
2016-06-23,0,-2.919005687695704e-05,0.0004082016642395828,-0.01575808263924456,0.01452152970049794,0.9767243355908981
2016-06-27,-1,-0.007129274319286653,-0.005737573977011451,-0.010498356761522273,0.02139375160818801,0.9786034408481485
2016-06-29,-1,-0.006290394988920834,-0.0049606483819095055,-0.011061519398971171,0.020935015355433566,0.9796272234725675
2016-07-01,-1,-0.007076397708573559,-0.005605722825744827,-0.012769380056333279,0.020935015355433566,0.977441791236781
2016-07-06,-1,-0.0076052774121223455,-0.006106879312815771,-0.011061519398971171,0.020935015355433566,0.9783451269939017
2016-07-08,-1,-0.004161017168492506,-0.003361694736468315,-0.0107736956043782,0.020935015355433566,0.9788913962778101
2016-07-12,-1,-0.0011894143077313857,-0.000801305245031025,-0.0107736956043782,0.01784917639141526,0.9812633907478484
2016-07-14,-1,-0.002663019786893947,-0.002112977818614767,-0.008227216406906768,0.020935015355433566,0.9814592952093124
2016-07-18,-1,-0.0011628743375454937,-0.0007928018925295027,-0.010335737130697374,0.020935015355433566,0.9808753178095277
2016-07-20,-1,-0.0015801229041215847,-0.0012015538415133808,-0.008227216406906768,0.020935015355433566,0.9809091089950006
2016-07-22,-1,-0.0006857417601782031,-0.0004483210051522365,-0.01298651323072037,0.01876078919450796,0.9802460153957383
2016-07-26,1,0.0022310995501399512,0.0024205489949592615,-0.01298651323072037,0.006439802675424723,0.9827559068880113
2016-07-28,1,0.001643253610310105,0.0016666599567701794,-0.017803483562635305,0.0025598032266002536,0.9815467873100631
2016-08-01,-1,-0.0010135597646757759,-0.0006757653593390154,-0.01180599454159904,0.006439802675424723,0.9848921901367627
2016-08-03,-1,-0.00027654061794128606,-9.92475437816592e-05,-0.010976034471472784,0.0025598032266002536,0.9847576616720451
2016-08-05,-1,-0.0010380180808790924,-0.0007263610713275762,-0.010976034471472784,0.0034701795068639713,0.9832439358176674
2016-08-09,1,0.0007326134585891104,0.0007456861438352285,-0.010976034471472784,0.005749381245496044,0.9827891233189697
2016-08-11,1,0.00195952602202363,0.0021711849594662344,-0.010976034471472784,0.011051210626320373,0.9822887144740481
2016-08-15,1,0.0020691734207506736,0.0022759499161447106,-0.008661075026464345,0.011051210626320373,0.9826683947372573
2016-08-17,1,0.001525740024090796,0.0016762920719592222,-0.007603813633494796,0.015570284713613585,0.9819546086963378
2016-08-19,1,0.0006111444264226141,0.0006583016387516895,-0.007297049195769241,0.015570284713613585,0.9817974237021382
2016-08-23,1,0.000417737217822316,0.0004504514764818576,-0.006535312056221616,0.015570284713613585,0.9818544138524529
2016-08-25,-1,-0.0021008435751563464,-0.001777359684491555,-0.006435597749666313,0.015570284713613585,0.9846489475060105
2016-08-29,-1,-0.0005535653863215426,-0.000531863426634402,-0.006435597749666313,0.015570284713613585,0.984707089286318
2016-08-31,-1,-0.0012656778755825923,-0.0011380077735227033,-0.00527435107660683,0.015570284713613585,0.9845026228170918
2016-09-02,-1,-0.00029589903331626773,-0.0002726368146886148,-0.00527435107660683,0.015570284713613585,0.9844758265170546
2016-09-07,1,0.0002886750542238414,0.0003399450635546517,-0.007801234249489254,0.015413748457448452,0.9832321783592698
2016-09-09,1,0.0017165331815304223,0.0019942839407371404,-0.008232901412583342,0.010182692426540182,0.984270400936243
2016-09-13,1,0.0024985808512977127,0.002810117688959029,-0.010004409139721556,0.010182692426540182,0.9855680571218144
2016-09-15,1,0.002860686763312651,0.0031357989019647333,-0.013004547193500785,-0.0009327066585315207,0.98573684326255
2016-09-19,1,0.0013138131590131402,0.0013458933563665688,-0.013004547193500785,-0.0012734185685280056,0.9877974343193062
2016-09-21,1,0.0007376053681670836,0.0007966519214654428,-0.013004547193500785,0.001762340049944027,0.9872701407749571
2016-09-23,1,0.0015117959739242288,0.0016519327313204851,-0.013004547193500785,0.006051990172004543,0.9868570196991134
2016-09-27,1,0.0001536385862114784,0.0002694186613915659,-0.012779720012782773,0.010864280347315038,0.9866722636839003
2016-09-29,0,-2.6005183893133095e-05,0.00011519756321069666,-0.013586195762506314,0.007783792676864393,0.9867999402965407
2016-10-03,1,0.00018922191918579006,0.0002508134818979611,-0.012779720012782773,0.004202797553304703,0.9889891001209856
2016-10-05,-1,-0.0008750719524837226,-0.0006407858887017545,-0.012779720012782773,0.004202797553304703,0.9887542300039222
2016-10-07,-1,-0.0009959786382740424,-0.0007669175472105452,-0.013586195762506314,0.005225520269665096,0.9843401409843373
2016-10-11,-1,-0.0014326445916218876,-0.001105825621048538,-0.01399521589099799,0.004202797553304703,0.9850956638425648
2016-10-13,-1,-0.0017912875286755633,-0.0014677882198221924,-0.01425744292060199,0.005225520269665096,0.9842974083469345
2016-10-17,-1,-0.0014220671712132846,-0.001221238011389962,-0.012916060055613332,0.005225520269665096,0.9847315723864318
2016-10-19,-1,-0.0007547490028536266,-0.0006220162693374956,-0.012916060055613332,0.005225520269665096,0.9845035316646022
2016-10-21,-1,-0.0007179742970982806,-0.0006001143229719431,-0.012916060055613332,0.01413951692621752,0.9818591492026733
2016-10-25,-1,-0.00028606319314451603,-0.00024542907714005067,-0.007534121110385534,0.01540432732793475,0.9802017291767741
2016-10-27,-1,-0.0002444679042204569,-0.0002413228157438467,-0.0041962780919855384,0.022820621047543052,0.9793547909291882
2016-10-31,-1,-0.00015038239070000003,-0.00013861992576679637,-0.007534121110385534,0.022820621047543052,0.9783297865636822
2016-11-02,1,0.00033213651967206896,0.00039706673922948487,-0.007534121110385534,0.021350763711599222,0.9787695988151779
2016-11-04,-1,-0.0018520157620533877,-0.0016774979069522121,-0.005734620626971776,0.021350763711599222,0.9831148758027234
2016-11-08,-1,-0.0019283692812196401,-0.0017704896872311276,-0.0041962780919855384,0.02351612377605019,0.9817191680138947
2016-11-10,-1,-0.0024525319193280876,-0.002217580426205459,-0.0041962780919855384,0.02351612377605019,0.978284074213399
2016-11-14,-1,-0.0025977087902701616,-0.002348167278143457,-0.003624053285753719,0.02351612377605019,0.9772232543356331
2016-11-16,-1,-0.004234874181513694,-0.003600225565479669,-0.008231965025917477,0.02190500923297741,0.9773962862509893
2016-11-18,-1,-0.0016967641515332264,-0.0014125349315885923,-0.013999596315606223,0.01505439503690164,0.9796217472712399
2016-11-22,1,0.0001065237975355661,0.00017518486328938735,-0.015590850129394075,0.01161436722965372,0.9809838189361434
2016-11-25,1,0.0006440033100059217,0.0006803225192390044,-0.015590850129394075,0.010958999219655215,0.9819438398881633
2016-11-29,0,-2.4681273972804055e-05,9.642005694310372e-05,-0.013999596315606223,0.010958999219655215,0.9826697778493299
2016-12-01,1,0.0008868299612892511,0.0009818707823018864,-0.013331680148878922,0.0034928142289745653,0.984336890625375
2016-12-05,-1,-0.00011864875813277559,-2.0692554990191497e-05,-0.013331680148878922,0.011041925140568655,0.982968486738679
2016-12-07,1,0.0014705120548203139,0.001642322331782269,-0.013331680148878922,0.011041925140568655,0.9837116907249176
2016-12-09,-1,-0.0012303315586557327,-0.0010315967031716698,-0.011855960579139894,0.011041925140568655,0.9879406840027398
2016-12-13,-1,-0.0004676726541831678,-0.0003803373115937755,-0.013331680148878922,0.010898427966307512,0.9877687213884427
2016-12-15,0,-1.4604925877378765e-05,6.611910238689457e-05,-0.011855960579139894,0.011041925140568655,0.987420739363737
2016-12-19,0,-2.1818405823768958e-07,0.00010829333656754388,-0.011418161857847562,0.010898427966307512,0.9881783035766619
2016-12-21,-1,-0.0013294321229061577,-0.0011827968699703712,-0.010843757061697365,0.011448254221890351,0.9886523423698208
2016-12-23,-1,-0.0016660982751803633,-0.0014776821861884454,-0.00834181432012699,0.01625156989089658,0.9870880051763424
2016-12-28,-1,-0.0020507257789330463,-0.001817012455573167,-0.008063917640755518,0.020004918136607965,0.9832718299861953
2016-12-30,-1,-0.0015158633987645894,-0.0013848149238272142,-0.009819466752141263,0.020004918136607965,0.9831475660001663
2017-01-04,1,0.0001448572871096398,0.0002602369301397865,-0.010720249633774543,0.01625156989089658,0.9834365556574678
2017-01-06,1,0.0009985673345113857,0.0012491835510876224,-0.010720249633774543,0.01625156989089658,0.9841548879493367
2017-01-10,1,0.0013916306872506935,0.001657351901277361,-0.010720249633774543,0.0050653611349128404,0.9850530201877519
2017-01-12,1,3.182256611499785e-05,5.451687547460903e-05,-0.006241611740269553,0.01562655345550757,0.9860693460159113
2017-01-17,1,2.551787522096103e-05,3.138504565133415e-05,-0.006241611740269553,0.0050653611349128404,0.987112863257134
2017-01-19,-1,-0.001542933940444614,-0.001276563456050144,-0.006241611740269553,0.01562655345550757,0.9852951931385756
2017-01-23,-1,-0.00099176127971551,-0.0007911141876713317,-0.008666390877146936,0.0050653611349128404,0.9859307536026096
2017-01-25,-1,-0.00013210280784393974,-5.861334203613423e-06,-0.009933577255668867,0.0007887776746880227,0.9868620230592391
2017-01-27,1,0.0023504333492100457,0.002586980451379472,-0.009933577255668867,0.001211916733479932,0.989232576387041
2017-01-31,1,0.0021042207885103416,0.0023396428968438425,-0.008682063430483182,0.0030339576670863925,0.9869902066595941
2017-02-02,1,0.0015456045339780314,0.0017768523410816974,-0.008682063430483182,0.007247312800280797,0.9877318508666147
2017-02-06,1,0.00218715297678375,0.0025906901075333955,-0.009200932839842406,0.007247312800280797,0.9869464911406097
2017-02-08,1,0.0029396230003028516,0.0035207593959840065,-0.009200932839842406,0.007247312800280797,0.9863847622529107
2017-02-10,1,0.002786243267425712,0.003276321757842624,-0.009200932839842406,0.007247312800280797,0.9849822438528907
2017-02-14,1,0.0023246898933087365,0.00273849231575384,-0.008547620948392393,0.007247312800280797,0.9857841522520155
2017-02-16,1,0.001974567040506545,0.002329007382557126,-0.0070669303927692155,0.010054014933582312,0.986089416256897
2017-02-21,1,0.0016028143339343911,0.0018872309477506043,-0.0034717637648967736,0.013258312754329291,0.9860415751670291
2017-02-23,1,0.001016971944082083,0.0012223472577343008,-0.002339003041697108,0.013746466259883827,0.9859935506157721
2017-02-27,1,0.00137107265597603,0.0016059755445090905,-0.0027043257961992906,0.013746466259883827,0.9854438279561489
2017-03-01,1,0.0031952422990983304,0.0036481745464015834,-0.0027043257961992906,0.013258312754329291,0.9889688082519624
2017-03-03,1,0.002561683310341507,0.0029125006126032096,-0.0027043257961992906,0.013258312754329291,0.9899298747634621
2017-03-07,1,0.002142558364173577,0.0024476561783565573,-0.00021992306392986375,0.013746466259883827,0.9901685042323223
2017-03-09,1,0.0015516665412767575,0.0017295835086724755,0.0008583825680578782,0.013746466259883827,0.98978602666115
2017-03-13,1,0.0025916015323932326,0.002871469904903161,-0.0012757731002018906,0.013258312754329291,0.9916607528674771
2017-03-15,1,0.0029327224461877435,0.0032954686842921817,-0.004061863479435482,0.013258312754329291,0.9912270177112855
2017-03-17,1,0.004161840391050161,0.004677629355929844,-0.005979510272067416,0.01009832708740347,0.9918275283546031
2017-03-21,1,0.0044505369648612444,0.005003623409853145,-0.007469663381017157,0.01009832708740347,0.9913835597430332
2017-03-23,1,0.004157042842895059,0.004641452903248561,-0.005979510272067416,0.01009832708740347,0.9920056102993159
2017-03-27,1,0.0045766848202248595,0.005115861609702918,-0.005979510272067416,0.01009832708740347,0.9919650047356687
2017-03-29,1,0.004845437563707172,0.005448369655882461,-0.005979510272067416,0.01036511524948014,0.9888806049445963
2017-03-31,1,0.003310749209013586,0.0035568618281500222,-0.005979510272067416,0.010621342205818672,0.9881880184159935
2017-04-04,1,0.00330620103486042,0.003516514529049414,-0.005979510272067416,0.01036511524948014,0.9882891616119873
2017-04-06,1,0.002955138202315008,0.0030920935389663934,-0.00831181213739691,0.01036511524948014,0.9870960312701463
2017-04-10,1,0.002182854847479611,0.002190598833357711,-0.009140015311386944,0.010621342205818672,0.9860922425656108
2017-04-12,1,0.002077916786279742,0.0021006085166288884,-0.009319496524518543,0.010621342205818672,0.9859639981311012
2017-04-17,1,0.002482549138771999,0.002662349512232861,-0.008257229377071126,0.01391023378020928,0.9861380142759363
2017-04-19,1,0.0032205581423311435,0.0035845124721350713,-0.009319496524518543,0.018979344100114447,0.9841874859308958
2017-04-21,1,0.0037982937827703827,0.004286469381633443,-0.009319496524518543,0.018979344100114447,0.9839824917490096
2017-04-25,1,0.003997160774892089,0.004479244365038751,-0.009319496524518543,0.019161029419580526,0.9834137139489361
2017-04-27,1,0.0051330809057083815,0.005750379442281094,-0.009319496524518543,0.007707699570366672,0.9856872388704045
2017-05-01,1,0.005127350455369863,0.00572100478851541,-0.008161443387473918,0.007661991894269875,0.9871417525163979
2017-05-03,1,0.005526095107226675,0.0062218961908905995,-0.008161443387473918,0.01697682507729708,0.9855593635376759
2017-05-05,1,0.00339801276556299,0.0036583319566550767,-0.006244640641857561,0.01697682507729708,0.9866896612455406
2017-05-09,1,0.0037436595851882493,0.0040679794448828166,-0.005235562341591523,0.011961902272381614,0.9880411760016147
2017-05-11,1,0.0027791382429178174,0.0029207514672065942,-0.005235562341591523,0.01697682507729708,0.9860718898473111
2017-05-15,1,0.00324000154083626,0.003411106299238429,-0.005235562341591523,0.01697682507729708,0.9857984310554357
2017-05-17,1,0.0021333255612951776,0.002136250437852196,-0.005021013866986288,0.011961902272381614,0.9880274933065182
2017-05-19,1,0.0013733545796916166,0.0014913408454585199,-0.002888825545258264,0.01713378827781936,0.9870574724911282
2017-05-23,1,0.0013652071704857941,0.0015133393591612275,-0.002888825545258264,0.011961902272381614,0.9882695644374048
2017-05-25,1,0.0009497773111564392,0.0011680196268784666,-0.003485540072425683,0.011961902272381614,0.9878252071067359
2017-05-30,1,0.0018867388405909894,0.001938646784747818,-0.005941175243564018,0.01113710713066932,0.9875085611761618
2017-06-01,1,0.003445257650321081,0.0036218689796748494,-0.008673910965743794,0.005859577022472396,0.9885257622903895
2017-06-05,1,0.0034706984888556976,0.0036789945544798376,-0.008673910965743794,0.006136440968950099,0.987802091714069
2017-06-07,1,0.0024909996811215093,0.002508884334324688,-0.00976022971762672,0.009511055076045301,0.987484916366224
2017-06-09,1,0.0015831148881936634,0.0016741569697801622,-0.008673910965743794,0.010373682229074614,0.9888845616747334
2017-06-13,1,0.0020153841005124407,0.002089513022696497,-0.008673910965743794,0.009511055076045301,0.989881384767996
2017-06-15,1,0.0019328167177011925,0.0019997877840226314,-0.00976022971762672,0.009511055076045301,0.9883656512715975
2017-06-19,1,0.003016104687038656,0.0031473947174607726,-0.00976022971762672,0.009511055076045301,0.9879343626772665
2017-06-21,1,0.004222087649227773,0.004576083771314464,-0.00935998082143465,0.009511055076045301,0.9874227588746132
2017-06-23,1,0.003874733920115587,0.004139710928926401,-0.00935998082143465,0.011031978845013479,0.986106442458231
2017-06-27,1,0.002230902168057389,0.0022658750570620292,-0.009440079194457347,0.011031978845013479,0.984903012631294
2017-06-29,1,0.0009806473005287307,0.001162517539415053,-0.009440079194457347,0.011031978845013479,0.9845414484668005
2017-07-03,1,0.00023912883346409962,0.0005157813158687295,-0.009179377369183417,0.011031978845013479,0.9854299299784677
2017-07-06,1,0.00024265498632929843,0.0005015696449799916,-0.009179377369183417,0.008433345842984618,0.9855691436459421
2017-07-10,1,0.0006831182988890784,0.0009174623001635536,-0.009179377369183417,0.007788484006987421,0.9855588111652338
2017-07-12,1,0.00023628983210216635,0.0005410504666004388,-0.009179377369183417,0.006630843259929254,0.9860058405666972
2017-07-14,-1,-0.0014410966397552635,-0.0009143791089983486,-0.009179377369183417,0.006630843259929254,0.9864329288153743
2017-07-18,-1,-0.0014460438203025355,-0.0008703028179009183,-0.009179377369183417,0.010998607540209773,0.9838481256688361
2017-07-20,-1,-0.0018493922773788632,-0.0012451417615913158,-0.011123076955978056,0.010998607540209773,0.9835609015062026
2017-07-24,1,0.0008750818379867221,0.0010656968240064018,-0.011123076955978056,0.005552739516443663,0.9855925287378203
2017-07-26,-1,-0.001365720667264089,-0.0008811802869725181,-0.010302114657472501,0.005552739516443663,0.9875072134954749
2017-07-28,-1,-0.0028038209111158697,-0.0021199376748023855,-0.006188459784646726,0.005552739516443663,0.9885113876919479
2017-08-01,-1,-0.0033522669982307416,-0.0025870717791846775,-0.005010275924125419,0.00642938216008873,0.9884078557912076
2017-08-03,-1,-0.003051944000918037,-0.0023931510300403687,-0.0035269821749888274,0.009466127618414342,0.9877459124644812
2017-08-07,-1,-0.0021481993205443453,-0.0015959951951151343,-0.005010275924125419,0.007234076601507917,0.9878589603028297
2017-08-09,-1,-0.0014309954749293205,-0.001041195696942835,-0.005010275924125419,0.011694014526957883,0.9867202438804793
2017-08-11,-1,-0.002368385834612543,-0.001889995025922453,-0.005010275924125419,0.011765829230419666,0.9869264475024452
2017-08-15,1,0.00036045012216355597,0.0005157643294656622,-0.005010275924125419,0.007234076601507917,0.9916990965702766
2017-08-17,1,0.00012161966699422298,0.00027448617766394936,-0.005704223368170549,0.007234076601507917,0.991551304143235
2017-08-21,1,0.00032477529158193895,0.00044810411904184507,-0.005704223368170549,0.010106135135551274,0.9906312751409112
2017-08-23,-1,-0.00021860453858727066,-1.4231286735861366e-05,-0.005704223368170549,0.010106135135551274,0.990760720605287
2017-08-25,0,-5.7057112591435964e-05,0.00010724228014438416,-0.0061838562150381415,0.010106135135551274,0.9897459184372495
2017-08-29,1,0.00011199608004004388,0.0002447956883492648,-0.0061838562150381415,0.011765829230419666,0.9890754578623124
2017-08-31,1,0.0005508546127730018,0.0006587777273929655,-0.006249847294118581,0.011765829230419666,0.9885082198577916
2017-09-05,1,0.000980176274508122,0.0010485436833057166,-0.00689090081655635,0.007176092106134843,0.9896194617325766
2017-09-07,1,0.0013285155517767308,0.001373329161696532,-0.00689090081655635,0.004387655052790623,0.9903435608792761
2017-09-11,1,0.0011705361644566282,0.0012372720796548226,-0.00689090081655635,0.0011850746606063027,0.9900309713751105
2017-09-13,1,0.0009916896630517836,0.0010749008045916769,-0.00689090081655635,0.004387655052790623,0.9898358427314562
2017-09-15,1,0.0006179847235711974,0.0007138854800178572,-0.00689090081655635,0.004703143899782709,0.9894100693374044
2017-09-19,1,0.0021467258200745065,0.002313760243838935,-0.00689090081655635,0.004703143899782709,0.9883739982451533
2017-09-21,1,0.001857924829922249,0.002001031482546091,-0.006473341289558988,0.004703143899782709,0.9887273424674391
2017-09-25,1,0.000900059222535261,0.0009101839333136353,-0.006473341289558988,0.004703143899782709,0.9900806908227318
2017-09-27,1,0.0011012842101969342,0.0011165143251634872,-0.007353976840063433,0.0015859674555169774,0.9908384861462113
2017-09-29,1,0.0017791975351645567,0.0018664973318818939,-0.00803268763278011,0.0015859674555169774,0.9910235506689398
2017-10-03,1,0.001105078324489932,0.0011253380069162278,-0.00803268763278011,0.0029419100484868177,0.9891880051414383
2017-10-05,1,0.0014283560559273409,0.0014819336951536186,-0.00972035478331409,0.006629532399022453,0.987453768436034
2017-10-09,1,9.958045239635176e-05,0.0002446515815178921,-0.00803268763278011,0.00928456507816764,0.9884703777262265
2017-10-11,-1,-0.00022558066306485906,-2.5446617846215202e-05,-0.00803268763278011,0.00928456507816764,0.9885362485066979
2017-10-13,-1,-0.0001994239685324449,-2.8526875955253283e-05,-0.007353976840063433,0.0061286613809601875,0.9895146780823294
2017-10-17,1,0.0005696918672413475,0.0006525778998930919,-0.00803268763278011,0.005927202847043548,0.9904315585143727
2017-10-19,1,0.0005374048868163038,0.0006028612944395712,-0.00972035478331409,0.008057114727233604,0.9896980151339658
2017-10-23,1,0.0011379280031355117,0.0012324440018631091,-0.00972035478331409,0.009101318053322371,0.9884972806315457
2017-10-25,1,0.0008040062346421606,0.0008473098246362901,-0.006978338405833688,0.010298245707410333,0.9884733028995855
2017-10-27,1,0.0005466840145019935,0.0005520467676620135,-0.005876503345691379,0.009060466213679511,0.9892301416137541
2017-10-31,1,0.0009913276222161844,0.001012092321627637,-0.006065528905527753,0.008057114727233604,0.9913427317260062
2017-11-02,1,0.0018542002472221974,0.0020397289612185073,-0.005876503345691379,0.008057114727233604,0.992627191438185
2017-11-06,1,0.001956707109533612,0.002150615937071207,-0.005934925638672047,0.008074302972597681,0.9923447191626259
2017-11-08,1,0.0025493662558860016,0.002870091718417884,-0.006065528905527753,0.008074302972597681,0.9919018492707206
2017-11-10,1,0.002581025722182221,0.002890617325322745,-0.006065528905527753,0.00911203094977175,0.9906514803566155
2017-11-14,1,0.0023627743914982338,0.0026508315978699824,-0.006065528905527753,0.010298245707410333,0.9901716641364645
2017-11-16,1,0.0019420273162756713,0.002140800606019413,-0.005934925638672047,0.00911203094977175,0.9909624194609452
2017-11-20,1,0.0021452197673380254,0.0023350289666903825,-0.005853075192020357,0.007266463380936453,0.9922163126873955
2017-11-22,1,0.002151956306493786,0.0023145685861413663,-0.005853075192020357,0.007266463380936453,0.9917088568762356
2017-11-27,1,0.0019557671346022223,0.002085105611052012,-0.005543377155843723,0.007266463380936453,0.9917071353887031
