JNU-Tangyin/eata/results/Batch4_SP500/Batch4_SP500-PEG.csv
Date,Action,Predicted_Q25,Predicted_Q75,Actual_Q25,Actual_Q75,RL_Reward
2010-12-14,0,0.0,0.0,-0.00600984053517532,0.008486269775864693,0.9932121478162739
2010-12-16,1,0.0011753307085312923,0.0015170666450626247,-0.00600984053517532,0.004662514599270431,0.9935981589035628
2010-12-20,1,0.00010220202508667229,0.00023274218003971147,-0.00600984053517532,0.008486269775864693,0.9932574096727257
2010-12-22,0,-2.841796831674464e-06,7.758479692597731e-05,-0.005461573936451743,0.009134390799796306,0.9931134565331158
2010-12-27,-1,-0.00047244538755461226,-0.0004619523327094739,-0.005809343928371829,0.009134390799796306,0.9925655356855292
2010-12-29,-1,-0.0006691852439262752,-0.0006261639923965058,-0.0032052957041745636,0.009134390799796306,0.9927188802639191
2010-12-31,-1,-0.0001224779018170261,-0.00011511477730419194,-0.006119511359735269,0.008366517833191188,0.993309479969506
2011-01-04,-1,-0.0013255722108564834,-0.0011224395441187776,-0.006119511359735269,0.009134390799796306,0.9915836613863995
2011-01-06,-1,-0.001849763473914022,-0.0015841886440928462,-0.006119511359735269,0.009134390799796306,0.9907675613499999
2011-01-10,-1,-0.0007039102028937858,-0.000619725255202576,-0.006119511359735269,0.009134390799796306,0.9908629429335237
2011-01-12,-1,-0.00025636995686911703,-0.00019149570471331163,-0.006119511359735269,0.008667803688218652,0.9913041136358852
2011-01-14,0,0.0,0.0,-0.006119511359735269,0.008667803688218652,0.9917939818609893
2011-01-19,0,0.0,0.0,-0.006119511359735269,0.007683373435767202,0.9922710767338782
2011-01-21,0,0.0,0.0,-0.006802650691248326,0.004217274097238064,0.9927517180462998
2011-01-25,0,0.0,0.0,-0.006802650691248326,0.004217274097238064,0.9925497296477374
2011-01-27,1,0.00045978968054524624,0.0005365791729799784,-0.006802650691248326,0.005155879107407841,0.9922895714289998
2011-01-31,1,0.00024024088314207243,0.00027313133081951476,-0.009159296958444174,0.006559362668807392,0.9910298368605049
2011-02-02,0,0.0,0.0,-0.0051982946142987655,0.005155879107407841,0.9927486737163308
2011-02-04,0,0.0,0.0,-0.005527401014587163,0.004463676473655335,0.993045511252781
2011-02-08,0,0.0,0.0,-0.005527401014587163,0.006089578074406998,0.9922187462667775
2011-02-10,0,0.0,0.0,-0.009159296958444174,0.006089578074406998,0.9916305276971197
2011-02-14,0,0.0,0.0,-0.010377899289489194,0.006089578074406998,0.9901356849598063
2011-02-16,0,0.0,0.0,-0.011234158390315802,0.006089578074406998,0.9893584775533752
2011-02-18,0,0.0,0.0,-0.011234158390315802,0.007163971327446021,0.9893432733421453
2011-02-23,0,0.0,0.0,-0.011234158390315802,0.006955373491552344,0.9895865050340558
2011-02-25,0,0.0,0.0,-0.011234158390315802,0.006955373491552344,0.9898242152334548
2011-03-01,1,0.0006136838820668545,0.0006716017718275718,-0.00598217235406826,0.006955373491552344,0.9907660656379795
2011-03-03,0,0.0,0.0,-0.0069204341003397925,0.008425867210639154,0.9899857600015425
2011-03-07,0,0.0,0.0,-0.0075129604258989974,0.008425867210639154,0.9897598161177159
2011-03-09,0,0.0,0.0,-0.0075129604258989974,0.008425867210639154,0.9900508455817865
2011-03-11,0,0.0,0.0,-0.005844300949290062,0.0056609960656582685,0.99072001535435
2011-03-15,1,0.000697489293070335,0.000886099146933078,-0.004768253934008846,0.0056609960656582685,0.991591121041623
2011-03-17,-1,-0.00013245635441472362,-7.013814454791509e-05,-0.0037696828194047458,0.008514757718635935,0.9923732927439229
2011-03-21,-1,-0.00029321600706398195,-0.00024065448933770851,-0.004768253934008846,0.008514757718635935,0.9919835363324458
2011-03-23,-1,-0.00047602832367917675,-0.0004478343246017413,-0.005844300949290062,0.008560774055994019,0.991651557817088
2011-03-25,-1,-0.0008292995067605762,-0.0007476949982268295,-0.005844300949290062,0.008560774055994019,0.9914063626677263
2011-03-29,1,0.00011824971322340645,0.0001994587703902549,-0.005844300949290062,0.011051673605293818,0.9904133832735527
2011-03-31,1,0.0001195573019093573,0.00020745544746283642,-0.004932520104431383,0.00951214127816821,0.9907372404811652
2011-04-04,-1,-0.0008761673526454862,-0.0008094011873435134,-0.0040258983819639,0.00951214127816821,0.9914497185443789
2011-04-06,-1,-7.330271101029496e-05,-6.263743160070178e-05,-0.004932520104431383,0.008177647705881766,0.9922747896648293
2011-04-08,-1,-0.0006651001097919297,-0.00060590881441766,-0.0031501289923827553,0.008177647705881766,0.992145140488286
2011-04-12,-1,-0.0021379721587901678,-0.00186429745700032,-0.0004935437588205012,0.00951214127816821,0.9911875301123945
2011-04-14,-1,-0.00208788378813803,-0.0017960136602006105,-0.0007367525993743581,0.00951214127816821,0.9909477011614541
2011-04-18,-1,-0.0022007819741282873,-0.0018860584038645832,0.0010065426096855087,0.008766630483789539,0.9911431183257319
2011-04-20,-1,-0.002478844075483801,-0.0021278665795116183,0.0012418820051288352,0.008766630483789539,0.9912206709581836
2011-04-25,-1,-0.002212670815735984,-0.0019078110403975112,0.0010065426096855087,0.008766630483789539,0.9915064381524037
2011-04-27,-1,-0.00025001343832346004,-0.00021430105453119908,-0.0002788068030694439,0.0078205153573607,0.9934582219608661
2011-04-29,1,9.415868457950394e-05,9.705147033162865e-05,-0.003180696763369119,0.007476161112127969,0.9936680634351979
2011-05-03,-1,-0.00015688281778259723,-0.00010928294203398301,-0.006788751914793482,0.007476161112127969,0.9925689265153533
2011-05-05,-1,-0.0003079809073070724,-0.000240968160787999,-0.006788751914793482,0.007476161112127969,0.992561046222269
2011-05-09,1,0.0002792961013614064,0.00030767589513566626,-0.007762561152056974,0.005441304382486253,0.992296837782945
2011-05-11,1,0.0015885803969409086,0.0018223531269154945,-0.007762561152056974,0.0037276849791282795,0.993235218335458
2011-05-13,1,0.0011428400293387684,0.0012785683754340399,-0.00885909275863511,0.0033424609047252307,0.9935150773438186
2011-05-17,1,0.001710159229453193,0.0019351165331143124,-0.009799538638621798,0.0033424609047252307,0.9921518243533558
2011-05-19,1,0.001772306269344089,0.0019893624865190388,-0.009799538638621798,0.0037276849791282795,0.991986436030126
2011-05-23,1,0.0010925655717762195,0.001217217993121798,-0.009799538638621798,0.0037276849791282795,0.9926874426584544
2011-05-25,1,0.0011349815762693213,0.001300773636130681,-0.007217215012406826,0.0037276849791282795,0.9929573984140768
2011-05-27,1,0.0007773289349834879,0.0008766945375303838,-0.009799538638621798,0.00424937789096556,0.9913991368310672
2011-06-01,1,6.101412808906996e-05,7.783226395306063e-05,-0.007217215012406826,0.004699684948279329,0.9920477516222954
2011-06-03,0,-1.1957797430303724e-06,1.0967867200736609e-06,-0.005194768551874255,0.00639828966776329,0.9916211861903163
2011-06-07,-1,-0.0002996018014404634,-0.00029334454040957984,-0.005194768551874255,0.00639828966776329,0.9918150997736047
2011-06-09,-1,-0.0004805658323547733,-0.00042415681384579547,-0.007080123368803849,0.0074591222960211975,0.9913514682197959
2011-06-13,-1,-0.0009116814072401687,-0.000817681575718469,-0.007080123368803849,0.0074591222960211975,0.991046552146165
2011-06-15,-1,-0.0008384184552843673,-0.0007865136892905953,-0.003985790866036855,0.005994485399323525,0.992501617458691
2011-06-17,-1,-0.00033394715448307403,-0.0003251038352094796,-0.006995870502841761,0.004916019312462145,0.9926542601916133
2011-06-21,1,1.1289190709847023e-05,7.747466363554716e-05,-0.006995870502841761,0.005994485399323525,0.9924041242423078
2011-06-23,-1,-6.574765752968801e-05,-1.2327913493354276e-05,-0.005791455497495118,0.007512696554924853,0.9914623485352702
2011-06-27,1,0.0005532569330946669,0.0007067228914233554,-0.0035843191975879745,0.007512696554924853,0.9930146078371227
2011-06-29,1,0.0005237080185624679,0.0006387081022324731,-0.00463450959997662,0.007512696554924853,0.9930856311645834
2011-07-01,1,0.0016020958763107163,0.001896627985334164,-0.005791455497495118,0.003489316552944488,0.993235408629207
2011-07-06,1,0.0013260048552643094,0.0015900923879018356,-0.008332730094858454,0.003489316552944488,0.992358889155054
2011-07-08,1,0.001054867078125488,0.0012453329677461055,-0.008693130251089079,0.002559767947916009,0.9908044561302513
2011-07-12,1,0.0005193619389441361,0.0006251450140075997,-0.008693130251089079,0.003489316552944488,0.9876549199299968
2011-07-14,-1,-0.00030529143449139394,-0.00022097008193530128,-0.0108446535268997,0.006743456669563933,0.9834254800462757
2011-07-18,-1,-0.0004570487996867152,-0.0003921115931993385,-0.0108446535268997,0.010096394614124945,0.9816524922319396
2011-07-20,1,0.00015761791256753928,0.00017220544701710482,-0.0108446535268997,0.007830708763928874,0.9820534812047548
2011-07-22,1,0.0009072989445122047,0.0009827263449760553,-0.013215720785513441,0.004631759225206664,0.9818626640625511
2011-07-26,0,0.0,0.0,-0.013215720785513441,0.006993771895770483,0.9816804791700825
2011-07-28,1,0.0006396747226001166,0.0007100406473461426,-0.013215720785513441,0.009618312607618449,0.9798399470511931
2011-08-01,0,0.0,0.0,-0.013215720785513441,0.015248591084164227,0.9791870512066876
2011-08-03,0,0.0,0.0,-0.009479986112609345,0.015401319522561466,0.9798651711511606
2011-08-05,0,0.0,0.0,-0.0126030530075668,0.015401319522561466,0.9806819297165607
2011-08-09,0,0.0,0.0,-0.009414191879529485,0.012907599829393837,0.9838988244260821
2011-08-11,0,0.0,0.0,-0.009414191879529485,0.01096729265963304,0.9869769730945807
2011-08-15,1,0.00043771658316535904,0.0004588525810660005,-0.009414191879529485,0.012043194020692673,0.9879785309785744
2011-08-17,0,0.0,0.0,-0.009414191879529485,0.012907599829393837,0.9869083038438464
2011-08-19,0,0.0,0.0,-0.005054745727935247,0.012907599829393837,0.9874518801960147
2011-08-23,-1,-0.0001621930549266308,-0.00012011316962450641,-0.006401086324168401,0.01314346631524336,0.9864497993179571
2011-08-25,1,0.0006710451009965411,0.0007132514516331504,-0.007442108622487552,0.01314346631524336,0.9866941106677365
2011-08-29,1,0.000886188615702339,0.0009567174406301816,-0.007442108622487552,0.012529917809111004,0.9874520253320039
2011-08-31,1,0.0011190556039197897,0.001219480789895447,-0.013509730314250599,0.01247092223806616,0.9867747264353155
2011-09-02,0,0.0,0.0,-0.016663705052436067,0.01247092223806616,0.9856691588193927
2011-09-07,0,0.0,0.0,-0.016663705052436067,0.01247092223806616,0.9856673552682068
2011-09-09,0,0.0,0.0,-0.014314080151250269,0.012966479602108831,0.9858880242999394
2011-09-13,0,0.0,0.0,-0.014314080151250269,0.012966479602108831,0.9864528444640229
2011-09-15,0,0.0,0.0,-0.014314080151250269,0.012457231717341907,0.9874541979667457
2011-09-19,0,0.0,0.0,-0.014314080151250269,0.012835186505910402,0.9874056358570524
2011-09-21,0,0.0,0.0,-0.008930725263514579,0.011908839751618163,0.9891981237118247
2011-09-23,0,0.0,0.0,-0.005683170821252892,0.011908839751618163,0.989509824535175
2011-09-27,1,0.0018451243648141746,0.0020672579928318053,-0.008930725263514579,0.011604972428837687,0.9891623824943747
2011-09-29,1,0.0014852831770622906,0.0016638865932960627,-0.005683170821252892,0.010752513819454504,0.9900745294878027
2011-10-03,1,0.0010820980961182224,0.0012452242409834238,-0.005683170821252892,0.010752513819454504,0.9914028114177041
2011-10-05,1,0.002560892752815083,0.0028652402896322936,-0.005683170821252892,0.011615812951136383,0.9890865034998753
2011-10-07,0,0.0,0.0,-0.005973393085522904,0.011615812951136383,0.9882723315935557
2011-10-11,0,0.0,0.0,-0.005973393085522904,0.010752513819454504,0.9886402911386678
2011-10-13,0,0.0,0.0,-0.009593838929348647,0.011615812951136383,0.9864985218186428
2011-10-17,0,0.0,0.0,-0.012671817363532773,0.011447665382948892,0.9861225983394458
2011-10-19,1,0.0014498356767646582,0.0016446440272572093,-0.012998328835371772,0.011447665382948892,0.9853068154393037
2011-10-21,0,0.0,0.0,-0.012998328835371772,0.009070613990857266,0.9864123186069926
2011-10-25,0,0.0,0.0,-0.014590590979158963,0.009070613990857266,0.985978305795221
2011-10-27,1,0.0018707201872909971,0.002094642980496713,-0.014775980105867956,0.004441168385616778,0.9852372782068809
2011-10-31,1,0.0012123386995953728,0.0013103643813068477,-0.014775980105867956,0.011590927828786145,0.9856046515688291
2011-11-02,1,0.002055133739831871,0.0021168582370686443,-0.014590590979158963,0.011590927828786145,0.986644838887307
2011-11-04,0,0.0,0.0,-0.013160026139584509,0.00926865993131031,0.9878389171764512
2011-11-08,1,0.0004730219012537907,0.00047405861864375744,-0.014775980105867956,0.009116427495762601,0.9872539248913964
2011-11-10,0,0.0,0.0,-0.014775980105867956,0.0063707382761330105,0.9885957158683453
2011-11-14,0,0.0,0.0,-0.014775980105867956,0.0037284837412510253,0.9892537843196791
2011-11-16,0,0.0,0.0,-0.01420624934372233,0.0063707382761330105,0.988541655671927
2011-11-18,0,0.0,0.0,-0.015451455418637463,0.0063707382761330105,0.9871030406124527
2011-11-22,0,0.0,0.0,-0.014689064039002855,0.011590927828786145,0.9869345187209345
2011-11-25,0,-0.001414676221460646,0.0,-0.01130328703861267,0.012248717222933926,0.9870703960618792
2011-11-29,0,0.0,0.0,-0.01130328703861267,0.012214966282969267,0.9867653195609072
2011-12-01,1,0.0007630702329425519,0.000765047303326914,-0.01130328703861267,0.012214966282969267,0.9881218852243234
2011-12-05,0,0.0,0.0,-0.014689064039002855,0.012214966282969267,0.986884684670847
2011-12-07,0,0.0,0.0,-0.010352188445341881,0.012214966282969267,0.9871336472842556
2011-12-09,0,0.0,0.0,-0.009141895745608034,0.012214966282969267,0.987773176745372
2011-12-13,-1,-0.0006271867015200416,-0.0005469521471766277,-0.010181501484136303,0.012214966282969267,0.9876888815077056
2011-12-15,0,0.0,0.0,-0.008781828540776339,0.011086985399250331,0.9888175265622485
2011-12-19,0,0.0,0.0,-0.007543098606620658,0.011086985399250331,0.9899755903947247
2011-12-21,0,0.0,0.0,-0.007543098606620658,0.009138344217755393,0.9905396511728125
2011-12-23,0,0.0,0.0,-0.008556900136077537,0.003744989125562121,0.9902408115733534
2011-12-28,0,0.0,0.0,-0.008556900136077537,0.0032103442816534835,0.9895343526163546
2011-12-30,0,0.0,0.0,-0.008556900136077537,0.0015573635444961,0.9898664243673204
2012-01-04,0,0.0,0.0,-0.008556900136077537,0.0015573635444961,0.9912993657576615
2012-01-06,-1,-0.0010195104494898593,-0.0008504896906234125,-0.008556900136077537,0.0015573635444961,0.9918750133266515
2012-01-10,-1,-0.0021697932333402496,-0.0016859370714259097,-0.008556900136077537,0.006973123608794837,0.9912983969295515
2012-01-12,-1,-0.003571459011452491,-0.002870065030778346,-0.008556900136077537,0.006973123608794837,0.9909778930896743
2012-01-17,-1,-0.003825102391898054,-0.003138415956220065,-0.0065292852533758985,0.006973123608794837,0.9905581004200025
2012-01-19,-1,-0.0034882086153088633,-0.0028914190280328435,-0.003913123595603718,0.008620476463281119,0.9896784727290949
2012-01-23,0,0.0,0.0,-0.005850414217966718,0.006973123608794837,0.990777670324604
2012-01-25,0,0.0,0.0,-0.005850414217966718,0.005549677138040016,0.9916240180964065
2012-01-27,-1,-0.0018888271645574285,-0.001680092380759449,-0.003913123595603718,0.005987027058835786,0.9924539333019106
2012-01-31,-1,-0.0014821378071866033,-0.0013420623151497529,-0.0026959696351256763,0.005987027058835786,0.9926334855290508
2012-02-02,-1,-0.0024032278340014746,-0.00210376955619767,-0.0015648709369041364,0.007654578950491285,0.992306872276765
2012-02-06,-1,-0.0014545377203802098,-0.0013228132410628753,-0.0026959696351256763,0.005800027825301387,0.9926912859156142
2012-02-08,-1,-0.0003150233478972798,-0.0002824662869548698,-0.005669460939897994,0.004520419011651276,0.992867518175075
2012-02-10,-1,-0.0004225760421490743,-0.0003840981156153244,-0.004808003699082626,0.005666370582801603,0.9931507947328931
2012-02-14,-1,-0.0003821675222147834,-0.0003743055823215141,-0.008397484068685906,0.00491434053502386,0.992993051030337
2012-02-16,1,0.0003908326031604482,0.0005168590006083575,-0.008397484068685906,0.002030589351541481,0.9941302193623035
2012-02-21,-1,-0.00011462598819577194,-4.9868203409761424e-05,-0.006887313711085294,0.002030589351541481,0.9943244824481543
2012-02-23,-1,-0.0004556856147028686,-0.0004285525367790669,-0.005153856976875915,0.0018158774869439943,0.9950605414658327
2012-02-27,-1,-0.0008286942596861866,-0.0007313198130657891,-0.005190061658784004,0.0018158774869439943,0.9948339599234028
2012-02-29,-1,-0.0007262934496456303,-0.0006468957440582972,-0.005190061658784004,0.002488747557588625,0.9944504747964572
2012-03-02,-1,-0.0005293731193360322,-0.0004738766263353148,-0.005190061658784004,0.0052204359633224295,0.994039630945475
2012-03-06,-1,-0.0004854160032195245,-0.0004629029376550899,-0.005190061658784004,0.0052204359633224295,0.9942449736461378
2012-03-08,-1,-0.0006266720394552842,-0.0005824260066448635,-0.006110027362451129,0.0019179092963768512,0.9942507472958431
2012-03-12,-1,-0.00037594374498428027,-0.0003716314176042042,-0.006211653300612258,0.0009993145036003182,0.9939692798350545
2012-03-14,-1,-0.0009353821141890075,-0.0008651216074059348,-0.005956886460825144,0.0024396278661221616,0.9939873081145957
2012-03-16,-1,-0.00011727446979993013,-2.324290092104868e-05,-0.005956886460825144,0.008824730983216952,0.9930957893973693
2012-03-20,-1,-0.0005498124104247146,-0.0005332713504430427,-0.005956886460825144,0.009341315459423818,0.9926635886258925
2012-03-22,0,0.0,0.0,-0.005956886460825144,0.009638774025278482,0.9922386355318193
2012-03-26,0,0.0,0.0,-0.005956886460825144,0.009341315459423818,0.9928062602992865
2012-03-28,0,0.0,0.0,-0.005956886460825144,0.009638774025278482,0.992557138626112
2012-03-30,1,0.0009425593062972184,0.0012666808689513784,-0.005956886460825144,0.009341315459423818,0.9931278167292368
2012-04-03,1,0.000710765962711348,0.0009578919278337615,-0.0033873287034125116,0.009638774025278482,0.9928912580173378
2012-04-05,-1,-0.0001947218739866829,-8.958361181045566e-05,-0.0014551231526534307,0.009638774025278482,0.9934058980166908
2012-04-10,-1,-0.0006952672271091385,-0.0006528643919574368,-0.0014551231526534307,0.009638774025278482,0.9937503693512805
2012-04-12,-1,-0.0006954386663266693,-0.0006939665142639185,-0.0014551231526534307,0.010063200036807683,0.9932153046902162
2012-04-16,1,2.5738175442845124e-05,0.00012265779866737098,-0.002115288530801832,0.008314154349317177,0.9941505441537042
2012-04-18,-1,-0.0004673986837199143,-0.00044526047553240626,-0.002115288530801832,0.006488430027954809,0.9945956022005936
2012-04-20,-1,-0.00023819362405346213,-0.0002176051026629818,-0.002115288530801832,0.005217255617309887,0.9950764425026485
2012-04-24,1,0.00010574310320397216,0.00017870584221108666,-0.002781540991819742,0.005217255617309887,0.9941692224094556
2012-04-26,1,0.0012745282022862364,0.0015507904607170494,-0.004039102540113161,0.003739346450798163,0.9944351615615945
2012-04-30,1,0.0014470768024502623,0.0017473456978728092,-0.00580415192332661,0.003739346450798163,0.9939941953930523
2012-05-02,1,0.001534822437500321,0.0018216579289064422,-0.00580415192332661,0.003739346450798163,0.993834374154526
2012-05-04,1,0.0016186584374843233,0.0018929622844550019,-0.00580415192332661,0.0010194237643920323,0.9938471027205339
2012-05-08,1,0.001091317554945025,0.0012779495187039262,-0.002624647221802098,0.00271734726103226,0.9946256009590794
2012-05-10,1,0.002173842690468476,0.0025332275797350073,-0.002624647221802098,0.00271734726103226,0.9944459798413704
2012-05-14,1,0.0010871903370745976,0.001212665390515976,-0.0021967137330226065,0.00271734726103226,0.9948276455697993
2012-05-16,1,0.0015343688143021942,0.001797023272916442,-0.0021967137330226065,0.004473810198093672,0.9944108995015887
2012-05-18,0,0.0,0.0,-0.003135806007294973,0.008317605873348654,0.9938556414469761
2012-05-22,0,0.0,0.0,-0.003135806007294973,0.008317605873348654,0.9946432436998542
2012-05-24,0,0.0,0.0,-0.003135806007294973,0.008317605873348654,0.9941608367828975
2012-05-29,0,0.0,0.0,-0.003135806007294973,0.004686420167891496,0.9944388492398714
2012-05-31,0,0.0,0.0,-0.003135806007294973,0.004686420167891496,0.9942786226808439
2012-06-04,1,0.0008804193505390404,0.001083994400939002,-0.003135806007294973,0.008317605873348654,0.9934306209574405
2012-06-06,1,0.0011766256938029619,0.0013607600466771044,-0.0036684048522325806,0.008317605873348654,0.9930733254248693
2012-06-08,1,0.001428023293922918,0.0016124148627768699,-0.004555509874753991,0.0031795554766014186,0.9931884712277619
2012-06-12,0,0.0,0.0,-0.004555509874753991,0.004562735735493035,0.9933374866855796
2012-06-14,0,0.0,0.0,-0.004555509874753991,0.004562735735493035,0.9932748786640802
2012-06-18,1,0.001721330177847098,0.0019479583624763008,-0.003878485131411383,0.0031795554766014186,0.993562767948557
2012-06-20,1,0.0011257578386721114,0.0012216350006983233,-0.003454136734469376,0.004562735735493035,0.9935207254004711
2012-06-22,1,0.0007143758365761388,0.0007679451990634913,-0.003454136734469376,0.004254697686097434,0.9940279692355564
2012-06-26,1,7.620455821736379e-05,0.0001257415612799419,-0.0033647077413315575,0.004254697686097434,0.9945160428958039
2012-06-28,1,0.0008242203167115695,0.0008836410753085853,-0.0033647077413315575,0.008448485028369038,0.9933888379142507
2012-07-02,1,0.0017690079071085185,0.002009450243215241,-0.003459545794869392,0.0075025961465508256,0.9926228074617339
2012-07-05,0,0.0,0.0,-0.003878485131411383,0.0075025961465508256,0.9921775875034915
2012-07-09,0,0.0,0.0,-0.0033647077413315575,0.008448485028369038,0.9920259709368363
2012-07-11,1,0.0016947068499128636,0.0019494165126966673,-0.004050126897965617,0.008162918810938785,0.9916146722972673
2012-07-13,1,0.001736818630253207,0.0019590921724774624,-0.004050126897965617,0.007380057940159982,0.9920823976133838
2012-07-17,0,0.0,0.0,-0.0062516443882476985,0.007380057940159982,0.9921473301162884
2012-07-19,0,0.0,0.0,-0.0068051248269525326,0.0041547489197618845,0.9922235311899987
2012-07-23,1,0.0010416022860690215,0.0011572839653633685,-0.007094011171461328,0.006694840039193489,0.9918542805889001
2012-07-25,1,0.001179275761549598,0.0013252679493028824,-0.007094011171461328,0.006694840039193489,0.9918555621713301
2012-07-27,1,0.0021271734383751777,0.0023728037096726407,-0.007805233278329433,0.004039780784213995,0.9926455447131107
2012-07-31,1,0.0014473642251977233,0.001592718039948792,-0.007094011171461328,0.0031628846228203508,0.9938232535377063
2012-08-02,0,0.0,0.0,-0.00592798220866351,0.0031628846228203508,0.9947963265421709
2012-08-06,0,0.0,0.0,-0.00592798220866351,0.0026100756999410425,0.995269533607771
2012-08-08,0,0.0,0.0,-0.005997001042628499,0.002690275580104716,0.9944028604127306
2012-08-10,1,0.00010792511969808785,0.00016286039183035397,-0.005997001042628499,0.002690275580104716,0.9945316953305867
2012-08-14,1,0.00016447253380755782,0.00027793310414360895,-0.0073926035447152965,0.002690275580104716,0.9941243922919957
2012-08-16,0,-3.8975303163101894e-05,5.243585760818448e-05,-0.006131933730654805,0.00350018773800589,0.9936439881101164
2012-08-20,0,0.0,0.0,-0.007338679547090448,0.0015622373504036629,0.9937170031650228
2012-08-22,0,0.0,0.0,-0.007338679547090448,0.004117013606619377,0.9935187760513707
2012-08-24,0,0.0,0.0,-0.006062436446346718,0.004117013606619377,0.9939418743444829
2012-08-28,0,0.0,0.0,-0.006062436446346718,0.004117013606619377,0.9939405961803436
2012-08-30,0,0.0,0.0,-0.00463628373906659,0.005328420974587882,0.9939708949398447
2012-09-04,0,0.0,0.0,-0.007338679547090448,0.006329972643798691,0.9929701703968814
2012-09-06,0,0.0,0.0,-0.00463628373906659,0.006329972643798691,0.9936258881563098
2012-09-10,0,0.0,0.0,-0.00463628373906659,0.006329972643798691,0.9936927848689424
2012-09-12,0,-0.001246604515392563,0.0,-0.0014082432164867077,0.006329972643798691,0.9947700256342358
2012-09-14,-1,-0.0007166896315824094,-0.000574271062905743,-0.002328528853054871,0.006210012231659415,0.9946335786013208
2012-09-18,0,0.0,0.0,-0.00031505205156860195,0.006210012231659415,0.9952015104410699
2012-09-20,0,0.0,0.0,-0.00031505205156860195,0.007329889224516955,0.9947869797285069
2012-09-24,0,0.0,0.0,-0.002328528853054871,0.006893397105604739,0.9938953474702521
2012-09-26,0,0.0,0.0,-0.00674372050804662,0.006893397105604739,0.993286644937269
2012-09-28,-1,-0.00037691814609540873,-0.0003348242591664142,-0.007890388387333266,0.006154861933557767,0.993131294862687
2012-10-02,-1,-6.147510817540924e-05,-4.9538953389773127e-05,-0.007890388387333266,0.006154861933557767,0.9924026313156283
2012-10-04,1,0.00042108718523013586,0.00045680331396340403,-0.008466123519577866,0.004020301179218717,0.9924522864824714
2012-10-08,1,0.000288801767486021,0.00029247529400291494,-0.008750676237261048,0.004020301179218717,0.9913971736117756
2012-10-10,1,0.0003937299063493053,0.00040516239985509563,-0.008750676237261048,0.004020301179218717,0.9913191148018405
2012-10-12,0,0.0,0.0,-0.009500301910158342,0.004020301179218717,0.9912050800011843
2012-10-16,0,0.0,0.0,-0.010374546245739632,0.000769149607056529,0.9905826524812086
2012-10-18,1,0.00046552249899085363,0.00048392070882261143,-0.010374546245739632,0.000769149607056529,0.990478660148895
2012-10-22,0,0.0,0.0,-0.009500301910158342,0.000769149607056529,0.9913953144285015
2012-10-24,-1,-0.0006077767414369229,-0.0004943576160950504,-0.008834469303328929,0.004509827475766125,0.9914236105003752
2012-10-26,-1,-0.0008581947235598121,-0.0007094544712676676,-0.008330145662292086,0.005865577826531248,0.9916378189655691
2012-11-01,-1,-0.0011247958407701614,-0.000971343838457636,-0.007281367181881151,0.005865577826531248,0.9930962313676266
2012-11-05,0,0.0,0.0,-0.007281367181881151,0.005865577826531248,0.9928383073608686
2012-11-07,0,0.0,0.0,-0.005861885562392253,0.00620601001606402,0.9935007217193514
2012-11-09,0,0.0,0.0,-0.005861885562392253,0.00620601001606402,0.993385615471543
2012-11-13,0,0.0,0.0,-0.005138284435984482,0.005997615740363646,0.9939529257847158
2012-11-15,0,0.0,0.0,-0.004504812238930447,0.005997615740363646,0.9945085528535689
2012-11-19,-1,-0.002873998387449601,-0.002498906329095202,-0.004504812238930447,0.00620601001606402,0.9935746209748005
2012-11-21,-1,-0.002951390195322384,-0.002602634266785144,-0.002841115013770677,0.00620601001606402,0.9933739422920467
2012-11-26,-1,-0.002016214848527426,-0.0018168323869713339,-0.002841115013770677,0.005997615740363646,0.9944993696646369
2012-11-28,-1,-0.0017434318414907527,-0.001563660515930535,-0.004504812238930447,0.003998863397247748,0.9948642152518195
2012-11-30,-1,-0.0017017493139403486,-0.0015158889447484372,-0.005341897278847373,0.003998863397247748,0.9936645488691439
2012-12-04,-1,-0.0019999607796525446,-0.0017989024369259123,-0.0029808956233664118,0.006925990444411807,0.9933462761270792
2012-12-06,0,0.0,0.0,-0.005341897278847373,0.004647774946920725,0.9931438473545668
2012-12-10,-1,-0.0013022016080515388,-0.0012057570040184082,-0.0065986728106647045,0.004647774946920725,0.992690572138292
2012-12-12,0,0.0,0.0,-0.0065986728106647045,0.0027586180322909347,0.9927303373011553
2012-12-14,0,0.0,0.0,-0.0065986728106647045,0.0027586180322909347,0.9928432935890081
2012-12-18,-1,-0.03991248377223333,-0.027253399670708472,-0.0065986728106647045,0.0005840703073018628,0.9693136928772649
2012-12-20,0,0.0,0.0,-0.006381256419949904,0.0013323277964594222,0.9935814287200371
2012-12-24,0,0.0,0.0,-0.006473785539008934,0.0020577773305975834,0.9934439194953368
2012-12-27,0,0.0,0.0,-0.0055039568905323475,0.004712071761099702,0.9932147727650814
2012-12-31,0,0.0,0.0,-0.00404540896577408,0.004712071761099702,0.9944076814517651
2013-01-03,0,0.0,0.0,-0.00404540896577408,0.004712071761099702,0.9944446915082313
2013-01-07,0,0.0,0.0,-0.0040231668867610655,0.004712071761099702,0.9950676567021974
2013-01-09,0,0.0,0.0,-0.001303497883929082,0.007037978211563752,0.9950364817364887
2013-01-11,-1,-0.001526915502855511,-0.0014804721856020312,-0.0018716031506614548,0.007037978211563752,0.9944186775356785
2013-01-15,-1,-0.0005655032514445589,-0.0005509152370768539,-0.0010368188091808923,0.007037978211563752,0.9948774965902667
2013-01-17,0,0.0,0.0,-0.0010464469077076995,0.007037978211563752,0.9946588656268391
2013-01-22,0,0.0,0.0,-0.0018421815003596212,0.007037978211563752,0.9948895226426283
2013-01-24,0,0.0,0.0,-0.0010464469077076995,0.008620971743862246,0.9940958510005573
2013-01-28,0,0.0,0.0,-0.0018421815003596212,0.008295774495672035,0.9941609990071062
2013-01-30,0,0.0,0.0,-0.002708415355843846,0.009859469610615491,0.9937070341849773
2013-02-01,0,0.0,0.0,-0.002708415355843846,0.010443876693289361,0.9932677626895317
2013-02-05,0,0.0,0.0,-0.002708415355843846,0.010443876693289361,0.9924596028821758
2013-02-07,1,0.0010253808713829252,0.0011790221402463177,-0.0035708418408412225,0.008556564032886595,0.9929121567919313
2013-02-11,1,0.0013171694529220857,0.001552144867010545,-0.0032375637639033518,0.008556564032886595,0.992859241769598
2013-02-13,1,0.000951564270095937,0.0011052301150382665,-0.0032375637639033518,0.008556564032886595,0.9928372606489421
2013-02-15,1,0.0007085496294329314,0.0008557720301996091,-0.0032375637639033518,0.010084507742633806,0.9927960051020529
2013-02-20,0,0.0,0.0,-0.0025973226635312226,0.010251066354650224,0.9925495785414621
2013-02-22,0,0.0,0.0,-0.003325394474700848,0.007414556204135192,0.9936908695122645
2013-02-26,0,0.0,0.0,-0.0032552330658656525,0.008312128208401017,0.9936239780459695
2013-02-28,0,0.0,0.0,-0.0032552330658656525,0.008312128208401017,0.9934283453437419
2013-03-04,0,0.0,0.0,-0.003961243980190073,0.005707018406281186,0.9940610880380629
2013-03-06,0,0.0,0.0,-0.0032552330658656525,0.006016498233294856,0.9946955624923781
2013-03-08,0,0.0,0.0,-0.0016291475025523015,0.006016498233294856,0.995046080955337
2013-03-12,0,0.0,0.0,-0.0005138210934074887,0.008677268099901892,0.9948668998791556
2013-03-14,0,0.0,0.0,-0.0005138210934074887,0.008677268099901892,0.9949979002675108
2013-03-18,0,0.0,0.0,-0.0005138210934074887,0.008677268099901892,0.9947669053725947
2013-03-20,0,0.0,0.0,-0.0005138210934074887,0.007883774505696639,0.9949443681484965
2013-03-22,0,0.0,0.0,-7.488598023187816e-05,0.008677268099901892,0.9943007336451865
2013-03-26,1,0.0029116855996057208,0.003348489855476241,0.0002844035729273744,0.007883774505696639,0.9952090706394106
2013-03-28,0,0.0,0.0,0.0002844035729273744,0.006310922390305758,0.9956152813286511
2013-04-02,0,0.0,0.0,0.0004870407437275909,0.007883774505696639,0.9952485833572111
2013-04-04,1,0.0009710276614480927,0.0010722893033755614,7.29641345667525e-05,0.006310922390305758,0.9958292184440912
2013-04-08,0,0.0,0.0,-0.001106128229433846,0.006310922390305758,0.9942051166145434
2013-04-10,0,0.0,0.0,-0.0029090730631983726,0.006310922390305758,0.9935717189791031
2013-04-12,0,0.0,0.0,-0.003693559455489803,0.006310922390305758,0.9930281899039072
2013-04-16,0,0.0,0.0,-0.003693559455489803,0.00536792335833527,0.9933926350106727
2013-04-18,1,0.0008210948749318998,0.0008676134598395633,-0.005421353938520537,0.005007452182187954,0.9932712640007073
2013-04-22,1,0.000988848447220767,0.0010594674291720461,-0.006638399392714962,0.005007452182187954,0.9931887935278497
2013-04-24,0,0.0,0.0,-0.006882680154629428,0.005007452182187954,0.9926319197527304
2013-04-26,0,0.0,0.0,-0.006993121328677708,0.004256817321311518,0.992356974836676
2013-04-30,0,0.0,0.0,-0.008845831171673176,0.000743635547013822,0.991792209627016
2013-05-02,1,0.001101639549197929,0.001207989743454852,-0.01035081840453335,0.0020851018164701014,0.9910418064538871
2013-05-06,1,0.0016606094486758794,0.0017209053601600906,-0.007990184320319015,0.0020939633913365633,0.991900040892368
2013-05-08,1,0.0014881956243766442,0.0015326840681708846,-0.007990184320319015,0.0020939633913365633,0.9912307017722426
2013-05-10,0,0.0,0.0,-0.007355260569609403,0.0020939633913365633,0.9920551621589752
2013-05-14,0,0.0,0.0,-0.007990184320319015,0.0015044324830961527,0.9919980507484395
2013-05-16,1,0.0008021649561411356,0.0008271375507107274,-0.007990184320319015,0.0015186356313364473,0.9914483310698494
2013-05-20,1,0.000648081233326043,0.0007191941952968433,-0.007990184320319015,0.0021099881114580612,0.9916557059758445
2013-05-22,0,0.0,0.0,-0.009517769962544775,0.0021099881114580612,0.989545649124419
2013-05-24,-1,-0.0006448472323222125,-0.00043567783637305077,-0.009517769962544775,0.005854583350347303,0.9892405685364317
2013-05-29,-1,-0.0011790099938849322,-0.0009200394482458382,-0.007990184320319015,0.011419892380872591,0.9887384423073444
2013-05-31,0,0.0,0.0,-0.007566060394958455,0.011419892380872591,0.9888973094099702
2013-06-04,0,0.0,0.0,-0.008245398186463092,0.011419892380872591,0.9881133236707498
2013-06-06,-1,-0.002642371407471032,-0.002158152947011739,-0.006030669877941894,0.007457170423363854,0.9897749138450644
2013-06-10,-1,-0.0031547618173908224,-0.0025977573366423303,-0.005201568437112348,0.011419892380872591,0.9887182983593402
2013-06-12,-1,-0.0038840948829322003,-0.003228065546976583,-0.002042856775122738,0.013810275337835924,0.987319601156003
2013-06-14,-1,-0.0028322075963826635,-0.0023360147270858906,-0.002042856775122738,0.013810275337835924,0.9872875217024579
2013-06-18,-1,-0.0023972508860664247,-0.0019392606358950176,-0.005201568437112348,0.013810275337835924,0.9881536845581887
2013-06-20,-1,-0.004481073363113704,-0.003800925826059994,-0.0005495617325226344,0.014767780141222459,0.9887260307462689
2013-06-24,-1,-0.0035030760764150895,-0.0029455540754989218,-0.000971644595822798,0.013839157519585357,0.9898854049602038
2013-06-26,-1,-0.0022208409588611038,-0.0018263198146160826,-0.002042856775122738,0.008211976165448769,0.9910325145326696
2013-06-28,-1,-0.0027361808152652524,-0.0022688614067749298,-0.001452137157684318,0.008211976165448769,0.9907248129504135
2013-07-02,-1,-0.0033263957604210514,-0.002822708990555708,-0.001452137157684318,0.008211976165448769,0.9909710917580841
2013-07-05,-1,-0.0035329765282350015,-0.0030039265302927534,-0.0004381303664655028,0.009922923240736237,0.9895942240926692
2013-07-09,0,0.0,0.0,-0.003446539949125025,0.008211976165448769,0.9911576672471595
2013-07-11,0,0.0,0.0,-0.003446539949125025,0.008211976165448769,0.9917870298940498
2013-07-15,0,0.0,0.0,-0.0052188851865174616,0.0068861380674959186,0.9928485890570676
2013-07-17,0,0.0,0.0,-0.007900454508472057,0.0068861380674959186,0.9923214601920943
2013-07-19,0,0.0,0.0,-0.011033907549159708,0.005762561909575478,0.992112913411485
2013-07-23,0,0.0,0.0,-0.011033907549159708,0.005762561909575478,0.9916335403740814
2013-07-25,0,0.0,0.0,-0.011033907549159708,0.005762561909575478,0.9917518535015228
2013-07-29,0,-2.633489634202527e-05,0.0,-0.011033907549159708,0.006072135150526867,0.9914232760729935
2013-07-31,-1,-0.000822014312150393,-0.0006546641167823489,-0.010117773906248555,0.006537887710047207,0.9919036464571684
2013-08-02,1,4.5419498527726065e-05,0.00010907014332310668,-0.010320060185093408,0.00287341345262678,0.9922667812839863
2013-08-06,-1,-0.0008496202032011741,-0.00068982476848976,-0.00975034649175058,0.00287341345262678,0.9931197864174853
2013-08-08,-1,-0.000320571457012644,-0.00023172619450093914,-0.00975034649175058,0.0026442345509302243,0.9931062970818071
2013-08-12,1,0.0006713951023541166,0.000675586163543027,-0.00975034649175058,0.005922317439145946,0.9926786579713396
2013-08-14,-1,-0.0002605801450570007,-0.00013609937157718632,-0.008909063671927871,0.005922317439145946,0.9931620541528883
2013-08-16,-1,-0.0010576045214939144,-0.0008466675441826807,-0.008041482774333709,0.005995783753920707,0.9932865725183327
2013-08-20,-1,-0.0005661891904102605,-0.00046400816004423483,-0.006899867690374981,0.006537887710047207,0.99187736729211
2013-08-22,0,0.0,0.0,-0.006899867690374981,0.005995783753920707,0.9921490408849057
2013-08-26,-1,-0.00046758157015330527,-0.00043814379570557277,-0.003977227652175964,0.005995783753920707,0.9919142884211781
2013-08-28,-1,-0.00065366313252777,-0.0005963959165172269,-0.007007114854195948,0.005922317439145946,0.9915195618560776
2013-08-30,0,0.0,0.0,-0.007007114854195948,0.005922317439145946,0.9914707531129859
2013-09-04,-1,-0.0010306022898180919,-0.0009848513544490508,-0.006555078383662394,0.006583028286430037,0.9912719890897804
2013-09-06,0,0.0,0.0,-0.007007114854195948,0.0065622572633171235,0.9910709724962954
2013-09-10,0,0.0,0.0,-0.007007114854195948,0.008312706933776084,0.9907341040021402
2013-09-12,-1,-0.0005377491113058538,-0.00046347377052870296,-0.005967969501173477,0.009615892816153566,0.990199189040711
2013-09-16,1,0.0003178940425511217,0.0005142776641365559,-0.005967969501173477,0.008312706933776084,0.9909253554786291
2013-09-18,1,0.0022076311728012727,0.002671010383734909,-0.007243217606998152,0.0052800420350805925,0.9922468980412928
2013-09-20,1,0.002376137614483217,0.002841605421865949,-0.005967969501173477,0.007062359407932905,0.9925944253588945
2013-09-24,1,0.0030688699070179543,0.003624538835482291,-0.006062815765880995,0.007062359407932905,0.9920732465455551
2013-09-26,1,0.001934567207123471,0.002277956643510705,-0.005803141462789227,0.007062359407932905,0.9924996032939992
2013-09-30,1,0.001457186659062931,0.0017309754316580336,-0.005803141462789227,0.008312706933776084,0.9922270367345424
2013-10-02,1,0.0017131773345030452,0.0019885508187546712,-0.006100850410752085,0.007062359407932905,0.991408756951281
2013-10-04,1,0.0011994337556795786,0.0014000414715176711,-0.005803141462789227,0.009575260969298192,0.991458515350931
2013-10-08,1,0.0012286404202645814,0.0014284739704800331,-0.006100850410752085,0.009575260969298192,0.9912788046972124
2013-10-10,1,0.0022620015584454895,0.002610887607580603,-0.007326317816644416,0.007045044850900245,0.9916152081955554
2013-10-14,1,0.001911172772048449,0.002173618078676682,-0.007326317816644416,0.007045044850900245,0.9918699279704074
2013-10-16,1,0.001278840586514336,0.0014353692290282943,-0.007271575984251866,0.009575260969298192,0.9917667485014853
2013-10-18,1,0.00159352202053548,0.001765636806649742,-0.007271575984251866,0.009575260969298192,0.9919737273683845
2013-10-22,1,0.0017617991961923901,0.0019371737066066594,-0.007271575984251866,0.007045044850900245,0.9927960249008506
2013-10-24,1,0.001235576784338186,0.001324275766324301,-0.009012730387845704,0.0070937433401129235,0.9922863053800489
2013-10-28,1,0.0010107435874383544,0.0010649465440000262,-0.006479361121811218,0.006225549398856107,0.9928081152489756
2013-10-30,-1,-0.00017567371660908907,-6.960159351135749e-05,-0.006479361121811218,0.006225549398856107,0.993025090506744
2013-11-01,1,0.0003209353414720269,0.0003971484968289165,-0.006479361121811218,0.004461755493000328,0.9937037183989681
2013-11-05,1,0.00043860124456931814,0.0004618102128786613,-0.005760550999693498,0.004461755493000328,0.993929242061826
2013-11-07,1,0.0005586614465120561,0.0005865220883077258,-0.005760550999693498,0.005551448158035023,0.9933194886510777
2013-11-11,-1,-0.0010781107191977037,-0.0008109757897461618,-0.006181924406155732,0.005551448158035023,0.9933097968142192
2013-11-13,-1,-0.0005118436160508286,-0.0003468139613891562,-0.006181924406155732,0.005551448158035023,0.9932714092643051
2013-11-15,1,0.0009054639281736315,0.0009823227871780462,-0.006883238341256178,0.0028503623183903206,0.9926960738580765
2013-11-19,1,0.0006157961120147059,0.0006345098007299003,-0.006928685360766842,0.006158542718768692,0.9922852981748456
2013-11-21,-1,-0.0004990033988541541,-0.00033304433674676215,-0.006928685360766842,0.0038996708968240344,0.9928490636730147
2013-11-25,-1,-0.0010934011022755972,-0.0008449282257644673,-0.006928685360766842,0.004129251879622738,0.9930966785829388
2013-11-27,-1,-0.0013940977870819465,-0.001145368222513539,-0.0064946024301796535,0.004129251879622738,0.9936850893313606
2013-12-02,-1,-0.0009121739094067786,-0.0007600252676223827,-0.0064946024301796535,0.004129251879622738,0.9935582678846717
2013-12-04,-1,-0.00019443123484412462,-0.00017668145280473843,-0.006928685360766842,0.0032603002586602927,0.9929459605693213
2013-12-06,-1,-0.0005049258262562898,-0.0004428994423555753,-0.0064946024301796535,0.0032603002586602927,0.9937884710906474
2013-12-10,-1,-0.0004514197202039699,-0.00042765990073232135,-0.005663450237847183,0.004110557471829522,0.9936420463149199
2013-12-12,-1,-0.00032075320618433925,-0.00031170757725697235,-0.005663450237847183,0.0038602911699734625,0.993848491528393
2013-12-16,-1,-0.0005488912935250266,-0.0005111276570806693,-0.0051438860087043336,0.0035543748193107567,0.9941249639746854
2013-12-18,-1,-0.00028561059478238605,-0.00027827599625429605,-0.0015032503402860862,0.0035543748193107567,0.9945725512270494
2013-12-20,-1,-0.0011078346940156373,-0.0009974669470541393,-0.0003142261534686278,0.005289589440601641,0.9941525706266303
2013-12-24,-1,-0.00041332677933708905,-0.0003950974331710235,0.0003899731984221455,0.006439867779154061,0.9937365038171542
2013-12-27,-1,-0.0007787274168552783,-0.0007022081700965178,-0.0007985565315090766,0.006448688914931161,0.9930131385406336
2013-12-31,-1,-0.0003204714127160443,-0.00031883228224055147,-0.0021780686873485223,0.00785595875865929,0.9926290389283208
2014-01-03,-1,-0.0010956483850639023,-0.0010007436546370285,-0.0017358838321006372,0.00785595875865929,0.9935140268283589
2014-01-07,-1,-0.0011767131859456762,-0.0010352750451563986,-0.0033130288120892214,0.00785595875865929,0.9937566128065727
2014-01-09,-1,-0.0015458078890461793,-0.0013244381776726542,-0.003302088873994953,0.00980889528237973,0.992800172394919
2014-01-13,-1,-0.0017352853174507337,-0.001495806087893715,-0.0017358838321006372,0.010024483022721561,0.9926838689834513
2014-01-15,-1,-0.0018040400801505802,-0.001554140456755686,-0.0011873540441052588,0.010024483022721561,0.9927286083641003
2014-01-17,-1,-0.0014699044122972577,-0.0012588771301691032,-0.0011873540441052588,0.01046648997874774,0.9924241492870053
2014-01-22,-1,-0.0005421200771799687,-0.00045249806035402014,-0.0017358838321006372,0.011443636232907856,0.9913622305106827
2014-01-24,0,-3.6586459999923425e-05,2.9360921095029056e-05,-0.0017358838321006372,0.011443636232907856,0.9920999017763076
2014-01-28,-1,-0.00039823767256414404,-0.000284697818973741,-0.0017266976782235625,0.011443636232907856,0.9925574157924433
2014-01-30,1,0.00011879415577252747,0.00016787558409328877,-0.0032717999621276342,0.007177758308355827,0.9928336887740244
2014-02-03,1,6.021879927236369e-06,6.261945100947565e-05,-0.0032745304123637286,0.007177758308355827,0.9921897222684475
2014-02-05,-1,-0.0006282413242502111,-0.0004635586568741786,-0.003443822982324995,0.007177758308355827,0.991399973151166
2014-02-07,1,0.0007399080962605009,0.0007652593045451236,-0.003443822982324995,0.004515726893176692,0.9928559942442187
2014-02-11,1,0.0018077216788485158,0.0020567861062356758,-0.004422660200742949,0.004515726893176692,0.9923600287865111
2014-02-13,1,0.0016900128751525323,0.0018869867157434556,-0.004422660200742949,0.007211770005120516,0.9914664171872625
2014-02-18,1,0.002556210998824112,0.00290492592001609,-0.004422660200742949,0.004515726893176692,0.9919840562013487
2014-02-20,1,0.0035218389681361314,0.003962777363564534,-0.006390625234608156,0.0038900606605576198,0.9929080029346878
2014-02-24,1,0.0035809851875270725,0.0040001228342884,-0.006390625234608156,0.004305248907661864,0.9922352483686768
2014-02-26,1,0.003690140083887607,0.00414191010557925,-0.006390625234608156,0.005698211694990759,0.992460249364727
2014-02-28,1,0.003327401313620665,0.0036996315808484996,-0.004361527232916811,0.0042842222611623095,0.9929988907676939
2014-03-04,1,0.002878091128108365,0.003189879504226427,-0.004361527232916811,0.007121816118892113,0.9923216277510338
2014-03-06,1,0.0025956109011139802,0.0029149305174297514,-0.0004928167990208765,0.011699522007622119,0.9930295495617485
2014-03-10,1,0.0025253694055938254,0.0028312611904758433,-0.0007557063217679413,0.011699522007622119,0.9925577292714888
2014-03-12,1,0.002573766325543637,0.0028597259345282005,0.0008119265500962657,0.010147446257728348,0.9935625808784659
2014-03-14,1,0.0037021717457348183,0.004163251598025172,-0.0007557063217679413,0.007862286006846932,0.9937077877028057
2014-03-18,1,0.004002752969337143,0.004518813080879461,-0.0007557063217679413,0.009075392050065797,0.9931893101214414
2014-03-20,1,0.0033513875980068306,0.003761478168032897,0.0005683022072730541,0.009075392050065797,0.9938231587044266
2014-03-24,1,0.0039007168431122127,0.004376919296373356,-0.0011627926461706699,0.007862286006846932,0.9939099965343058
2014-03-26,1,0.0035120085779214378,0.003886211887612041,-0.0011627926461706699,0.009059338864305688,0.9938662095290681
2014-03-28,1,0.003886027148515243,0.004354895919439803,-0.0011627926461706699,0.009696714642623616,0.9933980609649894
2014-04-01,1,0.003914461009156209,0.004370425204778523,-0.0011627926461706699,0.009696714642623616,0.9942299236403503
2014-04-03,1,0.004261585885674692,0.004738798344600947,-0.004706186435913012,0.009658317701553891,0.9919231526374093
2014-04-07,1,0.00426246761330788,0.004752691083775752,-0.004706186435913012,0.009658317701553891,0.9913429124550099
2014-04-09,1,0.004555596795588658,0.0050852414550087545,-0.0048647172750627314,0.010223370948168605,0.9900029730974372
2014-04-11,1,0.00504500998830761,0.005657052004933398,-0.008204756011969704,0.010223370948168605,0.9886610162841644
2014-04-15,1,0.005569138300543491,0.006241812728308085,-0.008204756011969704,0.009658317701553891,0.9885952983269517
2014-04-17,1,0.005098969280714469,0.0056813610014662275,-0.008204756011969704,0.009658317701553891,0.9883912474311184
2014-04-22,1,0.00454838807181262,0.005034123527649053,-0.009548192561544419,0.009658317701553891,0.9880173387414644
2014-04-24,1,0.004467612148548761,0.004902728807825356,-0.009548192561544419,0.009669347757314387,0.9879553164310613
2014-04-28,1,0.0049415602022042735,0.005422120043217763,-0.009548192561544419,0.0028669549068814568,0.9874194765810539
2014-04-30,1,0.00502436460512525,0.005501706825738983,-0.009548192561544419,0.0051822494388939905,0.9872858107785112
2014-05-02,1,0.003195227806128533,0.0034133299315530483,-0.007119205349156195,0.008503471476626914,0.9904587275698656
2014-05-06,1,0.003017802162985936,0.003180050041215084,-0.007119205349156195,0.0051822494388939905,0.9908288246007777
2014-05-08,1,0.0026165500812648287,0.002710293858322301,-0.007119205349156195,0.0051822494388939905,0.9914981148210528
2014-05-12,1,0.0015488888910776923,0.0016022696464519114,-0.006085718008721257,0.0051822494388939905,0.9922792682166461
2014-05-14,1,0.0016053807922743002,0.0016622167624700886,-0.007210995956394397,0.004916942555661518,0.9917061363246823
2014-05-16,1,0.0005587938887587162,0.0007750952011018217,-0.0064974952198696865,0.006214808045999012,0.9922208086473618
2014-05-20,0,-0.0002501670255685615,6.105660726177839e-05,-0.005575298597379256,0.008503471476626914,0.9914428486406884
2014-05-22,0,-7.658534459910338e-05,0.00021887329170916742,-0.005575298597379256,0.00907501537742888,0.9911105247515469
2014-05-27,-1,-0.0005751273011678844,-0.0002216732511059734,-0.006224909387369255,0.00907501537742888,0.99033335112258
2014-05-29,1,2.6638686175880924e-05,0.00035835457515510385,-0.006224909387369255,0.007960951388012965,0.991370098679496
2014-06-02,1,0.0005149079737696194,0.000790431030570771,-0.006224909387369255,0.008317208846822677,0.9911312270085433
2014-06-04,0,-0.0002815809533768059,9.280036575470938e-05,-0.008895165765860814,0.008317208846822677,0.98988624723477
2014-06-06,-1,-0.0007578607399227355,-0.00031673673391736045,-0.010585240237496046,0.008317208846822677,0.9891738946878312
2014-06-10,-1,-0.0017751660404775587,-0.0012019623179139436,-0.0055717096632914714,0.008317208846822677,0.9895849865936616
2014-06-12,-1,-0.0023055917827995327,-0.0016777928254598626,-0.0060144868652992674,0.00916097868652679,0.988761804149929
2014-06-16,-1,-0.0017203896275648034,-0.0011910677572637615,-0.012152215412432717,0.00916097868652679,0.9881977423997325
2014-06-18,0,-9.55220508362186e-05,0.00021116649644700074,-0.012892214774595127,0.008685939835068905,0.9886933188241864
2014-06-20,1,0.0002740341231018531,0.0005478433966643139,-0.012892214774595127,0.00820575179420134,0.989449088450178
2014-06-24,1,8.645823663120192e-05,0.00036922260757812117,-0.012152215412432717,0.00820575179420134,0.9902966318341313
2014-06-26,1,0.0001665842072620954,0.0004550452265061298,-0.012152215412432717,0.007816205295178427,0.9899853671583385
2014-06-30,1,0.0006265717791275112,0.0008833122825900447,-0.01314730199909403,0.004224865571267358,0.9888040033643153
2014-07-02,-1,-0.0005944563886410232,-0.0002455306911708147,-0.015987610504155675,0.004224865571267358,0.9885899824681199
2014-07-07,-1,-0.0009928576170854693,-0.0006167372565900559,-0.01314730199909403,0.004224865571267358,0.9897012568129179
2014-07-09,-1,-0.0010487326627969982,-0.0006642552086052723,-0.016136872387783708,0.004115715704356258,0.9884225234140064
2014-07-11,-1,-0.0008925224074228539,-0.0005545114768251511,-0.016136872387783708,0.007816205295178427,0.9874221858706217
2014-07-15,-1,-0.0012722275515558222,-0.0009649383780995438,-0.015120824162836203,0.007816205295178427,0.9887410085897985
2014-07-17,-1,-0.0014727476196807192,-0.0011713471411214647,-0.011201148757917424,0.006781693811000037,0.9892018977400976
2014-07-21,-1,-0.001489419699690308,-0.0011795508781735592,-0.011201148757917424,0.006781693811000037,0.9892907324443301
2014-07-23,-1,-0.0017578747421362587,-0.001413192147586314,-0.011201148757917424,0.007947275573278637,0.9883450081982892
2014-07-25,-1,-0.002287116044621006,-0.0018517626432511258,-0.009241246587436549,0.0076629642418116935,0.9887188693717427
2014-07-29,-1,-0.002805414775954089,-0.0022684533167672714,-0.008203066733824848,0.0076629642418116935,0.9896509491959424
2014-07-31,-1,-0.004906438157446519,-0.004122184212835541,-0.0032382285887375944,0.009435378874003723,0.9898404124894385
2014-08-04,-1,-0.00461183090089321,-0.003881578420041416,-0.0036593783190273913,0.01010723235703304,0.9891082788159152
2014-08-06,-1,-0.005242654578742943,-0.004482387894955212,-0.000890177143366944,0.01010723235703304,0.9893131544383078
2014-08-08,-1,-0.003204051672699412,-0.0026968391984543766,-0.002073591665166286,0.007886915402821465,0.9919266115308296
2014-08-12,-1,-0.003654972593826118,-0.0030675795449794686,-0.0031939889860180754,0.007886915402821465,0.9916240477374328
2014-08-14,-1,-0.0031408642569979725,-0.002649224890069202,-0.0031939889860180754,0.01010723235703304,0.9908535576078837
2014-08-18,-1,-0.003044572881969206,-0.002577830356164892,-0.0031939889860180754,0.011343402415641676,0.9891418376414624
2014-08-20,-1,-0.002106282934635516,-0.0017684034989899156,-0.003514368639629225,0.01010723235703304,0.9905881341538312
2014-08-22,-1,-0.0017032767670198325,-0.0014300085660668403,-0.004716283808272343,0.011343402415641676,0.9899901762453958
2014-08-26,-1,-0.0014266970543932605,-0.0012137345719211692,-0.004716283808272343,0.011005410961205058,0.9906824329124686
2014-08-28,-1,-0.00045686771628377645,-0.0003668213478413364,-0.004716283808272343,0.006993355282157902,0.9915612004353843
2014-09-02,-1,-0.0006525805067063028,-0.0005648359891362615,-0.004716283808272343,0.0029342270250607193,0.992517153796478
2014-09-04,-1,-0.00043636564963079575,-0.00038023859558228333,-0.004716283808272343,0.0026953920064635246,0.9925023075873549
2014-09-08,1,0.0005338261172355926,0.0006497974307662056,-0.004466215910711536,0.0022036057978716446,0.993001129021685
2014-09-10,-1,-5.810496273064641e-05,-2.7550478676150155e-05,-0.002648682245132279,0.004517592237472395,0.9924358185969192
2014-09-12,1,9.54811427069034e-05,0.00013440291625511642,-0.002648682245132279,0.004517592237472395,0.9927269361737706
2014-09-16,1,0.0017052341080776457,0.0019891720695017,-0.002648682245132279,0.002586607165349322,0.993152551109696
2014-09-18,1,0.0020988709022810477,0.0024952782998570425,-0.005901447012579341,0.002586607165349322,0.9913677505683713
2014-09-22,1,0.002650928413178684,0.003124524102353055,-0.0031270926124215477,0.004900055556814635,0.9912536046626498
2014-09-24,1,0.0011850841440328237,0.0013752127763878624,-0.002200785835313882,0.007833932518360152,0.9914247111229888
2014-09-26,1,0.0013211386932626354,0.0015493606507554919,-0.0011380342380000145,0.01050629586788685,0.9908497772860865
2014-09-30,1,0.0008823899950226505,0.0010481516675368793,-0.0011380342380000145,0.01050629586788685,0.9910717355637091
2014-10-02,1,0.00031690722333146547,0.00035427353992636577,-0.0022355916023484635,0.015997412391401497,0.989301055939187
2014-10-06,1,0.0004846352656569512,0.0005729613722267246,-0.0022355916023484635,0.015997412391401497,0.9885470586222486
2014-10-08,1,0.0011770142614954985,0.0013295110790740735,-0.002590321176881835,0.015997412391401497,0.9887251491237029
2014-10-10,1,0.0004565926646212206,0.00047470363410219267,-0.002590321176881835,0.015997412391401497,0.9878285883391986
2014-10-14,1,0.0013788401724809988,0.001544313220283932,-0.0034210879330023253,0.014610929853107902,0.9879465676654985
2014-10-16,-1,-0.00025936553056550565,-0.00019104596336321156,-0.004787956440085417,0.014610929853107902,0.9873771639691508
2014-10-20,1,0.001403532620977844,0.0016190402777811847,-0.004787956440085417,0.014610929853107902,0.9876035294374821
2014-10-22,1,0.0024120143772403684,0.0028041382523996284,-0.004787956440085417,0.010559007625386214,0.9883686852841533
2014-10-24,1,0.0028233542256778754,0.0032399056492563023,-0.004787956440085417,0.00916289768935579,0.9889111577075875
2014-10-28,1,0.002856099381229527,0.0032879826565747495,-0.008007926839048165,0.00916289768935579,0.9886673000100762
2014-10-30,1,0.003570637178575374,0.0040569012916350615,-0.008007926839048165,0.00916289768935579,0.9896797608390413
2014-11-03,1,0.003988909606282813,0.0045033215078472185,-0.008007926839048165,0.008845990690054763,0.9895554245379938
2014-11-05,1,0.0043618635318882085,0.004943977299535773,-0.0071147358133789385,0.008244053548707763,0.9900342675875367
2014-11-07,1,0.004160804470872117,0.004785210594468824,-0.0051913544123833545,0.006599081480935189,0.991607705425245
2014-11-11,1,0.004175257083026063,0.004830851903771388,-0.0051913544123833545,0.006159417835828518,0.9917453473780328
2014-11-13,1,0.0024821141861334547,0.0028993303943616253,-0.0038336536288491397,0.006753367375228248,0.9925863109004606
2014-11-17,1,0.003768041033950493,0.004382676353185854,-0.004589001370206943,0.006159417835828518,0.9928698867766738
2014-11-19,1,0.0043457233949122515,0.005086180760743353,-0.004589001370206943,0.00833090497557626,0.9913568057951968
2014-11-21,1,0.003913177608889381,0.004499641912816887,-0.004680712182439483,0.006753367375228248,0.9909183102208599
2014-11-25,1,0.0034642832257994415,0.003950081286110178,-0.004589001370206943,0.009512165526695607,0.9907535606427728
2014-11-28,1,0.004189751451935211,0.004774582517544056,-0.004589001370206943,0.009063593945166008,0.9907877134410475
2014-12-02,1,0.003698271894220534,0.004208445240910452,-0.005358470555357501,0.009063593945166008,0.98883844766512
2014-12-04,1,0.00256653441273849,0.002860092262604324,-0.006565038904581307,0.01086037701104333,0.9879605320009411
2014-12-08,1,0.002442050446529215,0.0027013722081547092,-0.006565038904581307,0.012474424299994366,0.9876825551610999
2014-12-10,1,0.0021642220574136783,0.002386745670567209,-0.007067214722260511,0.012474424299994366,0.9874802686616649
2014-12-12,1,0.0017934532614578662,0.001953163248330242,-0.004680712182439483,0.012015556477276527,0.9886475306037552
2014-12-16,1,0.001386608546554602,0.0014846455778020737,-0.003500461532791537,0.012015556477276527,0.9884022205418489
2014-12-18,1,0.0030051914476673866,0.00331615354355658,-0.003500461532791537,0.01086037701104333,0.9894314630918369
2014-12-22,1,0.0014818191650279484,0.001494659475282617,-0.0040864936886014,0.012015556477276527,0.9883425665281187
2014-12-24,1,0.002043236648600495,0.0021027639003184865,-0.005947414030339764,0.01086037701104333,0.988791365677014
2014-12-29,1,0.0017232371191595918,0.00177823829852114,-0.011267819899359013,0.009758538262705499,0.9886904547971583
2014-12-31,1,0.0003615468858725895,0.0005014524326317974,-0.005947414030339764,0.012015556477276527,0.9890969650961225
2015-01-05,-1,-0.00034155178414857056,-0.00010860864258815299,-0.002457230265284008,0.012884203842256145,0.9900274247178907
2015-01-07,1,0.00012943322016540206,0.00031171152598356096,-0.005947414030339764,0.012884203842256145,0.988939169235366
2015-01-09,-1,-0.00034282656422469535,-9.543372320264286e-05,-0.008621581814564124,0.012884203842256145,0.9870919087815234
2015-01-13,1,0.0005704012881755788,0.0006772573308073674,-0.011267819899359013,0.014086874898451946,0.9857972163974329
2015-01-15,1,0.001188662062470989,0.0012170015043313916,-0.011267819899359013,0.014086874898451946,0.985443322024315
2015-01-20,1,0.001676402509146766,0.0016984011531103152,-0.011267819899359013,0.014086874898451946,0.9851182796675658
2015-01-22,1,0.002368906969962506,0.00249210256719807,-0.011059934431182515,0.014086874898451946,0.9845387757125685
2015-01-26,1,0.001711506229872698,0.0017371169627558845,-0.011059934431182515,0.015136306468650147,0.9834386310668134
2015-01-28,1,0.0010266217969758062,0.0010894470055109846,-0.013168826635729219,0.015136306468650147,0.9831088339885035
2015-01-30,1,0.0006077638272941363,0.0007048004039105348,-0.013168826635729219,0.014415236629195265,0.9836574494524287
2015-02-03,1,0.0005511265181700382,0.000687897380595829,-0.015982454175982957,0.016312550434547414,0.9825722436504132
2015-02-05,1,0.00020626162532369247,0.00037982721645602683,-0.015982454175982957,0.014080686149267172,0.9823115671980022
2015-02-09,-1,-0.0013723362941307242,-0.001064534955147483,-0.011495899522807856,0.014080686149267172,0.9847861683091966
2015-02-11,-1,-0.0016660637584842027,-0.0013081390631760105,-0.008438982823063204,0.013775124477144733,0.9855202384094165
2015-02-13,-1,-0.0023065210888288125,-0.0018827203511409076,-0.006646084257896031,0.015940192127790617,0.9849378633368486
2015-02-18,-1,-0.0014463037817854863,-0.0011034787603967453,-0.006646084257896031,0.015940192127790617,0.9854207791748133
2015-02-20,-1,-0.0004705626791791273,-0.00022982791733690278,-0.007580433126456697,0.013775124477144733,0.9868969027759769
2015-02-24,1,0.0006090602183403408,0.0007470347583903287,-0.00979485474122918,0.006538896977876673,0.9876004389670685
2015-02-26,-1,-0.0004686980682735171,-0.0001998746185373,-0.00785561800671678,0.006538896977876673,0.9879348048997391
2015-03-02,-1,-0.0017117961470867467,-0.0012987140113873206,-0.00766658449204145,0.009926847456891388,0.9881225830083091
2015-03-04,-1,-0.000990808892542131,-0.000705624478551381,-0.00766658449204145,0.006538896977876673,0.9893993550109571
2015-03-06,-1,-0.0026901477181712247,-0.0021776154348816697,-0.007420900630327529,0.009926847456891388,0.9897512193281991
2015-03-10,-1,-0.001993695987654302,-0.0015900752492163058,-0.00766658449204145,0.009926847456891388,0.9900509804349883
2015-03-12,-1,-0.0023363633061916802,-0.0018465863966607315,-0.00785561800671678,0.00847862509021685,0.9902305712373037
2015-03-16,-1,-0.0014905213177303213,-0.0011351307281142714,-0.008795412407769144,0.006959967072080587,0.9902856309713445
2015-03-18,-1,-0.00027784522646924676,-9.775144343213431e-05,-0.008795412407769144,0.005946198713711185,0.9913038399156138
2015-03-20,0,-7.913747115291319e-05,4.807820852785764e-05,-0.008749287842863544,0.006959967072080587,0.9905545774397828
2015-03-24,-1,-0.00045547525371235386,-0.000281296698880595,-0.008749287842863544,0.0073644969910826655,0.9902256380006108
2015-03-26,-1,-0.00045343943643151493,-0.00033237652857461485,-0.008749287842863544,0.008321561306926378,0.9903574324899522
2015-03-30,1,0.0008360901666351696,0.000899417352058628,-0.011035713067776048,0.008321561306926378,0.9900502584125241
2015-04-01,1,0.0004432669811942377,0.00046921483288202834,-0.008749287842863544,0.008321561306926378,0.9902764290016973
2015-04-06,1,0.0009127568982422918,0.0009550073268907273,-0.008749287842863544,0.009796834219725796,0.9902883650923924
2015-04-08,1,0.00017813823802739342,0.0002305471089248115,-0.008749287842863544,0.009796834219725796,0.9896107040281543
2015-04-10,-1,-0.0007532615361483005,-0.0005175142819259203,-0.007078615084846417,0.008426180679429088,0.9900736017429662
2015-04-14,-1,-0.000579644854721763,-0.00041891330171932463,-0.005598688166632963,0.008426180679429088,0.9910390124147441
2015-04-16,-1,-0.00039884907056777575,-0.00025712078440364334,-0.005598688166632963,0.010227264791059164,0.9902472618528046
2015-04-20,1,0.0002210305123048065,0.0002720906948731472,-0.005068115943378441,0.008426180679429088,0.9912960052443054
2015-04-22,1,0.00010421939614080271,0.00017659189764879978,-0.00410701983194122,0.008244260006330505,0.9919742660688399
2015-04-24,1,0.0008666437470144853,0.000927399843816614,-0.00410701983194122,0.009518196953844163,0.992107743099315
2015-04-28,1,0.00044155750234928817,0.0004538252520899991,-0.00410701983194122,0.007574715813519126,0.9922970427082364
2015-04-30,-1,-0.0002883714271041811,-0.00017128155428813402,-0.004009816645472498,0.007574715813519126,0.9920222421587112
2015-05-04,1,0.0007864491142367648,0.000801911289891648,-0.00472149828333469,0.006254176697008557,0.9925220228928525
2015-05-06,-1,-0.00023773159913991772,-0.00012503040507528965,-0.00619884468222168,0.006254176697008557,0.9922961982998075
2015-05-08,-1,-0.00012662473834582462,-1.295389992847989e-05,-0.00991743027077285,0.006254176697008557,0.9917678648722906
2015-05-12,-1,-0.0005174476469570854,-0.000342300101433123,-0.00991743027077285,0.006254176697008557,0.9918265297122685
2015-05-14,1,0.0007962810806603751,0.0008635399688677291,-0.010856654278050559,0.004519486978206207,0.9917206971150917
2015-05-18,1,0.0009117784007355999,0.0009775838369532254,-0.010856654278050559,0.005016191247994017,0.9915212078972793
2015-05-20,1,0.0017212470061480135,0.0019281786536996604,-0.010856654278050559,0.005016191247994017,0.9911936770718568
2015-05-22,1,0.002492759966767884,0.0028351571272061077,-0.010856654278050559,0.0041068251618680265,0.9907570981437748
2015-05-27,1,0.0011587304895557524,0.0012146892240517,-0.0125432006936599,0.0041068251618680265,0.990441916796211
2015-05-29,1,0.00031396270988834373,0.00038786311559516843,-0.0125432006936599,0.005016191247994017,0.99029208494516
2015-06-02,1,0.0002576930432729313,0.0003145513285251532,-0.01195477850528866,0.0041068251618680265,0.9907938750962147
2015-06-04,-1,-0.0010027827896332189,-0.0007884374230573707,-0.009975755812166327,0.005240317224822787,0.9916353540150183
2015-06-08,-1,-0.0013369883958987178,-0.0011095951776244894,-0.0072766793419708955,0.008297558822771304,0.9902141429309929
2015-06-10,-1,-0.0008156614517969047,-0.000689232170457953,-0.0072766793419708955,0.008297558822771304,0.9900607951943147
2015-06-12,-1,-0.0007925384732528065,-0.0007067876720672341,-0.006636788580390978,0.008297558822771304,0.9906807848729346
2015-06-16,-1,-5.3635995537713766e-05,-3.359140276922821e-05,-0.006636788580390978,0.00803964658911461,0.9910011079705306
2015-06-18,1,0.0007901456187771857,0.000920947405487749,-0.007426095092343215,0.0056871465399659284,0.9906096769905299
2015-06-22,1,0.00023988118505199717,0.0002729496937256077,-0.00987396834273157,0.0056871465399659284,0.9900765767935201
2015-06-24,-1,-0.0009275738089013318,-0.0007986226477004105,-0.007426095092343215,0.007442354368497708,0.9899673475245876
2015-06-26,-1,-0.0004883540388098008,-0.0004355444670911778,-0.0063795180377378595,0.007442354368497708,0.9904979420962671
2015-06-30,-1,-0.0009516805354957444,-0.0008307548832764398,-0.004823440057929218,0.009513162193522742,0.9903380458169121
2015-07-02,-1,-0.0015790787197514844,-0.0012765402986377834,-0.004823440057929218,0.009807791071236839,0.9899578008647621
2015-07-07,0,-5.465662332985885e-05,8.107793518411459e-05,-0.0063795180377378595,0.007358499254608335,0.9910167946283127
2015-07-09,-1,-0.000756637417639507,-0.0005033017132141334,-0.003526684231265465,0.00994120349115082,0.9903159596777328
2015-07-13,-1,-0.000435656472616601,-0.0002703782427501387,-0.004694775958493983,0.010042072509297978,0.989141244271601
2015-07-15,1,0.00023227124729264945,0.00025716249852893115,-0.004132446995179319,0.01101008803838906,0.9888585973529257
2015-07-17,1,0.0013698782202665467,0.0015824114632395712,-0.0023854431659010612,0.01101008803838906,0.9897957188652795
2015-07-21,1,0.00013672075518737277,0.00013786775096563794,-0.001415155274698977,0.01101008803838906,0.9901583385209802
2015-07-23,-1,-0.0013156068840077108,-0.0010910065450011916,-0.001415155274698977,0.011123454209505066,0.9903964323247675
2015-07-27,-1,-0.0008100325113952582,-0.0006648510506516952,-0.004962845542686492,0.011123454209505066,0.9883287199247173
2015-07-29,-1,-0.0007133544645313696,-0.00046063732345849487,-0.007892936571552524,0.011123454209505066,0.9876886567724137
2015-07-31,1,0.0006521863040690833,0.0007282404107671129,-0.010757304097921597,0.011123454209505066,0.9875247470794218
2015-08-04,1,0.00018274597383202153,0.00027591848171760086,-0.010757304097921597,0.011123454209505066,0.9868768960143888
2015-08-06,1,0.0011562845197856718,0.0011871235656259402,-0.010757304097921597,0.010474956530871124,0.9872787149563318
2015-08-10,1,0.0020716122504104853,0.0022653185642771715,-0.012368213031624792,0.010474956530871124,0.9865679894568761
2015-08-12,1,0.0024958610490279443,0.0027468957099495693,-0.013497571897802272,0.009759127511249762,0.9862374505307173
2015-08-14,1,0.002581602006664204,0.0028219206847712843,-0.013497571897802272,0.009759127511249762,0.9865486188291618
2015-08-18,1,0.002423156660758417,0.002611302012852241,-0.013497571897802272,0.010474956530871124,0.986166988311771
2015-08-20,1,0.00279689766361735,0.0030689641906028104,-0.013497571897802272,0.010696707168620945,0.9861343564448206
2015-08-24,1,0.0015789274592122398,0.0016705883604844797,-0.010635324060270877,0.010696707168620945,0.9877937745527073
2015-08-26,1,0.001607116898426377,0.0017581855073877102,-0.007562258275604132,0.010696707168620945,0.9887769815725895
2015-08-28,1,0.0015592643344082802,0.0016759425899332515,-0.006831725150512787,0.010696707168620945,0.9888082914413172
2015-09-01,1,0.000362924305538916,0.00040368268292941125,-0.0021781705528426494,0.01123512945686712,0.988711344916528
2015-09-03,1,0.00034022119926273715,0.0004087597004990935,-0.006637109490502112,0.012023882782089157,0.987131606534933
2015-09-08,1,0.00021427810208350992,0.0002886361750311232,-0.0019824689301603093,0.01123512945686712,0.9886921679821825
2015-09-10,1,0.00013926464958504415,0.00020339808102179605,-0.0019824689301603093,0.011854032452566249,0.9882501586676307
2015-09-14,1,0.0006342034491654161,0.0006431880999641198,-0.006637109490502112,0.011772325113618077,0.9878418197236898
2015-09-16,1,0.0015521533409040412,0.001684379836388313,-0.006637109490502112,0.009894199183373429,0.9888204870073284
2015-09-18,1,0.001596567036449984,0.0017163987713861599,-0.004820167917025296,0.010458630619773776,0.9889302789798257
2015-09-22,1,0.000671252680082128,0.0006906330387724285,-0.004820167917025296,0.01061274987211491,0.9891243058817752
2015-09-24,1,0.0016753207273222034,0.0018463414726229664,-0.007382241928700906,0.011008807998350956,0.9891113381279546
2015-09-28,1,0.001687434162707909,0.0018082819473924324,-0.009749336515008806,0.009793812730625524,0.9881606708542464
2015-09-30,1,0.003059032696305277,0.0033809659514027436,-0.010207565250252015,0.009507674102872373,0.9892541152188761
2015-10-02,1,0.003006744735513933,0.003312504017291662,-0.00887636678996537,0.009093728415376017,0.9909699699728984
2015-10-06,1,0.0037118406889674006,0.004122927537369734,-0.010207565250252015,0.009507674102872373,0.9897359908869706
2015-10-08,1,0.0038596741537315566,0.004303168877917233,-0.009434638079739398,0.004832910083046994,0.9901600877568028
2015-10-12,1,0.003934282538808659,0.004433708889739166,-0.009434638079739398,0.0030726173180315773,0.9885385824125734
2015-10-14,1,0.004047108600823401,0.0045874086698712065,-0.009434638079739398,0.004250298595085179,0.9888351937906034
2015-10-16,1,0.0044987763304078715,0.005061236076545509,-0.009434638079739398,0.0030367563874032708,0.9886273889257499
2015-10-20,1,0.004158788878780552,0.004638851957072949,-0.01135775854573186,0.0030367563874032708,0.987572492843778
2015-10-22,1,0.0038857651655229545,0.004307308208795884,-0.01135775854573186,0.0030367563874032708,0.9879395551657372
2015-10-26,1,0.0018236655576156805,0.001901872146341474,-0.0055903917360285394,0.0036571399083122095,0.9906696749384999
2015-10-28,1,0.0009745584689196215,0.0010344092653856306,-0.005980898996013798,0.0036571399083122095,0.9906217770531482
2015-10-30,1,0.0008504379423775513,0.0009246242779649235,-0.005980898996013798,0.0036571399083122095,0.9906647470219917
2015-11-03,1,0.00011728778097259984,0.0003055047106521701,-0.005980898996013798,0.0036571399083122095,0.9899143887001314
2015-11-05,0,-4.555841810668427e-05,0.00014570258348029093,-0.005968938078078908,0.0043886472860696244,0.9894910634231668
2015-11-09,-1,-0.0006640863133740836,-0.00044871576976342285,-0.005968938078078908,0.0043886472860696244,0.9913130966169669
2015-11-11,-1,-0.0005042335018678272,-0.0002894734418081204,-0.007812253278879451,0.0042947550971472286,0.9905421558015093
2015-11-13,-1,-0.0012820395594389503,-0.000926462599762865,-0.008624546080546233,0.007315773461043297,0.9898607736624669
2015-11-17,-1,-0.0014490213880294638,-0.0010717522921882417,-0.00822191677808425,0.007315773461043297,0.989940495559053
2015-11-19,-1,-0.0010757377425207112,-0.0007311717280749684,-0.009745888316746627,0.0042947550971472286,0.9896816937507964
2015-11-23,-1,-0.0006626232960503739,-0.00039194817806700497,-0.009745888316746627,0.006011971993273586,0.9893179961701348
2015-11-25,0,-1.1954975711374815e-05,0.0001008377535740764,-0.009745888316746627,0.007974025668767211,0.9887760353249049
2015-11-30,0,-8.848099214821845e-05,4.421313461164375e-05,-0.009745888316746627,0.009558805734808207,0.9884232220225916
2015-12-02,-1,-0.001070390312117401,-0.0008084810475610394,-0.008186034024279582,0.007198484223011167,0.9902122798072944
2015-12-04,-1,-0.0006736809954982597,-0.0004548686428283128,-0.008106583646423707,0.006124911432072472,0.9907818126024418
2015-12-08,-1,-0.0011538040503497812,-0.0008998578362795206,-0.007825737376770553,0.006124911432072472,0.9908677216134619
2015-12-10,-1,-0.0023424274541891184,-0.0019054223730612138,-0.007825737376770553,0.006124911432072472,0.9912725049867225
2015-12-14,-1,-0.0027040212756401024,-0.0021814357955456643,-0.005644189444797602,0.005660164010533465,0.991853201379295
2015-12-16,-1,-0.0016852070778314396,-0.0012951164592876693,-0.003882434432774781,0.005660164010533465,0.9928172987086673
2015-12-18,-1,-0.0020438057609598248,-0.001640487987435013,-0.0020447652699397767,0.005841909479474339,0.9921930949574123
2015-12-22,-1,-0.0009773393807052185,-0.0007627992900817348,-0.0020447652699397767,0.005841909479474339,0.9919518655168017
2015-12-24,-1,-0.0007014437475089051,-0.0004795854123013294,-0.0045658241257767115,0.005841909479474339,0.9914450156444987
2015-12-29,1,0.00017036287089514449,0.00025159264490661685,-0.0045658241257767115,0.005841909479474339,0.9909382975014548
2015-12-31,0,-4.069877510634744e-05,1.4596524382231316e-05,-0.0008807448316086211,0.007022783361404581,0.9900993380474988
2016-01-05,1,0.0005420504230114052,0.0005847002694039269,-0.0008807448316086211,0.011918242624239376,0.9897171836806098
2016-01-07,1,0.0006052782301440614,0.0006803159283646173,0.0012687232905515076,0.012885355071945891,0.9895986414974722
2016-01-11,1,0.0005915547200355544,0.0006741200812599097,0.0012687232905515076,0.012885355071945891,0.9888141471983474
2016-01-13,1,0.0007945186804108042,0.0009131066185941237,0.0003879784589428865,0.012885355071945891,0.9880049033202913
2016-01-15,1,0.0002504919719673154,0.00029343451505419935,0.0012687232905515076,0.010584082734228114,0.9888629750388261
2016-01-20,-1,-0.000531264596936719,-0.0004669516119707554,0.0012687232905515076,0.012885355071945891,0.9884400597769477
2016-01-22,1,0.00045157308374615035,0.0005183007897976462,0.0012687232905515076,0.012885355071945891,0.9889622637314888
2016-01-26,-1,-0.000880784054700595,-0.0007266514183213755,-0.001089691592359999,0.012885355071945891,0.989467507427179
2016-01-28,1,0.00026046462786139446,0.0002636596288520365,-0.004398137221144856,0.009853731887749451,0.9893898714173468
2016-02-01,1,0.0008264515664994891,0.0008959641925206605,-0.004398137221144856,0.008197556164599275,0.9905657142113355
2016-02-03,1,0.0013244170585822643,0.0014419474290427224,-0.004398137221144856,0.009664213891762634,0.9901858161934542
2016-02-05,1,0.002065754942560649,0.002301235172225857,-0.004398137221144856,0.009664213891762634,0.9902659255147823
2016-02-09,1,0.0019224484170095378,0.002188050458386051,-0.0017929425710945372,0.008573859266674182,0.9916126050365969
2016-02-11,1,0.0015323729047457702,0.001755971996034339,-0.0017929425710945372,0.008573859266674182,0.9918421762057374
2016-02-16,1,0.0013483452322744888,0.0015086815053163482,-0.0017929425710945372,0.008573859266674182,0.9916671221868675
2016-02-18,1,0.0022039535746698853,0.0025021569739100413,0.00010191358637007866,0.009571322239436717,0.9920765708162453
2016-02-22,1,0.003195405620567324,0.0036464977092785867,-0.0017929425710945372,0.008166592280490636,0.9923578543312268
2016-02-24,1,0.0035324052241888356,0.004108588895743198,0.0010978312761436226,0.008509602700001057,0.9929433535424034
2016-02-26,1,0.0028993710657295945,0.0034022239661377573,0.0007637323922452511,0.008509602700001057,0.9942437898912132
2016-03-01,1,0.003215678958230128,0.003783869918114823,0.0007637323922452511,0.009571322239436717,0.9939021923219954
2016-03-03,1,0.004170978327266924,0.004864940663684616,0.0007637323922452511,0.008509602700001057,0.9943886704220849
2016-03-07,1,0.004647615522564404,0.005392937080245821,-0.0015637724172301564,0.006810040399599552,0.9933996809565037
2016-03-09,1,0.004850221264975824,0.005620522732675784,-0.0038976900524914045,0.006810040399599552,0.9926410831791775
2016-03-11,1,0.00467550690987586,0.00545655107750477,-0.0038976900524914045,0.006810040399599552,0.9931019342771534
2016-03-15,1,0.005059405103610498,0.005896405931077148,-0.005318723048463606,0.008509602700001057,0.9919298243661524
2016-03-17,1,0.0061188405156668004,0.007099246191446951,-0.005318723048463606,0.004936677782546814,0.9918000092566825
2016-03-21,1,0.004985550658436023,0.00571442156422498,-0.0038976900524914045,0.008170379646632277,0.993038345028494
2016-03-23,1,0.005149747560123136,0.005868613959995162,-0.007716592515130004,0.007528197502311587,0.9903421035392719
2016-03-28,1,0.0049644563801908076,0.005630603998085514,-0.007716592515130004,0.007528197502311587,0.9907668667396936
2016-03-30,1,0.005041636766060905,0.0056970448332097755,-0.007716592515130004,0.007528197502311587,0.9909062832621007
2016-04-01,1,0.005216512523639996,0.005873005597610312,-0.007716592515130004,0.007178294604355248,0.9908077867414938
2016-04-05,1,0.0032786648052742975,0.0035660357555044064,-0.003569395307072185,0.007178294604355248,0.9923523924944634
2016-04-07,1,0.003045958099852927,0.0033162587186427862,-0.0034492503936623836,0.007528197502311587,0.9922409061568276
2016-04-11,1,0.0025885131630785235,0.002785855883681006,-0.0034492503936623836,0.008777464662312995,0.9914952260158927
2016-04-13,1,0.002494258383223197,0.002670235888157616,-0.0021097858656162548,0.007528197502311587,0.9926103710517675
2016-04-15,1,0.0030358061989651857,0.0033083408828650917,-0.0034492503936623836,0.007178294604355248,0.9922373877801336
2016-04-19,1,0.0034085837221857268,0.003720061985754408,-0.005697668404267494,0.004797965537297631,0.9914698700439605
2016-04-21,1,0.0012085177823128964,0.001220522832038533,-0.0034492503936623836,0.005429304145161501,0.9931508051119039
2016-04-25,1,0.0014084046528394533,0.0014190833333238625,-0.005556967232792305,0.004797965537297631,0.9927577619611443
2016-04-27,1,0.0015272817783003032,0.0015378133083081822,-0.01014738897944179,0.004208151232261672,0.9916288335371931
2016-04-29,1,0.001558452763755811,0.001574838705665688,-0.01014738897944179,0.007338909344680207,0.9913315408757803
2016-05-03,1,0.0005635399656653937,0.0007014484277307621,-0.01014738897944179,0.007454525282810263,0.9910602977721366
2016-05-05,1,0.00020551707889911793,0.0004225579124291799,-0.01014738897944179,0.007454525282810263,0.9910574935603983
2016-05-09,0,-4.578487056136724e-06,0.0002324820938094047,-0.01014738897944179,0.006364851447955838,0.9910502762455844
2016-05-11,1,0.0004305184180117044,0.000572388192222944,-0.01014738897944179,0.0067230622664551844,0.9907321099303724
2016-05-13,-1,-0.0009354840473512367,-0.0005745757341571987,-0.0068718814055503605,0.0067230622664551844,0.9907074212441095
2016-05-17,-1,-0.0012877411232783084,-0.0009082915713965385,-0.004620631425861944,0.0067230622664551844,0.9913817017151755
2016-05-19,-1,-0.0013044931907269664,-0.0009395263243552865,-0.004089026427709877,0.006364851447955838,0.9921214407421197
2016-05-23,-1,-0.0016496307840197914,-0.0012650124277818029,-0.004089026427709877,0.006364851447955838,0.9922579998428711
2016-05-25,-1,-0.002218675681550567,-0.0017522123336361848,-0.004050886215622463,0.00615166028232649,0.9935621507657549
2016-05-27,-1,-0.0018360290046764718,-0.0014236479572546266,-0.004104105952194255,0.005392801016786811,0.9940523508737744
2016-06-01,-1,-0.0016417086925892286,-0.0012374200172006336,-0.004104105952194255,0.005392801016786811,0.9936737551963312
2016-06-03,-1,-0.0018849626811499624,-0.0014272379558863387,-0.004050886215622463,0.005392801016786811,0.9928725508599161
2016-06-07,-1,-0.0029035140752680186,-0.0023315772496890477,-0.0027814811612213914,0.005392801016786811,0.9932471491314503
2016-06-09,-1,-0.002105992786776249,-0.001664745128074638,-0.004050886215622463,0.005392801016786811,0.9922945479488902
2016-06-13,-1,-0.0026774784243115387,-0.0021410797905065896,-0.004078942387125721,0.005392801016786811,0.9921571786072733
2016-06-15,-1,-0.0024877985153000113,-0.0020110147895718265,-0.0042735006800492074,0.006441243429179712,0.991500940743368
2016-06-17,-1,-0.0023869482779671587,-0.001892126135876007,-0.0042735006800492074,0.005443384364101908,0.9918892669659719
2016-06-21,-1,-0.002455981616311804,-0.002001551944552201,-0.0042735006800492074,0.005443384364101908,0.9918088694538929
2016-06-23,-1,-0.0020246152415021083,-0.001649357862233446,-0.0042735006800492074,0.011830871306559972,0.9908108381100782
2016-06-27,-1,-0.0016407970916446635,-0.0013397488938827894,-0.004900313199497804,0.011830871306559972,0.9907548963339807
2016-06-29,-1,-0.00044760263275466053,-0.0003200013690666745,-0.0064778670824645335,0.0058191781868938645,0.991112398500235
2016-07-01,1,6.488057171487403e-06,0.000110274796796929,-0.009972127290734054,0.0058191781868938645,0.9909291227541588
2016-07-06,-1,-0.000248371495443651,-8.214547342778471e-05,-0.009972127290734054,0.005376539767582454,0.9906430768761992
2016-07-08,-1,-0.0005073491910853208,-0.0003199108812538407,-0.009972127290734054,0.0013107565386797082,0.9917222791103179
2016-07-12,-1,-0.0008977131087952185,-0.0007033660458392527,-0.008211760936454622,0.002185105865484049,0.992252736949154
2016-07-14,-1,-0.00025497902905174166,-0.0001695374992778951,-0.008211760936454622,0.002107071312690374,0.9926561953934374
2016-07-18,-1,-0.0004957722621025512,-0.00035791637121330153,-0.010324509945656323,0.0013088467619082507,0.9923030411021558
2016-07-20,-1,-0.0014518646061030555,-0.001161706921563501,-0.008939790154694482,0.002107071312690374,0.9924877306852894
2016-07-22,-1,-0.00037060911679244034,-0.0002067302095967406,-0.012548138825652415,0.0013088467619082507,0.9923245530723259
2016-07-26,-1,-0.00046945562741996567,-0.0003572103427396431,-0.008939790154694482,0.002107071312690374,0.9929767440914906
2016-07-28,-1,-0.0008267357193546837,-0.0006908299903191142,-0.0057379359685817396,0.002107071312690374,0.9935196158415939
2016-08-01,-1,-0.0004328256141943799,-0.0003552214910612912,-0.0057379359685817396,0.002107071312690374,0.9934135718621814
2016-08-03,-1,-0.0012392419877409046,-0.001038678778370467,-0.004648801762273197,0.0026764558212634686,0.9937761994982968
2016-08-05,-1,-0.0017169121566848488,-0.001481101911003967,-0.004377032593090554,0.0030855820412020642,0.993902121857861
2016-08-09,-1,-0.0010557418232423435,-0.0009548021513469837,-0.004648801762273197,0.003566123734353326,0.9931312259556894
2016-08-11,-1,-0.0010954003329143834,-0.0009732647632042419,-0.006801888343435308,0.00525579688150488,0.9902276001621882
2016-08-15,-1,-0.001308786363853521,-0.0011846506891320244,-0.006841429568711823,0.009163533081455729,0.9891514702398123
2016-08-17,-1,-0.0008619403596186455,-0.0007808619560239621,-0.006841429568711823,0.009163533081455729,0.9888282548267727
2016-08-19,-1,-0.0008140364569994482,-0.0007597370381827217,-0.004648801762273197,0.008672255851087295,0.9890157196467785
2016-08-23,-1,-0.0003100001311313642,-0.0002651332745527522,-0.004648801762273197,0.009163533081455729,0.988066407287612
2016-08-25,-1,-0.0009569461167103794,-0.0008761977758888167,-0.004206639634848894,0.009163533081455729,0.9879297324854058
2016-08-29,-1,-0.0014779197674321027,-0.0013266736279513227,-0.005387063385613858,0.008672255851087295,0.9885077962046066
2016-08-31,-1,-0.0016683390362767945,-0.0014870288728914204,-0.008879659815989724,0.008672255851087295,0.9881616079452258
2016-09-02,-1,-0.0012609927975858152,-0.0011368084434360826,-0.013952855632324795,0.008385085170462749,0.9880460283474449
2016-09-07,-1,-0.001448341799117735,-0.001335018314982129,-0.013952855632324795,0.008385085170462749,0.988244768967723
2016-09-09,-1,-0.0020713802722911166,-0.001912600200356069,-0.00854036304120179,0.0066345699186072405,0.9911258229670021
2016-09-13,-1,-0.002884394596984135,-0.002547448453353935,-0.006668279907223057,0.004094828343257708,0.9922442419980534
2016-09-15,-1,-0.0018469959470397042,-0.0016464028403978224,-0.006668279907223057,0.0034972508146252795,0.9928751348413036
2016-09-19,-1,-0.0007778792309782899,-0.0007420475921493998,-0.006668279907223057,0.003092197147799264,0.9930008617581739
2016-09-21,1,7.617531192092013e-06,7.47560725080886e-05,-0.007468970406078879,0.003092197147799264,0.9934036594643394
2016-09-23,1,0.00017341222859516907,0.0002628148587779954,-0.008327600751425156,0.002518819550365231,0.9929623085179243
2016-09-27,-1,-0.0003929336710443147,-0.00036037393174671026,-0.006954490022338482,0.0034972508146252795,0.9937854333762411
2016-09-29,-1,-0.0010063654630358895,-0.0009567551280449618,-0.005926534103953352,0.0034972508146252795,0.9944575897107367
2016-10-03,-1,-0.001440812137310446,-0.0013492510930168471,-0.0036269661477321526,0.004172632266309808,0.9937729800767529
2016-10-05,-1,-0.002046512467066492,-0.0018637908067906522,-0.004927894688616497,0.004172632266309808,0.9932139887783337
2016-10-07,-1,-0.0023740762736315746,-0.0021357044107890104,-0.004927894688616497,0.004541638772834626,0.992989068765794
2016-10-11,-1,-0.0025399765610668243,-0.002270091620961903,-0.0036269661477321526,0.005693165424634873,0.9918278069420736
2016-10-13,-1,-0.0021664684826876507,-0.0019321516920176906,-0.008327600751425156,0.004568395195949353,0.9904452489288456
2016-10-17,-1,-0.00202091636075726,-0.0017777433934545277,-0.00993056422702216,0.004568395195949353,0.9903001987712113
2016-10-19,-1,-0.0017271980753787261,-0.001552321309053011,-0.012128986545443657,0.005021742065547598,0.9885612434029066
2016-10-21,-1,-0.001836939419113357,-0.0016736852687961649,-0.012128986545443657,0.005021742065547598,0.9884422591818639
2016-10-25,-1,-0.0013505942854736995,-0.0012614556035996033,-0.012128986545443657,0.00710034743731661,0.9876629807244652
2016-10-27,-1,-0.0018407753348916186,-0.0016480072258191914,-0.012597964332878062,0.011671762175055628,0.9864354570199775
2016-10-31,-1,-0.0006594132681249189,-0.0006259850934051045,-0.012597964332878062,0.011671762175055628,0.9861232459258567
2016-11-02,-1,-0.0018732184933764103,-0.001696633807389192,-0.011894617886097792,0.011671762175055628,0.9855108796298505
2016-11-04,-1,-0.0017715138904657109,-0.0016003019507994363,-0.011894617886097792,0.012999353484896784,0.9848219895277346
2016-11-08,-1,-0.00026967336195243125,-0.00024035911631449,-0.011894617886097792,0.010551237259050888,0.9856565943424618
2016-11-10,-1,-0.0021285273184329778,-0.0019122196164258107,-0.008801638325742135,0.012388854187294253,0.9863310488354466
2016-11-14,-1,-0.0020083703354153563,-0.0018154133454936863,-0.007058177580272021,0.012388854187294253,0.9864952162820941
2016-11-16,-1,-0.0013551960688362368,-0.001244833081165983,-0.007058177580272021,0.010957886366000286,0.9881407586897004
2016-11-18,-1,-0.0010928157698017642,-0.0010553930633137468,-0.006720583943105688,0.012388854187294253,0.9871647648543703
2016-11-22,1,0.00024822753720761255,0.0004348504600477012,-0.006720583943105688,0.010957886366000286,0.9885385156787793
2016-11-25,1,0.0007044199356301176,0.0009684883180091316,-0.004718299159044193,0.009120701530809254,0.990076970428513
2016-11-29,1,0.0016362301832179157,0.002009061061630239,-0.006720583943105688,0.0074087680893362515,0.9913216164414085
2016-12-01,0,-3.9593185746390205e-05,7.226357195202912e-05,-0.003922510184531713,0.009120701530809254,0.991995701909487
2016-12-05,1,0.0009470350814662836,0.001209607737939218,-0.004902924525826989,0.0074087680893362515,0.9922300515822448
2016-12-07,1,0.0009069412180476409,0.0011730469643008174,-0.003922510184531713,0.00897170031874197,0.9925155568181931
2016-12-09,1,0.0015582552129196911,0.0018906668899815434,-0.004902924525826989,0.006470901215894309,0.9927974200383279
2016-12-13,1,0.002617242075728118,0.0031517245364778737,-0.004902924525826989,0.005943003745438928,0.9925325550554509
2016-12-15,1,0.0020259652044592237,0.0024392490942448234,-0.003922510184531713,0.0073431394337020355,0.993224397363466
2016-12-19,1,0.0022183320699187417,0.0026251838580186263,-0.004379060376405608,0.0037889257076545156,0.9936513642272853
2016-12-21,1,0.0022259856702270204,0.002648082462045018,-0.006110276536619354,0.0037889257076545156,0.9932794412791958
2016-12-23,1,0.00216440558438471,0.0025568710438381125,-0.006110276536619354,0.004848454292433245,0.9931686612031925
2016-12-28,1,0.0016215604894514993,0.001904242304905447,-0.005442067299038483,0.004848454292433245,0.9933086502736732
2016-12-30,1,0.0019336440784925996,0.0022524653532025197,-0.005442067299038483,0.004848454292433245,0.9929708192593212
2017-01-04,1,0.0018594276565216908,0.0021758613697689284,-0.005442067299038483,0.0036525768493008053,0.9927325027058435
2017-01-06,1,0.0021087495026292794,0.0024292812358948927,-0.006019007696506775,0.0036525768493008053,0.9925684265977495
2017-01-10,1,0.001694855226624377,0.0019885453421724926,-0.005371316911591314,0.0036525768493008053,0.9935731465835899
2017-01-12,1,0.002008084810309026,0.0023287075986347227,-0.006019007696506775,0.0036525768493008053,0.9935218400335253
2017-01-17,1,0.002261721780737018,0.0026183145322899665,-0.006558716247740466,0.0036525768493008053,0.9931411306043952
2017-01-19,1,0.0015897152880201644,0.0018463502005625282,-0.006019007696506775,0.004211394096484187,0.9934802934337206
2017-01-23,1,0.001023336010874737,0.0011807591794014932,-0.005286302512111972,0.00443201275746857,0.9929171307278462
2017-01-25,1,0.0010731798961564735,0.0012306810602116553,-0.005286302512111972,0.00443201275746857,0.9929869334674137
2017-01-27,1,0.0009341414712008172,0.0010844509346331983,-0.0041866744588041375,0.005604861008318246,0.991958801570526
2017-01-31,1,0.0017214325530618703,0.001940693179546731,-0.005286302512111972,0.005501097661735401,0.9920634237939014
2017-02-02,1,0.0005426842332051788,0.0005488828273384632,-0.0052187737331762215,0.008215995903773194,0.992439873469259
2017-02-06,1,0.0003655990390093024,0.000376754992173675,-0.0052187737331762215,0.008215995903773194,0.9923346203105599
2017-02-08,1,0.0007972142346469366,0.0008827848380418734,-0.0061438787485917044,0.008215995903773194,0.9911256096066716
2017-02-10,1,0.0009710809318919166,0.0011072427740316565,-0.0052187737331762215,0.008988145524874412,0.9911590161470736
2017-02-14,1,0.0014242115567999398,0.0016736808116699364,-0.0041866744588041375,0.010381611660817634,0.9911607535536372
2017-02-16,1,0.0015747817898295183,0.0018390844283652041,-0.004339797278850931,0.008676855485125874,0.9907441248968469
2017-02-21,1,0.0017919576122934593,0.0020362709788749526,-0.0065647684075938375,0.008676855485125874,0.9905650289660809
2017-02-23,1,0.0011907719042088933,0.001326541333294517,-0.0065647684075938375,0.009981820591622415,0.9904065743106512
2017-02-27,1,0.001895750745264758,0.002085660019416136,-0.009116790226989281,0.008547220926022527,0.9912393874449752
2017-03-01,1,0.0012763803250704147,0.001354671185921703,-0.00833620829563831,0.007867229618752981,0.9916654683363537
2017-03-03,1,0.0013103820015906128,0.001380186482522704,-0.00833620829563831,0.007867229618752981,0.9916818180460336
2017-03-07,1,0.0007110320996619592,0.0007265071043262594,-0.006099038167147512,0.007867229618752981,0.9923085051879846
2017-03-09,-1,-9.938837282017486e-05,-5.086124250942988e-06,-0.005214679176485864,0.009894255831824844,0.9929421055993829
2017-03-13,1,0.000631859051023857,0.000647169593442052,-0.005214679176485864,0.007867229618752981,0.9932406630585345
2017-03-15,1,0.0010226302593518122,0.0010754634342123616,-0.005214679176485864,0.007867229618752981,0.9929371037825194
2017-03-17,1,0.00033254960300649957,0.0003896578440655973,-0.0041254677842461306,0.007762224389927555,0.9941104567999112
2017-03-21,1,0.0005177254141350053,0.0005425091704683119,-0.005214679176485864,0.004307578130382443,0.9941231250094695
2017-03-23,1,0.0005494259212878689,0.0005750240446229909,-0.005226718293869904,0.00321351540128615,0.9942293472220192
2017-03-27,1,0.0007328040158281952,0.0007781186022108098,-0.005226718293869904,0.004307578130382443,0.9938950012484634
2017-03-29,-1,-0.0005566976078437524,-0.0003821692782090872,-0.005146561889813323,0.004307578130382443,0.9943358857272008
2017-03-31,-1,-0.00043426761320364965,-0.0002702495227480621,-0.005423254212860114,0.00321351540128615,0.9943461848250638
2017-04-04,1,3.726105804458584e-05,9.885514872235392e-05,-0.005423254212860114,0.003456307047176137,0.9939459110208664
2017-04-06,-1,-0.00044634265649285006,-0.0002439614660998434,-0.005423254212860114,0.003281575110973602,0.9942016797111612
2017-04-10,-1,-0.0009000708005125604,-0.0006372095002877412,-0.006527417722208066,0.003281575110973602,0.9935959876307697
2017-04-12,1,0.0001581877738210455,0.00027485921052855186,-0.006527417722208066,0.001067599810732356,0.9939811441243303
2017-04-17,-1,-0.00021778840669987387,-3.69392853626126e-05,-0.006527417722208066,0.0020183206701608935,0.9938773854756914
2017-04-19,-1,-0.0007307392971394486,-0.0005260886845942984,-0.005322885855514441,0.003281575110973602,0.9944078268041208
2017-04-21,-1,-0.0007898083396847863,-0.0005859395637638505,-0.005312507160009649,0.0040584471705876176,0.9943276930334529
2017-04-25,1,4.4063160112547544e-05,9.462771559065958e-05,-0.004875912740704743,0.0039948036281769045,0.9946556883592645
2017-04-27,-1,-0.0013648571742786992,-0.0010622259059559244,-0.004449436115976972,0.00506139952640285,0.9943645927244883
2017-05-01,-1,-0.0016312399979949216,-0.0013327604341911623,-0.003912734212305064,0.00506139952640285,0.9946708192031787
2017-05-03,-1,-0.0018792231055496911,-0.0015374589513028488,-0.0028129581149819115,0.0066320697027200835,0.9937788508455825
2017-05-05,-1,-0.0011598814939008041,-0.0009507983027826402,-0.003878257809125264,0.005517459299081047,0.9940711878081312
2017-05-09,-1,-0.001645956028255823,-0.0014104035817681963,-0.0028129581149819115,0.005517459299081047,0.9944658156339533
2017-05-11,-1,-0.0020178121674271875,-0.0017215895846856735,-0.0028129581149819115,0.006698270954473523,0.9937036567518314
2017-05-15,-1,-0.0012963181439343621,-0.0011193064099116112,-0.003878257809125264,0.005902883518135352,0.9940671217203673
2017-05-17,-1,-0.0007414887951305087,-0.0006261593265409147,-0.003878257809125264,0.005229968394249574,0.9944720332805799
2017-05-19,-1,-0.0003410496386559565,-0.0002762356863232143,-0.004057281305408635,0.005053945606607712,0.9945872555893106
2017-05-23,-1,-0.00046451911158535336,-0.00037243663876943846,-0.004560891933964971,0.003505556456108881,0.994592142838097
2017-05-25,1,0.00021379689685340722,0.0002229178207987895,-0.005714236390253977,0.00292779049493649,0.9945924435873437
2017-05-30,1,0.00010513350192042063,0.00011905276987270099,-0.006614749446792978,0.003505556456108881,0.993564393304948
2017-06-01,1,0.0011054007334613334,0.0012465286227969043,-0.007869330111344715,0.0011295011342709084,0.9934378195106499
2017-06-05,1,0.000287239340741859,0.0002916689917286905,-0.007370541811675119,0.0013715499385328891,0.9939193402937277
2017-06-07,1,0.00021147873181157252,0.00022588079812092512,-0.007869330111344715,0.0013715499385328891,0.9935946931280937
2017-06-09,1,0.00015760055299369221,0.00018159012960263762,-0.007458745283336609,0.0013715499385328891,0.9944134549534167
2017-06-13,-1,-0.0004946768902241857,-0.0004071762484695169,-0.007458745283336609,0.0021082838110098425,0.9942715018514335
2017-06-15,-1,-0.00047796382971636493,-0.0003740117143908675,-0.007458745283336609,0.0021082838110098425,0.9944292521982643
2017-06-19,-1,-0.000502964190903906,-0.00040015365121669693,-0.007458745283336609,0.002376364489634979,0.9933589137089298
2017-06-21,-1,-0.0010032214594958614,-0.0008257204135811293,-0.007236970808264819,0.006319210682040688,0.9928194118153751
2017-06-23,-1,-0.0007211805915175733,-0.0006301887899989877,-0.007458745283336609,0.006319210682040688,0.9920863412598739
2017-06-27,-1,-0.0010887387468993869,-0.0009216241011349426,-0.007236970808264819,0.006319210682040688,0.9927598680073169
2017-06-29,-1,-0.0017870318519866502,-0.00153565560197463,-0.0032811062390194676,0.008176204764939871,0.9924499794553352
2017-07-03,-1,-0.0019989233321583127,-0.0017260713907897344,-0.002916393082518855,0.008176204764939871,0.9923370227031566
2017-07-06,-1,-0.0027256041479631413,-0.002362263270477648,-6.972922931196756e-05,0.009730906136844554,0.9918143652934144
2017-07-10,-1,-0.0026799246575557704,-0.0023254979811693,-0.0004007286561505725,0.009730906136844554,0.9919089371624527
2017-07-12,-1,-0.0021396622641830097,-0.0018623164533667844,-0.0004007286561505725,0.008151864013838366,0.9924279351102442
2017-07-14,-1,-0.0015817062966716092,-0.0014065017207453997,-0.0005464936857667402,0.008151864013838366,0.9927438393565187
2017-07-18,-1,-0.00048245176119164916,-0.00042360946283998425,-0.0005464936857667402,0.008184605474124407,0.9937882759138202
2017-07-20,1,0.0009212586737156949,0.0011127481273800327,-0.001585544892869461,0.007685134245834301,0.9945803873372459
2017-07-24,1,0.000416982810537502,0.0005257010479850467,-0.0005464936857667402,0.00809500522141748,0.9949301102707182
2017-07-26,1,0.0008594916619351496,0.0010415728424038161,0.00011213430509910782,0.007685134245834301,0.9954600562467443
2017-07-28,1,0.0013036591317967649,0.0015153643086200995,-0.0002699937664371541,0.006726758018827187,0.9961778505118718
2017-08-01,1,0.0008607082740463609,0.0009586112586514324,-0.000699879619859711,0.005720062814797035,0.9960073777819306
2017-08-03,1,0.0015596195747127214,0.0017799960524463006,-0.001585544892869461,0.004082535385400358,0.996147127477453
2017-08-07,1,0.001744193627828928,0.0020242816690796985,-0.0034225603675243125,0.004082535385400358,0.9957270838508125
2017-08-09,1,0.001329950465310937,0.0015317278370729503,-0.0034225603675243125,0.004082535385400358,0.9955357097543074
2017-08-11,1,0.0013837258163582455,0.0015931667559595025,-0.0034225603675243125,0.006572717754149409,0.9952078760004472
2017-08-15,1,0.002190613669129652,0.0025210353569953933,-0.006165573107136195,0.004007937703446421,0.9942794865101662
2017-08-17,1,0.0019010735403017808,0.002174665211597212,-0.004498540866643979,0.004007937703446421,0.994722031459967
2017-08-21,1,0.002040948100459251,0.002301464439510148,-0.005086945186264818,0.0030880067130115057,0.9945810063654797
2017-08-23,1,0.002398362216626978,0.002715452453852744,-0.006165573107136195,0.0018743360342156927,0.993125266018419
2017-08-25,1,0.002305293078189932,0.0026020922953276506,-0.006165573107136195,0.0038483946360478444,0.9930089416876601
2017-08-29,1,0.0023751292805279673,0.0027134265828161874,-0.007058871460012666,0.0038483946360478444,0.9928079491274442
2017-08-31,1,0.0019786352096477352,0.002248061084440688,-0.007058871460012666,0.004327720156877516,0.9931919025241993
2017-09-05,1,0.002030259710603951,0.0023540016668493454,-0.00756807340985429,0.006360328789155201,0.9931711992359126
2017-09-07,1,0.0017963898491999712,0.002088706685913418,-0.005478741861286857,0.007168923519311161,0.9927794983051403
2017-09-11,1,0.0018379085687061619,0.0020820323590103676,-0.005478741861286857,0.006792592786951392,0.9931573007964437
2017-09-13,1,0.0007085204204950965,0.0007966645844480248,-0.0008660409301346127,0.007168923519311161,0.9940000548168313
2017-09-15,1,0.0010750274455853803,0.0012203357805293377,-0.0023379456632396127,0.008122975192395819,0.9933301186748253
2017-09-19,1,0.0007047840454400596,0.0007840964512759044,-0.0009959870412302458,0.008122975192395819,0.9935029998715895
2017-09-21,1,0.0009683815868784066,0.0010458826100390372,-0.0006924411427961473,0.006925463139044693,0.9947276034051649
2017-09-25,1,0.0010433537075253498,0.0011260225932331613,-0.0005117262690393513,0.006207524522055708,0.9950213360215645
2017-09-27,1,0.000760723679225666,0.0008110927118952677,-0.00010204315185546875,0.006207524522055708,0.9953194650914582
2017-09-29,1,0.00026915815321644574,0.000322260136026338,0.00015759668935567977,0.006207524522055708,0.9951283617434136
2017-10-03,1,9.804449345457948e-05,0.00017739748940032797,0.00015759668935567977,0.0044898197964522366,0.9954032697108478
2017-10-05,1,0.0010807186362647148,0.001142015018441185,0.00015759668935567977,0.00446514177004277,0.9964786159152001
2017-10-09,1,0.0012091079807625572,0.0013139864630570019,-0.00010204315185546875,0.0056801537583155235,0.9955320981893055
2017-10-11,1,0.0018234104973182045,0.0020222185090817417,-0.00010204315185546875,0.0056801537583155235,0.9958803545598556
2017-10-13,1,0.0017305865867376874,0.001908570184717282,0.0009092375716142135,0.005167622629395197,0.996861107381825
2017-10-17,1,0.001867473192937064,0.00208016851212829,0.0012324519238877138,0.0056801537583155235,0.9959929414117527
2017-10-19,1,0.0019854826951076683,0.0022119128604581565,0.0012225935189203315,0.0055821714343744664,0.9957142067326945
2017-10-23,1,0.0023521722970749337,0.002674159541711781,0.001362992215820712,0.0055821714343744664,0.9958728099278653
2017-10-25,1,0.0022440938177090467,0.0025128165240238007,0.0010546650462816155,0.0055821714343744664,0.9955421605942674
2017-10-27,1,0.0021300000500427112,0.002368408492307235,0.000533259039745822,0.0055821714343744664,0.9955339262582522
2017-10-31,1,0.001872636590628112,0.002069567858646615,0.0011648405060880633,0.006106901212430415,0.9951258897583883
2017-11-02,1,0.0019421297288177242,0.0021264161116596224,0.000533259039745822,0.006239493147174064,0.9951966051598998
2017-11-06,1,0.0017305627962865657,0.0018916643534557073,0.00033803840958680455,0.005678872631512547,0.9957866038179944
2017-11-08,1,0.0020256558601976166,0.00221381570961235,-0.0006823088767517635,0.0032852304048902763,0.9952667166107174
2017-11-10,1,0.001879799343822739,0.0020334161088732482,-0.001545054881742874,0.005876085258228233,0.9948253554527624
2017-11-14,1,0.002608701898260806,0.002832985231625418,-0.0033188418213385895,0.0027129563470100894,0.9951388320464667
2017-11-16,1,0.00204875345663398,0.0021969546872953995,-0.0033188418213385895,0.004159263084587672,0.9953245455235638
2017-11-20,1,0.0017058153328956844,0.0017727972740029098,-0.004127739551814074,0.004159263084587672,0.9943031690436344
2017-11-22,1,0.0013868086883337958,0.0013915511266766442,-0.005027050051404028,0.004159263084587672,0.9942005819028243
2017-11-27,1,0.0009116439613716099,0.0009933044274570441,-0.005027050051404028,0.004159263084587672,0.9942665018436277
2017-11-29,1,0.0015672564391404275,0.001582495481734801,-0.005027050051404028,0.00195608402573869,0.9947045511449022
2017-12-01,1,0.0016258396426291279,0.0016334205119765658,-0.006388560308582776,0.001918042766002067,0.9943687250795608
