JNU-Tangyin/eata/results/Batch4_SP500/Batch4_SP500-CTAS.csv
Date,Action,Predicted_Q25,Predicted_Q75,Actual_Q25,Actual_Q75,RL_Reward
2010-12-14,0,0.0,0.0002465880917278002,-0.0030338064835619457,0.0057312631232780634,0.9931125391426572
2010-12-16,1,0.0011221915914574586,0.0012261345115882672,-0.0030338064835619457,0.0031454267977308907,0.9930053710550798
2010-12-20,1,0.0010206817090527274,0.0011020529596228795,-0.0030338064835619457,0.0031454267977308907,0.99278895643088
2010-12-22,1,0.0007778589614886641,0.000857181518117347,-0.0030338064835619457,0.0057312631232780634,0.992558463149193
2010-12-27,1,8.839933173489134e-05,8.959224494786091e-05,-0.0030338064835619457,0.007456812501751797,0.9926225190612947
2010-12-29,1,0.0001051146383392061,0.00011701167008177003,-0.0030338064835619457,0.009641305350981275,0.9923977942356464
2010-12-31,-1,-0.00012163030629223254,-8.575820309612564e-05,-0.00370049017177369,0.009641305350981275,0.9899066248656703
2011-01-04,-1,-0.0018424719161465217,-0.0015167452113777713,-0.000714285033089774,0.010745572683316863,0.9888209824695272
2011-01-06,-1,-0.001345054629067817,-0.0010790086106213519,-0.000714285033089774,0.009641305350981275,0.9891494859555156
2011-01-10,-1,-0.0004350275519694033,-0.00033415767332210404,-0.0008512119391578533,0.011682784186559122,0.9889309618808608
2011-01-12,-1,-0.00021769916665639215,-9.437452503440206e-05,-0.0023886574213742877,0.009641305350981275,0.9897254896640899
2011-01-14,1,0.00026451959813724075,0.0003657851174717182,-0.0023886574213742877,0.007577552030894434,0.99044940942307
2011-01-19,-1,-0.0012676424547832922,-0.0009188411106592855,-0.0023886574213742877,0.007577552030894434,0.9899100311822715
2011-01-21,-1,-0.0005730991510845141,-0.00028430520145377174,-0.0023886574213742877,0.007577552030894434,0.991123730074779
2011-01-25,1,0.0004871329089994482,0.000569144814955186,-0.0036620870633781596,0.006698685934780846,0.9891507061043646
2011-01-27,1,0.0017018644143456144,0.00184900120497648,-0.0036620870633781596,0.006698685934780846,0.9889402420908657
2011-01-31,0,0.0,0.0,-0.0036620870633781596,0.006698685934780846,0.990611236972806
2011-02-02,1,0.0005904412086039734,0.0006277724788651868,-0.0036620870633781596,0.0073015270919687975,0.9905922563654725
2011-02-04,1,0.0010872725600551724,0.001215591703410066,-0.009340671939131164,0.007031611971899358,0.9898911938567159
2011-02-08,1,0.0012985473862427916,0.0014364630771860982,-0.009340671939131164,0.007031611971899358,0.9901249652369195
2011-02-10,1,0.0014559797166514054,0.001648781048906021,-0.012381427876711317,0.008393640272717478,0.9890117556492746
2011-02-14,1,0.0009960204247100287,0.0010768246787898933,-0.014560971805289008,0.008834150541193048,0.9880193628430035
2011-02-16,1,0.0007923240933362475,0.0008679203037867617,-0.014560971805289008,0.008834150541193048,0.988237750840968
2011-02-18,1,0.0008553373797029857,0.0009209625194370426,-0.014560971805289008,0.009504741147044964,0.9880082212883502
2011-02-23,0,0.0,0.0,-0.009340671939131164,0.011018592266937407,0.9876841702743103
2011-02-25,0,0.0,0.0,-0.009340671939131164,0.009504741147044964,0.9882766010921946
2011-03-01,0,0.0,0.0,-0.007436949665806843,0.009898402161328408,0.9884106393668805
2011-03-03,0,0.0,0.0,-0.007436949665806843,0.009898402161328408,0.9886455201851272
2011-03-07,0,0.0,0.0,-0.00042296791950444145,0.009898402161328408,0.9891829725752828
2011-03-09,0,0.0,0.0,-0.0036665712898774003,0.009898402161328408,0.9886589800281342
2011-03-11,0,0.0,0.0,-0.006673047152015323,0.009898402161328408,0.988767172510978
2011-03-15,-1,-0.0003614071837814893,-0.00030967103235465587,-0.005362506248436356,0.009898402161328408,0.9894400005812267
2011-03-17,-1,-0.0008103777400687307,-0.0007039116422340533,-0.004487828980949733,0.009898402161328408,0.989782449164547
2011-03-21,-1,-0.0005319397703291594,-0.0004230119143488258,-0.005362506248436356,0.007154370471291652,0.9899593701293786
2011-03-23,1,0.001154160160671734,0.0012572011462686663,-0.005362506248436356,0.008458133893178735,0.9913806566745176
2011-03-25,1,0.0008203837500389238,0.000867210619995657,-0.005362506248436356,0.008458133893178735,0.9910421990619797
2011-03-29,1,0.0012635049992964866,0.0014018965380542677,-0.005362506248436356,0.008458133893178735,0.9909835752377958
2011-03-31,1,0.0018117677746717692,0.0020358287485977384,-0.005362506248436356,0.00718929015856168,0.9915167034757124
2011-04-04,1,0.0017029694773004831,0.0018753931317961562,-0.005362506248436356,0.00718929015856168,0.9915724887174646
2011-04-06,1,0.0019604496527338483,0.002158053154996475,-0.006007268729701673,0.006452795453994699,0.9916859565353635
2011-04-08,1,0.0011712029465846497,0.0012641270784864095,-0.004003003221569896,0.008414236647235528,0.9924179386733799
2011-04-12,1,0.0002995303717783791,0.00037046351660390963,-0.0013831410868317745,0.009580264131259812,0.9915659666833699
2011-04-14,1,0.0010141041011929842,0.001082045669073397,-0.0010292607411875444,0.008994072251604483,0.9918340937250654
2011-04-18,1,0.00010492956468160792,0.00020112554712703207,-0.0010292607411875444,0.008994072251604483,0.9921603175802628
2011-04-20,1,0.001222113713329946,0.0012822432368664956,-0.0010292607411875444,0.007382568693351332,0.9932576893950672
2011-04-25,1,0.00044406764398111727,0.0005128799687767897,-0.0010292607411875444,0.007382568693351332,0.9929796080830802
2011-04-27,1,0.0018235956715731637,0.0020288774913872726,-0.0010292607411875444,0.006930338914055391,0.9934627309271908
2011-04-29,1,0.0017100249993962648,0.0018792611980427494,-0.0010292607411875444,0.007954250488353205,0.9931441064525172
2011-05-03,1,0.001733548469353867,0.0019173166326201911,-0.001717127428645857,0.008310396661344702,0.9912245244254774
2011-05-05,0,0.0,0.0,-0.001717127428645857,0.008310396661344702,0.9911166664778385
2011-05-09,0,0.0,0.0,-0.0026720463735413176,0.007098697647029832,0.9916927250592004
2011-05-11,0,0.0,0.0,-0.004605607775405468,0.006666100107933479,0.9925719277846415
2011-05-13,0,0.0,0.0,-0.005152741174286532,0.006577426827657858,0.9925487622468595
2011-05-17,0,0.0,0.0,-0.005152741174286532,0.006666100107933479,0.9913191347607447
2011-05-19,0,0.0,0.0,-0.005152741174286532,0.006499434728213771,0.9917975274165913
2011-05-23,0,0.0,0.0,-0.0028544241731683385,0.007947924786788432,0.9917534895066523
2011-05-25,1,0.0006422451776888559,0.0008209686063716583,-0.006341782241827652,0.007155208368422697,0.9915835578540847
2011-05-27,1,0.0016030890683844112,0.0017022493325490775,-0.00676512079886993,0.0064443561161966825,0.9912243401826579
2011-06-01,1,0.0012183333039680559,0.001280831250672536,-0.006341782241827652,0.0064443561161966825,0.9927209458522727
2011-06-03,1,0.0008936219110558495,0.0009126264640379439,-0.005152741174286532,0.00833337691347974,0.9913232312366198
2011-06-07,1,0.0011315429891221996,0.0012031022622653767,-0.005152741174286532,0.00833337691347974,0.9913057617387927
2011-06-09,0,0.0,0.0,-0.005187400698827522,0.009776492311140634,0.9902230930703831
2011-06-13,0,0.0,0.0,-0.008580494711603246,0.009776492311140634,0.9889134413557559
2011-06-15,0,0.0,0.0,-0.011194682454770748,0.00833337691347974,0.9890064494574085
2011-06-17,0,0.0,0.0,-0.012742599847277516,0.00833337691347974,0.987949183944877
2011-06-21,0,0.0,6.862895377704911e-12,-0.012742599847277516,0.01248550108899764,0.9839504238556508
2011-06-23,0,0.0,0.0,-0.012742599847277516,0.01248550108899764,0.9833427889539071
2011-06-27,1,0.025255490611708,0.02783853815503231,-0.013922774617658071,0.01248550108899764,0.9703017427744419
2011-06-29,1,0.0008881809788344002,0.0009471841687969569,-0.017002537390092377,0.009458482453447395,0.9822513624400323
2011-07-01,1,0.0017729163408172956,0.0019617241759105576,-0.017002537390092377,0.000930262958694284,0.9830369622802928
2011-07-06,1,0.0015986905704866708,0.0017550111287094167,-0.01886216514423264,0.00630835548309393,0.9814107797714399
2011-07-08,1,0.0014298125056519814,0.0015636795664575954,-0.01933897523874127,0.000930262958694284,0.9801797623442594
2011-07-12,1,0.0005305904149984922,0.0005354277517466254,-0.020621149679851878,0.00630835548309393,0.9767550052195952
2011-07-14,-1,-0.0001959154057287297,-0.0001150954282335709,-0.022111723276109208,0.008926756464471029,0.9732174719357111
2011-07-18,-1,-0.0017983867872825255,-0.0014518515953989403,-0.01843099860879308,0.01504425934369038,0.9727452752433103
2011-07-20,1,0.0012078655838133486,0.001237598160371253,-0.01843099860879308,0.008926756464471029,0.9772349918793254
2011-07-22,1,0.00122811439213504,0.0012337619232821039,-0.03054570843663848,0.0020494851571827375,0.9747922734217811
2011-07-26,1,0.000809226559754278,0.000827603856847716,-0.03054570843663848,0.015508263687011768,0.9739411646876774
2011-07-28,-1,-0.0003614075691692264,-0.0001739487530556178,-0.021426683271466282,0.01894897256466366,0.9738460844273232
2011-08-01,-1,-0.0007080499567503168,-0.0004921704069122062,-0.021426683271466282,0.02062893700946887,0.9722702790491576
2011-08-03,-1,-0.0016827006666140629,-0.0013368353154828033,-0.015015812596976633,0.02062893700946887,0.9736741610087333
2011-08-05,-1,-0.003324355661189056,-0.002772900398106205,-0.015015812596976633,0.02062893700946887,0.9743114984912784
2011-08-09,-1,-0.0045896884613752745,-0.0038741822605821794,-0.015015812596976633,0.02062893700946887,0.9772914799892793
2011-08-11,-1,-0.0032351274959503853,-0.0027090685762942933,-0.015015812596976633,0.019585971864824588,0.9816260041704582
2011-08-15,-1,-0.0014334573139464786,-0.0011857139056296031,-0.015015812596976633,0.015815570874410077,0.9822975897264522
2011-08-17,-1,-0.0017679136442528315,-0.001469875705438303,-0.015015812596976633,0.015815570874410077,0.9811256860671774
2011-08-19,-1,-0.003426886070193553,-0.002945415174152007,-0.014370742777093451,0.015815570874410077,0.9829131041015822
2011-08-23,-1,-0.0016772272995390235,-0.0014256364141536524,-0.01553323980948991,0.012158422571688735,0.9835481344814601
2011-08-25,-1,-0.0013985422832271457,-0.0011905187325004164,-0.016054308726316236,0.01124989583144083,0.9835196658641697
2011-08-29,1,0.0003382176120277664,0.0003546942412707742,-0.016054308726316236,0.010864703064116995,0.9846858181954786
2011-08-31,1,0.00028540071610430427,0.0003165661392324949,-0.018783538251593054,0.01124989583144083,0.98364957277479
2011-09-02,-1,-0.0010396032819806893,-0.0008390072818426842,-0.020025803729579097,0.01124989583144083,0.9823229303224392
2011-09-07,-1,-0.000530033778079022,-0.0003968234479684296,-0.020025803729579097,0.012158422571688735,0.9824428593962513
2011-09-09,-1,-0.001873642167007162,-0.0015664901442981206,-0.016349371589172008,0.013086969158540789,0.9830075736706202
2011-09-13,-1,-0.0005866121767599151,-0.0004773332736999795,-0.016349371589172008,0.014541394747967073,0.9826222633592697
2011-09-15,-1,-0.00012422365465039484,-4.860784323975094e-05,-0.016349371589172008,0.016986666165796166,0.982504140369095
2011-09-19,-1,-0.0004203672701779482,-0.0003347716539613964,-0.0208408493111305,0.016986666165796166,0.9816987086587459
2011-09-21,-1,-0.0017640403448221922,-0.001526485260285984,-0.014823361638845577,0.016986666165796166,0.9828638093193556
2011-09-23,-1,-0.0030068345184564907,-0.0026251580058276993,-0.008528996414822928,0.016986666165796166,0.9836782024615247
2011-09-27,-1,-0.002707810884294348,-0.002332175553742082,-0.012299642695517365,0.017261949173352425,0.9830983254391532
2011-09-29,0,0.0,0.0,-0.008528996414822928,0.01977143909897415,0.983084490992556
2011-10-03,0,0.0,0.0,-0.007610430425415901,0.01977143909897415,0.9854272448859103
2011-10-05,0,0.0,0.0,-0.008528996414822928,0.016229765791504116,0.9839930692707324
2011-10-07,0,0.0,0.0,-0.007610430425415901,0.019551052323164647,0.9841758077991356
2011-10-11,-1,-0.0022885652765116914,-0.002160089174560952,-0.007610430425415901,0.016229765791504116,0.9848660832711881
2011-10-13,-1,-0.0022887804714122103,-0.0021456781014900566,-0.009524200743852558,0.014454071098919847,0.9839478221770672
2011-10-17,-1,-0.002666022848795994,-0.0024963962091646744,-0.008536182794846931,0.01636336100719589,0.9840251303109012
2011-10-19,-1,-0.002202619553945813,-0.002118044283032184,-0.008283381007055031,0.01636336100719589,0.9847322676638672
2011-10-21,-1,-0.0015593955377831289,-0.001498860730050381,-0.008283381007055031,0.01861966446732556,0.9848706607271542
2011-10-25,-1,-0.00134911737093468,-0.0012842970958035916,-0.010201369376059609,0.007834512655488369,0.9849626976605699
2011-10-27,-1,-0.00046384931784940425,-0.0004055143738740768,-0.011543052488769948,0.0038690631122889033,0.9854147735515998
2011-10-31,0,0.0,0.0,-0.010428897820154812,0.011317042851339816,0.9839381757607569
2011-11-02,0,0.0,0.0,-0.010159323802856439,0.011317042851339816,0.985025565509495
2011-11-04,0,0.0,0.0,-0.010159323802856439,0.007694270005887764,0.9854660649124145
2011-11-08,0,0.0,0.0,-0.010428897820154812,0.007694270005887764,0.9849203335507278
2011-11-10,-1,-0.00037729119919528427,-0.0003733438196481503,-0.010428897820154812,0.011317042851339816,0.984335612292668
2011-11-14,-1,-0.00021505611903335995,-0.00020241465659829358,-0.010829909440905002,0.007694270005887764,0.9852313600370279
2011-11-16,1,0.00010951640467666345,0.00016365418154611324,-0.012285970440128823,0.011317042851339816,0.9833524129143341
2011-11-18,1,0.00023098618778135812,0.0003119834946351194,-0.012285970440128823,0.007694270005887764,0.9840473189167097
2011-11-22,1,0.00017306404860500723,0.0003226400255856241,-0.010829909440905002,0.022513087087908765,0.9806855651972013
2011-11-25,-1,-0.00046013670043368153,-0.00043045100410895736,-0.004478539268772499,0.02580333432695494,0.980607471658477
2011-11-29,1,0.0005089029305761588,0.0006613784066891286,-0.006232141314460078,0.02098591141532405,0.9828258406647185
2011-12-01,1,0.0006942040978981457,0.000823633464876584,-0.008214118834462865,0.017313508212393337,0.9839858445327201
2011-12-05,1,0.0005517240985823525,0.0006288605594477012,-0.008214118834462865,0.02098591141532405,0.9823461255724077
2011-12-07,-1,-0.00010579219439432866,-7.600979250343714e-05,-0.004789617838676836,0.022502956847984333,0.9820537417978257
2011-12-09,1,0.002060627993209484,0.0024673882486515837,-0.0024964172173737777,0.020394844146528753,0.9845094297721901
2011-12-13,0,0.0,0.0,-0.0041950841709349354,0.020394844146528753,0.9837429807285832
2011-12-15,0,0.0,0.0,-0.0020015471793444015,0.018010566924298626,0.9855186620530556
2011-12-19,0,0.0,0.0,-0.0020015471793444015,0.018010566924298626,0.9852928270705864
2011-12-21,0,0.0,0.0,-0.0041950841709349354,0.01337832456309566,0.990274326830113
2011-12-23,1,0.0038448736127195474,0.004518776067548108,-0.0021989332401012524,0.008279854703070612,0.9914636347843447
2011-12-28,1,0.0029199481503078685,0.003385967243495969,-0.0016011651790712581,0.008279854703070612,0.9920341876842684
2011-12-30,1,0.002019515860505523,0.002323671376338893,-0.0016011651790712581,0.005543821461797757,0.9926884976493354
2012-01-04,1,0.003195329580706257,0.003723070358598855,-0.002993938170115504,0.0035375068201126546,0.9927415200550623
2012-01-06,1,0.003960367284319515,0.004638472667042299,-0.002993938170115504,0.003474038850359594,0.992616422530185
2012-01-10,1,0.004280187003105363,0.004992068985243845,-0.002993938170115504,0.003257244718070992,0.9928564192731062
2012-01-12,1,0.0029729740624866714,0.0034056345268425174,-0.0016011651790712581,0.003257244718070992,0.9938740134445058
2012-01-17,1,0.003508820252156928,0.0040751174699783545,-0.0027747183240730616,0.003257244718070992,0.9928621605775381
2012-01-19,1,0.0035344645406184547,0.004118698485696732,-0.004633886645534117,0.003257244718070992,0.9919750639358997
2012-01-23,1,0.0037158690031472365,0.004377546334305355,-0.0027747183240730616,0.003257244718070992,0.9925990474561601
2012-01-25,1,0.0038291410720008084,0.004525330206388316,-0.004418557354051153,0.003257244718070992,0.9924608925900102
2012-01-27,1,0.0032618456727170116,0.0038189338263622218,-0.004418557354051153,0.004718888561916464,0.9926962672791404
2012-01-31,1,0.003163186077720628,0.0037260219759152257,-0.004418557354051153,0.004718888561916464,0.993007790272539
2012-02-02,1,0.0027912843256912012,0.0032438632315579625,-0.004418557354051153,0.004718888561916464,0.9937622639752417
2012-02-06,1,0.0032828539386623745,0.0038291789567977855,-0.0061584698005804255,0.003983249855330982,0.9930099596419492
2012-02-08,1,0.0035181789301001335,0.004117476796743465,-0.0061584698005804255,0.006224010768209367,0.9913783611061922
2012-02-10,1,0.0031124154333638304,0.0036338861093624217,-0.004418557354051153,0.006224010768209367,0.9921649884127542
2012-02-14,0,0.0,0.0,-0.0061584698005804255,0.006224010768209367,0.9918629971726267
2012-02-16,0,0.0,0.0,-0.003051991630541353,0.006224010768209367,0.9920688717404739
2012-02-21,0,0.0,0.0,-0.003051991630541353,0.006224010768209367,0.9919679421836701
2012-02-23,0,0.0,0.0,-0.0035677648937485302,0.007219013837614817,0.9903321519025137
2012-02-27,0,0.0,0.0,-0.006168176089020515,0.010382831235063813,0.9899307467957884
2012-02-29,1,0.0010522031567841068,0.0010878158879594007,-0.006610835520146932,0.010382831235063813,0.9901707629503487
2012-03-02,1,0.0007349459285637616,0.0008080407995278616,-0.006199652687311942,0.010382831235063813,0.9905479090578676
2012-03-06,0,0.0,0.0,-0.0019541060431796592,0.010382831235063813,0.9911347462031127
2012-03-08,0,0.0,0.0,-0.006012816528096222,0.005225983817744533,0.9929536298147255
2012-03-12,0,0.0,0.0,-0.008543322787926869,0.005225983817744533,0.991613057742733
2012-03-14,0,0.0,0.0,-0.007571631477444718,0.006588841024295947,0.9914753570133267
2012-03-16,0,0.0,0.0,-0.007571631477444718,0.004117419997054326,0.9920887808244807
2012-03-20,0,0.0,0.0,-0.007571631477444718,0.005719827466750307,0.9912483048054322
2012-03-22,0,0.0,0.0,-0.006012816528096222,0.004087237454727018,0.993032517006288
2012-03-26,1,0.001078059655233224,0.0010926470449219349,-0.007571631477444718,0.003972558583790841,0.9927873353381843
2012-03-28,1,0.00022662246421997512,0.00032246383491373146,-0.0057241867049740505,0.004367708743279871,0.993354969620999
2012-03-30,1,0.00018098669026666333,0.00026881244350143566,-0.005463477548250852,0.004501728392105531,0.9932087520140065
2012-04-03,1,0.00025010594197351756,0.00032497755565506965,-0.005463477548250852,0.0048470021445980544,0.9930459678395426
2012-04-05,-1,-0.0005113957465150667,-0.00031872671767384036,-0.004719064240711573,0.0048470021445980544,0.9930066624049517
2012-04-10,-1,-0.001357022138757595,-0.001069015507703597,-0.0034234887339748064,0.0048470021445980544,0.9940456003274806
2012-04-12,-1,-0.0008585238188270384,-0.0006313326358680898,-0.004001847750170391,0.004367708743279871,0.9945792353706617
2012-04-16,-1,-0.0008863298250061343,-0.000652749235318784,-0.004001847750170391,0.004367708743279871,0.9942550729786138
2012-04-18,-1,-0.00126091491975334,-0.00093259284844193,-0.00501189128840669,0.003334169373508812,0.9948752769250925
2012-04-20,-1,-0.0021401163486641315,-0.0016399941367583701,-0.007850475256045429,0.003334169373508812,0.9935643987478417
2012-04-24,-1,-0.001962176386203801,-0.00153281738802237,-0.006693947991350298,0.004203153014225121,0.9929733170788485
2012-04-26,-1,-0.001483157728622958,-0.0011457714469076926,-0.006693947991350298,0.004325515950808452,0.9928507744738465
2012-04-30,-1,-0.0014810336575639199,-0.001152798843217799,-0.007850475256045429,0.004325515950808452,0.9925663615093042
2012-05-02,-1,-0.0017348812559912173,-0.0013434278251551412,-0.008831505217590485,0.003334169373508812,0.9923234554376855
2012-05-04,-1,-0.0019413935228506127,-0.0015318725837464586,-0.010895846984603795,0.003334169373508812,0.9909451600546361
2012-05-08,-1,-0.0022184180623764566,-0.001754924660165783,-0.010895846984603795,0.00452412170079486,0.9905194751406096
2012-05-10,-1,-0.0028313804251074125,-0.0023023185431651997,-0.008831505217590485,0.005894074354905336,0.9907552941721458
2012-05-14,0,0.0,0.0,-0.008831505217590485,0.006990845547485443,0.9899056573038181
2012-05-16,0,0.0,0.0,-0.00755876738979001,0.007571848088442691,0.9898979671954246
2012-05-18,-1,-0.0028983704898548476,-0.002434773042059193,-0.005628655680888677,0.008369475870787211,0.990472868091515
2012-05-22,-1,-0.0023902975516554075,-0.001975410495491786,-0.006609158352193422,0.008369475870787211,0.9911822124538648
2012-05-24,-1,-0.0021742548262312996,-0.001785120755653793,-0.006824294195620554,0.007571848088442691,0.9906702197181231
2012-05-29,-1,-0.0015556522429787832,-0.0012993190221389735,-0.006824294195620554,0.006834555242486757,0.9905955459378001
2012-05-31,-1,-0.0016145205372940048,-0.0013859605745547223,-0.006609158352193422,0.00995647758988969,0.9896410005152279
2012-06-04,-1,-0.002170978832137432,-0.0019028638564475221,-0.005628655680888677,0.01179561586861113,0.9884034827359066
2012-06-06,-1,-0.002231348484059704,-0.0019363238396542474,-0.0018506859527005369,0.01179561586861113,0.9886869174113638
2012-06-08,-1,-0.0018607784987236167,-0.0016146385680747086,-0.006609158352193422,0.01179561586861113,0.9888143985881518
2012-06-12,-1,-0.0014435626395651597,-0.0012599213471533987,-0.0018627670256097881,0.009976141129238367,0.9897142130437045
2012-06-14,-1,-0.0015635215771563015,-0.0013539395494739674,-0.0018627670256097881,0.011808767940557546,0.9889291911126334
2012-06-18,0,0.0,0.0,-0.00842148241177706,0.009976141129238367,0.9879689398034284
2012-06-20,0,0.0,0.0,-0.00842148241177706,0.005499339789701735,0.9885351295647408
2012-06-22,0,0.0,0.0,-0.008034492006807567,0.005001711586902707,0.9890719099585739
2012-06-26,0,0.0,0.0,-0.003638060294506783,0.005001711586902707,0.9899019834587947
2012-06-28,0,0.0,0.0,-0.003638060294506783,0.00710441131275868,0.9892685228171764
2012-07-02,0,0.0,0.0,-0.003638060294506783,0.003648954544829598,0.9913205016192723
2012-07-05,1,0.0006221380708320318,0.00067730509018973,-0.003638060294506783,0.004312846400950589,0.9913139828490134
2012-07-09,1,0.0006006154828862199,0.0006702668488171002,-0.0023737706926895497,0.005010950872029083,0.9910626265038457
2012-07-11,1,0.0008120626943148989,0.0009309101586106204,-0.0024668749850938676,0.005086107436390838,0.9908739883660475
2012-07-13,1,0.0013499314971082742,0.0015350306475979784,-0.002404491287886005,0.004486143884987493,0.9920866975023386
2012-07-17,1,7.056858309504311e-05,8.390459825787538e-05,-0.0023737706926895497,0.004486143884987493,0.9939501114730686
2012-07-19,-1,-6.518167880654289e-05,-5.8050834346891355e-05,-0.002404491287886005,0.00526365080916329,0.9931916728595864
2012-07-23,-1,-0.00036142730176865834,-0.0003249127556274559,-0.0012520361238695823,0.005588684162880423,0.9934156425216836
2012-07-25,-1,-0.0006731151843928107,-0.0005881513617188837,-0.00251092614939875,0.005588684162880423,0.9929775136740424
2012-07-27,1,0.0003537961636645936,0.00036029923295193304,-0.0028786726913616494,0.004772031708998989,0.9946421463934169
2012-07-31,1,0.0011744502925164478,0.0013691820950409435,-0.00371295620199954,0.004772031708998989,0.9944271629993586
2012-08-02,1,0.0015408622142428913,0.001784202697152426,-0.004721135529533538,0.004486143884987493,0.9941502811855569
2012-08-06,1,0.0016515212361023202,0.0019116529554888968,-0.004721135529533538,0.0038872930123488732,0.9946715757335461
2012-08-08,1,0.0020265687536064505,0.0023653958611692485,-0.004721135529533538,0.004772031708998989,0.9936738772662055
2012-08-10,1,0.0022931182969107575,0.0026827253763611336,-0.004721135529533538,0.004054818587845402,0.9934510096468915
2012-08-14,1,0.0016284291595877864,0.0019011280433940654,-0.004721135529533538,0.005312728403700791,0.993470430102755
2012-08-16,1,0.0018462049677154615,0.002142768775498704,-0.005486884461650435,0.005312728403700791,0.9934650840978753
2012-08-20,1,0.0018989748181196175,0.0021860419365628964,-0.006708862326941502,0.006046683008695152,0.992864245013474
2012-08-22,1,0.001431415968756275,0.0016462812958672906,-0.0056298279068700986,0.006046683008695152,0.993129460233223
2012-08-24,1,0.0015995592619820463,0.0018443473846977581,-0.005886248123912092,0.006046683008695152,0.9922977844862189
2012-08-28,1,0.0010561003035711128,0.001213865778043141,-0.005306994606794608,0.006046683008695152,0.9925790910260087
2012-08-30,1,0.000566147877250621,0.000606454173891015,-0.00422379559172019,0.006880710069113069,0.9923900572598602
2012-09-04,1,0.0009476623110114724,0.0010809304369140188,-0.00422379559172019,0.009028640432606884,0.9920461008726806
2012-09-06,1,0.00191357388841087,0.0021594822928135116,-0.00422379559172019,0.006880710069113069,0.9933356205140613
2012-09-10,1,0.0017965100137061277,0.0020729523808691967,-0.004211253790233397,0.006880710069113069,0.9935632775063574
2012-09-12,1,0.00217810653681513,0.0024876664533428606,-0.005306994606794608,0.0067463344949179865,0.9929668116494453
2012-09-14,1,0.0018348367014625858,0.002089118710177564,-0.004363867146114583,0.006283598019588076,0.9937272091226483
2012-09-18,1,0.0019368132100432056,0.0022097525433304828,-0.0038979460603219968,0.004604582865270492,0.9944447659204273
2012-09-20,1,0.001571372261978738,0.0017915810340081947,-0.0018493291566168734,0.004770234801828482,0.9948602198535484
2012-09-24,1,0.0019180970843382771,0.0021983956040343994,-0.0018493291566168734,0.0041027927632648654,0.9955974903550592
2012-09-26,1,0.001380247332520448,0.001571670668986308,-0.0038979460603219968,0.0041027927632648654,0.9949688257333204
2012-09-28,1,0.0016887371116733742,0.0019298318278682313,-0.0019002002752439354,0.003520244094622384,0.9955981341952573
2012-10-02,1,0.0018671950392225175,0.0020948380442661276,-0.0019002002752439354,0.003520244094622384,0.995298423383142
2012-10-04,1,0.0017590177721079827,0.0019596911657515322,-0.005652904196373577,0.003520244094622384,0.9941479729228515
2012-10-08,1,0.0013347499794812102,0.0014470927246179252,-0.007435150423796606,0.0041027927632648654,0.9933694168002799
2012-10-10,1,0.00040312067581461513,0.0004687549780422252,-0.006791477696187931,0.003520244094622384,0.9935452887078736
2012-10-12,1,0.0007510507419395129,0.0007644395513095216,-0.006791477696187931,0.003520244094622384,0.9935955242981369
2012-10-16,1,0.0010328282305604609,0.0010943053490769968,-0.011790689860321687,0.0027158524288865803,0.9923582395272088
2012-10-18,1,0.001015180844931933,0.0010634431315671186,-0.011790689860321687,0.0036531897723651413,0.9918044670656452
2012-10-22,1,0.0005288859398785322,0.0005691600742125855,-0.00986455686104017,0.006225812064777574,0.991907575625894
2012-10-24,-1,-0.0010359335010197617,-0.0007555983903805606,-0.006791477696187931,0.007189205131568941,0.9924531412801824
2012-10-26,-1,-0.0009076570040519126,-0.0006413053279161494,-0.006791477696187931,0.007189205131568941,0.9924079346461037
2012-11-01,1,0.00011312619886953468,0.00024402031899558506,-0.006791477696187931,0.0071056130330945134,0.9923713929017735
2012-11-05,-1,-0.0005342095462737095,-0.0003412733497223586,-0.004227731619320933,0.00830743782459105,0.9929458898712783
2012-11-07,-1,-0.000835694136530308,-0.0005940864966038742,-0.0030602458367340094,0.008484959107026924,0.9933374580928525
2012-11-09,-1,-0.001410267989827393,-0.0011193562679762902,-0.002518094192453352,0.008484959107026924,0.9933731986882819
2012-11-13,-1,-0.0014776710982586606,-0.0011842900008341675,-0.0031233970979892504,0.008484959107026924,0.9932852672035039
2012-11-15,-1,-0.002783355030046351,-0.002312683267289263,-0.0023372375310124114,0.008484959107026924,0.9939667255812273
2012-11-19,-1,-0.0024648427005541157,-0.002002860131661319,-0.0023372375310124114,0.009701019212906494,0.9937750167121964
2012-11-21,-1,-0.0016096542069269915,-0.0013108566693395747,-0.0028408863139401702,0.008484959107026924,0.9941781057553805
2012-11-26,-1,-0.00033907550940665053,-0.00026913721846497053,-0.003773328403910785,0.008032326711085653,0.993424957488501
2012-11-28,-1,-0.0002549508809679907,-0.00019730028040111641,-0.004371971274182356,0.008032326711085653,0.9929045361041715
2012-11-30,1,0.00014981352958792258,0.00017903212444823723,-0.005221398730991625,0.008032326711085653,0.9926410389734742
2012-12-04,1,0.00043746846707307975,0.00044387836075307914,-0.005221398730991625,0.008032326711085653,0.9915714512974705
2012-12-06,1,0.0011332279694614331,0.0012756497509227105,-0.005221398730991625,0.00843713044436624,0.9913744558778147
2012-12-10,-1,-0.0004276881670191512,-0.0002528306699413583,-0.004371971274182356,0.00843713044436624,0.9918449466798736
2012-12-12,-1,-0.0009129489136434755,-0.0006706765923468787,-0.003773328403910785,0.00843713044436624,0.992059716715985
2012-12-14,-1,-0.0014750475545533906,-0.0011435311454704687,-0.005171649345110569,0.00843713044436624,0.9917483304296915
2012-12-18,-1,-0.0005886718385082472,-0.00035157442901439216,-0.007726246642718064,0.005123130762158515,0.9921885653656607
2012-12-20,1,0.0005492412919166773,0.0005714158626117042,-0.007726246642718064,0.005283164171630419,0.9919952137797592
2012-12-24,-1,-0.0007274103148849164,-0.0005655583097801216,-0.006318613691358326,0.005283164171630419,0.9932234920168912
2012-12-27,-1,-0.001194707256201395,-0.0009960336892262367,-0.002232024654543887,0.005283164171630419,0.9937561148514038
2012-12-31,-1,-0.0006076150680853192,-0.0005094071728136873,-0.002232024654543887,0.005144907221412513,0.9942952781199209
2013-01-03,1,0.0004636879725691403,0.0004993628182899145,-0.002875431239883918,0.004556584392623488,0.9954521501410053
2013-01-07,1,0.0008303171864000342,0.0009208446658975867,-0.004291866677772674,0.004556584392623488,0.9948701416243544
2013-01-09,1,0.0007243979624301749,0.0007825255525491327,-0.00515065991091853,0.005144907221412513,0.9942905389402136
2013-01-11,1,0.0007708427698089641,0.0008546593843740285,-0.00515065991091853,0.006503190222688572,0.9940566509290667
2013-01-15,1,0.0006969373586660709,0.0007824492138160588,-0.004058066728787555,0.006503190222688572,0.9941001847277003
2013-01-17,1,0.00034027561771482977,0.0003498310754210877,-0.0028399488452343037,0.006841188311435072,0.9934535214645956
2013-01-22,1,0.00076930543601646,0.000835648488846101,-0.004058066728787555,0.006444960291430476,0.9934659005238448
2013-01-24,1,0.00011734524490339404,0.0001571651967263402,-0.004058066728787555,0.007113154811798412,0.9929490213916585
2013-01-28,1,1.4812281879549114e-05,7.383779609029537e-05,-0.005268814252600721,0.007113154811798412,0.9916025779120623
2013-01-30,0,-6.271875886687555e-05,8.997352265415062e-06,-0.004058066728787555,0.008810102547563647,0.9916184669531518
2013-02-01,1,0.0006475656210206958,0.0007304507524432194,-0.003126213256282922,0.008810102547563647,0.9917983115789546
2013-02-05,1,0.0006697647733045975,0.0007320315008096552,-0.002807122524244567,0.007113154811798412,0.9925048815804706
2013-02-07,1,0.0011369671294476317,0.001293753624733769,-0.002515904883137041,0.006830722322247578,0.9927854710347942
2013-02-11,1,0.0012130241191692231,0.0013684293830718108,-0.002807122524244567,0.006545890688677789,0.9929419317077336
2013-02-13,1,0.0011821707066095755,0.0013249015221525385,-0.0027936963863155156,0.006830722322247578,0.9928180360083012
2013-02-15,1,0.002095615171328694,0.002338012877548503,-0.0027936963863155156,0.006691571662615464,0.993149922202987
2013-02-20,1,0.0013740967223019036,0.0015431484529708308,-0.0027936963863155156,0.007714812740272389,0.9911444572629962
2013-02-22,1,0.001140445293768386,0.0012584566173003526,-0.0027936963863155156,0.006691571662615464,0.9910442789299369
2013-02-26,1,0.0007070742624486876,0.000782188558858792,-0.0027936963863155156,0.007040981928374352,0.9918260528560106
2013-02-28,1,0.0011972449385141126,0.0013674013407216515,-0.0027936963863155156,0.007040981928374352,0.9917314824017083
2013-03-04,1,0.00114924210488361,0.0013144441582884463,-0.003806751864432372,0.007040981928374352,0.9917254614025491
2013-03-06,1,0.0010199932882160026,0.0011637029835141078,-0.002422542712137159,0.007040981928374352,0.992042181305598
2013-03-08,1,0.00135224168365531,0.0015198734511837285,-0.0043639577206835275,0.0074470193235906396,0.9919422001518847
2013-03-12,1,0.0010069425340825397,0.0011271306106916108,-0.002422542712137159,0.008932924925921251,0.9912698054043206
2013-03-14,1,0.001444179725952344,0.0016312236089530813,-0.0017572843480721128,0.008528306057466897,0.9913032168545277
2013-03-18,1,0.002349166992559517,0.002655992994337907,-0.0043639577206835275,0.008528306057466897,0.9900754870960035
2013-03-20,1,0.001532755878531735,0.0017275294404837755,-0.0043639577206835275,0.007325816401104355,0.9915576390543841
2013-03-22,1,0.0001610058844329105,0.0001889131073769976,-0.0017572843480721128,0.008528306057466897,0.9915441123963055
2013-03-26,1,0.0002012540730847578,0.0002138878771983249,-0.0013509908668472047,0.008528306057466897,0.9918666056258573
2013-03-28,1,0.0012497861576828493,0.0014198360495706508,-0.003086635912714795,0.0070381386349224195,0.9924455403354612
2013-04-02,1,0.0005485366879273125,0.0005862592256362337,-0.0013509908668472047,0.0070381386349224195,0.9924560216825626
2013-04-04,1,0.0005402743143427468,0.0005672434172512236,-0.003145077277008803,0.008528306057466897,0.9913564186287733
2013-04-08,1,0.00022775063146418645,0.0002779594190171652,-0.0027837341144927603,0.008679808114188694,0.9911151827436023
2013-04-10,1,0.0010260398853089371,0.001068028762557055,-0.0027837341144927603,0.0070381386349224195,0.9920693581423032
2013-04-12,1,0.0006225520761433796,0.0006745625323135024,-0.004210161508286824,0.005200579766335698,0.9920048039484941
2013-04-16,1,0.0004582845275063266,0.000501230608746166,-0.003539680474523863,0.005200579766335698,0.99380231874971
2013-04-18,-1,-0.00024345668761869893,-0.0001194402012209563,-0.0032528692180253506,0.005403909474904756,0.994122850036107
2013-04-22,1,0.0001602480903403695,0.0002271448181126255,-0.0032528692180253506,0.005403909474904756,0.9942854383977674
2013-04-24,1,0.00026852870590207776,0.00032160074588829884,-0.00401656063809577,0.005403909474904756,0.9940576215868074
2013-04-26,1,0.0002100562799086973,0.0002474115126155942,-0.00401656063809577,0.005403909474904756,0.9938231680615781
2013-04-30,1,0.0005103122537128199,0.0005230250481166211,-0.0057024116592214215,0.005403909474904756,0.9933130875919908
2013-05-02,1,0.0005109707659774328,0.0005423062390982835,-0.00401656063809577,0.005403909474904756,0.9935339684572638
2013-05-06,1,0.0004829893300148091,0.0004891097763687621,-0.005353203937408111,0.0045052575624077145,0.993948591729805
2013-05-08,1,0.00034545910984295065,0.00036918138024167864,-0.007131040248671834,0.005403909474904756,0.9931711935001944
2013-05-10,1,0.00020707798672391122,0.0002530763002179105,-0.005353203937408111,0.006295054576044271,0.9932391657671341
2013-05-14,1,0.0006144073477780834,0.0006641153643533965,-0.007689073744560104,0.005286229543020362,0.99289314900555
2013-05-16,1,0.0008020820693462398,0.0008839089001754354,-0.00795394054963836,0.005286229543020362,0.9922489809191215
2013-05-20,1,0.000401604446502016,0.0004274434537027491,-0.00795394054963836,0.007039164646976617,0.992113343685553
2013-05-22,-1,-0.00032664057283679764,-0.0001959927441880521,-0.00901310898441373,0.007039164646976617,0.9916393476490939
2013-05-24,-1,-0.00015705671403273098,-6.14005235413139e-05,-0.00795394054963836,0.007039164646976617,0.992234760287961
2013-05-29,-1,-0.0001935293153142918,-0.00011565368710454577,-0.0073570514892867915,0.007039164646976617,0.9925484719862143
2013-05-31,1,0.0005243198409833772,0.0005542649472039652,-0.007893178615956757,0.007039164646976617,0.9925581253291632
2013-06-04,1,0.0002493863407633224,0.0002605816606389237,-0.007893178615956757,0.007039164646976617,0.9928024054924336
2013-06-06,1,0.0002614887530454046,0.00027697089915415833,-0.0073570514892867915,0.007039164646976617,0.9929729379381835
2013-06-10,1,0.00026450973900846164,0.00028519385825959435,-0.0073570514892867915,0.007314972632170501,0.9927992750370883
2013-06-12,-1,-0.00039474897757257714,-0.0002912347566302278,-0.0009902130203522904,0.007873425694043772,0.9930389925063234
2013-06-14,1,0.00016496841214650563,0.0001826779041047551,-0.0009902130203522904,0.007314972632170501,0.9939933845848509
2013-06-18,1,0.00027802939909625626,0.00030383425099241533,-0.002117699271459054,0.007075711346953537,0.9936920883885743
2013-06-20,-1,-0.00026063687461545825,-0.000172292914102392,-0.0009902130203522904,0.007873425694043772,0.9940577925244911
2013-06-24,-1,-0.00034883542922918077,-0.00024694616125337323,-0.00016421491405529316,0.007873425694043772,0.9938229547222
2013-06-26,-1,-0.00030386116132891523,-0.00021179356026440366,-0.002504040426133896,0.007873425694043772,0.9936786674212862
2013-06-28,-1,-0.0003011899885865288,-0.00021875932705297323,-0.002504040426133896,0.007075711346953537,0.9942292798019541
2013-07-02,-1,-8.770920665635882e-05,-3.8409571557259953e-05,-0.002504040426133896,0.0071598275536211824,0.9938075165206018
2013-07-05,1,0.0005309096613436105,0.0005563190587763827,-0.002504040426133896,0.0071598275536211824,0.9941180879313534
2013-07-09,1,0.0006731877535214323,0.0007083654549755972,-0.002504040426133896,0.006017225934610728,0.9946435787705762
2013-07-11,1,0.0012915522517141435,0.0014776035718525606,-0.002504040426133896,0.006017225934610728,0.9942852809936349
2013-07-15,1,0.0008919111107260668,0.0009760224422216479,-0.0024990354644718544,0.005528111925134417,0.9945261771162635
2013-07-17,1,0.0007796643619072664,0.0008572014874055311,-0.0017150244102028278,0.005528111925134417,0.9953370289478278
2013-07-19,1,0.0005606659225920058,0.000594855524310243,-0.002942277615783405,0.004910748287720342,0.9953305829620032
2013-07-23,1,0.0006627038986986658,0.0007078167621720171,-0.004680427923983121,0.004973185672210229,0.9945553182045725
2013-07-25,1,0.00041409245356044074,0.0004326692948943073,-0.0028491508561649132,0.00599394509299118,0.9946587417070168
2013-07-29,0,-5.359213839214078e-06,3.865236678455048e-05,-0.0017150244102028278,0.00599394509299118,0.9949191232532967
2013-07-31,1,0.0005239486714893142,0.0005731816571289912,-0.0028491508561649132,0.004237067005222704,0.9945923115870967
2013-08-02,1,0.0006256192720005916,0.0006653757578694596,-0.0040098167881284594,0.003987269804895426,0.9946260704427248
2013-08-06,1,0.0005915906293905527,0.0006498555357215607,-0.0040098167881284594,0.004237067005222704,0.9945715567952965
2013-08-08,1,0.0014960410679310256,0.0017213222138483199,-0.0040098167881284594,0.004094912711014787,0.9951409689219356
2013-08-12,1,0.0012345512544316385,0.0014133375426529037,-0.0040098167881284594,0.005164331503498949,0.9942499964037946
2013-08-14,1,0.0006990043279912466,0.0007347138890726346,-0.0040098167881284594,0.005164331503498949,0.9941399408702337
2013-08-16,1,0.00033929901470333755,0.0003568651796249807,-0.0009673935291391662,0.006326782801295207,0.9941880363347941
2013-08-20,1,0.0008011478790664213,0.0008759173291392315,-0.0002052592083595111,0.006326782801295207,0.9946057950249141
2013-08-22,1,0.0004834905799486948,0.00048367512727140493,-0.0002052592083595111,0.006326782801295207,0.9945013431563795
2013-08-26,1,0.00035255058722472276,0.0003666983901052692,-0.0004984485101838383,0.006326782801295207,0.9943502171719172
2013-08-28,1,8.062721500142535e-05,0.00012175430871626745,-0.0004984485101838383,0.006326782801295207,0.994817683441013
2013-08-30,1,0.0003181926038034638,0.0003464330589526348,-0.0002444529560207552,0.006678720061782168,0.9951677383785351
2013-09-04,1,0.0005233092050196213,0.0005811286257802648,-0.0006444769537532825,0.00682943527440172,0.9943507123985539
2013-09-06,1,0.0006659264056269466,0.0007306921446985096,-0.0017407157946696993,0.00682943527440172,0.9940065769371341
2013-09-10,1,0.000604314042034074,0.0006358249981082335,-0.0029842460389691286,0.006303938744073229,0.9944229739996455
2013-09-12,1,0.0006100691632798682,0.0006546400662795979,-0.0029842460389691286,0.00682943527440172,0.9936638000921738
2013-09-16,1,0.0008216707488753561,0.0008959847942000123,-0.0029842460389691286,0.00682943527440172,0.9932823068904899
2013-09-18,1,0.001173022104947702,0.0012758222469817205,-0.0039364484736189405,0.00682943527440172,0.9931167714227292
2013-09-20,1,0.0013329888666856605,0.0014602026666171784,-0.0039364484736189405,0.007648517777908431,0.993011940282037
2013-09-24,1,0.0008247686360539377,0.0008750374624043001,-0.001456770168710319,0.007648517777908431,0.9930639489763566
2013-09-26,1,0.0008124399830383947,0.0008663519206951141,-0.00039294340622883603,0.007648517777908431,0.9933780218589694
2013-09-30,1,0.0009854338518926295,0.0010611025872225733,-0.00010008235653618653,0.0066930583354434465,0.9935248827543954
2013-10-02,1,0.0007382434051935477,0.0007760418773365068,-0.00010008235653618653,0.0041742698907599315,0.9941955757548354
2013-10-04,1,0.0006196236126998087,0.0006389941811955743,0.0005623371603293637,0.004420754346408721,0.9946360963486968
2013-10-08,1,0.00020188831839502787,0.00022738089942332494,0.0010885476665603738,0.004420754346408721,0.9948854836526759
2013-10-10,1,0.0008835637700418006,0.0009578298325036502,-9.23382142201484e-05,0.003845039048724916,0.9948214172504212
2013-10-14,1,0.0009086760203146694,0.0009658444219808926,-0.0005108307571236282,0.003845039048724916,0.9949942250838486
2013-10-16,1,0.001036951859550182,0.0011157217949470657,-9.23382142201484e-05,0.003845039048724916,0.9957146459373027
2013-10-18,1,0.00107616352442823,0.0011336094700906195,-9.23382142201484e-05,0.003845039048724916,0.9959066885666218
2013-10-22,1,0.0012648010488656334,0.0013672673604107869,-0.0005108307571236282,0.003542011842644034,0.9959393918067305
2013-10-24,1,0.001193993618285741,0.0012760803204983947,-0.0010237305524491533,0.004376821486330549,0.9954296781625137
2013-10-28,1,0.0011379161223920354,0.0012149821345223961,-0.0013806023775472167,0.004376821486330549,0.9950941975400811
2013-10-30,1,0.0007991094754813226,0.0008151917496302514,-0.0010237305524491533,0.005375914028002248,0.9951052990933892
2013-11-01,1,0.0008785343833636664,0.0008785539060463431,-0.0013806023775472167,0.005375914028002248,0.9951077552844186
2013-11-05,1,0.0009582902856986455,0.0009793296028731218,-0.004431413579935688,0.005375914028002248,0.994387263265198
2013-11-07,1,0.0005072482332827011,0.0005165303191962799,-0.0023280172409138014,0.006270532078324014,0.9943177416269082
2013-11-11,1,0.0004630931629204442,0.0004912179194301776,-0.0023280172409138014,0.006178606459161983,0.9946379295446013
2013-11-13,1,0.0008122279829245523,0.0008187144481450408,-0.004431413579935688,0.006178606459161983,0.9942301285480911
2013-11-15,1,0.000573842063447602,0.0005972111952774301,-0.005092621291216284,0.006178606459161983,0.9940143789932485
2013-11-19,1,0.00048300561604430487,0.000524774674689454,-0.005092621291216284,0.007750284364689942,0.9931072845066097
2013-11-21,1,0.0007349645861163581,0.0007605948597561769,-0.005092621291216284,0.007750284364689942,0.9911444701564631
2013-11-25,1,0.0007835695607572586,0.0007973764370361547,-0.005092621291216284,0.007474507507203849,0.9913469953617764
2013-11-27,1,0.0010681697723926788,0.0011340102879708702,-0.005092621291216284,0.007474507507203849,0.991662009651119
2013-12-02,1,0.0008875299753798175,0.0009321179902884098,-0.004741019201884314,0.007474507507203849,0.9917907735798338
2013-12-04,1,0.0006771245792689949,0.0006955984815920921,-0.0013275420280877395,0.007474507507203849,0.9919265560959248
2013-12-06,1,0.0009145979192666398,0.0009178039931938479,-0.0013275420280877395,0.005762451152824156,0.9928300303935321
2013-12-10,1,0.0009828060734938498,0.00100231503969461,-0.0030758649973727545,0.005014676212159407,0.9929552345827262
2013-12-12,1,0.00081450171078114,0.000820457210362578,-0.0030758649973727545,0.004995317680193359,0.9927752375343302
2013-12-16,1,0.0005427502743196458,0.0005888317824533296,-0.0019372123828322982,0.005378899851087511,0.9927921046099982
2013-12-18,1,0.0009660560742707452,0.0009791886529975638,-0.0027806286935242014,0.004021810595292988,0.9936352025466432
2013-12-20,1,0.002306498522229671,0.002483888218852679,-0.0033301427447180775,0.004021810595292988,0.9952991755071221
2013-12-24,1,0.0018889103141493302,0.0020108033221965618,-0.004564471517849707,0.0035083474811811208,0.9935351175880586
2013-12-27,1,0.0017801297157273217,0.001882980728815591,-0.004564471517849707,0.0035083474811811208,0.9933323015014915
2013-12-31,1,0.0019554523408683785,0.002112772666386196,-0.004564471517849707,0.004995317680193359,0.9927415491715373
2014-01-03,1,0.0019550712086511307,0.0021153357941410727,-0.0064325938414336,0.003593453612323996,0.991470325637964
2014-01-07,1,0.0016819301415246235,0.001809160496461904,-0.005773854465201921,0.005486220029172959,0.9915914496830256
2014-01-09,1,0.0014603890263716174,0.0015384752409711947,-0.005773854465201921,0.006379290715189698,0.9905498228397801
2014-01-13,1,0.0010207731689384943,0.0010230294440216887,-0.0051939894319986855,0.0075176635384360474,0.9906855500971417
2014-01-15,1,0.0010456920326249776,0.0010477317173936543,-0.0051939894319986855,0.006854845307944529,0.9907648049845749
2014-01-17,1,0.0008531250251797389,0.0008776643491262455,-0.0051939894319986855,0.006854845307944529,0.9905541658599721
2014-01-22,1,0.0007506232610130623,0.0008034926103428178,-0.00828412113700934,0.006387118101936729,0.9905587774218826
2014-01-24,-1,-0.001006132154134651,-0.0007535061298989698,-0.004165877443990884,0.006854845307944529,0.988601742636715
2014-01-28,-1,-0.0004952246514927217,-0.0002820043013719072,-0.0031182879145070326,0.007309253708024188,0.9883139563330112
2014-01-30,0,-0.00012064211848589705,3.814128596579271e-05,-0.0007380855691674982,0.006854845307944529,0.9887185767144387
2014-02-03,-1,-0.0007617581948191492,-0.0005595246092250397,0.0017690626818286457,0.007309253708024188,0.9888579059078816
2014-02-05,-1,-0.0004247585413823424,-0.0002584154961250377,-0.00032114536077310855,0.006898826141582293,0.9891140529651536
2014-02-07,1,0.0004980930328982512,0.0005490989980271835,-0.006490461925494128,0.006737104783016154,0.990217680582283
2014-02-11,1,0.0004955530654010933,0.0005272310654840921,-0.006527201905215206,0.006715894750000944,0.9903510189824005
2014-02-13,1,0.0007460729561137486,0.00074844805926657,-0.008034482596891901,0.0063903929795047065,0.9902456801812601
2014-02-18,1,0.0006916450655856931,0.0007126146182102206,-0.008034482596891901,0.006737104783016154,0.9901160559832326
2014-02-20,1,0.0004888947082921198,0.0005383439669263983,-0.008034482596891901,0.006926558235127262,0.989562663367282
2014-02-24,1,0.00011024533900030073,0.00019523901596484462,-0.00868126219781787,0.006737104783016154,0.9920145433822776
2014-02-26,1,0.00015421976478756735,0.00024445791624419706,-0.009323735590097049,0.005783841659969705,0.9917700878017162
2014-02-28,1,9.301346891407253e-05,0.00020413391627561534,-0.009323735590097049,0.005258366462443188,0.9918853727202849
2014-03-04,0,-7.621586661359168e-06,0.00014090010498641942,-0.00868126219781787,0.006737104783016154,0.9921570802277825
2014-03-06,1,0.00020879869103807193,0.0003069605145620799,-0.009323735590097049,0.005258366462443188,0.9917980077921417
2014-03-10,1,0.00022372263327252888,0.0003031988477713067,-0.009422500856532824,0.004615769129951187,0.9913776231904683
2014-03-12,1,6.244759267510483e-05,0.00015271793179822692,-0.009422500856532824,0.004699369296225045,0.991579731392109
2014-03-14,-1,-0.0002816249550032812,-0.00016080411288828185,-0.009822082244194483,0.004699369296225045,0.9907875051774062
2014-03-18,1,0.00019634673004120256,0.00025923633099127056,-0.009822082244194483,0.004592475954574216,0.9912132187269989
2014-03-20,1,0.00035829385620933936,0.00039845140715254673,-0.009422500856532824,0.004699369296225045,0.9914381344024069
2014-03-24,-1,-0.0004090624213527188,-0.00028075449986873357,-0.008722544116041404,0.005362961411036534,0.9921227438226626
2014-03-26,-1,-0.0008141481088517923,-0.0006290502625008032,-0.005846063710053889,0.005362961411036534,0.9926157993437245
2014-03-28,-1,-0.0007019651127346614,-0.0005413560245002118,-0.0086775528815522,0.006347305768965495,0.9921730524682384
2014-04-01,0,-1.5789322513003033e-05,6.431831748529449e-05,-0.0086775528815522,0.005027484082201364,0.992335125245115
2014-04-03,-1,-0.0010966772749394674,-0.0008512979920125266,-0.00435665254991249,0.005350856364499624,0.992732020130487
2014-04-07,-1,-0.001557643421021931,-0.0012765665790124632,-0.0030634471998317843,0.005350856364499624,0.9935398766053878
2014-04-09,-1,-0.0009968094742129822,-0.0007966366740949525,-0.0030634471998317843,0.006347305768965495,0.993465872297805
2014-04-11,-1,-0.001953618556899338,-0.0016436907813224373,-0.0015588265293304212,0.007741016281204935,0.9937049086497605
2014-04-15,-1,-0.0019555563975746666,-0.0016429887315784263,-0.0015588265293304212,0.007741016281204935,0.9935213818681964
2014-04-17,-1,-0.0011295093135596582,-0.0009256357355845851,-0.002815746965567321,0.006098603385539027,0.9946042605837941
2014-04-22,-1,-0.0010650664994268783,-0.0008669215302305795,-0.002815746965567321,0.006098603385539027,0.9942198728466404
2014-04-24,-1,-0.0009173247537738133,-0.0007512801691079157,-0.002815746965567321,0.007298164549217726,0.9937274387437488
2014-04-28,-1,-0.0010622679065553646,-0.0008680302414367509,-0.0015588265293304212,0.007298164549217726,0.9941819266704967
2014-04-30,-1,-0.0006819860249948578,-0.0005213996865949583,-0.0015588265293304212,0.006371091356572187,0.9949002102336498
2014-05-02,-1,-0.0007303887334850041,-0.000569230884390948,-5.4756111573560655e-05,0.006371091356572187,0.995126303780414
2014-05-06,-1,-0.0007560593624955288,-0.0005992580520145888,-0.00016072370115139848,0.006371091356572187,0.9951420061751496
2014-05-08,-1,-0.0006887449481024516,-0.0005322475867988743,0.00024155142820189154,0.006371091356572187,0.9950940311050098
2014-05-12,-1,-0.00031584476064968014,-0.00019700483711733593,-0.00016072370115139848,0.006371091356572187,0.995549037438426
2014-05-14,0,-1.0896804802374685e-05,3.50339171624303e-05,-0.0006784929131701164,0.006371091356572187,0.9955622499839701
2014-05-16,1,0.001107443261351232,0.0012997891647166756,-0.0003984093797709846,0.006300969559683144,0.9963130588013487
2014-05-20,1,0.0005589181915330935,0.0006450746004132243,-7.922855953986204e-05,0.005555795266059527,0.9968370546576594
2014-05-22,1,0.0010132992406696579,0.0011599605534552177,-7.922855953986204e-05,0.004165922978238469,0.9973012154656525
2014-05-27,1,0.000997551224840163,0.0011443279322720882,-0.0006784929131701164,0.004165922978238469,0.9960274311417221
2014-05-29,1,0.0011512795663654385,0.0013132043280288867,-0.0016158150526347278,0.005419591623240833,0.9956048130748061
2014-06-02,1,0.001243592861036535,0.0014175700774153404,-0.0016158150526347278,0.005943305097140723,0.9950887453147144
2014-06-04,1,0.0012686581031849857,0.00144632145224137,-0.0025495412043432964,0.006301010836231638,0.994772935273827
2014-06-06,1,0.0013803315552158011,0.0015420140025801548,-0.004338013897954957,0.006188522019185359,0.9946395060468225
2014-06-10,1,0.0016966450901940368,0.0019219947070733517,-0.005042840090505349,0.005609686713382157,0.9947044199834063
2014-06-12,1,0.0013214131872840377,0.0014821159026195832,-0.006385778231137822,0.005609686713382157,0.9943359222916596
2014-06-16,1,0.0014186973804343282,0.0016030022016262282,-0.0064328791743448735,0.006188522019185359,0.9936067345141038
2014-06-18,1,0.000953418659029235,0.0010152807328095998,-0.007287047731740261,0.007116311575326142,0.9916359118874741
2014-06-20,1,0.001041075969016589,0.0011118858774994246,-0.007287047731740261,0.007444357108652918,0.9913256739075086
2014-06-24,1,0.000572881213622865,0.0005972070164692486,-0.006119932484916752,0.00784657195949433,0.9918817038021699
2014-06-26,0,-4.11134270678686e-05,5.3568944126727196e-05,-0.0064328791743448735,0.00784657195949433,0.9920001050364973
2014-06-30,1,0.0007088401128910449,0.0007277106658036602,-0.0069995774186169864,0.007444357108652918,0.9922060733078965
2014-07-02,1,0.0011196136367922398,0.0012484100985696075,-0.007287047731740261,0.005165842449744215,0.9918092632224544
2014-07-07,1,0.000904419151722808,0.0009889118423978657,-0.0069995774186169864,0.005651692740075504,0.9914704679589883
2014-07-09,1,0.0008866499196585998,0.0009825059505762285,-0.007664787146558622,0.005651692740075504,0.9910062040466544
2014-07-11,1,0.00034702647177826853,0.0003829522382488837,-0.006770511192988655,0.009365391029894768,0.9909174539559041
2014-07-15,1,0.000503886798488551,0.0005553831543591699,-0.006770511192988655,0.009303183559603488,0.99115237508448
2014-07-17,1,0.0011084221216281017,0.001222920300813043,-0.005757286753782482,0.005651692740075504,0.9931152608750718
2014-07-21,1,0.0010476268626269795,0.0011715987454175344,-0.005757286753782482,0.005047754349598448,0.9933569328963389
2014-07-23,1,0.0013225786988822587,0.0014908589488580645,-0.0030540283913394004,0.004224354906932868,0.9940601677007278
2014-07-25,1,0.0012623592274338571,0.001430375556938025,-0.002056827574010734,0.004224354906932868,0.9942925998458596
2014-07-29,1,0.0010000687997561257,0.0011297399742730405,-0.0010265000876829378,0.004582139600179906,0.9944693981789081
2014-07-31,1,0.0007187658362363209,0.0008030157170156083,-0.0010265000876829378,0.004370458405523129,0.9950952054084284
2014-08-04,1,0.0013510023138974324,0.0015026525690088428,-0.0010265000876829378,0.004370458405523129,0.9957215558549826
2014-08-06,1,0.00040316849642278366,0.000404085865245284,-0.0006436344635655362,0.004370458405523129,0.9960616979448471
2014-08-08,1,0.0014098854106350542,0.001569748314411709,-0.0010265000876829378,0.003998400210399515,0.9969275752590965
2014-08-12,1,0.0018278689974000313,0.0020484086302437507,-0.0010265000876829378,0.0031796428705693175,0.9972142194364847
2014-08-14,1,0.0013178937033415331,0.0014203624293946371,-0.001699567684888825,0.0018803261399704244,0.9973698313250248
2014-08-18,1,0.0011921291934076112,0.0012602046152338277,-0.0009823216488950843,0.0018803261399704244,0.9974402530386149
2014-08-20,1,0.0012748121528415994,0.0013645369916984815,-0.0009823216488950843,0.0032470138460348632,0.9972706240161857
2014-08-22,1,0.0014278539957225812,0.001566598750883993,-0.0009300153848501222,0.0032470138460348632,0.9973137181673636
2014-08-26,1,0.0010821815334008287,0.0011358894530165704,-0.0011956443678241733,0.0032470138460348632,0.9968325294930849
2014-08-28,1,0.0005224916600715606,0.0005760852185258429,-0.0011956443678241733,0.004020713775829778,0.9961906332484826
2014-09-02,1,0.0009150307670028491,0.0009282599940539243,-0.002254586562356184,0.003321125510903268,0.9929189517487321
2014-09-04,1,0.00019564247128548475,0.0002941617851451673,-0.004896687263039702,0.0021876338931476657,0.9917041826447399
2014-09-08,1,4.553930874626427e-06,0.0001346699624014363,-0.004932544950091244,0.004303039192763668,0.9902635878989586
2014-09-10,1,0.00021809037148002078,0.000302889654423114,-0.005496814480175792,0.005131041596671242,0.9878538043661667
2014-09-12,1,7.098753342075375e-05,0.000171056230828212,-0.010617384744967328,0.005131041596671242,0.986290026280215
2014-09-16,1,0.00022340391974427618,0.00031322031853611715,-0.013118451326265091,0.004457000518664062,0.9856417011251735
2014-09-18,1,0.00018890710897245707,0.00028355005741241226,-0.013118451326265091,0.004902060156969924,0.985418169280165
2014-09-22,1,0.00034875779051042345,0.0004061873356853033,-0.013118451326265091,0.0058460989133474524,0.9847260907531693
2014-09-24,1,0.00014658716626528761,0.00023231363398571145,-0.013118451326265091,0.007219214206191963,0.9835328623202025
2014-09-26,-1,-0.00028627119184273435,-0.00014431907315927878,-0.011880558382306351,0.01049800199110305,0.9838465411789334
2014-09-30,1,0.0018261134762464334,0.0019524203781812871,-0.011880558382306351,0.008134659623754774,0.987155720656862
2014-10-02,1,0.000802271093699868,0.0008146284579924727,-0.007571869511892012,0.010419760211164326,0.9881745178561964
2014-10-06,1,0.0010693103124496202,0.0011078863367110642,-0.010048609197186684,0.008134659623754774,0.9891511829483411
2014-10-08,1,0.001884431370997522,0.0020308556822355426,-0.011880558382306351,0.007568944340871502,0.9900888624642732
2014-10-10,1,0.0004599424055502483,0.0004986366436481736,-0.004987148649628369,0.008097028945605425,0.9912081797754742
2014-10-14,1,0.00036569388888814543,0.00039500933231503377,-0.0018153801466398874,0.008097028945605425,0.9921229303100052
2014-10-16,1,0.0008012332395479563,0.0008215644834876376,-0.0024434728078300675,0.008097028945605425,0.9923643274598878
2014-10-20,1,0.0007839249706921362,0.0008089706695747548,-0.001475313615904817,0.007790545640087556,0.9927754451831912
2014-10-22,1,0.0010388806755046052,0.0010990261857668322,-0.001475313615904817,0.007568944340871502,0.9946311710173318
2014-10-24,1,0.0012696877770074777,0.0013515148850417491,-0.001475313615904817,0.0041067588984214694,0.9950196768247083
2014-10-28,1,0.0015705060124259864,0.0017116399665174356,-0.001475313615904817,0.0041067588984214694,0.9947284600886861
2014-10-30,1,0.002000562210876194,0.0022041576099456144,-0.001475313615904817,0.0027971047843977095,0.9951508981380243
2014-11-03,1,0.0015232826177170062,0.0016437346939913173,-0.001475313615904817,0.0027971047843977095,0.9947626578047896
2014-11-05,1,0.0007819867771837749,0.00080200567242466,-0.0006244408832938845,0.004234658595698005,0.9955344256912679
2014-11-07,1,0.0009352755879778943,0.000984051646311056,-0.000479079645535516,0.003004810028318828,0.9959169125985335
2014-11-11,1,0.000986975211225292,0.0010498752705629293,-0.0010392299026297114,0.003773011424979053,0.9946964553761627
2014-11-13,1,0.000549995885613597,0.0005792054814079205,-0.0011732923113536714,0.00623184472373635,0.9930306669506067
2014-11-17,1,0.0008142859150889639,0.0008201410992588668,-0.0011732923113536714,0.005972186216231529,0.9930913645431829
2014-11-19,1,0.0009674786533296784,0.001016737366969924,-0.000479079645535516,0.008648929706676954,0.9914574808511469
2014-11-21,1,0.0010324451465756072,0.0010851456383840817,-0.000479079645535516,0.011006492720847885,0.9883058988582746
2014-11-25,1,0.0013742619206097964,0.0014655149798203269,-0.000479079645535516,0.008648929706676954,0.9889312530283211
2014-11-28,1,0.0012093812316100179,0.0012691322555015393,-0.0012963901128467694,0.008648929706676954,0.9886829247921017
2014-12-02,1,0.0008030377276906572,0.0008289750547332749,-0.003408783629996052,0.007869954184162493,0.9891451499414105
2014-12-04,1,0.0007409929693057496,0.0007723442807380622,-0.004077083138733971,0.005972186216231529,0.9889025918341111
2014-12-08,1,0.0008486296217900815,0.0008594107071438677,-0.005630755406480791,0.005972186216231529,0.9886372256887598
2014-12-10,1,0.00030677276796188627,0.00037589576435896133,-0.005630755406480791,0.00851446806472266,0.9888772418667803
2014-12-12,0,-9.644297218164418e-06,9.546287715735152e-05,-0.005491158966802795,0.008150413781652047,0.9898971030245571
2014-12-16,0,-4.6744077986554265e-05,7.563366296116147e-05,-0.005491158966802795,0.006752022230162084,0.9901609418834468
2014-12-18,1,0.001075401921627835,0.001080527385264052,-0.005491158966802795,0.00336552402365472,0.9909918297461827
2014-12-22,1,0.002423269055406121,0.0025758884875931656,-0.005491158966802795,0.0032675707054505973,0.9932429172365939
2014-12-24,1,0.002780884564518553,0.003020312467060079,-0.005491158966802795,0.0029819209133089665,0.9930480684032358
2014-12-29,1,0.002131817973522877,0.0022398449432160725,-0.00649340188201221,0.0029819209133089665,0.9925145988635321
2014-12-31,1,0.0019023512650124291,0.0020256645070234882,-0.005491158966802795,0.005681369743104979,0.9918196527743911
2015-01-05,1,0.0013808452932660927,0.0014421907621479265,-0.0027615027336201133,0.009153439632911728,0.9918872010051667
2015-01-07,1,0.0010795839587796276,0.0010985435964719489,-0.0029187382202105244,0.009153439632911728,0.9916333576395348
2015-01-09,1,0.0013272099483803452,0.0013759031074825911,-0.004895610773753984,0.00827937674615689,0.9922107631641389
2015-01-13,1,0.0013967279987913213,0.001454746873281696,-0.0024859675891053625,0.00827937674615689,0.9924448419505753
2015-01-15,1,0.0012457354026854854,0.001269826184586506,-0.004895610773753984,0.009138025939834928,0.9913428025533981
2015-01-20,1,0.001661638496684438,0.001740202072663502,-0.004895610773753984,0.00827937674615689,0.9921973032241386
2015-01-22,1,0.0018838457546188256,0.0019840614285117973,-0.004895610773753984,0.006654894029405697,0.9924552178440534
2015-01-26,1,0.0018821119908769487,0.001995698979933097,-0.004895610773753984,0.006654894029405697,0.9923834258809571
2015-01-28,1,0.0008677861601310901,0.0008954170510829955,-0.0007891929891678441,0.006841094981416246,0.9928879546671803
2015-01-30,1,0.0007765515069930687,0.0008252641375577072,-0.0007891929891678441,0.006841094981416246,0.9936374393898291
2015-02-03,1,0.0014713334823457762,0.0015055074087947967,-0.004773307614720466,0.005921862087052809,0.9943816580908518
2015-02-05,1,0.0011531079290388842,0.0011694403935183127,-0.0053473648641746765,0.0058171743833835745,0.9940616318853238
2015-02-09,1,0.0007879212941200565,0.0008356499683774716,-0.005495985797424829,0.0059839290710563256,0.9924912949055555
2015-02-11,1,0.0012126941966580148,0.0012187818255171763,-0.005495985797424829,0.0059839290710563256,0.9924177266046793
2015-02-13,1,0.001153957623567937,0.0011636705597156383,-0.004021716635083015,0.0059839290710563256,0.9916798863451519
2015-02-18,1,0.001053977655941991,0.0010851990000849418,-0.004021716635083015,0.007418347694942784,0.9912142657574708
2015-02-20,1,0.0010572749712880385,0.0011228037171794186,-0.0067209694560011685,0.007418347694942784,0.9892856298483247
2015-02-24,1,0.0025225218435609912,0.0027620726430910205,-0.0067209694560011685,0.011001540486674032,0.9885581469246948
2015-02-26,1,0.0020222816350975005,0.0021011913695314797,-0.008445205908835275,0.011001540486674032,0.9871532587582125
2015-03-02,1,0.002488521831188813,0.0026642041498622635,-0.008445205908835275,0.011559689127556757,0.9871966486935185
2015-03-04,1,0.0023618439708166065,0.0025559500698547196,-0.010784891177550214,0.011559689127556757,0.9870612417166319
2015-03-06,1,0.0007447425188617455,0.0008406968237714431,-0.011244824118350427,0.012637973951753912,0.9873389500336222
2015-03-10,1,2.181622511313562e-05,0.00023058982509606635,-0.007862869721715564,0.010915392423558727,0.9894162114197984
2015-03-12,1,0.0006866569484689847,0.0007987205017777651,-0.007862869721715564,0.008977818020592186,0.9894397090171704
2015-03-16,1,0.0017739583401769673,0.0017920579648361896,-0.01095787476970906,0.005433164398342707,0.9903317968994546
2015-03-18,1,0.0021569014865346478,0.0022548782887434424,-0.01095787476970906,0.005003630033643953,0.9904643344223166
2015-03-20,1,0.0006323406393280266,0.0007066865296761833,-0.007515521639308577,0.005003630033643953,0.9921177581719405
2015-03-24,1,0.001179681762957182,0.0011812768598077367,-0.007515521639308577,0.0044245149206594125,0.9927586261595012
2015-03-26,1,0.00020418205065541174,0.0002976536650922599,-0.0031316751132142713,0.0044245149206594125,0.9940334766941351
2015-03-30,1,0.0006672799381132483,0.0007219979613724161,-0.006026994290633959,0.003858583107801969,0.9945575814504236
2015-04-01,-1,-0.0005361065822231021,-0.0002835957142754634,-0.0069401667988395295,0.003858583107801969,0.9944213803547874
2015-04-06,-1,-0.0005474542267842065,-0.0003029948046043365,-0.006026994290633959,0.003858583107801969,0.9945186712593218
2015-04-08,-1,-0.0005082846544999966,-0.00026500811747458026,-0.006251891150827548,0.003858583107801969,0.9943053053970824
2015-04-10,-1,-0.0005556724576782748,-0.00030206811006929424,-0.006251891150827548,0.0044245149206594125,0.9939616550355878
2015-04-14,-1,-0.000750630141984411,-0.0004895935512551238,-0.006251891150827548,0.004525501758754481,0.9936223612046434
2015-04-16,-1,-0.0007686743358998654,-0.0004992583527980274,-0.006251891150827548,0.0065049449232588655,0.992382085081298
2015-04-20,-1,-0.0011012279317324878,-0.0007906998650829196,-0.0040523691482906585,0.010517831188513412,0.9922497314831585
2015-04-22,-1,-0.0007442338286113574,-0.0004988969981313462,-0.0040523691482906585,0.010517831188513412,0.9924244867512659
2015-04-24,-1,-0.0008634396959027516,-0.0006008930792756683,-0.0040523691482906585,0.010517831188513412,0.9925883898884847
2015-04-28,-1,-0.001457163509965306,-0.0011082341418026335,-0.002833517776777527,0.010517831188513412,0.9925006975188895
2015-04-30,-1,-0.0021720653154273153,-0.0017432637912264757,-0.0022329617329615446,0.010517831188513412,0.9928888247883216
2015-05-04,-1,-0.0015289467349336352,-0.0011759181051860257,-0.0024107547325035246,0.006168538868195131,0.9938297466848924
2015-05-06,-1,-0.0023162233756258274,-0.0018411382034893959,-0.0022329617329615446,0.006168538868195131,0.9932633199381198
2015-05-08,-1,-0.0019538399502174904,-0.001493761767362808,-0.0024107547325035246,0.00392732107627672,0.9943894498769045
2015-05-12,-1,-0.0020019705256433627,-0.001543162463064425,-0.0022329617329615446,0.00392732107627672,0.9946627029779279
2015-05-14,1,2.523980381734925e-05,0.00015837786804946848,-0.0024107547325035246,0.0032078560628255193,0.9963696617546666
2015-05-18,1,0.001662396351477201,0.0018410561942073659,-0.002790028194120013,0.0030213500199335183,0.9953075491011966
2015-05-20,1,0.0016032350707920126,0.001776388544050103,-0.002790028194120013,0.0033130210419253163,0.9950033320937721
2015-05-22,1,0.001394750753702394,0.0015292087753579855,-0.0025338565208230745,0.0038819926957996435,0.9948758307986754
2015-05-27,1,0.0010715462797422806,0.0011314019605465134,-0.003497448395342425,0.003771322705513724,0.9944263753127653
2015-05-29,1,0.0005249820503380826,0.0005651978929184645,-0.004726554726664881,0.003771322705513724,0.9938117150538059
2015-06-02,1,0.00021125786793985628,0.0003033239959561419,-0.005836411939765331,0.0038711714208011115,0.9933181309279904
2015-06-04,1,4.0730998183191374e-06,0.00011140002815558214,-0.00463615331663015,0.005158003808931869,0.9934581648202915
2015-06-08,0,-4.4110084615048295e-05,6.595045535105656e-05,-0.00463615331663015,0.005158003808931869,0.993413069628543
2015-06-10,1,0.0004316093433508519,0.0004863387322865425,-0.005836411939765331,0.004280572034030308,0.9931963982962462
2015-06-12,1,0.0005831502611266232,0.0005919816060080252,-0.005836411939765331,0.008581026605215982,0.9923914738403743
2015-06-16,1,0.0004849881930251154,0.00048738982943482076,-0.004425052029891723,0.005893025386727542,0.9936425295937267
2015-06-18,1,0.000825289414530023,0.0008719496713143398,-0.005836411939765331,0.005794678867536337,0.9931560684071129
2015-06-22,1,0.00046298641960869515,0.0005027459003792342,-0.008754482941700188,0.005368928998301771,0.9929107724500537
2015-06-24,1,2.582381220784548e-05,0.00011189454834927335,-0.008880723022707074,0.006854685026963708,0.9918840805554173
2015-06-26,1,4.588644562354699e-05,8.722591499582301e-05,-0.010876995538553653,0.006854685026963708,0.9913820959789756
2015-06-30,-1,-0.00041198613978476556,-0.0003078715890712794,-0.006915291866502669,0.008285987047642367,0.9914103895376133
2015-07-02,-1,-0.0003596148304389176,-0.0002444765943716161,-0.006915291866502669,0.006854685026963708,0.9917523889229031
2015-07-07,-1,-0.00020970926944052635,-0.00013938727841770435,-0.006915291866502669,0.008479073235878133,0.9911460396814907
2015-07-09,-1,-0.00031957684988581636,-0.00025370229445459424,-0.004762997027488357,0.008479073235878133,0.9913454565747032
2015-07-13,1,0.000522017537748099,0.0005650934117648179,-0.004762997027488357,0.007725942416062627,0.9919663643097605
2015-07-15,1,0.0006166720220710795,0.0006958818999459419,-0.004990095528976845,0.007725942416062627,0.9919328383722016
2015-07-17,1,0.0005985164215174553,0.0006775075084147715,-0.004527239129892731,0.007423944615780774,0.9927326901441104
2015-07-21,1,0.0004433386234337032,0.0005135360593837969,-0.0034687193914252415,0.007423944615780774,0.9930177957615834
2015-07-23,1,0.000760896034802638,0.0008802386042405252,-0.004527239129892731,0.0073512073709653914,0.9934622489907886
2015-07-27,-1,-0.00023005977032794896,-0.00019143371502445633,-0.004527239129892731,0.0073512073709653914,0.991523746897996
2015-07-29,1,9.674757495854376e-05,0.00012091053272311484,-0.004527239129892731,0.0073512073709653914,0.9905616617270866
2015-07-31,1,6.87751634913221e-05,0.00011490428175297524,-0.004527239129892731,0.007423944615780774,0.9897727546911911
2015-08-04,1,0.0010251283373132164,0.0011320022620555739,-0.0065324377362305334,0.005241991080202892,0.9890879248486081
2015-08-06,1,0.0013526053847315398,0.0015631087373943653,-0.0065324377362305334,0.006001994981728487,0.9886096986738228
2015-08-10,1,0.0016066639348330924,0.0018592198229432457,-0.012332422467645298,0.006001994981728487,0.9867623898015986
2015-08-12,1,0.0008353848094514865,0.0009038936240072707,-0.014146828302984376,0.006001994981728487,0.9863490748618207
2015-08-14,1,0.001050491372409861,0.0011680648744876957,-0.014146828302984376,0.00667737806467987,0.9860312276552163
2015-08-18,1,0.0005309452085547106,0.0005447831534213827,-0.014146828302984376,0.008386481204086011,0.9857994365865889
2015-08-20,1,1.1096198714505818e-05,3.825896668196718e-05,-0.007697690530561005,0.008386481204086011,0.9868555263604909
2015-08-24,-1,-0.00031092425526110573,-0.0002451688686202239,-0.004621108405522333,0.01135617856301072,0.9885321415174224
2015-08-26,-1,-0.00022271087617626003,-0.00015865803046150539,-0.0050075376284438155,0.0075739179591805175,0.9898184249300862
2015-08-28,-1,-0.00020022154545300283,-0.0001506698893515502,-0.007598534646048159,0.0075739179591805175,0.9880096630792463
2015-09-01,-1,-0.0011255601400052945,-0.0009657787053418865,-0.0066176394192993945,0.010611403826806452,0.9882015411608427
2015-09-03,-1,-0.000692356940569695,-0.0005818004158421546,-0.0066176394192993945,0.009797389800629865,0.9888514655043629
2015-09-08,-1,-0.00016680635405549475,-0.00011167676747173889,-0.0066176394192993945,0.009797389800629865,0.9893537929330034
2015-09-10,-1,-0.0009182883585176216,-0.0007650144159023686,-0.0050075376284438155,0.011947568534010567,0.9881792814184716
2015-09-14,-1,-0.0008940179399837575,-0.0007485763202067508,-0.0035156982589290044,0.013732524161342607,0.987696737075535
2015-09-16,-1,-0.0006706452735234071,-0.0005467120189515723,-0.005856957571957746,0.011797779006916977,0.9878911369888955
2015-09-18,-1,-0.0004957859841114656,-0.00038737686328941,-0.006482650785779233,0.013923584842031718,0.9866369020984126
2015-09-22,-1,-0.0010218966264948855,-0.0008349231290982347,-0.0051750727908607165,0.013923584842031718,0.9876080134656492
2015-09-24,-1,-0.0006560116755357419,-0.0005276613212871616,-0.006482650785779233,0.013923584842031718,0.9869432807663128
2015-09-28,-1,-0.0011222733391828598,-0.0009352299608739599,-0.0037242626635361664,0.012570717921455851,0.9888603281967124
2015-09-30,-1,-0.000510511623113593,-0.0004221351700770663,-0.0037242626635361664,0.012570717921455851,0.9895038370217818
2015-10-02,0,-2.791437101980085e-05,1.684097685337489e-05,-0.006071393485917192,0.012570717921455851,0.9895488302358422
2015-10-06,-1,-0.00044668033239514355,-0.00039090634339545476,-0.006071393485917192,0.011515809583405886,0.9905134586261988
2015-10-08,1,0.0009971973273600852,0.0011425710862223327,-0.007706458627769604,0.006651378467945919,0.9919814991220833
2015-10-12,1,0.0008809955956021103,0.0009971963395430175,-0.007706458627769604,0.0037434459760331985,0.9927083560811238
2015-10-14,1,0.0006224446269443408,0.0007173899745812172,-0.007020584395717296,0.004132804823108081,0.9929832922048184
2015-10-16,1,0.0009240563662042591,0.0010467205862807315,-0.007899826396988732,0.003360995488705082,0.9933920858855664
2015-10-20,1,0.000846033058564786,0.0009473861916303388,-0.007899826396988732,0.003360995488705082,0.9933177604589702
2015-10-22,1,0.0008451195783034494,0.000946003504374726,-0.007430301156734117,0.003360995488705082,0.9933137512758213
2015-10-26,1,0.0008083260398134614,0.0008939458559411302,-0.007430301156734117,0.004105083754091568,0.9932243146070685
2015-10-28,1,0.000770700998267514,0.0008479462017804596,-0.007019848183294435,0.004051285834471445,0.9934189437423232
2015-10-30,1,0.0009877616905825254,0.001121274389955656,-0.006864510027926444,0.0033430628488317076,0.9938489942400759
2015-11-03,1,0.0006481915233168945,0.0007315061942204228,-0.006864510027926444,0.004051285834471445,0.9931269730505393
2015-11-05,1,0.00014823987571738938,0.0001526929834793534,-0.005737608626791093,0.006087608788474032,0.9916483399134165
2015-11-09,1,0.00033568086186633057,0.00037396628784311625,-0.0067876196166992316,0.006087608788474032,0.9911742410691916
2015-11-11,1,0.0005300201965398478,0.0006091016950793497,-0.007198893710629621,0.005590615786983012,0.9907355813844179
2015-11-13,-1,-2.1607781350212086e-05,-1.6231188253751483e-05,-0.0067876196166992316,0.005590615786983012,0.9909448540956273
2015-11-17,-1,-0.00014600834777470426,-0.00010919090787413949,-0.0067876196166992316,0.006899533666457331,0.9903124035894005
2015-11-19,-1,-0.00019288466735850886,-0.0001352317551782331,-0.008871007470302396,0.005590615786983012,0.9901641646379495
2015-11-23,1,0.0004979126166509022,0.0005374159049980041,-0.008871007470302396,0.006081290988397322,0.98947403436391
2015-11-25,1,0.00027277117503015616,0.0002812464100714611,-0.008871007470302396,0.006081290988397322,0.9897093621418676
2015-11-30,-1,-0.00016516359937583186,-0.00010450440628168709,-0.008871007470302396,0.008190390320543056,0.9892187035891508
2015-12-02,1,0.00025612653605820896,0.00027572253113639994,-0.00914373487698851,0.006081290988397322,0.9897414096609636
2015-12-04,1,0.000849526765824279,0.0009379526744646757,-0.00914373487698851,0.00529121992149925,0.9905792261211975
2015-12-08,1,0.0005557950342672132,0.0006053448549718791,-0.012941740108176118,0.004897749667614113,0.990255201793189
2015-12-10,1,1.2674024326580932e-05,5.1213270522327804e-05,-0.012941740108176118,0.005938319100405063,0.9894592056257786
2015-12-14,-1,-0.00033976092436571335,-0.0002699020705727497,-0.012941740108176118,0.008025686304755697,0.988292558641067
2015-12-16,-1,-0.0001706223156155839,-9.957691703765755e-05,-0.014210955589493469,0.008025686304755697,0.9877612275845115
2015-12-18,-1,-0.0005496585128006357,-0.00048375525138486984,-0.013270874198536923,0.008025686304755697,0.9882470155014189
2015-12-22,1,0.00034843542061517845,0.0003781155029952156,-0.014832340817416127,0.005941416880045999,0.9871474542268361
2015-12-24,1,0.0004351175276904677,0.0005100298027370729,-0.014832340817416127,0.008178113573544268,0.9863969341507995
2015-12-29,1,0.0007500690087708629,0.0008568187669597928,-0.014832340817416127,0.0054524125366688875,0.9866633171301162
2015-12-31,1,0.0003097872621686994,0.0003692334394165316,-0.014832340817416127,0.008178113573544268,0.9860425818484878
2016-01-05,-1,-5.2287750805639566e-05,-3.5969577622965844e-05,-0.013270874198536923,0.008178113573544268,0.9868428250247389
2016-01-07,-1,-0.0002716181960817867,-0.00026185183741009874,-0.014832340817416127,0.008178113573544268,0.9864147062905977
2016-01-11,-1,-0.00046798366647040203,-0.0004354092945459397,-0.011050605854310395,0.009027025923369297,0.9871982887518437
2016-01-13,-1,-0.0015273204336427614,-0.0012990969182582047,-0.011050605854310395,0.005868676796053642,0.9887342454259358
2016-01-15,-1,-0.0017837030942698014,-0.001511669461924301,-0.008646829125369753,0.010423615840282313,0.9888024726842729
2016-01-20,-1,-0.0012980595790538709,-0.0011147652468670927,-0.007407903338011932,0.010423615840282313,0.9892181962513946
2016-01-22,-1,-0.0015155202182173901,-0.001298676160342572,-0.006454233726995088,0.010423615840282313,0.9906632464981049
2016-01-26,-1,-0.0020761405092097314,-0.0017616731153009505,-0.006673549271585107,0.006288187356281381,0.9910794681717364
2016-01-28,-1,-0.0019094506647148327,-0.0016356165731877328,-0.006673549271585107,0.007647980966930744,0.9908605557201406
2016-02-01,-1,-0.0006455744668125739,-0.0005469566602983147,-0.008065849971781988,0.007647980966930744,0.9910408015824553
2016-02-03,-1,-0.0014881862758708744,-0.0012627621023658454,-0.006673549271585107,0.008235397140500728,0.9911762674496891
2016-02-05,-1,-0.0019527193879839803,-0.0016714458313701872,-0.004948722542787355,0.010386582873084735,0.9915597741065111
2016-02-09,-1,-0.0013652398431110162,-0.001167957783261819,-0.004563142899379546,0.008336422409532947,0.9923316963824319
2016-02-11,-1,-0.0015593385909646604,-0.0013504363167190863,-0.003519489180922115,0.010726691647378972,0.9917822900006644
2016-02-16,-1,-0.0015781200129506255,-0.0013536066407269618,-0.003519489180922115,0.006964594145746816,0.9925897658210365
2016-02-18,-1,-0.0017141972208157968,-0.0014821073040249487,0.001195664153197424,0.006964594145746816,0.9925171326214698
2016-02-22,-1,-0.0015763068150455328,-0.0013460245472257464,-8.835403169065413e-05,0.005990684226495223,0.9932458786166828
2016-02-24,-1,-0.0013213750075537533,-0.0011329925217290766,-8.835403169065413e-05,0.005990684226495223,0.9915759446012141
2016-02-26,-1,-0.0012355405549527125,-0.0010762507439015753,0.00016366973218626666,0.008336422409532947,0.9906384661161995
2016-03-01,-1,-0.0011175711713154266,-0.0009368411073529024,0.0011828489518322294,0.008336422409532947,0.9916565576992523
2016-03-03,-1,-5.27448332061358e-05,-3.2610502518720464e-05,0.0008921594194991999,0.006970901707901366,0.9924329356611429
2016-03-07,1,0.00044327601070065487,0.0005442298744157204,-0.003244694472623273,0.005432348922744102,0.9924254354194343
2016-03-09,-1,-5.1127452419232306e-05,-3.411925105480318e-05,0.000612422273080603,0.00602477364539214,0.9922086795379224
2016-03-11,1,0.0011703839203124284,0.0013831925838276552,-0.0007563774993843441,0.00495392361197289,0.9934541567653526
2016-03-15,1,0.0010485979801915465,0.0012485412032653752,-0.0007563774993843441,0.007198838544894125,0.9929109063225338
2016-03-17,1,0.0010154661031406037,0.0012093340366034389,-0.0029337736039771484,0.007198838544894125,0.9925837275304542
2016-03-21,1,0.0011888633217645547,0.001417374368193987,-0.002455759236691809,0.007198838544894125,0.9929089909635925
2016-03-23,1,0.0001767791291227314,0.00027170373895553894,-0.002933962903797938,0.007198838544894125,0.9941781964640313
2016-03-28,1,0.0011223543414259874,0.0013444828257224387,-0.002933962903797938,0.0048032116409376735,0.9951730517299159
2016-03-30,1,0.0009144556521602598,0.001092340193320669,-0.002933962903797938,0.004198334271690336,0.9955058270360441
2016-04-01,1,0.000963852670280432,0.001122388320461524,-0.0034805729842895304,0.004689188255627588,0.9949378066659442
2016-04-05,1,0.0006033285288130258,0.0007211566251412081,-0.002933962903797938,0.004689188255627588,0.9956449976703641
2016-04-07,1,0.000769209135406862,0.0009167725888421052,-0.002933962903797938,0.004198334271690336,0.9959306221213584
2016-04-11,1,0.00035885186756390297,0.00041829665066294265,-0.002933962903797938,0.005191290870531603,0.9953325688120461
2016-04-13,1,0.0007878629001673732,0.0009090825882856463,-0.0034805729842895304,0.004304686314804557,0.9957509114871131
2016-04-15,1,0.0007623726062788551,0.0008912625016421927,-0.0028633019714235197,0.004304686314804557,0.9959195487711949
2016-04-19,1,0.0012452700640658513,0.0014742829586771116,-0.003542542686781399,0.004304686314804557,0.9958557998488519
2016-04-21,1,0.0007581089334219172,0.0009132405012377118,-0.002059492913290825,0.004304686314804557,0.99631166011678
2016-04-25,1,0.0007930864026326076,0.0009406942628818911,-0.0015317706557411853,0.004304686314804557,0.9963438115996305
2016-04-27,1,0.0011078152290154692,0.0013067214187740027,-0.002107991867461858,0.004871888508643663,0.9955739511739746
2016-04-29,1,0.0015354697054551828,0.0018306699406569768,-0.0015317706557411853,0.004871888508643663,0.9958415087509109
2016-05-03,1,0.0011217474199783544,0.001345084505731326,-0.0015317706557411853,0.004871888508643663,0.9957252575501355
2016-05-05,1,0.0009603479064507926,0.0011401646041779303,-0.002107991867461858,0.005514032397017969,0.9951451861816352
2016-05-09,1,0.0011595947559898514,0.001339069067615189,-0.0028447472510168418,0.0035068556889467657,0.9956529506820118
2016-05-11,1,0.001348796964681452,0.0015820130684409432,-0.002099721825562738,0.003328833661000884,0.996002901655125
2016-05-13,1,0.0009189321446168794,0.001039667110600551,-0.0029145859978870516,0.003328833661000884,0.9952425381766571
2016-05-17,1,0.001398494718557646,0.0016470443148424699,-0.0028447472510168418,0.003328833661000884,0.995533955246273
2016-05-19,1,0.001519051153559553,0.0017745234540303338,-0.0029145859978870516,0.004509650432608832,0.9951702295832634
2016-05-23,1,0.0018179196568169464,0.002133923075436266,-0.0029145859978870516,0.0030140861458426587,0.9954029284899467
2016-05-25,1,0.0017975406862146413,0.002071453361036534,-0.002889775872189692,0.0030140861458426587,0.9959591985291928
2016-05-27,1,0.0017869267663764296,0.0020228779646938987,-0.0045101964921214575,0.002497872835198958,0.9941596055639345
2016-06-01,1,0.0014324558349474014,0.0016020356433383088,-0.0045101964921214575,0.004509650432608832,0.9925093636669611
2016-06-03,1,0.0012194268846094241,0.0013401800103810043,-0.003211774028495336,0.006319323956616669,0.9915274127796083
2016-06-07,1,0.0011240713920026178,0.0012140046872083563,-0.0025919308068997706,0.006410145575373725,0.991356670255584
2016-06-09,1,0.001212589068142143,0.0013102935399909887,-0.004612767244456596,0.00824021228170205,0.990866886641802
2016-06-13,1,0.0005409307653336621,0.0005533734692389487,-0.005531599609288328,0.00824021228170205,0.9904558189883423
2016-06-15,1,0.0002738930458405028,0.0003316962618570721,-0.005531599609288328,0.00824021228170205,0.9903039903668138
2016-06-17,1,0.00025216376969137917,0.00031485014234062,-0.003734188293180814,0.00824021228170205,0.990694309463306
2016-06-21,1,0.00023115191082257133,0.0002997183314870194,-0.003734188293180814,0.009487448870822791,0.9860747509519144
2016-06-23,1,0.001217924835632918,0.0013226324582145208,-0.003734188293180814,0.00824021228170205,0.9862299896055606
2016-06-27,-1,-0.0003560400428578731,-0.00023487257376081692,-0.0020963609559532925,0.00824021228170205,0.9879639585867619
2016-06-29,1,0.000667385590128947,0.0006932546514357165,-0.002558095283363482,0.005911938104030097,0.9899763611239014
2016-07-01,1,0.002940471203600494,0.003325528701967846,-0.003366459033579894,0.004235714209458034,0.9907512988191892
2016-07-06,1,0.002767470774334652,0.0030578879734814222,-0.004334887739139093,0.002928786785891894,0.9903856825270804
2016-07-08,1,0.0012821158214290757,0.0013336915056489638,-0.003366459033579894,0.0026501142195411104,0.9914377482034518
2016-07-12,1,0.0004820907700905804,0.0005652892681682973,-0.002558095283363482,0.002674708531145602,0.992280561417721
2016-07-14,1,0.0008534085211149783,0.000873487602716109,-0.002558095283363482,0.002674708531145602,0.9922659639387162
2016-07-18,1,0.0005461170423909301,0.0006135511331052122,-0.001705047035268094,0.002674708531145602,0.9923143007632528
2016-07-20,1,0.003011090392263674,0.0032742383668225897,-0.0005836239012602815,0.00337553666747106,0.9935277429378261
2016-07-22,1,0.00273652569089398,0.0029790671691426645,-0.0019114022329644158,0.002509395696216219,0.9927716465072539
2016-07-26,1,0.0027644846032648615,0.003018073242405218,-0.0019114022329644158,0.002674708531145602,0.9927421329199615
2016-07-28,1,0.002681575664595465,0.002937743377213108,-0.0010305870373568183,0.00341885084123649,0.9924483735211584
2016-08-01,1,0.002320558119250483,0.0025226518357667296,-0.0010305870373568183,0.004599218575615927,0.9927425972809247
2016-08-03,1,0.0021927588051761145,0.002398144446052661,-0.0007433989075888432,0.005349608114629308,0.9932489376941781
2016-08-05,1,0.0022167191224013796,0.0024201576806754587,-0.0007433989075888432,0.005700912362806423,0.9928914569884932
2016-08-09,1,0.0020957835640475955,0.0022812308207275254,-0.0007433989075888432,0.005700912362806423,0.9926836359733441
2016-08-11,1,0.0022237761440535566,0.0024204246434349264,-0.001827166441158384,0.005700912362806423,0.9907785256528131
2016-08-15,1,0.0012218016363630423,0.001242876187754932,-0.003916360024422194,0.006363666427917439,0.9896722707211495
2016-08-17,1,0.002822782186813333,0.0030935241612739797,-0.003916360024422194,0.005700912362806423,0.9929741457871297
2016-08-19,1,0.002412831931897886,0.0026442658059906933,-0.003820154168425776,0.005700912362806423,0.9934960887873034
2016-08-23,1,0.00242874513156573,0.0026663734853158184,-0.003820154168425776,0.006209065309271492,0.9932588513194469
2016-08-25,1,0.002432742419574495,0.0026270063512752783,-0.006845234410489249,0.005700912362806423,0.9933855412323762
2016-08-29,1,0.0024442859405579757,0.002645399784704892,-0.00739208060956091,0.004991733221778648,0.9932483379753937
2016-08-31,1,0.0020595677888410177,0.002211647134880081,-0.008249289114988716,0.005440279653415466,0.9903031142266108
2016-09-02,1,0.002132643432779487,0.0023283277421748557,-0.008249289114988716,0.005440279653415466,0.9900774233887044
2016-09-07,1,0.001868648419476709,0.00201709576813234,-0.008395305862962778,0.005440279653415466,0.9897241736997013
2016-09-09,1,0.0012186270888952027,0.0012824541239084284,-0.008215438752132815,0.0074922364979896705,0.9908235453654677
2016-09-13,1,0.000797873371312683,0.0008084710471302884,-0.008215438752132815,0.005440279653415466,0.9911696777281149
2016-09-15,1,0.0010739179962195094,0.0010990867330507993,-0.008215438752132815,0.004141375635140981,0.9911885860902894
2016-09-19,1,0.0007615292159346926,0.000772330033239407,-0.008395305862962778,0.004141375635140981,0.9910585939496371
2016-09-21,1,0.0010270961935671002,0.001050674768550469,-0.008395305862962778,0.0030226983215373123,0.9913237046815981
2016-09-23,1,0.0005384564231970516,0.0005920572697801778,-0.008660972233098661,0.0023144756847465163,0.9912013027065877
2016-09-27,1,0.000421714845920249,0.0004904882823902626,-0.008559421144530958,0.0031560824855724327,0.9914120341174009
2016-09-29,-1,-0.0006223714989737652,-0.00044621887328677787,-0.008475393369814796,0.0017635149274476507,0.9945440158610175
2016-10-03,-1,-0.0005851786338550148,-0.000406496179371177,-0.008475393369814796,0.0025696262335962684,0.9946499654779717
2016-10-05,-1,-0.0007872293376647289,-0.0005743401619776757,-0.009773012509025696,0.0025696262335962684,0.9934648995186501
2016-10-07,-1,-0.0010340783815675203,-0.0007872682257160634,-0.00890123475365472,0.0025696262335962684,0.9941643474925203
2016-10-11,-1,-0.0011966898732808466,-0.0009345126945991334,-0.005074448685135505,0.003973743664530252,0.9936525676628021
2016-10-13,-1,-0.001143857899244889,-0.0008957517402024647,-0.004418321742334716,0.004640201780075678,0.9928327198841821
2016-10-17,-1,-0.0012574521944609522,-0.0010010469965579336,-0.0024207064487317157,0.005376997318961887,0.9926264122597973
2016-10-19,-1,-0.0011003551199438445,-0.00088028216884939,-0.0015916965653194818,0.005376997318961887,0.9927532814881048
2016-10-21,-1,-0.0015066005738459086,-0.00122926980272914,-0.0011868674738707244,0.007195213391959393,0.9918907938635246
2016-10-25,-1,-0.001504160457956487,-0.001224656124234227,0.00022866648561234096,0.010217409844864148,0.9907229169972545
2016-10-27,-1,-0.0018157725067652953,-0.001497548214659446,0.002074653008713182,0.010575729235575431,0.990020049327893
2016-10-31,-1,-0.0015616160701203284,-0.0012738964282444603,0.0001661571379257792,0.010575729235575431,0.9906009126547297
2016-11-02,-1,-0.0027290008445276567,-0.0022850650989354754,0.0008577291544212612,0.011408894418742524,0.990671162971075
2016-11-04,-1,-0.002744132123537738,-0.0022913046645178957,0.0024367735494151125,0.011899871676717744,0.9899901696178861
2016-11-08,-1,-0.0021331105955028165,-0.0017515453353799033,0.0024367735494151125,0.011899871676717744,0.9906214312426923
2016-11-10,-1,-0.0019333430504916258,-0.0015761628269927714,0.001224683030843326,0.011408894418742524,0.9916941945203674
2016-11-14,-1,-0.0016199282395620387,-0.0013087589923884986,0.0003442116028025315,0.011408894418742524,0.9923251678368897
2016-11-16,-1,-0.0023324614194393353,-0.001882430185343941,0.00031195285534097524,0.011408894418742524,0.9915881644373901
2016-11-18,-1,-0.0011017100049631142,-0.0008525003628048859,-0.0026832914192576416,0.009787346339790882,0.9930751679147704
2016-11-22,-1,-0.00014478320157834185,-4.48616597179202e-05,-0.0028202567441870177,0.004774308597923641,0.9944950213681808
2016-11-25,0,-8.508013769333261e-05,1.5179883735170314e-05,-0.0030822299295027705,0.004225092735787989,0.9934456314531268
2016-11-29,-1,-0.0004695708987055236,-0.00032110960793788523,-0.0028202567441870177,0.004225092735787989,0.9932969456507814
2016-12-01,-1,-0.0006175825841226836,-0.0004244769765641194,-0.0028202567441870177,0.004225092735787989,0.9936385308198241
2016-12-05,-1,-0.0003089597166990099,-0.00015507351677640334,-0.0028202567441870177,0.004225092735787989,0.9938474785246993
2016-12-07,1,0.00012621449844501316,0.00023528803542690235,-0.003943059729097987,0.003886379622625019,0.9942468027360984
2016-12-09,1,0.0013477067375736508,0.0015272643323470513,-0.00693805069329368,0.003886379622625019,0.993441690755249
2016-12-13,1,0.0010194632981381797,0.0011311760262900546,-0.008021100587124083,0.004187982397097813,0.9930267698889096
2016-12-15,1,0.0008772553390488631,0.0009744638111782427,-0.00782108345101228,0.004058605625213886,0.9931972649272796
2016-12-19,1,0.0008179554826349902,0.0009050332283571737,-0.00782108345101228,0.0038851316476199473,0.9932897772011775
2016-12-21,1,0.0005629300273573923,0.0006010953942815807,-0.00782108345101228,0.0038851316476199473,0.9935349533307256
2016-12-23,1,0.00046137308475362713,0.0004739957345664124,-0.006842501286452331,0.0050855913897358655,0.9940867356657728
2016-12-28,-1,-0.00020717865234203225,-0.0001421612828388275,-0.006179701001324424,0.005668441201602143,0.9942207344961949
2016-12-30,-1,-0.00023668822869475094,-0.00016731127080854148,-0.006488483767965999,0.004898943675486506,0.994373795877036
2017-01-04,1,0.00031195634484953283,0.0003144118345662503,-0.00782108345101228,0.0033192018537936355,0.9943581337225611
2017-01-06,1,4.617655149565932e-05,8.151928262446081e-05,-0.00782108345101228,0.003592378106208458,0.994140890463324
2017-01-10,1,0.0006407240816630672,0.0007706499921438944,-0.004817043204353662,0.003592378106208458,0.9946801069752752
2017-01-12,1,0.0004103870668264836,0.0004773652165530615,-0.002471855209610913,0.0060424321234544024,0.9943251990305827
2017-01-17,1,0.00024758896445403083,0.0003037844123142035,-0.00161359557387101,0.0060424321234544024,0.9946712167538017
2017-01-19,1,0.0005004126154131231,0.0006141069207482935,-0.0010085760698227593,0.0089468485649822,0.9939394745460581
2017-01-23,1,0.0006064722956354558,0.0007371826853202754,-0.002067346418560438,0.0089468485649822,0.9935293957954018
2017-01-25,1,0.0013998452860513925,0.001647831068898447,-0.003294152801306882,0.0060424321234544024,0.9943894811058761
2017-01-27,1,0.0015438406863764425,0.0018258232489364703,-0.003294152801306882,0.00598411023684671,0.9944536516293003
2017-01-31,1,0.0012670641870184563,0.0015020837790271893,-0.003294152801306882,0.008001398648891309,0.9939599211583607
2017-02-02,1,0.0005948050244674687,0.0006876170219036029,-0.003294152801306882,0.008001398648891309,0.9940130884435231
2017-02-06,1,0.0003338108534858943,0.0003777708419842863,-0.0029285534071003777,0.006261160853978761,0.9946624181927423
2017-02-08,1,0.00047802186756985593,0.000567376696155708,-0.0029285534071003777,0.006261160853978761,0.994741821038077
2017-02-10,1,0.0009043486192718079,0.00102907331001341,-0.0029285534071003777,0.0036306468192788843,0.9952167902733303
2017-02-14,1,0.0011258058223429061,0.001308888594233552,-0.0033708493810231215,0.006184728932267495,0.9945936428423334
2017-02-16,1,0.0014924487453705127,0.001705050520292919,-0.0033708493810231215,0.0036306468192788843,0.992992409882353
2017-02-21,1,0.0011162787871745682,0.0012831765910370752,-0.004170801790786095,0.0036306468192788843,0.9930995107171904
2017-02-23,1,0.0008370433333753531,0.0009120285719461803,-0.004170801790786095,0.006184728932267495,0.9926826389522373
2017-02-27,1,0.0010132316817087323,0.0011248939345974093,-0.004318820106405035,0.005706620712471828,0.9924793553747767
2017-03-01,1,0.0009440630850723586,0.0010236255983575475,-0.004170801790786095,0.005706620712471828,0.9932010437031331
2017-03-03,1,0.000538480361819974,0.0005551099794323736,-0.003633822329075357,0.005706620712471828,0.9933819984107948
2017-03-07,1,0.0002824180687095752,0.0003149611970018033,-0.004170801790786095,0.005706620712471828,0.9928571988652861
2017-03-09,1,0.00014276257880111522,0.00019232947390776322,-0.004494654546027373,0.005706620712471828,0.9924330412476252
2017-03-13,1,0.0001553973863664409,0.00022501875593262764,-0.004712265825057821,0.004394743989845863,0.9926504244187677
2017-03-15,1,0.00016739870842215075,0.00024012042890461148,-0.004572625279808037,0.0029020126626999885,0.9929992313994852
2017-03-17,1,0.0013210507550145694,0.0013649069658356245,-0.004856636603913093,0.0029020126626999885,0.9943687856714607
2017-03-21,1,0.0007504486467474608,0.0007788666749356838,-0.005039010272840176,0.0029020126626999885,0.9946789896720752
2017-03-23,1,0.0011095064566973398,0.0011160339178894459,-0.005039010272840176,0.0023275362948627044,0.9951926254242907
2017-03-27,1,0.0008464089409027447,0.0008731312420263936,-0.004777787281639004,0.0027515487371233996,0.9946267364209277
2017-03-29,1,0.0001957923628014584,0.0003559738971572158,-0.005039010272840176,0.0023275362948627044,0.9947121753845326
2017-03-31,1,7.858696656137354e-05,0.00025530524780473707,-0.006048345111606593,0.0011840156550036085,0.9941489409168468
2017-04-04,1,1.8671461394452753e-05,0.0001768897327050169,-0.006048345111606593,0.001990825630386538,0.9944173600069832
2017-04-06,-1,-0.00017364004985995766,-2.0774033621637363e-05,-0.005386634695338125,0.0027515487371233996,0.9942254110618711
2017-04-10,-1,-0.0002481657497968589,-9.722904497842306e-05,-0.006048345111606593,0.003971621907555542,0.9934490542384068
2017-04-12,-1,-0.0004472482383995783,-0.0002686563053630398,-0.006048345111606593,0.005812412712531525,0.9933455391607076
2017-04-17,1,7.794981438281117e-05,0.00015795041962193764,-0.005478567777757282,0.003971621907555542,0.9939791784917908
2017-04-19,1,0.0004019349538027262,0.0004033100015205155,-0.007092111384702903,0.003971621907555542,0.9932412075728481
2017-04-21,1,0.0006288273434258123,0.0006773588070810707,-0.007092111384702903,0.003956647987665712,0.9931138805970156
2017-04-25,1,0.0008609504146202046,0.0009235955202878159,-0.007092111384702903,0.004994539143531937,0.9936882488745112
2017-04-27,1,0.0006229219826320723,0.0006573913742277575,-0.003285665216174602,0.006186357468558468,0.9929939971397608
2017-05-01,1,0.0003411712882844084,0.0003661014106536586,-0.0022454768263853527,0.006186357468558468,0.9935392029483976
2017-05-03,1,0.0003967568197174223,0.00045642840143964855,-0.0008599869752847912,0.00840866499443404,0.9932286983192075
2017-05-05,1,0.0008195532246629675,0.0009414601781057776,-0.0022454768263853527,0.007258157643006733,0.9930158543986418
2017-05-09,1,0.0005869150081208325,0.000675903182467261,-0.0022454768263853527,0.007258157643006733,0.993137445493381
2017-05-11,1,0.0007556035049806349,0.0008583534313044957,-0.003148704433910505,0.006186357468558468,0.9932409645587486
2017-05-15,1,0.0007079630693447327,0.0008052271218144213,-0.003148704433910505,0.00772663736599457,0.9920473928005377
2017-05-17,1,7.169082220844202e-05,7.561397292796673e-05,-0.0017729762019566921,0.00772663736599457,0.9925541006184111
2017-05-19,-1,-0.00018001581045575768,-0.0001085028080824393,-0.0017729762019566921,0.008520499928275877,0.9915053301925807
2017-05-23,1,2.0101825397692756e-05,8.251291021354085e-05,-0.0033410292621426337,0.008520499928275877,0.9914532632411569
2017-05-25,1,0.0008295424610341672,0.0008624650862788556,-0.003488100235999387,0.00772663736599457,0.9923714895800891
2017-05-30,1,0.0008230998049248423,0.0008826093795001323,-0.004299174519793994,0.00772663736599457,0.9913347888003252
2017-06-01,1,0.0011639540814597645,0.0012590575452504486,-0.007376390701399019,0.007042201509584422,0.9907512166174254
2017-06-05,1,0.0006775374281640162,0.0006810517257368962,-0.004299174519793994,0.007042201509584422,0.9912834680846001
2017-06-07,1,1.3065086465147526e-05,0.00010017185353907321,-0.004299174519793994,0.007042201509584422,0.9912165378866381
2017-06-09,-1,-0.0004336384348818106,-0.00027976975588675615,-0.003488100235999387,0.00748369459689498,0.9903962276960598
2017-06-13,1,0.0004523961891594892,0.00050394503072067,-0.004055173181514193,0.007042201509584422,0.9910698719677398
2017-06-15,1,0.0004843064594125686,0.0005332529599289149,-0.00547240697021231,0.007042201509584422,0.9910790674386697
2017-06-19,1,0.001620998376421346,0.0017593251002608582,-0.005733635956646386,0.002264348675539868,0.9915879120090607
2017-06-21,1,0.0011670290513592556,0.001248052390283434,-0.00547240697021231,0.005334762456621958,0.9921168854801279
2017-06-23,1,0.0007968688554954239,0.0008147524346226865,-0.00547240697021231,0.006031757059889434,0.9878196802634468
2017-06-27,-1,-0.0002729523379159277,-0.0001464307230359909,-0.00547240697021231,0.006031757059889434,0.9889460674006636
2017-06-29,-1,-0.000773364639375995,-0.0005794262942648546,-0.00547240697021231,0.005334762456621958,0.989790730673926
2017-07-03,-1,-0.0005447011616485523,-0.0003700538400401484,-0.005605916140146456,0.005041939243903795,0.9899531176647542
2017-07-06,-1,-0.0007829678190340248,-0.0006103679681704683,-0.005605916140146456,0.005041939243903795,0.9905204092434977
2017-07-10,-1,-0.00011532006290932827,-1.8759094653931748e-05,-0.005605916140146456,0.005041939243903795,0.9909321184761813
2017-07-12,1,0.00036197949626372414,0.00037136052418359014,-0.005728685340543684,0.001004901591556948,0.9910617179783737
2017-07-14,0,-5.9967923954157314e-05,1.5076151951950415e-05,-0.006169051391251816,0.0007361030773587187,0.990463081650188
2017-07-18,-1,-0.0003721143329606883,-0.00025852955828292615,-0.0057957931739574305,0.005041939243903795,0.9899020700503184
2017-07-20,1,1.1683550133008094e-05,7.369231962996907e-05,-0.006387882069417237,0.0014463108591502131,0.9894363466270708
2017-07-24,1,0.0025746943275827966,0.002844604329678789,-0.006387882069417237,0.0023703439351166313,0.9920861798767199
2017-07-26,1,0.0020698910415495216,0.002249696394612805,-0.00674876960791631,0.0053291564590556674,0.9919765733374953
2017-07-28,1,0.0016102473123288546,0.0017222257514982046,-0.00634831593938506,0.0053291564590556674,0.9923074454652028
2017-08-01,1,0.0014165042726406694,0.0014919607384000033,-0.006439964392865968,0.005093853680684615,0.9924126414493152
2017-08-03,1,0.0011744912493191978,0.001231460930326755,-0.006417905440757973,0.007125804715140556,0.9924456269393281
2017-08-07,1,0.0011756259041047826,0.0012323145965077388,-0.006957538112035049,0.006829705334122275,0.9922140793974394
2017-08-09,1,0.0016008614106551601,0.0017886585175976122,-0.006417905440757973,0.006829705334122275,0.9925462101866359
2017-08-11,1,0.0007326136026620799,0.0007871825502074085,-0.004085038716123696,0.009327552572468416,0.9931804661896205
2017-08-15,1,0.0015927922141552935,0.0017908084977298134,-0.004085038716123696,0.006829705334122275,0.9939009556723615
2017-08-17,1,0.000981517387369407,0.0010844330158176023,-0.003745990383472228,0.006829705334122275,0.9942406150597206
2017-08-21,1,0.0017015200074907116,0.0019166113363961645,-0.003745990383472228,0.004430930988739071,0.9949342337465079
2017-08-23,1,0.0016974722627508426,0.0019109820244656013,-0.0033541303296031515,0.004995153887011855,0.9950857364804929
2017-08-25,1,0.0013528527800387802,0.0014939981257705863,-0.0033541303296031515,0.00477135221672931,0.9952626616046999
2017-08-29,1,0.0008569807921937022,0.0009076490203544475,-0.0033541303296031515,0.0062153468851602195,0.9924986780383233
2017-08-31,1,0.0009708943888529245,0.001036576453626745,-0.003745990383472228,0.004970281530906956,0.9922277574419164
2017-09-05,1,0.0005584372295196996,0.0005629406991326529,-0.0026321508201986653,0.008370985667864927,0.9918566074814469
2017-09-07,1,0.000526037312002899,0.0005306327386981786,-0.0026321508201986653,0.008370985667864927,0.9916528558312835
2017-09-11,1,0.0007616739218754952,0.0007903673127697469,-0.0026321508201986653,0.007414610880730206,0.9918952250755292
