JNU-Tangyin/eata/results/Batch4_SP500/Batch4_SP500-CINF.csv
Date,Action,Predicted_Q25,Predicted_Q75,Actual_Q25,Actual_Q75,RL_Reward
2010-12-14,0,0.0,0.0,-0.006626856474329617,0.004930955025193201,0.9936253746109887
2010-12-16,0,0.0,0.0,-0.006626856474329617,0.005878165120571191,0.9929954285279896
2010-12-20,0,0.0,0.0,-0.005564586542337697,0.005878165120571191,0.9930948759262617
2010-12-22,0,0.0,0.0,-0.005564586542337697,0.0028015661850284354,0.9941705234986586
2010-12-27,1,0.001941031291782636,0.0021183746277040625,-0.005082323502821624,0.0037319710983204687,0.9935107789107235
2010-12-29,0,0.0,0.0,-0.005082323502821624,0.007232446726023479,0.993171538479291
2010-12-31,0,0.0,0.0,-0.005082323502821624,0.007232446726023479,0.9924731436668878
2011-01-04,0,0.0,0.0,-0.005082323502821624,0.007232446726023479,0.9920619559298843
2011-01-06,1,0.0003754270147712298,0.0004880156375359085,-0.005082323502821624,0.009509166710870723,0.991518046484556
2011-01-10,1,0.0005879120840876779,0.0006417081469138777,-0.0040480760408895654,0.009509166710870723,0.991820672481357
2011-01-12,1,0.0002154542103918417,0.00034194166224742076,-0.003009754120368957,0.007232446726023479,0.9922522094793086
2011-01-14,1,0.00012212646605088768,0.0002776331100926196,-0.003009754120368957,0.006119609040131318,0.9922700987507019
2011-01-19,0,0.0,0.0,-0.0020440970526231085,0.007649621221866975,0.9924354543297998
2011-01-21,0,0.0,0.0,-0.0020440970526231085,0.009413040607533346,0.9918574536557172
2011-01-25,0,0.0,0.0,-0.004808610939409405,0.006707415502020108,0.9921297759496904
2011-01-27,0,0.0,0.0,-0.006475760153830902,0.006707415502020108,0.9920931413950312
2011-01-31,0,0.0,0.0,-0.006475760153830902,0.008962133620493397,0.9917140812233568
2011-02-02,1,0.0003095851415848942,0.0003653101279656683,-0.006475760153830902,0.008962133620493397,0.9924052194138978
2011-02-04,1,0.0008335657683058055,0.0008652368707145374,-0.008078357447371095,0.006707415502020108,0.9924209127821045
2011-02-08,1,0.0009526837389208122,0.0010094530532751083,-0.008078357447371095,0.008962133620493397,0.9917342563911659
2011-02-10,1,0.0009052344456032872,0.0009510608196645561,-0.008231590633138143,0.008962133620493397,0.9911264063134673
2011-02-14,1,0.0005090939019207401,0.0005608159744180177,-0.008511216620236623,0.008962133620493397,0.9906767292133953
2011-02-16,1,0.0009542839510895937,0.0009693577051650118,-0.009030732758560735,0.008962133620493397,0.9900100651764123
2011-02-18,1,0.001335595755730249,0.0014210450667640955,-0.009030732758560735,0.008762842303182222,0.9898467065898949
2011-02-23,1,0.0007418805390361706,0.000775775338773848,-0.008863179852383583,0.008762842303182222,0.9899689824386442
2011-02-25,1,0.000757618089168148,0.0007876480827571431,-0.008863179852383583,0.0072429371155064174,0.9905755925622599
2011-03-01,1,0.000652167826241261,0.0006658907135145021,-0.008468015664038864,0.005867806489061374,0.9916746449304077
2011-03-03,1,0.0007815638719192602,0.0007823577598744145,-0.008071065491920631,0.005867806489061374,0.9919095917186371
2011-03-07,1,0.00025936928477725523,0.0003179900844563976,-0.0076625410228275655,0.0072429371155064174,0.9919885063351553
2011-03-09,1,0.0006944186653563205,0.0006962916411727006,-0.0076625410228275655,0.0072429371155064174,0.9922706442234007
2011-03-11,1,0.0004425072839146384,0.00046508562757459565,-0.008091845064832189,0.0072429371155064174,0.9922273759069251
2011-03-15,-1,-0.00018055970148456743,-8.83822254591427e-05,-0.008091845064832189,0.0072429371155064174,0.9924312877765564
2011-03-17,-1,-0.0001672739395602823,-8.369620045656901e-05,-0.007803014353949056,0.006273142025342626,0.9929196223383139
2011-03-21,1,9.445427508079132e-05,0.0001605469501355608,-0.008091845064832189,0.004902117119344507,0.9925826960592232
2011-03-23,-1,-0.0008555576826314322,-0.0006492972736749474,-0.006324906157064433,0.005694108115906783,0.9929185936819158
2011-03-25,-1,-0.0008625497960430579,-0.0006508396152296047,-0.006324906157064433,0.006614745298402962,0.9926557889471462
2011-03-29,-1,-0.0005991332974758816,-0.00043363775725882445,-0.006324906157064433,0.007635477109943459,0.9922734739282913
2011-03-31,0,-3.622607429896275e-05,3.095769963859448e-05,-0.007917003625105917,0.007187525630522856,0.9915003642583241
2011-04-04,0,-4.015706638527816e-05,6.603050636318144e-05,-0.007917003625105917,0.0052865083118231425,0.9917494298679351
2011-04-06,1,3.8847523861855915e-05,0.00013722067364075268,-0.00878582810766406,0.00299343141097501,0.9915589703579287
2011-04-08,-1,-0.0005043691009370104,-0.00034977207564214607,-0.007617996176990864,0.006161537948543301,0.9917100094159317
2011-04-12,-1,-0.0013147676712585725,-0.0010386901079432445,-0.007617996176990864,0.007187525630522856,0.991477947451359
2011-04-14,-1,-0.0015191857837796709,-0.0012379476058694135,-0.008717934928012771,0.007635477109943459,0.9909874321092949
2011-04-18,-1,-0.002190154957839299,-0.0018102250428206166,-0.0052336631090672886,0.007635477109943459,0.9918126761915054
2011-04-20,0,0.0,0.0,-0.005265791914206099,0.007187525630522856,0.9920387303616777
2011-04-25,0,0.0,0.0,-0.010536109298783177,0.006866261559823836,0.991223811069705
2011-04-27,0,0.0,0.0,-0.010536109298783177,0.003123325437573698,0.9914177903917003
2011-04-29,0,0.0,0.0,-0.009704390618487614,0.006084771455019832,0.992651486845501
2011-05-03,-1,-0.0018763680488591468,-0.0015608141846376036,-0.010536109298783177,0.007100823713309807,0.9918087587133948
2011-05-05,-1,-0.0022647265878949063,-0.0019210599849470203,-0.009704390618487614,0.007100823713309807,0.9920745746694997
2011-05-09,0,0.0,0.0,-0.009704390618487614,0.00426763714278869,0.9921336250921112
2011-05-11,-1,-0.0016898127269803494,-0.0014723959193666744,-0.009025111990215055,0.00426763714278869,0.9926364573791066
2011-05-13,-1,-0.0021478619625021267,-0.001845777354410852,-0.009025111990215055,0.0010993999358780056,0.9929606674930692
2011-05-17,-1,-0.0016316504349167347,-0.00142679582591182,-0.009704390618487614,0.00426763714278869,0.991553825782653
2011-05-19,-1,-0.001608920863490149,-0.0014012073787017451,-0.009704390618487614,0.004138193629194478,0.9916522173010642
2011-05-23,-1,-0.0024256754926332428,-0.0021194791711063535,-0.009025111990215055,0.004138193629194478,0.992270532236172
2011-05-25,-1,-0.0028807176446657384,-0.0025095553712040095,-0.008071228913136087,0.004138193629194478,0.992368221719896
2011-05-27,-1,-0.0021028766678740547,-0.0018422154756603222,-0.008071228913136087,0.004138193629194478,0.9923055591526923
2011-06-01,-1,-0.002361343980394443,-0.0020739296528166752,-0.007768390760303728,0.004477948811785581,0.9926106981594487
2011-06-03,-1,-0.002653654775248559,-0.0023278211454406785,-0.007589725895755441,0.006870720824879519,0.9918685036091287
2011-06-07,-1,-0.002700155806886208,-0.002373256807849036,-0.007589725895755441,0.006870720824879519,0.9920816967105782
2011-06-09,0,0.0,0.0,-0.008153799210557684,0.006870720824879519,0.9918415000778538
2011-06-13,0,0.0,0.0,-0.0075462538758924655,0.006870720824879519,0.9918153382166746
2011-06-15,0,0.0,0.0,-0.0075462538758924655,0.0063422914105268876,0.9926638092988929
2011-06-17,0,0.0,0.0,-0.009499974959307931,0.0045485192103889484,0.991879676385853
2011-06-21,0,0.0,0.0,-0.009186174766215045,0.006870720824879519,0.9916893095569639
2011-06-23,1,0.2947265587512209,0.32345474578483924,-0.009186174766215045,0.00835022656536478,0.7641526756355888
2011-06-27,-1,-0.004543003121032625,-0.004070538796989716,-0.009186174766215045,0.007400071909737193,0.9911160609086653
2011-06-29,-1,-0.001338564540052115,-0.0012447428738889153,-0.009499974959307931,0.002446077248129687,0.9916399454404854
2011-07-01,-1,-0.000712271123485328,-0.0006945206699249133,-0.010813893151231286,-0.000986732410059027,0.9912717755366746
2011-07-06,-1,-0.0010271793695584021,-0.0009824930071132272,-0.012677048204057621,-0.00025764001657208946,0.990232097995891
2011-07-08,-1,-0.0010141975251998286,-0.000961310462643936,-0.0131336223367613,-0.000986732410059027,0.9896188905937245
2011-07-12,0,0.0,0.0,-0.0131336223367613,-0.000541929472737024,0.9835547438056914
2011-07-14,0,0.0,0.0,-0.015145457905040351,0.00444925120702535,0.9782763803822585
2011-07-18,0,0.0,0.0,-0.015145457905040351,0.014879826923370459,0.9773522579112401
2011-07-20,0,0.0,0.0,-0.015145457905040351,0.006519397135379431,0.9777014684971841
2011-07-22,0,0.0,0.0,-0.019474070189251708,4.3743009564064985e-05,0.9776950471467633
2011-07-26,0,0.0,0.0,-0.019474070189251708,0.006519397135379431,0.9757622633991587
2011-07-28,-1,-0.001847125694699111,-0.001713970540167697,-0.01976381832843456,0.017925027706141006,0.9751865306539983
2011-08-01,-1,-0.0017531078235111944,-0.0016590288473119484,-0.01976381832843456,0.02739393413878957,0.9738934733911201
2011-08-03,-1,-0.001223523855045554,-0.0011813852293303404,-0.009962654132446876,0.02739393413878957,0.974672671413218
2011-08-05,-1,-0.002872994008704174,-0.002613318435309658,-0.018354653955287844,0.02739393413878957,0.974911402159871
2011-08-09,-1,-0.0020736955653448564,-0.0019118168309638875,-0.014242660081812509,0.02739393413878957,0.9781905903791569
2011-08-11,0,0.0,0.0,-0.014242660081812509,0.016685374512473317,0.9821954516723764
2011-08-15,0,0.0,0.0,-0.014242660081812509,0.009121963965166022,0.983681721509034
2011-08-17,-1,-0.0010100608210916852,-0.0009788969822300947,-0.014242660081812509,0.012865172595964166,0.9831791041085126
2011-08-19,-1,-0.001509466574838483,-0.0014174407869274553,-0.014242660081812509,0.012865172595964166,0.9826981516956195
2011-08-23,0,0.0,0.0,-0.018354653955287844,0.012865172595964166,0.9816737779584984
2011-08-25,-1,-0.0007176221236426482,-0.00047308452076297617,-0.01663454779070342,0.008688241016209861,0.9830913605984275
2011-08-29,1,0.0015144473289754217,0.002079625541349282,-0.01663454779070342,0.011964990010105796,0.983219734985868
2011-08-31,1,0.0017829558810919495,0.0023441291715482152,-0.018354653955287844,0.011964990010105796,0.9812020026643946
2011-09-02,1,6.29586884397785e-05,0.00036959346464832945,-0.01806923813418851,0.011964990010105796,0.9797368576380828
2011-09-07,1,0.0014824536836097225,0.0019493200404911892,-0.01806923813418851,0.013321358850502956,0.979679904398869
2011-09-09,0,-7.675195833143603e-05,0.0001586280025827134,-0.01909031494238351,0.013321358850502956,0.9793301963814337
2011-09-13,1,0.0007406837600250856,0.0011106509230655276,-0.021733397892085178,0.019097767083652562,0.9776042516347463
2011-09-15,0,0.0,0.0,-0.021733397892085178,0.019097767083652562,0.9781523551009614
2011-09-19,0,0.0,0.0,-0.021733397892085178,0.019097767083652562,0.9779819773434775
2011-09-21,0,0.0,0.0,-0.018051650124746327,0.028635518406398497,0.9786682920575378
2011-09-23,0,0.0,0.0,-0.018051650124746327,0.0298250235168722,0.9770389203307368
2011-09-27,0,0.0,0.0,-0.021733397892085178,0.028635518406398497,0.9767909903891382
2011-09-29,0,0.0,0.0,-0.018051650124746327,0.028635518406398497,0.9764193100883775
2011-10-03,0,0.0,0.0,-0.016908353943132965,0.028635518406398497,0.9773304438532362
2011-10-05,0,0.0,0.0014650102638342787,-0.022185241838909353,0.0232209767661154,0.9779004786246468
2011-10-07,1,0.0007554788425365457,0.0011241691540704673,-0.016908353943132965,0.02719550420608697,0.97787418233634
2011-10-11,0,0.0,0.0,-0.005704630675606464,0.0230335557442448,0.9794465200007625
2011-10-13,0,0.0,0.0,-0.018417335843197748,0.0230335557442448,0.9769135616523738
2011-10-17,0,0.0,0.0,-0.011344936417964527,0.0230335557442448,0.9776007129928168
2011-10-19,0,0.0,0.0,-0.016969812457707997,0.020744077915446378,0.9788828845414529
2011-10-21,0,0.0,0.0,-0.016969812457707997,0.01867558262319968,0.9807310818224537
2011-10-25,1,0.0009664354646444416,0.0012050425414025386,-0.016969812457707997,0.01564619997075709,0.9819057695557827
2011-10-27,1,0.006524692858726882,0.007537675650029348,-0.02221862601257235,0.009219066931811029,0.9825545533214679
2011-10-31,0,0.0,0.0,-0.01266852130964457,0.011357970913324876,0.9840235738286638
2011-11-02,0,0.0,0.0,-0.01266852130964457,0.011357970913324876,0.9836431956503344
2011-11-04,0,0.0,0.0,-0.01266852130964457,0.011194601780489423,0.9842465061468498
2011-11-08,1,0.0020455311433627424,0.002357386472944814,-0.01266852130964457,0.0114712822267608,0.9843858144374152
2011-11-10,1,0.003565592390990709,0.004113809900276902,-0.012473705272888772,0.0114712822267608,0.9853396443695273
2011-11-14,1,0.00355212434717379,0.00406220024616512,-0.009590384005099721,0.010292684257062019,0.985914438989197
2011-11-16,0,0.0,0.0,-0.0049704364282686184,0.010292684257062019,0.986379753635016
2011-11-18,0,0.0,0.0,-0.009590384005099721,0.00999530558443704,0.985455729478188
2011-11-22,0,0.0,0.0,-0.0049704364282686184,0.0114712822267608,0.9851845603767928
2011-11-25,0,0.0,0.0,-0.003220213658137367,0.0114712822267608,0.9860811955958226
2011-11-29,0,0.0,0.0,-0.003540516075391368,0.00999530558443704,0.9873155357109712
2011-12-01,0,0.0,0.0,-0.003540516075391368,0.009984540879324731,0.9901550926109912
2011-12-05,0,0.0,0.0,-0.005148013723924376,0.008427077887970362,0.9905198143360652
2011-12-07,1,0.0022028341953077993,0.0024505468990193794,-0.005931343680030621,0.008427077887970362,0.9906297016704966
2011-12-09,1,0.002226218281747563,0.0024920627275029604,-0.005148013723924376,0.009298086749234772,0.9916835622623194
2011-12-13,1,0.0022031615303803485,0.0024945685124501153,-0.0007346381249221386,0.009298086749234772,0.9921748156434733
2011-12-15,1,0.002514848703222872,0.0028423178456713338,-0.005148013723924376,0.008258455956113646,0.9922749986183766
2011-12-19,1,0.0014287099236757245,0.0015795494160830272,-0.0007346381249221386,0.009478675083754582,0.992635544021707
2011-12-21,1,0.0018762445759481455,0.002040020774698809,-0.002377543244690238,0.009478675083754582,0.9933812187133256
2011-12-23,1,0.0020977912794450117,0.002279098144496169,-0.0028408646370849575,0.009569579112660598,0.9933777627172489
2011-12-28,1,0.0012219020252881004,0.001227687682574603,-0.0027490045194806623,0.010568135260876167,0.9928202854666325
2011-12-30,1,0.0009508938203510985,0.0010086239742113149,-0.0027490045194806623,0.0096114084906526,0.9932642372044769
2012-01-04,1,0.001097989700471634,0.0011114391479274304,-0.0027490045194806623,0.01100890028252063,0.9926850117786279
2012-01-06,1,0.0015621564008428727,0.0016513113454550195,-0.0027490045194806623,0.010743368973234147,0.9928103542756966
2012-01-10,0,0.0,0.0,-0.0027490045194806623,0.01060397167091403,0.9929999806001935
2012-01-12,0,0.0,0.0,-0.0027490045194806623,0.010743368973234147,0.9917693120234984
2012-01-17,0,0.0,0.0,-0.0016905153714273959,0.010743368973234147,0.9916822948358085
2012-01-19,0,0.0,0.0,-0.0016905153714273959,0.010743368973234147,0.9917737868804553
2012-01-23,0,0.0,0.0,-0.0013998053025930822,0.01060397167091403,0.9919172784637299
2012-01-25,1,0.0016585831488757227,0.0018313481137808524,-0.001994973058251629,0.01060397167091403,0.9920042244622055
2012-01-27,0,0.0,0.0,-0.002584758731354906,0.00852255545966148,0.9920329922352313
2012-01-31,0,0.0,0.0,-0.003295970023225556,0.00852255545966148,0.9917444801939074
2012-02-02,1,0.00019547476018223336,0.0002337343368293218,-0.004880771191791329,0.007649487967615569,0.9918588211748817
2012-02-06,1,0.0006620365187397127,0.0007078804943917813,-0.004880771191791329,0.007649487967615569,0.9906846195424265
2012-02-08,1,0.0009542657781798983,0.0010680132255396315,-0.004880771191791329,0.007395802676823444,0.990741991430352
2012-02-10,1,0.000738374165473696,0.0007837758995172241,-0.004880771191791329,0.006612930667078245,0.9919068140790368
2012-02-14,-1,-0.0004687518571437788,-0.00026438804853606173,-0.006880831202833345,0.007395802676823444,0.9908977381997474
2012-02-16,1,0.0006667124773951773,0.0007045923594707046,-0.007872204335953491,0.007395802676823444,0.99061944045721
2012-02-21,1,0.0004222019827358415,0.0004338284674335426,-0.009952267659588667,0.0059110112768577545,0.9906027494999088
2012-02-23,1,0.0008550075595047605,0.000933226380981216,-0.009526700110740268,0.0035858272014812403,0.9908324234597752
2012-02-27,-1,-0.0011567944303857301,-0.0008488969951652289,-0.009526700110740268,0.0059110112768577545,0.9906124837496558
2012-02-29,1,0.0001059222117385854,0.0001300720683268914,-0.009526700110740268,0.0059110112768577545,0.9909057888037994
2012-03-02,-1,-0.0006880197048773485,-0.0005057027325909265,-0.009526700110740268,0.0059110112768577545,0.9910557447780058
2012-03-06,-1,-0.0006840755660525501,-0.0005082908055670742,-0.007762480278073366,0.0059110112768577545,0.9925672762695146
2012-03-08,1,0.0003673579720372528,0.00037845014037409143,-0.009526700110740268,0.003080501874829531,0.9921109761069538
2012-03-12,-1,-0.0005137217262744027,-0.00031022011348568466,-0.010924052725140526,0.0026427881756105995,0.9909180456142154
2012-03-14,1,1.0165880248494424e-05,8.22093725267177e-05,-0.010924052725140526,0.004902594289727441,0.9908683062141079
2012-03-16,1,0.00024395510426507226,0.0002516019933358069,-0.009898057449036775,0.004902594289727441,0.9911949275141736
2012-03-20,0,0.0,0.0,-0.0078157850594742,0.00892951602213395,0.9910893795996952
2012-03-22,0,0.0,0.0,-0.006997304455932418,0.00892951602213395,0.9912762614134966
2012-03-26,1,0.0005108684153907076,0.0005112224870667751,-0.008027228053568203,0.00892951602213395,0.9906824475100028
2012-03-28,1,0.0003998581479354773,0.00042870200375268137,-0.008027228053568203,0.010759573692071322,0.9895595204404215
2012-03-30,1,0.00017782206010096853,0.00022281067209341086,-0.006522663422266104,0.010759573692071322,0.9901680832328054
2012-04-03,1,0.0006745351731291155,0.00069953389166564,-0.006522663422266104,0.010759573692071322,0.9902250460557446
2012-04-05,-1,-0.00020621315661013476,-8.524881296718577e-05,-0.00503851465942899,0.011429814261158805,0.9903909529441856
2012-04-10,-1,-0.0008986342706295647,-0.0006951339019156892,-0.003122206267438606,0.011429814261158805,0.9918004895499318
2012-04-12,-1,-0.00027789824733125655,-0.0001321930020919126,-0.004317842579686864,0.010731312763797476,0.9923579119270753
2012-04-16,-1,-0.0004148374220845116,-0.0002616935399599025,-0.00465462779005546,0.01047266517820522,0.9923626040655729
2012-04-18,-1,-0.0007970364139394995,-0.0005768490314534782,-0.00465462779005546,0.00976810820195554,0.992884080249888
2012-04-20,-1,-0.0008900986707046086,-0.000639182687520407,-0.008060247676317387,0.00976810820195554,0.9919544850049026
2012-04-24,-1,-0.0007883810382705006,-0.0005469744943306972,-0.006506810253200723,0.00976810820195554,0.9919975428798136
2012-04-26,1,0.00021927974898833464,0.00031526416030891653,-0.006506810253200723,0.009300712457975365,0.992429648061698
2012-04-30,0,-0.00010157742952343667,3.3537041163058355e-05,-0.006506810253200723,0.009722842425699523,0.9922550077536613
2012-05-02,1,0.00022872617482215784,0.00031469551623685414,-0.008060247676317387,0.010303828355201236,0.9913516619553193
2012-05-04,1,0.00011133580704887597,0.00021446980781203722,-0.009480489878876768,0.009486384111295564,0.9907211473460825
2012-05-08,0,-0.00014197181101063182,1.1646679469885877e-05,-0.009480489878876768,0.010303828355201236,0.9892461887853352
2012-05-10,0,-8.792343483291057e-05,5.622008774216412e-05,-0.008941637273520289,0.010303828355201236,0.9895336857522927
2012-05-14,-1,-0.001046403361412712,-0.0007407360258183161,-0.008941637273520289,0.010466273134854785,0.9889506903887123
2012-05-16,-1,-0.0008810324074868675,-0.0006369459247978775,-0.012040223401773156,0.010466273134854785,0.9883805602675312
2012-05-18,-1,-0.0014561276579434321,-0.0011591799733585784,-0.0007170938895287205,0.010466273134854785,0.9888942927657962
2012-05-22,-1,-0.001080498032075633,-0.0008113485890849556,-0.0041427409034807084,0.010466273134854785,0.9892830894993936
2012-05-24,-1,-0.0007539232508059783,-0.0005123123923273431,-0.0064169564301082855,0.010466273134854785,0.9889406602139711
2012-05-29,-1,-0.0005977978640510748,-0.0003753977222313399,-0.00930386023804902,0.010991364825393217,0.9885774309696274
2012-05-31,-1,-0.00045486997269604263,-0.0002518278562276779,-0.005514217072057165,0.009452347289704649,0.9897358773424018
2012-06-04,-1,-0.0011625348517059404,-0.0009051697195768247,-0.0018119786270131845,0.010991364825393217,0.989261310404762
2012-06-06,0,-4.0165323301538636e-05,7.890771001765244e-05,-0.005105042172794286,0.009452347289704649,0.9907588528069724
2012-06-08,0,-3.285281193422839e-05,0.00010854174990004704,-0.005105042172794286,0.007575118031245796,0.9912851617956888
2012-06-12,1,0.00011163320299552369,0.0002079146887729315,-0.002968587435950786,0.006954042085812646,0.9924780769666256
2012-06-14,0,-2.3197517060594998e-05,7.459989121270499e-05,-0.002968587435950786,0.007575118031245796,0.9925123593090632
2012-06-18,1,0.0005358131812878808,0.0005559157179456527,-0.004846374631440023,0.007575118031245796,0.9924647990813872
2012-06-20,1,0.0006201002930343099,0.0006320037643646359,-0.0038086127969977268,0.004206779004977613,0.9933478499737324
2012-06-22,1,0.0001564396786569325,0.00023882587349828617,-0.0038086127969977268,0.0023761485301420824,0.9941428789049592
2012-06-26,1,0.00031548342162424054,0.0003691129052979879,-0.002269474473694856,0.0015063893061770532,0.9949693410229415
2012-06-28,1,0.00038212714269050916,0.0004318351211807073,-0.002269474473694856,0.0033379590827079266,0.9939513223767391
2012-07-02,1,0.0012174019449239328,0.0012887843522252306,-0.0038086127969977268,0.0015063893061770532,0.9942793450152254
2012-07-05,1,0.001376864736374391,0.0015183151058778808,-0.0038086127969977268,0.0009206442411829529,0.9941583677177959
2012-07-09,1,0.001388194818402628,0.001542034338637017,-0.007551520565251392,0.0024320946689454703,0.9929959986072185
2012-07-11,1,0.0015715010172283974,0.0017768393231765343,-0.007551520565251392,0.005003421310071787,0.9929227758325455
2012-07-13,1,0.0018464359854290105,0.0021036025952045623,-0.0036404902968931088,0.0034173770490015477,0.9935506061254862
2012-07-17,1,0.0014529630220860394,0.0016476601381766095,-0.0015451727814161033,0.0035995467480091897,0.9941812607133161
2012-07-19,1,0.0012715455038300643,0.0014337403644744107,-0.0015451727814161033,0.005156597967074514,0.9935034196368332
2012-07-23,1,0.0008084898756999146,0.0008805824919054508,-0.00019627571326654103,0.006997632219719685,0.9938374099010183
2012-07-25,1,0.00029853831901709344,0.00031855287385592745,-0.0005800143488306249,0.006997632219719685,0.9931416728464945
2012-07-27,1,0.0008975916671675125,0.0009488548605456691,-0.0019325632935810358,0.0048608866113428115,0.993895608054839
2012-07-31,1,0.0008486830804850756,0.0009147808599846732,-0.0019325632935810358,0.004269351691488524,0.9944794528413176
2012-08-02,1,0.0007040777548060096,0.000751114427145258,-0.0019325632935810358,0.004269351691488524,0.9945142417943766
2012-08-06,1,0.0009627039686211317,0.001059499480213021,-0.000585389685241093,0.003964587294916505,0.9956637446746343
2012-08-08,1,0.001200943264498262,0.0013281747577337452,-0.0011685755899621924,0.00401564618058408,0.995292673828261
2012-08-10,1,0.001100753388601426,0.0012024267780953825,-0.0030829815042691206,0.00401564618058408,0.9947001721123321
2012-08-14,1,0.0008398614517627055,0.0008802838498918191,-0.0030829815042691206,0.0048608866113428115,0.9941709490624893
2012-08-16,1,0.0017446814477037336,0.0019290004417011177,-0.0030829815042691206,0.00445400444343564,0.9943602452969575
2012-08-20,1,0.0015934049066163524,0.0017445420001185874,-0.005885409945661494,0.0035005212868531228,0.9940390931123753
2012-08-22,1,0.0009519891224692393,0.000984150478742363,-0.0060354576327150454,0.0035005212868531228,0.9941981489669891
2012-08-24,1,0.0011498219486664875,0.001231959953655088,-0.006785956609701413,0.002568527574103727,0.9942886632813789
2012-08-28,1,0.0004909287432887373,0.000529796467439031,-0.007519074327974528,0.002568527574103727,0.9935174232370392
2012-08-30,-1,-0.00044273271216618067,-0.0002381512456193323,-0.006850914783146825,0.0035005212868531228,0.9937722541696272
2012-09-04,1,0.00027364392404968823,0.00034770226625220683,-0.006850914783146825,0.0015162580422130047,0.9939030352314603
2012-09-06,1,0.0003207120991763593,0.0003913386459830487,-0.006850914783146825,0.0025178268237659855,0.9937160492396924
2012-09-10,-1,-0.0001470947968261096,-1.9064758047237184e-05,-0.0060354576327150454,0.003502766104380769,0.994180283176667
2012-09-12,1,0.0003572339312527822,0.0004188744073464629,-0.006611355455518152,0.0017684106627465764,0.9944248286140961
2012-09-14,1,0.0007858440258631191,0.0007956828993246841,-0.006720114509280642,0.0017684106627465764,0.9945310523282652
2012-09-18,1,0.0009525902307542147,0.001012705121317722,-0.006611355455518152,0.0044368646566975214,0.9942627746651681
2012-09-20,1,0.00041226720568902193,0.00043999911775069906,-0.0036548890897475945,0.005718495357952326,0.994052325361994
2012-09-24,1,0.00029292410765281707,0.0003197601389189907,-0.0036548890897475945,0.005718495357952326,0.9939726476299499
2012-09-26,-1,-0.0005229971418451895,-0.0004018515761638602,-0.0012525432677429925,0.005718495357952326,0.9948318197268791
2012-09-28,-1,-0.00038980522851677377,-0.00028312256380307147,-0.0003917537637235339,0.0095126069143034,0.9937590406845923
2012-10-02,-1,-0.0003163312581352407,-0.00024833649531146333,-0.002453557295574323,0.0095126069143034,0.9928187511697493
2012-10-04,-1,-0.00012155460543259892,-5.2139123638532826e-05,-0.005086976214064115,0.00718693918127753,0.9926554905348941
2012-10-08,-1,-0.00037381703677752,-0.00026153989091456963,-0.006720114509280642,0.0095126069143034,0.9911473756905013
2012-10-10,-1,-0.0008186946871009921,-0.0006291225439455679,-0.005088689402808776,0.0095126069143034,0.9912605744346648
2012-10-12,-1,-0.0006224639985125222,-0.00047949243374059486,-0.0064865615960914185,0.0095126069143034,0.9910679441946889
2012-10-16,-1,-8.55347626807084e-05,-2.2224704172200607e-05,-0.00822241546186804,0.009350458907240242,0.9907794547278581
2012-10-18,1,0.0004501846231523779,0.00045247401382971463,-0.00822241546186804,0.010355286246508298,0.9900337209087543
2012-10-22,1,0.0003905588504525818,0.00039216952182004387,-0.007176889737694794,0.010355286246508298,0.9901925851096256
2012-10-24,-1,-0.000492569449048924,-0.00034324213547454267,-0.007176889737694794,0.011125790279836961,0.9897032566409191
2012-10-26,1,0.0008721438076348,0.0009463603112381329,-0.007176889737694794,0.008619359665170582,0.990533517169821
2012-11-01,1,0.00021746238247284238,0.00022129436114238084,-0.005254765570319944,0.008619359665170582,0.9914433653428922
2012-11-05,1,5.975284885860174e-05,8.939618655311539e-05,-0.003091064257175803,0.008619359665170582,0.9924061371070378
2012-11-07,-1,-0.00032151729519690485,-0.00023199146626136428,-0.0021124698014440635,0.006980909991793583,0.9938890593956682
2012-11-09,-1,-0.00011547960049355222,-7.347557516355918e-05,-0.0025281570094737556,0.006980909991793583,0.9939298297380198
2012-11-13,-1,-0.0005974299302158858,-0.0004954465040663,-0.0014214413591521454,0.006980909991793583,0.9944568303591608
2012-11-15,-1,-0.000614126198466589,-0.0005021702637229616,-0.0021124698014440635,0.003677209294459442,0.994491415005883
2012-11-19,1,1.4479736249145656e-05,4.769582188277436e-05,-0.0021124698014440635,0.002163463812665727,0.9957049970277798
2012-11-21,1,0.00018748320017316088,0.00019631276726993988,-0.0025281570094737556,0.002163463812665727,0.9955628306351959
2012-11-26,1,0.0004642370036687185,0.0005175582255340218,-0.0028520371744474395,0.0019785294341319037,0.9955422910872963
2012-11-28,1,0.0005857058751412707,0.0006439536946934731,-0.0045688820072096676,0.0019760865680139798,0.9955001136193592
2012-11-30,1,0.00046046196018117714,0.0004997011900216932,-0.004881989715679254,0.001976331289696446,0.994198256816735
2012-12-04,1,0.0003785235040446876,0.0004046951381375579,-0.004881989715679254,0.002163463812665727,0.9934747868338862
2012-12-06,1,0.000561407691735107,0.000622628835111577,-0.004881989715679254,0.002733711491898198,0.9930148865994194
2012-12-10,1,0.0004753053961585969,0.0005111041189211286,-0.004881989715679254,0.006486785729113976,0.9927020791695707
2012-12-12,1,0.00027149873180796395,0.0002723046340418865,-0.004881989715679254,0.010963484011971135,0.9922363087638358
2012-12-14,-1,-0.000208710073909105,-0.00014855347302221588,-0.0042157926093708475,0.010963484011971135,0.9932020116224487
2012-12-18,-1,-8.515343022815348e-05,-2.524178175153857e-05,-0.0042157926093708475,0.00730113837650282,0.9934917730858778
2012-12-20,1,0.00010074860625302546,0.00011515887214411826,-0.0034928118043411633,0.011075451255288877,0.9925546755644526
2012-12-24,0,0.0,0.0,-0.0012624491617539983,0.011075451255288877,0.9931024410274268
2012-12-27,0,0.0,0.0,-0.0010466479979432133,0.011075451255288877,0.9927130470674385
2012-12-31,0,0.0,0.0,-0.0010466479979432133,0.010003137215867186,0.9934628158365463
2013-01-03,1,5.1365565175861413e-05,7.515295180809622e-05,-0.0012624491617539983,0.010003137215867186,0.9930623666456277
2013-01-07,0,0.0,0.0,-0.0014724433130335513,0.00878483792330273,0.9932538126096363
2013-01-09,0,0.0,0.0,-0.0014724433130335513,0.00966073634179078,0.99282393053024
2013-01-11,0,0.0,0.0,-0.0014724433130335513,0.008772665684902791,0.9932204269680004
2013-01-15,0,0.0,0.0,-0.0007190978496498563,0.008772665684902791,0.9933620820138814
2013-01-17,0,0.0,0.0,-0.0006890955168629118,0.008772665684902791,0.993499168029975
2013-01-22,0,0.0,0.0,-0.0014724433130335513,0.005208453123050206,0.9940220729075486
2013-01-24,0,0.0,0.0,-0.0007471691650322906,0.006998188510574468,0.9937353065343693
2013-01-28,1,0.002525653132332404,0.002639497058270406,-0.0007471691650322906,0.00966073634179078,0.9930563856965243
2013-01-30,1,0.0024601050060289674,0.002565522209607666,-0.00027999401875900747,0.00863137156326094,0.993351195455926
2013-02-01,1,0.0030686391819402248,0.00326001879853977,0.0002772982328141254,0.005752847473945697,0.9946339871629009
2013-02-05,0,0.0,0.0,0.0004474477293170462,0.00863137156326094,0.9934791969738478
2013-02-07,0,0.0,0.0,0.00044132195955665706,0.005435836610580194,0.994182740864831
2013-02-11,1,0.00037776352032861405,0.0004963673747675091,0.0004474477293170462,0.005435836610580194,0.9944206917726366
2013-02-13,1,0.00019866988654527226,0.0003431981098249884,0.0009536759061029964,0.006408214168564284,0.9938955188792222
2013-02-15,1,1.9932105101611725e-05,0.00019061118132600682,0.00044132195955665706,0.006408214168564284,0.9929377431011247
2013-02-20,0,-0.00013695837867126195,5.8603101466708795e-05,0.00044132195955665706,0.007181510791798992,0.9933242827338122
2013-02-22,-1,-0.00025501378322118073,-4.376308757173377e-05,0.00037807081266505937,0.006372611002938179,0.9933242066645599
2013-02-26,0,-9.526446829418171e-05,0.00010288151319380622,0.00044132195955665706,0.006372611002938179,0.994742663316294
2013-02-28,-1,-0.00027932239994118014,-5.362802213041361e-05,0.00037807081266505937,0.006345580861964437,0.9946846178606149
2013-03-04,-1,-0.00045513432403741165,-0.0002044407135647115,-0.0001570182722757215,0.007064817203251665,0.9943603835548516
2013-03-06,-1,-0.0006147043526761058,-0.0003398075165607017,-0.0014844639526027383,0.005666572010684689,0.9950316863525438
2013-03-08,-1,-0.0008088844766791175,-0.0005054603879272386,-0.0021073755143738715,0.007064817203251665,0.9946811725880033
2013-03-12,-1,-0.0009992781492237555,-0.0006680794679183801,-0.0022684105147708277,0.007181510791798992,0.9942132564909625
2013-03-14,0,0.0,0.0,-0.002994392586679752,0.007534727073120673,0.9938352428670838
2013-03-18,0,0.0,0.0,-0.0022684105147708277,0.008795738615129677,0.9933764142852063
2013-03-20,-1,-0.0019334855071422117,-0.0015330269107580875,-0.004169572885016243,0.008795738615129677,0.9918999830311087
2013-03-22,-1,-0.002063700486183158,-0.0016445819317279257,-0.0030391337636118095,0.009718409455301415,0.9909840023832456
2013-03-26,-1,-0.0021824772284966157,-0.0017462370961023569,-0.0030391337636118095,0.010273145440692834,0.9906160176211897
2013-03-28,1,0.0002871927630587282,0.0003580580111332424,-0.004169572885016243,0.010273145440692834,0.9902624846987934
2013-04-02,0,0.0,0.0,-0.004169572885016243,0.01309290284625448,0.9899332922851144
2013-04-04,0,0.0,0.0,-0.006380654570960149,0.01309290284625448,0.9892248763040526
2013-04-08,0,0.0,0.0,-0.006380654570960149,0.01309290284625448,0.9891832572798426
2013-04-10,0,0.0,0.0,-0.006380654570960149,0.011522531733258129,0.9897873993578732
2013-04-12,0,0.0,0.0,-0.008320269718614711,0.00851036400711307,0.9901400001267759
2013-04-16,0,0.0,0.0,-0.0031856864899035262,0.00851036400711307,0.9907263502109945
2013-04-18,0,0.0,0.0,-0.001068417437628034,0.00851036400711307,0.9916078367723123
2013-04-22,1,0.0009632360986524514,0.0010909488255497859,-0.0031856864899035262,0.0067773505498228345,0.9924204513291064
2013-04-24,1,0.003107323464459842,0.003303501802362823,-0.009529871981525693,0.004675780321273939,0.9920486354861777
2013-04-26,0,0.0,0.0,-0.0077736048413561114,0.004675780321273939,0.992234732178926
2013-04-30,0,0.0,0.0,-0.009529871981525693,0.003907985833851055,0.9923338920119396
2013-05-02,0,0.0,0.0,-0.009529871981525693,0.003907985833851055,0.9921005900736455
2013-05-06,0,0.0,0.0,-0.010607151956291036,0.003790516384465695,0.9915864945171478
2013-05-08,-1,-0.0016206795957397616,-0.0015881042672414374,-0.011825102945959195,0.003907985833851055,0.9909835734051882
2013-05-10,1,0.0013384600676977514,0.0014694957553120491,-0.011825102945959195,0.004511260342585942,0.9907825773328772
2013-05-14,1,0.0015960361380218887,0.0016012000819961897,-0.01323119106700186,0.003446058729072147,0.9902705360524172
2013-05-16,1,0.0007700714906676224,0.0008844790835273754,-0.011825102945959195,0.004448630886096581,0.9904524950343923
2013-05-20,1,7.146794989275058e-05,0.0003049109230090013,-0.011825102945959195,0.006298217724817834,0.9904145541122626
2013-05-22,0,0.0,0.0,-0.01323119106700186,0.006298217724817834,0.9896956380444832
2013-05-24,0,0.0,0.0,-0.013896353357514431,0.006298217724817834,0.9892352786181405
2013-05-29,-1,-0.0006032743151575127,-0.0002261955838035693,-0.013896353357514431,0.008393950585943753,0.9891630855060879
2013-05-31,-1,-0.0007732104380094166,-0.000390077461703358,-0.013211512752243125,0.008697107404468664,0.9892920954970552
2013-06-04,-1,-0.0014599749415818253,-0.001013141966158365,-0.00875977233123513,0.011598378718522494,0.9894439769472028
2013-06-06,-1,-0.0013972639537209073,-0.0009707378118057807,-0.006036380870098255,0.011598378718522494,0.9900124285175715
2013-06-10,0,0.0,0.0,-0.006036380870098255,0.013522489811462523,0.9891931530981877
2013-06-12,0,0.0,0.0,-0.00478381730144233,0.013522489811462523,0.9896246583637924
2013-06-14,-1,-0.0019094089922030376,-0.0017227915872457514,-0.0012899736672551045,0.013197872868253809,0.9893911389177356
2013-06-18,-1,-0.0018113214501509053,-0.0016395776861961996,-0.005221612270987532,0.009667069963341282,0.9901021538299887
2013-06-20,-1,-0.002740005764595949,-0.002462398459978738,-0.0005145955659993016,0.01214442019518558,0.9906576362964714
2013-06-24,-1,-0.0028299297335439943,-0.0025454516298143394,-0.0005145955659993016,0.01214442019518558,0.9904924036862202
2013-06-26,-1,-0.0033200152518083432,-0.002754804830116789,-0.002186093464638014,0.009768073184455904,0.9906149502815688
2013-06-28,-1,-0.00227263322714448,-0.0018758975738956674,-0.000658060429789811,0.008663367005952095,0.991613491885732
2013-07-02,-1,-0.0015725872418476299,-0.0012910212274702768,-0.000658060429789811,0.007506746336845158,0.9925903981548623
2013-07-05,-1,-0.0012875842209718004,-0.0010457441028717354,-0.0019236076744120782,0.008663367005952095,0.9920875743306482
2013-07-09,-1,-0.00021559050573996443,-0.00010053406769238696,-0.004587412222253539,0.006739411260258258,0.9929903992308454
2013-07-11,1,0.0002826511457682906,0.000337616825630058,-0.004960072741623314,0.004531148269614498,0.9933359332830104
2013-07-15,1,0.00043744544848120455,0.0004910001997444457,-0.004960072741623314,0.0038591102181202946,0.993614200441197
2013-07-17,1,0.00029563652853641694,0.0003504512264192774,-0.003729919233234392,0.0043687267422620035,0.9937799742764123
2013-07-19,1,0.00036486126287639406,0.00042831457682253365,-0.004960072741623314,0.0038591102181202946,0.9932400243084761
2013-07-23,1,0.00040605107879606683,0.00045323229754403403,-0.004960072741623314,0.0038591102181202946,0.9932446157087906
2013-07-25,0,-3.041493254603598e-05,6.128172120451332e-05,-0.004960072741623314,0.003913969188069884,0.9935249986059053
2013-07-29,1,0.00041254368781806766,0.00042439544302069775,-0.007702494380381909,0.003234596874433134,0.9929889371515794
2013-07-31,1,0.00039548725592847674,0.000402033653865013,-0.008639197527447764,0.003234596874433134,0.9922230525818091
2013-08-02,1,0.0009145919139565169,0.0009859225573706563,-0.010253722436962633,0.003234596874433134,0.9923359910060072
2013-08-06,1,0.0004201313474738101,0.00044533770508047585,-0.008639197527447764,0.003872350514513148,0.993247643187418
2013-08-08,0,-4.7591707759816234e-05,2.321258054340959e-05,-0.009487783320444934,0.0033994230222233602,0.993240304321853
2013-08-12,-1,-0.00010495448511114782,-3.6775591053099895e-05,-0.009487783320444934,0.004596156636937548,0.9923255426697101
2013-08-14,1,3.919423379141615e-05,9.787513636997527e-05,-0.009487783320444934,0.0044713006162673385,0.9923570971421168
2013-08-16,-1,-0.0006255032014899472,-0.0005069669669733044,-0.008495184326484419,0.004992435940403738,0.9930653690910315
2013-08-20,-1,-0.0007271519380662626,-0.0006071201339910958,-0.006592619986941431,0.004992435940403738,0.9934482919769875
2013-08-22,-1,-0.0005494195980451818,-0.0004621090835658984,-0.004738998553111317,0.004578896009302861,0.9940015140977619
2013-08-26,-1,-0.0010574641805694825,-0.0009115783101194068,-0.004738998553111317,0.004578896009302861,0.9940541899645672
2013-08-28,-1,-0.0017092952635153896,-0.0014975610202538937,-0.0009642206772295485,0.004578896009302861,0.9942991712276863
2013-08-30,-1,-0.0016379228219232747,-0.001458400313197929,-0.0009642206772295485,0.0044608911716360715,0.9945747284462728
2013-09-04,-1,-0.0010691257132199082,-0.0009752290366563925,-0.0009642206772295485,0.0047040701983006635,0.9947391377342769
2013-09-06,-1,-0.0013999733662588927,-0.0012692803791984869,-0.0009642206772295485,0.0053679585073971425,0.9939742187086096
2013-09-10,-1,-0.0014449569431362597,-0.0012315930077819056,-0.0031223188753582033,0.0044608911716360715,0.9948783855518657
2013-09-12,-1,-0.0011021347871165775,-0.0009778263647951231,-0.0010030743988690323,0.0047040701983006635,0.9936530881907658
2013-09-16,-1,-0.00018470332276672162,-0.00015997185264354398,-0.0010030743988690323,0.004654671888005544,0.9939521859923123
2013-09-18,-1,-0.000154130347510042,-0.00014818077734932074,-0.0036273200969087612,0.004654671888005544,0.9933195385999083
2013-09-20,1,0.00035876048283800847,0.0004560134394220077,-0.0036273200969087612,0.00598590283760452,0.9931982894803368
2013-09-24,1,1.7029393134477611e-06,4.477848686602418e-05,-0.001282482391621596,0.007727565233370143,0.9931291403032554
2013-09-26,1,0.0004774937112959717,0.0006146879627410807,-0.0030404929842606843,0.007727565233370143,0.9931465813532278
2013-09-30,1,0.00047975334465440677,0.0006219992152078248,-0.00274259141786253,0.007727565233370143,0.9934259006612582
2013-10-02,1,0.0007457008230416169,0.0009178964062087099,-0.00274259141786253,0.007727565233370143,0.9934322114089644
2013-10-04,1,0.0012035712569049848,0.001477810462112323,-0.00274259141786253,0.006822411732592488,0.993963437117605
2013-10-08,1,0.0005566116290195366,0.0007094771378047906,-0.002045547750352004,0.006822411732592488,0.9940934965669778
2013-10-10,1,0.001522019747935345,0.0017980073360552473,-0.003080083412532733,0.006822411732592488,0.9944177422150897
2013-10-14,1,0.0013823153709119585,0.0015828939290123923,-0.003080083412532733,0.006822411732592488,0.9938439628329425
2013-10-16,1,0.0016954198479156028,0.0019375143203175355,-0.003080083412532733,0.006822411732592488,0.9941036762185796
2013-10-18,1,0.0019028070573524516,0.0021534911918907104,-0.003080083412532733,0.006751457248043357,0.9940692590860313
2013-10-22,1,0.002035545166656902,0.002292673573074685,-0.0036363644915674595,0.005029159359996866,0.9940771891409212
2013-10-24,1,0.0014575750548436704,0.0015838278147850115,-0.003571933879815353,0.006751457248043357,0.9933330845135148
2013-10-28,1,0.0012383630464782164,0.00132131156082398,-0.003571933879815353,0.007488077348741496,0.99300611104965
2013-10-30,1,0.0015452158503835637,0.001689308927396245,-0.003571933879815353,0.007488077348741496,0.9932143111605608
2013-11-01,1,0.0007411062558501493,0.0007486659339928014,-0.003989221554692878,0.007488077348741496,0.9929425963862496
2013-11-05,1,0.0006451032848985364,0.0006473670858572817,-0.004027262577532445,0.007488077348741496,0.9928204125562546
2013-11-07,1,0.0009054146495764499,0.0009826022511875208,-0.004027262577532445,0.007488077348741496,0.9929029857256918
2013-11-11,1,0.0007353528759300087,0.0007639898986708141,-0.004398729987222279,0.005531875248085341,0.9934830174698833
2013-11-13,1,0.00028416614836880664,0.0003963943146562565,-0.004398729987222279,0.004811202382427637,0.9937072958930836
2013-11-15,1,0.001046009010729744,0.0010561861215397214,-0.005110864852953659,0.004581511703548817,0.9933929782029223
2013-11-19,1,0.0011002362407371924,0.0011251288574813615,-0.005110864852953659,0.004811202382427637,0.992789252842541
2013-11-21,1,0.0017174802114784003,0.0018403440629914092,-0.005110864852953659,0.004811202382427637,0.992991235928544
2013-11-25,1,0.0022510483816747242,0.0024534288451872007,-0.005110864852953659,0.0013933574863053107,0.9931453463078465
2013-11-27,1,0.0029489251522286162,0.003308892836047337,-0.005573542795554475,0.0013428146660255907,0.9924739543443545
2013-12-02,1,0.0025974100670615326,0.0029415202261533517,-0.0045487415242024725,0.003114499995153854,0.9935764383855802
2013-12-04,1,0.0023851723111685047,0.002724649922087964,-0.005763510764325203,0.003114499995153854,0.9929312503998168
2013-12-06,1,0.002614553269991526,0.002965644700447418,-0.00471342282965273,0.0024884620001984228,0.9936058852695218
2013-12-10,1,0.0025733065186926505,0.0029397067891118152,-0.003915770665997086,0.003114499995153854,0.9937952798780537
2013-12-12,1,0.0020316011786066764,0.002323530591331694,-0.003915770665997086,0.003114499995153854,0.9940668843451324
2013-12-16,1,0.001336980415148957,0.0015069155194887924,-0.003137589255666906,0.0035303647804980024,0.994644912053688
2013-12-18,1,0.0018490220213966515,0.0020941742054574886,-0.003905540595566301,0.003114499995153854,0.9950177027508663
2013-12-20,1,0.0020885105219120934,0.0023589673288300283,-0.003905540595566301,0.003114499995153854,0.9954001559733492
2013-12-24,1,0.002513342833428747,0.002870589233611381,-0.0072167889176009935,0.0024884620001984228,0.9932362177867482
2013-12-27,1,0.001880442624749957,0.002107192296722733,-0.006433937198714545,0.0028032411449831307,0.9935023672311488
2013-12-31,1,0.0019879456073710437,0.002225670699177235,-0.008069004006307827,0.0021142285154054368,0.9923338672851636
2014-01-03,1,0.0009365527504492604,0.0010270233667639466,-0.011412114168092437,0.0021142285154054368,0.9923332035659391
2014-01-07,1,0.0009900243140653089,0.0010999603921010245,-0.011412114168092437,0.0021142285154054368,0.9918653144212272
2014-01-09,1,0.0005568443902724053,0.0005609838889810695,-0.012683021997960696,0.002123006544305841,0.989820131021808
2014-01-13,0,-7.78885723622306e-05,4.994266459845453e-06,-0.011582854929426015,0.004704003316110098,0.9900288806141064
2014-01-15,1,0.0001182420725739821,0.00017976243024438778,-0.011582854929426015,0.0054724657955043535,0.9897157561557733
2014-01-17,-1,-0.0005003114772515135,-0.0003418258116812963,-0.011582854929426015,0.0054724657955043535,0.9898763290569593
2014-01-22,-1,-0.0009066189574430348,-0.0006625014295792933,-0.01299772170224695,0.005908715817463406,0.9892975548590314
2014-01-24,-1,-0.0025571050969045977,-0.002104157624193119,-0.008904057257473055,0.005908715817463406,0.9907672782886598
2014-01-28,-1,-0.0021514042941647646,-0.0017551177418370645,-0.008904057257473055,0.004311365796195305,0.991463677252048
2014-01-30,-1,-0.0024361948889319055,-0.0019889219640204913,-0.0042713389502151014,0.004308983226687695,0.9920516168584698
2014-02-03,-1,-0.0031613447508501177,-0.002670546256372508,-0.002562157367945019,0.004932704857037156,0.9919741973088113
2014-02-05,-1,-0.003559492698492839,-0.0030154958443957547,-0.001823994260620219,0.005908715817463406,0.9910752170839997
2014-02-07,-1,-0.004138366259019486,-0.0035489864296943067,-0.001823994260620219,0.004932704857037156,0.9927988100734584
2014-02-11,-1,-0.003492014940971168,-0.002993703105294053,-0.0021937530958125086,0.004395147960443442,0.9937942338358965
2014-02-13,-1,-0.00301025294874404,-0.002574978041816503,-0.0026568867904738485,0.004121383142925162,0.994389828568771
2014-02-18,-1,-0.0030151579435016658,-0.0025646307950144163,-0.0039238069549944275,0.004395147960443442,0.9942229272477494
2014-02-20,-1,-0.0032066132885278623,-0.002741260664010369,-0.0039238069549944275,0.004395147960443442,0.9941396394669395
2014-02-24,-1,-0.00340878667178482,-0.002915043670255354,-0.0039238069549944275,0.005484187306264576,0.9935151903972932
2014-02-26,-1,-0.0033699394954122375,-0.0028947375062246894,-0.0039238069549944275,0.005484187306264576,0.993286719177558
2014-02-28,-1,-0.003014472749863364,-0.0025839332356113716,-0.0039238069549944275,0.0074492089695245645,0.9935587851077139
2014-03-04,-1,-0.002985267084310575,-0.0025426546907279524,-0.0039238069549944275,0.0074492089695245645,0.9934569924604661
2014-03-06,-1,-0.0020197680019988125,-0.0017361277061731508,-0.0039238069549944275,0.006647373042942077,0.9937671192968582
2014-03-10,-1,-0.001762645120184976,-0.001527300219270532,-0.005308700678154196,0.006647373042942077,0.9935196155228828
2014-03-12,-1,-0.0016283408267380672,-0.001424620569454543,-0.004032251398533745,0.007201434004068495,0.9934538134595947
2014-03-14,-1,-0.0015965427675540271,-0.0014159782493772936,-0.006270213045002884,0.007201434004068495,0.9934325851121983
2014-03-18,-1,-0.001263734877191433,-0.0011346321059184494,-0.004171366764783985,0.007616163894321052,0.9930152886759871
2014-03-20,-1,-0.001096195287602691,-0.0009882788874512384,-0.0017658228264877413,0.007616163894321052,0.9932184498235823
2014-03-24,-1,-0.0007687462796407208,-0.0006998367360615712,-0.0022172088967285196,0.007616163894321052,0.9934814960890785
2014-03-26,-1,-0.0005965210056079419,-0.0005579512067143036,-0.0022172088967285196,0.008393968134012329,0.9927248584178645
2014-03-28,-1,-0.000596116093347769,-0.0005404908605514319,-0.003055939689718393,0.007650643237644122,0.9913512008609535
2014-04-01,-1,-0.0009925297089473386,-0.0008808287442709209,-0.0013940138014658773,0.007491543387359018,0.9919845212984502
2014-04-03,-1,-0.0006715392782645642,-0.0005969464956094376,-0.0013940138014658773,0.007491543387359018,0.9921301278247332
2014-04-07,-1,-0.0007690997356429596,-0.0007157069110597426,-0.0015308095514462703,0.007491543387359018,0.9924530368641956
2014-04-09,-1,-0.0004679247228957692,-0.0004484271854835695,-0.001941636131639936,0.008195902099034091,0.9921828020865798
2014-04-11,-1,-0.0006951483051452736,-0.0006683509578905641,-0.0014758709726973387,0.008195902099034091,0.9926286662649817
2014-04-15,1,4.294816941179141e-05,0.00011403330979084433,-0.001680584135459861,0.005929093570964914,0.993591520776274
2014-04-17,1,0.000688088252418768,0.000873187520537719,-0.001941636131639936,0.005447944068489756,0.9938385085689758
2014-04-22,1,0.0010526470561466675,0.001313629572907787,-0.0034577560599054723,0.005929093570964914,0.9932782968165385
2014-04-24,1,0.0016590977435612477,0.0020118011017625117,-0.0034577560599054723,0.005067055213219079,0.9935985199698121
2014-04-28,1,0.0006496627399182994,0.0008437928941413113,-0.0017891414780170107,0.004014843439330202,0.9954029179295782
2014-04-30,1,0.0008410135714515974,0.0010471643926139662,-0.002094821628687856,0.0033903065030362503,0.9955000413224384
2014-05-02,1,0.0013043930966808513,0.0015961728176243574,-0.0034577560599054723,0.0033345899140595297,0.9951408965433315
2014-05-06,1,0.00103544215576757,0.0012854461657111288,-0.0022891493575029147,0.003535798246147006,0.9953349582483555
2014-05-08,1,0.0011910169702908585,0.0014393917561389496,-0.002153626074750995,0.003535798246147006,0.9957544467825346
2014-05-12,1,0.001093236784435818,0.0013120996540569529,-0.002153626074750995,0.003535798246147006,0.995748895954178
2014-05-14,1,0.0011251123899622367,0.0013733951894302186,-0.002153626074750995,0.003535798246147006,0.995814147726026
2014-05-16,1,0.001009755120479835,0.0012609933969203284,-0.002153626074750995,0.003535798246147006,0.9958179325789529
2014-05-20,1,0.0011620073249933843,0.0014403845973781516,-0.0017439670504330372,0.003535798246147006,0.9964922730195768
2014-05-22,1,0.0012596456205753324,0.0015467818520539325,-0.0014258947576158674,0.0034657347975266036,0.996731336524823
2014-05-27,1,0.0015225709494606728,0.0018600365325562181,-0.0025665289956440067,0.00333589668885374,0.9962272287812582
2014-05-29,1,0.001230696940325973,0.0014891001311919485,-0.003422396105177502,0.00333589668885374,0.995997009718665
2014-06-02,1,0.0011411537778447996,0.0013867522414830842,-0.0025665289956440067,0.0033060796338054157,0.9963802691133539
2014-06-04,1,0.0012895265576979664,0.0015577166055804384,-0.0025776723510862556,0.0033060796338054157,0.9962712424672275
2014-06-06,1,0.0013990681898540976,0.0016623248533823025,-0.0027280972855156104,0.001592929679801435,0.9961489750072516
2014-06-10,1,0.001472343217522439,0.0017582070047541692,-0.003777447100855622,0.001592929679801435,0.995826268173125
2014-06-12,1,0.0012316620130614262,0.0014752088722846798,-0.003777447100855622,0.001592929679801435,0.9958698366015206
2014-06-16,1,0.0010052506349843482,0.0012267367821589504,-0.0030825935793165685,0.0033060796338054157,0.9961845315287232
2014-06-18,1,0.000634937589048878,0.0007414975660621863,-0.003777447100855622,0.0011850139459575206,0.9960503432289809
2014-06-20,1,0.0008056540525029387,0.000950339461843407,-0.003777447100855622,0.0034897127233038602,0.9954217089395594
2014-06-24,1,0.0005758237416639512,0.0006935665621722485,-0.003777447100855622,0.0034897127233038602,0.9953289535090191
2014-06-26,-1,-0.0002789139259312157,-0.0002277664610283775,-0.003777447100855622,0.0034897127233038602,0.9955296366921211
2014-06-30,-1,-0.000406903540100939,-0.0003224252375217269,-0.004259991995006171,0.003945959734740439,0.9950339689151899
2014-07-02,-1,-0.0009519752543179371,-0.0007490697743771917,-0.006968221474367193,0.003018531980626088,0.9941805805889451
2014-07-07,-1,-0.0006482536487774635,-0.0005026654171935378,-0.006968221474367193,0.003018531980626088,0.9937927394374546
2014-07-09,-1,-0.0006897280502849035,-0.0005608712003734361,-0.006968221474367193,0.003945959734740439,0.9935524548125779
2014-07-11,-1,-0.0008752069250732234,-0.0007328237943689578,-0.006968221474367193,0.0045547245001918354,0.9929994022319221
2014-07-15,-1,-0.0006571265492447111,-0.0005243293619626144,-0.006968221474367193,0.003945959734740439,0.9933004107142658
2014-07-17,-1,-0.001066717292920911,-0.0008795094694173956,-0.005377688923653561,0.0045547245001918354,0.9929032859475094
2014-07-21,-1,-0.0006708333425528071,-0.000520979793586725,-0.005377688923653561,0.0038569979933353307,0.9935555412317202
2014-07-23,-1,-0.0008573774406842989,-0.0007008483497042458,-0.0046222532308505355,0.0038569979933353307,0.9939912759148014
2014-07-25,-1,-0.001079350415275898,-0.0009032027526040647,-0.0046222532308505355,0.0045547245001918354,0.9934688263672043
2014-07-29,-1,-0.0010440257236152036,-0.0008934175333799019,-0.0027580629216365656,0.00667297829258097,0.9936642929129375
2014-07-31,-1,-0.0021665633134051432,-0.001886282129312071,-0.0020858060651331753,0.00667297829258097,0.9944858831244257
2014-08-04,-1,-0.001737129047283065,-0.0015070369631832612,-0.002268237816114597,0.004531063427216465,0.9949966675264653
2014-08-06,-1,-0.001805445498135402,-0.0015558432475104274,-0.002268237816114597,0.0038491109690102073,0.995219255726421
2014-08-08,-1,-0.0014403651104465903,-0.0012382577906073532,-0.002268237816114597,0.0038491109690102073,0.9954798191164048
2014-08-12,-1,-0.001088953268418034,-0.000935301422369603,-0.0030504566556208766,0.0038491109690102073,0.9954391491326753
2014-08-14,-1,-0.0004157387989370088,-0.0003552841006489941,-0.0037082718921432993,0.0019278029653638535,0.9959077513969593
2014-08-18,-1,-0.0003289323916791222,-0.00027960098670839237,-0.0037082718921432993,0.0019278029653638535,0.995878914419753
2014-08-20,-1,-9.504762921660025e-05,-8.167829362154384e-05,-0.0037082718921432993,0.0025453327765798048,0.9957362141024318
2014-08-22,-1,-0.00018099939981508316,-0.00014089531197275054,-0.0037082718921432993,0.002335140861005506,0.9960691764116646
2014-08-26,1,0.00021886726408735813,0.000244871444671753,-0.0044034091400323725,0.002335140861005506,0.995424217062863
2014-08-28,-1,-0.0003702145933684155,-0.00029478576223504417,-0.0044034091400323725,0.003320321032360747,0.9946305001757357
2014-09-02,-1,-0.00017377789494529554,-0.00013475530498954834,-0.004896515036287048,0.00252468297023684,0.9945605236846592
2014-09-04,-1,-0.0006714593448424243,-0.0005436990883668589,-0.006038881784831728,0.003512354590397611,0.9941941400346681
2014-09-08,1,0.00010710466645031712,0.00011224473688108866,-0.006038881784831728,0.003512354590397611,0.9938881677043033
2014-09-10,1,0.00010817772613299509,0.00014165425464752432,-0.006038881784831728,0.00478952255710807,0.9928518043110522
2014-09-12,1,9.25833684401751e-05,0.00013077226308421384,-0.007090531078980805,0.00478952255710807,0.9921748105786049
2014-09-16,1,0.0003657830558882264,0.000477914011235307,-0.007739352961716792,0.00478952255710807,0.9918585184939525
2014-09-18,1,2.9624116018778907e-05,3.303662827895057e-05,-0.009430072725813697,0.004088618544139231,0.9915168448724913
2014-09-22,1,9.703341686363112e-05,0.00013099951139341687,-0.009430072725813697,0.005807761701350219,0.9908682716482612
2014-09-24,1,4.265793856497892e-05,8.82683890629368e-05,-0.007739352961716792,0.005807761701350219,0.9907980522372775
2014-09-26,-1,-0.0005550263471523775,-0.0005095282834134477,-0.006255155745743723,0.007725001611311693,0.9911880586837754
2014-09-30,-1,-0.0003815917358012718,-0.0003806973204633163,-0.004495098125923004,0.007725001611311693,0.9909748916584057
2014-10-02,-1,-0.0004780733535772238,-0.00046985261880716527,-0.0022924320198175977,0.009259518373299061,0.9909878401035475
2014-10-06,-1,-7.031646768985918e-05,-4.178794424369979e-05,-0.0009546526556054853,0.009259518373299061,0.9914501434114713
2014-10-08,-1,-0.00014463148130088073,-0.00014153784322394025,0.0008011779992338922,0.007725001611311693,0.9924737788456809
2014-10-10,-1,-0.0007872720055336307,-0.000714379929995032,0.0008645438516964,0.007725001611311693,0.9930477830693278
2014-10-14,-1,-0.0007913854374752193,-0.0007262628780156574,0.0008645438516964,0.007725001611311693,0.9930419113875723
2014-10-16,-1,-0.0011091967152460295,-0.0010151612779948165,0.0019024470301864664,0.007725001611311693,0.9930539715854134
2014-10-20,-1,-9.203612801767968e-05,-5.9303923822214105e-05,0.0007332978843030224,0.006160132060822007,0.9945044194887488
2014-10-22,1,0.0006133462785601134,0.0007313610449132095,-0.0005881336382702199,0.006122574059221784,0.9958584913202533
2014-10-24,1,0.0011644086079520186,0.0013634931880147113,-0.0005881336382702199,0.005684962159082636,0.9964640189491925
2014-10-28,1,0.0017582446302957036,0.0020558535464227133,-0.0012236105546615701,0.004022924786900682,0.9960713848168871
2014-10-30,1,0.0021759249078835063,0.0025245665095325826,-0.0012236105546615701,0.004022924786900682,0.9961324679510883
2014-11-03,1,0.0025211220629946145,0.0029006507867264117,-0.0017127318296060864,0.004022924786900682,0.9958767031145956
2014-11-05,1,0.002667639563066265,0.003040004400178783,-0.0017127318296060864,0.0027055875124702596,0.9958482145037247
2014-11-07,1,0.002742941424476765,0.003139605168428025,-0.0015686265889017907,0.003876124334598019,0.9955668690610887
2014-11-11,1,0.002763395631521297,0.0031631864877629066,-0.0024098021240611073,0.0028300426111808907,0.9951330757825824
2014-11-13,1,0.0025559469947683843,0.002902064080252724,-0.0029438819881461055,0.003876124334598019,0.9940795317495501
2014-11-17,1,0.0020389449931013746,0.002295654517939685,-0.0029438819881461055,0.003876124334598019,0.9937541463429286
2014-11-19,1,0.0018886894042324468,0.0021296518387798912,-0.0024098021240611073,0.006882932498170906,0.9929137848984697
2014-11-21,1,0.0021401897962417924,0.002422027948140778,-0.0024098021240611073,0.008042476587179156,0.9926843537157121
2014-11-25,1,0.001713242465585824,0.0019408412834087622,-0.0024098021240611073,0.008042476587179156,0.9931910216095343
2014-11-28,1,0.001845103695060391,0.0020703689164392348,-0.0024098021240611073,0.007468987161477637,0.9934816638172504
2014-12-02,1,0.001874236176812464,0.0020836784319300163,-0.0026298584326736726,0.006629327718564508,0.9933285786513106
2014-12-04,1,0.002126862764995914,0.0023929466600572918,-0.0059655340050819745,0.006629327718564508,0.9922703083602301
2014-12-08,1,0.0024693422560228173,0.002759102773844334,-0.008531973962207598,0.006629327718564508,0.9916776428027072
2014-12-10,1,0.0021709743503767276,0.0024497999484727672,-0.008476691465920219,0.007468987161477637,0.9910958794135787
2014-12-12,1,0.0014307467713795198,0.0015878334181225395,-0.006269509267547881,0.007468987161477637,0.9919532455012362
2014-12-16,1,0.0006081611969607635,0.0006392368040334719,-0.006269509267547881,0.007468987161477637,0.9923897245176841
2014-12-18,1,0.0015086377343220905,0.001641708248116126,-0.007568812393087346,0.0036958085556441306,0.9924525051419734
2014-12-22,1,0.0011337635034878869,0.001147004513175542,-0.007568812393087346,0.0036958085556441306,0.9915048026650679
2014-12-24,1,0.0013159634791089145,0.0013693564058740685,-0.007891698383782581,0.003981911648897928,0.9911278501592328
2014-12-29,1,0.0013199152826907957,0.0013746195381974609,-0.008756834074886945,0.002685841874407534,0.9899667414168988
2014-12-31,1,0.0009482296083004012,0.0009669300238733501,-0.008756834074886945,0.009165511042370407,0.9889060357202464
2015-01-05,1,0.0002445257456657324,0.0003005136992074841,-0.007891698383782581,0.013040047776977986,0.9886279553504705
2015-01-07,1,0.0006799727806605292,0.0006997350382060975,-0.008756834074886945,0.011683874274182528,0.988683873960172
2015-01-09,1,0.0009851211774094856,0.0010461861262105298,-0.0077939214739951804,0.009165511042370407,0.9898612941692809
2015-01-13,1,0.0007505096920905746,0.0007853019206496724,-0.0077939214739951804,0.009165511042370407,0.9899310383788988
2015-01-15,1,0.00044929530465044376,0.0004499527938293729,-0.006504766948981845,0.009165511042370407,0.9898208631998826
2015-01-20,1,0.0007992369503095681,0.0008540405435265616,-0.005683896666634086,0.00805194855949167,0.9908151743641156
2015-01-22,1,0.0014076288682605851,0.0015273691791679415,-0.005683896666634086,0.0073058633650803315,0.9919907444759805
2015-01-26,1,0.0013130216028995924,0.0014185254823085194,-0.004239462421467783,0.0073058633650803315,0.9924191143319911
2015-01-28,1,0.0003834876960435017,0.0004068925502231243,-0.0018058488516892062,0.0073058633650803315,0.9933072317661292
2015-01-30,-1,-0.00013385660853842572,-6.110536078510889e-05,-0.0018058488516892062,0.005706727366937182,0.9945807952133752
2015-02-03,1,0.0008114891235919616,0.0008363308515972562,-0.003942532412694875,0.005131495023594137,0.9955547943937029
2015-02-05,1,0.0005204036876246888,0.0005393166324477546,-0.003942532412694875,0.005131495023594137,0.9958288787112798
2015-02-09,1,0.00016904917859049125,0.00023555561645055944,-0.003942532412694875,0.005152708095919237,0.9950505990239473
2015-02-11,1,0.0003298228297095677,0.0003686105855813897,-0.003942532412694875,0.005617515039300416,0.9939774526635281
2015-02-13,1,0.0006513849610741254,0.0006611512513697293,-0.004317648007916104,0.005596809361157923,0.9938541152565132
2015-02-18,1,0.0002487502647704309,0.0003171080136992163,-0.004317648007916104,0.007026384919968522,0.9933713330131266
2015-02-20,1,8.817965600512194e-05,0.00019677836549712084,-0.0044318921946870475,0.007630033616153555,0.9926494567617435
2015-02-24,1,0.00018508602344745838,0.0002938765997776181,-0.004785683327454337,0.007026384919968522,0.992551154027698
2015-02-26,0,-6.712020252591633e-05,8.479723376817361e-05,-0.005072852646127598,0.007026384919968522,0.9917923871270564
2015-03-02,1,0.00010227395740194576,0.00021429221366671538,-0.005072852646127598,0.008030537758187897,0.9915300121200692
2015-03-04,-1,-0.00042339956774855637,-0.0002519496336967253,-0.005072852646127598,0.008030537758187897,0.9919286216655521
2015-03-06,-1,-0.0008570214051475641,-0.0006022073038049325,-0.004481972968571936,0.009461458160635457,0.9919220236666914
2015-03-10,-1,-0.0015692799029720275,-0.001216582265732569,-0.004481972968571936,0.009461458160635457,0.9921778085727548
2015-03-12,-1,-0.0008512133941326835,-0.000560432668625271,-0.004481972968571936,0.007350972797082726,0.9934881576460337
2015-03-16,-1,-0.00029125519762211824,-0.00010083743932459374,-0.004459702838287617,0.005468178582138798,0.9938150548079931
2015-03-18,1,0.0002877137725670401,0.00037919216651362985,-0.004459702838287617,0.004076360888648752,0.9941491369175955
2015-03-20,1,0.0008035685093306344,0.0008154225158097261,-0.0048426482433397726,0.0038147085986372643,0.9938455049984591
2015-03-24,1,0.0005371524841941223,0.0005630670100620481,-0.0048426482433397726,0.0038147085986372643,0.9939078995789947
2015-03-26,1,3.621808057389296e-06,7.189067118948118e-05,-0.0030256614104848673,0.004239402257612483,0.9946231981683218
2015-03-30,1,0.0006606470056432348,0.0006920977534167271,-0.0046380432180506,0.004239402257612483,0.9945825335245155
2015-04-01,1,0.0005246197338975504,0.0005589217561328737,-0.006094230105030738,0.004239402257612483,0.9929973149394148
2015-04-06,1,0.0008583434766425696,0.0009354488289830896,-0.006094230105030738,0.0046492314231194,0.9929575502294036
2015-04-08,1,0.0007030964645896838,0.0007605461565841581,-0.006084349170128437,0.004132025988688512,0.9933060555520903
2015-04-10,1,0.0006097370304157634,0.0006597508183629593,-0.006084349170128437,0.0046492314231194,0.992973751172231
2015-04-14,1,0.0006039772253662815,0.000637495969066869,-0.006902529231636614,0.004132025988688512,0.9924631257509434
2015-04-16,1,0.0003313498511546863,0.00034170675257616214,-0.006902529231636614,0.0046492314231194,0.9920986747802037
2015-04-20,-1,-8.917358117548871e-05,-3.853469646498942e-05,-0.00668697124565975,0.005497738856861575,0.9926760140279836
2015-04-22,-1,-0.0007593173328159206,-0.0006094185327346803,-0.005943295166367841,0.005497738856861575,0.9930704443028469
2015-04-24,-1,-0.0003411858443181777,-0.0002548731313328311,-0.006053575040959786,0.005175610050089663,0.9930680063543368
2015-04-28,-1,-0.00015503350665352432,-0.00010003102146839994,-0.00668697124565975,0.005175610050089663,0.9928110848849452
2015-04-30,-1,-0.0014350944064629879,-0.0012343074009834912,-0.006053575040959786,0.005175610050089663,0.9942521622332833
2015-05-04,-1,-0.0006682658522482638,-0.0005834815996701786,-0.006053575040959786,0.003575952715053481,0.994576378432899
2015-05-06,-1,-0.0012563339137495965,-0.0010816725950784226,-0.006053575040959786,0.004591539248803696,0.9940129060332241
2015-05-08,-1,-0.0010439611886587374,-0.0008740116188642121,-0.00668697124565975,0.003575952715053481,0.9943984124002972
2015-05-12,-1,-0.0018593821797479753,-0.0015661510030834285,-0.005277554271925571,0.004591539248803696,0.9938225096939781
2015-05-14,-1,-0.0010472624666117984,-0.0008963154012303985,-0.0064196424434157275,0.004591539248803696,0.9936402811748778
2015-05-18,-1,-0.0007277861732522482,-0.0006303542439222391,-0.008166809617654355,0.005118145192636321,0.9928951259262844
2015-05-20,-1,-0.0006129111722755071,-0.0005342047197360634,-0.008166809617654355,0.009264179798272586,0.9922834755552062
2015-05-22,-1,-0.0007812154902321799,-0.0006901569347932654,-0.00845241955581008,0.009264179798272586,0.9919357403891986
2015-05-27,-1,-0.0009395467057162927,-0.0008136234225085941,-0.008567300194435077,0.005520388267746034,0.9920924255847501
2015-05-29,-1,-0.0015484637657812062,-0.0013223015027117898,-0.008567300194435077,0.008834341807791269,0.9917756411187729
2015-06-02,-1,-0.0012970701219641514,-0.0011115311848613962,-0.009373874576044834,0.008834341807791269,0.9905293777975882
2015-06-04,-1,-0.0011702428965665846,-0.001015372384019763,-0.008567300194435077,0.008834341807791269,0.9891591488591683
2015-06-08,-1,-0.0015508464113524387,-0.0013423552031676933,-0.008567300194435077,0.009030652952687075,0.9889541904966807
2015-06-10,-1,-0.001036454814615765,-0.0008750027069216232,-0.008567300194435077,0.00878345995431934,0.9897833664480895
2015-06-12,-1,-0.0008225086618724102,-0.0007001981482583221,-0.00432181488941284,0.00878345995431934,0.9895148002514418
2015-06-16,-1,-0.0005915290169009868,-0.0005302572703622427,-0.00432181488941284,0.00866192238744661,0.990235915774637
2015-06-18,-1,-0.0001179172883376221,-0.00011107290271858526,-0.006777684934431264,0.008450417427749051,0.9904938397287539
2015-06-22,-1,-0.0006401041040336904,-0.0005412174769779626,-0.0034832481524677697,0.008450417427749051,0.9911110100212576
2015-06-24,-1,-0.0011789788307363324,-0.0009945122409271345,-0.0034832481524677697,0.008450417427749051,0.9912684404808491
2015-06-26,-1,-0.0006408884877317265,-0.0005640655097204797,-0.0032175155039837755,0.0064366722790986045,0.9919210329466542
2015-06-30,-1,-0.0010803680439057496,-0.0009477954854814389,-0.002654461456263197,0.0064366722790986045,0.9922227714940893
2015-07-02,1,0.00012664813055171127,0.00012690601760715015,-0.0023590001863543794,0.0064366722790986045,0.9937001444346372
2015-07-07,1,0.00036522084967214024,0.00040141284518176537,-0.0023590001863543794,0.005718636793400869,0.9940843125949709
2015-07-09,1,0.000623242849832087,0.0007145980323187043,-0.002915278668831559,0.003827691859560804,0.9941795667499749
2015-07-13,1,0.001135288336638681,0.0012877276704807848,-0.002915278668831559,0.003060375000907576,0.9947867788762671
2015-07-15,1,0.0008990459487341888,0.0010283964648073864,-0.0013796141282245457,0.0035872009894291302,0.9951110246149989
2015-07-17,1,0.0009926536071204455,0.0011471485034896508,-0.0006913702861431406,0.0035872009894291302,0.9954526463330071
2015-07-21,1,0.0009699882728966189,0.0011206153762602237,-0.0010658603856785029,0.004988393503889566,0.9952308362660821
2015-07-23,1,0.000853633444569046,0.0009891085307514066,-0.0013796141282245457,0.004988393503889566,0.9944700549166042
2015-07-27,1,0.0005991060261430649,0.0006807060799158823,-0.0021643351373834213,0.004988393503889566,0.9908278788747904
2015-07-29,1,0.0009617320719912076,0.0010927150614132687,-0.005805810277853346,0.004988393503889566,0.9904154119230149
2015-07-31,1,0.001188027283299113,0.0013296930079238901,-0.007099639581043949,0.004988393503889566,0.9902024523943878
2015-08-04,1,0.0016071224449501842,0.0018440168654688441,-0.008374622716434944,0.004988393503889566,0.9884153328521058
2015-08-06,1,0.0014678778180011736,0.001691407039836948,-0.008374622716434944,0.00710179762627173,0.9872144098140699
2015-08-10,1,0.0016396437878235495,0.0018919213145949135,-0.010301703796688665,0.007139247781017672,0.9855879607625354
2015-08-12,1,0.001879386113624544,0.002175248054477329,-0.010301703796688665,0.007139247781017672,0.9852000334059795
2015-08-14,1,0.0018768446006992168,0.0021581469954221628,-0.011065664713368097,0.008141494197236185,0.9846148197537141
2015-08-18,1,0.0016647550220649085,0.0018923878255710323,-0.011065664713368097,0.009813148052791527,0.9843154477925731
2015-08-20,1,0.0013150096469675225,0.0015096968948553847,-0.011513288779440425,0.009813148052791527,0.984571763317844
2015-08-24,-1,-0.00031534898801014447,-0.00028937213422255503,-0.008968407692596044,0.011250955966861334,0.9874132869131675
2015-08-26,1,0.00019501323287636602,0.00024802577856906146,-0.008968407692596044,0.009813148052791527,0.9886956671235965
2015-08-28,1,0.00036660941061303955,0.00043713951999706653,-0.009779615269496007,0.008141494197236185,0.9892853761514873
2015-09-01,-1,-0.0003105147757020945,-0.0002907719660103864,-0.007511098660478175,0.009512717488632057,0.9900006411842319
2015-09-03,1,0.0004333302314103053,0.0005161432723991072,-0.007511098660478175,0.008180658406501912,0.9912783040401612
2015-09-08,1,0.000545155826842616,0.0006382074014704792,-0.006985355167405802,0.008180658406501912,0.9920531106779827
2015-09-10,1,0.0003374671344808386,0.00038589009326161534,-0.0053924788201933985,0.010249722374605323,0.9911273019645721
2015-09-14,1,0.0001715381348736127,0.00018395909056898675,-0.0022769240521416656,0.010249722374605323,0.9914244397610641
2015-09-16,1,0.000555867461443121,0.000627360309975105,-0.0053924788201933985,0.009630210116429241,0.9914495611541783
2015-09-18,1,0.00021860825479234024,0.0002480887569112094,-0.0042448137949362705,0.010299232814280785,0.9913158157189762
2015-09-22,-1,-0.0002701319666136213,-0.00019529888015790386,-0.0016947643563820244,0.009630210116429241,0.9915063607944532
2015-09-24,1,1.3883110500140751e-05,4.288843277820936e-05,-0.0016947643563820244,0.010299232814280785,0.9910136751534213
2015-09-28,-1,-0.0003075332832653088,-0.00022847602282580366,0.0014290334783338804,0.010299232814280785,0.9912994729441648
2015-09-30,1,0.00024189711416772503,0.0002427689431575666,0.0007916962496024195,0.012004967397790263,0.991018336488358
2015-10-02,1,0.00013199779540626518,0.00016351637420453254,0.0007916962496024195,0.012004967397790263,0.9905862981730124
2015-10-06,1,0.00041382489120020047,0.00042205057194766706,0.0007916962496024195,0.009646977587242365,0.9915608744957608
2015-10-08,1,0.000990096873850677,0.001074899714765291,0.0007916962496024195,0.007152701297276534,0.9931289998532853
2015-10-12,1,0.0011274234782857847,0.0012310628760051612,0.00018828362737647415,0.006616117056249357,0.9929457265032735
2015-10-14,1,0.0006112035980617333,0.0006332167221458404,0.0017385049601560296,0.006616117056249357,0.9932289513275688
2015-10-16,1,0.00098969120606507,0.001059558555042453,0.00018828362737647415,0.006053079455084015,0.9934259578835829
2015-10-20,1,0.0011434772426693698,0.0012197371918481687,-0.0036387360894957993,0.005479492318047104,0.9932678415438845
2015-10-22,1,0.0014520116109224875,0.001568108682788808,-0.0036387360894957993,0.005479492318047104,0.9936746025006197
2015-10-26,1,0.0014684416460640486,0.001579479620012062,-0.0036387360894957993,0.00612931056865768,0.993435271021551
2015-10-28,1,0.0018231016399571972,0.0019658018965043704,-0.005197744379889021,0.005479492318047104,0.99407465276902
2015-10-30,1,0.0017238286327659915,0.0018765790449462342,-0.0036387360894957993,0.004794715856860495,0.9950237099758292
2015-11-03,1,0.0016267852494316415,0.0017652926361732479,-0.005197744379889021,0.00493923190578114,0.9947142162713962
2015-11-05,1,0.0015243847083174563,0.0016354182924694838,-0.0069748677909442025,0.005913040464809039,0.9927994363301083
2015-11-09,1,0.00147531552701079,0.0015940445670394048,-0.005990104273014868,0.005913040464809039,0.9930365542603566
2015-11-11,1,0.0014742842290707708,0.0015814716420562269,-0.0069748677909442025,0.004806095517038954,0.9922583985321433
2015-11-13,1,0.0008807052665648328,0.000893855613906341,-0.005990104273014868,0.004806095517038954,0.9924364201563675
2015-11-17,1,0.0009255397305219273,0.0009386739742116636,-0.005990104273014868,0.00617998830368317,0.99198441380065
2015-11-19,1,0.0009090359362680091,0.0009222663091859762,-0.00978463095274036,0.004806095517038954,0.990233214611299
2015-11-23,1,0.0015364664984087407,0.00166056180757575,-0.00978463095274036,0.00597079936562704,0.9894445938328159
2015-11-25,1,0.0013518926455819958,0.001455659965436121,-0.00978463095274036,0.00597079936562704,0.989864356428518
2015-11-30,1,0.0013891765934024266,0.001497096998912715,-0.00978463095274036,0.007322526467923382,0.9894101835543732
2015-12-02,1,0.0014878649567716983,0.0016337636015207558,-0.013496357602763683,0.007322526467923382,0.9888605100963074
2015-12-04,1,0.001566526975411024,0.001702846827245745,-0.013496357602763683,0.0064184402260925935,0.9891084680125918
2015-12-08,1,0.001305713641686516,0.0014027341299895145,-0.01449535322650597,0.0064184402260925935,0.9877563675454527
2015-12-10,1,0.0007930111501769164,0.0008206599365282637,-0.01449535322650597,0.006623095899204754,0.9881723749284683
2015-12-14,1,0.0002365836848438102,0.00028509746060461055,-0.01572767277887045,0.006860167509640238,0.987860342677024
2015-12-16,1,0.0007378305482599286,0.0007387137542418344,-0.016942179555109044,0.006562017175842362,0.9873677701524611
2015-12-18,-1,-0.00013509792121489135,-6.0770728983107876e-05,-0.014458740741218121,0.006562017175842362,0.9888618464932846
2015-12-22,1,0.0006007239496486937,0.00063925867013338,-0.014458740741218121,0.006562017175842362,0.9888827812184603
2015-12-24,1,0.0006697353834872616,0.0007204720777667567,-0.015054435487092278,0.006860167509640238,0.9877065298818402
2015-12-29,1,0.0008894789412135547,0.0009629047494333941,-0.015054435487092278,0.006562017175842362,0.9874649541051899
2015-12-31,1,0.000528342556480494,0.0005627530996162406,-0.01431881419649651,0.008607432928678046,0.9869120544426927
2016-01-05,1,0.00010278785268682237,0.00011487449038433807,-0.01431881419649651,0.008607432928678046,0.987635811397757
2016-01-07,-1,-0.0007104048874950476,-0.0006106310209733709,-0.008350092801456073,0.01611748915924368,0.986521283451573
2016-01-11,-1,-0.0006051353849540338,-0.0005232058712515135,-0.008350092801456073,0.01611748915924368,0.9862458282085593
2016-01-13,-1,-0.0012410410215434211,-0.0010567931105647374,-0.008041893961414543,0.01611748915924368,0.9866695216024667
2016-01-15,-1,-0.0026775479498495985,-0.002219904256863032,-0.002972278758794353,0.01611748915924368,0.986562871983047
2016-01-20,-1,-0.0027932136500294583,-0.0023426987458130257,-9.49270778968086e-05,0.01611748915924368,0.9867301483982047
2016-01-22,-1,-0.0024128711187601307,-0.002019268847253613,0.0008548751160402485,0.01458308394304428,0.9873040583689772
2016-01-26,-1,-0.003226483380706845,-0.0026814248698116923,0.0008548751160402485,0.012523469015460375,0.987848804798618
2016-01-28,-1,-0.002321868563787249,-0.001926519085663629,0.0008548751160402485,0.011762579985736522,0.9885324451209762
2016-02-01,-1,-0.0012013935267884096,-0.0009393918306987275,-0.00034560998369150274,0.011762579985736522,0.9900059095683308
2016-02-03,-1,-0.00177414634962334,-0.0014401295360202543,0.0008548751160402485,0.011762579985736522,0.9901662153384092
2016-02-05,0,-0.00013751284203797684,1.2940850120336399e-05,-0.0004733644442856176,0.00616594570486514,0.9935771757806957
2016-02-09,1,0.0005505292913152072,0.000598958967741579,-0.002691843561697316,0.005481693999643,0.9943562667612353
2016-02-11,-1,-0.0003101657309701989,-0.00012669113294607012,-0.0011304830972511649,0.00616594570486514,0.9934035874293259
2016-02-16,1,0.0004187078170447874,0.0005242415614589325,-0.002691843561697316,0.004169635710785494,0.9942488342744827
2016-02-18,1,0.0005613963515334279,0.0006451148683750034,-0.002691843561697316,0.004599661194364595,0.9940223922642252
2016-02-22,1,0.0005794160060565063,0.0006775158094338841,-0.003357575135617831,0.0034678854497220014,0.9939463449562598
2016-02-24,1,0.0006439642427944128,0.000711643822754623,-0.002691843561697316,0.0034678854497220014,0.9941672913946227
2016-02-26,1,0.0008683733095879411,0.0009031524144178763,-0.003225884498479363,0.0034678854497220014,0.9942614249218527
2016-03-01,1,0.0011769658543417457,0.0011884164968639977,-0.0014674449534544086,0.0034678854497220014,0.9948866389316262
2016-03-03,1,0.0016659730769478668,0.0017878950132581063,-0.003225884498479363,0.0043327527475545274,0.9942029464417155
2016-03-07,1,0.0015507740993358416,0.001665858009774816,-0.005890038301629699,0.0043327527475545274,0.9934681533104557
2016-03-09,1,0.0010687201069522752,0.0010851726662637004,-0.007507173122538098,0.0072879027118373544,0.9926310750280392
2016-03-11,1,0.0021044218698249555,0.002290547117990427,-0.007507173122538098,0.005763780904053372,0.9936241092426006
2016-03-15,1,0.001863207806913222,0.0020384668037153448,-0.005890038301629699,0.0072879027118373544,0.9936825908174001
2016-03-17,1,0.0023085279301591037,0.002570319831453687,-0.005890038301629699,0.006575376388719408,0.9935665255878741
2016-03-21,1,0.0020667672076312305,0.002304035200065898,-0.004409179774280428,0.006575376388719408,0.9941705678797201
2016-03-23,1,0.0023052339293790393,0.002617909631238844,-0.006060394582389812,0.006575376388719408,0.9927135869250873
2016-03-28,1,0.0021806975538946768,0.0024588633615372536,-0.006060394582389812,0.00671444016348822,0.9929077992812851
2016-03-30,1,0.0024020737746606553,0.002709864463254559,-0.006060394582389812,0.006948419322351353,0.9917575276165229
2016-04-01,1,0.002282020636288494,0.0025777696827801577,-0.004465965201200465,0.005526272129680722,0.9921638100728991
2016-04-05,1,0.0015964120485887634,0.0017892103345424457,-0.0018132920887877274,0.006614675652418818,0.9931562170033842
2016-04-07,1,0.0014984699031128257,0.0016879291081122506,-0.0018132920887877274,0.006614675652418818,0.9936694804521007
2016-04-11,1,0.001347650632272103,0.0014846154120131232,-0.0018132920887877274,0.007435535487103259,0.9935720921519304
2016-04-13,1,0.0019054850666701444,0.002125776215244438,-0.0030581406987292047,0.007435535487103259,0.9932625511791755
2016-04-15,1,0.0019372118083781152,0.0021787974251391545,-0.0033905062388403027,0.007836568549113486,0.9926374491010811
2016-04-19,1,0.002096254478765258,0.002374495499564069,-0.00546306182153376,0.007836568549113486,0.9916666150471751
2016-04-21,1,0.0011124220472945373,0.0012428257206870852,-0.0018963757464701872,0.008391412040151919,0.9925093078889052
2016-04-25,1,0.0013424329739367218,0.0015079084456713892,-0.0033905062388403027,0.007836568549113486,0.992307425923106
2016-04-27,1,0.0019738329166094546,0.0022160107503135787,-0.003639659404390133,0.007836568549113486,0.9927139747890332
2016-04-29,1,0.001897399989175273,0.0021417253216716734,-0.003639659404390133,0.008457163839291938,0.9926286674245295
2016-05-03,1,0.0019179011427747084,0.00214996050626661,-0.003639659404390133,0.008457163839291938,0.9927265991995986
2016-05-05,1,0.0016559578530583306,0.0018227631101717435,-0.002710505273606131,0.007985125680011146,0.9930786378490876
2016-05-09,1,0.0015629122288119525,0.001685788200952592,-0.002710505273606131,0.007985125680011146,0.9931369475143952
2016-05-11,1,0.0018557954832875102,0.0020584971429483457,-0.0020500514031029354,0.008355339003595382,0.9935367974546777
2016-05-13,1,0.0012575661862110838,0.0013072788994249718,-0.002710505273606131,0.007738363849411594,0.9935585561321806
2016-05-17,1,0.0010848834159890156,0.0011474320938852911,-0.002710505273606131,0.007738363849411594,0.9940276650635086
2016-05-19,1,0.0014000242176130245,0.001505591335736803,-0.003239849488994598,0.007738363849411594,0.994090740464021
2016-05-23,1,0.0015019087803851588,0.0016418755134622691,-0.002710505273606131,0.008355339003595382,0.9940909845373398
2016-05-25,1,0.0013977735979680637,0.0014885578851001734,-0.0020500514031029354,0.008355339003595382,0.994231998389722
2016-05-27,1,0.0010603952396392117,0.001083976439373636,-0.004620364033623641,0.007611718342063744,0.992924640446289
2016-06-01,1,0.00047837508962472866,0.0005832219259501675,-0.004620364033623641,0.008515459886333017,0.9909373298393085
2016-06-03,1,0.00037475616707847645,0.0005036179459808844,-0.004620364033623641,0.00909730883287615,0.9897064406777683
2016-06-07,1,2.6013424950366206e-05,0.0002119965246065972,-0.004620364033623641,0.00909730883287615,0.9896680823757487
2016-06-09,1,0.0002672850143028121,0.00045311058779014203,-0.004620364033623641,0.009777424465032665,0.989993624818944
2016-06-13,-1,-0.0005921768282062161,-0.00027671841271486284,-0.0018761121659539516,0.009777424465032665,0.9902655414930495
2016-06-15,-1,-0.0009735153472784856,-0.0006163897738372438,-0.0007296244033393102,0.009777424465032665,0.9900544890297005
2016-06-17,-1,-0.0011691707570112247,-0.0007817311702321948,-0.0014905782608252293,0.009777424465032665,0.9900457349487005
2016-06-21,-1,-0.0006162059118661697,-0.0003083489067899855,-0.003620493587051941,0.00794615507652908,0.9907935373287815
2016-06-23,1,0.0004339306372907846,0.000564627522752816,-0.004891398783203802,0.00794615507652908,0.9906231673452004
2016-06-27,-1,-0.000981201283101692,-0.0006588127543282146,-0.003235063095713568,0.00794615507652908,0.9921688273006843
2016-06-29,1,0.0011664727520618334,0.0011767471218545654,-0.003235063095713568,0.005628451373865215,0.9941555930441471
2016-07-01,1,0.0018003962570271826,0.0019144158260811545,-0.003620493587051941,0.005185068418449036,0.9950147232342768
2016-07-06,1,0.0017057969904378596,0.0017748927149954697,-0.003620493587051941,0.005185068418449036,0.9948487718659897
2016-07-08,1,0.0020960873098037867,0.002253942231039835,-0.003620493587051941,0.005185068418449036,0.9947031403698393
2016-07-12,1,0.002179603883972221,0.0023497699315642635,-0.003620493587051941,0.002974248746782718,0.9947907644524867
2016-07-14,1,0.0024023811842270445,0.0026094473360158445,-0.003620493587051941,0.0011600392079833214,0.9947766941403912
2016-07-18,1,0.0017759294279005551,0.001891059293939798,-0.0026870511920109906,0.0021505670292636817,0.9958514035996696
2016-07-20,1,0.0015633894897463798,0.001662476895096987,-0.0012331988976857463,0.0021505670292636817,0.9959746802077503
2016-07-22,1,0.0015595710724221933,0.001664320611446707,-0.0009290423917024574,0.0021505670292636817,0.9965975665922974
2016-07-26,1,0.0015201513195841833,0.001625249530795856,-0.0009205886442367619,0.0021505670292636817,0.9966200181078304
2016-07-28,1,0.0014571531913794694,0.0015418165719769312,-0.0009205886442367619,0.0021505670292636817,0.9964361055428628
2016-08-01,1,0.0012536709511596527,0.0012993157445964926,-0.0009205886442367619,0.0021505670292636817,0.995912023477865
2016-08-03,1,0.0015542818936601992,0.001681128380836503,-0.0009205886442367619,0.0015232954385737513,0.995727061484744
2016-08-05,1,0.0015525918492800843,0.0016569835101136617,-0.0009205886442367619,0.0019866609492180448,0.995988267750558
2016-08-09,1,0.0015679863201695484,0.0016866875192069579,-0.0014032056073800805,0.0019866609492180448,0.9958772259260492
2016-08-11,1,0.001372843819617864,0.0014460735290910461,-0.0030928661339776177,0.0019866609492180448,0.9944914214079972
2016-08-15,1,0.0012245610897175224,0.0012670016712785668,-0.0030928661339776177,0.0033680956426154754,0.9932513518449645
2016-08-17,1,0.0009530080395702385,0.0009569590681353839,-0.0030928661339776177,0.007947974023614702,0.9927785543661555
2016-08-19,1,0.0011667898132710116,0.0012108200020714323,-0.004570536658252307,0.0033680956426154754,0.992481185676394
2016-08-23,1,0.0010473485206300346,0.0010743885839989958,-0.004570536658252307,0.00839654627062723,0.9921026835344021
2016-08-25,1,0.0009158245053483105,0.0009393437475915566,-0.00920795492472204,0.007268404732196726,0.9915501389237297
2016-08-29,1,0.0008745800723143175,0.00091846889747027,-0.007880427750862236,0.007268404732196726,0.9918428672730376
2016-08-31,1,0.00072860951237591,0.0007855471510763749,-0.010733812454747357,0.007786640787643305,0.9908459473131825
2016-09-02,1,0.00115280173891456,0.0011766036057547194,-0.012847731998018672,0.008846955758435793,0.9899014039425609
2016-09-07,1,0.0009013210346010715,0.0009182674644516446,-0.012847731998018672,0.008846955758435793,0.9896225074943322
2016-09-09,0,-3.805888561427543e-05,8.999137567319371e-05,-0.010614787799338275,0.01071616365075358,0.9904602100518931
2016-09-13,-1,-0.0006361037618971432,-0.00039189324373457813,-0.010510859077701135,0.008846955758435793,0.9911082767267202
2016-09-15,-1,-0.000613417981054384,-0.0003796503680134134,-0.00932323959472952,0.008724711807713765,0.9915496221629865
2016-09-19,-1,-0.0007211763725171091,-0.0004966585109442278,-0.0074845545898716975,0.008724711807713765,0.9915633077419758
2016-09-21,-1,-0.000588581139327304,-0.0003688394038113135,-0.0074845545898716975,0.007730525326819354,0.9919947031236754
2016-09-23,-1,-0.000893355371536782,-0.0006368431693584627,-0.00932323959472952,0.007730525326819354,0.99071810142644
2016-09-27,-1,-0.0008237602333884028,-0.0005768971305323983,-0.00932323959472952,0.0059784646616054295,0.9912504016632633
2016-09-29,-1,-0.0011079157107404215,-0.0008366855140664685,-0.012169739940825337,0.004954545878805391,0.9912123754941887
2016-10-03,-1,-0.001263603239949249,-0.0009698601025431825,-0.009275488756317622,0.005665339608662172,0.9915882464211078
2016-10-05,-1,-0.0014079003080583968,-0.0011058303812734244,-0.012578625837455408,0.005665339608662172,0.9907280072565045
2016-10-07,-1,-0.0012862498746954573,-0.0009729059944355054,-0.012578625837455408,0.005582226217611492,0.9907574544548277
2016-10-11,-1,-0.0013356718369193184,-0.0010401132751356806,-0.012435373322219714,0.006614569062140569,0.9905407951350297
2016-10-13,-1,-0.0011053161533604776,-0.0008323954419650138,-0.012435373322219714,0.007538465308360665,0.9895635030559983
2016-10-17,-1,-0.0008216303449999912,-0.0006050737967172183,-0.012435373322219714,0.007588539278707358,0.9894447834724562
2016-10-19,-1,-0.0009056909507333742,-0.0006905278560534519,-0.012435373322219714,0.007588539278707358,0.9891931976547876
2016-10-21,-1,-0.002542958325208451,-0.002134995395991033,-0.007262398498551001,0.007958840295642292,0.9896373517019142
2016-10-25,-1,-0.002473681124322645,-0.0020743009608750205,-0.007262398498551001,0.008482164708401546,0.9892787833263063
2016-10-27,-1,-0.003413316723520258,-0.002905096547012812,0.0012395577956232124,0.008981232768000499,0.9887967470642363
2016-10-31,-1,-0.002618288194633783,-0.0022285510215008563,-0.0014383689746208157,0.00891397496981873,0.9896419323854447
2016-11-02,-1,-0.0039059505674090915,-0.0033443403481338784,0.001504166116527897,0.00891397496981873,0.9896421291894402
2016-11-04,-1,-0.004228400060970351,-0.003614498315812469,-0.0007811686768531653,0.00891397496981873,0.9900304820947683
2016-11-08,-1,-0.0036096537750895732,-0.0030694232473816307,-0.0007811686768531653,0.00891397496981873,0.9906527781517384
2016-11-10,-1,-0.0023106249217063448,-0.0019479774490833311,-0.0007811686768531653,0.008291903250552908,0.9928666530102848
2016-11-14,-1,-0.0017462823724620257,-0.0014754428920860287,-0.0007811686768531653,0.008100389623014974,0.9931697001780369
2016-11-16,-1,-0.002817323563741212,-0.002352906565069472,-0.0007811686768531653,0.008100389623014974,0.992255571305581
2016-11-18,-1,-0.0004818145912673538,-0.0003801923222431862,-0.0016583465685301372,0.008100389623014974,0.993368460431519
2016-11-22,1,0.00042237400946129453,0.00047738289402265245,-0.0033796921606522954,0.00710589087133364,0.9937727226606422
2016-11-25,1,0.0011178886955949163,0.0012742357191267554,-0.0033796921606522954,0.003971257574103505,0.9945663515020677
2016-11-29,1,0.0014458374509341207,0.001663251705059322,-0.004336435681456913,0.003122102350962609,0.9944674758086004
2016-12-01,1,0.0015330039279964629,0.0017720716288937874,-0.0033796921606522954,0.0027031529536478806,0.9946291211252233
2016-12-05,1,0.001561309150773009,0.0018222015521895795,-0.002231880654252486,0.003122102350962609,0.994829544282992
2016-12-07,1,0.0017440419983491742,0.001993498126702376,-0.004101985292796361,0.001919129030918441,0.9949566162693133
2016-12-09,1,0.0016415771404953202,0.0018595046828652948,-0.004658898315804835,0.0014056144828990418,0.9941661149764636
2016-12-13,1,0.0016635184408017594,0.0018819225678279594,-0.005128485413602002,0.0014056144828990418,0.9913286246375794
2016-12-15,1,0.0012204972326732076,0.0013779982318159571,-0.004278719118532326,0.0015207481938782816,0.992070934341011
2016-12-19,1,0.0009168252633044536,0.0010439354716104843,-0.004278719118532326,0.0015207481938782816,0.9927347786064513
2016-12-21,1,0.0007167266244093492,0.000811643734021052,-0.005346769463334823,0.0022645301638561607,0.99238868407476
2016-12-23,1,0.0008290073099456006,0.0009371758378815925,-0.005346769463334823,0.004012088757862132,0.9915953867464175
2016-12-28,1,0.0007787735062031459,0.000905511842496211,-0.0049373754531876896,0.004012088757862132,0.9916306433251232
2016-12-30,1,0.000676631025950834,0.0007897596920822319,-0.006456367733744396,0.005014527783187228,0.9910848427407969
2017-01-04,1,0.0008570175284443827,0.000996732570337792,-0.007446827356431299,0.0052312713875692345,0.9904404784715981
2017-01-06,1,0.000695679600595598,0.0008116447961526601,-0.007816661432800274,0.006005280421814026,0.989744863414218
2017-01-10,-1,-4.116860483722239e-05,-3.790960368986415e-05,-0.007446827356431299,0.006005280421814026,0.9902678056129077
2017-01-12,-1,-0.0023520432540252386,-0.00210119536035902,-0.006377126931159565,0.00788777229101403,0.9931681930685884
2017-01-17,-1,-0.0023658248678491657,-0.002116200876113633,-0.006377126931159565,0.009117423797384066,0.9923501545746344
2017-01-19,-1,-0.0018813334870971762,-0.0017145155653524634,-0.005325847884519248,0.008546020564874572,0.9928025947145457
2017-01-23,-1,-0.0016930843686755763,-0.0015630426429386359,-0.005250683294736869,0.008546020564874572,0.9930950298908899
2017-01-25,-1,-0.0008522156739248119,-0.0008174391886003976,-0.005250683294736869,0.00788777229101403,0.9939217142731979
2017-01-27,-1,-0.0007971991897279501,-0.0007907787177562128,-0.005250683294736869,0.00788777229101403,0.9937832118828427
2017-01-31,-1,-0.000748523389325916,-0.0007471305098152672,-0.0022979060392030346,0.008546020564874572,0.9930268644207968
2017-02-02,-1,-0.0012528610980306692,-0.0011403803737322163,-0.004602476672408248,0.006685001455344256,0.9931152756603342
2017-02-06,-1,-0.0010385338431124667,-0.0009589112966243143,-0.004602476672408248,0.005701343855289644,0.9935844810250578
2017-02-08,-1,-0.0012024187149035713,-0.001107473504818787,-0.004731942343037251,0.006685001455344256,0.9930515033770161
2017-02-10,-1,-0.0010221349702686535,-0.0009255733203071945,-0.004731942343037251,0.006327835569975338,0.9932917757323865
2017-02-14,0,-9.81152995321337e-06,3.9882826311058106e-05,-0.004731942343037251,0.005701343855289644,0.9936944308887478
2017-02-16,1,0.0002151888676673411,0.000278189000200235,-0.004731942343037251,0.005822768050043566,0.9936945144768048
2017-02-21,1,0.0001985053467241085,0.0002687321264659097,-0.005665286598433753,0.005822768050043566,0.9924939478536381
2017-02-23,1,0.00029041175482934955,0.00035424608410090854,-0.005665286598433753,0.0035344048281926777,0.9927197303977269
2017-02-27,1,0.00015710145611789607,0.0002026961262977032,-0.006872505867596345,0.0035344048281926777,0.9923896702927798
2017-03-01,1,0.001106774886047502,0.0012653453726455674,-0.010428625091744576,0.0035344048281926777,0.9925013661267089
2017-03-03,1,0.0008122900661926992,0.0009655794781923757,-0.006788708362058664,0.0066921081542371036,0.9930464050397305
2017-03-07,1,0.0002879070241880849,0.000355969222399787,-0.006589366153696728,0.0066921081542371036,0.9932227269708794
2017-03-09,1,0.0006546317986808573,0.000796299464124618,-0.009746800961121087,0.0035344048281926777,0.9932960764206976
2017-03-13,1,0.0009798819069846499,0.0011714250764427929,-0.009746800961121087,0.0035344048281926777,0.9924628282240676
2017-03-15,1,0.001402146124208776,0.0016380810328242442,-0.009746800961121087,0.000950073724152542,0.9923754292344612
2017-03-17,1,0.00050423499290793,0.0005087889282511016,-0.009746800961121087,0.000950073724152542,0.9921781856826224
2017-03-21,-1,-0.0007963192756874093,-0.0006543126523396326,-0.008844175452011188,0.000950073724152542,0.9931082005189668
2017-03-23,-1,-0.0015402788351892756,-0.0012551702802097965,-0.008844175452011188,0.0030426203952081256,0.9928251951573015
2017-03-27,-1,-0.0017996225297263455,-0.001513201713811827,-0.007679612315178069,0.006411218135946194,0.9921116816510843
2017-03-29,-1,-0.002536484413097593,-0.002102855353468211,-0.007305306570822877,0.006411218135946194,0.9921375012834946
2017-03-31,-1,-0.0024882893722683124,-0.0020453294331471226,-0.008844175452011188,0.005241779263306069,0.9916628635650155
2017-04-04,-1,-0.0025224215101640078,-0.0021095299283842546,-0.007679612315178069,0.005241779263306069,0.9918315953778937
2017-04-06,-1,-0.0022442759180285048,-0.0019223779265908892,-0.007305306570822877,0.005241779263306069,0.9922894316648222
2017-04-10,-1,-0.0017626097427552528,-0.0015169590915859402,-0.008739104091435353,0.00283863311292359,0.9922739584013465
2017-04-12,-1,-0.002054065645714338,-0.0017682836508745756,-0.008739104091435353,0.0036511123036550054,0.9923096303524966
2017-04-17,-1,-0.0007561081353899261,-0.0006880329453514714,-0.008739104091435353,0.0036511123036550054,0.9926489580444119
2017-04-19,-1,-0.001347748938895167,-0.0012350256040678078,-0.00576700798292672,0.0036511123036550054,0.993103337978173
2017-04-21,-1,-0.0006949172445609708,-0.0006911930880760121,-0.00576700798292672,0.003447134192007209,0.9931901232524684
2017-04-25,1,0.0003654661486935781,0.0005253437958757238,-0.00576700798292672,0.0026394209505901994,0.9940415320989384
2017-04-27,1,0.0010699063045972227,0.0013259055745302314,-0.00576700798292672,0.0026394209505901994,0.9942069227009381
2017-05-01,1,7.327291614371101e-05,0.00019181998783938308,-0.004818114376310489,0.0026394209505901994,0.994895545486379
2017-05-03,1,0.0004994270161350865,0.0007119992121636217,-0.004818114376310489,0.004940735611395457,0.9941356273355362
2017-05-05,1,0.0004699224495043633,0.0006887236493254726,-0.005388936480536292,0.004940735611395457,0.9939695852174559
2017-05-09,-1,-0.0003316109142738773,-0.00021223815100611626,-0.00480255001473924,0.004940735611395457,0.9944366669052263
2017-05-11,-1,-0.00027565036951646626,-0.00017450263576453102,-0.00480255001473924,0.007959965504656557,0.9931515602681952
2017-05-15,-1,-0.00025036408670062464,-0.00016510758201682298,-0.004467455038716812,0.008622824495567314,0.9928280327941094
2017-05-17,-1,-0.0007061265151701777,-0.0006848568438791227,-0.002178119130372955,0.010945032318106637,0.9925402217433619
2017-05-19,-1,-0.0003371282984684673,-0.0002528391137180348,-0.0035638324231834235,0.010945032318106637,0.992512199139146
2017-05-23,0,-8.828618244092156e-05,1.6842517489056312e-05,-0.0059929510934700995,0.010945032318106637,0.9919587841034151
2017-05-25,1,0.0004103285276219059,0.0005789416401912732,-0.0059929510934700995,0.00880745462087422,0.9922439807293231
2017-05-30,1,9.54006537042003e-05,0.00023582238132946438,-0.0037572360868960604,0.010561053428691757,0.9924263041675159
2017-06-01,1,0.0008453099064867654,0.001079464513916285,-0.0037572360868960604,0.009131958449065133,0.9927648377160503
2017-06-05,1,0.00026328392873939307,0.000385124166793495,-0.002480178938347906,0.009290902132250475,0.9928493067663113
2017-06-07,-1,-0.0014663199974109798,-0.0012527550503020183,-0.0036542480132752647,0.009290902132250475,0.9930024301838641
2017-06-09,-1,-0.0002727908415572439,-0.00019380136916049645,-0.0054758202720430775,0.00696841358416603,0.9938241870088766
2017-06-13,1,0.00033699267466519485,0.0003418113485391663,-0.0054758202720430775,0.003342331987306391,0.9943136486033988
2017-06-15,1,0.0007299658982209815,0.0007695261117658702,-0.0054758202720430775,0.003558363596027656,0.9944127492909091
2017-06-19,1,0.0006773693834037326,0.0007496788175705809,-0.004952721865257035,0.003558363596027656,0.9947510427857831
2017-06-21,-1,-0.00025620263703439206,-0.00019693157451895968,-0.003488062084985963,0.007608086771906143,0.9946993084277416
2017-06-23,-1,-0.0005084357943083803,-0.0004181722352676079,-0.0024181202064384893,0.008812782379733104,0.994067693010242
2017-06-27,-1,-0.00012526809595898497,-8.167694139099022e-05,-0.004459962719872347,0.007608086771906143,0.9939468734055144
2017-06-29,1,0.00016807487865770783,0.0001750062956939425,-0.004459962719872347,0.007580170361013669,0.994009781136661
2017-07-03,1,0.00034905448268276833,0.0003498736125089132,-0.004459962719872347,0.006584508790799859,0.9940989791839615
2017-07-06,1,6.165639236676361e-05,7.783740730775954e-05,0.00159922829314138,0.008806663483534453,0.992038059872111
2017-07-10,1,0.0003092176790796812,0.00036180059518667074,-0.0002703192929349415,0.008806663483534453,0.9924626819084004
2017-07-12,1,0.00039509621371800326,0.00047585828045152345,-8.78536205595182e-05,0.008806663483534453,0.9923736794423796
2017-07-14,1,0.0006237099758972864,0.0007291173107250638,-0.0032633155355980964,0.008806663483534453,0.9920339590093759
2017-07-18,1,0.0005998622923201918,0.0007135552697502238,-0.002184763942638716,0.008806663483534453,0.9919265806695422
2017-07-20,1,0.0011856017121254234,0.0013699856910615689,-0.004329770919558705,0.006849821538831699,0.99192941481761
2017-07-24,1,0.002142517755032197,0.0025050380701953996,-0.004705205269643449,0.005962359077722923,0.9920242020810808
2017-07-26,1,0.0017441579405627918,0.0020243848366128733,-0.004705205269643449,0.006451157570086142,0.9920656751458105
2017-07-28,1,0.0018279966343090672,0.002098767937335577,-0.005008876500948632,0.006451157570086142,0.9914609915770728
2017-08-01,1,0.0021028351955954903,0.002414476383182377,-0.005008876500948632,0.006451157570086142,0.9909675591180993
2017-08-03,1,0.003636509959418399,0.004160437458445413,-0.005008876500948632,0.00026037724488002316,0.9922030200221111
2017-08-07,1,0.00357956261883138,0.004117702482582109,-0.00604563176623443,0.0008788688675866452,0.9912877267112574
2017-08-09,1,0.003860042419949877,0.004440839274866456,-0.007841050141271969,0.0008788688675866452,0.9904020252176917
2017-08-11,1,0.002980756546396445,0.0033852733279580967,-0.004948812880070425,0.00510214314507095,0.9905112556958012
2017-08-15,1,0.0030398985575702917,0.003447615192311362,-0.006099659486075409,0.002444500510156809,0.9901652954530719
2017-08-17,1,0.001959423375650105,0.0021927382963258107,-0.005333511486485731,0.002444500510156809,0.9913140125658013
2017-08-21,1,0.0016437926028403766,0.0018352475463877772,-0.005333511486485731,0.00510214314507095,0.9914802972340794
2017-08-23,1,0.0016389006270855569,0.001840722431645473,-0.005333511486485731,0.004030621570755028,0.9915205136533859
2017-08-25,1,0.0016364242609182885,0.001817215404411919,-0.004904927304064921,0.004147208449540365,0.9921441236702877
2017-08-29,1,0.0011229778285146428,0.001214675433850608,-0.004482793143440129,0.0049604931805029995,0.99215995369673
2017-08-31,1,0.0011648928602477578,0.0012688657787080261,-0.006282937209568053,0.005909450569307509,0.9914252186735821
2017-09-05,1,0.0001610481326411702,0.00019740145634857475,-0.004612693618497072,0.0070773301482244646,0.9919516236311553
2017-09-07,-1,-0.00019597164934317723,-0.0001325617591470801,-0.004257149046112411,0.0070773301482244646,0.9929488748985928
2017-09-11,1,0.00062458910637168,0.0006322197416781467,-0.004647012260721235,0.004426597989147564,0.9941409669671104
2017-09-13,1,0.00030311127216976915,0.00034898853475167366,-0.004398489068577409,0.005909450569307509,0.9941250654516133
2017-09-15,1,0.00038936779239017263,0.00039045583720065944,-0.004398489068577409,0.0064593190447872,0.9936040172262018
2017-09-19,1,0.0009764725323753469,0.0010867978248965304,-0.004927582345225237,0.005909450569307509,0.9937999308105517
2017-09-21,1,0.0002278067087193671,0.0002650463544370988,-0.004398489068577409,0.005909450569307509,0.9943692935987506
2017-09-25,1,0.0005180338963933872,0.0005224407839129449,-0.004436286210650618,0.004218250201058911,0.9943886199324778
2017-09-27,1,0.000599110647905888,0.0006053043100431438,-0.004938017844772375,0.003024283285227922,0.9945308858588765
2017-09-29,-1,-0.00022194989356219465,-7.452686855563399e-05,-0.004938017844772375,0.003024283285227922,0.9920612320794583
2017-10-03,1,4.330377819038563e-05,0.00016068899539180276,-0.006480848523062619,0.002587807856651382,0.9922513611733479
2017-10-05,1,9.558629007641996e-05,0.00020477297638777937,-0.006480848523062619,0.0035488740111669806,0.990724677986644
2017-10-09,-1,-0.0008334338465725462,-0.0005863038019224016,-0.004938017844772375,0.00445119047511141,0.9909059613004572
2017-10-11,-1,-0.0005699651658729831,-0.0003585492966608248,-0.005697359476111404,0.0035488740111669806,0.9911885595856921
