JNU-Tangyin/eata/results/Batch4_SP500/Batch4_SP500-MCD.csv
Date,Action,Predicted_Q25,Predicted_Q75,Actual_Q25,Actual_Q75,RL_Reward
2010-12-14,0,0.0,0.0,-0.0036454901841582754,0.001561989927171125,0.9955932468515112
2010-12-16,-1,-0.0014624758522353007,-0.0011167628460603536,-0.0045515320694885664,0.002002738370699034,0.9941180899521979
2010-12-20,-1,-0.0019019186645375177,-0.0014663867090804917,-0.0045515320694885664,0.004644118712667031,0.9933637227507726
2010-12-22,-1,-0.0016407813240020617,-0.0012601867607592227,-0.0045515320694885664,0.004644118712667031,0.9935115663321474
2010-12-27,-1,-0.0019685789238007134,-0.0015601224461880708,-0.003255404445446175,0.00476571331048899,0.9933487102874724
2010-12-29,-1,-0.0013066657926207959,-0.0010064580646173798,-0.004587183802904447,0.004644118712667031,0.993201952821085
2010-12-31,-1,-0.0011023677892863853,-0.0008590402193485213,-0.007243428129334824,0.00476571331048899,0.9923311609628147
2011-01-04,-1,-0.0030602957596709583,-0.0025610891418695655,-0.004587183802904447,0.00476571331048899,0.9935554996084143
2011-01-06,-1,-0.0032924769251090444,-0.0027556357451420576,-0.004071465041901594,0.004699751078265077,0.9934476212038496
2011-01-10,-1,-0.003164536853116072,-0.0026891095305280046,-0.004071465041901594,0.005029968845804435,0.9924210651495011
2011-01-12,-1,-0.0032233242080596494,-0.0027350497788088744,-0.003062855139394823,0.005882455660197278,0.9922551687118517
2011-01-14,0,0.0,0.0,-0.0025698149001619017,0.005092363363828006,0.9938541991483684
2011-01-19,-1,-0.000502018712948886,-0.00041870901314146607,-0.0025698149001619017,0.003468028823345408,0.9946120076439393
2011-01-21,-1,-0.0024953817019370012,-0.00207912329160519,-0.0023578520792678394,0.003468028823345408,0.9942589241216734
2011-01-25,0,0.0,0.0,-0.004492396955877732,0.002680073246697612,0.99436545398431
2011-01-27,-1,-0.0004723730282869147,-0.0004018654967787268,-0.0034481353199550804,0.002680073246697612,0.9946252698407201
2011-01-31,0,0.0,0.0,-0.0034481353199550804,0.002680073246697612,0.9942235307246098
2011-02-02,0,0.0,0.0,-0.003414966470185034,0.003488826996019932,0.9933152404124493
2011-02-04,-1,-0.00066882427808593,-0.0005699927352124203,-0.003477895126850191,0.0038187489502641957,0.9933881768073697
2011-02-08,-1,-0.000503702952749813,-0.000428982375285286,-0.003477895126850191,0.0032377550133898614,0.9944114613422756
2011-02-10,-1,-0.00028179903956455574,-0.00023263212725671992,-0.003477895126850191,0.0032377550133898614,0.9942176915613491
2011-02-14,0,0.0,0.0,-0.0068698714270738655,0.002274866586081776,0.993463495171623
2011-02-16,0,0.0,0.0,-0.007908983530116426,0.002274866586081776,0.9924505179956781
2011-02-18,0,0.0,0.0,-0.007908983530116426,0.0032377550133898614,0.9917794711000076
2011-02-23,0,0.0,0.0,-0.007908983530116426,0.004798438382129184,0.9918758460173186
2011-02-25,0,0.0,0.0,-0.006006496117827111,0.0062588803690169816,0.9919184603628572
2011-03-01,0,0.0,0.0,-0.0038881645619210396,0.005041774186705875,0.9928462002539435
2011-03-03,0,0.0,0.0,-0.0038881645619210396,0.005041774186705875,0.9935313553829552
2011-03-07,0,0.0,0.0,-0.0038881645619210396,0.005289649771850301,0.9935114209439784
2011-03-09,-1,-0.0003121373577469411,-0.00029880574584122035,-0.0018162246500068235,0.005289649771850301,0.9938257256840635
2011-03-11,-1,-0.0001327311981411757,-0.00010363593145325645,-0.0038881645619210396,0.005015995149475225,0.9940615930427942
2011-03-15,-1,-0.0006740269140019633,-0.0006447072378493401,-0.00012409424112782815,0.005289649771850301,0.9944081866069923
2011-03-17,-1,-0.001218876727834303,-0.0011567778626194038,0.001217165791293333,0.005289649771850301,0.9949335931048873
2011-03-21,-1,-0.0010831328004743451,-0.0010393959729447218,0.001217165791293333,0.005015995149475225,0.9953592955980586
2011-03-23,-1,-0.0002857644126987246,-0.000269416976554141,-3.2551659387591966e-05,0.005015995149475225,0.9949396963975322
2011-03-25,-1,-0.0007211950653682552,-0.0007141973527555773,-0.0018162246500068235,0.0042500567725816075,0.994184937785087
2011-03-29,-1,-0.0004727156133203324,-0.00041860058584474824,-0.0016014864534597988,0.0043326819676297494,0.9940020129589592
2011-03-31,-1,-0.0001494508140896686,-3.854547209747002e-05,-0.0016014864534597988,0.00369683232454277,0.994358015025719
2011-04-04,0,-2.606647319151797e-05,9.97525054788988e-05,-0.00031982495824250105,0.0038667399244905697,0.9943423057598318
2011-04-06,1,0.0002151235584513614,0.0003870519046013385,-0.0030751783503507424,0.0038667399244905697,0.994307302756982
2011-04-08,0,-2.1591196552521008e-05,0.00010797464731108672,0.00033835734438686393,0.004070225461802964,0.9942159491575915
2011-04-12,1,0.00031054486595205263,0.00047866702388049676,-0.0024747440660540174,0.004070225461802964,0.9944025475476658
2011-04-14,1,0.000544788773832222,0.0007701379576644955,-0.0024747440660540174,0.004421413429437561,0.994031611676086
2011-04-18,1,0.00033598380599585186,0.0005316108778193967,-0.0024747440660540174,0.004976524586895129,0.9939989385381665
2011-04-20,1,0.0008356163586218004,0.0010673541400442002,0.0001279825932675681,0.005543419660288887,0.9947604064771814
2011-04-25,1,0.000357699733417893,0.0005206480737480675,0.00019841983246600393,0.005543419660288887,0.9953521565184505
2011-04-27,1,0.0008342345601839763,0.0010621295728640966,0.0009858282745707544,0.004976524586895129,0.9963002380782218
2011-04-29,1,0.0009288895520692999,0.0011748233032730865,-0.00226343234845871,0.004976524586895129,0.9958035159944676
2011-05-03,1,0.0015932122819897602,0.0018625506534553607,-0.002528819919641599,0.004976524586895129,0.9955534857270095
2011-05-05,1,0.001218986846632732,0.0014102628006702471,-0.00259123299141582,0.004976524586895129,0.9955497320532358
2011-05-09,1,0.001296828546787009,0.0014882439236318296,-0.00259123299141582,0.004976524586895129,0.9956277954744616
2011-05-11,1,0.001215487262546841,0.0013858934038531575,-0.00259123299141582,0.0027871772097061856,0.9959394049324446
2011-05-13,1,0.0013119421011901049,0.0015356113055957454,-0.0026605180916230427,0.0026997076994388063,0.9958349550307681
2011-05-17,1,0.0013840434671349754,0.0016179344464160076,-0.002827436877901478,0.0026997076994388063,0.9956043047850858
2011-05-19,1,0.002103930362502112,0.002381439888510194,-0.002827436877901478,0.0026997076994388063,0.9955370063725191
2011-05-23,1,0.0021352975937104198,0.0024277019946393774,-0.002827436877901478,0.0026962114629185243,0.9956974218000054
2011-05-25,1,0.0017371540445840798,0.0020130534718486902,-0.0030066400270599494,0.0026962114629185243,0.9954482891233525
2011-05-27,1,0.0011716065716620943,0.0012782696677257135,-0.002827436877901478,0.004816316885187579,0.9957633819543511
2011-06-01,0,0.0,0.0,-0.002656247452672662,0.005555528155142054,0.9947337659832659
2011-06-03,0,0.0,0.0,-0.002064500983200668,0.006152919085406573,0.9940767528051684
2011-06-07,0,0.0,0.0,-0.002064500983200668,0.006152919085406573,0.9943116600983309
2011-06-09,0,0.0,0.0,-0.0028564074358118203,0.006152919085406573,0.9940054865079535
2011-06-13,1,0.0004940133739718858,0.0005030142262926868,-0.0029294533563919154,0.006152919085406573,0.9944815689282207
2011-06-15,0,0.0,0.0,-0.0029294533563919154,0.006152919085406573,0.9945083225099081
2011-06-17,1,0.0008219237128132323,0.0008996544214981148,-0.0031785078113667573,0.0025787291647760323,0.995003180346491
2011-06-21,1,0.0008068890525596089,0.0008777917819392711,-0.0031785078113667573,0.0034224320204514604,0.9946498806572645
2011-06-23,1,0.0004460914452395748,0.0004498221472189704,-0.0029294533563919154,0.006770045130046533,0.9937549278822726
2011-06-27,1,0.0011408413207729979,0.0011412409820152735,-0.0029294533563919154,0.004718506214340256,0.9939233156713358
2011-06-29,1,0.0022731904563213106,0.0024300985716976323,-0.003631040713023716,0.0027091201593884597,0.9940544046758779
2011-07-01,1,0.0030586029603767483,0.003359301588047054,-0.003631040713023716,0.002389230207143322,0.9940417426944627
2011-07-06,1,0.0031200552208983288,0.0034362597536200224,-0.003938711977928848,0.0025294430536982743,0.9931834542868988
2011-07-08,1,0.0029714478256252152,0.0032781681315922234,-0.003938711977928848,0.0037580978001856206,0.9925513018111732
2011-07-12,0,0.0,0.0,-0.004126309767841105,0.006603523517737169,0.9899238177416255
2011-07-14,0,0.0,0.0,-0.006367689523009558,0.006603523517737169,0.9880811051804719
2011-07-18,1,0.00041339921652624827,0.00044066545618995053,-0.006367689523009558,0.006603523517737169,0.9880234721110415
2011-07-20,1,0.0004344765914988567,0.00046235860344207073,-0.006367689523009558,0.006605387654647558,0.9879250380434629
2011-07-22,0,0.0,0.0,-0.01160683220987745,0.006605387654647558,0.9872693482912899
2011-07-26,1,0.0013650541458117506,0.0014896073161691508,-0.01160683220987745,0.009513298000121394,0.9863525107678117
2011-07-28,1,0.0013265563432172272,0.0014475713607505192,-0.014896312208476994,0.009513298000121394,0.9860798258990863
2011-08-01,1,0.0010167355662743331,0.0010716349631677447,-0.014896312208476994,0.010620604849100542,0.9852995361549521
2011-08-03,1,0.0006819079269298158,0.0007076428362309774,-0.006739294343425815,0.010620604849100542,0.9859358649884643
2011-08-05,0,0.0,0.0,-0.005776916324984307,0.010620604849100542,0.9862539250954887
2011-08-09,1,5.3029537175609506e-05,0.00014340829501598937,-0.0038394507276968064,0.009566394164628888,0.9898961025046807
2011-08-11,0,0.0,0.0,-0.004960709861747479,0.007416985519549395,0.9898412523947081
2011-08-15,0,0.0,0.0,-0.004960709861747479,0.009566394164628888,0.9894394500299011
2011-08-17,0,0.0,0.0,-0.004960709861747479,0.01058282193994009,0.9888901904883196
2011-08-19,0,0.0,0.0,-0.0038394507276968064,0.007877256376776403,0.9904639564772681
2011-08-23,0,0.0,0.0,-0.004960709861747479,0.006855070913857321,0.990492010687944
2011-08-25,0,0.0,0.0,-0.004960709861747479,0.007877256376776403,0.9899491124250396
2011-08-29,0,0.0,0.0,-0.004960709861747479,0.006246068178706153,0.989767389497615
2011-08-31,0,0.0,0.0,-0.008431844252501658,0.007616462054770632,0.9886230766125832
2011-09-02,0,0.0,0.0,-0.012480353344038252,0.007616462054770632,0.9878091736949065
2011-09-07,0,0.0,0.0,-0.012480353344038252,0.007616462054770632,0.9875876434179047
2011-09-09,-1,-0.0016134723673793384,-0.0012688599064955455,-0.008340463565766742,0.009800438973922777,0.988818733872987
2011-09-13,-1,-0.0017465547848458376,-0.0014061712691694553,-0.008340463565766742,0.010761350794483558,0.9881987697783573
2011-09-15,-1,-0.0012622140492005302,-0.0009543331131107956,-0.010852247865773521,0.009720913461924892,0.988526579228575
2011-09-19,-1,-0.001041100065218085,-0.0007589678535975864,-0.01178488647313284,0.009720913461924892,0.9880408244100194
2011-09-21,-1,-0.0010622208498841663,-0.0007914029665716853,-0.010852247865773521,0.010826930986572506,0.9886574319400813
2011-09-23,-1,-0.0006856701240118961,-0.00047159743789898154,-0.008340463565766742,0.010826930986572506,0.9882217976500259
2011-09-27,1,0.0003643189846550504,0.0004518473928179943,-0.008340463565766742,0.009720913461924892,0.9893439469043979
2011-09-29,1,8.87125974122777e-05,0.00019332453057212555,-0.0069839437699943645,0.010826930986572506,0.9897853002684621
2011-10-03,-1,-0.00165898512967459,-0.0013338210476510634,-0.003697519793550201,0.010826930986572506,0.9907987224578698
2011-10-05,-1,-0.0007785718608459305,-0.0006067870764334953,-0.003697519793550201,0.010826930986572506,0.990683847465793
2011-10-07,-1,-0.0004815748982458551,-0.00034888170027598574,-0.003697519793550201,0.009720913461924892,0.9908248041939494
2011-10-11,1,0.00045373674859732415,0.00046242763296979546,-0.003697519793550201,0.008653309890325143,0.9915528378756656
2011-10-13,1,0.0003023449578968844,0.0003187977702235992,-0.003697519793550201,0.007449234482649684,0.9913021728637138
2011-10-17,1,6.459191053486317e-05,0.00010293945554466328,-0.003697519793550201,0.008653309890325143,0.9912260209164521
2011-10-19,1,0.0003600396485516421,0.000384804567818732,-0.0052390069738118585,0.007217889458541874,0.9908465368225241
2011-10-21,1,0.0001641323918926296,0.0002311979618897383,-0.00538415904735674,0.006624362368405792,0.9923546451997721
2011-10-25,-1,-0.0003682361791986399,-0.00022824170901900194,-0.005566853142760815,0.006624362368405792,0.9922128433551534
2011-10-27,1,0.000205878215378921,0.00026993580724563547,-0.007645040234481823,0.005455566330060937,0.9926100418907244
2011-10-31,-1,-0.00020077213159841798,-8.886546307134303e-05,-0.007645040234481823,0.006624362368405792,0.991923182152145
2011-11-02,-1,-0.00012667302763369736,-1.4385262585095546e-05,-0.005566853142760815,0.007096575703739132,0.9916660146280073
2011-11-04,1,0.0005980624837379518,0.0006197229635315319,-0.005566853142760815,0.005302907191563853,0.9920219640192239
2011-11-08,1,0.0009629395193751259,0.001013239590380508,-0.005566853142760815,0.005302907191563853,0.992002951081934
2011-11-10,1,0.0006740786348053056,0.0006898288953730645,-0.003982958277003909,0.005387402410102658,0.9925571866983304
2011-11-14,1,0.0004610547830311445,0.00048473985184885375,-0.003961464845177714,0.004873728357921791,0.9932103185667782
2011-11-16,1,0.0002017380172292907,0.00025453747806766493,-0.0037378312397986944,0.005014365829010894,0.9936167843956837
2011-11-18,1,0.0009417445500108168,0.000990301726924697,-0.0037378312397986944,0.00501219274822695,0.9939087437812939
2011-11-22,1,0.0007350752961040273,0.0008200012035322788,-0.0033140799966308596,0.005802795581018136,0.9934351018767299
2011-11-25,1,0.0004730420863346186,0.0005318465966597522,-0.0033140799966308596,0.008054616754575215,0.9928329286369277
2011-11-29,1,0.0006712790964177944,0.0007443993329868709,-0.0037378312397986944,0.005802795581018136,0.9932544466394142
2011-12-01,1,0.0009873894752388407,0.001079915034685177,-0.00417503673938566,0.005802795581018136,0.9935819405616653
2011-12-05,1,0.0010910219059877373,0.0012083063630394723,-0.004789572606220951,0.005903911216766745,0.9928938454396138
2011-12-07,1,0.001339503969261668,0.0014795689242329292,-0.004789572606220951,0.006101704516424009,0.9929251118619168
2011-12-09,1,0.0017448234154702955,0.0019549298165860997,-0.005167682997880389,0.005463464211842574,0.993050498276761
2011-12-13,1,0.0017752754225939657,0.0019930956018407763,-0.005083135573927737,0.005774554138405151,0.993276368311877
2011-12-15,1,0.0017393471653076196,0.0019437002943777655,-0.005083135573927737,0.005774554138405151,0.9935232304271711
2011-12-19,1,0.0011600100572059483,0.0012658054532014545,-0.003405752930501472,0.006731627388865914,0.9933405095032704
2011-12-21,1,0.0013223970896223622,0.001415334109447466,-0.005083135573927737,0.005774554138405151,0.993605723532605
2011-12-23,1,0.00173057649774274,0.0018524305589710049,-0.005512267613703429,0.005036740077849141,0.9934212095088029
2011-12-28,1,0.0014189600960759893,0.0015298212292535571,-0.004806165260156244,0.005036740077849141,0.9936438357280882
2011-12-30,1,0.001735436437611392,0.001824897596717555,-0.003450528059087649,0.004770371076502913,0.994297885534225
2012-01-04,1,0.0016628715276614263,0.0017485190578202332,-0.003450528059087649,0.004505329558123844,0.9948704994212437
2012-01-06,1,0.002145837417917758,0.0023339023678467397,-0.005005248649753517,0.00392090163630928,0.9943145651888758
2012-01-10,1,0.0012733372816862202,0.0012956292181167898,-0.005005248649753517,0.004770371076502913,0.9937989685384581
2012-01-12,1,0.0017477849754082132,0.0018507002143892189,-0.005199763643556643,0.00392090163630928,0.9936271276081339
2012-01-17,1,0.002142324971324805,0.0023494522880141994,-0.005199763643556643,0.00392090163630928,0.9936014387094758
2012-01-19,1,0.001973030851064372,0.0021208687735894904,-0.005540954306397475,0.00392090163630928,0.9934910252509004
2012-01-23,1,0.002163655086173147,0.0023760284766783115,-0.005199763643556643,0.004895720155160818,0.9936836631452964
2012-01-25,1,0.001582093169377202,0.001701200139998753,-0.005005248649753517,0.003985969107345709,0.9950632049587826
2012-01-27,1,0.0010644379539407947,0.0011342313406312965,-0.004945336540004449,0.003985969107345709,0.9951017757337892
2012-01-31,1,0.0009798661138887368,0.0009855893298815472,-0.005199763643556643,0.0029269635856393698,0.9946176452417274
2012-02-02,0,-9.57845688477241e-05,4.8613697056060906e-05,-0.005058148901313926,0.003139293804952546,0.9950434790019114
2012-02-06,1,0.0002641225261679854,0.00034231876176154917,-0.00489821195335251,0.00299470253812055,0.9957209133478206
2012-02-08,1,0.0008500858741418996,0.0008910656774034072,-0.00489821195335251,0.0026149694397327567,0.9950476811834008
2012-02-10,1,0.00026956443104967335,0.0003658534460177322,-0.002609147331431204,0.0026149694397327567,0.9952573400172314
2012-02-14,1,0.00046542976708867134,0.0004895325721803315,-0.002609147331431204,0.003282935794346528,0.9950760840334958
2012-02-16,1,0.0004897451147523309,0.0004995911649925685,-0.0023629806084873865,0.003282935794346528,0.9952889794276124
2012-02-21,1,0.000944156642032145,0.0010307408758143495,-0.0023629806084873865,0.0018985491878651868,0.9957386458800096
2012-02-23,1,0.0008988120374265771,0.0009610131053182619,-0.00489821195335251,0.0015607836965985974,0.9947645438937548
2012-02-27,-1,-0.0003838836622248368,-0.0002005973895253554,-0.004159711784521057,0.0026149694397327567,0.9945403536805982
2012-02-29,-1,-0.0006442527349926826,-0.00044418286104678617,-0.002624950841827306,0.0031312926905516817,0.9947324787342823
2012-03-02,-1,-0.0005707976252647181,-0.0003879355365635492,-0.002624950841827306,0.004494394965606747,0.9943202706283834
2012-03-06,-1,-0.00017955428661803406,-6.865858437992529e-05,-0.002624950841827306,0.004850807435046878,0.9938598240738141
2012-03-08,0,-5.1612786360303784e-05,3.278506427677687e-05,-0.002624950841827306,0.005394382754902597,0.9940568235090878
2012-03-12,-1,-0.0005601330458728279,-0.00039848291466713226,-0.002972230432152526,0.005394382754902597,0.9934188168243732
2012-03-14,-1,-0.0001384354490793932,-4.467988257226668e-05,-0.005240555015246749,0.006253537715380644,0.9928833300992417
2012-03-16,1,0.000159789913644962,0.00022450079495413475,-0.007480041647061442,0.0049754842314537594,0.9929123299441657
2012-03-20,0,-0.0001000926490223835,6.899046235390993e-06,-0.007480041647061442,0.00555785268483496,0.9926176361651848
2012-03-22,-1,-0.00044489118816461024,-0.0003126067071461107,-0.004731872844338604,0.006058057524352822,0.9921127295204951
2012-03-26,-1,-0.0003787620459901565,-0.00023795624080950916,-0.00710078875447916,0.00555785268483496,0.9923282926654359
2012-03-28,-1,-0.0005608899313504725,-0.0003966796520989704,-0.00710078875447916,0.006469761476809858,0.9919499901109483
2012-03-30,1,0.0001795848983583584,0.0002391995396642982,-0.00710078875447916,0.006727029201334313,0.9917179306354712
2012-04-03,1,0.0007008788596965531,0.0007217970487771153,-0.00710078875447916,0.006469761476809858,0.9920952330606794
2012-04-05,1,0.00031772081754314463,0.0003615489130997826,-0.00710078875447916,0.005717305276065888,0.9927331615357123
2012-04-10,-1,-0.00010410222432275711,-2.0148899691783745e-06,-0.00710078875447916,0.005717305276065888,0.9923049168444741
2012-04-12,0,0.0,0.0,-0.00710078875447916,0.0037639318807851548,0.9922708050436819
2012-04-16,0,0.0,0.0,-0.008637805995598427,0.0037639318807851548,0.9922441317845476
2012-04-18,0,0.0,0.0,-0.008637805995598427,0.0035457297291168733,0.9923332759440847
2012-04-20,0,0.0,0.0,-0.008637805995598427,0.0027220962305750146,0.9926153330687895
2012-04-24,0,0.0,0.0,-0.00638978989976951,0.0035457297291168733,0.9924946297679311
2012-04-26,-1,-0.001200843491758797,-0.0011888889766822346,-0.00638978989976951,0.001791194727355851,0.992870759043166
2012-04-30,-1,-0.0011488243095631456,-0.0011249090088395397,-0.006707868465432355,0.0014560865742707274,0.9936063133192922
2012-05-02,0,0.0,0.0,-0.009292926004793117,0.0009328417838007563,0.9929631248851333
2012-05-04,0,0.0,0.0,-0.009292926004793117,0.0009328417838007563,0.9921228524332517
2012-05-08,0,0.0,0.0,-0.008581588917939573,0.001791194727355851,0.9919913547052251
2012-05-10,0,0.0,0.0,-0.00748249875922489,0.001791194727355851,0.9923695269348168
2012-05-14,0,0.0,0.0,-0.00748249875922489,0.003078472073669081,0.9917584101886318
2012-05-16,0,0.0,0.0,-0.00748249875922489,0.006143516974989534,0.9908197641204882
2012-05-18,0,0.0,0.0,-0.005715171399476452,0.008721393374762989,0.9913499935536638
2012-05-22,0,0.0,0.0,-0.00748249875922489,0.006115823652438408,0.9912947751546183
2012-05-24,1,0.0001043845310820976,0.00013158825453265518,-0.008581588917939573,0.008249409917924931,0.9904179103687416
2012-05-29,-1,-0.0003648338761294313,-0.0002724397543151575,-0.008581588917939573,0.008721393374762989,0.9902130744618519
2012-05-31,-1,-0.0007301502749152792,-0.0006144811084426747,-0.007506693482801611,0.008721393374762989,0.9906322200792392
2012-06-04,-1,-0.0010789551774198778,-0.0009029286036460795,-0.007101213668569029,0.008721393374762989,0.9918526508424774
2012-06-06,1,0.0004225317413256043,0.00043673160435601596,-0.007101213668569029,0.008108049721477965,0.9922766536811173
2012-06-08,1,0.00041702250142841124,0.0004288901697171567,-0.005585289223552119,0.008108049721477965,0.9925905759915161
2012-06-12,-1,-0.00016321096260065858,-0.00011756690202923746,-0.005585289223552119,0.006282821401127818,0.9930874133940368
2012-06-14,1,0.0008126627577894157,0.0009033382080138832,-0.005585289223552119,0.006282821401127818,0.992934228619373
2012-06-18,1,0.0006238671067673649,0.0006571780576862048,-0.006974039842530584,0.005177490643919306,0.9929825709053709
2012-06-20,1,7.977119402703193e-05,0.000133370845628836,-0.0032231726403122536,0.005721386258198912,0.9933659169499152
2012-06-22,-1,-7.879761866920113e-05,-2.9072392687716703e-05,-0.005545905175794214,0.005177490643919306,0.9922363625026431
2012-06-26,1,9.888267657986319e-05,0.00014204305817232173,-0.007195455061323622,0.00427629668601449,0.9924336477055671
2012-06-28,1,0.0001548581393340964,0.00017878181463669012,-0.005545905175794214,0.005177490643919306,0.9923273133787311
2012-07-02,1,0.0002203558794596306,0.00022271391484666647,-0.0019039737683116133,0.005177490643919306,0.992707049694423
2012-07-05,1,0.000622680112773977,0.0006707858835124094,-0.0019039737683116133,0.003944862685568936,0.9934196703107037
2012-07-09,1,0.0007139143277968359,0.0007760294728517994,-0.0019039737683116133,0.003672460190741285,0.9936043958848996
2012-07-11,1,0.0005558476263202393,0.0005961867926873624,-0.007096410194462373,0.0028617935288652767,0.9929505135236129
2012-07-13,1,0.0017195495078564133,0.001922169710415177,-0.007096410194462373,0.002255802815563536,0.9934685175058833
2012-07-17,1,0.0017345628261939555,0.0019395472549556126,-0.005151421364926788,0.0022268586654110925,0.9936432665878561
2012-07-19,1,0.0019122380183775193,0.0021387635414941127,-0.005151421364926788,0.001624522968252628,0.9932463090335737
2012-07-23,1,0.0012074276158197707,0.001313470190364,-0.003634956978675813,0.001875513047177938,0.995259949120877
2012-07-25,1,0.0009612699126064397,0.00104382499636182,-0.0034304787858967572,0.0022268586654110925,0.9957386330873412
2012-07-27,1,0.0014707004881604007,0.0016298981601432728,-0.0034304787858967572,0.0019675128203839745,0.9956187210438173
2012-07-31,1,0.0010642667223189988,0.001177619221828081,-0.003634956978675813,0.0028695402262949375,0.9952228472699424
2012-08-02,1,0.0011211913706249698,0.0012273313011384771,-0.004074730340318768,0.0044075305191725155,0.9944458644180246
2012-08-06,1,0.001038388293089267,0.0011468256062539953,-0.004372826564089646,0.006034168578799271,0.9938437195296697
2012-08-08,1,0.0009640740737212939,0.0010581349719527608,-0.003634956978675813,0.007127454787010534,0.9942625051663069
2012-08-10,1,0.001074815995948136,0.0011947608160047768,-0.0034304787858967572,0.006034168578799271,0.9948439983385283
2012-08-14,1,0.00047877568014408165,0.00048423161249557114,-0.003634956978675813,0.006034168578799271,0.9947684613972506
2012-08-16,1,0.0005403159361098732,0.0005921151487528334,-0.0017045094916929978,0.007127454787010534,0.9947884753632722
2012-08-20,1,0.0009203681569030256,0.0010085622077818006,-0.0016685054944617552,0.007127454787010534,0.994713864244214
2012-08-22,1,0.001010711328995579,0.001130692806077488,-0.0028613838732553594,0.007127454787010534,0.9946269855649741
2012-08-24,1,0.0015467245464970466,0.0017703949667334036,-0.001492983192779673,0.0062519846108449115,0.9950208890002219
2012-08-28,1,0.0014126713513271634,0.0016248551458844102,-0.001492983192779673,0.005793966570428839,0.9949371701826317
2012-08-30,1,0.0009732618119703266,0.0010986736585943814,-0.001492983192779673,0.0051016571232148315,0.99474236462113
2012-09-04,1,0.0011815005756818065,0.0013292004091103368,-0.001492983192779673,0.004094672077850062,0.9947599492254513
2012-09-06,1,0.0018620501429751693,0.002081459933716401,-0.0030560553511951687,0.004094672077850062,0.9950152989590999
2012-09-10,1,0.001922978808728965,0.0021627692956369656,-0.0030560553511951687,0.005082230471297706,0.9948557460802973
2012-09-12,1,0.0015775839957731345,0.0017401962918776421,-0.000918626601004565,0.0059535026467231016,0.9949787878034143
2012-09-14,1,0.0017290301219991418,0.0018931331220452825,-0.000996148143435324,0.005082230471297706,0.9952136997548396
2012-09-18,1,0.002603289571690669,0.0029102445512955003,-0.000996148143435324,0.0059535026467231016,0.9951729915595149
2012-09-20,1,0.0026662173065995698,0.003008511647646793,-0.004862754285186712,0.0059535026467231016,0.99455175398561
2012-09-24,1,0.0028748008888290735,0.003270715684205326,-0.006972214565981052,0.004229558754699014,0.9921584435830361
2012-09-26,1,0.002275564116761336,0.00255170154309944,-0.006716612357536777,0.0038448335704556547,0.9920195447265924
2012-09-28,1,0.001873698207804142,0.0020660653483132855,-0.006558799518877964,0.0038448335704556547,0.9925551417538536
2012-10-02,1,0.000987654350722091,0.0010383583161137156,-0.0057495100609495295,0.0038448335704556547,0.9933581853963835
2012-10-04,1,0.0010315237866404222,0.0010713404182135522,-0.00465307328784089,0.0038448335704556547,0.9937222776705151
2012-10-08,1,0.0013055995182295432,0.0013946084846152987,-0.005929756526840497,0.0038191299775658127,0.9930558570900373
2012-10-10,1,0.000917100080409432,0.0009267446360051159,-0.00725735175520968,0.0011845152983302677,0.9922064536515665
2012-10-12,1,0.0013301099963406462,0.0014072008269306628,-0.00725735175520968,0.0011915175443833561,0.991904584823368
2012-10-16,1,0.001955493490864507,0.0021165283925535937,-0.00725735175520968,0.0006024819476921806,0.9916319106065258
2012-10-18,1,0.0011618610101594936,0.001201342291716556,-0.006826879024132367,0.0008841225345662295,0.9925056478178497
2012-10-22,1,0.00032984799659879804,0.0004260344434319799,-0.00583886989603433,0.0022019693803323422,0.9947223095651864
2012-10-24,-1,-0.0007146959585985219,-0.00047885474743202536,-0.005119914363729812,0.004346486885847402,0.9942284328899373
2012-10-26,-1,-0.0001965493966665076,-8.67415650087299e-05,-0.003928234191084454,0.00610035869125777,0.9941479137752209
2012-11-01,-1,-0.0003872717978323239,-0.00023217237171538818,-0.003928234191084454,0.0064962765506735515,0.9938802657590272
2012-11-05,-1,-0.00042045635194917135,-0.00024530215742642035,-0.003928234191084454,0.005963234243051867,0.9941675118152026
2012-11-07,-1,-0.0003290716026419952,-0.0002173952939732535,-0.0030482650207812856,0.006515169730097234,0.9942957844322182
2012-11-09,-1,-0.0007329193676480199,-0.0005655863749972128,-0.0009194363506809087,0.0071188826898615064,0.9945453033268382
2012-11-13,-1,-0.0013609820113042886,-0.0010955955223594992,-0.0009194363506809087,0.0071188826898615064,0.9942316296495209
2012-11-15,-1,-0.0015448980357259236,-0.0012573331340458324,-0.0018350665653348996,0.0071188826898615064,0.99438988499558
2012-11-19,-1,-0.0007628672433815189,-0.0005826861048098862,-0.0018350665653348996,0.0071188826898615064,0.9943045364664843
2012-11-21,-1,-0.0006351152989373604,-0.0004539220343691134,-0.0027912306324379844,0.006834168650506331,0.994354375109467
2012-11-26,-1,-0.0007068462551640266,-0.0005054539027649019,-0.0027912306324379844,0.0064654850759373475,0.9948389150511009
2012-11-28,-1,-0.0002468662154361129,-0.00012033259293471897,-0.0027912306324379844,0.0049103156274146395,0.9951495046234138
2012-11-30,1,4.322482500833521e-05,0.00012901996127429296,-0.003303945678868078,0.005016648600884339,0.9944952321360974
2012-12-04,-1,-0.00017514138210413622,-7.152960630870065e-05,-0.003303945678868078,0.00688671090844525,0.9932255973323126
2012-12-06,1,0.0007644867008721769,0.0008434964840649138,-0.004134264938823029,0.00688671090844525,0.9930633392649666
2012-12-10,1,0.0009859511639535115,0.0010905434563125164,-0.004134264938823029,0.005940416033148165,0.9935774396978019
2012-12-12,1,0.0010445005613069407,0.001169265271056584,-0.003979103515620589,0.006568965260296268,0.9934787310752978
2012-12-14,1,0.0004552300117120657,0.0004556893649649168,-0.0031752058183972774,0.006568965260296268,0.9935336350988165
2012-12-18,1,0.0008491704998259288,0.0008843278221467,-0.004900253040896818,0.005868576454464773,0.9937941030963657
2012-12-20,1,0.0009148908362763233,0.0009797850026821199,-0.0027553773490026955,0.006671192172395073,0.9938804897106164
2012-12-24,1,0.0005923233347109651,0.0006144052861190962,-0.0019090649867246642,0.006671192172395073,0.9940510453018253
2012-12-27,1,0.0005735057306251803,0.0005998648630369466,-0.001526833909560218,0.006919981884556454,0.9939296626635934
2012-12-31,1,0.00040039918220384285,0.0004075218543162781,-0.001526833909560218,0.006580055585666668,0.99445100283764
2013-01-03,1,0.0009830402904608846,0.001033898849463641,-0.001526833909560218,0.006619032058906417,0.9952772843641495
2013-01-07,1,0.0012293262971852644,0.0013255401925283462,-0.001526833909560218,0.006510117839359458,0.9955047364209568
2013-01-09,1,0.000837223374563937,0.0008682163739479258,-0.0019090649867246642,0.006510117839359458,0.9952133016646648
2013-01-11,1,0.0009403539770608602,0.0009640979513617276,-0.0019090649867246642,0.006088292720038702,0.9954578453912877
2013-01-15,1,0.0010014427046678201,0.0010567895820288956,-0.002022423817780226,0.006088292720038702,0.9950052239808677
2013-01-17,1,0.0009702427892121283,0.001019781273917433,-0.002022423817780226,0.005760217636532689,0.9951611808137427
2013-01-22,1,0.0014529160736356768,0.0015745979854640663,-0.002022423817780226,0.004721011108150768,0.9957004999860108
2013-01-24,1,0.0013397894257616476,0.001439684898984011,-0.0012100912644971364,0.004779169292368272,0.995480130400864
2013-01-28,1,0.0016634831180472628,0.001793323958918347,-0.0012100912644971364,0.004209228649242057,0.995523785610999
2013-01-30,1,0.001660845757419959,0.0017963993324577063,-0.001708690634582842,0.0033662764065131223,0.9956110240730165
2013-02-01,1,0.002459715192271038,0.0027430093936451736,-0.004641365068610077,0.0026927322001313357,0.9952703594161123
2013-02-05,1,0.002060884446276027,0.0022931284388376418,-0.0028776003539864635,0.0032801487675497894,0.995595916097629
2013-02-07,1,0.0018052239206518077,0.0019861727057467796,-0.0011251592816668011,0.004671484565196379,0.995181289880864
2013-02-11,1,0.0019020960536364092,0.0021224794100429584,-0.0015594404039254643,0.004671484565196379,0.9951060532142424
2013-02-13,1,0.0017660233376212099,0.0020023596303000227,-0.0008569140696242765,0.006654275741627393,0.9955933258388271
2013-02-15,1,0.001700824556338486,0.0019212743635212922,-0.0008569140696242765,0.006654275741627393,0.9952778510218528
2013-02-20,1,0.001668454610135893,0.0018928247500089594,-0.0014170841800138292,0.006654275741627393,0.9951751446214557
2013-02-22,1,0.0021191628049728284,0.0023895012257088184,-0.0018670003293355178,0.006585942112126585,0.99519580206156
2013-02-26,1,0.0021316719435867143,0.00239136196940488,-0.0023280182687901367,0.004389533617055643,0.9949662777169179
2013-02-28,1,0.001744910230391692,0.0019250821427416144,-0.0018670003293355178,0.006585942112126585,0.9948968997359774
2013-03-04,1,0.001447217367937502,0.0015929273730620674,-0.0014170841800138292,0.007578714964500069,0.9944709186614981
2013-03-06,1,0.002087151964436376,0.0023277641801899744,-0.001900949597055232,0.006585942112126585,0.9941889523783103
2013-03-08,1,0.0025672554722251236,0.0028796032692877302,-0.001900949597055232,0.006585942112126585,0.9946188543144461
2013-03-12,1,0.0024898100154937164,0.002792340747540442,-0.002906149409642343,0.006585942112126585,0.9944326418854054
2013-03-14,1,0.002841027306600335,0.0032190765348475915,-0.002906149409642343,0.007595423726305478,0.9940978108694991
2013-03-18,1,0.0022142410792301242,0.0024803659465597646,-0.002906149409642343,0.0078848820915958,0.9935463554882117
2013-03-20,1,0.0016958595547622711,0.001871093236562579,-0.005175342568319427,0.0078848820915958,0.9929447137718195
2013-03-22,1,0.0016163974992675417,0.001757937454846392,-0.006212911593739709,0.0078848820915958,0.9919846083427527
2013-03-26,1,0.0011856687078165963,0.0012511042522959548,-0.006039570758199299,0.008169074581769535,0.9918660814895294
2013-03-28,1,0.0015168179340702514,0.0016236551258208961,-0.006039570758199299,0.00806608100765453,0.9921423976304508
2013-04-02,1,0.0016875350185850022,0.0018294049042073361,-0.005140560492227858,0.00806608100765453,0.9924105500750906
2013-04-04,1,0.0015229797868065728,0.0016221437183388794,-0.005140560492227858,0.006993218142285852,0.9928912376417917
2013-04-08,0,0.0,0.0,-0.006039570758199299,0.007137185921158591,0.9925211074182051
2013-04-10,0,0.0,0.0,-0.006468134873133311,0.007137185921158591,0.9921929052620206
2013-04-12,0,0.0,0.0,-0.0076452981848204715,0.0055137130908235995,0.9923414418922435
2013-04-16,0,0.0,0.0,-0.006468134873133311,0.0055137130908235995,0.9929645939485627
2013-04-18,0,0.0,0.0,-0.007615888669340754,0.00688334727152029,0.9927400459391151
2013-04-22,0,0.0,0.0,-0.002454095898263021,0.00688334727152029,0.9937946213601716
2013-04-24,0,0.0,0.0,-0.004797353450116343,0.006108599862667718,0.9941520346699919
2013-04-26,0,0.0,0.0,-0.007353599137959201,0.006108599862667718,0.9935092468707487
2013-04-30,1,0.0009208028004657949,0.0009235441526596912,-0.007615888669340754,0.006108599862667718,0.9926267271734365
2013-05-02,1,0.0008948829816435646,0.0009382433679971399,-0.00817059859350908,0.005314099526277363,0.9920160766359675
2013-05-06,1,0.0008661559573230288,0.0008814089771052203,-0.007528699274188737,0.005314099526277363,0.9919987546735759
2013-05-08,0,0.0,0.0,-0.007528699274188737,0.005314099526277363,0.9916335644328592
2013-05-10,0,0.0,0.0,-0.0070650569869678504,0.007600539348637883,0.9910600693189706
2013-05-14,0,0.0,0.0,-0.007528699274188737,0.0062845065778815825,0.9909030540013762
2013-05-16,0,0.0,0.0,-0.0070650569869678504,0.006060402700904923,0.9911184049719045
2013-05-20,-1,-0.00016897182790517851,-2.4335764347104656e-05,-0.0070650569869678504,0.007254113718983617,0.9907250033191068
2013-05-22,-1,-0.0003031484983861837,-0.00013434090128844556,-0.01033302320280359,0.007254113718983617,0.9897650762695434
2013-05-24,-1,-0.0008897444162153194,-0.0006440978141907842,-0.01033302320280359,0.007254113718983617,0.9900971761021906
2013-05-29,-1,-0.0010744154035048513,-0.0008497682431121017,-0.006219087366549302,0.007443215380396427,0.9906940045323914
2013-05-31,-1,-0.0019500830451440942,-0.0016327688360881052,-0.005119782101879995,0.008703563088476925,0.9908175819300321
2013-06-04,-1,-0.00153945682976848,-0.0012640162661174846,-0.005119782101879995,0.008217042940083092,0.9914040923084652
2013-06-06,-1,-0.00194095666027289,-0.0016313718885356192,-0.0047097929731116225,0.008217042940083092,0.9919282647860875
2013-06-10,-1,-0.0011110720152026961,-0.0008933149390580242,-0.0047097929731116225,0.005038124987162266,0.9935754450058526
2013-06-12,-1,-0.0015512315024502725,-0.0012823387050619798,-0.001237989907030123,0.006911387840216169,0.9935363809666938
2013-06-14,-1,-0.0013015830448971652,-0.0010810577694241232,-0.0012956884500245644,0.007903965048402814,0.993389842656787
2013-06-18,-1,-0.0008749111155762018,-0.000700310587328244,-0.005292877730863319,0.005368984056557813,0.9938772367412347
2013-06-20,-1,-0.0018248482206990558,-0.001557384713466079,0.00012519631469468036,0.005368984056557813,0.9945906760825786
2013-06-24,-1,-0.0010320149184196053,-0.0008582151524036665,-0.005292877730863319,0.005111714839134172,0.993720908211395
2013-06-26,-1,-0.00037949733824333754,-0.0002987769839916715,-0.005292877730863319,0.005111714839134172,0.9942663985576536
2013-06-28,-1,-0.0006091095110153839,-0.00048053716810681266,-0.0024448068799980426,0.004536952581531444,0.9946011932814321
2013-07-02,-1,-0.00040937972167273895,-0.0002999881276334314,-0.0034317690202269745,0.004429397211471029,0.994752172047771
2013-07-05,-1,-0.0004107607901427743,-0.00030787989014512444,-0.0019611003527087185,0.0052163730462452835,0.9945952785940464
2013-07-09,-1,-0.0006731346694575312,-0.000516494562266054,-0.003771803924454261,0.0052163730462452835,0.9943146039714416
2013-07-11,-1,-0.000513010710146748,-0.0003715026844989329,-0.004296601122887259,0.0027923328148204726,0.9944970709025085
2013-07-15,-1,-0.0006231319804687284,-0.0004624422005678615,-0.004698316268620886,0.0014727642880550998,0.9948460324814453
2013-07-17,-1,-0.0005131291481392233,-0.0003859242552232952,-0.004698316268620886,0.0013367006645358768,0.9948331932515047
2013-07-19,-1,-0.000348373684727554,-0.00025190103091687134,-0.005976069992009161,0.0013367006645358768,0.994368389579405
2013-07-23,-1,-0.0012336838819560349,-0.0010266714490516737,-0.003901476945715983,0.0026989771367435028,0.9960281586489227
2013-07-25,-1,-0.0011626361623828102,-0.000951033968986681,-0.004133809184709219,0.0024351117620739103,0.9961143556582853
2013-07-29,-1,-0.0007562381342780921,-0.0006187972904792721,-0.004133809184709219,0.0019241559361880538,0.9960942803600192
2013-07-31,-1,-0.0002971741787510334,-0.0002482322105665617,-0.004445782713740956,0.0019241559361880538,0.9954744058813473
2013-08-02,1,2.2977584857215413e-05,3.521194806127812e-05,-0.005438550165337648,0.0004342938778031142,0.9950643925935286
2013-08-06,-1,-7.887242360508394e-05,-6.205063247372891e-05,-0.005016198750140128,0.0017447314785342522,0.9950442765669157
2013-08-08,-1,-0.0003644280974372426,-0.000300373076455754,-0.005016198750140128,0.003943798839868211,0.9948373347516384
2013-08-12,-1,-0.0006628724354488596,-0.000564299419519467,-0.0042956448867893455,0.004605329731080269,0.9949441038186192
2013-08-14,-1,-0.0008219688590580304,-0.0007135670906632475,-0.0038514310033987797,0.0048651233056056925,0.9948982475998566
2013-08-16,-1,-0.001305275421803134,-0.0011287727464489952,-0.0030189619050507623,0.0048651233056056925,0.994879352553154
2013-08-20,-1,-0.0009243545390960757,-0.0008110876825520939,-0.0030189619050507623,0.005411470484379567,0.9947341343012368
2013-08-22,-1,-0.0008084898103367319,-0.0007177718358013861,-0.0038255458539554785,0.005411470484379567,0.9943224166754121
2013-08-26,-1,-0.0007382514130382487,-0.0006636886001425257,-0.0033875432270593807,0.005411470484379567,0.9940777351767176
2013-08-28,-1,-0.00020026056953569038,-0.0002001352128655865,-0.0019454546778311258,0.005400472281660225,0.9947639506944024
2013-08-30,-1,-0.0007157609647224485,-0.0006561039706192972,-0.0019454546778311258,0.005400472281660225,0.9944840878364811
2013-09-04,0,-5.412047261473129e-05,2.746600168262233e-06,-0.004130401631775478,0.00516842910475418,0.994693051981678
2013-09-06,1,0.00021031135045099694,0.0002977734505423701,-0.006777323005230331,0.004081648829269514,0.994977840533136
2013-09-10,1,0.00024399293693080134,0.0003262569617691252,-0.006777323005230331,0.0037538874897701997,0.9948472777911825
2013-09-12,-1,-8.268576764168478e-05,-8.145751429319015e-05,-0.007324886051272952,0.0037538874897701997,0.9943017098496842
2013-09-16,1,0.0002958794353985245,0.00037485976416141086,-0.007324886051272952,0.0033628136973580134,0.994364038249427
2013-09-18,1,0.000519717882331063,0.0006248943398491599,-0.00813758688998118,0.0033628136973580134,0.9935179202518437
2013-09-20,1,0.00024195319433392476,0.0003303161059352246,-0.006584710542706073,0.0033628136973580134,0.9942898618706508
2013-09-24,1,0.0005208846489664959,0.0006494825685765835,-0.006588745628588912,0.002763266989027664,0.9940127098243581
2013-09-26,1,0.0005808739491882185,0.0007164094261065972,-0.007559749502408408,0.002763266989027664,0.99364099988308
2013-09-30,-1,-6.467535818411124e-05,-3.1945149911207735e-05,-0.006403534555986147,0.0036296455650775272,0.9944700858290949
2013-10-02,-1,-0.00047395723142459444,-0.0004429857359713925,-0.0049388117382563376,0.005142450085081982,0.9945301879777299
2013-10-04,-1,-0.0004740375999394008,-0.00045650299680381073,-0.003805439702424733,0.005758643925293808,0.9941868035450276
2013-10-08,-1,-0.0006542036871270415,-0.0006147339532650517,-0.0008653410492695654,0.005758643925293808,0.9943293655668616
2013-10-10,-1,-0.00032542933494192366,-0.0003201299876758648,-0.0008653410492695654,0.005227711765245057,0.9948409412941341
2013-10-14,-1,-0.00023604294156225191,-0.00021430702521123176,-0.0021730489627773313,0.005227711765245057,0.9949281906247535
2013-10-16,-1,-0.00018988099262038147,-0.00018063960755845292,-0.0006448718177408789,0.005227711765245057,0.99562976816157
2013-10-18,-1,-0.0005172489005165362,-0.00045863080004851313,-0.002867505291192456,0.005227711765245057,0.9952195137453402
2013-10-22,1,3.928271264958874e-05,4.9857942274531304e-05,-0.0006448718177408789,0.005294641735755682,0.9954433121025523
2013-10-24,-1,-0.0008172386658131994,-0.0007120565321829574,-0.0006448718177408789,0.005294641735755682,0.9955213570214412
2013-10-28,-1,-0.0008270855166618421,-0.0007016683113801495,-0.0006448718177408789,0.005843366793920146,0.9952734046286427
2013-10-30,-1,-8.406715648720374e-05,-7.237977514716807e-05,-0.004769548758586274,0.0052854582850158744,0.9949926835689947
2013-11-01,1,0.00011600577202187411,0.00012002232505656577,-0.005844502556830342,0.004713409289917631,0.9950622831897858
2013-11-05,1,0.00017980826131169277,0.00018553418883357795,-0.006657952361409301,0.004713409289917631,0.9947156789435224
2013-11-07,1,0.0003122917906610113,0.0003580830890427633,-0.005844502556830342,0.00491438956430177,0.9944842295261945
2013-11-11,1,0.00010251897703903957,0.00011071410323793126,-0.006657952361409301,0.00491438956430177,0.993890330042393
2013-11-13,1,0.0005099026767886716,0.000563791448057136,-0.007033378552755234,0.003240324404021562,0.9935912607014641
2013-11-15,1,0.0003131221570029602,0.00035974648588719656,-0.007033378552755234,0.004168460603051815,0.9936098283313857
2013-11-19,1,0.0006203602947154285,0.0007063583278433532,-0.007667039895330262,0.004168460603051815,0.9927063686255067
2013-11-21,1,0.0006763236891499152,0.0007859437421900825,-0.008384459553869811,0.006029248853887682,0.9918922347249145
2013-11-25,1,0.0010019646454457352,0.0011521760962129868,-0.008384459553869811,0.0032987705811816934,0.9921172799725247
2013-11-27,1,0.0005874145754956713,0.0006851920563116962,-0.007272518438935083,0.0032987705811816934,0.9930940270592287
2013-12-02,1,0.0006004767347455024,0.0007152134496707878,-0.004010167277263241,0.0032339094867314096,0.9936532494339209
2013-12-04,1,0.00027481873525803406,0.00033828699002641917,-0.0038696910762201237,0.0032339094867314096,0.9937198349577813
2013-12-06,1,0.0004413014233932391,0.0005183073019932069,-0.0065791250063063625,0.0032339094867314096,0.9939542838193971
2013-12-10,1,8.818296294472028e-05,0.00011869051277507979,-0.0065791250063063625,0.0032339094867314096,0.9941073223118503
2013-12-12,-1,-0.00010104576241514143,-7.514307945216275e-05,-0.0065791250063063625,0.003574612044873459,0.9940712096619148
2013-12-16,1,0.0002809954575768046,0.00031694562857021965,-0.0065791250063063625,0.0032210402717973495,0.9945619131156892
2013-12-18,1,0.0005925735794038981,0.0006756329203947393,-0.0065791250063063625,0.0032210402717973495,0.9951164884906374
2013-12-20,1,0.0007096897613184741,0.0008107861961955272,-0.003229379615792615,0.0026672105061004035,0.9960743745293242
2013-12-24,1,0.0008275443676808022,0.0009619679284395065,-0.0065791250063063625,0.0032210402717973495,0.99563030656981
2013-12-27,1,0.000810818580498302,0.0009336928644016625,-0.0065791250063063625,0.0027807780254810862,0.9954955742690502
2013-12-31,1,0.0006365857804499814,0.000731224433445573,-0.007694732217115554,0.0036994611404816153,0.9946348339996826
2014-01-03,1,0.0003179246057727132,0.00035128710258312845,-0.009518788497175957,0.00398653705493941,0.9941678223953951
2014-01-07,1,0.00019755268184915923,0.0002025709616601544,-0.009518788497175957,0.00398653705493941,0.9944888768939767
2014-01-09,-1,-0.0004337421522000945,-0.0003653192695930322,-0.005193506624619958,0.004794042594689577,0.9936558540358152
2014-01-13,-1,-0.0005252500572282466,-0.00045311690977274183,-0.005193506624619958,0.0051109782332077695,0.9935114129066404
2014-01-15,-1,-0.00033984692647706926,-0.00028889509089767345,-0.005874179327553041,0.005449574932248547,0.9933834930005707
2014-01-17,-1,-0.0005170312036311671,-0.0004498757738462083,-0.004039245123027089,0.0051109782332077695,0.9939105343057095
2014-01-22,-1,-0.00035374206443241957,-0.00031914723035223114,-0.004763625121552895,0.0051109782332077695,0.9937755106883754
2014-01-24,-1,-0.0008317599073207194,-0.0007135398853817218,-0.004039245123027089,0.005449574932248547,0.9939086911331111
2014-01-28,-1,-0.0006927179462859197,-0.0006070597146249817,-0.004763625121552895,0.005449574932248547,0.9937544575709053
2014-01-30,-1,-0.00041463272920588324,-0.0003798023936834549,-0.004763625121552895,0.0051109782332077695,0.994263457028491
2014-02-03,-1,-0.0007264730615417331,-0.0006522878412599086,-0.004763625121552895,0.005449574932248547,0.9941866804736492
2014-02-05,-1,-0.00028943463265759285,-0.00026871040504937926,-0.004763625121552895,0.005921901246053326,0.9943108122245243
2014-02-07,1,0.0003807773042217436,0.00045488810753777586,-0.004763625121552895,0.003779150545301631,0.9955653368350226
2014-02-11,1,0.0003721740886975469,0.00047136546453188145,-0.0035360243655827,0.0039875274037660955,0.9944795467315429
2014-02-13,1,8.996025302847671e-05,0.00011247466874582051,-0.0035797316611754226,0.0027173365994281606,0.994130458361205
2014-02-18,1,0.00043087202444232875,0.0005267451767852474,-0.0035797316611754226,0.0021090127883075537,0.9942956670397365
2014-02-20,1,0.0004064516667273454,0.0005062686221060691,-0.004244896430987879,0.0029182626681812413,0.993773772881675
2014-02-24,1,0.00038630217820113114,0.0004576083415533906,-0.007778342978840055,0.0029182626681812413,0.9931618366014776
2014-02-26,1,7.929488375424902e-05,9.441887418340942e-05,-0.004467833322247046,0.0029182626681812413,0.9934065653032208
2014-02-28,-1,-0.00031130647191458344,-0.000263968142726971,-0.0030138389797307224,0.005375573013985,0.9931662045520392
2014-03-04,-1,-0.0005565768999747675,-0.00046655418323825995,-0.0028482313656922856,0.005375573013985,0.9934977166867016
2014-03-06,-1,-0.0002066163657064026,-0.00016193481072082608,-0.0030138389797307224,0.0038049594629398845,0.9936120921341758
2014-03-10,-1,-0.00031896293165063197,-0.0002675313125982006,-0.0030201280187746845,0.0038049594629398845,0.9932542453076751
2014-03-12,1,0.0005259871247988513,0.0005876290567463592,-0.0030201280187746845,0.0038049594629398845,0.9944913654495654
2014-03-14,1,0.00019365452368400035,0.00020776735984010013,-0.0028482313656922856,0.0057614056569905625,0.9946314464979504
2014-03-18,1,0.00019359201848159475,0.00019843993411770188,-0.0017578150829892713,0.0076087206904371756,0.9940387231729999
2014-03-20,-1,-0.00010889214162467832,-6.944871232105891e-05,-0.0017578150829892713,0.0076087206904371756,0.994587130308549
2014-03-24,-1,-0.00030712688808126045,-0.00026184540431762297,-0.002897038482200521,0.007425135215665861,0.9950670489488246
2014-03-26,-1,-0.0001862072129104882,-0.00016099768405283945,-0.002226412125527895,0.007425135215665861,0.9947759890794051
2014-03-28,1,0.0006301983023817939,0.0007348161447404068,-0.0032528052753240467,0.007425135215665861,0.9949257915536799
2014-04-01,1,0.0008745770114146141,0.0010148476492599196,-0.0032528052753240467,0.007458733931178903,0.9947432233411031
2014-04-03,1,0.0007523099546575085,0.0008720534864991012,-0.0036693825001192565,0.007458733931178903,0.9945126789739652
2014-04-07,1,0.0005183069839605474,0.0006046453366650136,-0.0030222360075645173,0.007458733931178903,0.9947459566490469
2014-04-09,1,0.0011109256828072517,0.0012951024805199598,-0.0030222360075645173,0.007458733931178903,0.9947930525533554
2014-04-11,1,0.001190131784425322,0.001361033315620977,-0.0030222360075645173,0.007458733931178903,0.9948757982665871
2014-04-15,1,0.0018194028796079088,0.002092986114201421,-0.0036693825001192565,0.006675843353916295,0.9947949559959199
2014-04-17,1,0.0015760058183584664,0.0018110039333076148,-0.0036693825001192565,0.006675843353916295,0.994749509056304
2014-04-22,1,0.0014732101050638456,0.0017176133538476792,-0.004149513163512105,0.006675843353916295,0.9944586160349719
2014-04-24,1,0.0013115079000399924,0.0014979930791738632,-0.004149513163512105,0.007113850946960589,0.9943614802765836
2014-04-28,1,0.0013336105063311502,0.001510815029609484,-0.004205197476731174,0.0063113448914011985,0.9946086585041011
2014-04-30,1,0.0014653936458700026,0.0016421788726516625,-0.004501647172568353,0.005052464995934272,0.9945766875812718
2014-05-02,1,0.0016645764515926327,0.0018873330375349853,-0.004501647172568353,0.005997520056585163,0.9947190623703424
2014-05-06,1,0.001219696647294028,0.0013535519092920405,-0.004908168800727879,0.0063113448914011985,0.9944234313021174
2014-05-08,1,0.0012221048605145501,0.001326238032489558,-0.004908168800727879,0.005997520056585163,0.9945502290051125
2014-05-12,1,0.0016735259130687447,0.00186196413856722,-0.005229423827552737,0.004125911956572352,0.994245866407024
2014-05-14,1,0.0017383925182722485,0.0019421879542457117,-0.005535154401199299,0.0015484584227609393,0.9940429027070874
2014-05-16,1,0.0018245138052231202,0.002048732757048352,-0.005535154401199299,0.004125911956572352,0.9941063346906628
2014-05-20,1,0.0012576455446144787,0.0014052103236754532,-0.004820084977478353,0.004125911956572352,0.995180214599905
2014-05-22,1,0.001574597681617257,0.0017692224121152304,-0.004820084977478353,0.0040284278807708115,0.9953819753775431
2014-05-27,1,0.0015122435123252993,0.0016989060951874625,-0.004820084977478353,0.0026424786013433876,0.9954106319627748
2014-05-29,1,0.0010590425337235194,0.0011732578287492117,-0.0046155981687997045,0.0026424786013433876,0.9960656735021279
2014-06-02,1,0.0012218313800452523,0.001351291260112552,-0.004820084977478353,0.0014551554276949397,0.9957628287004537
2014-06-04,1,0.0011617783472002994,0.0012587125569500201,-0.004685808119343903,0.0014551554276949397,0.9961859864897183
2014-06-06,1,0.0007811634234110712,0.000811883265282677,-0.004723092917559267,0.0019063446795489437,0.996013711078327
2014-06-10,1,0.00046818966345865405,0.0004686566289717048,-0.004378135202314718,0.003054772274696341,0.9961130992066797
2014-06-12,-1,-0.00015499688212423045,-7.195569450721865e-05,-0.002645300542432734,0.003054772274696341,0.9963992753510972
2014-06-16,1,0.0002743456268352625,0.00031023372453153637,-0.002645300542432734,0.0014551554276949397,0.9968588883903524
2014-06-18,1,0.00018288423343746057,0.00024099122973323078,-0.004702134059610449,0.0010921518351983896,0.9960030742075111
2014-06-20,1,0.00023828352047428525,0.0002967101967201447,-0.005410179145864097,0.0010921518351983896,0.9952168325036274
2014-06-24,-1,-0.00013017116393176502,-1.3669128256827475e-05,-0.00828261160292118,0.0010921518351983896,0.9944728869716735
2014-06-26,-1,-0.00039585093323539326,-0.00023461058574310837,-0.00828261160292118,0.0013924544548657985,0.9944884040430955
2014-06-30,-1,-0.0006485764651527064,-0.00046665160305640484,-0.00828261160292118,0.0013924544548657985,0.9947911195199448
2014-07-02,-1,-0.00024627434149684046,-0.00015434319573749927,-0.00918870074827673,0.001086394267097628,0.99428363829534
2014-07-07,-1,-0.0005803707627949678,-0.00043681738617817574,-0.00918870074827673,0.0007191766539522738,0.9948176100210941
2014-07-09,-1,-0.0002784619956591823,-0.00017109564029064978,-0.00938728505162885,0.0004778040398017128,0.9948119742355639
2014-07-11,-1,-0.0004705398062107836,-0.0003491852882126305,-0.00938728505162885,0.0007191766539522738,0.994928817433279
2014-07-15,-1,-0.0006206127156025574,-0.00047462426506817226,-0.00938728505162885,0.0004778040398017128,0.9950144558183497
2014-07-17,-1,-0.0012095157540688035,-0.0010077157363654536,-0.004727324757069264,0.000809272511319263,0.9954624534984072
2014-07-21,-1,-0.0016518158636240133,-0.0013877345919318458,-0.002860339058618555,0.0013645038210364428,0.9959761874261134
2014-07-23,-1,-0.00269539092990906,-0.002294615799994572,-0.0019712434950612742,0.0015714732088440587,0.9962737144991932
2014-07-25,-1,-0.0027084025009340026,-0.002299006667158985,-0.0019712434950612742,0.0015714732088440587,0.9963267668315329
2014-07-29,-1,-0.0025271262942498486,-0.002150452476468852,-0.002750319519913628,0.0015714732088440587,0.9965324597801617
2014-07-31,-1,-0.003100510936588762,-0.002650238550950129,-0.002750319519913628,0.0022345202834624014,0.9965141000954237
2014-08-04,-1,-0.00240834076287492,-0.002106565260313817,-0.0032681748449324035,0.0022345202834624014,0.9964341769651173
2014-08-06,-1,-0.0028153651287144955,-0.002448304386492322,-0.002862740716434988,0.002831519407578535,0.9964455939043162
2014-08-08,-1,-0.002783359778685447,-0.0024167493976429318,-0.0032681748449324035,0.0024939091643701654,0.9964414881934202
2014-08-12,-1,-0.0029001680191668737,-0.0025081965641833483,-0.0037360812831832057,0.003623202917871174,0.9949058094216184
2014-08-14,-1,-0.003040698027399921,-0.002623205715980309,-0.0037360812831832057,0.003623202917871174,0.9947730320245401
2014-08-18,-1,-0.002848889147944745,-0.002448133359072511,-0.0037360812831832057,0.003149121862742378,0.9949325601272542
2014-08-20,-1,-0.00249147459046295,-0.002160342648942096,-0.0037360812831832057,0.003149121862742378,0.9951412570675037
2014-08-22,-1,-0.0021572489591512338,-0.0018791254626957191,-0.004485320462194059,0.003162638730311724,0.9948698077790834
2014-08-26,-1,-0.0023043927506980815,-0.002005930344755883,-0.004492801253630919,0.003769752686584408,0.9940114627879296
2014-08-28,-1,-0.002434617552715208,-0.0021096622224834683,-0.004492801253630919,0.003769752686584408,0.9938300493594421
2014-09-02,-1,-0.0026728391265144337,-0.0023462997048209365,-0.004492801253630919,0.004499524578581654,0.9926907649125107
2014-09-04,-1,-0.0023697451699127895,-0.0020987734583846375,-0.004948868971674124,0.004499524578581654,0.9928272156595456
2014-09-08,-1,-0.0020544958446259325,-0.0018513451139053863,-0.005052599978473975,0.006266705949419402,0.9922654092265635
2014-09-10,-1,-0.0018245819783628925,-0.0016404610490390954,-0.005052599978473975,0.006266705949419402,0.9930011744832685
2014-09-12,-1,-0.0018260935713275061,-0.0016274434157280374,-0.007115024113155282,0.006266705949419402,0.9927280406440946
2014-09-16,-1,-0.0014849894724702248,-0.001338216823646929,-0.009319733321604778,0.006266705949419402,0.9920171289903097
2014-09-18,-1,-0.0013921488953581355,-0.0012672376314993663,-0.009319733321604778,0.006266705949419402,0.9915713104217232
2014-09-22,-1,-0.0008363935169539453,-0.000795930986061318,-0.009319733321604778,0.006496507767691652,0.9911209268024869
2014-09-24,-1,-0.0003316014239476229,-0.0003091151403385787,-0.009319733321604778,0.005811448366617375,0.9917058043784794
2014-09-26,-1,-0.00044317120645723706,-0.00044226032937535656,-0.008121740177251773,0.006316263802839396,0.9920107030477948
2014-09-30,-1,-0.00017719450287884947,-0.00011871506796857291,-0.006715693065037613,0.006134014272164791,0.9929814011019232
2014-10-02,-1,-0.00017329242428363933,-9.516515155318688e-05,-0.00656056513308422,0.0065616128212137,0.9929079205668774
2014-10-06,-1,-0.00015297887944055978,-6.471897975226127e-05,-0.005978295383446442,0.006134014272164791,0.9935858146925759
2014-10-08,0,-4.310959451877324e-05,6.710355286551243e-05,-0.004862366718723905,0.006134014272164791,0.994150794978166
2014-10-10,-1,-0.0007523469371015215,-0.0007430182751538594,-0.0008969327528515652,0.006134014272164791,0.9943702257855829
2014-10-14,-1,-0.0009023650153747284,-0.0008956303553063448,-0.0001134045172786503,0.006134014272164791,0.9952293105654408
2014-10-16,-1,-0.0012690896375788813,-0.0012229914327460058,0.0002894016267340231,0.006134014272164791,0.9952541257594487
2014-10-20,-1,-0.0006902895318339026,-0.0006807272559032669,0.00018482294402564776,0.005089196390968913,0.9961734561232591
2014-10-22,-1,-0.0007009192782455355,-0.0006742576066605383,0.0007385806907492209,0.005089196390968913,0.9960852611203367
2014-10-24,-1,-0.00025611230676010806,-0.00015850214403900998,0.00038929042296144997,0.0046006335094164194,0.996816635011703
2014-10-28,1,9.599604652915503e-05,0.00023411555507012264,0.0002894016267340231,0.0046006335094164194,0.9972790356129648
2014-10-30,1,0.0002696076071875121,0.00041282806283572286,0.00018482294402564776,0.0046006335094164194,0.9970710878401099
2014-11-03,1,0.00022114375671520507,0.00033781565130933827,-0.00035849188696306165,0.0046006335094164194,0.9963852127165665
2014-11-05,1,0.0008606819017607216,0.0010897503586732439,-0.00035849188696306165,0.004221579425392896,0.9967796568851939
2014-11-07,1,0.0010638464364432314,0.0013208045844554088,-0.0019357495180250626,0.004221579425392896,0.9947726193440002
2014-11-11,1,0.0011537807592182409,0.0014275766418108049,-0.007256689856506429,0.004221579425392896,0.9933582095440191
2014-11-13,1,0.0012395637475694128,0.0015188287899005793,-0.007256689856506429,0.004705654673789612,0.992678558306223
2014-11-17,1,0.0015362249481605276,0.0018652123489498087,-0.008690764500519416,0.004221579425392896,0.991823105115992
2014-11-19,1,0.0017685142385354677,0.0021245243845268397,-0.008690764500519416,0.005334119049815615,0.9894104252146312
2014-11-21,1,0.0017980020067941017,0.0021543812452048923,-0.008690764500519416,0.006297516031379301,0.9889562220474062
2014-11-25,1,0.0018892938052216769,0.002252742556662409,-0.008690764500519416,0.006297516031379301,0.9889096572090315
2014-11-28,1,0.002026489153947892,0.0024278323664287246,-0.007906229828192082,0.006892945682739154,0.9891974649087962
2014-12-02,1,0.0013943252851068232,0.0017018107688466133,-0.006454756888301119,0.006892945682739154,0.9893056814662239
2014-12-04,1,0.0016156545803765795,0.0019524202605359006,-0.008995319006485952,0.006892945682739154,0.9885075241479693
2014-12-08,1,0.00027201861175364043,0.0003942296516349667,-0.006454756888301119,0.007921624563093397,0.989842643247595
2014-12-10,-1,-0.000731535852015561,-0.0007072739370384015,-0.00506194429569037,0.007921624563093397,0.9903328217873615
2014-12-12,-1,-0.0009150878467686354,-0.0008331221156535242,-0.00506194429569037,0.004589063687866826,0.9909507435480636
2014-12-16,-1,-0.0014823445425145476,-0.00134245740938974,-0.00506194429569037,0.004589063687866826,0.9916656779108977
2014-12-18,1,0.0004519519387866056,0.0005528770948180703,-0.006262119939084572,0.0029361057131666196,0.9936881115331596
2014-12-22,1,0.0003248401250084246,0.00038442518099635514,-0.006262119939084572,0.0029361057131666196,0.9937379993996843
2014-12-24,1,0.00026225506903399437,0.0003085297765236244,-0.007734388267640831,0.0029881609744909846,0.9927893824319897
2014-12-29,1,0.0005012944646200799,0.0005611016082087136,-0.009376040395866361,0.0013636279419125933,0.9922411448003687
2014-12-31,1,4.4621812450519626e-05,4.6094309881265636e-05,-0.009435220044197614,0.0023131465599693242,0.9901846371260357
2015-01-05,-1,-0.0004262766531991446,-0.0003727892039275835,-0.008839654183908103,0.004314280307763306,0.9902511107412537
2015-01-07,1,0.0001622188377131913,0.00018137724754340237,-0.008839654183908103,0.0032432940351197997,0.9909036099655152
2015-01-09,1,2.134521580037108e-05,3.203850223388122e-05,-0.008839654183908103,0.0018090052476735041,0.99084634956708
2015-01-13,-1,-9.270064722855824e-05,-8.811632151524514e-05,-0.008839654183908103,0.0038345824678920324,0.9902618686112714
2015-01-15,-1,-0.0004949273848773582,-0.000448137198716187,-0.007861295397434302,0.006901310515380859,0.9902105218354009
2015-01-20,-1,-0.000721484979622271,-0.0006438601064342796,-0.008839654183908103,0.006901310515380859,0.9898274613848039
2015-01-22,-1,-0.0006583677388608313,-0.0005897711659742515,-0.008839654183908103,0.00675211063005964,0.9901790251001523
2015-01-26,-1,-0.0009566233268730848,-0.0008332790619286616,-0.005297597013010049,0.006192982417755096,0.9909769564037059
2015-01-28,-1,-0.0015493436128273686,-0.0013609966700535705,-0.000927492282455535,0.00879677471369783,0.9892474162017078
2015-01-30,-1,-0.0003526179505698653,-0.00029572511498622263,-0.000927492282455535,0.00879677471369783,0.9918226164308562
2015-02-03,1,0.00021412792588262024,0.00023407149303372038,-0.002877508304184157,0.007482077096507926,0.9924434151299718
2015-02-05,1,0.00037086255451065914,0.0004170057427041451,-0.004625125900435544,0.007482077096507926,0.991108216246553
2015-02-09,-1,-3.442272549392881e-05,-3.400225910878862e-05,-0.004625125900435544,0.007482077096507926,0.990874870574659
2015-02-11,1,0.00034731669820443477,0.0003922802880012542,-0.0074404236341308275,0.007482077096507926,0.9903868359556985
2015-02-13,1,0.0008142798403949518,0.000928371774952726,-0.0074404236341308275,0.007403992685344803,0.9907602660731224
2015-02-18,1,0.0006642095824176085,0.0007767092100298373,-0.007119414378709497,0.008381177970346598,0.9906126836644932
2015-02-20,1,0.0005063622653687133,0.0005928019556592095,-0.010194503299244984,0.00861921572079763,0.9897752742018175
2015-02-24,1,0.000735329323466532,0.0008539165753022363,-0.010194503299244984,0.009253509504696658,0.9890901143004154
2015-02-26,1,0.0018519870611655737,0.0021051873965050676,-0.010729463228478292,0.00838496248730826,0.9903816644992698
2015-03-02,1,0.0019059567105933614,0.0021597959279805,-0.010729463228478292,0.00838496248730826,0.9904158809218873
2015-03-04,1,0.0019195744857082207,0.002172807747757883,-0.011479211240750813,0.00838496248730826,0.9897890089276934
2015-03-06,1,0.0007930599501419285,0.0008687802080135536,-0.010194503299244984,0.00838496248730826,0.9910751066089135
2015-03-10,1,0.00031640065454436233,0.00032547238990353143,-0.0077451535193625845,0.00838496248730826,0.9917890670741243
2015-03-12,1,2.0118539867956857e-05,8.432671646628595e-05,-0.005562162471404282,0.00838496248730826,0.9923495749097643
2015-03-16,1,0.0005448017784477636,0.000568936639694685,-0.005562162471404282,0.007785287647167747,0.9925320232289068
2015-03-18,1,0.00033899425197098077,0.000354230348620812,-0.007323036064973316,0.005767942035251324,0.9924260269927893
2015-03-20,1,0.0004348033010409209,0.00044122176855039633,-0.0071839533795064105,0.005767942035251324,0.992418375019141
2015-03-24,1,0.0011333180026995454,0.0012469785361712048,-0.007981810088381204,0.004819191098136074,0.9911870944698278
2015-03-26,1,0.0007034723664054105,0.0007731483618432994,-0.007981810088381204,0.006264167771294928,0.9909244967668622
2015-03-30,1,0.0007962871440229987,0.0008796961132006755,-0.008445645737908113,0.004819191098136074,0.9903776386568784
2015-04-01,1,0.0004935752554575295,0.0005532932106315137,-0.007981810088381204,0.004819191098136074,0.9909259699455473
2015-04-06,1,0.0005329333368942145,0.0006048717919361953,-0.008445645737908113,0.007128725096976309,0.9899243922593789
2015-04-08,1,0.0006635191199322459,0.0007526842124003632,-0.008445645737908113,0.006269633884507527,0.9900208046254055
2015-04-10,1,0.0009464221323934757,0.0010777489989150576,-0.008445645737908113,0.006271207260471482,0.989966166952377
2015-04-14,1,0.000927830035605754,0.0010637407308510198,-0.008445645737908113,0.0066208931406665505,0.9896391380869131
2015-04-16,1,0.0005032481529610819,0.0005921689739985564,-0.007457993232925703,0.0066208931406665505,0.9901707224574646
2015-04-20,1,0.0006694488421183772,0.0007823668405883412,-0.006426606291371708,0.004162618523172756,0.9910818649947257
2015-04-22,1,0.0011924583583852641,0.0013805530255111848,-0.005777513775976087,0.004162618523172756,0.9917714843679241
2015-04-24,1,0.0014003546440927083,0.0016124914092679027,-0.005777513775976087,0.0040444831871437785,0.9924118078025519
2015-04-28,1,0.000638329719278863,0.0007212506902275616,-0.005430922649837805,0.0037850165752474083,0.9933281914979994
2015-04-30,1,0.0006125539459411057,0.0007002844070450604,-0.005806910808240878,0.0037850165752474083,0.99223111821885
2015-05-04,1,2.7037602420957295e-05,6.263870175438849e-05,-0.005671297750290751,0.003457520723577607,0.9935642365830197
2015-05-06,-1,-0.0004415145062424029,-0.0003095705661197188,-0.005671297750290751,0.003457520723577607,0.9935048944061916
2015-05-08,1,0.00016660134282522887,0.0002198598762452374,-0.005806910808240878,0.002547191784300568,0.9938734047280315
2015-05-12,-1,-0.0003563356056646323,-0.00021440558924836622,-0.005806910808240878,0.002547191784300568,0.9939883928106118
2015-05-14,1,0.00037348213425532275,0.0003929743981440039,-0.005671297750290751,0.002547191784300568,0.993862056161012
2015-05-18,1,0.0004369610084175655,0.0004667847262195275,-0.005822930706565085,0.002547191784300568,0.9934630087843973
2015-05-20,1,0.0008822490952344246,0.0009678608520376738,-0.005822930706565085,0.003028023246373735,0.9942884623116296
2015-05-22,1,0.0007463514501128978,0.0008305584258210619,-0.00558354904558209,0.0031570656602730005,0.9944955952357457
2015-05-27,1,0.00045676433425443426,0.0004810086355908851,-0.005592704930190009,0.003274956951082795,0.9944030383198809
2015-05-29,-1,-0.00053439501466057,-0.00041939951999380695,-0.005547552428126912,0.004128830581955184,0.9945677758812896
2015-06-02,-1,-0.0001701972012072944,-0.0001212838501249595,-0.005714940854199552,0.004128830581955184,0.9936494461567799
2015-06-04,-1,-0.00032495132413721715,-0.0002461647447769969,-0.005714940854199552,0.0060715361908095285,0.9933066156663684
2015-06-08,-1,-0.0006805836799403348,-0.0005547506843281763,-0.005547552428126912,0.006490597456212405,0.9929795904691512
2015-06-10,-1,-0.0009518915486301079,-0.0007744668514592621,-0.005547552428126912,0.006901073740836686,0.9928210016101637
2015-06-12,-1,-0.0011450170875691751,-0.0009366170005194934,-0.005444469682169128,0.008046354968382265,0.9921353396601506
2015-06-16,-1,-0.0012865327547552997,-0.0010615593971844764,-0.004259371628380672,0.008046354968382265,0.9922263092946133
2015-06-18,-1,-0.0009545756346268283,-0.0007642160917429219,-0.005444469682169128,0.00744030145055056,0.9925274589934314
2015-06-22,-1,-0.0011852004900793907,-0.0009370187356418824,-0.005444469682169128,0.006901073740836686,0.9929076655243256
2015-06-24,-1,-0.0007218833912317966,-0.0005720522237128935,-0.005117946953705494,0.006901073740836686,0.992950405494188
2015-06-26,-1,-0.0002883827100050378,-0.00020952226410768314,-0.005117946953705494,0.004906660007246289,0.9936507459183548
2015-06-30,-1,-0.0009194380215910131,-0.0007725349115975217,-0.004014442442900275,0.00744030145055056,0.9935109883908825
2015-07-02,-1,-0.0009267920271314987,-0.0007519040779497435,-0.004014442442900275,0.008251118225480797,0.9932699313372968
2015-07-07,-1,-0.0004998542876744339,-0.0003974391171357344,-0.0038605964564703147,0.007215255196634886,0.9938244615096883
2015-07-09,-1,-0.000295455380094279,-0.00023905513410489107,-0.0038605964564703147,0.007215255196634886,0.9940313043274508
2015-07-13,1,7.92967395188337e-05,0.00010906081514049983,-0.00434765026572105,0.005227817303691787,0.9945648498481758
2015-07-15,1,0.00015117592660420805,0.00017970546299451995,-0.004637192075512786,0.005227817303691787,0.9942904846902831
2015-07-17,-1,-0.0002199801044187275,-0.00015895396492775226,-0.004431910734660621,0.006732410529156388,0.9945740271883523
2015-07-21,1,0.00045426079769837345,0.0005503003672794457,-0.004431910734660621,0.0074786748342138476,0.9939137694468162
2015-07-23,1,0.0004720829666787441,0.0005786130869136863,-0.004431910734660621,0.0074786748342138476,0.993478072116665
2015-07-27,1,0.00032025716276843735,0.0004245512033699761,-0.004722752162318226,0.0074786748342138476,0.9905541070136411
2015-07-29,1,0.0003563814122104006,0.00040361960229154625,-0.005481766913126497,0.006732410529156388,0.9885973609459194
2015-07-31,1,0.0006275825391132334,0.0006979316033374696,-0.007150783957078693,0.005227817303691787,0.987672351294698
2015-08-04,1,0.00044018623958605213,0.00048381161632896004,-0.012897983676352712,0.005227817303691787,0.986632783610817
2015-08-06,1,0.0005385059487415245,0.0006077882459101062,-0.012897983676352712,0.006336195365078176,0.9858144664619282
2015-08-10,1,0.0004909680128071215,0.0005513955730156832,-0.012897983676352712,0.011818673036310408,0.9846868705792193
2015-08-12,1,0.00025254169229491715,0.0002814323944688148,-0.013427912666961727,0.011818673036310408,0.9844960001463752
2015-08-14,1,0.0007394980634871472,0.0008638181546267871,-0.013427912666961727,0.015588695846066874,0.983708094730978
2015-08-18,1,0.0008449006728906703,0.0009594509666133219,-0.013427912666961727,0.014522897662772786,0.983554331274561
2015-08-20,1,0.0006453762769063735,0.0007359955432480389,-0.013071728607262354,0.014522897662772786,0.9835115905400849
2015-08-24,-1,-0.0012154970114564064,-0.0010594548310569668,-0.011342744932749718,0.014522897662772786,0.9865249873639802
2015-08-26,-1,-0.0005760048168811495,-0.000495298004251938,-0.00923373951584248,0.009714072759846617,0.9892725951894172
2015-08-28,-1,-0.00021253128050574994,-0.00018089721887887592,-0.009480195424275322,0.006008715082768858,0.9898988899023148
2015-09-01,-1,-0.0007408506842464944,-0.0006590333095479469,-0.007381234617501635,0.011223850502017083,0.9899699925380289
2015-09-03,-1,-0.00012454587446310506,-0.00011246362594279766,-0.007381234617501635,0.010361420943496208,0.990698560866008
2015-09-08,-1,-0.00021206615279255434,-0.000167030223648084,-0.005175311167709021,0.010361420943496208,0.9912481733644034
2015-09-10,-1,-0.0005068358490492018,-0.0004340466005696935,-0.002086110069975551,0.010977238700423482,0.991304303834386
2015-09-14,1,0.00013804489593411074,0.00016334350611656463,-0.0014182327752615788,0.010361420943496208,0.9924824460207711
2015-09-16,1,0.0006256535449113685,0.0007274977969712398,-0.0027383505727146384,0.009124957882165708,0.9931472591704483
2015-09-18,1,1.9481177861582377e-05,2.332866850419376e-05,-0.0010120847401082855,0.010361420943496208,0.9928414383389188
2015-09-22,1,6.4737432111897656e-06,1.540475869488333e-05,-0.0014182327752615788,0.010361420943496208,0.9931611904353237
2015-09-24,-1,-3.394365907867118e-05,-1.6600612474069078e-05,-0.0021711972243879203,0.010876142619897444,0.9886877070894691
2015-09-28,-1,-0.00023589488936836704,-0.00020010248507195517,-0.0021711972243879203,0.011291487665847338,0.9886706638567725
2015-09-30,1,0.0003417525572760081,0.00039463381974538033,-0.0032715777461109195,0.011291487665847338,0.9893125624965322
2015-10-02,1,0.0004995592270411646,0.000570373483394605,-0.00337443061536282,0.011291487665847338,0.9895759895753604
2015-10-06,1,0.0007742834136134188,0.0008784337044827363,-0.00337443061536282,0.008924839457638951,0.9903860820607019
2015-10-08,1,0.0009297799335432425,0.0010564719004424869,-0.00337443061536282,0.00554569127855027,0.9907588985194776
2015-10-12,1,0.0010412643330483997,0.0011998115683880509,-0.003425579622407273,0.005099563326692385,0.9907178631650416
2015-10-14,1,0.0008827072607622502,0.001010127905218909,-0.003302458455717008,0.0062156865526668175,0.9907458729247344
2015-10-16,1,0.001127627555634668,0.0012838404098034577,-0.003934547183109438,0.004021698459538596,0.9897849960676794
2015-10-20,1,0.0007808733511141487,0.0008652666343841435,-0.003425579622407273,0.004448240372555267,0.9898268521863377
2015-10-22,1,0.0017896093054997144,0.0020087336513914603,-0.003302458455717008,0.005883937145742066,0.9935469268897283
2015-10-26,1,0.0019066558958303163,0.0021384063961656504,-0.002946372259807348,0.005429047170072125,0.994189404371984
2015-10-28,1,0.0018500069307013462,0.0020618313890137818,-0.0019532236546165216,0.005033090642009703,0.9947639107653591
2015-10-30,1,0.0016632641703999591,0.001847258417104087,-0.0013069074387709572,0.005033090642009703,0.9949483498245183
2015-11-03,1,0.0015347235363748863,0.0016966053252730367,-0.001529459681543963,0.005033090642009703,0.9947295157982767
2015-11-05,1,0.0015139990477576215,0.0016659343834584022,-0.0019703537081248944,0.005429047170072125,0.9935364428930659
2015-11-09,1,0.0016010563001275227,0.0017750681518984906,-0.001529459681543963,0.005429047170072125,0.9938679156587802
2015-11-11,1,0.0016838200529444075,0.0018726337400612218,-0.001529459681543963,0.005334631251128019,0.993859160104433
2015-11-13,1,0.0010778632792086324,0.001182064836755017,-0.0011818393052537976,0.005334631251128019,0.9951424473680958
2015-11-17,1,0.001191285747039458,0.001314028878971641,-0.0008310965274575174,0.005478688587303524,0.9951491049254481
2015-11-19,1,0.0012495168447987188,0.0013562782534695642,-0.0019661929268021345,0.005016653827745843,0.9954394973861349
2015-11-23,1,0.0014034924551028242,0.0015378201690996942,-0.0019661929268021345,0.003234725182645043,0.9953747925584687
2015-11-25,1,0.0013760968509466678,0.0015074897365889347,-0.0021733506507119215,0.0054293781445119435,0.9950038999448574
2015-11-30,1,0.001265492188597412,0.0013764224080795515,-0.0021733506507119215,0.006267796947042008,0.994745428594288
2015-12-02,1,0.0012939451598507116,0.0014239420761482141,-0.0028893979542409464,0.006267796947042008,0.994268583762793
2015-12-04,1,0.0016193882879950068,0.0017951728551726892,-0.003348957424057403,0.006267796947042008,0.9947078014118506
2015-12-08,1,0.0014294088293035265,0.0015626450966894183,-0.005675507015872884,0.006267796947042008,0.9931472726042692
2015-12-10,1,0.001442692239334834,0.001571212252205267,-0.005675507015872884,0.008044066290919959,0.9927906166941455
2015-12-14,1,0.0012132909796851539,0.001305691849541362,-0.005675507015872884,0.008044066290919959,0.9920549781761636
2015-12-16,1,0.001218483274050962,0.001298712705300782,-0.006820754624434985,0.008915380751153303,0.9913419678228342
2015-12-18,1,0.0010913534457196597,0.001175551964796614,-0.007733856834273391,0.009500244693524429,0.9902664074415678
2015-12-22,1,0.001269365445806938,0.0013886140505500065,-0.007733856834273391,0.010637444188484928,0.9897114035464865
2015-12-24,1,0.0012345478190628851,0.0013397516657476516,-0.007733856834273391,0.010637444188484928,0.989537579007274
2015-12-29,1,0.0013626247446230665,0.001482701173224017,-0.007733856834273391,0.010981676234202235,0.9893864935452035
2015-12-31,1,0.0010705509201027294,0.001147610952096915,-0.005232931424307578,0.011703021621593025,0.9894492574694606
2016-01-05,1,0.0010303317682406861,0.0010885794812784976,-0.00812048259992005,0.010718445079182536,0.9889916417675639
2016-01-07,1,0.0006118030705252568,0.0006175536827160529,-0.008088173974733963,0.010718445079182536,0.9878818479466299
2016-01-11,1,0.0009518877321451142,0.0010015740160628772,-0.008088173974733963,0.010599062896157509,0.9879769548842385
2016-01-13,1,0.0004998364428392364,0.0005211537716310068,-0.006724032306450413,0.010599062896157509,0.9885479179113491
2016-01-15,-1,-0.0005075037061615383,-0.00028135025128640475,-0.005639489140311615,0.010388992318361984,0.988551590916124
2016-01-20,-1,-0.00019881296302814787,-4.3282938460828643e-05,-0.005639489140311615,0.010289785494948252,0.9895189507461017
2016-01-22,1,0.0002858063416958419,0.0003821692125073667,-0.005763681167347919,0.009907189344081826,0.9899522058719176
2016-01-26,1,0.00012748884110644066,0.0002835389229414899,-0.0065748449099316195,0.008649937085837155,0.9903880441715234
2016-01-28,1,0.0006710707916963829,0.0007403197552778581,-0.006724032306450413,0.008649937085837155,0.9900242799821767
2016-02-01,1,0.0010280588603346031,0.0010569689079136958,-0.006724032306450413,0.008649937085837155,0.9901441200376585
2016-02-03,1,3.8002858893490163e-05,0.00020129623513562907,-0.006724032306450413,0.008649937085837155,0.9905608601535382
2016-02-05,-1,-0.000979617215533588,-0.0007161534804292052,-0.005732531804695001,0.008649937085837155,0.9927178669195081
2016-02-09,-1,-0.0005810887999966039,-0.00037649630128025707,-0.005732531804695001,0.01028566146825049,0.9924047403240384
2016-02-11,-1,-0.0009846699303016637,-0.0007115436470073605,-0.004763762903389089,0.0103766202382687,0.9920536951063237
2016-02-16,-1,-0.0006515271657477543,-0.00041187107733517577,-0.004763762903389089,0.01043693659789446,0.9924001695609806
2016-02-18,-1,-0.0011749537383208958,-0.0008699395823625561,-0.0029641199732528575,0.01043693659789446,0.9928282631977001
2016-02-22,-1,-0.001436916117404425,-0.001077423092376259,-0.002360650162686532,0.01043693659789446,0.9930354509354351
2016-02-24,-1,-0.001336524083510453,-0.00101381676488596,-0.0007360169440090912,0.01043693659789446,0.9931596190165015
2016-02-26,-1,-0.0012506244840600307,-0.0009532039184617879,-0.0012740153827317294,0.008178038083298603,0.9939748888710527
2016-03-01,-1,-0.0007460294967187507,-0.0005255612039067478,-0.0012740153827317294,0.008178038083298603,0.9938447033989622
2016-03-03,-1,-0.0011341887403945405,-0.0008763442739194913,-0.00043533877995608833,0.010392235590089359,0.9939002461990286
2016-03-07,-1,-0.0011167954916804397,-0.0008597896661297253,-0.0010280270809328665,0.010392235590089359,0.9939296794763192
2016-03-09,-1,-0.0007830622898699165,-0.0005587741568910401,-0.0010280270809328665,0.006738820394512783,0.9948049905130137
2016-03-11,-1,-0.0002723405466198105,-0.0001254721723571623,-0.001425886367542717,0.005270281316166196,0.9955710336243061
2016-03-15,-1,-0.00017041106556134328,-2.13907096572224e-05,-0.0016610606101007059,0.004463039205900042,0.9960697087074668
2016-03-17,1,0.0009414886478638868,0.0009572400275422699,-0.001425886367542717,0.004868038952093585,0.9958906670268978
2016-03-21,1,0.001233754901293064,0.0013071749208342742,-0.0012452514964659234,0.004868038952093585,0.9959703273193455
2016-03-23,1,0.0013518898793269804,0.0014505770070670637,-0.0017184713082363011,0.004868038952093585,0.9947912778234193
2016-03-28,1,0.0008419788364445607,0.000859344116422986,-0.0016934073778369077,0.005288385870765894,0.9944395800890622
2016-03-30,1,0.0014278132977069888,0.0015139344665089827,-0.0016934073778369077,0.004680405720434757,0.9951762971235947
2016-04-01,1,0.0017387275164603155,0.001875105843425278,-0.0025447310628773498,0.004402506412524845,0.9948747251179472
2016-04-05,1,0.0017036856300407066,0.0018327531480896342,-0.0025447310628773498,0.004680405720434757,0.9945749901309475
2016-04-07,1,0.0019329411273472073,0.002102879861418975,-0.0025447310628773498,0.00468644057196799,0.9943448137763036
2016-04-11,1,0.0010010213415964006,0.00102455141771304,-0.0023305008762349384,0.005475370828576034,0.9942591971650938
2016-04-13,1,0.0008251977356875502,0.0008581642905454597,-0.0023305008762349384,0.006224912829857408,0.9933752644073779
2016-04-15,1,0.0013071059203625722,0.0013718667258743383,-0.0025447310628773498,0.007329447200149389,0.9928404672502079
2016-04-19,1,0.0016425764358050062,0.0017663099655870033,-0.004699853282320232,0.006526265490809195,0.9922511511813821
2016-04-21,1,0.0007587496893986742,0.0007595760880701948,-0.00794553643246392,0.006526265490809195,0.9923545575090132
2016-04-25,1,0.0010565631862911777,0.0010865822420145102,-0.010230121869815574,0.005985983728719044,0.9921095440840101
2016-04-27,1,0.0010848796758683027,0.0011063086200083032,-0.010230121869815574,0.006526265490809195,0.9915931400592223
2016-04-29,1,0.0008914978047125711,0.0009264376812661622,-0.00794553643246392,0.006526265490809195,0.9919588060764277
2016-05-03,1,0.0013468400549716479,0.0014433035210803411,-0.009719862762184926,0.005985983728719044,0.991994203339165
2016-05-05,1,0.001571047631941342,0.0017044434576428918,-0.009719862762184926,0.004696266202349666,0.9919517973425233
2016-05-09,1,0.0017225957169105246,0.0018539602921761648,-0.009719862762184926,0.004563987924038166,0.9920268710099198
2016-05-11,1,0.0014189356873554146,0.0015331105504644293,-0.007880865892641961,0.004563987924038166,0.993110983667688
2016-05-13,1,0.0010482327570510688,0.0010887974628417186,-0.006741617098536009,0.004512062728503468,0.9935508994830906
2016-05-17,1,0.0008125317415206416,0.000836942016024334,-0.005814793021772307,0.0026048239520622875,0.9942406993034522
2016-05-19,1,0.00020112577923347426,0.00024050336655981469,-0.004017599667026465,0.0026048239520622875,0.9951543488582382
2016-05-23,-1,-0.0003135082089592813,-0.00023555423753538244,-0.004017599667026465,0.004512062728503468,0.9956207983766864
2016-05-25,-1,-0.0005698063667105496,-0.0004328393177454543,-0.004017599667026465,0.0044477239893791565,0.995355004246174
2016-05-27,-1,-0.00042768664646802916,-0.00032227734228027237,-0.0064404399551465765,0.002572541737973239,0.9937676698709291
2016-06-01,-1,-0.0014712669633655487,-0.0011926641492384974,-0.004527269984212921,0.005200644141885024,0.9929010955794998
2016-06-03,-1,-0.0015075749389137534,-0.0012392133947438085,-0.003602117634691258,0.005409502786246627,0.992773504879939
2016-06-07,-1,-0.0016598991782103764,-0.0013509717822640039,-0.003602117634691258,0.005253727199642535,0.9928969685576218
2016-06-09,-1,-0.0015662282111587207,-0.0012585784875196323,-0.003602117634691258,0.00495570272897739,0.9929966160899983
2016-06-13,-1,-0.0015101004118046502,-0.0012119417732525852,-0.0025674002623743315,0.005090504806116576,0.9929051286208019
2016-06-15,-1,-0.0012639945422387427,-0.0010362624827827639,-0.0012156894515491213,0.006044333777688165,0.9923105918938226
2016-06-17,-1,-0.0009173417370138045,-0.0007597871293782327,-0.0014529419458529972,0.006044333777688165,0.9923868300543762
2016-06-21,-1,-0.00045129435803872305,-0.0003775792468953286,-0.0014529419458529972,0.006044333777688165,0.9920506446847966
2016-06-23,-1,-0.0004665403417889305,-0.0004260097736181119,0.0001048338922501347,0.008388773171952977,0.9921700617354872
2016-06-27,-1,-0.002653916133707404,-0.0023111623679723816,0.0001048338922501347,0.008388773171952977,0.9906009051615151
2016-06-29,-1,-0.002197328801168054,-0.0018378612719101286,-0.0014529419458529972,0.006044333777688165,0.9915764945307097
2016-07-01,-1,-0.0016879872460999448,-0.001410042374084969,-0.002806145290647977,0.004918912456820135,0.9914356280560244
2016-07-06,-1,-0.0017518827642654116,-0.0014595940491571608,-0.0028397749976679107,0.004918912456820135,0.9916281134592388
2016-07-08,-1,-0.0011963115942261711,-0.001000375797076416,-0.0028397749976679107,0.006900985637484961,0.991267482663325
2016-07-12,-1,-0.0012891556462598197,-0.0010564305510811379,-0.004284979068496213,0.006900985637484961,0.9913826407889443
2016-07-14,-1,-0.0008314571299332103,-0.0006569191164907963,-0.004284979068496213,0.0053208851778649546,0.9916248332890626
2016-07-18,-1,-0.0010143911646294254,-0.0008093898104342196,-0.006958171341167715,0.0053208851778649546,0.9913575282419185
2016-07-20,-1,-0.0005054426691061852,-0.00035793936289265174,-0.007271088803539046,0.004326807676174749,0.9920634386738351
2016-07-22,1,0.00024385102194583502,0.00028400641781061483,-0.007879793741885155,0.001644522660528185,0.9918525918949687
2016-07-26,-1,-0.0018243851439993751,-0.001511528921915491,-0.007271088803539046,0.0031861646970660577,0.9943529059551486
2016-07-28,-1,-0.002387488572180954,-0.0020140304197902486,-0.0054508047958336265,0.0037090816914679236,0.9948078722800431
2016-08-01,-1,-0.0023120016674145396,-0.0019812693695446817,-0.0054508047958336265,0.00432504488959661,0.9948382355826365
2016-08-03,-1,-0.0021205028324564044,-0.0018367344714437903,-0.0054508047958336265,0.00432504488959661,0.9945919200970227
2016-08-05,-1,-0.0013529695016447048,-0.0011828066799132024,-0.0054508047958336265,0.003605197738320865,0.9952234871396792
2016-08-09,-1,-0.0015848439018794395,-0.0013855088002188462,-0.0033342959240834835,0.0038300563924025103,0.9948612106670006
2016-08-11,-1,-0.0011844806530845271,-0.0010407474948902179,-0.006591556705659686,0.0028416541286069436,0.994541551036504
2016-08-15,-1,-0.0013304068360250937,-0.001175280708313892,-0.006591556705659686,0.003605197738320865,0.9939217794069479
2016-08-17,-1,-0.001828519439603864,-0.0016040456639757072,-0.0037145465606921698,0.004160432848335676,0.9936523272608138
2016-08-19,-1,-0.0019084082946523892,-0.0017087868099592224,-0.0037145465606921698,0.004160432848335676,0.9942013188876129
2016-08-23,-1,-0.001575075946881097,-0.001430524755756899,-0.0037145465606921698,0.005739984195406612,0.9935917835481546
2016-08-25,-1,-0.0013655650508697236,-0.0012526182531058068,-0.0037145465606921698,0.0051751703550480255,0.9937306140143957
2016-08-29,-1,-0.0011518292747112568,-0.0010751855835033754,-0.0034764218855547883,0.003972161568216148,0.9941753121509522
2016-08-31,-1,-0.0010710987883415816,-0.0010000516861926362,-0.005700268565637816,0.003972161568216148,0.9936154063696168
2016-09-02,-1,-0.001030544265467594,-0.0009592584553524286,-0.006284667172296853,0.004332873921505244,0.9933572892392718
2016-09-07,-1,-0.0005332367912460562,-0.0005328280740072274,-0.006662197318849574,0.003972161568216148,0.9935797648723029
2016-09-09,-1,-0.0009012991229487791,-0.0008731871359087039,-0.005656943426053446,0.0042157046014526835,0.994106286162279
2016-09-13,-1,-0.001224017785912252,-0.0011271494170395529,-0.005656943426053446,0.0042157046014526835,0.9942314553199301
2016-09-15,-1,-0.0005009067792935155,-0.0004914073383589004,-0.005656943426053446,0.0046140786787314935,0.9940697063465558
2016-09-19,-1,-0.0005456763829351782,-0.00052731099313834,-0.006925795094662374,0.0046140786787314935,0.9931822510270555
2016-09-21,-1,-0.0002716969518259466,-0.00023775847276030028,-0.009220407658477795,0.003882289667901514,0.9934078497761849
2016-09-23,1,7.43194085011616e-05,0.00018052536245928357,-0.009220407658477795,0.0046140786787314935,0.9918204336987851
2016-09-27,1,0.0001768883942929763,0.00030541992820476367,-0.009220407658477795,0.0046140786787314935,0.9916618804660632
2016-09-29,0,-2.6404445421604385e-05,9.759834630503609e-05,-0.007858056662968143,0.0046140786787314935,0.9923427939974072
2016-10-03,-1,-0.00013743690895762407,-4.439226577643659e-05,-0.007858056662968143,0.0042687493764717276,0.9926957278773735
2016-10-05,-1,-0.000345387635232694,-0.0002794615278441634,-0.006522373034228671,0.0042687493764717276,0.993019671928009
2016-10-07,-1,-0.00035084853064114844,-0.000298243569817496,-0.006522373034228671,0.0019835819609205886,0.9928756223268138
2016-10-11,-1,-0.00046739401661899274,-0.0004572589380365602,-0.0061154137771055345,0.004670118286526559,0.9924583294746141
2016-10-13,-1,-0.00029973326118675836,-0.00029559074245791815,-0.0061154137771055345,0.0019835819609205886,0.9926545148526736
2016-10-17,-1,-0.0008862202715423324,-0.0008283777862088875,-0.005549075663875566,0.005050583604430951,0.9922473436411865
2016-10-19,-1,-0.001105968991803186,-0.0010260155783641542,-0.004418669642491255,0.0075475384435414825,0.9921034597411921
2016-10-21,-1,-0.0005169183766719085,-0.0004936921137861577,-0.003391799730819789,0.005333839293704851,0.9935566086389831
2016-10-25,-1,-0.0008445837198800769,-0.0007783365094692143,-0.003153924203327951,0.005333839293704851,0.993677050383331
2016-10-27,-1,-0.0008595900327929037,-0.000799651890145319,-0.0026100716347830484,0.005333839293704851,0.9934393057044767
2016-10-31,-1,-0.000544730890906138,-0.0005331751837064018,-0.003153924203327951,0.0075475384435414825,0.9928663951698529
2016-11-02,-1,-0.0004898904956416538,-0.0004891870783896167,-0.004615342051303147,0.0075475384435414825,0.9922196797188527
2016-11-04,-1,-0.0008468885470607989,-0.0007989546553632189,-0.0029213228729183752,0.007938252088560348,0.9921556407548379
2016-11-08,-1,-6.334401676369832e-05,-1.1930028241765618e-05,-0.0029213228729183752,0.006094317253891136,0.9934546451137263
2016-11-10,1,0.00010936305751706524,0.00018911315277265575,-0.0020892205278254037,0.005895031289256988,0.9935463336666526
2016-11-14,1,0.0007373581931063564,0.0008870775442397286,-0.0007368557457748999,0.005895031289256988,0.9949739663535192
2016-11-16,1,0.0004930060916242713,0.0005465941406688995,-0.0024329578922312623,0.004857955322374106,0.9950741506699955
2016-11-18,1,0.0010237601218893396,0.0011905519505131042,-0.002498293471631327,0.005895031289256988,0.9950681724336181
2016-11-22,1,0.0010658822743914668,0.0012504729600504136,-0.001963226610907274,0.005895031289256988,0.9951751137312465
2016-11-25,1,0.0013109317786001904,0.001531211034550394,-0.002498293471631327,0.005895031289256988,0.9950486184558013
2016-11-29,1,0.0013873004908152126,0.0016263270921897022,-0.002313652467902187,0.004719310543305685,0.9956625256592051
2016-12-01,1,0.0010272145300772298,0.0012315607948032207,-0.001963226610907274,0.004719310543305685,0.9961901615758998
2016-12-05,1,0.0014727154856296418,0.0017618400436681524,-0.002313652467902187,0.004392777714765192,0.9956599371629365
2016-12-07,1,0.0016215510350533102,0.0019293825815603234,-0.002313652467902187,0.004392777714765192,0.9955836798348826
2016-12-09,1,0.0021815508890465868,0.0025927841566134396,-0.002841761869497251,0.003062963803118924,0.9953597925029678
2016-12-13,1,0.002739673393014214,0.0032524398645937154,-0.002841761869497251,0.003169322515912512,0.9949352330439024
2016-12-15,1,0.0021740489127558575,0.0025376725641409765,-0.002841761869497251,0.004597642573498191,0.9947933350056362
2016-12-19,1,0.0020118339421482377,0.002319787422698199,-0.003456471595495377,0.003169322515912512,0.9948242093015608
2016-12-21,1,0.0018233809689678169,0.002083826026850547,-0.004411342341617364,0.0024769029889965956,0.9945551575457386
2016-12-23,1,0.0016889083386736228,0.0019223519972721866,-0.003456471595495377,0.0026907095973259017,0.9946296737970346
2016-12-28,1,0.0017603990506161865,0.0020268199638129253,-0.003129310164305896,0.005457586441808956,0.9946225397933686
2016-12-30,1,0.0013776737832052093,0.0015789169711069107,-0.002964010317048646,0.005457586441808956,0.9950001071223569
2017-01-04,1,0.0009784374274853392,0.0011419592516442123,-0.0027221921477908386,0.00621859516581149,0.9957226359846497
2017-01-06,1,0.0011691368880313638,0.001345238942774977,-0.0027221921477908386,0.00621859516581149,0.9957457264747788
2017-01-10,1,0.0008442855254583441,0.0009557720880249848,-0.0015975239153723153,0.00621859516581149,0.9960232916796038
2017-01-12,1,0.0009579200643295934,0.0010525674962351692,-0.00182265808384287,0.00621859516581149,0.996065222393064
2017-01-17,1,0.0010838813295474517,0.001195701981950997,-0.0016993342904501369,0.003141301279259964,0.9965948557058195
2017-01-19,1,0.0009334749340116218,0.0010265764293610345,-0.00129884766197965,0.005522442401121162,0.9966787716171359
2017-01-23,1,0.0006830059465511729,0.0007411529208841684,0.00017563988287421292,0.00621859516581149,0.9965688085561661
2017-01-25,1,0.000764700059495222,0.0008355100197210287,0.00017563988287421292,0.005627878995155154,0.9968076616655495
2017-01-27,1,0.0009731892742921671,0.0010722982094907914,-0.0012888199136263743,0.003795243091321083,0.9964621521933505
2017-01-31,1,0.001013132115422793,0.001131457824586967,0.00017563988287421292,0.005627878995155154,0.9960321071267656
2017-02-02,1,0.0008047187850617166,0.0008595902644849172,-0.0014938985853903772,0.005229350666687298,0.9957705147288458
2017-02-06,1,0.0010347614858620424,0.0011199793063458043,-0.0014938985853903772,0.0037631809765827215,0.9962080474542085
2017-02-08,1,0.0011965284088529381,0.0013211107011632044,-0.0014938985853903772,0.0037631809765827215,0.9961732078934069
2017-02-10,1,0.001279615417378185,0.0013982954191215566,-0.0016692510453903096,0.003043101267642536,0.9964410436740289
2017-02-14,1,0.0014269078555485255,0.0015878023416276469,-0.0013074202229762886,0.003043101267642536,0.9966162478295407
2017-02-16,1,0.0016047761508265603,0.001789715960262753,-0.0013074202229762886,0.003043101267642536,0.996550772006543
2017-02-21,1,0.001806235905506999,0.0020100046715571095,-0.0016176292290754274,0.0018573029850118925,0.9965790108378774
2017-02-23,1,0.0014905242924965441,0.0016176948684909875,-0.0014411786150146143,0.0018573029850118925,0.996699041388809
2017-02-27,1,0.0010953064883976807,0.001163920681505258,-0.0008931312723804626,0.0017756056205459688,0.9975694811232602
2017-03-01,1,0.0012784462338906594,0.001349000036627479,-0.0014411786150146143,0.001106179001598697,0.9977831965538998
2017-03-03,1,0.0009246751541758548,0.0009445946862248092,-0.00042538774864366946,0.001677309784730942,0.9982841318331157
2017-03-07,1,0.0008938949221463397,0.000909159275458445,-0.0008931312723804626,0.001677309784730942,0.9981070093556297
2017-03-09,1,0.0010289552514708782,0.0010854749072604628,-0.0014348992553847037,0.0023407430188388343,0.9976451478202056
2017-03-13,1,0.00034187632797892437,0.00041545996457465287,-0.0009459193348336633,0.0023407430188388343,0.9977978206394147
2017-03-15,1,7.571272401170895e-05,0.00019839122916072974,-0.0009459193348336633,0.0029081320067352373,0.9974110617962866
2017-03-17,1,0.000657830117899195,0.000695774076338579,-0.0015932634427443058,0.0029081320067352373,0.9972167981231937
2017-03-21,1,0.0002451828528701085,0.00035223634304438366,-0.0009459193348336633,0.003922270356611774,0.9969713001002062
2017-03-23,1,9.995522341400836e-05,0.00023976764425045203,-0.0005966665041776107,0.003922270356611774,0.9969626089902791
2017-03-27,1,0.00017284654284512241,0.00030868023437450145,-0.0005966665041776107,0.0050989029842597455,0.9941024995802945
2017-03-29,-1,-0.0001857616185117094,-2.7851797159003807e-05,-0.00036493890035887175,0.0050989029842597455,0.993918441303332
2017-03-31,-1,-0.0003695906302592989,-0.00016769710981298842,-0.0015932634427443058,0.006417944885659679,0.9934264282404389
2017-04-04,0,-8.277251151496678e-05,5.4467727601281246e-05,-0.0002495821792183935,0.007590115087523613,0.9930991854691746
2017-04-06,1,6.84375564211924e-05,0.00018175529240168893,0.0001982014952628312,0.006417944885659679,0.9932276204534249
2017-04-10,1,0.00044637374983000594,0.0004741061277132142,0.0005394140690099961,0.006417944885659679,0.993361201821683
2017-04-12,1,0.0008293613347195091,0.0008644160191357249,0.000478339201755476,0.005901356790542205,0.9938101265912997
2017-04-17,1,0.0008654699765545692,0.0009135025078827531,0.0007656311371699938,0.006554966257466854,0.9936196114445929
2017-04-19,1,0.0010190760872624124,0.0010791671532125327,0.000478339201755476,0.006472958248054238,0.9934346850771326
2017-04-21,1,0.0012188837934688868,0.001315189451606894,0.000478339201755476,0.0071170394815749044,0.9932045595063251
2017-04-25,1,0.002930610074795498,0.0032475278105990515,-0.0003765044633384356,0.006472958248054238,0.9959021048244968
2017-04-27,1,0.0023309769890875916,0.0025303116051888105,0.0004926030285453262,0.0071170394815749044,0.9959684483822925
2017-05-01,1,0.002394787258596063,0.002606503928073598,0.0005173591205272246,0.006472958248054238,0.9965391199480294
2017-05-03,1,0.002623523639741153,0.002868907102891819,0.0005173591205272246,0.006528407137890191,0.9964551724744299
2017-05-05,1,0.002933306917513546,0.0032327245846313704,0.00041780083891698885,0.0071170394815749044,0.9958948827987337
2017-05-09,1,0.0030489661304851376,0.003378479922165476,-0.0003337129829688847,0.0071170394815749044,0.9953413907881286
2017-05-11,1,0.0028320113176952873,0.0031220017904112552,-0.0004216496809227731,0.0071170394815749044,0.995222231612812
2017-05-15,1,0.0032445237036578417,0.0035906485649844005,-0.0027117343349901185,0.0071170394815749044,0.9941862651582393
2017-05-17,1,0.003131919493829113,0.0034594679324095076,-0.0004216496809227731,0.006740917529607851,0.9947025357512105
2017-05-19,1,0.003363303405072105,0.0037130226448602527,-0.0004216496809227731,0.006693836571659415,0.9946336780098398
2017-05-23,1,0.0030712775038785867,0.0033678614508770768,-0.00030406177156546587,0.006693836571659415,0.9946536984830798
2017-05-25,1,0.0031687063930874097,0.00345561465788006,-0.0013269275973996643,0.006542350572764025,0.9947275310625452
2017-05-30,1,0.0025863459968433113,0.002759473326687999,-0.0024943113008293683,0.006542350572764025,0.9942660849594005
2017-06-01,1,0.002980109337264775,0.003218741216201695,-0.0036168048932306326,0.005823324241457895,0.9942833975539135
2017-06-05,1,0.002791840067851962,0.0029882737652289,-0.003594799990540039,0.005503334786597548,0.994514779243893
2017-06-07,1,0.0026319667000219006,0.0028284766193627155,-0.0024943113008293683,0.005503334786597548,0.9950896687929699
2017-06-09,1,0.0024080199533058734,0.0025781184019935052,-0.0027324589455088835,0.005823324241457895,0.9942318049185338
2017-06-13,1,0.0018547591007733043,0.0019359426729762838,-0.002635730444292165,0.005823324241457895,0.9948908099501957
2017-06-15,1,0.0018555478879646431,0.0019145658075497064,-0.00401905742092843,0.00558653548299751,0.9945398700548481
2017-06-19,1,0.0020853316712406214,0.0021724404555196687,-0.004331247827269178,0.0037465911639447463,0.9943011476150956
2017-06-21,1,0.002129343221956656,0.0022294175129292607,-0.004331247827269178,0.0024940294646778774,0.9945563626609021
2017-06-23,1,0.0020438467324373133,0.002121256473267642,-0.004497793288359903,0.0016808810780709115,0.9940224847575321
2017-06-27,1,0.0012837177721055633,0.0013125893771674829,-0.005495193965820156,0.0024940294646778774,0.9916575903640027
2017-06-29,1,0.0011910555781841927,0.0012129507451985495,-0.0053516749778848485,0.0022624256427470025,0.991758196882035
2017-07-03,1,0.0009761945540338471,0.000985122273489055,-0.007029009791536426,0.0022624256427470025,0.9914470431197113
2017-07-06,1,0.0010687263166125876,0.001074051854410822,-0.007411050350801316,0.0022624256427470025,0.9901969173533649
2017-07-10,1,0.0012953462371775837,0.0013227544870653743,-0.007411050350801316,0.0022624256427470025,0.9907396188734542
2017-07-12,1,0.0013815092968438238,0.0014252005594810498,-0.007411050350801316,0.0016808810780709115,0.9912862274810588
2017-07-14,1,0.0012111133905908925,0.0012382075810997975,-0.007029009791536426,0.0031939456451054423,0.9912773953930043
2017-07-18,1,0.0008815466568494309,0.0008987820695134984,-0.006114825948124599,0.0031939456451054423,0.9917522427176376
2017-07-20,1,0.0006202372078049527,0.0006865869429591347,-0.0065192592233837545,0.005125384937497212,0.9912361621281358
2017-07-24,1,0.00030737664615817443,0.00039352948559118704,-0.005951731266156118,0.005125384937497212,0.9918674829197079
2017-07-26,1,0.0008242274813263541,0.000866007481987676,-0.005353637307889321,0.005125384937497212,0.9942790582678785
2017-07-28,1,0.0005616277851307717,0.0006372967009648919,-0.0047165814688855745,0.005125384937497212,0.9945538344846573
2017-08-01,1,0.00010145430588927247,0.0002346880577045866,-0.001991826655658856,0.005882992401717639,0.9948650567395517
2017-08-03,0,-7.991161680466648e-06,0.00014839578963017457,-0.0010715927169539967,0.004594305427908912,0.9961119579004962
2017-08-07,0,-9.298344757329791e-05,7.539939757880243e-05,-0.001204208809960576,0.003937905594486625,0.9964999374630035
2017-08-09,0,-0.00017139297862969283,3.2752979688305565e-06,-0.001991826655658856,0.004594305427908912,0.995710543036582
2017-08-11,1,4.85906400285203e-05,0.00020365691802768895,-0.001991826655658856,0.004190441415893435,0.9958449783518478
2017-08-15,0,-1.0195592916365805e-05,0.00015435733545923834,-0.0029997016110924033,0.004552323651442378,0.994170102813086
2017-08-17,0,-7.8778437872273e-05,9.433846586607658e-05,-0.001991826655658856,0.00392391166899778,0.9948636220108652
2017-08-21,-1,-0.000251165051679528,-4.6281756202146704e-05,-0.001991826655658856,0.00441105214761442,0.9947982300950853
2017-08-23,-1,-0.0002629544347286523,-5.719224834005465e-05,-0.001991826655658856,0.00441105214761442,0.9944229198013513
2017-08-25,-1,-0.0004793323551271875,-0.00023884559874346129,-0.0024728335835856406,0.00441105214761442,0.9938662277159266
2017-08-29,-1,-0.00047189922084983247,-0.0002292980358908069,-0.004661173140844379,0.004355520714327002,0.993075936042694
2017-08-31,-1,-0.0005743172589180266,-0.00031308283296468096,-0.005186580019827985,0.0046202325769552546,0.991963311708578
2017-09-05,-1,-0.0007480790701065038,-0.00047308701162169565,-0.005186580019827985,0.0046202325769552546,0.9920871998343924
