JNU-Tangyin/eata/results/Batch4_SP500/Batch4_SP500-KIM.csv
Date,Action,Predicted_Q25,Predicted_Q75,Actual_Q25,Actual_Q75,RL_Reward
2010-12-14,0,-0.00033295227691499795,0.0,-0.004776477172291961,0.015069250026847933,0.989055099622103
2010-12-16,-1,-0.00022715672408904036,-0.00012267280669201445,-0.002520817046243726,0.015069250026847933,0.9892464591400316
2010-12-20,1,0.00035596333727562127,0.0003879767134779897,-0.004776477172291961,0.011565152872218305,0.9898418708938338
2010-12-22,1,0.0010630698441220123,0.0011369560955783653,-0.004776477172291961,0.010192589470914764,0.9903024949842467
2010-12-27,1,0.0019574306221497154,0.0020599656643832615,-0.003879106374356188,0.008844849299329997,0.9910725172234629
2010-12-29,1,0.00236984479470204,0.002493431693224041,-0.003879106374356188,0.006592924337759185,0.991399666763322
2010-12-31,1,0.0017589754900847025,0.001768889632264643,-0.009622418226229393,0.008442879784163802,0.9905918562880008
2011-01-04,1,0.00042713225945310125,0.0006629975721115647,-0.003879106374356188,0.008668221872398303,0.9919413365408797
2011-01-06,1,0.0005465312271372573,0.0007600153900146521,-0.003443149718692841,0.00798032601329112,0.9925133386531427
2011-01-10,1,0.0005674344552802455,0.0007083998072459933,-0.0022216934469318017,0.008668221872398303,0.9922302003880188
2011-01-12,-1,-0.0007826993866243428,-0.0003572019536883151,-0.0022216934469318017,0.008295576622158489,0.9928676005156348
2011-01-14,-1,-0.001060110291941998,-0.0005639863518280505,-0.003027096965934487,0.00798032601329112,0.9932206685047591
2011-01-19,-1,-0.0011958582313392199,-0.0007507535036671553,-0.003027096965934487,0.008295576622158489,0.9925048233432963
2011-01-21,-1,-0.001428558055466501,-0.0009366002347878921,-0.003727015930472505,0.008295576622158489,0.9920796203913295
2011-01-25,-1,-0.0003287793808370141,-3.322038200437099e-05,-0.0057751300457624735,0.008295576622158489,0.9920581608698041
2011-01-27,1,0.0009481523053574348,0.001018827460998199,-0.007558572471772716,0.009049744084905399,0.9904962902237711
2011-01-31,0,0.0,0.0,-0.007558572471772716,0.009049744084905399,0.9883479895298077
2011-02-02,1,0.0006330154164279225,0.0007247931236946173,-0.009166897657224603,0.009038183204633649,0.9877927724430365
2011-02-04,1,0.0007912428567905366,0.0008374554605166908,-0.009195552554695714,0.009038183204633649,0.9876586496645569
2011-02-08,1,0.0012039485222450894,0.0012043068902972765,-0.009195552554695714,0.009038183204633649,0.9878706003499257
2011-02-10,1,0.001837099975380644,0.0020190458574079304,-0.009195552554695714,0.009321858307960739,0.986812340443423
2011-02-14,1,0.0014745506006408453,0.0015894708834376613,-0.00933934217324264,0.009321858307960739,0.985924895603096
2011-02-16,1,0.0016644925105240654,0.001798512752384971,-0.011644142957681243,0.009321858307960739,0.9853148436011845
2011-02-18,0,0.0,0.0,-0.011644142957681243,0.010459707000750048,0.9850823024879792
2011-02-23,0,0.0,0.0,-0.016651200849155015,0.010459707000750048,0.984885265843257
2011-02-25,0,0.0,0.0,-0.016651200849155015,0.009321858307960739,0.9861541998284187
2011-03-01,0,0.0,0.0,-0.011008361470400563,0.009321858307960739,0.9890548290130274
2011-03-03,0,0.0,0.0,-0.006973146184234343,0.009634151510394167,0.9892711399465248
2011-03-07,0,0.0,0.0,-0.008722244547742963,0.009634151510394167,0.9886030318204
2011-03-09,0,0.0,0.0,-0.008722244547742963,0.009046673144508778,0.989135959571586
2011-03-11,0,0.0,0.0,-0.010002802173258944,0.007894622846159565,0.9898026813483013
2011-03-15,1,0.20090997579542508,0.3711946360263023,-0.007099119094947389,0.007894622846159565,0.7773742690134352
2011-03-17,-1,-0.0005577261961605173,-0.0004765367435762399,-0.002974131230528269,0.007894622846159565,0.9917112310107273
2011-03-21,-1,-0.00022311999394205825,-0.00015801653991949334,-0.002974131230528269,0.007894622846159565,0.991865440057613
2011-03-23,-1,-0.0005699629007707627,-0.0004746408533122511,-0.0012586843960550218,0.011365906748942157,0.9912027559229745
2011-03-25,-1,-0.0002636493935664406,-0.00020121160231029324,-0.0012586843960550218,0.011365906748942157,0.9914120968819136
2011-03-29,-1,-0.00034549589287943334,-0.00024384435529623076,-0.0002787131712413086,0.010341187320375256,0.9913274596779876
2011-03-31,1,0.0015845996658068577,0.0018256081666602718,-0.0002787131712413086,0.009327309624924944,0.991804606368084
2011-04-04,1,0.0002300674739515151,0.00023413697583060292,-0.0002787131712413086,0.009327309624924944,0.9915164136307745
2011-04-06,0,-2.702511438655968e-05,3.5374565299502566e-05,-0.0007731890093064324,0.009327309624924944,0.991541747386242
2011-04-08,-1,-0.0020289165128604307,-0.001651214828617142,0.0,0.011189910976980574,0.990590533715897
2011-04-12,-1,-0.0030662590758549152,-0.002502210633742686,0.0,0.01369516776522323,0.9885981375855677
2011-04-14,-1,-0.0019507677371350593,-0.0015687899087296422,-0.003618948299480395,0.011189910976980574,0.9895959776272614
2011-04-18,-1,-0.0014917620452420013,-0.0011513715633922061,-0.0036504575981951386,0.008944368090215987,0.9902373576894395
2011-04-20,0,-0.00015018780042503705,7.749629255619003e-06,-0.0036504575981951386,0.008110666114480285,0.9910775711829873
2011-04-25,1,0.0001116331457182873,0.00024466881686606136,-0.008017139187691834,0.008110666114480285,0.990083315222775
2011-04-27,0,0.0,0.0,-0.008017139187691834,0.006713374927881002,0.9904416748405377
2011-04-29,0,0.0,0.0,-0.008017139187691834,0.006713374927881002,0.9912106183452766
2011-05-03,0,0.0,0.0,-0.008017139187691834,0.008702136139302902,0.9891536152687641
2011-05-05,0,0.0,0.0,-0.009351038252964718,0.009761021301956621,0.9880647448207678
2011-05-09,0,0.0,0.0,-0.009351038252964718,0.010283743114931484,0.9870962347208404
2011-05-11,0,0.0,0.0,-0.012379571956109156,0.008702136139302902,0.9872292764004066
2011-05-13,0,0.0,0.0,-0.014944038118436932,0.008702136139302902,0.9865637910451396
2011-05-17,0,0.0,0.0,-0.015457860819027447,0.01004774310951987,0.9859171655708999
2011-05-19,0,0.0,0.0,-0.015457860819027447,0.012040867184568108,0.9851542180908196
2011-05-23,0,0.0,0.0,-0.012712143389623242,0.013335951615137705,0.9854421105614027
2011-05-25,0,0.0,0.0,-0.01274818021194501,0.013335951615137705,0.9847434336334471
2011-05-27,-1,-0.002210096666143609,-0.0020979592464523827,-0.01274818021194501,0.013335951615137705,0.9846403215227938
2011-06-01,-1,-0.003422313278347753,-0.003363782677205936,-0.012552881430200327,0.012262824971624836,0.986001038675443
2011-06-03,-1,-0.003357149587240096,-0.003310545761625386,-0.012552881430200327,0.011708590313967787,0.986763494125914
2011-06-07,-1,-0.004449623226947636,-0.004262377192534094,-0.0048763233210051765,0.011708590313967787,0.987244423040471
2011-06-09,0,0.0,0.0,0.0013949708810723023,0.012151325077153689,0.9896979243394772
2011-06-13,0,0.0,0.0,0.004175560845474562,0.012151325077153689,0.9896661909764064
2011-06-15,-1,-0.002740667757591338,-0.002355599444166956,0.0013949708810723023,0.012151325077153689,0.9889581661173378
2011-06-17,-1,-0.0011638211991949535,-0.0009903876219204155,-0.0023663877917647603,0.010449463875450541,0.990383707166365
2011-06-21,-1,-0.0006393549656556567,-0.0005311036874655348,-0.0023663877917647603,0.010449463875450541,0.9901370634825901
2011-06-23,-1,-0.0006329886612867754,-0.0005328101279774447,0.0013949708810723023,0.012151325077153689,0.989806652955994
2011-06-27,-1,-5.2523472445755056e-05,-5.1427687193172315e-05,-0.0034338110946541146,0.012151325077153689,0.9898853744083796
2011-06-29,1,0.0005053856141909961,0.000566560522311115,-0.007496320096063285,0.011043101017724318,0.9888316056561012
2011-07-01,1,0.0007891150796664706,0.0009035693350340413,-0.008279464447340262,0.011043101017724318,0.9881457908743982
2011-07-06,1,0.001229392933767706,0.0014097860699192556,-0.011101084777136555,0.010054503333479294,0.9865419339663954
2011-07-08,1,0.0017555079487469717,0.0019859239548999583,-0.016704789295268398,0.006283684852775135,0.9822641229481648
2011-07-12,1,0.00179085535542251,0.002055736108992047,-0.019752264281544397,0.006416489082210489,0.9744933244155615
2011-07-14,1,0.001385196142770855,0.0015936034984184964,-0.026871722272170703,0.01124534370050864,0.9705651754588703
2011-07-18,1,0.0013155219870048314,0.001487935026591431,-0.026871722272170703,0.01124534370050864,0.9685973186292146
2011-07-20,1,0.0025389271130135897,0.002906996252755197,-0.026871722272170703,0.001312703834066096,0.9681138555351756
2011-07-22,1,0.002847086800133944,0.0032176574328499543,-0.031685153610031803,-0.002981000849785231,0.9655673769852529
2011-07-26,1,0.0021725195000339495,0.002437937886038133,-0.031685153610031803,-0.0003746075306903297,0.9664448389365189
2011-07-28,1,0.0006144895156289518,0.0006512012765782542,-0.026871722272170703,0.005852766033625119,0.9683624320178905
2011-08-01,0,0.0,0.0,-0.026871722272170703,0.012870265516561846,0.9676634892754526
2011-08-03,0,0.0,0.0,-0.024222215256038997,0.01671604767168704,0.9686400288694166
2011-08-05,0,0.0,0.0,-0.02287472567435203,0.01671604767168704,0.9704919229480332
2011-08-09,0,0.0,0.0,-0.020081475637338423,0.01671604767168704,0.9762047315979274
2011-08-11,0,0.0,0.0,-0.020081475637338423,0.012870265516561846,0.9784582963671351
2011-08-15,0,0.0,0.0,-0.020081475637338423,0.006317741300953795,0.9811681174460825
2011-08-17,0,0.0,0.0,-0.01575628875647333,0.012870265516561846,0.9811301483905107
2011-08-19,0,0.0,0.0,-0.01575628875647333,0.012870265516561846,0.9826529381126488
2011-08-23,0,0.0,0.0,-0.019452412338392032,0.01170494133902025,0.9799429330228185
2011-08-25,0,0.0,0.0,-0.02071176539340217,0.013084074508110251,0.9778651068447249
2011-08-29,0,0.0,0.0,-0.02071176539340217,0.014627423246493867,0.9778652961536174
2011-08-31,-1,-0.0011363011318852767,-0.0009671891355510667,-0.024060465170997407,0.014320044442227241,0.9768320405911114
2011-09-02,-1,-0.004291963407216081,-0.0037449606472434805,-0.03074321933268022,0.014320044442227241,0.9748271447301919
2011-09-07,-1,-0.0028474293658925912,-0.0025086334624636612,-0.03074321933268022,0.014320044442227241,0.9752854611875805
2011-09-09,-1,-0.005016024629055284,-0.004447593839649231,-0.029141059416798034,0.019175300991142986,0.9745334638241628
2011-09-13,-1,-0.0037927208167600666,-0.0034222913166699212,-0.029141059416798034,0.02164337390565821,0.9724342319566994
2011-09-15,-1,-0.0025561672938004165,-0.002350359643503857,-0.029141059416798034,0.026285404505661084,0.9724093806524965
2011-09-19,-1,-0.002570243304397333,-0.0023901045664628676,-0.0328314131432775,0.026861654088364238,0.9706735926496012
2011-09-21,-1,-0.004805600697763152,-0.0044328370214777755,-0.029141059416798034,0.0285913444774775,0.970826021631572
2011-09-23,-1,-0.004971939260733031,-0.004577924073318323,-0.027999846767914137,0.029439124678275152,0.9697076299437134
2011-09-27,-1,-0.00342852202756854,-0.0032246518584113683,-0.027999846767914137,0.029439124678275152,0.9705793143376864
2011-09-29,-1,-0.003296151331986585,-0.0030987415241460533,-0.025821683118607032,0.03089480752720176,0.9698253108316088
2011-10-03,-1,-0.006133341463490583,-0.00558293868153872,-0.014620459602484504,0.03089480752720176,0.9717268191571601
2011-10-05,-1,-0.004375943126159295,-0.00400330209923035,-0.024303045312880835,0.03089480752720176,0.9707640064006411
2011-10-07,-1,-0.003983570749306637,-0.003674616542998997,-0.011166177373967457,0.03089480752720176,0.9731347095972083
2011-10-11,-1,-0.0035905270232025922,-0.0033656978066651825,-0.006050466100334407,0.029439124678275152,0.975714328828941
2011-10-13,-1,-0.0033194883134182295,-0.003068183381953164,-0.017487526124833813,0.02885478283017858,0.9743575447126865
2011-10-17,-1,-0.004079700469718979,-0.003753776540697245,-0.015929772899376544,0.028120655600195367,0.9759915562841485
2011-10-19,-1,-0.0029401955869221004,-0.0027761299741440593,-0.013132557644376434,0.01715455622118948,0.9783173798856198
2011-10-21,-1,-0.0010276990658189635,-0.0009892160900000233,-0.015929772899376544,0.009976264131183977,0.9809341943342853
2011-10-25,-1,-0.0002610724658165105,-0.00011109898327080013,-0.018054571519830743,0.008075600244464054,0.9809764982413304
2011-10-27,1,0.001086950832652841,0.0013655011173827254,-0.020138765729436056,0.007207850382597725,0.9810521719990576
2011-10-31,1,0.0015007061037898596,0.0017059668921438637,-0.018054571519830743,0.007207850382597725,0.9808789610665279
2011-11-02,-1,-0.0007696743719588659,-0.0006962694174285445,-0.015929772899376544,0.007207850382597725,0.9823279557607355
2011-11-04,-1,-0.0010082751068210822,-0.0008962887739548577,-0.015929772899376544,0.008405100062554875,0.9823550525795368
2011-11-08,-1,-0.0002474514574192076,-0.00020308852072316628,-0.015929772899376544,0.009448275297639563,0.981605502032311
2011-11-10,-1,-0.0003546335591895855,-0.00029857525815518585,-0.014388186029442545,0.011598710376540795,0.9822644337918045
2011-11-14,-1,-0.0021363542586807843,-0.001984022650650559,-0.014651406521516565,0.009448275297639563,0.9820439260565114
2011-11-16,-1,-0.0018251924796605712,-0.0017366442299687485,-0.014651406521516565,0.012049287076113746,0.9818349482661611
2011-11-18,-1,-0.001561401173345699,-0.0015364410330635553,-0.01243055751756783,0.01651485944039361,0.9816128628976798
2011-11-22,-1,-0.0026162240951457943,-0.0024776256748403275,-0.011599608317951163,0.020900301413010115,0.9809701154280833
2011-11-25,-1,-0.0034376670094666776,-0.003235484331760602,-0.008433139941617977,0.023921644528485893,0.9818343235403083
2011-11-29,-1,-0.0023935643762747045,-0.0023556300523659307,-0.010060724594609593,0.020614983529884074,0.9829419945967126
2011-12-01,1,0.0011367687849866946,0.0015298973370634044,-0.010246236530137003,0.01651485944039361,0.9861496488242821
2011-12-05,-1,-0.0005362373995598543,-0.0003614610371483564,-0.012815333028948023,0.020555672088230982,0.984570077722742
2011-12-07,1,0.0004565284444142399,0.0007919310474538731,-0.012815333028948023,0.01868589959854412,0.9844128084803837
2011-12-09,1,0.0011580831557873655,0.0016478625204846171,-0.011602676371191613,0.018367762643672965,0.9855581834051095
2011-12-13,1,0.0016165622559926724,0.0021377225510599614,-0.009942767320090187,0.02244467001413401,0.9862080424079741
2011-12-15,1,0.001769344658283807,0.002384078110096558,-0.009942767320090187,0.02244467001413401,0.9865759399929175
2011-12-19,1,0.0016595710864745295,0.0021822176422617618,-0.009942767320090187,0.018367762643672965,0.987416960979433
2011-12-21,1,0.002736796658864433,0.0033670920590150684,-0.009942767320090187,0.018367762643672965,0.988164678875629
2011-12-23,1,0.0015632349776375327,0.0018946287927345605,-0.009942767320090187,0.01644084102513675,0.9876174316178562
2011-12-28,1,0.0009746264165211443,0.0010828618236235574,-0.006325998585990788,0.01644084102513675,0.9872924452408393
2011-12-30,1,0.0011557260583442697,0.0013351407507611237,-0.004056275151094597,0.01644084102513675,0.9879153639494002
2012-01-04,1,0.00220357664964267,0.0027119821875121203,-0.0025934328829023603,0.014316769266891061,0.9897183809819906
2012-01-06,1,0.002526147122777174,0.00310516295651375,-0.0025934328829023603,0.014316769266891061,0.9899386509704495
2012-01-10,1,0.0025539857422635006,0.0030992031333044456,-0.0025934328829023603,0.013757352183440574,0.9904437641207389
2012-01-12,1,0.0025198171974864,0.0029719686785768086,-0.005310907743821439,0.012862597197001443,0.9901553154655682
2012-01-17,1,0.0029816756259710775,0.0035222515301863927,-0.007293622039363901,0.013757352183440574,0.9886356724223799
2012-01-19,1,0.00365431741621378,0.004285165735512693,-0.007293622039363901,0.014537923725894318,0.9879949311175016
2012-01-23,1,0.005101004501006112,0.005983201239044352,-0.008927223349710772,0.013757352183440574,0.9879497017105763
2012-01-25,1,0.006433965600578298,0.007538693207873423,-0.008927223349710772,0.0127452142739475,0.9874983199236431
2012-01-27,1,0.003791854723519176,0.004309569528078902,-0.007293622039363901,0.0127452142739475,0.9892522450635859
2012-01-31,1,0.004177276552422312,0.004803955427029102,-0.008927223349710772,0.0127452142739475,0.9888685095201719
2012-02-02,1,0.0033878889896163727,0.0037975439161517825,-0.008927223349710772,0.012818932426948586,0.9891542695921229
2012-02-06,1,0.003507760309493498,0.003939518178099896,-0.010142950589289077,0.007103854946789386,0.9885330779525715
2012-02-08,0,0.0,0.0,-0.010142950589289077,0.0056405013900716755,0.9897369458270505
2012-02-10,0,0.0,0.0,-0.00649630714134711,0.006998081335871353,0.9905344927072026
2012-02-14,0,0.0,0.0,-0.004577716619724401,0.009299610641173107,0.9899724553056221
2012-02-16,0,0.0,0.0,-0.004284978201570384,0.008787547831392755,0.990253788421944
2012-02-21,0,0.0,0.0,-0.004284978201570384,0.008787547831392755,0.9896571413447349
2012-02-23,0,0.0,0.0,-0.005659537425030629,0.007844984734135804,0.9894976050691618
2012-02-27,0,0.0,0.0,-0.0032648934772099452,0.008787547831392755,0.9890970558804887
2012-02-29,0,0.0,0.0,-0.0009248574849771507,0.008787547831392755,0.9893478058934493
2012-03-02,0,0.0,0.0,-0.003987904852492015,0.007844984734135804,0.9897488595996761
2012-03-06,0,0.0,0.0,-0.0037470098343785176,0.007844984734135804,0.9911377288034744
2012-03-08,0,0.0,0.0,-0.009196988830298618,0.007844984734135804,0.9902012870380451
2012-03-12,0,0.0,0.0,-0.011544281752773892,0.0076639036743971,0.9890234598283578
2012-03-14,0,0.0,0.0,-0.011544281752773892,0.0076639036743971,0.9900345691247467
2012-03-16,0,0.0,0.0,-0.012797169597127574,0.004998701450272641,0.9894403674350738
2012-03-20,1,0.0014626949722964778,0.0016163551914949415,-0.010749256960348074,0.0060374998286436025,0.9893007783532248
2012-03-22,1,0.0015128431916037984,0.0017174828731783066,-0.01028306837855221,0.01194963522972458,0.98972785656304
2012-03-26,1,0.001764693235611649,0.0019926304081580226,-0.010749256960348074,0.01194963522972458,0.9884376122279871
2012-03-28,1,0.0019846298855727513,0.0022521311320035245,-0.010749256960348074,0.012678528589684962,0.9877158673634561
2012-03-30,1,0.0017029739216607878,0.001914448601483353,-0.010749256960348074,0.012678528589684962,0.9883289242814253
2012-04-03,1,0.001203429335701176,0.0013320732271886093,-0.010749256960348074,0.014676103026975928,0.9879925091460064
2012-04-05,1,0.00017788195766979886,0.0002188732990086171,-0.006436530530524412,0.014676103026975928,0.989022529709065
2012-04-10,-1,-0.0010493954435555409,-0.0008310401024555725,-0.004810444866208808,0.01682198610742777,0.9893906350276572
2012-04-12,0,-8.83592247776644e-05,1.509033595494555e-05,-0.00573049163323433,0.014272777698519527,0.9905932401003147
2012-04-16,-1,-0.00022733549380782195,-9.08181532186036e-05,-0.00573049163323433,0.012678528589684962,0.9909292053196679
2012-04-18,-1,-0.000652428874235883,-0.00043517887665513524,-0.00573049163323433,0.006554383503301214,0.9909473395438906
2012-04-20,-1,-0.0008753614280394489,-0.0005877934233185091,-0.010702151034901504,0.0042663109760321324,0.989065165224658
2012-04-24,-1,-0.0010703987609763249,-0.0007256511258459784,-0.006845781088792222,0.0042663109760321324,0.9898156223355271
2012-04-26,0,-9.934691515424117e-05,9.409215800819935e-05,-0.006845781088792222,0.003453852732965986,0.99053522249792
2012-04-30,0,-8.267927170255585e-05,9.974824899927105e-05,-0.006845781088792222,0.0040516039814024385,0.9895691578310694
2012-05-02,1,0.0006612408730070533,0.0007149906659817093,-0.011534118940111858,0.0040516039814024385,0.9883663030912189
2012-05-04,1,0.00011096539973588885,0.00024048780488700687,-0.018782005238269093,0.0040516039814024385,0.9875394854677555
2012-05-08,-1,-0.0007242869341289025,-0.0004099377011919799,-0.018782005238269093,0.005281806091412321,0.9862692235678697
2012-05-10,-1,-0.0008913142063547868,-0.000585231352777306,-0.018782005238269093,0.008627318195782845,0.985925076500074
2012-05-14,-1,-0.001157153575015367,-0.0008279791625972407,-0.019140487372742966,0.013683518692668975,0.984625225755163
2012-05-16,-1,-0.0017901165181364006,-0.0014212209204372448,-0.00840121537100263,0.017069850516570347,0.9844064831028775
2012-05-18,-1,-0.002851768435118064,-0.0023923736877757996,-0.004446457492173505,0.017069850516570347,0.9861512741452408
2012-05-22,-1,-0.0024682167376479623,-0.002015740942588575,-0.004446457492173505,0.013890006554844873,0.9869017649600565
2012-05-24,-1,-0.002876685698322068,-0.0023498981280253035,-0.004676017825926216,0.013890006554844873,0.9866062209931785
2012-05-29,-1,-0.0024500163410783836,-0.0019675663196554146,-0.006421054870135356,0.009652908920007667,0.9870376554048735
2012-05-31,-1,-0.0032152292013265336,-0.00265531079019018,-0.004446457492173505,0.011375102112224724,0.98812214300784
2012-06-04,-1,-0.0039158627080621245,-0.0033076306252243044,-0.003950399100449685,0.014089525601250683,0.987441720239132
2012-06-06,-1,-0.001866817165630818,-0.0015171406955015487,-0.003950399100449685,0.009236752722273525,0.9903296158665736
2012-06-08,-1,-0.0012970468350736455,-0.0010422797552665818,-0.0038329157993270122,0.009236752722273525,0.9903488035766974
2012-06-12,-1,-0.0015314652511166193,-0.001273147298296365,-0.0038329157993270122,0.00912305151116653,0.9916595793861939
2012-06-14,-1,-0.0004124809092089887,-0.00033338194623675323,-0.0038329157993270122,0.008720983680390032,0.9923160067024125
2012-06-18,1,0.00022765552220465216,0.00026658562107693495,-0.0038329157993270122,0.008059014630260737,0.9921322124817755
2012-06-20,-1,-0.00026171576700026076,-0.0001947180515945096,-0.007112522794084512,0.008059014630260737,0.9916337904855029
2012-06-22,-1,-0.0008472269580584777,-0.0007095153423139452,-0.007950484909673724,0.008059014630260737,0.9916156956795995
2012-06-26,-1,-0.0007605163326548552,-0.0006546731188294631,-0.0070360339231326854,0.008059014630260737,0.992058728096667
2012-06-28,-1,-0.00013678580422120477,-0.00011742580010617494,-0.0070360339231326854,0.008214367318763856,0.9912240854515832
2012-07-02,1,0.0006333532814057945,0.0007326944492765324,-0.0070360339231326854,0.007831847154196485,0.9924733988857087
2012-07-05,1,0.00028039318938988115,0.0002885731462918276,-0.0070360339231326854,0.008214367318763856,0.9917946254425472
2012-07-09,1,0.0006123292045161533,0.0006647410269563197,-0.0070360339231326854,0.008214367318763856,0.9916692503038553
2012-07-11,1,0.0007735568686978822,0.0008800260541215387,-0.007950484909673724,0.007831847154196485,0.9917711563552264
2012-07-13,1,0.0006092031991573296,0.0006619948931567618,-0.007950484909673724,0.006962996639232787,0.9922412430464264
2012-07-17,1,0.0009160223520481446,0.0010327928832613372,-0.007950484909673724,0.005644146608266894,0.9926135056020827
2012-07-19,1,0.0004006157942439291,0.00043907012863813753,-0.005598172203003791,0.00815105158048132,0.9925230849374256
2012-07-23,1,7.999189345908299e-06,3.655926080025695e-05,-0.003963797189214577,0.009142890177650732,0.9925718257100117
2012-07-25,1,0.0003570029359966856,0.00038976179070091,-0.0031927632119302563,0.009142890177650732,0.9924818061724606
2012-07-27,1,0.00029130361549181775,0.000310204913788764,-0.003963797189214577,0.007738227973725323,0.9929990970061059
2012-07-31,1,0.0004320658038739614,0.00043996629063200617,-0.003963797189214577,0.007738227973725323,0.9934403803460695
2012-08-02,1,0.0007264324354756858,0.000779064674032548,-0.0031927632119302563,0.007420226023706032,0.9944311000881226
2012-08-06,1,0.001408786617510731,0.0016288461469519725,-0.0018416855720002987,0.007420226023706032,0.9948751823515948
2012-08-08,1,0.0011023989879876783,0.0013016888356850564,-0.0007369365690220123,0.007669112678407119,0.9952154264130749
2012-08-10,1,0.0013502344224228823,0.0015686997887179432,-0.003062516023499271,0.007669112678407119,0.9949545689814374
2012-08-14,1,0.0011870471246637408,0.0013543315702654254,-0.003062516023499271,0.007669112678407119,0.9948150591129098
2012-08-16,1,0.0018902772848568828,0.002178263816257467,-0.003062516023499271,0.007669112678407119,0.9945696366736032
2012-08-20,1,0.0019480096523162504,0.0022383388986228687,-0.003062516023499271,0.007420226023706032,0.9946363098387663
2012-08-22,1,0.0019229991174473165,0.0021980259291964053,-0.0035362271874107036,0.007371182034860988,0.9945114137363038
2012-08-24,1,0.0017880408256472865,0.002023544261783489,-0.0035291816105447542,0.004719171655339046,0.9947875109366588
2012-08-28,1,0.001162490868712987,0.0012578573448767854,-0.0038699102433368774,0.004719171655339046,0.9940630995935035
2012-08-30,1,0.0006817224469048684,0.0007005145242317203,-0.0038699102433368774,0.005915454530243476,0.9938651228161988
2012-09-04,1,0.0012754181960641015,0.0013920203295320604,-0.004382401057991353,0.004241216524040315,0.9929618475793167
2012-09-06,1,0.0014102530699358865,0.0015504627445723838,-0.0038699102433368774,0.004241216524040315,0.9930092366065596
2012-09-10,1,0.0010889663548373483,0.0011889933570892503,-0.0035468258384131097,0.005818544556659687,0.9930771985727995
2012-09-12,1,0.0014559333258561545,0.0016234618955797793,-0.0035468258384131097,0.004241216524040315,0.9933445983734247
2012-09-14,1,0.002100075188733368,0.0023632183197206703,-0.0035468258384131097,0.003134607494324644,0.9939073340073281
2012-09-18,1,0.0017181744225386417,0.0019538784062802907,-0.003082572332908934,0.004241216524040315,0.994149647283245
2012-09-20,1,0.0016707967167892933,0.0018994336401627742,-0.0025861784564228025,0.0056681338125399595,0.9942962594617503
2012-09-24,1,0.0018003018945120203,0.0020691300473700464,-0.003082572332908934,0.0056681338125399595,0.993699569181661
2012-09-26,1,0.001207384662374091,0.0013758900977670868,-0.0031103498634378144,0.0056681338125399595,0.9932303938414568
2012-09-28,1,0.0014114484538854583,0.001622629148621275,-0.005904642231875977,0.00418259055311728,0.9927701220385912
2012-10-02,1,0.0007692830663547915,0.0008695103480944263,-0.005409669119354885,0.00418259055311728,0.9936421625422158
2012-10-04,1,0.0007895594103341591,0.0008782671094184998,-0.006098575135224079,0.0036176956256076497,0.9936977800179881
2012-10-08,1,0.0004741305979939947,0.0004814316673072745,-0.006133111941857749,0.0027206010097512584,0.993835323773852
2012-10-10,-1,-0.0003837948339859349,-0.00021723234995897763,-0.007693636941937514,0.002408159571952107,0.9930971151908167
2012-10-12,1,3.5852099714251675e-05,0.0001172241304780751,-0.008059904389731903,0.001973123285635053,0.9926256429289941
2012-10-16,1,0.00036320909540872115,0.000410028093848327,-0.008377821545940772,-0.000384230096592608,0.9919986697099653
2012-10-18,1,0.001010147112136962,0.0010602738060472676,-0.008377821545940772,-0.000384230096592608,0.9908430485532007
2012-10-22,0,0.0,0.0,-0.008059904389731903,0.0025690801445119173,0.9918147229619938
2012-10-24,0,0.0,0.0,-0.007693636941937514,0.0043973998857922475,0.9926783608399941
2012-10-26,0,0.0,0.0,-0.006279094451351816,0.0043973998857922475,0.9925972930622547
2012-11-01,0,0.0,0.0,-0.006279094451351816,0.006091409828178711,0.9918067248818697
2012-11-05,0,0.0,0.0,-0.004184311910657661,0.008435601235075583,0.99184883076767
2012-11-07,0,0.0,0.0,-0.0029708784103649947,0.00854442268527086,0.9916485823047656
2012-11-09,0,0.0,0.0,-0.004167113597194304,0.00854442268527086,0.9919894198923634
2012-11-13,0,0.0,0.0,-0.0030773077598316326,0.00854442268527086,0.9923865590127241
2012-11-15,0,0.0,0.0,-0.003015542843416812,0.00854442268527086,0.9930112129573972
2012-11-19,0,0.0,0.0,-0.003015542843416812,0.008435601235075583,0.9939732281559049
2012-11-21,-1,-0.0016728760646417058,-0.001409657012740312,-0.004486401645594216,0.00854442268527086,0.9931465934219916
2012-11-26,0,0.0,0.0,-0.00572567077937766,0.00854442268527086,0.9931890457165324
2012-11-28,0,0.0,0.0,-0.004486401645594216,0.00854442268527086,0.9938632390609596
2012-11-30,-1,-0.0016413259533938705,-0.0014020964027143862,-0.00572567077937766,0.005298446939926764,0.9933148257867874
2012-12-04,-1,-0.0013590303806458523,-0.0011434174550775003,-0.00572567077937766,0.006015189102838258,0.9931053336026778
2012-12-06,-1,-0.0008858786407965732,-0.0007284570077080116,-0.00572567077937766,0.006005241596982526,0.9931485498644751
2012-12-10,-1,-0.0011485991242702349,-0.0009875934386672231,-0.004053062812625663,0.006005241596982526,0.9935713095490879
2012-12-12,-1,-0.0017008112378081011,-0.001444951831100949,-0.0025460524458709105,0.006005241596982526,0.9934227065789104
2012-12-14,-1,-0.002215378619438528,-0.0018649451290774922,-0.0016690031409549962,0.006005241596982526,0.9934547438816129
2012-12-18,-1,-0.0019836163792807202,-0.0016486256266436124,-0.0025460524458709105,0.004699521072336205,0.9937855568659575
2012-12-20,-1,-0.001065562811841594,-0.0008841134256195427,-0.0016690031409549962,0.004699521072336205,0.9942253836861953
2012-12-24,-1,-0.0011391436989434656,-0.0009694688094684456,-0.0015217077382619663,0.006005241596982526,0.9941272187421403
2012-12-27,-1,-0.001007871575707547,-0.0008768212078190962,-0.0005050624588966513,0.009212567842702945,0.9931171088505869
2012-12-31,-1,-0.0010779938141039643,-0.0009483394253825756,-0.0005050624588966513,0.006005241596982526,0.9945505349096657
2013-01-03,-1,-0.0009008785478134139,-0.0007551515569809374,-0.0005050624588966513,0.005584513278366476,0.9948137273381199
2013-01-07,-1,-0.00029971892732884455,-0.00023934382084217593,-0.0006170193592689088,0.004038367428398632,0.9955971975905368
2013-01-09,-1,-0.00036829153552224935,-0.0003104574464447655,-0.0006162533583637143,0.006150357773386024,0.9951438513791911
2013-01-11,1,0.00016166887377486793,0.0002107922462849782,-0.0010917165237171803,0.010928181651923906,0.994325090053471
2013-01-15,1,0.0005671560358452708,0.0006920951805541211,-0.0005985802287363151,0.010928181651923906,0.9945061108079986
2013-01-17,1,0.0005706389358030881,0.0006988699407244597,-0.00047654548497979735,0.010928181651923906,0.9945936347946223
2013-01-22,0,0.0,0.0,-0.0005985802287363151,0.009985654945052009,0.9936615631841828
2013-01-24,0,0.0,0.0,-0.0011835430494566174,0.009990240401824384,0.9930524341588287
2013-01-28,0,0.0,0.0,-0.0018920925129085919,0.009990240401824384,0.9923045104392061
2013-01-30,0,0.0,0.0,-0.0011835430494566174,0.01103931196403777,0.9916901365668169
2013-02-01,0,0.0,0.0,-0.0011835430494566174,0.009990240401824384,0.9919706649059499
2013-02-05,0,0.0,0.0,-0.0004705990062040441,0.01103931196403777,0.9913919041579141
2013-02-07,0,0.0,0.0,-0.0024102218594530753,0.010087614343621125,0.9916461314886743
2013-02-11,0,0.0,0.0,-0.0022641651055246383,0.00833740801416024,0.9924412814603376
2013-02-13,0,0.0,0.0,-0.002954509562587745,0.00833740801416024,0.9922218818279055
2013-02-15,0,0.0,0.0,-0.005311860981837523,0.007897698890047971,0.9922758091799554
2013-02-20,1,0.0033522817464010654,0.0039312946833201835,-0.002954509562587745,0.008312305371983596,0.9927133500215456
2013-02-22,1,0.003117875838455567,0.003632100464474053,-0.002946633740791969,0.007855002137837531,0.9932698028533965
2013-02-26,0,0.0,0.0,-0.002946633740791969,0.006987085443365169,0.9949880124708893
2013-02-28,0,0.0,0.0,-0.002946633740791969,0.006987085443365169,0.9952837972608156
2013-03-04,0,0.0,0.0,-0.002946633740791969,0.007604732504209245,0.995161253609491
2013-03-06,0,0.0,0.0,-0.004898346327680908,0.007604732504209245,0.9948666617416836
2013-03-08,0,0.0,0.0,-0.004898346327680908,0.008514539110311536,0.9940438600824328
2013-03-12,0,0.0,0.0,-0.0029285272482294945,0.008514539110311536,0.9938192973143609
2013-03-14,1,0.0038400884543012973,0.004376869088406686,-0.004898346327680908,0.008514539110311536,0.9937472798381161
2013-03-18,1,0.0037608228278260694,0.004309559568780172,-0.004898346327680908,0.00879160232790171,0.9928176808705867
2013-03-20,1,0.0037212685606659406,0.0042242424227549894,-0.0049987548773353825,0.008514539110311536,0.9918702422482981
2013-03-22,1,0.0034454336816211947,0.0038328308157879057,-0.0049444353996479585,0.008514539110311536,0.991654441016362
2013-03-26,1,0.0028135025450314933,0.0030825478464449295,-0.004168951013422723,0.008514539110311536,0.9920106430887742
2013-03-28,1,0.002791450397482543,0.003035018856597662,-0.004168951013422723,0.008320955168417991,0.9919270764476007
2013-04-02,1,0.00263730488334728,0.002843181129966975,-0.004168951013422723,0.012425011951100969,0.9912860512797476
2013-04-04,1,0.0026437292449756383,0.002833730086010404,-0.0041053314160319305,0.012425011951100969,0.9909742894164277
2013-04-08,1,0.0024535974864863283,0.0025715069185344294,-0.0022793879253871063,0.012425011951100969,0.9913032236986302
2013-04-10,1,0.0023638366226112545,0.0024211437872937434,-0.0022793879253871063,0.012425011951100969,0.9912007264835477
2013-04-12,1,0.0016186873896239413,0.001702693805782266,-0.0022793879253871063,0.012425011951100969,0.9908938035869418
2013-04-16,1,0.0016498244749635293,0.0016699960846959627,-0.0036981733704676365,0.00878632804361823,0.9919475461132516
2013-04-18,1,0.0008834273672003261,0.000980810744192244,-0.003958180312027679,0.00878632804361823,0.9917152086055869
2013-04-22,1,0.001314071874737751,0.0013561090139024702,-0.004060056840651654,0.007331845867643254,0.9923160649715972
2013-04-24,1,0.000973413734713806,0.0010913351355017265,-0.004197875836128277,0.00671602282466566,0.9914489233472281
2013-04-26,1,0.0014824584418393948,0.0015104435625495501,-0.00536932642474262,0.006659358156307738,0.9906221880797317
2013-04-30,1,0.00272739152692173,0.0028690953781130403,-0.010336023214760397,0.005243661369902931,0.9902830016164412
2013-05-02,1,0.003195860196562409,0.003418388863519737,-0.011936768620497307,0.0034833942058395077,0.9901657227190273
2013-05-06,1,0.003328690026185242,0.003526198531658232,-0.012577931748656096,4.741811893963638e-05,0.9897629712288896
2013-05-08,1,0.0033271704456249965,0.0034982704680690847,-0.01373088252117617,-0.0015777300587061101,0.9874916171966075
2013-05-10,1,0.0030746565617440747,0.0031920769407489027,-0.01373088252117617,6.12048748576126e-07,0.9882069162926576
2013-05-14,1,0.0026551547335175152,0.0027336034323710676,-0.014634364281345725,6.12048748576126e-07,0.9878002519557837
2013-05-16,1,0.0018009520450630043,0.0018215142406669987,-0.01373088252117617,0.0027581199231707606,0.988583320614274
2013-05-20,1,0.0011318938061254805,0.0012639450839118356,-0.01373088252117617,0.002759021173199154,0.9887603185261127
2013-05-22,0,-9.948097183552947e-05,0.0001971907191494778,-0.014634364281345725,0.0023815734612208997,0.9865992905162306
2013-05-24,-1,-0.0012017988910827976,-0.0007990163562981371,-0.014634364281345725,0.0036251110275885073,0.9872683093323206
2013-05-29,-1,-0.002127490132752221,-0.001638411730884274,-0.014110390252031422,0.006827852715774321,0.9877094214451427
2013-05-31,-1,-0.0027095041784498397,-0.0021701634770327043,-0.01032382947565556,0.007798945674435167,0.9865776940407781
2013-06-04,-1,-0.0035873736995248907,-0.002932748391305459,-0.010877995216282247,0.0101751071947187,0.9851366285599336
2013-06-06,-1,-0.003439152572724144,-0.0028029590470206095,-0.00746267688112306,0.007798945674435167,0.9875252656484336
2013-06-10,-1,-0.003158106146148477,-0.002553768356632632,-0.00746267688112306,0.012614327120195779,0.9865122259966926
2013-06-12,0,0.0,0.0,-0.004385788521982084,0.014559876829470823,0.9860285988439376
2013-06-14,0,0.0,0.0,-0.005845803539847877,0.012614327120195779,0.9864275487081982
2013-06-18,0,0.0,0.0,-0.005845803539847877,0.012614327120195779,0.9868717241676266
2013-06-20,0,0.0,0.0,-0.0033428603824228616,0.014559876829470823,0.9897381364208107
2013-06-24,-1,-0.0043293580920444235,-0.0036643661122420868,-0.0028933180531001664,0.014559876829470823,0.988594455758247
2013-06-26,-1,-0.0036204755628132853,-0.0030581949886611974,-0.0038295320550447926,0.014559876829470823,0.9884147801630347
2013-06-28,-1,-0.0029479599946708023,-0.002459566068360946,-0.003373902101561642,0.00887949060280181,0.9902373876984811
2013-07-02,-1,-0.002453361624710651,-0.0020413304106575896,-0.003373902101561642,0.006812817317317724,0.9915745802844734
2013-07-05,-1,-0.002578820998434035,-0.002173244628346575,-0.003373902101561642,0.008586613590991544,0.9903565920647168
2013-07-09,-1,-0.0012886905921174101,-0.001042503168749057,-0.006705032662518567,0.006571845524784545,0.991347302970932
2013-07-11,-1,-0.0003917539609884368,-0.00026387649235105063,-0.006705032662518567,0.006288943455677708,0.9924385282185824
2013-07-15,-1,-0.0006109166461853992,-0.0004384819552813118,-0.009529315120466416,0.005650510350738502,0.9923916906190812
2013-07-17,-1,-0.0003714656462516131,-0.00024191038054563008,-0.009529315120466416,0.005650510350738502,0.9920132485881278
2013-07-19,0,-5.307724241920879e-05,6.729707213806073e-05,-0.011917100377192149,0.00309580820914809,0.9901133881984042
2013-07-23,1,0.0005158471095547815,0.0005412012506539928,-0.014054858332599725,0.00309580820914809,0.9882461887102254
2013-07-25,-1,-0.00014265446312158202,-5.6103548553316027e-05,-0.011917100377192149,0.00309580820914809,0.98915826433868
2013-07-29,0,-4.44005536084341e-06,4.232620051665799e-05,-0.011917100377192149,0.003560161958103274,0.9889952990548309
2013-07-31,-1,-0.0003609559478977217,-0.0002564258487732908,-0.011917100377192149,0.002461022422318038,0.9891520219576775
2013-08-02,-1,-0.0006519217648180819,-0.0005003429465998143,-0.0112470556091991,0.002349708605677601,0.9900537409059169
2013-08-06,-1,-0.00151546271546332,-0.0012712757026022746,-0.010099743111930508,0.00259143472135191,0.9899745366338945
2013-08-08,-1,-0.0014964965969663723,-0.0012432576285758962,-0.0112470556091991,0.00259143472135191,0.9885542625563754
2013-08-12,-1,-0.0015895078304806556,-0.001348632871935786,-0.010099743111930508,0.003912237625270568,0.9884296575758065
2013-08-14,-1,-0.0017563130870802118,-0.0015050552492423088,-0.011353951000255113,0.006876202695240658,0.9881165094425587
2013-08-16,-1,-0.004069552631617542,-0.0035364291186701867,-0.00911051278334729,0.008568697832768342,0.9894581634806372
2013-08-20,-1,-0.0034811541066441525,-0.003039679974309025,-0.007468785946358939,0.008568697832768342,0.9906888787987788
2013-08-22,-1,-0.0033821261434464085,-0.002966144173934456,-0.007468785946358939,0.009492767010587398,0.9899849836440346
2013-08-26,-1,-0.0031823501123026173,-0.002808980365357556,-0.009486043696013764,0.009492767010587398,0.9897514402654207
2013-08-28,-1,-0.003445260788521056,-0.003066377191716595,-0.007468785946358939,0.01194775556877633,0.9894740242528837
2013-08-30,-1,-0.0033231037583804873,-0.002982494188458116,-0.007574052217318598,0.01194775556877633,0.9896852906577599
2013-09-04,-1,-0.0026049003577148858,-0.0023536673578943104,-0.007421520285746681,0.008936766575663196,0.9907873382930237
2013-09-06,-1,-0.0030885083470989297,-0.002769380022124923,-0.007421520285746681,0.00719436787844783,0.9913405725584213
2013-09-10,-1,-0.0030249849345954536,-0.0026742113953093626,-0.009801842508892745,0.0024876915868777567,0.991282735400951
2013-09-12,-1,-0.00284742853145633,-0.0025431930864421525,-0.007421520285746681,0.008936766575663196,0.9895367714274941
2013-09-16,-1,-0.0015246758896475354,-0.0013950144336485047,-0.007421520285746681,0.00856528705793241,0.9898360529605078
2013-09-18,-1,-0.0008413324404503549,-0.0008042834884709572,-0.009797739722981919,0.00856528705793241,0.9889345846602586
2013-09-20,-1,-0.0006802297571883263,-0.0006298007506955088,-0.007421520285746681,0.007890304798952282,0.9899348317980486
2013-09-24,-1,-0.0008818155136295875,-0.0008156929010922687,-0.005628136441095097,0.010277316580659768,0.9897749525190938
2013-09-26,0,-6.932236135872433e-06,0.0002311461525614434,-0.005628136441095097,0.00925244430515383,0.9901834215891168
2013-09-30,0,-1.7594086531834982e-06,0.00027229199845665354,-0.003905005988175642,0.010925049430848214,0.9898675509657131
2013-10-02,1,0.00018254405320839882,0.00048646942935215,-0.005628136441095097,0.010925049430848214,0.9892456848429517
2013-10-04,-1,-0.0008094610118357399,-0.0006459808449147675,-0.003946519403979349,0.010925049430848214,0.9897844327914807
2013-10-08,-1,-0.0016781108545155753,-0.0016759715502128005,-0.003946519403979349,0.010925049430848214,0.9893618286458401
2013-10-10,1,0.00023501434402600503,0.0004945925901121444,-0.005819149481881242,0.008546516044006927,0.9918694204116743
2013-10-14,1,0.0006201432680695959,0.0008938584529464827,-0.005819149481881242,0.007509796987953281,0.9922700610207535
2013-10-16,1,0.0007911687002687337,0.0010443340936509907,-0.005819149481881242,0.005283292726910195,0.9933915217611993
2013-10-18,1,0.0004986263596740762,0.0006585818976766141,-0.005819149481881242,0.005574629003903427,0.9933086842003807
2013-10-22,1,0.0004965168505237679,0.0006188496122118781,-0.0057660352348550496,0.003952852668075783,0.9940439279672239
2013-10-24,1,0.0005640494167769385,0.0006644248904466894,-0.00647697531093112,0.0037511470161673472,0.9937513677667473
2013-10-28,1,0.0013302376709424081,0.0015537981720349708,-0.00647697531093112,0.0034490724162357512,0.9942659255032411
2013-10-30,1,0.0015839571711638674,0.0018598481431665631,-0.006224442683779849,0.0029699876310346623,0.9948664102701092
2013-11-01,1,0.0010165369475271127,0.0011678825910571677,-0.006519004079595858,0.0021650829457428977,0.9948245858102605
2013-11-05,1,0.0009744426906914455,0.0011521843464468039,-0.003931213897114668,0.001937068570429668,0.9956632899253668
2013-11-07,1,0.0008228008012671457,0.0010064026519610988,-0.002962547067365207,0.0021650829457428977,0.995767655031361
2013-11-11,-1,-0.0006635591887957968,-0.0005370481787219445,-0.002962547067365207,0.0029699876310346623,0.9950349920483749
2013-11-13,-1,-0.000738589717230126,-0.0006155301481005316,-0.002962547067365207,0.0021650829457428977,0.9940103077101563
2013-11-15,1,4.7538154496016144e-05,5.411665499061528e-05,-0.006348628357037252,0.0015709504408988443,0.9940054602171374
2013-11-19,1,0.0002874018799150142,0.0003499311883464393,-0.006348628357037252,0.00241271555409031,0.9928546083555619
2013-11-21,1,0.0001800310749957161,0.00024349964293019465,-0.006348628357037252,0.001937068570429668,0.9929235356479154
2013-11-25,-1,-0.00016064824795956412,-0.00016033443895130276,-0.006348628357037252,0.001937068570429668,0.9929135357743624
2013-11-27,1,0.0005083352945935414,0.0006638562237042504,-0.0070402042530685344,0.0030039691601170737,0.992350848725955
2013-12-02,1,0.0006356315115252761,0.0008611149257038434,-0.008941085848026017,0.0030012216999573847,0.9920489792186556
2013-12-04,1,0.0008132281221769329,0.0010684938438318848,-0.008941085848026017,0.006512060521143453,0.9917278042785477
2013-12-06,1,0.0014229727928176676,0.0017678403311996388,-0.008941085848026017,0.0038047260713048353,0.9919490697980868
2013-12-10,1,0.001652648430827366,0.002069481679995656,-0.0070402042530685344,0.006215650353920503,0.9923244775647574
2013-12-12,1,0.0006894466718300699,0.0010008382574971538,-0.0070402042530685344,0.007112092484695957,0.9927409639056762
2013-12-16,0,-4.4133457866251335e-05,0.0001254355767592851,-0.004944025021558385,0.008342051820878287,0.9921586016150326
2013-12-18,1,0.00097971774733251,0.0012828636622471074,-0.0062714341991745755,0.007112092484695957,0.9930214017454383
2013-12-20,1,0.000578917697405013,0.0008268699529149186,-0.004895624071059712,0.007658327030580406,0.9930087698819274
2013-12-24,1,0.0005029168955165187,0.0007433291121318105,-0.007070384240832195,0.007658327030580406,0.9923174102303061
2013-12-27,1,0.00020758830219742358,0.0003636969568283429,-0.009048607221821464,0.008342051820878287,0.9917423385414624
2013-12-31,-1,-0.0002517752234819914,-0.00014280336391475488,-0.006358111794442262,0.00885763218113432,0.9914847610725276
2014-01-03,1,2.3708880324576904e-05,0.00015308351026105187,-0.007347398437139719,0.008600793139206057,0.9908519016638724
2014-01-07,1,0.0001056507669532682,0.0002349229501900282,-0.007347398437139719,0.008600793139206057,0.990890890776543
2014-01-09,-1,-0.0005307842621580677,-0.00045958433472840534,-0.007347398437139719,0.010149365856525502,0.9903408886404892
2014-01-13,-1,-0.0004888898934268874,-0.0004292859162390548,-0.006358111794442262,0.009575169218263062,0.9909473695969726
2014-01-15,1,0.00039926986158379904,0.00044262922468596064,-0.006358111794442262,0.009079061617627171,0.9920176842194987
2014-01-17,1,0.00034093750771217686,0.0003726007213124115,-0.0016908368579353348,0.009079061617627171,0.9920703005745256
2014-01-22,1,0.0005475228213496299,0.000571041232286399,-0.005131151454979924,0.008861063164405242,0.9924867435577495
2014-01-24,-1,-0.00037319820992320554,-0.00027240782437871287,-0.0006884048963974483,0.008861063164405242,0.9927662196424959
2014-01-28,-1,-7.973627513004086e-05,-3.7490677166951726e-05,0.0007048361056065203,0.008768109450292884,0.9934034779306443
2014-01-30,-1,-6.878479982055385e-05,-8.497645183603967e-06,0.0008185267489207863,0.008768109450292884,0.9938137099351965
2014-02-03,-1,-0.0005591173688390093,-0.00046259786075886997,0.0008185267489207863,0.008861063164405242,0.9938684845731448
2014-02-05,-1,-0.0005696230811301011,-0.00046225423894778045,0.00045157503739473776,0.008861063164405242,0.9935033667364018
2014-02-07,1,0.0006841072741710628,0.0007783795502628456,-0.0010253398283049655,0.008768109450292884,0.9939626853313165
2014-02-11,1,0.0014830180269863008,0.0017066779767289483,-0.0010253398283049655,0.005296528518639616,0.9946456783143311
2014-02-13,1,0.0015028801840907022,0.0016955354438481108,-0.002975960670992278,0.00411765835526732,0.994594936901349
2014-02-18,1,0.0015040580788225455,0.0016546770483577347,-0.002975960670992278,0.004109576760240408,0.9947647188891561
2014-02-20,1,0.0015570464410567771,0.0017276001328366858,-0.002975960670992278,0.004123227538588407,0.9938600117124916
2014-02-24,1,0.0012865979029782343,0.0013917411920179533,-0.004105245235312333,0.004249154591040034,0.9933854536291196
2014-02-26,1,0.00162894442662605,0.0017753778448293032,-0.0059330791593993895,0.004249154591040034,0.9929826638257223
2014-02-28,1,0.0013627756289387412,0.0014013878201994093,-0.0059330791593993895,0.004124663014097391,0.9933380469241533
2014-03-04,1,0.0014695620822524763,0.0014775747401456559,-0.0059330791593993895,0.004109576760240408,0.9938317295556365
2014-03-06,1,0.0018876428531753582,0.002053001433624136,-0.004800743051680847,0.004109576760240408,0.9944768669524506
2014-03-10,1,0.0012937014403045168,0.0014139227891234393,-0.0022744135565957425,0.004109576760240408,0.9956529036646603
2014-03-12,1,0.0016893024145617633,0.001887427833601982,-0.0022744135565957425,0.004124663014097391,0.9955616285031562
2014-03-14,1,0.0014944158125910403,0.0016733223317986793,-0.004800743051680847,0.004124663014097391,0.9948593323813804
2014-03-18,1,0.0017254688549846312,0.001951531975667491,-0.004800743051680847,0.004611084149566381,0.9944067667675729
2014-03-20,1,0.0012500809138183081,0.0014326117874736539,-0.004800743051680847,0.005042110769770098,0.9942459526322777
2014-03-24,1,0.0018288837312618123,0.0021284412607195263,-0.00011287222204537403,0.004779835046241506,0.9950246490250834
2014-03-26,1,0.0017645331011157226,0.0020605767994057254,-0.00011287222204537403,0.004779835046241506,0.9949539484659661
2014-03-28,1,0.0019550622691355177,0.0022659791446080083,-0.0049770871197008975,0.005588459843704747,0.9942418465032828
2014-04-01,1,0.0016787964062524568,0.0019318349152029797,-0.0005196449927218564,0.005588459843704747,0.9944510449062267
2014-04-03,1,0.001511628017441674,0.0017149027532993167,-0.0028531621509397366,0.005588459843704747,0.9941133142595581
2014-04-07,1,0.0015766793406859973,0.0017778283650461378,-0.0038389183190946593,0.005588459843704747,0.9938467615646449
2014-04-09,1,0.001710985935166221,0.0019146699944364996,-0.006300760276967791,0.0063300584203987015,0.9928146273111612
2014-04-11,1,0.0012129790835046248,0.0013768383623670587,-0.0038389183190946593,0.0063300584203987015,0.993320664446397
2014-04-15,1,0.001781938170606528,0.0020117400010837066,-0.0038389183190946593,0.004276577191310731,0.9939870808222344
2014-04-17,1,0.002062766286896363,0.0023104135806413222,-0.0020801637781520483,0.004276577191310731,0.9947536430425309
2014-04-22,1,0.0021774727022195184,0.0024239063798796754,-0.005250632791293531,0.0032792599964997973,0.9938992309484632
2014-04-24,1,0.0021946159192796763,0.0024438030662990652,-0.003488875823869906,0.0024157007988699353,0.9944191601407141
2014-04-28,1,0.002064298582450914,0.0022687474281197356,-0.002423925387501838,0.0032792599964997973,0.99478982088822
2014-04-30,1,0.0021552703251975077,0.002371558755553305,-0.003488875823869906,0.002631516871710755,0.9943289789653798
2014-05-02,1,0.0024007319934797413,0.0026746599646412343,-0.003488875823869906,0.0050255511997851846,0.9942404354214481
2014-05-06,1,0.0020038339777780647,0.002208694623768364,-0.002860045263155646,0.0050255511997851846,0.9946580304062426
2014-05-08,1,0.0013135207311946774,0.0013515674012286184,-0.002860045263155646,0.0050255511997851846,0.9948256957751651
2014-05-12,1,0.0005183783927158311,0.0006097579741897103,-0.005084771230775145,0.0050255511997851846,0.9939252722536568
2014-05-14,1,0.0010825305327428758,0.0011090570172662849,-0.0061074335273698524,0.0050255511997851846,0.9932836024331948
2014-05-16,1,0.0009065895064118719,0.0009322275262364786,-0.0061074335273698524,0.0050255511997851846,0.9931389378525717
2014-05-20,0,-3.6536840353361866e-05,0.00011425921536764306,-0.0057972247252781215,0.0076439115008349314,0.993143300339182
2014-05-22,-1,-0.00022080073788250298,-4.1811504215115186e-05,-0.0057972247252781215,0.008828264096681207,0.9922172357519412
2014-05-27,0,-0.0001669294973112637,5.187233601189919e-05,-0.0061074335273698524,0.007869811274964916,0.9926858674213693
2014-05-29,-1,-0.00034056164281721175,-0.0001165620517390106,-0.006645000588755075,0.007869811274964916,0.992213241148379
2014-06-02,1,1.3018423635403507e-06,0.00018517158349437275,-0.006645000588755075,0.007869811274964916,0.992429287692012
2014-06-04,1,0.0002888004148397398,0.00041896305585485693,-0.006645000588755075,0.007869811274964916,0.9921577671228716
2014-06-06,1,0.000605775093377208,0.000706762983897848,-0.007171862204766733,0.00712924082393528,0.9924368438941134
2014-06-10,0,-6.464952490100261e-05,6.720568474818727e-05,-0.005957279682041387,0.00712924082393528,0.9936409341659322
2014-06-12,-1,-0.0007126666495165776,-0.0005004206739456883,-0.0024880762937509755,0.00712924082393528,0.994060709074203
2014-06-16,-1,-0.00026127178260763054,-0.00012884830704879338,-0.002027151649168086,0.006648890269185701,0.994420944708901
2014-06-18,0,-1.9981558166765707e-05,0.0001271550740287103,-0.0029994538768790746,0.005176964730624085,0.995004339197436
2014-06-20,1,0.0007260776738833485,0.0007864748208620147,-0.0036356109514208614,0.0048972319185906,0.9951693333978348
2014-06-24,1,0.00037238810979265156,0.00046974947928923427,-0.0029994538768790746,0.005176964730624085,0.995304014542981
2014-06-26,-1,-0.0010669745468956206,-0.0007584671364886206,-0.002975914793364018,0.005176964730624085,0.9955492972704956
2014-06-30,-1,-0.0009621762815386314,-0.0006672591551038571,-0.0029994538768790746,0.005300958418560598,0.9953185971311538
2014-07-02,-1,-0.0003551849988690746,-0.00016419773414088116,-0.0056391001126458555,0.005176964730624085,0.9937436160056775
2014-07-07,-1,-0.000185003560884787,-4.842740629298355e-05,-0.0036356109514208614,0.004524151734807404,0.9944637039735288
2014-07-09,1,0.00016777712978522023,0.0002452750748078874,-0.0056391001126458555,0.003446692990517368,0.9940917081562346
2014-07-11,1,0.0004799383766144503,0.0004986568719062912,-0.0056391001126458555,0.004524151734807404,0.9935614893191376
2014-07-15,1,0.0003891261375934249,0.00042429771336199363,-0.0056391001126458555,0.005267374807588088,0.993010552438454
2014-07-17,1,0.0004188121316701463,0.0004504342810275467,-0.0056391001126458555,0.0056761613975093335,0.9927343409162478
2014-07-21,1,0.0007805478644683126,0.000816824346387584,-0.004865726765184045,0.004653929166810758,0.9933178006409433
2014-07-23,1,0.00128015971121138,0.0014081054708180393,-0.004865726765184045,0.00598666250864922,0.9926869798825539
2014-07-25,1,0.001150209334485151,0.00129634725797451,-0.004865726765184045,0.00598666250864922,0.9925837942959558
2014-07-29,1,0.0008424133293322497,0.0009221783102662947,-0.0033788485526438468,0.005068403026007369,0.9928756835869822
2014-07-31,-1,-0.0014272331634674175,-0.0011850501593113614,-0.0014348841433408275,0.005068403026007369,0.994511871325578
2014-08-04,-1,-0.0013443101381415603,-0.0011214954409883974,-0.0014216492688742775,0.007559323387327655,0.993902677059736
2014-08-06,-1,-0.0017790512126721466,-0.001493367589083498,-0.0020324376585583556,0.007559323387327655,0.9942232087003863
2014-08-08,-1,-0.0015790588535717404,-0.0013240904779044404,-0.0020324376585583556,0.008654840579971255,0.9940470537335491
2014-08-12,-1,-0.0012882862842287929,-0.0010375569490746425,-0.002989254610706348,0.005397642327095971,0.9941587592902241
2014-08-14,-1,-0.000628931451991098,-0.0004635222130426861,-0.0038554293337724845,0.0030494377225707735,0.9934235524985574
2014-08-18,-1,-0.0005508463667705398,-0.0003878227310413177,-0.0038554293337724845,0.004099237377069938,0.9930842529366121
2014-08-20,1,0.0004277933351720949,0.00046547280868791365,-0.00646214943331133,0.0019231780888078758,0.9933785913971495
2014-08-22,-1,-0.000286283923053109,-0.00015663217461259183,-0.00646214943331133,0.0025921879285196467,0.9934816610051681
2014-08-26,-1,-0.0003130452097081605,-0.00018409981190408266,-0.0068825078241681005,0.0019313274701553587,0.9932916501440031
2014-08-28,-1,-0.00034693671236161447,-0.00022118697966587556,-0.007864824179600318,0.002745471390321619,0.992115461247117
2014-09-02,1,0.00032015790289506286,0.0003508348979680675,-0.007864824179600318,0.0016613441045526373,0.9923123285434212
2014-09-04,-1,-0.00048192298414036173,-0.00031705437219761256,-0.008306056139330213,0.0016613441045526373,0.9924931523902025
2014-09-08,0,-7.457094294874641e-05,8.526991208514023e-06,-0.008306056139330213,0.002745471390321619,0.9922385497819931
2014-09-10,-1,-0.0006613914277499744,-0.0005342586440375263,-0.007471462333046113,0.004512012857186396,0.9916732896595729
2014-09-12,-1,-0.0015428159391146232,-0.0013295099040850152,-0.006781592344560072,0.004512012857186396,0.9929443601222356
2014-09-16,-1,-0.0009882082240152473,-0.0008433991379468732,-0.006781592344560072,0.004512012857186396,0.9927612646559362
2014-09-18,-1,-0.0012940634151913108,-0.0011250312034858704,-0.005388171130837484,0.004512012857186396,0.9929221659005405
2014-09-22,-1,-0.0015275128458425952,-0.0013413116478390875,-0.00510737229149609,0.00901898048303416,0.9926648843302035
2014-09-24,-1,-0.0018541564808580923,-0.0016356717618258695,-0.0029017255368925686,0.010987320551963524,0.9917251040044531
2014-09-26,-1,-0.0017964638806268773,-0.001576980094290351,-0.0015924238857419769,0.01055450520587064,0.991882388462826
2014-09-30,-1,-0.0018543030205299376,-0.0016345346372162832,0.00023492106953516243,0.01055450520587064,0.9915108151265272
2014-10-02,-1,-0.002298363178557332,-0.0020135819862877884,0.0012923926324444296,0.01055450520587064,0.9907359164464982
2014-10-06,-1,-0.0014252673626596432,-0.0012471646065473295,0.0012923926324444296,0.013317484830854806,0.9907232408554553
2014-10-08,-1,-0.0004016347420064197,-0.0003571861493656472,0.0008218525244656958,0.01220110956730584,0.9926486848341836
2014-10-10,-1,-0.0006161213083830976,-0.0005142733003727887,-0.0010229580559945974,0.01220110956730584,0.9920535285114478
2014-10-14,0,-1.7216180234092115e-05,1.8073358302024784e-05,-0.0032708892318900114,0.008817004817371812,0.9924540647535304
2014-10-16,1,0.00020881119049239214,0.0002364066094080585,-0.0034651199416102776,0.008817004817371812,0.9921999979438713
2014-10-20,1,0.0003724291197305373,0.0004092904478289962,-0.0034651199416102776,0.008816204778084624,0.9920988519983692
2014-10-22,1,0.0013481085742584847,0.001536735246181491,-0.00576884355089373,0.007601633821576756,0.9928730620849112
2014-10-24,1,0.0021004701366503144,0.0023946773810443,-0.00576884355089373,0.007536170081963123,0.9933432899169465
2014-10-28,1,0.0024414174630705294,0.0028076036594616893,-0.00576884355089373,0.007536170081963123,0.9932637153652187
2014-10-30,1,0.0024202863813003747,0.002719351225744621,-0.00576884355089373,0.006771170094705783,0.9932508608239996
2014-11-03,1,0.0031738803948400205,0.00353969003739495,-0.00576884355089373,0.005780976842168847,0.9938880188677095
2014-11-05,1,0.0028119962073374725,0.0031341911728960366,-0.00453922371460368,0.005780976842168847,0.9941406806633954
2014-11-07,1,0.002665747607214984,0.003008844843196192,-0.004113684526185003,0.005780976842168847,0.9945305813940268
2014-11-11,1,0.002956390561246566,0.0033823270876613687,-0.0036110685103637324,0.005346273861099553,0.9947579578735147
2014-11-13,1,0.002668701268443717,0.003035045831797884,-0.003518787013707269,0.004859503906389174,0.9949168580464118
2014-11-17,1,0.0022326086923474655,0.002496979506252173,-0.0036369902304655482,0.004486548928407475,0.9951420675743718
2014-11-19,1,0.0021037789310639566,0.0023570584189237676,-0.003518787013707269,0.005601368965326496,0.9948668881778167
2014-11-21,1,0.0024338294665972758,0.002740053440699581,-0.003518787013707269,0.005601368965326496,0.9947813179848916
2014-11-25,1,0.0026445303733254773,0.0029667769147609093,-0.003518787013707269,0.0052295183940095046,0.9944275101611318
2014-11-28,1,0.0031602788760954383,0.0035571944769309492,-0.003518787013707269,0.0048128135063783654,0.9944681824856768
2014-12-02,1,0.0032310421026024764,0.003638595568514913,-0.004113684526185003,0.00353682736151846,0.9931679006442846
2014-12-04,1,0.0030140985824958057,0.0033916729634319116,-0.003836840036215614,0.00546129776529407,0.9930341919034055
2014-12-08,1,0.002989079113846459,0.0033639471905520463,-0.0029124130548279226,0.007292018255308766,0.9922638337720582
2014-12-10,1,0.0029489617938415306,0.0033242371974956803,-0.0029124130548279226,0.007292018255308766,0.9924244910381027
2014-12-12,1,0.0028883435394830856,0.003271780219754627,-0.0024168825140547757,0.007292018255308766,0.9927051876211205
2014-12-16,1,0.0020673846809965975,0.0023137120823896805,-0.0008548345942414921,0.009957553638156818,0.9925854536914812
2014-12-18,1,0.002885583134446915,0.003234761631354487,-0.002272204426675116,0.009957553638156818,0.9922143693955799
2014-12-22,1,0.0025169188546686895,0.0027130089895377233,-0.002272204426675116,0.009957553638156818,0.9912882612955431
2014-12-24,1,0.0021018288955039284,0.002236626227711357,-0.0006478259471045771,0.011759724192502027,0.9910389746564939
2014-12-29,1,0.0019736646594743735,0.002068999972569582,-0.0016345930466318285,0.011759724192502027,0.9907481975643153
2014-12-31,1,0.0006288560712469173,0.0007025232336887847,-0.00035689609987372837,0.011759724192502027,0.9906701974382013
2015-01-05,1,0.0017526453873622334,0.0018504353270249066,-0.00035689609987372837,0.01069134855054581,0.9912886083735348
2015-01-07,1,0.003128687269041656,0.0034377787650936753,-0.0016345930466318285,0.01069134855054581,0.9916944701585069
2015-01-09,1,0.003109849206430441,0.003421764615067529,-0.007523530131493273,0.01069134855054581,0.989009615540494
2015-01-13,1,0.0038174162855929873,0.004267701935550301,-0.007523530131493273,0.011556961561809392,0.988352360615335
2015-01-15,1,0.004048185151203003,0.00448993690571705,-0.008200206677790395,0.011260953252371695,0.9881294782231397
2015-01-20,1,0.0038659983205111465,0.004274473421314692,-0.007523530131493273,0.010632756364958747,0.9891691625164057
2015-01-22,1,0.004631573916382671,0.005129538345307798,-0.008200206677790395,0.010632756364958747,0.9882363556283393
2015-01-26,1,0.005033079494483103,0.005605555850599608,-0.010220427148826405,0.010632756364958747,0.9867135060864028
2015-01-28,1,0.004419151490914868,0.004887649257175549,-0.011236025778056505,0.010632756364958747,0.9865859518265743
2015-01-30,1,0.003586626635776404,0.00393971862039006,-0.009570438367707615,0.010632756364958747,0.9878997365430147
2015-02-03,1,0.0034902918731887713,0.003772684034443697,-0.011236025778056505,0.00784544182600701,0.9871005352433577
2015-02-05,1,0.002604826087181897,0.0027058314146072436,-0.012303863470301367,0.007845169465491363,0.9863229426602379
2015-02-09,1,0.00042675971430913986,0.00056352054203277,-0.009570438367707615,0.00962118190114131,0.9889429996745418
2015-02-11,1,0.0003178665676216222,0.0004962266919311946,-0.009570438367707615,0.00962118190114131,0.9889218296991261
2015-02-13,0,-6.140540894741646e-05,0.00018607153836767737,-0.004603265539485916,0.00962118190114131,0.9890989547777665
2015-02-18,-1,-0.0003884425998349129,-7.891715343094966e-05,-0.005485278586316715,0.011746684345462931,0.9879387246948217
2015-02-20,-1,-0.0006192849323372917,-0.0002808336763126083,-0.00288638106336972,0.011746684345462931,0.98853133301437
2015-02-24,-1,-0.0016281968208253612,-0.00115579660526228,-0.0033795698919037763,0.00962118190114131,0.9898849641368569
2015-02-26,-1,-0.0025232603351089495,-0.0019193788891880793,-0.005551239872339538,0.00962118190114131,0.9888333091060043
2015-03-02,-1,-0.0021013058807517896,-0.0015752221807763416,-0.005551239872339538,0.012049179020062287,0.9880621209021596
2015-03-04,-1,-0.002480432515535335,-0.0019436296166889606,-0.007706929486511899,0.012049179020062287,0.9879655074673029
2015-03-06,-1,-0.0034437454041661222,-0.0027996445583210773,-0.004503588987500503,0.013512894582614577,0.9886755831227132
2015-03-10,-1,-0.002781948837783226,-0.0022368905460503396,-0.007706929486511899,0.013512894582614577,0.9887709113100372
2015-03-12,-1,-0.0022460215735210813,-0.0017537807049708262,-0.0109411427932535,0.009827309245196711,0.9883672389901542
2015-03-16,-1,-0.0017069000796573381,-0.0012884817481964334,-0.0109411427932535,0.00654692026341848,0.9886580794990407
2015-03-18,-1,-0.0004096192247955171,-0.00017737248278121601,-0.011413900578687559,0.003495359792223764,0.9893679378436897
2015-03-20,1,0.0008766176804482651,0.0009268885978607772,-0.011413900578687559,0.00266474113792222,0.9900382746360452
2015-03-24,1,0.0002329596842324419,0.0003558725492613136,-0.011413900578687559,0.00266474113792222,0.9905872967716892
2015-03-26,-1,-0.0008565229440352223,-0.0006323057058139897,-0.007149643284687883,0.003495359792223764,0.991784578274162
2015-03-30,1,0.0006245000954627137,0.0006262005530836232,-0.007149643284687883,0.0030277642574473465,0.9922754432252692
2015-04-01,-1,-0.0006288804803762678,-0.0004655826141494007,-0.009468260016542024,0.0030277642574473465,0.9910972135992651
2015-04-06,0,-0.00011496690866674583,1.2042392979621423e-05,-0.009468260016542024,0.0030277642574473465,0.9914903330109439
2015-04-08,-1,-0.0009764269130017437,-0.0007467205765183252,-0.009468260016542024,0.0030277642574473465,0.991236674007981
2015-04-10,-1,-0.0018948142990945832,-0.0015512509860608906,-0.007076066539968396,0.004520450890982307,0.9912678055987916
2015-04-14,-1,-0.0020833078902291503,-0.001718003304285774,-0.009468260016542024,0.004520450890982307,0.990859302301202
2015-04-16,-1,-0.0026710044103596194,-0.002228024216940652,-0.007439065877356519,0.006317520810189443,0.9900281189508365
2015-04-20,-1,-0.0028273919642819462,-0.0023798166025905962,-0.005615024026437431,0.006553442461432624,0.9899812691793104
2015-04-22,-1,-0.0028763985787728192,-0.002440611332342861,-0.005595379570206267,0.006553442461432624,0.9900465148621278
2015-04-24,-1,-0.0021361482353360562,-0.0018137397934810623,-0.00636062819419362,0.006302691013318403,0.9905399872497925
2015-04-28,-1,-0.0020876410572663153,-0.0017784183329309193,-0.008467935200445375,0.006553442461432624,0.9897861819903767
2015-04-30,-1,-0.004184202624760134,-0.0036245929033789865,-0.00636062819419362,0.006553442461432624,0.9908826274598183
2015-05-04,-1,-0.003643213402518446,-0.0031479452028654797,-0.007756067025911925,0.00781697210033595,0.9909020922982633
2015-05-06,-1,-0.004488830146840418,-0.0038920989862584795,-0.007756067025911925,0.00781697210033595,0.9916261005074011
2015-05-08,-1,-0.0034328729926621933,-0.002953602765591964,-0.010225549892163774,0.0006170441650469372,0.9928116649031384
2015-05-12,-1,-0.00442751057244071,-0.0038052450609351264,-0.01009780918864904,0.0025602194137108016,0.9927028183476303
2015-05-14,-1,-0.0032761866727244013,-0.002832853024824598,-0.01009780918864904,0.00232220524852961,0.9935063872368727
2015-05-18,-1,-0.0027371044148554987,-0.0023882602679672,-0.01009780918864904,0.00232220524852961,0.9933448838331917
2015-05-20,-1,-0.002931501954411049,-0.0025521322653125744,-0.01009780918864904,0.007694050322584857,0.9919694732904625
2015-05-22,-1,-0.0029107960059962987,-0.0025448200534071417,-0.010853934413822859,0.007694050322584857,0.9915259856070453
2015-05-27,-1,-0.0035903301121914316,-0.003091668652144747,-0.01074983882678843,0.006109715435841023,0.9925962824169601
2015-05-29,-1,-0.003596343402502224,-0.003139021716192487,-0.01009780918864904,0.006109715435841023,0.9930306101584995
2015-06-02,-1,-0.002626736034340552,-0.002343625282882589,-0.01074983882678843,0.0017209790043201637,0.9929569313389658
2015-06-04,-1,-0.003137438450558031,-0.002800980106976069,-0.007787630851580224,0.007529127944103266,0.9924985300922421
2015-06-08,-1,-0.0033077798723195094,-0.0029755948780537623,-0.006002936369198259,0.007911314438781757,0.9911047521195446
2015-06-10,-1,-0.002749356152852031,-0.002518452700644393,-0.006002936369198259,0.007694050322584857,0.9913123689765759
2015-06-12,-1,-0.0024971685160892305,-0.0023016160878333537,-0.006002936369198259,0.007911314438781757,0.9907771922813547
2015-06-16,-1,-0.0014439864260355436,-0.0014244264819021403,-0.006002936369198259,0.007866744666588106,0.9907898504733229
2015-06-18,-1,-0.00025918559443110573,-9.754410831831924e-05,-0.006002936369198259,0.007716678878837732,0.9915891643870505
2015-06-22,-1,-0.0009299246571733334,-0.0008633356087386087,-0.00507884766193607,0.007716678878837732,0.992209870654844
2015-06-24,-1,-0.0014260994484956001,-0.0014035212850825839,-0.00507884766193607,0.008582624696233467,0.9912248930118585
2015-06-26,-1,-0.0011425136619139143,-0.0010914194305117451,-0.003977618215630949,0.008582624696233467,0.9911447532038488
2015-06-30,-1,-0.001867002647699985,-0.0018328373547657685,0.0012350454921083828,0.008582624696233467,0.9913782300497698
2015-07-02,-1,-0.0022175459358798337,-0.002047643152761574,-0.0006119896509801417,0.009426672742590248,0.9916147031063102
2015-07-07,-1,-0.0006204397597738984,-0.0005777580773861593,-0.0027528408888634623,0.007328139262590202,0.9929941998360554
2015-07-09,-1,-0.0005350030771429508,-0.0004722427250430834,-0.0027528408888634623,0.007432992787605415,0.993012242314189
2015-07-13,1,0.00021088868565780528,0.00038513217641140236,-0.003977618215630949,0.0063902403926145305,0.9935275401437282
2015-07-15,1,0.0005836424376592989,0.0008088533914456046,-0.003977618215630949,0.009112491246029157,0.9931070390300569
2015-07-17,1,0.0006440370084614844,0.0008478044180486495,-0.0030629713608022638,0.007432992787605415,0.9934551581449943
2015-07-21,1,0.00036921810552188945,0.0005184801053031721,0.000623055841128241,0.007432992787605415,0.9931535716387302
2015-07-23,1,0.00029297928166508493,0.0004456126842977775,-0.003631662378836238,0.006493609569598443,0.9934115091430903
2015-07-27,1,0.00032260852932407806,0.0004487517237632076,-0.008807131540550019,0.006493609569598443,0.9899704709539706
2015-07-29,1,0.00023562675074057706,0.0003107481393269196,-0.00934193511153237,0.007503177661075222,0.9867380236198852
2015-07-31,1,0.0007586757872714814,0.000928031238561091,-0.009640953750847442,0.007503177661075222,0.9864705389919464
2015-08-04,1,0.0013991277634925426,0.001696010092817482,-0.013130818537165315,0.006493609569598443,0.9853244690623089
2015-08-06,1,0.0015525048589095872,0.0018941820442452198,-0.013130818537165315,0.007100232304719562,0.9856734825737187
2015-08-10,1,0.001788469043436094,0.0022073453743468134,-0.022213482107386478,0.009432383162235623,0.984429786606955
2015-08-12,1,0.002967842489847101,0.0035973840127650693,-0.022213482107386478,0.007015639453725236,0.9840101621955156
2015-08-14,1,0.0031813392277918297,0.0038188811901864747,-0.022213482107386478,0.009178604609252645,0.9828799656269822
2015-08-18,1,0.0029269648219863876,0.0034627288582548396,-0.022213482107386478,0.011655712962299693,0.9820667376660097
2015-08-20,1,0.002736371566901513,0.0032924347909876568,-0.022213482107386478,0.012498741514572906,0.9825042940274072
2015-08-24,0,-8.731250428038685e-05,5.2887210533434053e-05,-0.011440944766306771,0.012498741514572906,0.984892526805356
2015-08-26,1,0.0008338374029828263,0.001143815474349013,-0.010340169392647647,0.011321359296827987,0.9877317222747246
2015-08-28,1,0.0006413920363191605,0.0008902037087489064,-0.01348208955972032,0.010989380081698287,0.9873907619511464
2015-09-01,-1,-0.0010872540683735338,-0.0010770190801133333,-0.003671621823053941,0.013564251416215197,0.9873435565091325
2015-09-03,-1,-0.0005856459062416714,-0.0005358178764444513,-0.003671621823053941,0.013947423501109574,0.987273768198436
2015-09-08,-1,-0.0009470719029600298,-0.0009341637182748414,-0.003671621823053941,0.013947423501109574,0.9878648424324831
2015-09-10,-1,-0.001276441951206017,-0.0012164065395651286,0.001407188565366721,0.01442942483392352,0.9875426040045965
2015-09-14,-1,-0.0004875387621637201,-0.0004605158854117855,-0.0005252630173679263,0.01442942483392352,0.9878851566908312
2015-09-16,1,0.0006860291102046227,0.0008921000033990313,-0.00957600002280941,0.01442942483392352,0.9884402422214815
2015-09-18,1,0.0015012688663505172,0.0018163302230337866,-0.00957600002280941,0.01461753517569071,0.9888227514267602
2015-09-22,1,0.0004759844747767272,0.0005484502122783018,-0.0053390607657957945,0.01461753517569071,0.9882268888468726
2015-09-24,1,0.0005265610475344124,0.0006324051885384617,-0.00449439513453617,0.015176584699345033,0.9879943286659526
2015-09-28,-1,-0.00025889246762849586,-0.0002212517701993695,-0.002944312350526695,0.015176584699345033,0.9884226053418913
2015-09-30,1,0.0013512698505948836,0.0015785938811056935,-0.002944312350526695,0.014512060400866097,0.9896448300728706
2015-10-02,1,0.0016414089801976644,0.00187025480531467,-0.00449439513453617,0.013649756060315375,0.9897537050859406
2015-10-06,1,0.0020133116413559304,0.0023186997714609893,-0.0041463694473926295,0.013649756060315375,0.9898457279374917
2015-10-08,1,0.0030295958067249875,0.0034745200953412853,-0.00547433079099487,0.01262205200785773,0.9903918522327861
2015-10-12,1,0.0031221728708640184,0.0035701957832081424,-0.007373167841890901,0.010094099079848354,0.9887182077337681
2015-10-14,1,0.0021630097894942855,0.0024712302995439344,-0.00547433079099487,0.012221344664310812,0.9892981989186963
2015-10-16,1,0.0028507124673673345,0.003244769993552302,-0.008801395269029505,0.01145729652496915,0.9886697955341008
2015-10-20,1,0.002819850184979072,0.0031760815766937837,-0.008801395269029505,0.011362809531535865,0.9890245545228051
2015-10-22,1,0.003214261130687321,0.0036253016413918104,-0.008801395269029505,0.011362809531535865,0.9897055456119994
2015-10-26,1,0.0029565082102874004,0.003295449271453847,-0.01047081211253816,0.011362809531535865,0.9892737841549195
2015-10-28,1,0.0033272083098169927,0.003677577022397445,-0.01047081211253816,0.007934062654572685,0.989439345500668
2015-10-30,1,0.002687717662527834,0.0029436420188924377,-0.010201370708023539,0.010852764468020663,0.9893928471561495
2015-11-03,1,0.003012499216279153,0.0033055097817654114,-0.011262580805747399,0.010852764468020663,0.9883210277231241
2015-11-05,1,0.0026857691317103563,0.0029446902433696923,-0.013010706307430037,0.011362809531535865,0.9870707773103856
2015-11-09,1,0.0011923351865412843,0.0013009516030165972,-0.009065318166765918,0.011362809531535865,0.9893345639429824
2015-11-11,1,0.0014999011336611296,0.0015992010965048958,-0.010401352949392817,0.007809220608180274,0.9897075226489079
2015-11-13,1,0.0002729310775246107,0.00035325059102947503,-0.006361136044948826,0.007809220608180274,0.9906030383649416
2015-11-17,1,0.00062968406423409,0.0006837988953896781,-0.006361136044948826,0.011310681801659825,0.9892048508605936
2015-11-19,1,0.0005117533040867393,0.0006338266859246816,-0.010401352949392817,0.007809220608180274,0.9887572459578734
2015-11-23,1,0.0004662815901177217,0.0005664233834419035,-0.008512443722069836,0.011052142918680508,0.9890829124651392
2015-11-25,1,0.0009345507998489771,0.0009491236983528535,-0.008512443722069836,0.012283343292816589,0.9885553761434874
2015-11-30,1,0.0007549750810974148,0.0007706640732196154,-0.005797253686045605,0.012283343292816589,0.9888068549193301
2015-12-02,1,0.0008368819794896299,0.0008625843808164797,-0.008115799487930526,0.011727116360804798,0.990082289275599
2015-12-04,1,0.0004380786322192462,0.0004470817647475198,-0.008115799487930526,0.011727116360804798,0.9892034649116791
2015-12-08,1,0.00033907845433434953,0.0003471880867028469,-0.009328124806546758,0.011727116360804798,0.9878036774617796
2015-12-10,-1,-0.00018206575936966613,-0.00010343665831048646,-0.009372567312872736,0.012559940596780055,0.9867667647440078
2015-12-14,-1,-0.00030391882055786685,-0.00019631195367634933,-0.010726430327171741,0.012559940596780055,0.9864882592156953
2015-12-16,1,0.001319307418800812,0.001424363653849115,-0.010726430327171741,0.008005167795667206,0.9881125530137627
2015-12-18,1,0.0005678155690939859,0.0005856202490740323,-0.010726430327171741,0.011727116360804798,0.9881350499846095
2015-12-22,1,0.00107577545254348,0.001173838474583312,-0.010726430327171741,0.012694864964542972,0.9864813811403889
2015-12-24,1,0.0015694356076151224,0.0017441716694099004,-0.012320675070758152,0.013118649966669851,0.9854935060742296
2015-12-29,1,0.0020167004529645233,0.0022428755621471935,-0.012320675070758152,0.013118649966669851,0.9854514279651025
2015-12-31,1,0.0011998592379394066,0.0013039577259840215,-0.012320675070758152,0.017145454941073657,0.9851740000756577
2016-01-05,1,0.0016131789076258918,0.0018079484328479738,-0.01135437389090797,0.017046208114972653,0.986856410443172
2016-01-07,1,0.0006393428818961828,0.0007219743089921884,-0.009277265588298389,0.017046208114972653,0.9879840416348351
2016-01-11,1,0.0007744479997985924,0.0008940108498370989,-0.009277265588298389,0.014304368915526585,0.9880811950224453
2016-01-13,-1,-7.856533617170726e-05,-5.235240604766038e-05,-0.010576819380351883,0.014304368915526585,0.987377630916483
2016-01-15,-1,-0.0014213499221270493,-0.0011118193253660514,-0.010576819380351883,0.014304368915526585,0.987204757509456
2016-01-20,-1,-0.0013797764153033795,-0.0010897270841721046,-0.009063165745394,0.012220976864953917,0.9878735182777252
2016-01-22,1,0.00021286655582646187,0.00031872517240209727,-0.009063165745394,0.006926918117388712,0.9900208064025513
2016-01-26,-1,-0.0006580676346715024,-0.0003694926034857695,-0.009063165745394,0.006047531848591723,0.9907799905936087
2016-01-28,-1,-0.0009703012347148272,-0.0006616600083583886,-0.009063165745394,0.006926918117388712,0.989469915340107
2016-02-01,0,-0.00022884788138741424,2.036976905950749e-05,-0.009063165745394,0.006926918117388712,0.9898674324858425
2016-02-03,0,-3.4293640027110214e-05,0.0002067547417942922,-0.009063165745394,0.006047531848591723,0.990682139653845
2016-02-05,0,-1.2860671648574494e-05,0.00019079883742346504,-0.007577758953581269,0.006047531848591723,0.9908893743708937
2016-02-09,-1,-0.00031888276426597184,-0.00012035830876032231,-0.0060086068069560485,0.0051253580392850604,0.9920979431966392
2016-02-11,-1,-0.0009347615683275898,-0.000699235419018366,-0.0021890194518495564,0.006926918117388712,0.9923689311580757
2016-02-16,-1,-0.00078598902325496,-0.0005595066917219206,-0.0021890194518495564,0.007096491020898393,0.9923222315029359
2016-02-18,-1,-0.0006859575377673578,-0.00045729563473191864,-0.0021890194518495564,0.009816905320992202,0.9911690489785879
2016-02-22,-1,-0.0006753130972855506,-0.00042297471434722754,-0.0060086068069560485,0.009816905320992202,0.98983884007327
2016-02-24,-1,-0.0008162921665566733,-0.0005978200311887213,-0.004727460402408813,0.009816905320992202,0.9900781676664269
2016-02-26,-1,-0.0003480356327649698,-0.00021357079663092903,-0.0021890194518495564,0.00806848898821651,0.9915178655947549
2016-03-01,1,0.00058981875985525,0.0006108030730570275,-0.00458033945523929,0.00806848898821651,0.9912692587910341
2016-03-03,1,0.0012553573214390424,0.0013697756456490838,-0.005207885685541818,0.00806848898821651,0.9911676658578717
2016-03-07,1,0.0010718464607613486,0.0011703112307382044,-0.0057839960551511315,0.00806848898821651,0.9906717553063145
2016-03-09,1,0.0004987064724262212,0.0005184131050128363,-0.007633354353808873,0.00906374054287979,0.9899863317040938
2016-03-11,1,0.0012606884484719298,0.0013790459752924306,-0.007633354353808873,0.00788574323708914,0.9905339319839657
2016-03-15,1,0.0016813460225266349,0.0018697042954153877,-0.007633354353808873,0.00788574323708914,0.9906324312931263
2016-03-17,1,0.0028204312600902783,0.003177892259201137,-0.007633354353808873,0.004926793929368072,0.9916080087901777
2016-03-21,1,0.0015871728218929573,0.001787721346909518,-0.0053903572543319185,0.004926793929368072,0.9936392139885627
2016-03-23,1,0.0018061449702185474,0.0020743657893704786,-0.006452437951351234,0.004926793929368072,0.9927296492539652
2016-03-28,1,0.0017951048466217662,0.002037595956833309,-0.006452437951351234,0.006473470653827999,0.9922964096004168
2016-03-30,1,0.002703658944488904,0.0030919322804133756,-0.006452437951351234,0.005445849390227796,0.9937594189951936
2016-04-01,1,0.002357924698443171,0.0026815515841428477,-0.009213526798797816,0.005445849390227796,0.9929031275794789
2016-04-05,1,0.0009462779754136853,0.0009859755581423989,-0.0070554731085501945,0.006473470653827999,0.9929361817548991
2016-04-07,1,0.0011752898482843106,0.001282354949799881,-0.002269738247756622,0.007640583301595762,0.9928880096548997
2016-04-11,1,0.0009826390649472479,0.001017224076358817,-0.002269738247756622,0.00831607466951962,0.9925043615930632
2016-04-13,1,0.0014743929039087477,0.001597987083604215,-0.0070554731085501945,0.007640583301595762,0.992249467953776
2016-04-15,1,0.0016145833810431655,0.0017834916669228714,-0.010473222012945028,0.007640583301595762,0.9916092911612369
2016-04-19,1,0.001447375482321136,0.0015820877707515653,-0.011231656783830386,0.008804998525804538,0.9889663369661513
2016-04-21,1,0.0005670233531494874,0.0005718440631273118,-0.010473222012945028,0.008804998525804538,0.9887939638844082
2016-04-25,1,0.0010816159217168298,0.0011515771951896956,-0.010473222012945028,0.0058348869394837174,0.9894441041652614
2016-04-27,1,0.0012306398375936042,0.0013104558507784818,-0.010473222012945028,0.00894392017605494,0.9888736890797588
2016-04-29,1,0.0001720898887351469,0.0002536417070044975,-0.005568859721143624,0.010279353309099258,0.9894141088215053
2016-05-03,1,0.0004156037495134752,0.00048136243798401564,-0.005568859721143624,0.009262151698507658,0.9896811089502764
2016-05-05,1,0.0009212126234239567,0.0009484816221702658,-0.005568859721143624,0.009262151698507658,0.9901984073068895
2016-05-09,1,0.0012927233482439193,0.0013104887640983766,-0.005824630677969633,0.006225137715147305,0.9903473267890255
2016-05-11,1,0.0015078871871501201,0.001632112672759782,-0.005568859721143624,0.009262151698507658,0.9907093439009499
2016-05-13,1,0.00029135736520822923,0.0003685466411348496,-0.001407832897430138,0.009262151698507658,0.9913352217393059
2016-05-17,-1,-0.00044781436188169046,-0.00030225861947325694,-0.00132366409745268,0.007968953803501598,0.9935182631425115
2016-05-19,-1,-0.0011730357059554592,-0.0009643980806541153,-0.0008191941351383484,0.007968953803501598,0.9942062848261773
2016-05-23,-1,-0.0006699854273306022,-0.0005499148818024879,-0.0005261379720983041,0.007968953803501598,0.9940732345388523
2016-05-25,-1,-0.0005197218820563614,-0.0003841013257699865,0.0004203587370549042,0.006722890018397307,0.9949296668953193
2016-05-27,0,-5.8446930072512905e-05,1.9080147336388004e-05,-0.0007698637720717534,0.006722890018397307,0.9947826393038413
2016-06-01,-1,-0.00046954486932461524,-0.0002776631205481711,-0.0007698637720717534,0.00847528815846237,0.9937378152026213
2016-06-03,0,-7.64320863208632e-05,7.162393072647748e-05,-0.002139010297350486,0.008524637804593284,0.9936740703262292
2016-06-07,-1,-0.0005849729698662337,-0.00034644698190482615,-0.002139010297350486,0.011705351114744524,0.9930374585355177
2016-06-09,0,-7.78637125141132e-05,9.17697854443645e-05,-0.002727745949899094,0.010549704975343284,0.9929265118356775
2016-06-13,-1,-0.0003893067866573214,-0.00016747374561657143,-0.003997350954344113,0.010549704975343284,0.9922196489929876
2016-06-15,1,0.0007010316456746495,0.0007143659273809686,-0.005014610142963554,0.010549704975343284,0.9922105207293411
2016-06-17,1,0.0006686373186746146,0.0006786402489072111,-0.005014610142963554,0.010549704975343284,0.9923280008950198
2016-06-21,1,0.0007146723791060246,0.0007441647654490154,-0.005014610142963554,0.010549704975343284,0.9925094725880083
2016-06-23,1,0.0013139484752302563,0.0014176926497976164,-0.005014610142963554,0.010549704975343284,0.9925348203005773
2016-06-27,1,0.0019358393979870847,0.002149309798559576,-0.004293194491527932,0.0068427136355625915,0.9930428924203065
2016-06-29,1,0.0027994430198144404,0.003109348566939695,-0.004315005531931701,0.005509361693621756,0.9928151314143001
2016-07-01,1,0.002542905193820345,0.002772496464749911,-0.004138162104127481,0.005509361693621756,0.9935236607052919
2016-07-06,1,0.0021931930889575397,0.002308477030056687,-0.00469974966883573,0.005421383013880278,0.9933239838802016
2016-07-08,1,0.0022077096172612694,0.002336682033182591,-0.00469974966883573,0.0030270699454638143,0.9935796788485514
2016-07-12,1,0.0020721818016826063,0.002195271588599542,-0.004138162104127481,0.0021933623451175117,0.9942213632834661
2016-07-14,1,0.0020078857839494696,0.0021383871943254154,-0.004138162104127481,0.0012607887116995126,0.9935370153925427
2016-07-18,1,0.0014100558618653756,0.0014102071575871147,-0.004138162104127481,0.0021933623451175117,0.9938844210067938
2016-07-20,1,0.0015079286858139822,0.001523780603547634,-0.00469974966883573,0.0021933623451175117,0.9919747153023248
2016-07-22,1,0.001996352089816147,0.002125299941632062,-0.006567619797014613,0.0007859449679568362,0.9910731662908913
2016-07-26,1,0.0017497996446881607,0.0018602076290665558,-0.006567619797014613,0.0022929685334304225,0.9910244446467015
2016-07-28,1,0.0021701484012365928,0.002314605433236124,-0.006567619797014613,0.0022929685334304225,0.9918987883147168
2016-08-01,1,0.0023339525596329184,0.0024851463903651453,-0.007831567766247,0.0008982375465066924,0.990919253407337
2016-08-03,1,0.001647198907526867,0.0017329461707655258,-0.0063463425665743825,0.0024086214044875234,0.9923756681714583
2016-08-05,1,0.0013698906006142635,0.0014393874941170622,-0.0036722531845693363,0.0032358585645790583,0.9927479896885865
2016-08-09,1,0.0019420556335418338,0.0021624622593632258,-0.003950609343671643,0.005123753650074773,0.9918105578103008
2016-08-11,0,-1.8115555100284937e-06,0.00011706827181505312,-0.006643606346804497,0.005123753650074773,0.9907004397926634
2016-08-15,-1,-0.00014991896724166867,-5.372202068652625e-06,-0.008723359106937343,0.006024285794448093,0.988641467318453
2016-08-17,-1,-0.0006664591385648755,-0.00047559609235484307,-0.006643606346804497,0.005123753650074773,0.9907832259186097
2016-08-19,-1,-0.0006443364221719178,-0.0005021425289876609,-0.003950609343671643,0.006024285794448093,0.9907298116719173
2016-08-23,-1,-0.0006459965850839227,-0.0004991605689999435,-0.002382846299934103,0.006356843806790957,0.9906581615570175
2016-08-25,-1,-0.0009353444021026158,-0.0007203580170075303,-0.002382846299934103,0.010089869874456696,0.9898190288386497
2016-08-29,-1,-0.0008260700867393577,-0.0006166057898248567,-0.002382846299934103,0.006864319906344079,0.9901577010730074
2016-08-31,-1,-0.0006188362692918093,-0.0004493307328433779,-0.0045701727559806105,0.007901185112982455,0.9888628581856461
2016-09-02,-1,-0.000250941317089347,-0.00014512353679549237,-0.012280676634033788,0.007901185112982455,0.987192065575144
2016-09-07,1,0.0001787370123878699,0.00022991939659126472,-0.014491674491042387,0.007901185112982455,0.9865967031812054
2016-09-09,-1,-0.0018512313873383342,-0.0015608394116433245,-0.012280676634033788,0.007901185112982455,0.9884880445240318
2016-09-13,-1,-0.002825794218037638,-0.0023741461956317553,-0.006306238304660084,0.007265199488861433,0.990113090272355
2016-09-15,-1,-0.002342015656477377,-0.001981151105954041,-0.006306238304660084,0.007265199488861433,0.989674414581017
2016-09-19,-1,-0.001908870562718906,-0.0016140347526210073,-0.009948333934345823,0.007183988080078041,0.9897494508052084
2016-09-21,-1,-0.0018916653629484949,-0.0015593892305805642,-0.009948333934345823,0.006614200884506236,0.9902722809844958
2016-09-23,-1,-0.0008630110676407058,-0.0006734490246184073,-0.009948333934345823,0.006131633014137229,0.9913537467125063
2016-09-27,-1,-0.0006008806015696819,-0.0004846145206924179,-0.008208851571782118,0.006131633014137229,0.9916867793248949
2016-09-29,-1,-0.0008278589321334655,-0.0007117901615626344,-0.009948926194313264,0.0033878535101471057,0.9910199991340349
2016-10-03,-1,-0.00263307928217006,-0.0022847408325280994,-0.006244005689728468,0.006131633014137229,0.992395312586216
2016-10-05,-1,-0.003580418151191047,-0.003082112839382085,-0.008208851571782118,0.0033878535101471057,0.9918036610733932
2016-10-07,-1,-0.0037715408504707384,-0.0032125973564749036,-0.00925548967615545,0.0026796902698040803,0.991777463134609
2016-10-11,-1,-0.004133344854657756,-0.0034882965941322314,-0.00925548967615545,0.003908160188585071,0.990231551066075
2016-10-13,-1,-0.003489420446751068,-0.002932342730944658,-0.010835902084236872,0.0026796902698040803,0.9897823627901666
2016-10-17,-1,-0.003681223638959865,-0.0031281990976832954,-0.010835902084236872,0.004166091788983694,0.9888955746340844
2016-10-19,-1,-0.003333114701157545,-0.00283988013055376,-0.010835902084236872,0.004166091788983694,0.9891120011607883
2016-10-21,-1,-0.0031688312465961415,-0.002713636868105911,-0.015994433767083045,0.004166091788983694,0.9882411454472994
2016-10-25,-1,-0.003207904310623556,-0.002774806114957727,-0.015994433767083045,0.008148920303520466,0.9874059183823322
2016-10-27,-1,-0.004661053561118893,-0.0040596096329100426,-0.005782421950190022,0.010905893821644476,0.9881305357750446
2016-10-31,-1,-0.004011794741375768,-0.0035127310317324945,-0.008377150677402107,0.007983367483916641,0.9889038203578039
2016-11-02,-1,-0.005709304436247297,-0.0050113810042786925,-0.008377150677402107,0.007983367483916641,0.9892296975974457
2016-11-04,-1,-0.005642371091487094,-0.004965793248087584,-0.004846301907504624,0.011947817158837467,0.9882274184905347
2016-11-08,-1,-0.00438574450985681,-0.0038581611991374675,-0.004846301907504624,0.007983367483916641,0.9895787785250824
2016-11-10,-1,-0.004438394993822584,-0.003927263600106426,-0.004846301907504624,0.00764424751269249,0.9899558572218374
2016-11-14,-1,-0.003636629760432928,-0.003227517560538959,-0.004846301907504624,0.00764424751269249,0.9904914379956067
2016-11-16,-1,-0.0034602561734901243,-0.0030911768023061765,-0.013789719768905785,0.00764424751269249,0.9886866350982786
2016-11-18,-1,-0.0033023281006370597,-0.0030102528728745397,-0.009416836107319585,0.011243044916979205,0.9881841339588358
2016-11-22,-1,-0.002275985943064927,-0.002127783302336525,-0.013789719768905785,0.007977136511606942,0.9880526362044306
2016-11-25,-1,-0.0015359059744040455,-0.0014974078031145584,-0.013789719768905785,0.007018988907794354,0.9884328800035611
2016-11-29,-1,-0.0017569453900814155,-0.0017015125814496665,-0.013789719768905785,0.007018988907794354,0.9882437716500394
2016-12-01,-1,-0.002922732071225928,-0.0027330336753654963,-0.007146954127231697,0.008479840426545497,0.9884408064477128
2016-12-05,-1,-0.0019295491303604009,-0.0018598015750178258,-0.007146954127231697,0.009745797353705545,0.9882005063812144
2016-12-07,-1,-0.0010689573921355432,-0.0010336488578221955,-0.008760814957873536,0.007478053990515722,0.9889182719084414
2016-12-09,-1,-0.0011094804307108883,-0.0010626354241463922,-0.012278502661653002,0.007478053990515722,0.988527094429645
2016-12-13,-1,-0.00038366557129826043,-0.00022660664127992875,-0.012278502661653002,0.007478053990515722,0.9882218795591895
2016-12-15,-1,-0.0020265759715621477,-0.001968148298719389,-0.007355474004161271,0.008403955526116993,0.9898971869942115
2016-12-19,-1,-0.0006112746441026638,-0.00044471365102458863,-0.008662802280313173,0.007327622752994778,0.9904201746073091
2016-12-21,-1,-0.0006897912908778099,-0.0005037669616917045,-0.007355474004161271,0.008036888486100008,0.9910696153084321
2016-12-23,-1,-0.0011936678284491173,-0.001110656352955458,-0.00842411046328043,0.008036888486100008,0.9907347006131567
2016-12-28,-1,-0.001607036671597404,-0.001589441370470631,-0.008359609055905404,0.008036888486100008,0.9907685214043767
2016-12-30,-1,-0.0007802419498275252,-0.0006431031648867596,-0.008359609055905404,0.007092164835420145,0.9915190688059935
2017-01-04,1,3.574909611035932e-05,0.00023872551242765593,-0.010830069931498475,0.005639139334070374,0.9917737468286688
2017-01-06,1,0.00011136022656300275,0.00033535144176630996,-0.010830069931498475,0.005639139334070374,0.9920887389656935
2017-01-10,-1,-0.0009615711388957369,-0.0009040214573237557,-0.008359609055905404,0.007092164835420145,0.9921510673557762
2017-01-12,-1,-0.0007275029334926388,-0.0006561161862466956,-0.005407694481321734,0.007473663318458434,0.9923738916977184
2017-01-17,-1,-0.0002824488524337007,-0.00014258475020038642,-0.009616308138012172,0.006932613695409701,0.9921174409505218
2017-01-19,-1,-0.000786415958067469,-0.0006977757731039731,-0.009616308138012172,0.006932613695409701,0.9919449486002567
2017-01-23,0,-2.5243319364957428e-05,0.0001815892712171643,-0.009616308138012172,0.005766305495083137,0.9918007862704316
2017-01-25,0,-0.00013309948394311293,6.980542708572674e-05,-0.009616308138012172,0.005832608908986353,0.9915876470021372
2017-01-27,-1,-0.00030140843591034783,-0.0001064381405238156,-0.006202107153613462,0.005832608908986353,0.9918471074271235
2017-01-31,1,0.00026005440801866043,0.0005662853768880679,-0.009967504665228492,0.005832608908986353,0.9908246618125338
2017-02-02,-1,-0.000521873052999795,-0.0004222777868105118,-0.009344944837165749,0.004430041847592259,0.9912932400944447
2017-02-06,-1,-0.0007016995862913154,-0.0006387469946536526,-0.0103026751488005,0.004430041847592259,0.9902005262140817
2017-02-08,-1,-0.0007207849396604697,-0.0006488246342933778,-0.013553498380973868,0.0038279764515549244,0.9892382242461323
2017-02-10,1,0.00014496675461943558,0.0003541097440737009,-0.013553498380973868,0.0030855183613416187,0.9892913980220276
2017-02-14,1,7.172099888216312e-05,0.00030727799905771287,-0.013553498380973868,0.004430041847592259,0.9879691915328107
2017-02-16,1,4.414763756471047e-05,0.00033058809788705733,-0.0103026751488005,0.004430041847592259,0.9892025055401417
2017-02-21,1,0.000729939115387502,0.0011013131837527318,-0.010611745317262137,0.002454706653539359,0.9892948658575793
2017-02-23,1,0.00042493020947703165,0.0007361734043426875,-0.011994889065247274,0.002454706653539359,0.9884675097918248
2017-02-27,-1,-0.00024131896027204577,-8.747085506763765e-05,-0.018259490890751046,0.002737335071457286,0.9874905391514194
2017-03-01,-1,-0.001365501663940382,-0.001358581123088834,-0.011994889065247274,0.004024068051939236,0.9882610011236136
2017-03-03,-1,-0.0017745992464046514,-0.0017331189719698267,-0.011994889065247274,0.004548162811652241,0.9883634667259684
2017-03-07,-1,-0.0025946116341121622,-0.0024736082285871453,-0.008973953059820175,0.004548162811652241,0.9889040718741432
2017-03-09,-1,-0.0041949210402768096,-0.003922567503674846,-0.00749087496956855,0.004548162811652241,0.9903349065175042
2017-03-13,-1,-0.0037121748773507883,-0.003476018974584651,-0.00825132285623736,0.004548162811652241,0.9900641357869591
2017-03-15,-1,-0.0014874541517851704,-0.0014394702748784889,-0.00825132285623736,0.004304704685100497,0.9917455829395918
2017-03-17,-1,-0.0013081682656916162,-0.0012311779379315937,-0.00825132285623736,0.005189528786786826,0.9913144508259703
2017-03-21,-1,-0.0016626688659348385,-0.0016519710773262141,-0.00749087496956855,0.006212975371282618,0.9912980482624932
2017-03-23,-1,-0.0027100689324469664,-0.0025112503137478793,-0.00749087496956855,0.005189528786786826,0.9920647967850719
2017-03-27,-1,-0.0032980054033142675,-0.0030528700421466083,-0.00749087496956855,0.0059459417541897945,0.9916456793658159
2017-03-29,-1,-0.004536634151182895,-0.004043892726039755,-0.008377248019049615,0.0059459417541897945,0.9899994190277803
2017-03-31,-1,-0.004218465215473774,-0.0037549315722200565,-0.010543830408600775,0.00624302321855001,0.9895959199222547
2017-04-04,-1,-0.0035845959938016043,-0.0032801695413376976,-0.01687481143593255,0.006947988237876842,0.9878657684118183
2017-04-06,-1,-0.00433003981161742,-0.003921182647476026,-0.01687481143593255,0.006947988237876842,0.9878269876351126
2017-04-10,-1,-0.0029994908690305104,-0.002797370533646991,-0.01934624377030189,0.00624302321855001,0.9877704483858782
2017-04-12,-1,-0.0019097213831310972,-0.0018379139831428129,-0.021214993048800965,0.006054914668180714,0.9875999813851736
2017-04-17,-1,-0.0017349321470028134,-0.0016469118767772442,-0.021214993048800965,0.004980029478726893,0.9873935350821517
2017-04-19,-1,-0.0009021553731061889,-0.0008407429575854174,-0.023068711981741354,0.00405055446681868,0.9854338116140375
2017-04-21,-1,-0.0013472111604592946,-0.0013111999828979524,-0.023068711981741354,0.004980029478726893,0.9853746757915366
2017-04-25,-1,-0.0024476545072649723,-0.00233185947467723,-0.021214993048800965,0.00405055446681868,0.9859897985135252
2017-04-27,-1,-0.005462677263463232,-0.0049278046595578615,-0.0185050289534001,0.005010886629474602,0.9869349143178542
2017-05-01,-1,-0.005061553291413376,-0.004632551972719128,-0.019369821441760304,0.00405055446681868,0.9862872314229164
2017-05-03,-1,-0.004922385962876478,-0.004564323969564429,-0.018197349353816627,0.00405055446681868,0.9869394700008439
2017-05-05,-1,-0.0052059091113725794,-0.004808340780185665,-0.018197349353816627,0.00405055446681868,0.9862531917715365
2017-05-09,-1,-0.005353315388053614,-0.004985856952226768,-0.017277602263486753,0.008493015708364773,0.9841073169897306
2017-05-11,-1,-0.007024687221537607,-0.006359940783531446,-0.01635184287788687,0.01592313296362792,0.9839089013216281
2017-05-15,-1,-0.006571409280995697,-0.006026463539113004,-0.0143510561898948,0.017495556122280577,0.9817971196683953
2017-05-17,-1,-0.008310721681089647,-0.007545564278931676,-0.012320852191507012,0.017495556122280577,0.9826151893651467
2017-05-19,-1,-0.007256278581862037,-0.00660563144588154,-0.017277602263486753,0.01592313296362792,0.9807456236852112
2017-05-23,-1,-0.008465843966560643,-0.007655084411082817,-0.015593239554299705,0.01592313296362792,0.9808958862918753
2017-05-25,-1,-0.006628115363558134,-0.006084969741565483,-0.015593239554299705,0.017536691726346948,0.9805208235169136
2017-05-30,-1,-0.007568346682624023,-0.00700442438322537,-0.012320852191507012,0.0189343798399365,0.9794676447957343
2017-06-01,-1,-0.00614826266474649,-0.005760795061478906,-0.012320852191507012,0.0189343798399365,0.980548382317578
2017-06-05,-1,-0.007882223006292436,-0.007245009998508148,-0.009930331603471308,0.021093379591472162,0.9781678957159656
2017-06-07,-1,-0.00414224843020002,-0.003977261464317142,-0.012734913312975313,0.016001699032325227,0.9795215350052517
2017-06-09,-1,-0.003122358885745258,-0.0031097657201014078,-0.011916221458447158,0.016001699032325227,0.9793482738132941
2017-06-13,-1,-0.0012432469819105897,-0.0010499809237687098,-0.011916221458447158,0.012697720801073767,0.9816462234056949
2017-06-15,0,-0.00033088986178558583,3.50464789763505e-05,-0.011916221458447158,0.013642358320812314,0.9814708115427107
2017-06-19,-1,-0.004000495770199997,-0.0038874100384459695,-0.002732067706281816,0.013642358320812314,0.983671944495328
2017-06-21,-1,-0.004782270826256419,-0.0045646670568646915,-0.001184846703760099,0.013642358320812314,0.9833787727846232
2017-06-23,-1,-0.0029403019711373136,-0.0029180154172422147,-0.0017117173963941943,0.011787264259679454,0.9856309632618767
2017-06-27,-1,-0.000934388121481206,-0.0006375171359769921,-0.0017117173963941943,0.007558276073505699,0.9865551586198817
2017-06-29,-1,-0.0005180255048574414,-0.00017340464497062644,-0.0031493734259002088,0.013708720234967466,0.9825444822528876
2017-07-03,1,0.0002438070874274229,0.000687913835581038,-0.0031493734259002088,0.013708720234967466,0.9840200082678819
2017-07-06,-1,-0.001233914550243854,-0.0009282722924618303,-0.006086346877084642,0.013708720234967466,0.9852340993567931
2017-07-10,-1,-0.0005516984862208353,-0.0001778257575465853,-0.0025520787108008537,0.01370156048276904,0.985885071091432
2017-07-12,0,-0.0003006039910128091,7.47076641380831e-05,-0.0025520787108008537,0.01370156048276904,0.9862368377836694
2017-07-14,1,0.0016897260552647974,0.002384292619178018,-0.006086346877084642,0.006080619221337739,0.9866343363932698
2017-07-18,1,0.0020381335500151048,0.00277406092051028,-0.008725914128568456,0.005474323754701981,0.9856200534838738
2017-07-20,1,0.002288506289958377,0.0030628009211427385,-0.008725914128568456,0.005474323754701981,0.9852138729450087
2017-07-24,1,0.001691224275633017,0.0023263441514565315,-0.01011372808825929,0.009950120045389522,0.984459774737695
2017-07-26,1,0.0033259340203915227,0.004145848052555761,-0.01011372808825929,0.008365867276610494,0.9848881221953213
2017-07-28,1,0.004329943299056912,0.005220301359739804,-0.009632788682238923,0.008356075832652748,0.988087136696939
2017-08-01,1,0.003674437855117325,0.004350917124697722,-0.009632788682238923,0.005474323754701981,0.9880114541319488
2017-08-03,1,0.00266621062802454,0.0032437011424938838,-0.008868936948128113,0.008146840892413526,0.9897837342572847
2017-08-07,1,0.004788551765904715,0.005757799845657011,-0.008868936948128113,0.008146840892413526,0.9897172884491862
2017-08-09,1,0.0049698057619716185,0.0059662886408489565,-0.008868936948128113,0.010451719583535909,0.9887800165100736
2017-08-11,1,0.0038250297341899595,0.0046491699666968474,-0.008868936948128113,0.010451719583535909,0.9892215433990985
2017-08-15,1,0.003207545817743808,0.003945060537182316,-0.008868936948128113,0.010451719583535909,0.9890251103033172
2017-08-17,1,0.0025890784669740006,0.0031968403501876487,-0.008868936948128113,0.012764893236524829,0.988203708675466
2017-08-21,1,0.003043264212262354,0.0037092076242963884,-0.010772042764518947,0.010451719583535909,0.9871975561106757
2017-08-23,1,0.0034893682648387825,0.00423703610510183,-0.01242209164261969,0.009365437405887363,0.9868265125758053
2017-08-25,1,0.003544407833645144,0.0042823448953567,-0.01242209164261969,0.009365437405887363,0.9866828058838715
2017-08-29,1,0.0022672466259060376,0.002814073881773688,-0.01242209164261969,0.012092059778439333,0.9852401942458844
2017-08-31,1,0.0033026237238702404,0.004018018306570155,-0.01242209164261969,0.012092059778439333,0.985653336253855
2017-09-05,1,0.004220905118035816,0.005110724167847573,-0.013256333541147084,0.009662996168883338,0.9843535883329863
2017-09-07,1,0.006090879696796307,0.007254184685611944,-0.013256333541147084,0.004170612413792092,0.9845275631054917
2017-09-11,1,0.005773900912549898,0.006913372894145367,-0.012078980834860744,0.0036153103319589387,0.9850725489007793
2017-09-13,1,0.00458126792717534,0.005518116740619991,-0.010239175208702453,0.004170612413792092,0.9866348753176231
2017-09-15,1,0.005518477128641937,0.006523395433090898,-0.010239175208702453,0.004170612413792092,0.986750396417219
2017-09-19,1,0.0027667798621144454,0.003290064109536227,-0.00942810637593431,0.004170612413792092,0.9896046467040176
2017-09-21,1,0.0017160444749442665,0.002073819528412627,-0.007739592297769461,0.004170612413792092,0.9902217348894138
2017-09-25,1,0.0020826051724589017,0.0024522680273490593,-0.00942810637593431,0.0040635099488400914,0.9903849454196252
2017-09-27,1,0.0015930487019259214,0.0018771521325558521,-0.00942810637593431,0.0036153103319589387,0.9925083800105573
2017-09-29,1,0.0014128014331187323,0.0016214298556609086,-0.00942810637593431,0.00287282414352546,0.9922067920375538
2017-10-03,1,0.00018807270895052395,0.00019852942069693667,-0.00882280725706823,0.0036847471282122992,0.9927291271304417
2017-10-05,1,0.00017864802590970147,0.0002047227941683608,-0.00882280725706823,0.004191382237685749,0.9910558115662084
