JNU-Tangyin/eata/results/Batch4_SP500/Batch4_SP500-FE.csv
Date,Action,Predicted_Q25,Predicted_Q75,Actual_Q25,Actual_Q75,RL_Reward
2010-12-14,0,0.0,0.0,-0.00033511553675092716,0.005768136416425949,0.9952369340778234
2010-12-16,0,0.0,0.0,0.0015674340440016176,0.006074801570172252,0.9951377277626164
2010-12-20,0,0.0,0.0,0.0011610173353196792,0.005554478230735936,0.9955136411437782
2010-12-22,0,0.0,0.0,0.0011610173353196792,0.005554478230735936,0.995047333666765
2010-12-27,0,0.0,0.0,-0.0014736346543052375,0.004615038240716012,0.994829664203202
2010-12-29,0,0.0,0.0,-0.0012971326797931709,0.005663913709408647,0.9943067457395599
2010-12-31,-1,-0.9979332948083675,-0.9978465078683239,-0.0003206723810140812,0.0061445629744008665,0.4998285998981927
2011-01-04,1,0.0009925631059248062,0.0010026075577991372,-0.0003206723810140812,0.006949235861387649,0.9930097043326419
2011-01-06,1,0.0017310221702438854,0.0018594234345875572,-0.0038299864328890897,0.006949235861387649,0.9921499135209376
2011-01-10,1,0.0019728418692134403,0.0021599301801998342,-0.0038299864328890897,0.00774510124866475,0.9919749909058094
2011-01-12,1,0.0012790781927940927,0.0013005087547463146,-0.0018465217597225256,0.009087216660538605,0.9918349407443371
2011-01-14,1,0.0017795265275145876,0.0018590975317118587,-0.011489645431598392,0.009087216660538605,0.9903855036883654
2011-01-19,1,0.0017580750814128149,0.0018282136470644393,-0.01199087230530944,0.009087216660538605,0.9892718634350609
2011-01-21,1,0.002909975052911788,0.0031562067054711294,-0.01199087230530944,0.00774510124866475,0.9889147165233648
2011-01-25,1,0.0028348355158094463,0.0031607618227227755,-0.01199087230530944,0.008391405882771274,0.9894161540105624
2011-01-27,0,0.0,0.0,-0.01199087230530944,0.00753305014460179,0.9899428973973172
2011-01-31,1,0.0028000044140832816,0.0031094732494271176,-0.01199087230530944,0.00753305014460179,0.989164210009308
2011-02-02,1,0.004453999567122101,0.004976069418146892,-0.01199087230530944,0.0031195458397677857,0.9890393116515527
2011-02-04,1,0.001773123028297444,0.001970611517222949,-0.009937147222508966,0.005795776117960404,0.9911844197515998
2011-02-08,1,0.0017186456690511222,0.001878531219612423,-0.009937147222508966,0.0061834743123455275,0.9898819355457369
2011-02-10,1,0.0021520166922917774,0.0023922873643753193,-0.009937147222508966,0.005515205427857705,0.9896733087001836
2011-02-14,1,0.0011575830002598644,0.0012825380899883381,-0.009205208477371052,0.005515205427857705,0.9898685395991833
2011-02-16,1,0.0010677508138128753,0.0012342958565294514,-0.009205208477371052,0.004020110087786965,0.9901420118508525
2011-02-18,1,0.0007393392382733046,0.0008745836722958492,-0.007253410310399485,0.0061834743123455275,0.9905605461030379
2011-02-23,1,0.0009672182289722838,0.0011424480290328626,-0.007253410310399485,0.004020110087786965,0.9908982420404353
2011-02-25,1,0.0007433334508050637,0.0008919792393413412,-0.005883800236030859,0.004020110087786965,0.9912860967202309
2011-03-01,1,0.0006403742196490804,0.0007789143071384664,-0.005883800236030859,0.003923699788705245,0.9923165153104694
2011-03-03,1,0.00020353011931231217,0.00027772740679932726,-0.0034210801821086744,0.005613672724997668,0.9921316216158748
2011-03-07,1,0.00031823200690940555,0.0004025907005287116,-0.0035954892282432076,0.004614685923691274,0.9921941938373866
2011-03-09,1,0.0016929188085675795,0.001975806690221924,-0.0048029128556353745,0.0036228409546303535,0.9923836791513326
2011-03-11,1,0.0018840606693234655,0.0022333594091234316,-0.0035954892282432076,0.0014861855832077658,0.99251967131688
2011-03-15,1,0.0009866554395255894,0.0012317299466745387,-0.0035954892282432076,0.004614685923691274,0.993824403818772
2011-03-17,-1,-0.000548035229123062,-0.0004894824893482488,-0.003299440350516929,0.00674496664750691,0.9936011604281174
2011-03-21,-1,-0.000889967196231531,-0.0007447671151980192,-0.0035954892282432076,0.006799055036985636,0.9933567604269818
2011-03-23,-1,-0.0011454554645651364,-0.0009570009314153173,-0.0035954892282432076,0.009788860464025382,0.992418659589106
2011-03-25,-1,-0.001372872840552561,-0.001153065141550261,-0.003911899378108979,0.009788860464025382,0.9922887775853766
2011-03-29,-1,-0.0016713250785210362,-0.0014036125714468352,-0.0033537348999252334,0.010377799445030277,0.991592375900291
2011-03-31,-1,-0.0010541944853086872,-0.0008582408826033111,-0.0033537348999252334,0.009788860464025382,0.9922206588879591
2011-04-04,-1,-0.000893202003658969,-0.0007290163951373984,-0.003507261401566092,0.010377799445030277,0.9892694671687895
2011-04-06,0,0.0,0.0,-0.004127424488557613,0.009788860464025382,0.9896277231235417
2011-04-08,-1,-0.0006483705065476002,-0.0005286875223064419,-0.004127424488557613,0.009788860464025382,0.9892677383320465
2011-04-12,-1,-0.0009866485032006137,-0.0008115617439927517,-0.004127424488557613,0.010377799445030277,0.9882789699426049
2011-04-14,-1,-5.264591642281121e-05,-2.0460649140107584e-06,-0.004505416413378921,0.009827333900911707,0.9877611251395537
2011-04-18,-1,-0.0003385423887949098,-0.0002439971430850426,-0.004127424488557613,0.018554993925074793,0.9850289382968672
2011-04-20,0,-6.999426528738137e-05,3.6384638373387445e-06,-0.004505416413378921,0.018554993925074793,0.9852961838116753
2011-04-25,-1,-0.00027473260708028955,-0.00017089603596857352,-0.0058052998838066736,0.018554993925074793,0.9846290074233178
2011-04-27,1,0.0003161882550865443,0.0003368048578829576,-0.0058052998838066736,0.013418272591712311,0.9850821985787023
2011-04-29,1,0.00034932237627075593,0.00037403983992184686,-0.006838797098643106,0.013418272591712311,0.9851063333830335
2011-05-03,1,0.0012886132339512315,0.0013881421188308544,-0.008185441641428329,0.008798139434544423,0.9874373466283873
2011-05-05,1,0.0008789769380042175,0.0009194875397100528,-0.006172836852779988,0.008798139434544423,0.9879922727410912
2011-05-09,1,0.0010392428957319102,0.0011088516120083118,-0.006658064389187526,0.0071807802910948204,0.9879402821786873
2011-05-11,1,0.0013961076240287785,0.0015094381668380613,-0.006658064389187526,0.006872774503617614,0.989109934446812
2011-05-13,1,0.0013775465748598263,0.0015002381660188732,-0.006658064389187526,0.0037159743402145,0.990323860523587
2011-05-17,1,0.0024012612570242014,0.0026698487580090104,-0.008924905780405086,0.001747318506970648,0.9912698806850839
2011-05-19,1,0.002165619752582606,0.002408773697940659,-0.006658064389187526,0.006466454858988755,0.9918325523296536
2011-05-23,1,0.0017913975910828885,0.001982241263720595,-0.006172836852779988,0.00796786708952602,0.9926016626938383
2011-05-25,1,0.0018715167218499034,0.002060767443985083,-0.007205345291201011,0.006466454858988755,0.9918272719543719
2011-05-27,1,0.001898915603118894,0.002112795850207482,-0.007205345291201011,0.006466454858988755,0.9917573095746627
2011-06-01,1,0.0017503523572110536,0.0019485067030303416,-0.006355263820117816,0.00796786708952602,0.9921728802662674
2011-06-03,1,0.001579673691209527,0.0017544764237895582,-0.006265798501383811,0.009105966422782722,0.9921394680035883
2011-06-07,1,0.00141002802629216,0.0015599195691261788,-0.006265798501383811,0.009105966422782722,0.9919251449774348
2011-06-09,0,0.0,0.0,-0.006265798501383811,0.009199690606016468,0.9914997361561811
2011-06-13,0,0.0,0.0,-0.0060832374079240895,0.009199690606016468,0.9915848639755724
2011-06-15,0,0.0,0.0,-0.0060832374079240895,0.00796786708952602,0.9928510491513357
2011-06-17,0,0.0,0.0,-0.007259855871679874,0.004813811033622695,0.9931034740106677
2011-06-21,0,0.0,0.0,-0.007259855871679874,0.005002502062848451,0.9930022231054818
2011-06-23,0,0.0,0.0,-0.004506036534616616,0.005961047702582961,0.9925849883685643
2011-06-27,-1,-0.00043820195039017025,-0.0004189078975349758,-0.003925234638159018,0.008620247954506095,0.9919671899054683
2011-06-29,-1,-0.00042143238340272077,-0.00040781722544558786,-0.004912419956810916,0.005645641274418045,0.9923514527661264
2011-07-01,1,0.0016799874503667246,0.00189069997870503,-0.005214265596315866,0.00424786290690685,0.9921840526047602
2011-07-06,1,0.0016025906067006692,0.001809998607091412,-0.006176852407483265,0.00424786290690685,0.9912225994877737
2011-07-08,1,0.0015009067578605909,0.001655811301696112,-0.008313240893079409,0.0020974537566208424,0.9892664112225346
2011-07-12,1,0.000995442495943796,0.0010641292186271047,-0.008313240893079409,0.00424786290690685,0.9857775868613425
2011-07-14,1,0.0005442745127590723,0.000549982444374878,-0.010614692684862809,0.005645641274418045,0.9825778684483047
2011-07-18,1,0.0003131470423479663,0.00035122302332503234,-0.012652269861939508,0.011440840035162582,0.9809445804660214
2011-07-20,1,0.00038836964286861284,0.0004285515860271058,-0.012652269861939508,0.014334080973448692,0.9807122292069931
2011-07-22,1,0.0006536989590448622,0.0006663089345774519,-0.015008790249650003,0.005960551240626786,0.9805157647337798
2011-07-26,1,0.0008328911349604864,0.0008403536032742903,-0.015008790249650003,0.005960551240626786,0.979682193272437
2011-07-28,1,0.0005769629055887232,0.0006199546948731564,-0.01647278282915272,0.014689293730945529,0.9782946634689919
2011-08-01,0,0.0,0.0,-0.01647278282915272,0.02380674328710127,0.9774431230969877
2011-08-03,0,0.0,0.0,-0.013563674096160536,0.02380674328710127,0.9781722844271988
2011-08-05,0,0.0,0.0,-0.013563674096160536,0.02380674328710127,0.9792942917871331
2011-08-09,0,0.0,0.0,-0.010175371434409154,0.016190488012819197,0.9830491376294629
2011-08-11,0,0.0,0.0,-0.010175371434409154,0.012248518015631114,0.9850766408077717
2011-08-15,0,0.0,0.0,-0.009336356507891493,0.011796351865645135,0.9864349196277848
2011-08-17,0,0.0,0.0,-0.009336356507891493,0.013255980259240942,0.9858477394005183
2011-08-19,0,0.0,0.0,-0.007818942358926259,0.013827915243463903,0.9861176098202661
2011-08-23,0,0.0,0.0,-0.008175209424938622,0.013827915243463903,0.9860518297537527
2011-08-25,0,0.0,0.0,-0.008175209424938622,0.013827915243463903,0.9864879809711902
2011-08-29,0,0.0,0.0,-0.008175209424938622,0.013255980259240942,0.987423089388018
2011-08-31,0,0.0,0.0,-0.008175209424938622,0.013649492037654285,0.9871818110830788
2011-09-02,0,0.0,0.0,-0.011007155004491011,0.013649492037654285,0.9865968975661745
2011-09-07,0,0.0,0.0,-0.011007155004491011,0.013222573505957442,0.987134195829328
2011-09-09,0,0.0,0.0,-0.007740386790676414,0.01364535709487576,0.9880629951633972
2011-09-13,0,0.0,0.0,-0.010031472938596096,0.01381551041512833,0.9873877206374164
2011-09-15,0,0.0,0.0,-0.011007155004491011,0.01364535709487576,0.9872402013328961
2011-09-19,0,0.0,0.0,-0.010032684807686432,0.01265906478955227,0.9876186213347625
2011-09-21,1,0.002689424098715299,0.002758415185421735,-0.007415563391741554,0.01265906478955227,0.988522246230595
2011-09-23,0,0.0,0.0,-0.005632999164699856,0.01265906478955227,0.9892059848202489
2011-09-27,0,0.0,0.0,-0.007415563391741554,0.01265906478955227,0.9886966131325514
2011-09-29,0,0.0,0.0,-0.0070057963072392235,0.012688336600057245,0.9883317843236437
2011-10-03,-1,-0.0011708363814223006,-0.0010262979150771961,-0.006034336356880078,0.012688336600057245,0.989542235956643
2011-10-05,-1,-0.0009795735982118263,-0.0008552552452825732,-0.006034336356880078,0.014531429703726662,0.9888346960277675
2011-10-07,1,0.0008246895105287007,0.0010043689540644829,-0.006034336356880078,0.013486593777393224,0.989605271218909
2011-10-11,1,0.0009152561296796693,0.001084259019187832,-0.005600117979516531,0.008504357235580866,0.9907843466990373
2011-10-13,-1,-3.363738889306977e-05,-2.0188759618337426e-05,-0.005600117979516531,0.008504357235580866,0.9909819805428479
2011-10-17,1,0.00040651247898937707,0.0004986500611896969,-0.006034336356880078,0.009329961533465587,0.9902719005126742
2011-10-19,1,0.0009128705867555728,0.001064622999107049,-0.007056566010253652,0.009329961533465587,0.9895075474007302
2011-10-21,1,0.0012225061806594977,0.00140384455599759,-0.011052324980306838,0.00775579053156561,0.9888647444281935
2011-10-25,1,0.0005531323091596419,0.0006330365924823489,-0.016166170648513077,0.00775579053156561,0.9882637507453982
2011-10-27,1,0.0008265484064564334,0.000932608290419579,-0.016537867852862168,0.0044432282892349385,0.9885037329113285
2011-10-31,1,0.0005352660191192649,0.0006155507717482808,-0.016537867852862168,0.009874850248032504,0.9879024227334087
2011-11-02,1,0.0006279214339353614,0.0006949914658214126,-0.016537867852862168,0.009874850248032504,0.9871804710980869
2011-11-04,1,0.0005489708409158241,0.0005936360240061576,-0.016537867852862168,0.009874850248032504,0.9866913413302555
2011-11-08,1,0.001023744630200126,0.001156747217498297,-0.016537867852862168,0.009874850248032504,0.986678633011265
2011-11-10,1,0.0004249658713563262,0.0004967877106251317,-0.016537867852862168,0.009874850248032504,0.9866965988941515
2011-11-14,1,0.00012712440175238987,0.00013043944384130352,-0.016537867852862168,0.00922642937184339,0.9871146973260068
2011-11-16,0,0.0,0.0,-0.014396853203339124,0.00895655159103802,0.9876950411488133
2011-11-18,0,0.0,0.0,-0.016957635416476578,0.008299685792602979,0.9870854702673789
2011-11-22,0,0.0,0.0,-0.013015261910896943,0.009755488477990815,0.9867742222251669
2011-11-25,0,0.0,0.0,-0.009915859519377769,0.009755488477990815,0.9876937907915035
2011-11-29,0,0.0,0.0,-0.009915859519377769,0.00895655159103802,0.9886250451102256
2011-12-01,0,0.0,0.0,-0.013015261910896943,0.008419741845204986,0.9889542991771404
2011-12-05,1,8.694559596039329e-06,3.0496785576874846e-05,-0.015285791827591485,0.008419741845204986,0.9874279843662197
2011-12-07,1,0.0001848307395543405,0.00020550248063830713,-0.015285791827591485,0.008146314824450279,0.9877161412957217
2011-12-09,1,0.00020484082154669845,0.0002063520158999162,-0.013839572007044094,0.007671243401921981,0.9887224003204764
2011-12-13,1,0.00026874893860412885,0.00031071643711721417,-0.013229624980830542,0.005638034914610448,0.9890951403804743
2011-12-15,1,0.0004484479502915251,0.0005424941725846864,-0.010345554258988698,0.004566501441223984,0.9898697398700025
2011-12-19,-1,-0.0008688463357665976,-0.0007772791372561421,-0.005442895331473433,0.004566501441223984,0.991064987397004
2011-12-21,1,0.00044648096288583624,0.0005202653416393455,-0.005442895331473433,0.004566501441223984,0.9919766122652612
2011-12-23,1,1.981996291268069e-05,2.3219410932951027e-05,-0.010345554258988698,0.005638034914610448,0.9902657242430137
2011-12-28,-1,-0.0005379081628697239,-0.0003969479537462501,-0.011696558668424078,0.005638034914610448,0.9897891241055495
2011-12-30,-1,-0.0009597615179519479,-0.0007755242641710865,-0.009416853409515095,0.004566501441223984,0.9908975334199931
2012-01-04,-1,-0.002118790944688669,-0.0018421802280424674,-0.0033780139744434695,0.008232067805536737,0.9907983900163818
2012-01-06,-1,-0.0016457363869446973,-0.0014200072345828055,-0.0070658678864104155,0.008232067805536737,0.990604137437319
2012-01-10,0,0.0,0.0,-0.007445197646142645,0.008232067805536737,0.9905225134244652
2012-01-12,0,0.0,0.0,-0.006558760899667975,0.008232067805536737,0.9908646528384841
2012-01-17,-1,-0.0023671229300336345,-0.0020224694488266883,-0.006558760899667975,0.00905220180800052,0.9903791074087257
2012-01-19,-1,-0.0028594680418961606,-0.0024674903329628736,-0.006558760899667975,0.009999332534858676,0.9899036395430374
2012-01-23,-1,-0.0018263054319792621,-0.0015858674236161044,-0.006558760899667975,0.008089531644028715,0.9910438350829115
2012-01-25,-1,-0.0013594818316621528,-0.0011997264923502514,-0.0063239701847554635,0.007878235404154858,0.992129185574428
2012-01-27,-1,-0.0017356989770302934,-0.0014888350162544906,-0.0056563384282089105,0.006239752696516149,0.9929806145911365
2012-01-31,-1,-0.0015644555310098825,-0.0013550395623382872,-0.0056563384282089105,0.007878235404154858,0.9925354065124536
2012-02-02,-1,-0.0005435381881076544,-0.0004254056991370908,-0.0056563384282089105,0.003796626049117023,0.9945792915227243
2012-02-06,0,0.0,0.0,-0.00121293777144861,0.005306711231910404,0.9950880344421223
2012-02-08,0,0.0,0.0,-0.001867907035296273,0.005306711231910404,0.9951658685302833
2012-02-10,0,0.0,0.0,-0.0006777209375702464,0.006301834457463553,0.9947680659014253
2012-02-14,0,0.0,0.0,-0.003188579293221755,0.005645845469530261,0.9946658709179689
2012-02-16,0,0.0,0.0,-0.001955805432939482,0.0052838978169919195,0.9958496066102941
2012-02-21,0,0.0,0.0,-0.001955805432939482,0.0052838978169919195,0.9954629134816289
2012-02-23,1,0.0008237643807245971,0.001159528065769265,-0.0019634834630029106,0.003660767888325253,0.9956921676385796
2012-02-27,-1,-0.00036788361214738405,-0.00026338565575173876,-0.0015760254454105283,0.0052838978169919195,0.9953676760821375
2012-02-29,0,0.0,0.0,-0.0019634834630029106,0.005209685833382974,0.9954825957915098
2012-03-02,0,0.0,0.0,-0.0019634834630029106,0.0054003961037849425,0.995179888045397
2012-03-06,0,0.0,0.0,-0.0019634834630029106,0.0054003961037849425,0.995197036619449
2012-03-08,0,0.0,0.0,-0.0017305603130577305,0.0056913974978559205,0.9950747190987973
2012-03-12,0,0.0,0.0,-0.0033204967535595134,0.004786235936324945,0.9946811835837769
2012-03-14,1,0.0007906619555188177,0.0009377228801137852,-0.0017305603130577305,0.004786235936324945,0.9953105819999588
2012-03-16,1,0.001051892145345226,0.001258026954402465,-0.002621727303723974,0.005468761547029086,0.9947512507830202
2012-03-20,0,0.0,0.0,-0.0017305603130577305,0.006323086735332637,0.9945417985642118
2012-03-22,0,0.0,0.0,-0.002621727303723974,0.006238760971518704,0.9944424805561048
2012-03-26,1,0.0011363191620090232,0.0013191649592534653,-0.0034524205922182236,0.006231590996224711,0.994624938823768
2012-03-28,1,0.0015683086120496952,0.0018463760617261301,-0.0024480285886404685,0.007244052477427787,0.9944665243620104
2012-03-30,1,0.0018149552138735075,0.002119485180937771,-0.003469457454930296,0.006490681902578512,0.9943806363112025
2012-04-03,1,0.0021357261847177044,0.00250225767662366,-0.004244581888856303,0.007244052477427787,0.9938370811630832
2012-04-05,1,0.0017778423948545704,0.0020428594834027733,-0.005078066131361401,0.007244052477427787,0.9935938313432838
2012-04-10,1,0.0010875940308857613,0.0012595841812556726,-0.003469457454930296,0.007244052477427787,0.99465776057502
2012-04-12,1,0.0013721787780362194,0.0015843468982935144,-0.003469457454930296,0.007540767374006642,0.9944413759967339
2012-04-16,1,0.0013625362112787641,0.001554967202931969,-0.001474717306516458,0.007244052477427787,0.9950618999766951
2012-04-18,1,0.000855425025795981,0.0009072671317976987,-0.0017596881974923503,0.006490681902578512,0.9951048176280575
2012-04-20,1,0.0004560894820972913,0.00048593576890288266,-0.0014629228398270607,0.0057315831597259444,0.9955433856566935
2012-04-24,0,0.0,0.0,-0.0014629228398270607,0.004699234671472796,0.9958107200656924
2012-04-26,0,0.0,0.0,-0.0021440623437845516,0.003827347246476303,0.995280797432259
2012-04-30,0,0.0,0.0,-0.0021440623437845516,0.0024768157626448447,0.9953781532218119
2012-05-02,0,0.0,0.0,-0.0021440623437845516,0.0024768157626448447,0.9952646007753839
2012-05-04,0,0.0,0.0,-0.0021440623437845516,0.0026716419318995287,0.995217385584297
2012-05-08,0,0.0,0.0,-0.0021440623437845516,0.00604603066629568,0.9942594874692071
2012-05-10,0,0.0,0.0,-0.0025107862874298946,0.005117400104166101,0.9944533314168605
2012-05-14,1,0.0011807326716798353,0.0012719056645376413,-0.0025107862874298946,0.005117400104166101,0.9942992333883419
2012-05-16,1,0.001490978484855286,0.0017198544556529364,-0.0035602069187434236,0.00604603066629568,0.9936777909722995
2012-05-18,1,0.0014284618958575834,0.001640343713702729,-0.0035602069187434236,0.007141512972208496,0.9932464666038162
2012-05-22,1,0.0015139629947029999,0.0017516184315422801,-0.005113163404659514,0.008184658660458506,0.9924402636299772
2012-05-24,1,0.0011048598694621723,0.0012636051910307937,-0.005113163404659514,0.0069470075319022495,0.9932787401432263
2012-05-29,1,1.5278080259049784e-05,7.453225879608844e-05,-0.0049678844126592354,0.0069470075319022495,0.993357474012638
2012-05-31,1,0.00035710429393418365,0.000364474013330893,-0.0035602069187434236,0.0069470075319022495,0.9935560473683893
2012-06-04,1,0.00028136514003097846,0.000299856087264779,-0.002197562681433909,0.010080621367689443,0.9927589061776892
2012-06-06,1,0.000758747143041112,0.0007950981626708119,-0.0035602069187434236,0.008334417342068383,0.9932160674365866
2012-06-08,1,0.0005090454242732265,0.000532869191119982,-0.004831176015987027,0.008334417342068383,0.9931059486024892
2012-06-12,0,-0.00011701514067505943,7.621515519898553e-06,-0.004831176015987027,0.008334417342068383,0.9933004971292515
2012-06-14,1,0.0007045231510546279,0.0007147522327875092,-0.004721588986314059,0.0069470075319022495,0.9937051557397025
2012-06-18,1,0.0011303380964441767,0.001221094605082198,-0.004721588986314059,0.00544247999919537,0.993989361321069
2012-06-20,1,0.0003622548259570983,0.0003967943781684593,-0.0032848187111821484,0.00544247999919537,0.9943884696016642
2012-06-22,1,0.0002725238910226811,0.0003129435967075418,-0.0032848187111821484,0.00544247999919537,0.9942585021054914
2012-06-26,1,0.0007804529611157469,0.0008340832531736973,-0.004721588986314059,0.00544247999919537,0.9936210121328299
2012-06-28,1,0.0009076541480844181,0.0009471361299483383,-0.004721588986314059,0.006971007621513454,0.992745065367221
2012-07-02,1,0.0014935596811223592,0.0015949081078639664,-0.005748969333234333,0.00544247999919537,0.9930791295420812
2012-07-05,1,0.0009444020061971222,0.0009635288533923713,-0.005974942732084572,0.00544247999919537,0.9927542552912675
2012-07-09,1,0.0007992764542602975,0.0008094338887342384,-0.005210910632769994,0.00544247999919537,0.9930497812561866
2012-07-11,1,0.001243326701865221,0.0013018219212548446,-0.009503184689901262,0.00544247999919537,0.9896955946495682
2012-07-13,1,0.00041710722078036405,0.00046974655611960154,-0.009503184689901262,0.00540956502916496,0.98987494857417
2012-07-17,1,0.0005007366132265012,0.0005227633438709288,-0.009503184689901262,0.005412358842462257,0.9899902918722814
2012-07-19,1,0.0008977695128442672,0.0009057208098933571,-0.009503184689901262,0.0014571309180868486,0.990378936265471
2012-07-23,1,0.0007123191636900328,0.0007280928611704091,-0.006568729112930667,0.001564010290144514,0.9907554900367137
2012-07-25,-1,-0.00025963972532605333,-0.00015717334418752948,-0.004182826235371711,0.001564010290144514,0.9917483645493438
2012-07-27,1,0.0010718085270668121,0.0011373435921247079,-0.005268494610763242,0.0002729216042217817,0.9917484109294191
2012-07-31,1,0.00029069881755416005,0.0003466466682492769,-0.005268494610763242,-0.0003252459598907069,0.9927221110679383
2012-08-02,1,0.00014885993840886151,0.00018660684528011936,-0.005484496564700269,-0.0003252459598907069,0.992870903541956
2012-08-06,-1,-0.0005851841961644952,-0.00041847843948595844,-0.005484496564700269,-0.0007943020482276228,0.9932769422219221
2012-08-08,-1,-0.003752768737195599,-0.003226708073864724,-0.005334698949476014,-0.0003252459598907069,0.9956066155614376
2012-08-10,-1,-0.0037959181143613747,-0.003251461606258074,-0.005885701771857243,-0.0007943020482276228,0.995698665218852
2012-08-14,-1,-0.003168195378761368,-0.0027181472132808008,-0.005885701771857243,-0.001751042745028628,0.9962014667760782
2012-08-16,-1,-0.0032858258254754953,-0.0028361800941061038,-0.00654945962123273,-0.001751042745028628,0.9945517886074227
2012-08-20,-1,-0.0031686890641236714,-0.0027272318199254844,-0.00654945962123273,-0.0014584197926965801,0.9945227274219206
2012-08-22,-1,-0.003188982909955846,-0.002767376553320133,-0.00654945962123273,0.00011552944967521607,0.9933747141873114
2012-08-24,-1,-0.0037926419339544175,-0.0033090685049107517,-0.005885701771857243,0.0015346563830615253,0.9935178431670953
2012-08-28,-1,-0.0039232260869099134,-0.003434562274567937,-0.005400008369813231,0.0032196526946126334,0.9933400569691453
2012-08-30,-1,-0.004976937908703865,-0.004318178536179442,-0.00493051354236854,0.0032196526946126334,0.9928834299211732
2012-09-04,-1,-0.0048498119132514995,-0.004233200204120453,-0.003952487449248755,0.00492597133025743,0.9924137960227374
2012-09-06,-1,-0.00463565998976968,-0.004054462746410904,-0.0025645868350686867,0.00492597133025743,0.9928639801543379
2012-09-10,-1,-0.0050440167024268295,-0.004429756080374264,-0.001787569078288478,0.00492597133025743,0.9923667751923781
2012-09-12,-1,-0.004877254919170546,-0.004294086442994385,-0.0013935131780324476,0.005051347952669174,0.9921420538426827
2012-09-14,-1,-0.004021490531694278,-0.0035471304124657685,-0.0013935131780324476,0.005051347952669174,0.9935112885891829
2012-09-18,-1,-0.0033502003566202826,-0.0029844919504170655,-0.0013935131780324476,0.005470992693084443,0.9933289216033288
2012-09-20,-1,-0.0024040220963830283,-0.002140984612982088,-0.0013935131780324476,0.005845088866965668,0.9940441630506347
2012-09-24,-1,-0.0022923213104190454,-0.0020031257899099314,-0.002450425004581808,0.005845088866965668,0.9943621469240491
2012-09-26,-1,-0.0024083877233542234,-0.0021009329277818225,-0.0038875789704886357,0.005845088866965668,0.9943566610674769
2012-09-28,-1,-0.002555812764430119,-0.0022364669886174976,-0.003700013102691794,0.00721905601321891,0.9939646812748294
2012-10-02,-1,-0.001958666695751766,-0.0017375148854139983,-0.00585325174688299,0.00721905601321891,0.9934961520810422
2012-10-04,0,0.0,0.0,-0.006552369746875163,0.005449367907035648,0.9914776593145216
2012-10-08,0,0.0,0.0,-0.0067965200362350865,0.00721905601321891,0.9898698682780949
2012-10-10,0,0.0,0.0,-0.007577026256276895,0.008406056314506319,0.9892517619903171
2012-10-12,0,0.0,0.0,-0.010020288146677298,0.00721905601321891,0.9892424808738203
2012-10-16,-1,-0.0006048321066624187,-0.0005772277096182375,-0.011046800464045728,0.005699568708214662,0.988930740706547
2012-10-18,-1,-0.00015461132170782447,-0.00015358204686160897,-0.011046800464045728,0.004720074015536882,0.9891943781572597
2012-10-22,-1,-0.0005120866255621059,-0.0004698155708136497,-0.011046800464045728,0.004720074015536882,0.9893541117750133
2012-10-24,-1,-0.000823362027624025,-0.0007488566388069891,-0.011046800464045728,0.005139774452647079,0.9888417657029703
2012-10-26,-1,-0.00014169034833202138,-8.893611204218631e-05,-0.011046800464045728,0.005139774452647079,0.9886208521051727
2012-11-01,-1,-0.00064808405147785,-0.000642689934314606,-0.010020288146677298,0.005139774452647079,0.9895946256555402
2012-11-05,-1,-0.002887858193264682,-0.002616528668793688,-0.00684883614498416,0.005139774452647079,0.9914616714016667
2012-11-07,-1,-0.0027870820818011264,-0.0025447517553462556,-0.00684883614498416,0.005139774452647079,0.9923188397259283
2012-11-09,-1,-0.001962626783919668,-0.0018559066618023764,-0.004627332091473721,0.004866612394273361,0.9932036406402471
2012-11-13,-1,-0.0023576232185456673,-0.002199387019654348,-0.004627332091473721,0.0046416052829253585,0.9938894044291772
2012-11-15,-1,-0.003173893918682315,-0.0029085488823633945,-0.004627332091473721,0.0046416052829253585,0.9940603470000026
2012-11-19,-1,-0.0027689535421363785,-0.002542310053341301,-0.004627332091473721,0.005288893232576798,0.9937131880025984
2012-11-21,-1,-0.0025502479165417083,-0.002381199379512387,-0.0034263470820933605,0.005288893232576798,0.9936055421628259
2012-11-26,-1,-0.0010744236686091682,-0.0009928405913799672,-0.0030449155860652086,0.00372045674445065,0.994618398209796
2012-11-28,-1,-0.00045767379592882076,-0.0003097443591596784,-0.0030449155860652086,0.0018669636367290047,0.9956515991155499
2012-11-30,-1,-0.0005948509700678511,-0.00048640842897090125,-0.004986692802748795,0.0026505215600693566,0.9943779939782886
2012-12-04,-1,-0.00104598060827714,-0.000952698695464197,-0.002098856227821937,0.0038404779982501806,0.9946683868558006
2012-12-06,-1,-0.0008594006971161814,-0.000697488586280819,-0.002098856227821937,0.0026505215600693566,0.9950988463421032
2012-12-10,-1,-0.0005406163212793344,-0.0003416593153474743,-0.005061025800009122,0.002104976818499304,0.9939693924929308
2012-12-12,-1,-0.0002914308709515138,-1.1512611876355987e-05,-0.004686999064861346,0.002104976818499304,0.9940117313707244
2012-12-14,-1,-0.0005551845136552079,-0.0003151004209609395,-0.004686999064861346,0.0038404779982501806,0.9936547516894786
2012-12-18,0,-9.156118572477008e-05,0.00016606531032680068,-0.006806472405662917,0.0014932424123911235,0.9938626691137133
2012-12-20,1,0.0010624619931557872,0.0015425730499697874,-0.006806472405662917,0.002104976818499304,0.993148888441684
2012-12-24,1,0.0012049803970975144,0.0017193505749413577,-0.010341774631717843,0.0023890207342213664,0.9916642006145638
2012-12-27,1,0.001118166667798078,0.0015941576991194395,-0.010341774631717843,0.0061430697095005635,0.9913240108753477
2012-12-31,1,0.0014161890097927358,0.00193400821685133,-0.00952653361214654,0.0061430697095005635,0.9913783823142063
2013-01-03,-1,-0.00010986703189239274,-3.3358817090590434e-06,-0.00952653361214654,0.007226715138124543,0.9916063466067361
2013-01-07,-1,-0.0004573112101466601,-0.0003983102648565783,-0.010012537276573993,0.007226715138124543,0.9911389404703443
2013-01-09,-1,-0.0012499990254443696,-0.001218423418633647,-0.009521539834763606,0.008913317392642232,0.9917535874944013
2013-01-11,-1,-0.0019818448660546247,-0.0018924578368673473,-0.009521539834763606,0.008913317392642232,0.9916111148595813
2013-01-15,-1,-0.0015574599528309948,-0.001506418733408071,-0.005692261791321438,0.007226715138124543,0.9920024711042902
2013-01-17,0,0.0,0.0,-0.004520018640480075,0.007226715138124543,0.9929241530216624
2013-01-22,0,0.0,0.0,-0.005842809160763702,0.007226715138124543,0.9922936390777193
2013-01-24,0,0.0,0.0,-0.005842809160763702,0.007226715138124543,0.9922198667579626
2013-01-28,0,0.0,0.0,-0.010670217231171198,0.006336657405257351,0.9908621456357515
2013-01-30,0,0.0,0.0,-0.010670217231171198,0.006336657405257351,0.9912148211621322
2013-02-01,0,0.0,0.0,-0.010670217231171198,0.006936869968810502,0.9910720123916527
2013-02-05,-1,-0.002653656734592089,-0.0023551207951788672,-0.000787693592230325,0.00917307741400385,0.9902948060617935
2013-02-07,-1,-0.0020345180311903514,-0.001803646974933171,-0.000787693592230325,0.007093268607739155,0.9907889634559233
2013-02-11,0,0.0,0.0,-0.0011676415024805848,0.00722952337796846,0.9914400417985467
2013-02-13,0,0.0,0.0,-0.0011676415024805848,0.008995967075800542,0.9913564180415075
2013-02-15,0,0.0,0.0,-0.0020783758123900592,0.009354637483635042,0.9907796648034002
2013-02-20,0,0.0,0.0,-0.0008982127298138524,0.008995967075800542,0.991429093988101
2013-02-22,0,0.0,0.0,-0.004773014001831616,0.008549298383440741,0.9917201447716969
2013-02-26,0,0.0,0.0,-0.0005507965480396504,0.008995967075800542,0.9930315336997164
2013-02-28,0,0.0,0.0,-0.0005507965480396504,0.009259706298921774,0.9926370955321011
2013-03-04,0,0.0,0.0,-0.002550602373932804,0.009141733872151113,0.9929126324939884
2013-03-06,0,0.0,0.0,-0.002550602373932804,0.009141733872151113,0.992457852205181
2013-03-08,0,0.0,0.0,-0.002550602373932804,0.009791937872686753,0.9913848722010759
2013-03-12,0,0.0,0.0,-0.002550602373932804,0.010185602866291624,0.9908498669394812
2013-03-14,0,0.0,0.0,-0.002550602373932804,0.010185602866291624,0.9908714831023657
2013-03-18,0,0.0,0.0,-0.002550602373932804,0.010889570755570468,0.9902380018845734
2013-03-20,0,0.0,0.0,-0.0026002560216038494,0.010889570755570468,0.9899127855344624
2013-03-22,0,0.0,0.0,-5.944600144909247e-05,0.010889570755570468,0.9909385913286459
2013-03-26,1,0.001853844102596612,0.0022717569779503177,0.000717222730682051,0.009900809312151817,0.9923281204379045
2013-03-28,1,0.0032986377219505194,0.00396301534186666,0.000717222730682051,0.007095334571727376,0.993643833299631
2013-04-02,1,0.001973380392414162,0.0023249221642565113,0.0010369487535821674,0.007095334571727376,0.9930271152600811
2013-04-04,1,0.0025423507573679015,0.0029462381539713447,-0.00020281884646743804,0.006994221048742058,0.9937002736279928
2013-04-08,1,0.0038417279251075492,0.004426710557640318,-0.0052819496427137565,0.006138356417979394,0.9927793738310763
2013-04-10,0,0.0,0.0,-0.007757914500016726,0.005539402278951857,0.9922909215707593
2013-04-12,0,0.0,0.0,-0.010661544445781716,0.0040658214423902935,0.9917580928460893
2013-04-16,1,0.004518756077067835,0.005133429320620899,-0.007757914500016726,0.0032510450851011645,0.9915584718300782
2013-04-18,0,0.0,0.0,-0.006086347445297382,0.0032510450851011645,0.9931945962206277
2013-04-22,0,0.0,0.0,-0.007757914500016726,0.0032510450851011645,0.9921469267282039
2013-04-24,0,0.0,0.0,-0.008933193724583116,0.0032510450851011645,0.9914168522953895
2013-04-26,0,0.0,0.0,-0.01056408902996599,0.0023419882276497087,0.9907475800418155
2013-04-30,0,0.0,0.0,-0.012807119791735318,-0.0008306845976307755,0.987259232486961
2013-05-02,0,0.0,0.0,-0.012807119791735318,-0.0008306845976307755,0.9875643675097295
2013-05-06,0,0.0,0.0,-0.01056408902996599,0.0023419882276497087,0.9892785268869029
2013-05-08,1,0.0012094413282685871,0.0013337736776381582,-0.010227525999736916,0.0032404229715934313,0.9887959428423
2013-05-10,0,0.0,0.0,-0.008950554171055326,0.00254358296584589,0.9901491139529232
2013-05-14,0,0.0,0.0,-0.010227525999736916,0.00173245409592514,0.9892085468894077
2013-05-16,1,0.0008104815179819146,0.0008933535902433123,-0.010227525999736916,0.00173245409592514,0.9883057035935932
2013-05-20,1,0.001013119881304798,0.001131155611379944,-0.009240092203702185,0.0014264502687208807,0.9891744722571979
2013-05-22,1,0.0011011827971599034,0.001223265952064743,-0.012807119791735318,-0.00012816607616372884,0.9875701713257004
2013-05-24,1,0.0003940875648507868,0.0004274468022303473,-0.011500596204503824,0.0014264502687208807,0.9885677978434535
2013-05-29,-1,-0.002452275470069049,-0.002162820601692826,-0.0071082226167742905,0.003601453442381276,0.992202960696789
2013-05-31,-1,-0.002864473107866177,-0.0025054403189787517,-0.0071082226167742905,0.004191715331166163,0.9916188127046478
2013-06-04,0,0.0,0.0,-0.009240092203702185,0.003947961587365463,0.9904400960237771
2013-06-06,0,0.0,0.0,-0.008677976891174412,0.0028459444566356303,0.9907883037296683
2013-06-10,0,0.0,0.0,-0.008677976891174412,0.005540691875382765,0.9895585720575971
2013-06-12,0,0.0,0.0,-0.005142061489528971,0.006906038860884261,0.9901828982427013
2013-06-14,-1,-0.005445901797957302,-0.0046947000293381235,-0.004272368488706733,0.006906038860884261,0.9883689247255751
2013-06-18,0,0.0,0.0,-0.003373465137251082,0.006906038860884261,0.9900440719602666
2013-06-20,-1,-0.006234261621165738,-0.005426694696734883,-0.0028344275765936266,0.0097332089627992,0.9884801155152038
2013-06-24,-1,-0.005935557945129679,-0.00517276432876998,-0.0009716921970540722,0.0097332089627992,0.988495679506343
2013-06-26,-1,-0.004980499807637546,-0.0043448683694208914,-0.003373465137251082,0.007064571602311409,0.9893586100153815
2013-06-28,-1,-0.005147664820695701,-0.004451785793395309,-0.003373465137251082,0.009762315036158018,0.9884796673419511
2013-07-02,0,0.0,0.0,-0.0009716921970540722,0.009762315036158018,0.9902956373788652
2013-07-05,0,0.0,0.0,-0.0009716921970540722,0.009762315036158018,0.9903303391415516
2013-07-09,0,0.0,0.0,-0.0031249880740659678,0.008803883410696814,0.9889519858637112
2013-07-11,0,0.0,0.0,-0.0031249880740659678,0.00674509439382434,0.9891428444765312
2013-07-15,0,0.0,0.0,-0.006581178955878737,0.005616451439435686,0.9892208625702014
2013-07-17,0,0.0,0.0,-0.010751124288164353,0.005930298566101161,0.9887386989086129
2013-07-19,0,0.0,0.0,-0.010751124288164353,0.005366409230887935,0.9893039809654576
2013-07-23,-1,-0.0016924937577139853,-0.001338684632054732,-0.01187693445888462,0.005366409230887935,0.9881390477254495
2013-07-25,-1,-0.002383407477131537,-0.0019617181444986764,-0.0102841862425732,0.007420293697954647,0.9878446999542219
2013-07-29,-1,-0.0009716653978014754,-0.0007489671034953759,-0.0102841862425732,0.005366409230887935,0.988821186006072
2013-07-31,-1,-0.0017133795255631842,-0.0014243855566275331,-0.008740649726248712,0.005366409230887935,0.9901418546758616
2013-08-02,-1,-0.0015228744672910683,-0.001270653907909665,-0.008740649726248712,0.005366409230887935,0.9899865567964703
2013-08-06,-1,-0.0012599206848261592,-0.0010613143259960258,-0.008740649726248712,0.005241137357172602,0.9918361478433594
2013-08-08,-1,-0.0006946281521754674,-0.0005636402658745438,-0.008740649726248712,0.0036283204174359747,0.9914002087131799
2013-08-12,-1,-0.001675769147475761,-0.0014407715257116838,-0.007743860529846547,0.006476159466071615,0.9916173865904866
2013-08-14,-1,-0.0024867428426602048,-0.0021100419006830507,-0.007988657181570628,0.005865530910618513,0.9913488505265545
2013-08-16,-1,-0.002638500461519644,-0.0022607466127945747,-0.007743860529846547,0.006484241096053525,0.9909199580499769
2013-08-20,-1,-0.0014185307040004364,-0.0012371767417065412,-0.007080318088922033,0.009588275561333355,0.9910648824241572
2013-08-22,-1,-0.0002733657179646374,-0.00021681942011084575,-0.008409414218420737,0.0050723216787609444,0.9901861450605534
2013-08-26,-1,-8.251753699679798e-05,-5.88173590418734e-05,-0.008285474363876269,0.0072086478657606475,0.9889867587077288
2013-08-28,1,0.0005188271991849677,0.0007165066513328196,-0.008923954790781714,0.0072086478657606475,0.9888390601783064
2013-08-30,1,0.0008510718117760676,0.0011413406256995289,-0.00961465124332566,0.0072086478657606475,0.9886176210602291
2013-09-04,1,0.0005374155086843667,0.0008219640173164126,-0.0087840866317203,0.011838021553492936,0.988889561630349
2013-09-06,1,0.0010253863993649457,0.0013849529332741208,-0.009449862691805769,0.008123108631230183,0.9890011903722015
2013-09-10,1,0.0021048021554146736,0.002600724642459223,-0.009449862691805769,0.006854005067102936,0.9895978110867112
2013-09-12,1,0.001369204056084397,0.0017874994050798827,-0.006721345115287553,0.007101129614597326,0.9904563995060887
2013-09-16,1,0.002080859017759834,0.0026151570967671125,-0.006721345115287553,0.007101129614597326,0.9906936485848347
2013-09-18,1,0.0035155182677194608,0.004261551573929805,-0.008775779834234141,0.006308201920888252,0.9902633006688283
2013-09-20,1,0.0021787979024932317,0.0027614398899318744,-0.0061256742198574415,0.007101129614597326,0.9920216284276054
2013-09-24,1,0.0027948967354893247,0.003438073054147955,-0.004575986144749048,0.007101129614597326,0.9932303504606744
2013-09-26,1,0.0016720792132700819,0.002089826761655961,-0.006988767147943806,0.007101129614597326,0.9924816514188384
2013-09-30,1,0.0010311162523100822,0.0013404374245447083,-0.0027307818667983274,0.00803528777873935,0.9924818029154518
2013-10-02,1,0.0014989911812367412,0.001838161699247043,-0.0027307818667983274,0.007101129614597326,0.9929881207190333
2013-10-04,1,0.0014069835656650713,0.0017286635110047447,-0.001846418728548226,0.007101129614597326,0.9933219679087668
2013-10-08,1,0.0021821727728755075,0.0026256949848945392,-0.003518081484401567,0.0068088901611601,0.9922759400090948
2013-10-10,1,0.0027872993508828124,0.0033170773292369683,-0.003518081484401567,0.007413212519805917,0.9913032773531519
2013-10-14,1,0.002821162133730298,0.0033671417092844026,-0.007167461435095472,0.010017780127053035,0.9881890767346575
2013-10-16,1,0.0016012349913883546,0.0019437671482697412,-0.004514372020345167,0.010017780127053035,0.9886221587042978
2013-10-18,1,0.0015283544761228755,0.0017410148656446804,-0.010542843095707341,0.005783138401977132,0.9885962124230169
2013-10-22,1,0.0018355503915797769,0.0020747446813373423,-0.01188323735796954,0.004947131162174068,0.9880840685793078
2013-10-24,1,0.0009534389039387908,0.0010783036300404058,-0.01188323735796954,0.004947131162174068,0.9875890051848605
2013-10-28,1,0.001202237076387123,0.001349886173572883,-0.01188323735796954,0.0026234852786414424,0.987649972292833
2013-10-30,1,0.0013036148262775655,0.0014664967006061493,-0.012733641998273093,0.00047787886992033346,0.9865789562347416
2013-11-01,1,0.0009356310763515155,0.0009852968270147005,-0.012733641998273093,0.00047787886992033346,0.9869224214917242
2013-11-05,1,0.0003149562708331541,0.00032546900423752266,-0.01188323735796954,0.00024736114992967727,0.9883836357944399
2013-11-07,1,0.0015286706264855524,0.0016717777850710457,-0.012701895472739215,-0.0012260708234445835,0.9879811383132097
2013-11-11,-1,-0.0008826548551492396,-0.0006350857486505857,-0.01188323735796954,-0.0012260708234445835,0.9923421426445935
2013-11-13,-1,-0.0014930487035048497,-0.0011768912895702144,-0.011538654271163431,-0.0012260708234445835,0.9933960056603586
2013-11-15,-1,-0.0017006691795992675,-0.0013984934242819108,-0.01171951837508242,7.775075427501161e-05,0.9932743986293082
2013-11-19,-1,-0.002080674673399662,-0.0017477951787471884,-0.010530981491581427,0.0014060722056027947,0.9934318937922831
2013-11-21,-1,-0.003942161554027138,-0.0033291167943484473,-0.009249770197158216,0.002267742336552427,0.9926860170753173
2013-11-25,-1,-0.004491245255775711,-0.0037957442919680133,-0.00945302672578245,0.002267742336552427,0.9924930639732704
2013-11-27,-1,-0.004619056897383118,-0.003969613784864051,-0.005723805433498425,0.0035445273149124798,0.99182124999776
2013-12-02,-1,-0.004076251163155976,-0.0035259696766509405,-0.005723805433498425,0.0035445273149124798,0.9918083837216134
2013-12-04,-1,-0.003457498218642834,-0.0030518551851835478,-0.009756429114308636,0.0035445273149124798,0.9910791171930339
2013-12-06,-1,-0.0034012772975184763,-0.0029995254067650507,-0.008996351918034813,0.002267742336552427,0.9919663118810947
2013-12-10,-1,-0.00324908911147319,-0.0028962517425963003,-0.006282989690373435,0.002267742336552427,0.9922946443975398
2013-12-12,-1,-0.002956927995831147,-0.002660376578342395,-0.009756429114308636,0.0035445273149124798,0.9910345912933344
2013-12-16,-1,-0.003611787373272098,-0.003203628829120549,-0.0067726076299725905,0.002120555713228516,0.9917362078170489
2013-12-18,-1,-0.002726146940234607,-0.0024731509671832193,-0.0067726076299725905,0.004372126364777414,0.9905465057382166
2013-12-20,-1,-0.002075111335357594,-0.0018543462587379987,-0.009756429114308636,0.002101098609864839,0.9906239736921513
2013-12-24,-1,-0.0024869167892352636,-0.002226097091913206,-0.00732942829762218,0.0033450604772256643,0.9906304437481722
2013-12-27,-1,-0.0019516965151352404,-0.0017747682105837329,-0.010871617517199984,0.0019849817453892475,0.9912703773623069
2013-12-31,-1,-0.001343730890992585,-0.0012697281427074337,-0.010871617517199984,0.0019849817453892475,0.9904154305776379
2014-01-03,-1,-0.00303856381192158,-0.002726677774962129,-0.006491795682876913,0.0033450604772256643,0.9910280311408439
2014-01-07,-1,-0.003234955543511031,-0.0029024255451584173,-0.010111618761912399,0.0033450604772256643,0.9900473533768737
2014-01-09,-1,-0.0033704538667079943,-0.003001602584261927,-0.010111618761912399,0.00841856980730428,0.9890643592732213
2014-01-13,-1,-0.0026749327389835953,-0.0024172996635239375,-0.008196090667105064,0.00841856980730428,0.9894014823119425
2014-01-15,-1,-0.0022385540668374416,-0.002084150314623331,-0.008466585824185368,0.010034389665373046,0.98835644454172
2014-01-17,-1,-0.0010796529634670496,-0.0010460953797104466,-0.008466585824185368,0.00841856980730428,0.9895208054969805
2014-01-22,-1,-0.002672467732749005,-0.0024475415050531023,-0.006491795682876913,0.010034389665373046,0.9903699655950988
2014-01-24,-1,-0.0026620971828633646,-0.002433281772616859,-0.007711624971781436,0.010034389665373046,0.9899336066572404
2014-01-28,-1,-0.0035523879008833295,-0.0031902629457030056,-0.007711624971781436,0.010034389665373046,0.9885348682970564
2014-01-30,-1,-0.0024223029262222147,-0.0022122701102568303,-0.00807997437942976,0.008549917523145097,0.9895870832740187
2014-02-03,-1,-0.0015628109423915747,-0.001505067867691804,-0.008391915543945768,0.007985535602103678,0.9899830096448653
2014-02-05,-1,-0.0031629433451961057,-0.002874941897111655,-0.007307812319817945,0.008549917523145097,0.9900778657124142
2014-02-07,-1,-0.0020415331225138084,-0.0019131919635203341,-0.007307812319817945,0.008288513948289031,0.9906770369115786
2014-02-11,-1,-0.0005605397662583202,-0.0004404610742522391,-0.007307812319817945,0.007389827760448843,0.9912993640448186
2014-02-13,-1,-0.0007124700836105321,-0.0007121227952139905,-0.0059050038426127546,0.007389827760448843,0.9917433650462779
2014-02-18,-1,-0.00021195059488762367,-0.00010174050258730534,-0.0059050038426127546,0.008288513948289031,0.9914355915082392
2014-02-20,1,0.0003773684108979357,0.0005422141702012653,-0.0067034492172987304,0.007389827760448843,0.9919167595183269
2014-02-24,-1,-0.0003731197630557625,-0.00033031180339316137,-0.0057784725650001055,0.009989651768959279,0.9903338341416148
2014-02-26,-1,-0.0004296169441776819,-0.0003543741289181138,-0.0057784725650001055,0.009989651768959279,0.991693336493327
2014-02-28,-1,-0.000646695145802127,-0.0006003731310086142,-0.0052565517276545685,0.013753704110347494,0.9906123344165886
2014-03-04,-1,-0.0004221042020060674,-0.0003136315568144137,-0.0052565517276545685,0.013753704110347494,0.9905240196481457
2014-03-06,1,0.0002199511212061184,0.00045185671959280325,-0.0033065501039534384,0.012361107011678765,0.9910572992122478
2014-03-10,1,0.0004866656981820758,0.0007572372549114483,-0.0033065501039534384,0.012361107011678765,0.9909681514815031
2014-03-12,1,0.0002583645384427967,0.00045736571389578867,-0.003657956021887723,0.014062564278840062,0.989979579186371
2014-03-14,1,0.0013374076447904902,0.001738374375730474,-0.007798701896395133,0.012875281732649624,0.9898967194990315
2014-03-18,1,0.0022904966470252424,0.0028490966490957686,-0.007798701896395133,0.012923358400502051,0.9895385230085277
2014-03-20,1,0.0018486744813223084,0.002302383129228411,-0.00860095633147976,0.012923358400502051,0.9890451087858342
2014-03-24,1,0.004048443208071729,0.004815826812950924,-0.00860095633147976,0.0073741513987113025,0.990339800461065
2014-03-26,1,0.00392440152794729,0.00468591745141924,-0.008315812556356859,0.011812191292917003,0.9896378104312752
2014-03-28,1,0.0050503626734732,0.005975893186093336,-0.00946447209369452,0.007425203022055175,0.9890383092601182
2014-04-01,1,0.004098740456331705,0.004883857265892423,-0.00946447209369452,0.007425203022055175,0.9893538409067159
2014-04-03,1,0.005238500156737893,0.006244183394730142,-0.010552783126927404,0.0050978613771978315,0.9884417615928923
2014-04-07,1,0.004286350085203965,0.00513387859262727,-0.010975799811301715,0.004095547919258039,0.9882713589077715
2014-04-09,1,0.0040125252068079174,0.004782875237203037,-0.00946447209369452,0.004095547919258039,0.9876989403113812
2014-04-11,1,0.003107373277777744,0.0037244312595601085,-0.010647929106039036,0.004095547919258039,0.9879591932287062
2014-04-15,1,0.003852748038271781,0.004543646489843751,-0.013742754932077729,0.0026811907308033466,0.9871438780206316
2014-04-17,1,0.002616651018166375,0.0030548515147021203,-0.01026680862981728,0.00013497106506669553,0.9883717200985518
2014-04-22,1,0.0022582586316052216,0.0026301841815162094,-0.013742754932077729,0.00013497106506669553,0.9873080820993101
2014-04-24,1,0.002558888851297818,0.0029171693443234255,-0.013742754932077729,0.0008376185055683698,0.9882016198842457
2014-04-28,1,0.0026729199442317372,0.0030486840008994674,-0.013742754932077729,0.0008376185055683698,0.9864382524042651
2014-04-30,1,0.0018212864535332197,0.0020768546771333355,-0.009094281280289974,0.002762566315643617,0.9870953696604576
2014-05-02,1,0.0013563758327909833,0.001544041606586181,-0.007749736505770313,0.004200372862348133,0.9873410776920628
2014-05-06,1,0.000511476231430738,0.0005707479925684855,-0.006481832403741171,0.009741162590737543,0.9871889188808822
2014-05-08,1,0.0014566827199190197,0.0016388459430121596,-0.005088470205169733,0.008085955454002388,0.9886525590471549
2014-05-12,1,0.0005148138477812762,0.000547154199834105,-0.00442089695150427,0.008085955454002388,0.9895735389189015
2014-05-14,-1,-3.6256060157149485e-05,-8.337705784482627e-06,-0.0038206530467489695,0.008085955454002388,0.9895351646853532
2014-05-16,1,0.00021664069355707325,0.00025843597779189574,-0.0038206530467489695,0.008085955454002388,0.989565840913262
2014-05-20,-1,-0.0011500579242711066,-0.0010066765755064795,-0.002528314706991352,0.009741162590737543,0.9896438488569496
2014-05-22,-1,-0.0003734576595697726,-0.0003536437325239889,-0.0037819492239405247,0.008224008358211217,0.9897074772072041
2014-05-27,1,0.001574361402717291,0.001822058764477691,-0.006045915809257314,0.005150217877571045,0.9920092193478804
2014-05-29,1,0.0012384591646579816,0.0013789536240552437,-0.006045915809257314,0.004337470997500762,0.9924597374257021
2014-06-02,1,0.0011789206071017118,0.0013012644675830924,-0.00589538902977097,0.004337470997500762,0.9920119403377923
2014-06-04,1,0.001807929353545689,0.002004027404277247,-0.006258712880683373,0.0032802990399688815,0.9906915008945885
2014-06-06,1,0.0022705003955083144,0.002534447405029977,-0.0074146380965221725,0.0026761808702630684,0.9901967374569189
2014-06-10,1,0.00203075974922106,0.00223994225143474,-0.0074146380965221725,0.0026761808702630684,0.9900884283503663
2014-06-12,1,0.0019931731525952975,0.0022567461086958054,-0.0074146380965221725,0.002007093233624158,0.989985162853292
2014-06-16,1,0.000973426964888791,0.0010046511874701777,-0.008999211197198974,0.002007093233624158,0.9895824224077944
2014-06-18,1,0.0016904373298652672,0.0018078508662489542,-0.01127492177266146,0.002007093233624158,0.9892504308691012
2014-06-20,1,0.0010276423930152068,0.0010360215458304458,-0.01127492177266146,0.0026667289057071045,0.9896892542076042
2014-06-24,1,0.0008343781335164913,0.0008345070771019461,-0.01127492177266146,0.0055008104033768546,0.9896168204891149
2014-06-26,1,0.0005853309213875891,0.0006118399576818573,-0.01127492177266146,0.006611244718263293,0.9893089436443231
2014-06-30,1,0.0002949453362707188,0.00041788944361483525,-0.01127492177266146,0.006611244718263293,0.989910868682838
2014-07-02,-1,-0.0015423865079416904,-0.0012324317766316938,-0.01056180297456781,0.006611244718263293,0.9910330049282173
2014-07-07,-1,-0.0013664269861750188,-0.001107714653136555,-0.008889864326392112,0.006611244718263293,0.9916292926648916
2014-07-09,-1,-0.0007052365358750347,-0.0005329950304280847,-0.013949891294662512,0.006611244718263293,0.9902932178018895
2014-07-11,-1,-0.0014635884441815648,-0.0012025135732195002,-0.008889864326392112,0.007745771196146006,0.9898734113177762
2014-07-15,-1,-0.0017500546230472952,-0.0014929635873190887,-0.006464587993701252,0.007745771196146006,0.990623503219398
2014-07-17,-1,-0.0025018848364966135,-0.0021237842757500704,-0.004098793374683561,0.008025000412933648,0.9910452903868298
2014-07-21,-1,-0.0028186810256132754,-0.0023635641242868077,-0.004510526630584248,0.008121687760827527,0.9909754868179309
2014-07-23,-1,-0.0029634066267099444,-0.002473126817993003,-0.0035312774599618817,0.008121687760827527,0.9907942970177889
2014-07-25,-1,-0.003119867246717311,-0.002598598390186398,-0.003516813311890842,0.008121687760827527,0.9910737300013542
2014-07-29,-1,-0.0026131466585093367,-0.002163642930941361,-0.003899618271649449,0.008121687760827527,0.9907982237147954
2014-07-31,-1,-0.003907037956062285,-0.003312313563548477,-0.0027709672330845556,0.009798994567242654,0.990210853476531
2014-08-04,-1,-0.004069828168864552,-0.0034592612413752496,-0.003516813311890842,0.009798994567242654,0.9891258798963536
2014-08-06,-1,-0.003228402652940135,-0.002740186471466467,-0.003516813311890842,0.009798994567242654,0.9906104386762128
2014-08-08,-1,-0.001752242978204486,-0.0014680937811950645,-0.003899618271649449,0.009798994567242654,0.9912972885690854
2014-08-12,-1,-0.0019045325636107824,-0.0015966638601305737,-0.004127531925015361,0.009798994567242654,0.991302463626952
2014-08-14,-1,-0.0002911357263641478,-0.00026116351406474554,-0.004974527488658789,0.010616317736373776,0.9907111745917243
2014-08-18,-1,-0.0003097141862336291,-0.00026447388143809134,-0.004974527488658789,0.011423081702414373,0.9903707350831789
2014-08-20,1,0.0007489416566407021,0.0008945643249757553,-0.006849186693445838,0.011077139734803544,0.9905181187536769
2014-08-22,1,0.00044453670014507195,0.0005161600416513224,-0.006849186693445838,0.011077139734803544,0.990407826359828
2014-08-26,1,0.0004953355887247703,0.0005921804244644199,-0.01012305787149727,0.010198464955227988,0.9902906966597733
2014-08-28,1,0.001161724230494741,0.0013346855677026498,-0.01012305787149727,0.007848687403060134,0.9910620816446065
2014-09-02,1,0.0009239676881140077,0.0010727418297387867,-0.01012305787149727,0.006282044179074293,0.9915314461491059
2014-09-04,1,0.0009105506872766528,0.001019984641870771,-0.01012305787149727,0.003983204542597104,0.992038293012573
2014-09-08,1,0.0015605694298990239,0.0018083412724799893,-0.007217142541383662,0.003983204542597104,0.9929369455171602
2014-09-10,1,0.0010579111152066753,0.0012137430628883562,-0.007217142541383662,0.005815913466933657,0.9919359694602097
2014-09-12,1,0.0011625423061830046,0.0013205115018253234,-0.003934613161856367,0.005815913466933657,0.9928393605383733
2014-09-16,1,0.002122485947523118,0.002451287950698855,-0.003934613161856367,0.007246429727859921,0.9927152841727975
2014-09-18,1,0.0017612350575455732,0.00205275724139544,-0.007412077373477787,0.007246429727859921,0.9921882560873028
2014-09-22,1,0.0017511038906477976,0.0020045082514966407,-0.007412077373477787,0.006111123564501901,0.9923915845260789
2014-09-24,1,0.0006171426069522625,0.0006945560933962684,-0.0018988593338903292,0.00753057247405848,0.9928617593597188
2014-09-26,1,0.00045433718401841365,0.0004651119145773656,-0.0032897694506992302,0.007966421270765675,0.9916861289442247
2014-09-30,1,0.0005861247186351678,0.0006779712572346883,-0.0032897694506992302,0.008713373641994517,0.9913664564261705
2014-10-02,1,4.610685877301694e-05,6.792768658589715e-05,-0.0032897694506992302,0.0098796412085504,0.9901009227274941
2014-10-06,-1,-8.399198296962302e-05,-1.1831954997490663e-05,-0.003498741814794666,0.0098796412085504,0.9901435682941443
2014-10-08,1,0.0007605809401942277,0.0007808037382792702,-0.004027960888925338,0.008713373641994517,0.990919922813322
2014-10-10,1,0.00020989617635550783,0.00031942442115415854,-0.004623189995963645,0.0098796412085504,0.9899369661336211
2014-10-14,1,0.0010955759634633513,0.00110432178153043,-0.004623189995963645,0.007996748785837317,0.9907271525877801
2014-10-16,1,0.0012163139395886483,0.0013488988595718445,-0.004623189995963645,0.007996748785837317,0.9904827207913681
2014-10-20,1,0.0016321438217106322,0.001835806963192215,-0.00512668599051021,0.00987716814832048,0.98986255878635
2014-10-22,1,0.0022536172823677666,0.00254212472261532,-0.00512668599051021,0.01042848608393145,0.9898042478010525
2014-10-24,1,0.0035054443326005295,0.004010906262617835,-0.006423322484125918,0.010421666128417537,0.9900402180261094
2014-10-28,1,0.004173970471474428,0.004792829819559268,-0.008273723132468934,0.009191751354092524,0.9892629826347734
2014-10-30,1,0.004907650176765211,0.005622313182105376,-0.008273723132468934,0.009191751354092524,0.9901782030942153
2014-11-03,1,0.004416317120870019,0.005028184409682159,-0.008273723132468934,0.009191751354092524,0.9906340977532705
2014-11-05,1,0.003898470441604767,0.004430895987327849,-0.006423322484125918,0.009191751354092524,0.9910408025554728
2014-11-07,1,0.00451234975298565,0.005183046631904846,-0.00310622878101435,0.009191751354092524,0.9916845128863667
2014-11-11,1,0.00434250877363056,0.004972502234645542,-0.006423322484125918,0.009191751354092524,0.9910353586725661
2014-11-13,1,0.002747947030222385,0.003133577235707616,-0.00310622878101435,0.010173262751569294,0.9917041439448582
2014-11-17,1,0.002840579880521427,0.003224081527728859,-0.0029892025047976107,0.009191751354092524,0.9919911121721523
2014-11-19,1,0.0037906947327926424,0.004332787183977118,-0.0029892025047976107,0.012323114079053208,0.9907937679236825
2014-11-21,1,0.002687773752024355,0.0029499044159200945,-0.0029892025047976107,0.008612686182508846,0.9908216353825116
2014-11-25,1,0.0014423554657232104,0.0015267134874439518,-0.00189352492135091,0.014905697071636609,0.990637710644041
2014-11-28,1,0.0022937339464690373,0.002520044920350446,-0.00189352492135091,0.016557507036251737,0.9903088245852388
2014-12-02,1,0.002006101184302068,0.0021467209043381386,-0.006588417656496571,0.016557507036251737,0.9880632292788271
2014-12-04,1,0.0013180175449417793,0.001318424134572287,-0.010958208988231771,0.016557507036251737,0.9867937108029874
2014-12-08,1,0.0015608116940558445,0.0015685282599533458,-0.010958208988231771,0.016557507036251737,0.9869364011858134
2014-12-10,1,0.0011541653579560213,0.0011916834879740414,-0.006588417656496571,0.016557507036251737,0.987507752820545
2014-12-12,1,0.001239412997820547,0.0012701751149685706,-0.007240088904882026,0.011466561959036697,0.9879336734135717
2014-12-16,1,0.0007782127610427388,0.0008713272086230042,-0.004581741359527923,0.018829985250446147,0.9867900310399295
2014-12-18,1,0.0025231243728895394,0.002663320445076202,-0.004581741359527923,0.01188439799519383,0.9879944241738406
2014-12-22,1,0.0008535760701323379,0.0010060409830546333,-0.0035033927864203925,0.01188439799519383,0.98756947491706
2014-12-24,1,0.002132755006804207,0.002154618163427003,-0.0035033927864203925,0.008683955589883925,0.9892376469518813
2014-12-29,1,0.0029875461296890154,0.0031121745933436144,-0.00965394790427361,0.008398544483323311,0.9894848662546375
2014-12-31,1,0.001639997656455645,0.0016420383468277852,-0.00636080826564057,0.008683955589883925,0.9896286754784962
2015-01-05,1,0.00045291654523653,0.0006029419732305431,-0.0022911241349767453,0.008683955589883925,0.990925855746595
2015-01-07,1,0.001092725533245151,0.001147372183235235,-0.005721231537523964,0.009190282179914848,0.990200040105851
2015-01-09,1,0.0012857259758705481,0.0013195128983538686,-0.00965394790427361,0.008823234268602969,0.9868539919821699
2015-01-13,1,0.0010851165853430994,0.0011183872276277107,-0.00965394790427361,0.011072051029889105,0.9854992982758742
2015-01-15,1,0.0021408816830195835,0.002234456019304201,-0.010132263492312936,0.008365990442148804,0.9863139817100459
2015-01-20,1,0.0028314466357388583,0.002997375197755369,-0.013178125934448792,0.004258053430949043,0.9855269459404866
2015-01-22,1,0.002904377091699271,0.0031275237423560383,-0.013417471664881187,0.003013644525514275,0.9857258442210868
2015-01-26,1,0.0029304007956388886,0.0031290103584345275,-0.013417471664881187,0.0025036527377710156,0.9850046305926118
2015-01-28,1,0.0023784628701423016,0.0025166292621631053,-0.013417471664881187,0.0025036527377710156,0.9853614718761207
2015-01-30,1,0.001950094646372671,0.002038513794365457,-0.01820014661836425,0.0017683033066651299,0.9855005425597725
2015-02-03,1,0.0016965589066803297,0.0017253721880842888,-0.01820014661836425,0.0017210321563016608,0.9855297241960751
2015-02-05,1,0.00216265491095921,0.002260696574276338,-0.018960189526111348,0.0017210321563016608,0.9851483190298673
2015-02-09,-1,-0.0005965996921929393,-0.0003928421277825464,-0.012289353598233885,0.002361839286680608,0.9895439674251124
2015-02-11,-1,-0.0014804311289765954,-0.001141922893163578,-0.010212045402457069,0.002361839286680608,0.9902603644870078
2015-02-13,-1,-0.001674846308631541,-0.0013314112961873071,-0.01177825934261644,0.0043225231267143005,0.9893866449142869
2015-02-18,-1,-0.0035649141271321045,-0.0029500633605708186,-0.007852269500220964,0.008696535154862793,0.9891447876205366
2015-02-20,-1,-0.003782811757881706,-0.0031525324543166793,-0.0067642512733215275,0.012388073485978788,0.9889785622441284
2015-02-24,-1,-0.0038856235782852937,-0.0032189103404740268,-0.008932704103599653,0.008551156666631166,0.9890614455379838
2015-02-26,-1,-0.004588937402609051,-0.0038298324455775926,-0.016158406570892233,0.008551156666631166,0.9883077873468467
2015-03-02,-1,-0.005940712599128685,-0.0050376501869277175,-0.0061818258015452305,0.012388073485978788,0.9877373939698744
2015-03-04,-1,-0.005302163794835271,-0.004522509702179791,-0.013416129040077334,0.012388073485978788,0.9875332256253604
2015-03-06,-1,-0.005384521087839064,-0.004608272094857126,-0.008182708170666958,0.013022818292087564,0.9867372126144742
2015-03-10,-1,-0.004527080942557694,-0.0038900899382605025,-0.008182708170666958,0.013022818292087564,0.987459622570213
2015-03-12,-1,-0.004226774437322658,-0.0035781450505987383,-0.0076783901718823055,0.013022818292087564,0.9880101336133581
2015-03-16,-1,-0.004060358642301075,-0.0034467951165687858,-0.0076783901718823055,0.012294631780350536,0.9886831242550111
2015-03-18,-1,-0.0025907794708955323,-0.002178960261568029,-0.012931844717936892,0.004322894423190412,0.9898158861218029
2015-03-20,-1,-0.0018478601860795552,-0.0015608591678747223,-0.012931844717936892,0.004374831205793786,0.9889319852538143
2015-03-24,-1,-0.0022620895086341714,-0.0019517126215805435,-0.012931844717936892,0.004374831205793786,0.9890075623042109
2015-03-26,-1,-0.002807720492752773,-0.0024729378074841617,-0.006997894047563828,0.013118291756942409,0.9886734050024112
2015-03-30,-1,-0.0019002815229312905,-0.0016705959669187785,-0.006997894047563828,0.005596032020595179,0.9899163253373683
2015-04-01,-1,-0.0031774250792080457,-0.002783267029304274,-0.0046276138531185194,0.005596032020595179,0.990235687084095
2015-04-06,-1,-0.0015871425471826873,-0.0013878307658541753,-0.0046276138531185194,0.004850451243724959,0.9914889282551459
2015-04-08,-1,-0.0016368227382267833,-0.0014350145549083065,-0.012272992013046762,0.004850451243724959,0.9894318458230682
2015-04-10,-1,-0.0017073418459663545,-0.0014397172019383047,-0.012272992013046762,0.004850451243724959,0.9898466119103558
2015-04-14,-1,-0.0020619529970374137,-0.0017664146678606223,-0.006787968626499363,0.004850451243724959,0.9905208798604564
2015-04-16,-1,-0.002140270351914356,-0.0018695348487742596,-0.006124685359541413,0.009547133528732071,0.9901481526534357
2015-04-20,-1,-0.0011005311001194553,-0.0009605576083384065,-0.005500965839292873,0.00859022523149574,0.9911379860135392
2015-04-22,-1,-0.0022942109605990375,-0.001968345149240547,-0.002791383625573687,0.0093388994253394,0.9910600408447675
2015-04-24,-1,-0.0010226677410736602,-0.0008771925177573088,-0.002791383625573687,0.008547152033048944,0.9920902433743395
2015-04-28,-1,-0.0008484580571961114,-0.0007334144051681841,-0.005011116789872826,0.008547152033048944,0.9918710597063385
2015-04-30,-1,-0.0013801696303939732,-0.0011971463230516215,-0.005011116789872826,0.008547152033048944,0.9915421009046645
2015-05-04,-1,-0.00023873890610347554,-0.0002180403665835364,-0.007710019381328386,0.00507281232757391,0.9917982995056124
2015-05-06,-1,-0.002243396288116814,-0.0019767079708466776,-0.005011116789872826,0.00507281232757391,0.9933415319039687
2015-05-08,-1,-0.0017695213680280172,-0.0015704128043724725,-0.00506114347647747,0.0035106357670595684,0.9937546194271443
2015-05-12,-1,-0.0020995373087045145,-0.0018513370902363958,-0.007710019381328386,0.00507281232757391,0.9924600014830187
2015-05-14,-1,-0.0009499399676815682,-0.0009149584344640208,-0.008118200891072142,0.0035106357670595684,0.9923058494309467
2015-05-18,-1,-0.0007860740688831551,-0.0007477231583167599,-0.010878906573417188,0.0026530544616097367,0.9922746810133278
2015-05-20,1,0.0005202199450776103,0.0007328474525226494,-0.010878906573417188,0.002507119036397205,0.9919382101055818
2015-05-22,1,0.0012486343889016184,0.0016136454984933238,-0.010878906573417188,0.0020994151995852154,0.9913805869142845
2015-05-27,1,0.0004217372737236936,0.0005909190422936225,-0.011130544022533353,0.00204719323100006,0.9909999256328148
2015-05-29,0,-5.274085008508608e-05,1.3731502560301515e-05,-0.011130544022533353,7.32493722372322e-05,0.9916068767025832
2015-06-02,-1,-0.0003660918755766285,-0.00031066248204358144,-0.008856261855036037,7.32493722372322e-05,0.992384380038075
2015-06-04,-1,-0.0005565024228609822,-0.0005056440562303511,-0.0073167916675311705,0.0020994151995852154,0.9922793322119596
2015-06-08,-1,-0.0008306564906108619,-0.0008299065994239919,-0.0073167916675311705,0.004255351926302587,0.9912883073392516
2015-06-10,1,0.00012426452912588093,0.00031739607341701624,-0.007974258563611872,0.0023298458027227634,0.9917630681715737
2015-06-12,0,-8.097631282893557e-05,0.00013952101992119673,-0.007269733540716678,0.003677578715869597,0.9927941121519159
2015-06-16,-1,-0.00020954333714911133,-3.888603290702402e-06,-0.004968737369884753,0.0060421776718821854,0.9930347809496174
2015-06-18,1,0.000815026387413009,0.0011872414777291133,-0.007269733540716678,0.0060421776718821854,0.9922105399458946
2015-06-22,1,0.00041818004865887845,0.0007170225618072897,-0.008176493361186109,0.0060421776718821854,0.9911971305308693
2015-06-24,-1,-0.0002064470374503201,-1.6364976845532463e-06,-0.00803531898074263,0.0060421776718821854,0.9907875791093045
2015-06-26,0,-0.0002083135237232925,7.098709213261122e-06,-0.00803531898074263,0.007350937849656585,0.9904117941798618
2015-06-30,1,4.599062278030442e-05,0.0003345452255227523,-0.00803531898074263,0.007350937849656585,0.9904076500700403
2015-07-02,-1,-0.00043203232007665805,-0.0003539980876545625,-0.00803531898074263,0.008037207848305942,0.9892195326422971
2015-07-07,1,0.0003024444023853183,0.0004652155783982211,-0.008637318005556515,0.008037207848305942,0.9888414943085152
2015-07-09,-1,-0.0002933029615357071,-0.00022098050822628678,-0.006434399547849297,0.01110387273439733,0.9888144883267512
2015-07-13,-1,-0.0005632468770428738,-0.0005486938079966753,-0.006434399547849297,0.01110387273439733,0.9884995674900444
2015-07-15,-1,-0.000441804498982228,-0.00043126301461504565,-0.006434399547849297,0.012233777939160828,0.9881901564328772
2015-07-17,1,0.00022594794857755016,0.0003155483110895335,-0.004915362940328788,0.01110387273439733,0.989197898722419
2015-07-21,-1,-0.0010941810856263537,-0.0009987525226155356,-0.004492972020069947,0.01110387273439733,0.9901391454192695
2015-07-23,-1,-0.002885451839674727,-0.0025178170410573983,-0.004492972020069947,0.01110387273439733,0.9902821903232029
2015-07-27,-1,-0.0024088736293877366,-0.0020986564565550624,-0.005921749411658224,0.010085249344483935,0.9891367291270171
2015-07-29,-1,-0.0024712641545654133,-0.0021473304328956284,-0.007567752158859163,0.01110387273439733,0.9873278532670182
2015-07-31,-1,-0.0008188659524680068,-0.0007034118802056123,-0.007567752158859163,0.010280060437689064,0.9888459937963726
2015-08-04,-1,-0.0006234291913305225,-0.0005675628793522904,-0.012091555310583474,0.008869989062620931,0.9882908028444485
2015-08-06,-1,-0.00033628658630044394,-0.00031313527893964317,-0.012091555310583474,0.008869989062620931,0.9882552976721769
2015-08-10,1,0.0003171593662877174,0.0004290536990362605,-0.014829344109914395,0.010280060437689064,0.9868632470313463
2015-08-12,1,0.0009035922873219786,0.001109294875541165,-0.014829344109914395,0.007445689880269044,0.98637180947304
2015-08-14,1,0.0007913774018186437,0.0009490830920089231,-0.014829344109914395,0.007348392306950141,0.9866649379429371
2015-08-18,1,0.00022405136459113193,0.0002559560444683386,-0.014829344109914395,0.010407203985577387,0.9860967530496305
2015-08-20,1,0.00036446161927830133,0.0004570120886721008,-0.016884657305432392,0.010407203985577387,0.9860106925668779
2015-08-24,-1,-0.0016865821741088192,-0.0014834020231851927,-0.014843766010529252,0.010407203985577387,0.9873119015033504
2015-08-26,-1,-0.0014516265276764365,-0.0013370993391161583,-0.014025423526702128,0.009619868580471024,0.9883722511215357
2015-08-28,-1,-0.0010721233888857777,-0.000999213433052915,-0.014025423526702128,0.009619868580471024,0.9883065513832534
2015-09-01,-1,-0.002190646699918681,-0.002017549099774111,-0.00832416411972972,0.010133358399627737,0.9895606712538828
2015-09-03,-1,-0.0020587761654769776,-0.0018840267923699906,-0.01310050992040525,0.010133358399627737,0.9886815820880734
2015-09-08,-1,-0.0022413456796049206,-0.002027318212938238,-0.01310050992040525,0.010133358399627737,0.9889381753152656
2015-09-10,-1,-0.002299915928374413,-0.002122766474606493,-0.006620100876274544,0.010133358399627737,0.9889768962843172
2015-09-14,-1,-0.0021358843193255723,-0.001955628327023775,-0.006620100876274544,0.010754682217238288,0.9878627741418565
2015-09-16,-1,-0.0007956270719891643,-0.00077583415355548,-0.006620100876274544,0.010096915641957683,0.9888455025151556
2015-09-18,-1,-0.0010943772043509683,-0.0010834454441786758,-0.004973767333181675,0.010096915641957683,0.9892181670758068
2015-09-22,-1,-0.0014533802180718774,-0.0013862446212454453,-0.004973767333181675,0.010754682217238288,0.9892184025133322
2015-09-24,-1,-0.0010945509733199267,-0.0010765115911527767,-0.004973767333181675,0.010754682217238288,0.9893138612596087
2015-09-28,-1,-0.0017705851946941274,-0.0016292400940600008,-0.009449553326113453,0.010434878805633195,0.9883477573511953
2015-09-30,-1,-0.0010482990469842645,-0.0010089459846108254,-0.01140421108875343,0.008778517576482334,0.988578314787722
2015-10-02,-1,-0.0014635706770435356,-0.0013688047603014352,-0.00926689964283512,0.008778517576482334,0.9896355701510471
2015-10-06,-1,-0.0010496643923882311,-0.0010107642286518346,-0.007651736874452991,0.007632146589075143,0.9912315889984253
2015-10-08,-1,-0.0005214849733612873,-0.00046989177006496807,-0.00926689964283512,0.007110987568302286,0.9908355310330814
2015-10-12,1,0.0009110442669966481,0.0011865285734589336,-0.01140421108875343,0.0008281618257314222,0.989832081448452
2015-10-14,1,0.0011963680308238914,0.0015236864097872204,-0.01140421108875343,0.007632146589075143,0.9883949184292724
2015-10-16,1,0.0012126543067210573,0.0015374678251137538,-0.01140421108875343,0.009363361661827711,0.9883132957226338
2015-10-20,1,0.001350822373780243,0.001687331563110417,-0.011963806715649344,0.0016072538638287684,0.9882753172182067
2015-10-22,1,0.0009987204739692784,0.0012558769225391286,-0.011415845665814349,0.011814967314527615,0.9876977382060262
2015-10-26,-1,-0.0003961415705200943,-0.0003468958053402982,-0.0068935099663741,0.011814967314527615,0.9890726745771501
2015-10-28,-1,-0.0009391269369706272,-0.0009102570397287908,-0.006198334168693244,0.011814967314527615,0.9894692026182179
2015-10-30,-1,-0.0003075010213590653,-0.00023791819977053998,-0.006198334168693244,0.009639477523150104,0.9892668648170115
2015-11-03,-1,-0.0008478412244440002,-0.0008041765229867527,-0.007782608319790275,0.011823192719646996,0.987628220770949
2015-11-05,-1,-0.0017762809116314113,-0.001610302478404027,-0.006198334168693244,0.01291916364939514,0.9871251673243936
2015-11-09,-1,-0.0027614975779056473,-0.002521008509693645,-0.007782608319790275,0.01291916364939514,0.9875700147079122
2015-11-11,-1,-0.00146847055788376,-0.0013656576745126334,-0.009280514020041637,0.009639477523150104,0.9888049821723255
2015-11-13,-1,-0.0013424075503616494,-0.0012204090452943045,-0.010211345322752929,0.008021362172433034,0.9888627091834624
2015-11-17,-1,-0.0021009756859247425,-0.0018791934712406855,-0.009280514020041637,0.009639477523150104,0.988348835702589
2015-11-19,-1,-0.000729524638472068,-0.0006587467676833751,-0.010211345322752929,0.007260771784088772,0.989544257944985
2015-11-23,-1,-0.0002966094722337776,-0.00027699670747245107,-0.009329912783566121,0.007260771784088772,0.9893043089981539
2015-11-25,0,-3.2670868132129223e-05,7.747131156308655e-05,-0.009329912783566121,0.009874215274206198,0.9883778460990408
2015-11-30,1,0.00022542684231558044,0.0003369995246321324,-0.009329912783566121,0.007727095441780883,0.9890077280776157
2015-12-02,1,0.0010181625934299952,0.0012485951907851875,-0.011584020134064604,0.004737092141237014,0.9895396123625345
2015-12-04,1,0.002046925628680648,0.0024266780107427537,-0.011584020134064604,0.004178253849058939,0.9900096785226558
2015-12-08,1,0.0014345581113032902,0.0017687828281905005,-0.010946209931052822,0.004737092141237014,0.9899772360177538
2015-12-10,1,0.0005221602257044311,0.000669835216022781,-0.007813766690820302,0.011170245540461065,0.9893328907363217
2015-12-14,-1,-0.00062965997852519,-0.0005749574594391613,-0.007813766690820302,0.011170245540461065,0.988792974452258
2015-12-16,1,0.00041901459908960924,0.0005239147464468749,-0.011254906952426574,0.011170245540461065,0.9872820952595751
2015-12-18,-1,-0.000294318143641199,-0.00029190085734454285,-0.011467564165957464,0.016154066219558918,0.9850396115034776
2015-12-22,1,0.0012381883946159739,0.0015278499049172782,-0.011467564165957464,0.016154066219558918,0.9847947822471712
2015-12-24,1,0.0020481242516254055,0.0024310545606483526,-0.015023429633603178,0.011170245540461065,0.9848766923017096
2015-12-29,1,0.0022061620003505774,0.0026263506958531324,-0.015023429633603178,0.011170245540461065,0.9845387880602717
2015-12-31,1,0.001453952894771169,0.001785457868645322,-0.00899905518003554,0.016154066219558918,0.9845482694948949
2016-01-05,1,0.0015755299125695208,0.0019537510517051767,-0.007303259681728384,0.017269421904479346,0.984115312365582
2016-01-07,1,0.001212582069640464,0.0015582414813229961,-0.0057544157271516815,0.017269421904479346,0.9847491885255718
2016-01-11,1,0.0023594993034374828,0.0028528163885923395,-0.009603750102441515,0.014320845201611157,0.98557872947923
2016-01-13,1,0.0017128651841946468,0.002108042700913518,-0.009603750102441515,0.014320845201611157,0.9850185843828139
2016-01-15,1,0.0013558563562070494,0.0016134793537559517,-0.0057544157271516815,0.014320845201611157,0.9868120077470006
2016-01-20,1,0.00025293994725332665,0.0003246671070003184,-0.0057544157271516815,0.014320845201611157,0.9853162992906904
2016-01-22,1,0.0017179513461965598,0.0020064863229818644,-0.009603750102441515,0.0115727409303797,0.9854489634892842
2016-01-26,1,0.0006528237140302856,0.0007027858611615679,-0.009098313116644125,0.0115727409303797,0.9853142158833095
2016-01-28,1,0.0008339132958965629,0.0009241604224920013,-0.011427119654475222,0.014320845201611157,0.9824485496887242
2016-02-01,1,0.0017488013704917665,0.0019521746470556258,-0.011427119654475222,0.014320845201611157,0.9829176493872707
2016-02-03,1,0.0017842447209428223,0.0019465370964093776,-0.011427119654475222,0.0115727409303797,0.9832366395335287
2016-02-05,1,0.0020687034590051935,0.0022860035579432125,-0.011427119654475222,0.016202976396224554,0.9829500636615415
2016-02-09,1,0.0020225163806508505,0.002278975983332044,-0.009098313116644125,0.016202976396224554,0.9831124180698275
2016-02-11,1,0.0011596066193246145,0.0012680299591266854,-0.007804925032544911,0.016202976396224554,0.9838084216542663
2016-02-16,1,0.0016459845316258294,0.0017999518061117877,-0.007804925032544911,0.013591244386104465,0.9844583471434452
2016-02-18,1,0.0020031614858740557,0.002188302665365923,-0.004187504063923529,0.011393497247437876,0.988153904114275
2016-02-22,1,0.0014105773506652764,0.0015271362028369236,-0.004187504063923529,0.00973698352589584,0.989236988137337
2016-02-24,1,0.0008982853768037441,0.0009720178082668813,-0.0010757889284393916,0.00973698352589584,0.9897065787158438
2016-02-26,1,0.000758069292469332,0.0007849577831028269,-0.0010757889284393916,0.008184717505450505,0.9923318887919398
2016-03-01,1,0.001494812290504169,0.0016301106969328402,-0.002653160841596912,0.008184717505450505,0.9920495537679268
2016-03-03,1,0.0020686866491197243,0.0022892389307370116,-0.002653160841596912,0.007818185761617963,0.9926746295754268
2016-03-07,1,0.0037630933598151494,0.004276438104288663,-0.008058222036945001,0.006301393783509428,0.9925550047281987
2016-03-09,1,0.00440582338961344,0.005006213634304077,-0.010119403109241677,0.005009427450995648,0.9920918499166326
2016-03-11,1,0.004189498563214817,0.00475668687269591,-0.010119403109241677,0.006322560024356184,0.9923424163923777
2016-03-15,1,0.004020345500869027,0.004569297223426448,-0.010119403109241677,0.007005520122505526,0.992247329836358
2016-03-17,1,0.004405085592765166,0.0049920834903958485,-0.010119403109241677,0.006322560024356184,0.9919215668462327
2016-03-21,1,0.0032187913235209127,0.0035613908979176554,-0.00972627852861914,0.006322560024356184,0.9919517737340589
2016-03-23,1,0.0029162719189335306,0.0031806207345653837,-0.012132969983607272,0.005704485412671544,0.9898121225810561
2016-03-28,1,0.002706201486397438,0.002961578814029636,-0.010743868860903807,0.006890358870599366,0.9898052072412541
2016-03-30,1,0.002506164467332508,0.002719506390743653,-0.00972627852861914,0.006890358870599366,0.9889201027901348
2016-04-01,1,0.002242014989948487,0.00235985626188224,-0.010743868860903807,0.006890358870599366,0.9840537558684932
2016-04-05,0,-4.9273024832179784e-05,0.00020692318654369382,-0.007489838161537376,0.01052491102944295,0.9842215957435982
2016-04-07,1,0.00026573136058460694,0.0004175227588041542,-0.004803469041414523,0.01052491102944295,0.9847642082205758
2016-04-11,1,0.00108305901860702,0.0011202306335664153,-0.007489838161537376,0.011747409004443167,0.9842254006770954
2016-04-13,1,0.0007641928111758004,0.000880565099939519,-0.007489838161537376,0.01107596297858577,0.9844379863891438
2016-04-15,1,0.0014475910638260879,0.0014843353694322498,-0.010455523635162976,0.01107596297858577,0.9843161926909625
2016-04-19,1,0.0010799529774209837,0.001097893200375124,-0.011454195453780566,0.01107596297858577,0.9842065219864633
2016-04-21,-1,-0.0011381798692088763,-0.0008407096078865925,-0.005894033203426237,0.01107596297858577,0.9849302751140637
2016-04-25,-1,-0.000262253618978818,-9.189591825762043e-05,-0.008115805740397693,0.007199091683096839,0.9854010675033492
2016-04-27,1,0.0018745917924274961,0.0020019551437902056,-0.008115805740397693,0.004326950717131061,0.9875461753561025
2016-04-29,-1,-0.0013931355677176368,-0.0011739246263479687,-0.0049011613656326745,0.006534118546452763,0.9920115958071416
2016-05-03,-1,-0.0009052588545877575,-0.0006857426436358909,-0.0049011613656326745,0.006534118546452763,0.9926721927787394
2016-05-05,-1,-0.001320853880674936,-0.0010290954993483798,-0.0046929438227098705,0.007586770749094938,0.9917361062697224
2016-05-09,-1,-0.0018049416765803475,-0.0014183343144568712,-0.002361715795267259,0.007586770749094938,0.9924158624978198
2016-05-11,-1,-0.0009305018524569551,-0.0006834509351139284,-0.002361715795267259,0.007311597913783286,0.992970731277915
2016-05-13,-1,-0.002121522042177042,-0.001691469103779668,-0.002361715795267259,0.007311597913783286,0.9926268687715679
2016-05-17,-1,-0.0022885995221600588,-0.001881293852570211,-0.00135388774118858,0.007311597913783286,0.9927616301142401
2016-05-19,-1,-0.0024275305106116196,-0.002057792391977863,-0.0011838120844017688,0.008089518581976525,0.993023881714535
2016-05-23,-1,-0.0028137451180125974,-0.0023985190759238414,-0.0011838120844017688,0.008089518581976525,0.9922472990425315
2016-05-25,-1,-0.0034034942306979486,-0.0028665593645052475,-0.0016309575081511702,0.008089518581976525,0.9914317002780815
2016-05-27,-1,-0.0031250691669998287,-0.0026074371535626567,-0.003704114462216412,0.008089518581976525,0.9917011444996693
2016-06-01,-1,-0.0028935808678114527,-0.0023656594918045736,-0.003704114462216412,0.008645267308711572,0.9911115358423211
2016-06-03,-1,-0.0012092354391062452,-0.0009431827154930307,-0.003704114462216412,0.008645267308711572,0.9913680091639309
2016-06-07,-1,-0.001433738316901404,-0.001103560712603,-0.003704114462216412,0.00914558082771876,0.9910044010481386
2016-06-09,-1,-0.0010643364745056565,-0.0007935467678033785,-0.0064811315441062976,0.010704778764038966,0.9900959160445314
2016-06-13,-1,-0.0024477369989333673,-0.001967648219782659,-0.003704114462216412,0.010704778764038966,0.990100530713709
2016-06-15,-1,-0.0016422688934704258,-0.0013280955119845356,-0.0064811315441062976,0.010704778764038966,0.9894564411601845
2016-06-17,-1,-0.0010861766040764949,-0.0008217854638374533,-0.0064811315441062976,0.010239740997705735,0.989970319819102
2016-06-21,-1,-0.0020682352391732392,-0.0016903854480630805,-0.003655350351705939,0.010239740997705735,0.990313886164341
2016-06-23,-1,-0.0018870584570183713,-0.001586237819644325,-0.0011746965233729923,0.012789721443972295,0.9903385294148928
2016-06-27,-1,-0.0015980990693934176,-0.001359938549626309,-0.0011746965233729923,0.012789721443972295,0.9901255829780038
2016-06-29,-1,-0.00010609167496895516,-5.246343618326628e-05,-0.003655350351705939,0.0075519808222307945,0.9911140004886183
2016-07-01,1,0.0006835806253310951,0.0006987467996876931,-0.009286726362809396,0.005349116471833733,0.9910487816228847
2016-07-06,1,0.0008313005338598716,0.0008361661060999055,-0.013589752123622999,0.003279816534249991,0.9897795654983178
2016-07-08,1,0.001579950641694292,0.0017151780493910227,-0.015435543106097986,0.0025647764655270925,0.990022019647933
2016-07-12,1,0.0019793007189708735,0.002199433086413411,-0.015435543106097986,0.003279816534249991,0.9892889208433436
2016-07-14,1,0.0011516330011729205,0.0012158120910114147,-0.013337931925702828,0.003279816534249991,0.9901647994450876
2016-07-18,1,0.0011105081193658634,0.001118619861441281,-0.013337931925702828,0.003056185097925173,0.9899514246444522
2016-07-20,1,0.0007395210638713825,0.0007695038958287995,-0.0145135020882129,0.004921432046761839,0.9892619278747382
2016-07-22,1,0.001636193536068406,0.001762812185777964,-0.0145135020882129,0.004921432046761839,0.9887531555766709
2016-07-26,1,0.0011981308139818617,0.0013004940511911853,-0.013309849852346676,0.005722737361268958,0.9894188816401418
2016-07-28,1,0.0012711871742409663,0.0014603036739927451,-0.012787776553755216,0.005722737361268958,0.9903809432092551
2016-08-01,1,0.0005151061506769412,0.0006511048729637126,-0.008874715381209939,0.007605941240343042,0.9907944676677651
2016-08-03,-1,-0.0009481035081319797,-0.0008938712686490941,-0.008199116140665316,0.008560444936251044,0.9913788252797611
2016-08-05,-1,-0.0017667859670498724,-0.0016134287366442737,-0.007347024504149598,0.008719355905632276,0.9912218984123352
2016-08-09,-1,-0.0006931189078523107,-0.0006829769822498278,-0.007347024504149598,0.008560444936251044,0.9914055714170702
2016-08-11,-1,-0.0007440935340639529,-0.0007315868987493618,-0.009406897112010804,0.008719355905632276,0.9896375985030466
2016-08-15,-1,-0.0005549456551995327,-0.0005332268180988694,-0.012218154371265309,0.009516109251563279,0.9885463749672291
2016-08-17,-1,-0.0006379403184406644,-0.0006370054458584776,-0.009406897112010804,0.008719355905632276,0.9894095698821548
2016-08-19,-1,-0.0006813991928979873,-0.0006807957582027843,-0.0039736057080509805,0.009516109251563279,0.9890550475515404
2016-08-23,-1,-0.0001851358485614868,-9.941448652016712e-05,-0.0039736057080509805,0.012400055897744334,0.9885079684287545
2016-08-25,-1,-0.0006791267741955392,-0.0006451425056742058,-0.008927574202690589,0.012400055897744334,0.9876820170716993
2016-08-29,-1,-0.0012518733219670578,-0.0011351795663065549,-0.008927574202690589,0.012400055897744334,0.9874804219395377
2016-08-31,-1,-0.0005502951806525245,-0.0005464543117371635,-0.008927574202690589,0.008708221047635335,0.988315013268903
2016-09-02,-1,-0.00018454225532881953,-0.00010970004302061751,-0.010292331699077093,0.007208494437968932,0.9881345809664915
2016-09-07,1,0.0002535898257956013,0.000390343673094336,-0.012630720645104981,0.0070108380574162325,0.9871935426373815
2016-09-09,-1,-0.0003160151883297268,-0.00026223714627647966,-0.010292331699077093,0.005111826766392447,0.9890902436087031
2016-09-13,-1,-0.0012738970999351638,-0.001117681782866552,-0.010292331699077093,0.005111826766392447,0.9896164907605473
2016-09-15,-1,-0.0006362302472963255,-0.000589142768908732,-0.010292331699077093,0.0050201137984280456,0.989362181912789
2016-09-19,1,0.001496092729527531,0.0018384200410889013,-0.010292331699077093,0.004957638532274728,0.9893211852601788
2016-09-21,1,0.000356584939646334,0.0003848990548520194,-0.010292331699077093,0.004957638532274728,0.9891967061259912
2016-09-23,1,0.0008287649999344576,0.0009216360571128466,-0.009545320459484967,0.004957638532274728,0.9890543885061981
2016-09-27,-1,-0.0001364734396484698,-0.00010173053389109495,-0.007953260946899465,0.0068827067236648335,0.9899929183742752
2016-09-29,-1,-0.0007387582598220198,-0.0006360040621014023,-0.005471755693633786,0.008826970967655414,0.9901258202272261
2016-10-03,-1,-0.001510358739792169,-0.0013420479398542626,-0.0025166425106883713,0.009816284705550644,0.9905261719099601
2016-10-05,-1,-0.0029999400091411804,-0.0026323349257256225,-0.002146670297562705,0.009816284705550644,0.9900122342482365
2016-10-07,-1,-0.003380437126692668,-0.002940517750911035,-0.001849612496106668,0.009816284705550644,0.989568913475179
2016-10-11,-1,-0.003896746759859336,-0.003360481112941596,-0.0016298729694933013,0.009816284705550644,0.9889516526593449
2016-10-13,-1,-0.003568145924431153,-0.0030551770250062966,-0.002395369958036093,0.009816284705550644,0.9866273827011716
2016-10-17,-1,-0.0026959356958103442,-0.0022866936324114255,-0.004270241426682331,0.008737515152698463,0.9876254684995133
2016-10-19,-1,-0.0012777913290821074,-0.001055398106448865,-0.006947106551538476,0.008401437091394605,0.9887197383101629
2016-10-21,-1,-0.0008041922143595357,-0.0006720695655889128,-0.006947106551538476,0.007988389988187506,0.9886694136087316
2016-10-25,1,0.0002345019731090131,0.00027236421649542183,-0.006947106551538476,0.007991543395856898,0.9885159889387449
2016-10-27,1,0.0006680275484409822,0.000779098574887904,-0.008629166701432309,0.007991543395856898,0.9874986487064531
2016-10-31,1,0.0011797852598200201,0.0013699283747992323,-0.008629166701432309,0.007991543395856898,0.9872315849490991
2016-11-02,-1,-0.00015914042594330696,-0.00013714373041433505,-0.01040398798850426,0.007991543395856898,0.9862577524614858
2016-11-04,1,8.685398797583259e-05,9.388755915289344e-05,-0.013027685339506033,0.00718113958271543,0.9859587711345998
2016-11-08,1,0.0014316751081826884,0.0016574522301130027,-0.013027685339506033,0.0038573379046751,0.9861093921091728
2016-11-10,-1,-0.0020648249403390005,-0.001813665735934712,-0.009742694624400888,0.00718113958271543,0.9896296159448089
2016-11-14,-1,-0.0023268052383044013,-0.0020240600674480552,-0.009742694624400888,0.011554334271741929,0.9887437313011289
2016-11-16,-1,-0.0023153464445033155,-0.00201160993615208,-0.010144398243509215,0.011554334271741929,0.9889226471570997
2016-11-18,-1,-0.0020739207791293096,-0.0018651143878023347,-0.009721665208648752,0.014172734595337157,0.9889699177215716
2016-11-22,-1,-0.0006335167472394803,-0.0006143560887197658,-0.010144398243509215,0.011554334271741929,0.989026425435253
2016-11-25,1,3.832199028555919e-05,0.000181811292332761,-0.009721665208648752,0.007597844284294146,0.9902680506163085
2016-11-29,1,0.0008254967011672441,0.0011020960820124716,-0.010144398243509215,0.004753715267234747,0.9902185802857889
2016-12-01,-1,-0.0007177793326699586,-0.0006283353312883238,-0.007304889687536393,0.007182956969056448,0.9919825500816061
2016-12-05,-1,-0.0013230055334718873,-0.0013205775287034296,-0.005206424397194236,0.007182956969056448,0.9924569813554299
2016-12-07,-1,-0.0014272757569908719,-0.001408099208112931,-0.004273017494976998,0.009076886581575665,0.9923811016724359
2016-12-09,-1,-0.0005893938657119751,-0.0004708542118495578,-0.005206424397194236,0.005385025138074487,0.9926752473550416
2016-12-13,1,0.0009298914907112303,0.0012889853515300792,-0.005206424397194236,0.0022398443916967405,0.9932602725221498
2016-12-15,1,0.00040810665907792883,0.0006665653332767099,-0.004273017494976998,0.005385025138074487,0.9929699254523869
2016-12-19,1,0.0006308207468429973,0.0008893395678195725,-0.0076176391657622865,0.0022398443916967405,0.9924113517809517
2016-12-21,-1,-0.00013439804349051141,-4.244118251455175e-05,-0.009810938818369487,0.0008850110682540151,0.9921937951306976
2016-12-23,-1,-0.001062847985152867,-0.0009644200352509632,-0.009810938818369487,0.0023439761633157648,0.9924126680748991
2016-12-28,-1,-0.0020763697961548155,-0.0018232354159396415,-0.005842051112715855,0.006135014523092935,0.9927567043751282
2016-12-30,-1,-0.0015457551937879174,-0.0013821104327077487,-0.0064783949551982046,0.006135014523092935,0.9923229279931928
2017-01-04,-1,-0.0014291987600738118,-0.0012833500875668352,-0.009810938818369487,0.006135014523092935,0.9914862813593999
2017-01-06,-1,-0.0011247152780302064,-0.0010172558843671406,-0.009810938818369487,0.004189979263498855,0.9919933674866253
2017-01-10,-1,-0.002123423277161054,-0.001898526014076344,-0.0064783949551982046,0.004189979263498855,0.9926448464192997
2017-01-12,-1,-0.00172029907414719,-0.001536036336231287,-0.0064783949551982046,0.004189979263498855,0.9921717491457002
2017-01-17,-1,-0.0008359452594984384,-0.0007714323007927194,-0.0064783949551982046,0.003682646452585117,0.9927487554925303
2017-01-19,-1,-0.0019057032620215088,-0.001719529980799546,-0.005386791421058666,0.004189979263498855,0.9932837062448168
2017-01-23,-1,-0.0030488839649473708,-0.0027121923318202254,-0.001260741971005469,0.007287020400019626,0.992345686636145
2017-01-25,-1,-0.0024867777713397446,-0.002226573973546439,-0.002834111010660857,0.008007472247303889,0.9913858594081528
2017-01-27,-1,-0.00205141013231116,-0.0018507822969235366,-0.005386791421058666,0.010923619719792364,0.9898472841994379
2017-01-31,-1,-0.0012421703924713004,-0.0011578375860400066,-0.005386791421058666,0.010923619719792364,0.9888466428888503
2017-02-02,-1,-0.001987916030691504,-0.0017923657427966803,-0.002834111010660857,0.010923619719792364,0.9891802988447231
2017-02-06,-1,-0.0019468310000607472,-0.0017647021989419134,-0.005386791421058666,0.010923619719792364,0.9885920156370542
2017-02-08,-1,-0.0015104688762379841,-0.0013912361022527958,-0.005386791421058666,0.010923619719792364,0.9889936871756395
2017-02-10,-1,-0.00022221570273204568,-0.00012113355705589132,-0.005230841867937541,0.008007472247303889,0.9899142230393921
2017-02-14,1,0.00026997296562715457,0.0004940907691066558,-0.004632065139771933,0.010923619719792364,0.9893431268005145
2017-02-16,1,0.0006762084947413179,0.0009539579199454611,-0.007146897073253285,0.010923619719792364,0.9886793796040715
2017-02-21,1,0.0011466926832471905,0.0014359082606164282,-0.01287449200627202,0.008771300160107496,0.9884296239323836
2017-02-23,1,0.001019624945375798,0.0012627317471325529,-0.008203092423549071,0.0057056217008919045,0.9898121576589761
2017-02-27,1,0.0010277426849637748,0.0012138981768412991,-0.005510202841110221,0.004651542252251745,0.991826302586962
2017-03-01,1,0.00018770900222308043,0.00019924557520178916,-0.004632065139771933,0.004651542252251745,0.9936103135721467
2017-03-03,1,0.00033030874544044404,0.00035514954851346417,-0.005422540928468444,0.005610677295719161,0.9928441689480969
2017-03-07,-1,-0.0004397110803977236,-0.000365906051552211,-0.005422540928468444,0.00710358489516486,0.9927869736773557
2017-03-09,-1,-0.00028561321916613163,-0.00025071257067984067,-0.005422540928468444,0.00710358489516486,0.9927663876066117
2017-03-13,1,0.0001637892679215116,0.0002298608717559154,-0.006422754010333795,0.00768689897415218,0.9922110225922152
2017-03-15,1,0.001354285781689894,0.0016448443656175362,-0.006422754010333795,0.00710358489516486,0.9930348402289189
2017-03-17,1,0.0011560212561534532,0.0014240174610126366,-0.006422754010333795,0.005807505385051092,0.9933022976791854
2017-03-21,1,0.0014815812776539428,0.0018240645829439395,-0.006422754010333795,0.0051893220100972266,0.9935375937351124
2017-03-23,1,0.0015423601422961302,0.0019150863860480346,-0.0062029107482852956,0.0051893220100972266,0.9933962614169604
2017-03-27,1,0.002067839180502722,0.0025386549615240006,-0.0062029107482852956,0.0051893220100972266,0.9930934520727385
2017-03-29,1,0.001779609494283131,0.0021521939009266832,-0.0062029107482852956,0.003729322329517778,0.9932024750669716
2017-03-31,1,0.002249557793286863,0.002700850407298044,-0.010895485476001863,0.001998587981432977,0.9920638147580145
2017-04-04,1,0.002845356480574618,0.0034456806986202797,-0.011530551097799116,0.001348436358109404,0.9915450572245038
2017-04-06,1,0.0013875343794080078,0.0016207787794234214,-0.011530551097799116,0.0003181594638110812,0.992170091879343
2017-04-10,1,0.0011849417345516297,0.0013902113037749845,-0.010431605582071396,0.0003181594638110812,0.9925099837305362
2017-04-12,1,0.0012175763590218775,0.0014293940019331373,-0.010431605582071396,0.0003181594638110812,0.9927842927588504
2017-04-17,1,0.0007373558683247215,0.0008533723073004696,-0.007199998379177643,0.0003181594638110812,0.9932925774466671
2017-04-19,1,0.00038623724732595827,0.0004923099595638994,-0.006693107379811675,-0.0010391647306341783,0.9938687835378253
2017-04-21,1,0.00028543476149794266,0.0003973257819177297,-0.008802769623163505,0.0007102265992502007,0.9934706084405399
2017-04-25,1,0.0006021227039469803,0.0007878886843373405,-0.008802769623163505,0.0022924909667525486,0.9932704972422293
2017-04-27,-1,-0.0005074071485522817,-0.0004456934864575878,-0.008802769623163505,0.0038382424356558477,0.9931124450237591
2017-05-01,-1,-0.0023637325518154188,-0.0020540633080143645,-0.003214327561335535,0.0061304749656632,0.9941456003798339
2017-05-03,-1,-0.00339548263479459,-0.0029378863624333054,-0.002853516994318945,0.0061304749656632,0.9938033815086841
2017-05-05,-1,-0.0029395869269454354,-0.0025818452566740858,-0.003214327561335535,0.0061304749656632,0.9934090523267894
2017-05-09,-1,-0.002193260608517583,-0.001981281900735001,-0.0020692267308234,0.005338688205163437,0.9942480651848002
2017-05-11,-1,-0.0022206822235318587,-0.0019904375565969364,-0.003214327561335535,0.0061304749656632,0.9936826871174163
2017-05-15,-1,-0.0016529466366927235,-0.0015120819183268776,-0.0038001946468095306,0.0061304749656632,0.9934446998521952
2017-05-17,-1,-0.002171545289245181,-0.001959309079239797,0.0008552513883994092,0.006839844485888603,0.9927423773790236
2017-05-19,-1,-0.0026702259474898696,-0.002394705662844579,0.0008552513883994092,0.006839844485888603,0.9929674349399386
2017-05-23,-1,-0.0025034443130404387,-0.002224382301020433,-0.0017894114947186752,0.006660132733486139,0.9930635678078432
2017-05-25,-1,-0.0018100561976714643,-0.0016228122014087126,-0.0056817836474888275,0.005537225957024559,0.9934985158996075
2017-05-30,-1,-0.0012820567906122466,-0.0011588521440665143,-0.0086842820191893,0.005537225957024559,0.9916372446368306
2017-06-01,-1,-0.0008315614948417014,-0.0007733171315615705,-0.009354677692602661,0.005214423725568639,0.9906415429659219
2017-06-05,-1,-0.0017365717049217897,-0.0015270819735830634,-0.009256087589778778,0.006941952751578485,0.990719800117872
2017-06-07,-1,-0.0013854908427697347,-0.0012384120626699317,-0.009256087589778778,0.006941952751578485,0.9903266983254264
2017-06-09,-1,-0.0010043458966901377,-0.0009339741333840239,-0.0086842820191893,0.005561057474254769,0.9909485346167158
2017-06-13,-1,-0.0012383313070030392,-0.0010893695340401784,-0.0086842820191893,0.005561057474254769,0.9910773709018322
2017-06-15,-1,-0.0011857552855349977,-0.0009988401844021996,-0.0086842820191893,0.004815087561944635,0.9909021558312087
2017-06-19,-1,-0.0009320380867447271,-0.0007869271527329417,-0.0086842820191893,0.0056074103068053625,0.9907032758138422
2017-06-21,-1,-0.0013709172421785864,-0.0011866048872126978,-0.004695709580150593,0.011967887940060814,0.9900433526432711
2017-06-23,-1,-0.0018036947737925533,-0.0015908051528330364,-0.0026232274611194513,0.012603175822785778,0.9891173340322359
2017-06-27,-1,-0.0009606483983089731,-0.0008224982905502067,-0.0026232274611194513,0.011967887940060814,0.990951680389742
2017-06-29,-1,-0.0022458685723576346,-0.0019538466491685596,-0.0012793910488406854,0.012603175822785778,0.9900657679291294
2017-07-03,-1,-0.0017648744634110192,-0.0015401964284188557,-0.0012793910488406854,0.012603175822785778,0.9906307113340778
2017-07-06,-1,-0.0010244367738521264,-0.0009143130490229094,-0.002123926997646344,0.012603175822785778,0.9907829620186103
2017-07-10,-1,-0.0010467290260323591,-0.0009295527463342746,-0.002930102343840308,0.012603175822785778,0.9905373618476503
2017-07-12,-1,-0.0002148843567271901,-0.00021265221710813932,-0.005358915841269468,0.00969671987305332,0.9907473004630653
2017-07-14,1,0.0008555863378523637,0.0010479846235127023,-0.005358915841269468,0.00969671987305332,0.9913262863722413
2017-07-18,1,0.0012482628370534365,0.0015000776216783237,-0.005358915841269468,0.010347124435290428,0.9910388785517026
2017-07-20,1,0.0025136807899625935,0.0029658540807781654,-0.005358915841269468,0.007780224260143727,0.9920536406866339
2017-07-24,1,0.0024795356747963197,0.0029137955479653995,-0.0020818623399655525,0.006942723584105811,0.9934666127937859
2017-07-26,1,0.0024259964186071916,0.002866875717632791,-0.0007614553940660199,0.005828128624290668,0.9941894567399076
2017-07-28,1,0.003278422659121855,0.003788701664354377,-0.0020818623399655525,0.0051530247158898925,0.9947268543742998
2017-08-01,1,0.0029393099924501682,0.003397568549568319,-0.001984713905450833,0.0051530247158898925,0.9950968378428047
2017-08-03,1,0.003063575900855271,0.003536927893341399,-0.0013769332796916519,0.004301262858861866,0.99527172803691
2017-08-07,1,0.003053820540887723,0.003561770041069935,-0.0013769332796916519,0.004301262858861866,0.9956105204528568
2017-08-09,1,0.002703873832355599,0.003149029910548566,-0.0024449322966514876,0.003538057258834392,0.9955660347406513
2017-08-11,1,0.0033326693487407376,0.0038593657344647213,-0.0024449322966514876,0.003154680433161982,0.9954545559060304
2017-08-15,1,0.00389022221912355,0.0044783139004812705,-0.005076516597433082,0.0027564618666482484,0.9934474242738275
2017-08-17,1,0.0038909450892993954,0.0044911929350423905,-0.005076516597433082,0.0028726446548675575,0.9936982634547368
2017-08-21,1,0.004270584533242121,0.00493236909739,-0.005870850021426922,0.0028726446548675575,0.9926637693942805
2017-08-23,1,0.004430578083326826,0.005131294160912613,-0.005994758111498527,0.0028726446548675575,0.992147832983533
2017-08-25,1,0.004075850366483784,0.004722203742244294,-0.005994758111498527,0.003154680433161982,0.9925510105298773
2017-08-29,1,0.004020280135679064,0.00465996330999335,-0.008464073305960999,0.0028726446548675575,0.9909633202608308
2017-08-31,1,0.0037421143816473434,0.00433050188112808,-0.008464073305960999,0.0032734465920227847,0.9904904460965347
2017-09-05,1,0.0036512124762773934,0.004227149152402795,-0.008464073305960999,0.004150666978789751,0.9908138929056929
2017-09-07,1,0.003012949791403181,0.003489558276005212,-0.008464073305960999,0.005189574824302348,0.9914663937634529
2017-09-11,1,0.003056058533184819,0.003491963329878049,-0.008464073305960999,0.004150666978789751,0.9915483899507508
2017-09-13,1,0.0015760007503279917,0.0017954569135766587,-0.0023963626903359624,0.005565570130590069,0.9933395319600387
2017-09-15,1,0.0017239552528832934,0.0019613794630509306,-0.0023963626903359624,0.006078522984139681,0.9926996920240158
2017-09-19,1,0.0013013609346296535,0.0014742412417446567,-0.0023963626903359624,0.006078522984139681,0.9926839909906269
2017-09-21,1,0.0001634891254769633,0.00021946879040472537,-0.0018772862490269056,0.007240897633175539,0.9921125417022644
2017-09-25,-1,-0.00042672750825114295,-0.0002654251360789222,-0.0017942551774969135,0.0061973349892772145,0.9924491114939062
2017-09-27,-1,-0.0020883200468983843,-0.001721651277548191,-0.001412208000855793,0.0061973349892772145,0.9930259381950921
2017-09-29,-1,-0.0011176466780014808,-0.0008567304564947068,-0.0025820725982387705,0.0061973349892772145,0.993895031047962
2017-10-03,-1,-0.0009011227065188717,-0.0006670851281757259,-0.0025820725982387705,0.008850603345231264,0.9932790371994877
2017-10-05,-1,-0.0004836523326363014,-0.0003035510264142627,-0.004050777941946014,0.00784065871277597,0.9933038425417564
2017-10-09,-1,-0.0007958666076523021,-0.0005521369266863272,-0.004050777941946014,0.00784065871277597,0.9931197205628098
2017-10-11,-1,-0.0006946907925301725,-0.0004324297168429945,-0.004050777941946014,0.01009057925307623,0.9923842056378586
2017-10-13,1,0.00024250634426646492,0.00038158591823177717,-0.004140219101653285,0.008850603345231264,0.9929491401281638
2017-10-17,0,-2.308113468683042e-05,0.00012689592104580773,-0.003764726343391816,0.01012784616748133,0.9920636188258036
2017-10-19,1,0.0003002112484587477,0.0003959558578399868,-0.003896946749823704,0.01012784616748133,0.9922372553507414
2017-10-23,1,0.00010740703703465053,0.00021513281244602987,-0.003764726343391816,0.01012784616748133,0.9923420227586105
2017-10-25,-1,-0.0006501592892608716,-0.00042932918328171283,-0.003128093486479704,0.01012784616748133,0.9921609778455762
2017-10-27,0,-0.0001378781577714938,2.4943129774617086e-05,-0.003896946749823704,0.008863025650032963,0.9927589800999612
