JNU-Tangyin/eata/results/Batch4_SP500/Batch4_SP500-AIZ.csv
Date,Action,Predicted_Q25,Predicted_Q75,Actual_Q25,Actual_Q75,RL_Reward
2010-12-14,0,0.0,0.0,-0.002668876563019658,0.003979753961787866,0.9937300314631251
2010-12-16,0,0.0,0.0,-0.002648244835618741,0.004953093369075987,0.9930539834087929
2010-12-20,-1,-0.004381691621388006,-0.003915982645297151,-0.002847915650599611,0.005728679686851975,0.9905249483509467
2010-12-22,1,0.0010830130454767503,0.0011571892294540437,-0.005552610436878941,0.0044219387684685885,0.9934913832839865
2010-12-27,0,-3.0201666891016142e-05,0.00010230687059301855,-0.005552610436878941,0.005521942133065049,0.9927061095566448
2010-12-29,1,0.0002434507884296092,0.0003191674543369478,-0.005552610436878941,0.008423590776958043,0.9916094421818973
2010-12-31,1,0.0009840801824452024,0.0010174605684399821,-0.007934884442706182,0.007803378115597266,0.9908137691852594
2011-01-04,-1,-0.00044845770119125337,-0.0002335603245390837,-0.007993418489557756,0.011906651934881727,0.9894411005526715
2011-01-06,-1,-0.00036251941999618025,-0.0001422183854413874,-0.007993418489557756,0.011906651934881727,0.9894144701843208
2011-01-10,-1,-0.00023917075703244712,-8.560210177870102e-05,-0.005552610436878941,0.011906651934881727,0.9897608037073234
2011-01-12,-1,-0.0006787546275714842,-0.00040981022142724897,-0.007993418489557756,0.010030964941735493,0.9894374770064944
2011-01-14,-1,-0.0010077323403709455,-0.0006803198202985967,-0.007637707691005392,0.010030964941735493,0.9897974618093046
2011-01-19,-1,-0.0018408912888388982,-0.0014199625202641418,-0.0054340401706948205,0.011906651934881727,0.9897532574466249
2011-01-21,0,0.0,0.0,-0.0019417760392125192,0.012496664322598765,0.989302860219618
2011-01-25,-1,-0.0003186859163023998,-0.00015739672418711975,-0.008124930734822195,0.012496664322598765,0.9887977663353481
2011-01-27,1,0.0016386677361621442,0.0017926986739212635,-0.011811553839076332,0.011712036112309861,0.9884500446394463
2011-01-31,1,0.0009802843988844293,0.0010614781345406718,-0.011811553839076332,0.011712036112309861,0.9887117963774287
2011-02-02,1,0.0010676701556795048,0.0011627073676135616,-0.01058945138644097,0.011712036112309861,0.9891408495986986
2011-02-04,1,0.0016692265154392809,0.0018860882769933468,-0.011811553839076332,0.011712036112309861,0.9882821657276336
2011-02-08,1,0.001996675857334501,0.0022686564896051953,-0.012825113042681989,0.011712036112309861,0.9876113022957156
2011-02-10,1,0.0021476890192721676,0.0024823831388392135,-0.011889895001522467,0.011712036112309861,0.9879319130253276
2011-02-14,1,0.0020234563361417055,0.0022958342693752583,-0.011889895001522467,0.007388624366162728,0.9883823749565636
2011-02-16,1,0.0029255398144975493,0.003380077200902868,-0.011889895001522467,0.007388624366162728,0.9875739518115162
2011-02-18,1,0.0042466865118963235,0.004885897271300444,-0.011889895001522467,0.008306314155315759,0.9864264206888864
2011-02-23,1,0.0029138868699449,0.0033843309703249663,-0.01143580228319559,0.008306314155315759,0.9871747744032647
2011-02-25,1,0.003004679118751615,0.0034675442119635174,-0.01057078496238619,0.007036899206922723,0.9886881887779333
2011-03-01,1,0.0027089884592670027,0.0031944429732629455,-0.01057078496238619,0.007036899206922723,0.9885311105527196
2011-03-03,0,0.0,0.0,-0.01143580228319559,0.007036899206922723,0.9892971934304008
2011-03-07,0,0.0,0.0,-0.01057078496238619,0.007036899206922723,0.9902286695218182
2011-03-09,1,0.0010528359921522872,0.0016290702089734896,-0.009623270564974851,0.011000625670688706,0.989871465511385
2011-03-11,1,0.001780370258778794,0.0024600023366298618,-0.010927887198297893,0.011000625670688706,0.9888596526095104
2011-03-15,1,0.0011138922478168079,0.0013945623963656463,-0.010927887198297893,0.011000625670688706,0.9889263591424471
2011-03-17,0,0.0,0.0,-0.010927887198297893,0.00407724956579422,0.9901711181812572
2011-03-21,0,0.0,0.0,-0.01153892589120362,0.0017195574812590817,0.9913766037982105
2011-03-23,0,0.0,0.0,-0.00926004506864276,0.0024400656191492964,0.9916020319837195
2011-03-25,0,0.0,0.0,-0.00926004506864276,0.0024400656191492964,0.991439621546918
2011-03-29,0,0.0,0.0,-0.006989534587267576,0.005340992098382983,0.9921077812520998
2011-03-31,0,0.0,0.0,-0.006882834538915683,0.005340992098382983,0.9910414193460961
2011-04-04,0,0.0,0.0,-0.006882834538915683,0.009010275185647605,0.9908020308071527
2011-04-06,1,0.00036019151862053654,0.0005353249508222031,-0.00926004506864276,0.004664096805927885,0.9903928676511993
2011-04-08,0,-6.504226541985923e-05,0.000184735736649646,-0.006882834538915683,0.004664096805927885,0.9914101982600888
2011-04-12,0,-0.00023686538597362757,5.879065524223609e-06,-0.0060589015700357,0.0051929558850522875,0.9914407343182802
2011-04-14,-1,-0.0005248067903679023,-0.00024091732620766006,-0.0060589015700357,0.0065615291536536835,0.9910189609786862
2011-04-18,1,0.00041066719401528293,0.0004198655984314608,-0.0060589015700357,0.0065615291536536835,0.9913845703283646
2011-04-20,0,0.0,0.0,-0.006266973493633947,0.005247641555954267,0.9918245106405525
2011-04-25,0,0.0,0.0,-0.0075070503097104235,0.00436124874369941,0.9917005126888309
2011-04-27,-1,-0.001570314656466973,-0.0012133908999837537,-0.007659424866405132,0.0025860852757636447,0.9922436998323523
2011-04-29,1,0.00018401980238885008,0.0003113022377673792,-0.007312269320298943,0.0007188792588508805,0.9940236294868453
2011-05-03,1,0.000833729650501002,0.0008352164136261326,-0.007753642435440307,0.0002697949381105081,0.9933776781961245
2011-05-05,-1,-0.0005391518777897858,-0.00039497491207240206,-0.007312269320298943,0.0002697949381105081,0.9944461428972382
2011-05-09,0,0.0,0.0,-0.007753642435440307,6.744685080077245e-05,0.9935807125059509
2011-05-11,-1,-0.0004705834211590731,-0.00038164077485694145,-0.007753642435440307,6.744685080077245e-05,0.9938895457005595
2011-05-13,0,0.0,0.0,-0.009364045332495786,6.744685080077245e-05,0.9932008980882799
2011-05-17,0,0.0,0.0,-0.011939842821581646,0.0002697949381105081,0.991713724681046
2011-05-19,0,0.0,0.0,-0.011939842821581646,0.0014215123680315859,0.9916599966811507
2011-05-23,0,0.0,0.0,-0.008842625481095141,0.004890060639533396,0.9918151570986422
2011-05-25,0,0.0,0.0,-0.010667833525915178,0.004890060639533396,0.9917536991604025
2011-05-27,-1,-0.0010459784784432036,-0.0009170790617736573,-0.010667833525915178,0.004890060639533396,0.9918970352647319
2011-06-01,-1,-0.0011547692671313088,-0.0010216338061677334,-0.0070950637554361255,0.00730104933799261,0.9908210027566174
2011-06-03,-1,-0.0017896658309642104,-0.0015583087173231718,-0.004076784516486022,0.008158556395697156,0.9909549248016294
2011-06-07,0,0.0,0.0,-0.004336163282993969,0.008158556395697156,0.9911125369675483
2011-06-09,0,0.0,0.0,-0.007873200054959967,0.010934760244322387,0.9902414694441587
2011-06-13,0,0.0,0.0,-0.007873200054959967,0.010934760244322387,0.9899557702855513
2011-06-15,0,0.0,0.0,-0.007873200054959967,0.008158556395697156,0.990983312368907
2011-06-17,0,0.0,0.0,-0.01010228427671958,0.005039913962872775,0.9904805914876474
2011-06-21,0,0.0,0.0,-0.01010228427671958,0.005039913962872775,0.9902566590080163
2011-06-23,0,0.0,0.0,-0.008740922659397042,0.010685267842463196,0.9893823920357454
2011-06-27,-1,-0.0009162667291803444,-0.0008893162603674966,-0.008740922659397042,0.010685267842463196,0.9891408242387398
2011-06-29,0,0.0,0.0,-0.010869454635977225,0.0059739869379469976,0.9889664815203337
2011-07-01,-1,-0.034533109788532454,-0.033204264213853085,-0.010869454635977225,0.0028525352224531408,0.9688729024007915
2011-07-06,-1,-0.001060751396698907,-0.0010364076925008085,-0.010869454635977225,0.002869873835797965,0.9891193604964194
2011-07-08,-1,-0.001516378838798627,-0.0014343699974675734,-0.012058223824667638,0.0022875254939687343,0.9892259281394622
2011-07-12,0,0.0,0.0,-0.012058223824667638,0.002869873835797965,0.9843331441074207
2011-07-14,0,0.0,0.0,-0.012721060521042516,0.006458016092375753,0.9793784428952959
2011-07-18,0,0.0,0.0,-0.01281869539217201,0.01591013011902536,0.9778763164702959
2011-07-20,0,0.0,0.0,-0.017534766444203514,0.011323842827902931,0.9775722120732818
2011-07-22,-1,-0.0008874668350210422,-0.0008760184039735449,-0.01934728818378631,0.00682725942172295,0.9773492783525747
2011-07-26,-1,-0.0004920946386212698,-0.00033683776850793946,-0.01934728818378631,0.012720759982267469,0.9765100294502018
2011-07-28,0,-3.1986933640519837e-07,0.00019621270253093292,-0.02284231263898001,0.012366369604938875,0.9755615865823949
2011-08-01,1,1.7356726209952526e-05,0.00018780001913526337,-0.02284231263898001,0.022093505994684716,0.97284489041174
2011-08-03,-1,-0.0010058499868767664,-0.0009812057427740807,-0.02284231263898001,0.022093505994684716,0.9729807620906422
2011-08-05,-1,-0.0008887336171081879,-0.0008341683159603393,-0.02391475024365326,0.022093505994684716,0.9718796946358186
2011-08-09,-1,-0.0011016354632933465,-0.0011007497918850578,-0.022235500755841762,0.022093505994684716,0.9746983445615706
2011-08-11,-1,-0.00022558370781391643,-1.958425026222252e-05,-0.019289746481283503,0.013145698674345197,0.979414438920026
2011-08-15,0,0.0,0.0,-0.015594968345114112,0.013113521669178903,0.9806485404759318
2011-08-17,0,0.0,0.0,-0.01423439435433218,0.015316375488773347,0.9807797089330832
2011-08-19,0,0.0,0.0,-0.012307680385748176,0.017952237052464397,0.9812237663128809
2011-08-23,0,0.0,0.0,-0.01423439435433218,0.014096985307364496,0.9795827701131322
2011-08-25,0,0.0,0.0,-0.012307680385748176,0.011807001614025517,0.9815608454605633
2011-08-29,1,0.0006901705717757094,0.0008664921231172359,-0.012307680385748176,0.014096985307364496,0.9822493318984484
2011-08-31,0,0.0,0.0,-0.01423439435433218,0.017952237052464397,0.979228349844624
2011-09-02,0,0.0,0.0,-0.012307680385748176,0.017952237052464397,0.9789458414892301
2011-09-07,0,0.0,0.0,-0.010559721165256126,0.022326193754497674,0.9790736422788026
2011-09-09,0,0.0,0.0,-0.009984754680991286,0.022326193754497674,0.9784939758708248
2011-09-13,0,0.0,0.0,-0.009984754680991286,0.02526991487769618,0.9772399907860677
2011-09-15,0,0.0,0.0,-0.0146005306326281,0.02526991487769618,0.976692854795715
2011-09-19,1,0.0006642199684106175,0.0008102229615983025,-0.024494553186794242,0.028082086057441825,0.9753962524093153
2011-09-21,1,0.0006374823175415061,0.0010118952419808003,-0.012869854718873473,0.02962702839890053,0.9758181985492803
2011-09-23,1,0.001689653854749847,0.0022262048830193923,-0.012869854718873473,0.02962702839890053,0.9746767342964354
2011-09-27,1,0.003743643414046654,0.004475894802490413,-0.024494553186794242,0.028082086057441825,0.9752540769183122
2011-09-29,1,0.003979384293784631,0.00473748717026627,-0.012869854718873473,0.026309604028031078,0.9769287275881647
2011-10-03,1,0.0015311361189617823,0.001964464054374673,-0.01639270205783907,0.026309604028031078,0.9774590014507964
2011-10-05,1,0.004113148501329987,0.004894251442097016,-0.01823865356164959,0.025181208774147017,0.9772843128828882
2011-10-07,1,0.003053530173298027,0.003677738606489956,-0.01639270205783907,0.025181208774147017,0.9779478192599503
2011-10-11,1,0.004700392294535751,0.005533608836545536,-0.01639270205783907,0.022401690359877345,0.98027763343905
2011-10-13,1,0.0037456857771226574,0.004409327045403392,-0.01639270205783907,0.022401690359877345,0.9796301890541825
2011-10-17,1,0.0035491735419281513,0.004154481518897793,-0.013388433616336348,0.02117509492628947,0.9810884626837922
2011-10-19,1,0.005130825655212511,0.00594465100210574,-0.01639270205783907,0.016913355029157404,0.983018321775803
2011-10-21,1,0.006706321011731976,0.0076839006363739245,-0.01639270205783907,0.014049706641129457,0.9835468873139207
2011-10-25,1,0.004709878630553761,0.005359879755081747,-0.01639270205783907,0.014049706641129457,0.984588216706904
2011-10-27,1,0.006070895219132221,0.006839166393743459,-0.0165848584133246,0.010840375224661972,0.9842171608516613
2011-10-31,1,0.0044990112911886,0.005056552251110697,-0.013678926673149612,0.01167820971905936,0.9853145225938246
2011-11-02,0,0.0,0.0,-0.012477642739256516,0.01167820971905936,0.985008900011101
2011-11-04,1,0.0017314909322499149,0.001943719935831529,-0.012477642739256516,0.011586291403227308,0.9857732048289551
2011-11-08,0,0.0,0.0,-0.012477642739256516,0.0136503418826784,0.9852379906890361
2011-11-10,0,0.0,0.0,-0.012477642739256516,0.013951595411816904,0.984430226760037
2011-11-14,-1,-0.0007443509282067295,-0.0005960473158736503,-0.013678926673149612,0.0136503418826784,0.9841106890380691
2011-11-16,-1,-0.001274262863179793,-0.001078485638618084,-0.009519110437045968,0.0136503418826784,0.984303243659164
2011-11-18,-1,-0.0013245829498290636,-0.001140400017382225,-0.010704349629082533,0.011147587753994203,0.9844394394338264
2011-11-22,0,0.0,0.0,-0.005746941331489073,0.013675840464320743,0.9835210273770503
2011-11-25,0,0.0,0.0,-0.00044225155542801375,0.013675840464320743,0.9844300772858662
2011-11-29,0,0.0,0.0,-0.005746941331489073,0.012039935107106525,0.9845861388631606
2011-12-01,0,0.0,0.0,-0.006112442365114431,0.012039935107106525,0.9862211563673797
2011-12-05,0,0.0,0.0,-0.00942071354161198,0.010774262264695484,0.9858468007876092
2011-12-07,1,0.004147898285266236,0.004492339943608351,-0.00942071354161198,0.010388254926581672,0.9874327221339418
2011-12-09,1,0.0035152305087157547,0.00378286284012817,-0.007990543968163556,0.010208698078931829,0.9890346616484026
2011-12-13,1,0.002640944489705437,0.002867206704160273,-0.0077878647291442565,0.010208698078931829,0.987576625398171
2011-12-15,1,0.003273151151862713,0.0035937267804239037,-0.0077878647291442565,0.010029938765945734,0.9879329561742624
2011-12-19,1,0.0036018375333665394,0.0038611997913202247,-0.00594020674244242,0.010252977189136678,0.9881551875099331
2011-12-21,0,0.0,0.0,-0.0077878647291442565,0.007440201945656921,0.9890325917110728
2011-12-23,1,0.0018692622345372924,0.0020540387445868408,-0.0077878647291442565,0.005877660396816326,0.989730450068557
2011-12-28,1,0.001163508999735025,0.0012101517977170493,-0.00594020674244242,0.007116103422532823,0.990493712124693
2011-12-30,1,0.0005610983806516171,0.000650113091260241,-0.0077878647291442565,0.006916352657757533,0.9905354941127368
2012-01-04,1,0.003351295524810156,0.0033620373264350192,-0.003034623996502511,0.008089736801177553,0.9897821889246136
2012-01-06,1,0.0034328909782256074,0.003450132288167887,-0.0023040929445614436,0.008089736801177553,0.9899787453522151
2012-01-10,1,0.0021369589639652947,0.0023237923140558316,0.000819038323450286,0.008733605663131009,0.989034619887258
2012-01-12,0,0.0,0.0,0.000819038323450286,0.008733605663131009,0.9906362683857185
2012-01-17,0,-0.0003961740039509498,7.814709678162588e-05,0.0006330967675549505,0.009584336042309231,0.9899914662340561
2012-01-19,1,0.0001109158737871384,0.0005762345252988976,-0.0012832278757932058,0.009471210108014775,0.9906840256892292
2012-01-23,1,0.001363063977882418,0.001518258629331878,0.0006330967675549505,0.009471210108014775,0.9911663719487901
2012-01-25,1,0.0014149056500173832,0.0015874240745868827,-0.003969906504414742,0.009471210108014775,0.9900819965570983
2012-01-27,-1,-0.0005329269202636485,-0.00028455929751752796,-0.003969906504414742,0.00895281175291744,0.9898668695809097
2012-01-31,-1,-0.0003744236394845824,-0.00017673440325786905,-0.003969906504414742,0.00895281175291744,0.9905690703160754
2012-02-02,1,0.0003248585321157476,0.0004798376471212064,-0.005485348200030875,0.00814585083326421,0.9911876670068421
2012-02-06,1,0.0006821217221999702,0.0007601407137447617,-0.007555527133091268,0.00895281175291744,0.9898514070424613
2012-02-08,1,0.001966006846255136,0.0020739684913078276,-0.008477410393390238,0.006383337798106192,0.9904784588539627
2012-02-10,0,0.0,0.0,-0.008477410393390238,0.003922490191333873,0.9912757407950163
2012-02-14,0,0.0,0.0,-0.010920088122721024,0.003922490191333873,0.9900666201329189
2012-02-16,1,0.000939521468330333,0.0009681840858258006,-0.015300098079672964,0.002427699792756199,0.9878123145693125
2012-02-21,1,0.0014262728747064849,0.0015040146975318787,-0.015300098079672964,0.0036821949516010716,0.9869751767605258
2012-02-23,1,0.0009851539359916838,0.001011713373369111,-0.014552209473000646,0.0036821949516010716,0.9875656516185031
2012-02-27,-1,-0.00043404848175022676,-0.00019294462600403942,-0.014552209473000646,0.012729813382678559,0.9866424039963213
2012-02-29,1,0.0003106262669278863,0.00037329574561353776,-0.014552209473000646,0.012729813382678559,0.9860648790574256
2012-03-02,-1,-0.00021899906818478843,-4.967076609490006e-05,-0.015300098079672964,0.008677147215699389,0.9864246202505603
2012-03-06,1,0.0003302910076652052,0.00038354418730042017,-0.014552209473000646,0.006218993095227507,0.9873294742295262
2012-03-08,-1,-0.0005449092629171576,-0.00036356867918664246,-0.014972735851096097,0.006218993095227507,0.9872047747343584
2012-03-12,-1,-0.0005120368197231191,-0.0003219861629041454,-0.014972735851096097,0.006218993095227507,0.9865915368885504
2012-03-14,-1,-0.00025802193586847537,-0.00012973949646833625,-0.011518727458157588,0.008437025132795012,0.9873921004829067
2012-03-16,-1,-0.0006261556010396716,-0.0005235317417891137,-0.00954066805767918,0.008437025132795012,0.988868505333836
2012-03-20,-1,-0.0004320230025143104,-0.00029694762717344376,-0.01022710707907648,0.007133469857270303,0.9888928633841421
2012-03-22,-1,-0.00041716550509271954,-0.0003311673204250552,-0.009435056961539267,0.007133469857270303,0.9896916519374174
2012-03-26,1,0.0001871650233377773,0.00022498871994007326,-0.009435056961539267,0.005706405718314813,0.9906304252117802
2012-03-28,-1,-0.00023727147326514848,-0.0001379052096878636,-0.009006585417278955,0.007018821126413522,0.9896662630063574
2012-03-30,-1,-0.000552916139859068,-0.0004193652991703243,-0.008807176170085309,0.007018821126413522,0.9904799829371463
2012-04-03,-1,-0.0005355918385354843,-0.00043310424578186943,-0.009006585417278955,0.007034678250742208,0.9890984746724686
2012-04-05,-1,-0.0018208987585050284,-0.0015243445795395376,-0.009185936624730558,0.007034678250742208,0.9887196532267758
2012-04-10,-1,-0.0024250109782119906,-0.0020503823353287655,-0.008810020389806283,0.007034678250742208,0.9889145401674989
2012-04-12,-1,-0.001677879784483913,-0.0013795594128642925,-0.008810020389806283,0.005036820671241516,0.9901014666089715
2012-04-16,-1,-0.0020166460649324366,-0.001687100064775934,-0.0076461060573967225,0.0050421063793510785,0.9908336556823614
2012-04-18,-1,-0.0022432410088328958,-0.0018614357323509284,-0.008512790214795445,0.0034266805708268355,0.9906509538402586
2012-04-20,-1,-0.0030011709011251364,-0.0024879306568330807,-0.009031958259180736,0.0034266805708268355,0.9893346755341217
2012-04-24,-1,-0.0020949346109657404,-0.0017259053217696927,-0.01345075733277864,0.0023361497942904147,0.986993267715135
2012-04-26,-1,-0.0010356555951411045,-0.0008494445345329949,-0.017140197560052643,0.0017204682471884463,0.9878009515045231
2012-04-30,-1,-0.0007388269250046338,-0.0006033845238399894,-0.01951955203572584,0.0017204682471884463,0.987011054379203
2012-05-02,-1,-0.0011243335644506838,-0.0009775023124717445,-0.015636020579136316,0.0017204682471884463,0.9880472919642769
2012-05-04,-1,-0.0025197372839944696,-0.0021952552071429444,-0.015101638896281517,0.0017204682471884463,0.989001464377483
2012-05-08,-1,-0.0033726257876280983,-0.00288501373258929,-0.015101638896281517,0.0064452347564430065,0.9872250024130755
2012-05-10,-1,-0.0031127436492807015,-0.002688066977818957,-0.015101638896281517,0.006848941185824717,0.9864713375311768
2012-05-14,-1,-0.0033030040912166185,-0.002820600520628639,-0.01641223000624512,0.006848941185824717,0.9860022473369465
2012-05-16,-1,-0.003548325854470087,-0.003123294922270477,-0.015101638896281517,0.007887047916355257,0.9865578079195485
2012-05-18,-1,-0.0041933582877422305,-0.0037275966368428967,-0.011862959814102639,0.007887047916355257,0.987466782129946
2012-05-22,0,0.0,0.0,-0.01033617761573372,0.008918591863592557,0.9889064899281578
2012-05-24,0,0.0,0.0,-0.01033617761573372,0.008918591863592557,0.9884999797681931
2012-05-29,0,0.0,0.0,-0.008932255228513812,0.009330940714819963,0.9888853339835698
2012-05-31,0,0.0,0.0,-0.008148136289164696,0.010884262137379887,0.9886480807270281
2012-06-04,-1,-0.0003956493602031634,-0.00033170204496035013,-0.003607818629349307,0.010884262137379887,0.9894967009745673
2012-06-06,1,0.0006385729515700643,0.0007332895879517908,-0.005519654868831001,0.009330940714819963,0.9897903368029162
2012-06-08,1,3.8345468705865196e-05,5.169873424372074e-05,-0.005304736583140575,0.009330940714819963,0.990250098479972
2012-06-12,0,0.0,0.0,-0.004647544198682085,0.009330940714819963,0.9909222520798913
2012-06-14,0,0.0,0.0,-0.005304736583140575,0.009723642069299572,0.9901157326398335
2012-06-18,0,0.0,0.0,-0.005304736583140575,0.011339129111323112,0.9897212703263483
2012-06-20,-1,-0.003087205710021426,-0.0027507697358679925,-0.005690317668154624,0.007540570308300098,0.9916833873212679
2012-06-22,-1,-0.003991292039501928,-0.0035551623520713527,-0.005690317668154624,0.007540570308300098,0.9922256007685935
2012-06-26,-1,-0.0029554391917296675,-0.0027259643853400897,-0.007378241754734432,0.006656559826759427,0.991488396523593
2012-06-28,-1,-0.0023948045953246667,-0.0022425387192290423,-0.005690317668154624,0.00844601863686923,0.9890420048775697
2012-07-02,-1,-0.0010166415817910435,-0.0009075046284108251,-0.005690317668154624,0.01208572511950953,0.9882659283069164
2012-07-05,-1,-0.0006204814718136552,-0.0004495676367674274,-0.005690317668154624,0.00844601863686923,0.9893947847527156
2012-07-09,-1,-0.0006140629369820172,-0.0004264929751039971,-0.004839648407311035,0.01208572511950953,0.9888513887146864
2012-07-11,-1,-0.0005700223234025883,-0.00035427561298921357,-0.0067841156885048905,0.01208572511950953,0.9886403972929455
2012-07-13,0,-6.918800553636106e-05,0.0002449020466900471,-0.006521630555492869,0.00844601863686923,0.9895381544148473
2012-07-17,0,-0.00014698126938457467,0.00010731494131148108,-0.011587040054874962,0.005825929673675528,0.9881353906571524
2012-07-19,0,-0.00022732511554136728,1.1680255152178055e-05,-0.011587040054874962,0.005825929673675528,0.9881866781272343
2012-07-23,-1,-0.0008309248884218411,-0.0006798628259076474,-0.01075106015140901,0.006466393461149073,0.9886091429246353
2012-07-25,-1,-0.0008290091232004105,-0.0006474055729010937,-0.004354785147621337,0.005460724775615699,0.9898857523783972
2012-07-27,1,0.001492666265149432,0.001981617635141688,-0.01075106015140901,0.003061547055479542,0.99184337422644
2012-07-31,1,0.0019066924226099327,0.002414894013259678,-0.011587040054874962,0.0018273994521401196,0.9912299529117021
2012-08-02,1,0.0018474402855744485,0.002353318468522739,-0.0107995846558389,0.0032750349846373903,0.9906943839812211
2012-08-06,1,0.002837766886609941,0.003507259486994611,-0.0107995846558389,0.0032750349846373903,0.9902232473406033
2012-08-08,0,0.0,0.0,-0.0052552390767179515,0.010180364236624048,0.9899723454954114
2012-08-10,0,0.0,0.0,-0.002610339833728324,0.010180364236624048,0.9903123800376534
2012-08-14,0,0.0,0.0,-0.0006954014680631781,0.01509693334033274,0.9911736598388029
2012-08-16,0,0.0,0.0,-0.0006954014680631781,0.01509693334033274,0.990419635980794
2012-08-20,0,0.0,0.0,-0.0023957865309173687,0.01509693334033274,0.9900118760519029
2012-08-22,0,0.0,0.0,-0.002655559030616677,0.01509693334033274,0.989917432280495
2012-08-24,1,0.0006490334149020881,0.0009569105487792978,-0.002266174066610624,0.01509693334033274,0.9913566274401897
2012-08-28,-1,-0.0004456586850984489,-0.000332378090849462,-0.001971118285564036,0.01509693334033274,0.991736637434149
2012-08-30,1,0.0006549872703068381,0.0008833616234903501,-0.001971118285564036,0.010895301453377727,0.9933010529224052
2012-09-04,1,0.0018508532690986446,0.002306671612591615,-0.001971118285564036,0.010202039330560277,0.9938575597559886
2012-09-06,1,0.002698466167117254,0.0032310221968649636,-0.001971118285564036,0.010202039330560277,0.9936737109098623
2012-09-10,1,0.0027171773888515346,0.003263632814314632,-0.002266174066610624,0.010895301453377727,0.9927298095908367
2012-09-12,1,0.003636765740152495,0.004298568100198833,-0.002655559030616677,0.007293084625813628,0.9928280832532033
2012-09-14,0,0.0,0.0,-0.003403987270148949,0.006204725826398328,0.9924960516230644
2012-09-18,1,0.004538001780935299,0.005404232876401892,-0.0022691525456461836,0.01400486816489528,0.9918738804485557
2012-09-20,1,0.004324908998926391,0.00515125506763675,-0.0019444899481341805,0.01400486816489528,0.9923284283564915
2012-09-24,1,0.004000144718266026,0.004743324852693556,-0.0028157633912521646,0.014096097358960601,0.9913740884277066
2012-09-26,0,0.0,0.0,-0.003552285013560148,0.014096097358960601,0.9874679451657727
2012-09-28,0,0.0,0.0,-0.00890480372931295,0.014096097358960601,0.9864479279958333
2012-10-02,0,0.0,0.0,-0.00890480372931295,0.014096097358960601,0.986673521744343
2012-10-04,1,0.0049278409900864835,0.005716901364896435,-0.010001654645511527,0.010291147834742819,0.9877979953669314
2012-10-08,1,0.004404271321267409,0.00505152043914373,-0.010709991459563872,0.009185402825893165,0.9871851603862911
2012-10-10,0,0.0,0.0,-0.013116956574410794,0.010446509959978364,0.9861683052571996
2012-10-12,0,0.0,0.0,-0.01255875997393336,0.009185402825893165,0.9866347282497574
2012-10-16,0,0.0,0.0,-0.016480641301634624,0.005123295837961669,0.9864567022812114
2012-10-18,0,0.0,0.0,-0.01820357087030137,0.005123295837961669,0.9849255778049205
2012-10-22,0,0.0,0.0,-0.01820357087030137,0.0037727189425040453,0.9855055341150677
2012-10-24,0,0.0,0.0,-0.01338159682159179,0.0037727189425040453,0.9877719160169784
2012-10-26,0,0.0,0.0,-0.011599959143197086,0.004737307234981196,0.9882826817195899
2012-11-01,1,0.0005171747847272377,0.0005531631014881951,-0.011599959143197086,0.005239312448112813,0.9880819200277128
2012-11-05,-1,-0.00026455791089777725,-8.196574124824923e-05,-0.011599959143197086,0.007411696799909485,0.9874375135047517
2012-11-07,-1,-0.001017772063210885,-0.000758076707012365,-0.011322611712304797,0.005239312448112813,0.989167889148493
2012-11-09,-1,-0.0011376457586736578,-0.0008628775166636194,-0.00998873862392571,0.005137207672218882,0.9902534661782645
2012-11-13,-1,-0.001188189526997725,-0.0009729160090073052,-0.006566994582883163,0.005137207672218882,0.9908043701166641
2012-11-15,-1,-0.0027255978601990463,-0.002287117620591789,-0.006566994582883163,0.005137207672218882,0.9916249679429052
2012-11-19,-1,-0.0029784509700960292,-0.002522829984283153,-0.006130702418171797,0.006462359755154617,0.9920610282907031
2012-11-21,-1,-0.0035974471707692756,-0.00307978587558956,-0.004249606893922785,0.006462359755154617,0.992315679349983
2012-11-26,-1,-0.0031844314616447725,-0.002726185145374962,-0.005813730817881732,0.005137207672218882,0.9925058955322217
2012-11-28,-1,-0.0032718106949566556,-0.002813943313625618,-0.005813730817881732,0.004383700873775762,0.992770758920385
2012-11-30,0,0.0,0.0,-0.006143889298341165,0.004383700873775762,0.9928250626566693
2012-12-04,0,0.0,0.0,-0.00575500798393947,0.004383700873775762,0.993186075217827
2012-12-06,0,0.0,0.0,-0.00575500798393947,0.007685654315904651,0.9917041826094655
2012-12-10,-1,-0.0024340389273315045,-0.002059108291006072,-0.00575500798393947,0.007171924603516778,0.9916518109952445
2012-12-12,-1,-0.0025189173784324467,-0.00211807574744218,-0.00575500798393947,0.011882069145621557,0.990838430866451
2012-12-14,-1,-0.0035148431138459484,-0.0029648991916319057,-0.004255213530444489,0.013221683140016975,0.9899724463034334
2012-12-18,-1,-0.002723172577461127,-0.002239769171008101,-0.00575500798393947,0.01256103268066194,0.9900548631161253
2012-12-20,-1,-0.0016229912916472058,-0.0013888944308816224,-0.0043652663572643,0.016029155697300977,0.9883567037647452
2012-12-24,0,0.0,0.0,-0.0043652663572643,0.016029155697300977,0.9882836449998792
2012-12-27,0,0.0,0.0,-0.00285047510101406,0.016029155697300977,0.9879592434452213
2012-12-31,0,0.0,0.0,-0.00285047510101406,0.016029155697300977,0.9883604902482126
2013-01-03,1,3.5765442460678983e-06,0.00013046666116692528,-0.0043386428912694855,0.016029155697300977,0.9883985643892746
2013-01-07,-1,-0.001676594995499225,-0.0014457409112773182,-0.0043386428912694855,0.012839981389273105,0.9880233307709885
2013-01-09,-1,-0.0025970546401159348,-0.0021553784219542223,-0.006801803789585228,0.012839981389273105,0.9875990502786088
2013-01-11,-1,-0.0015397815820216987,-0.001227809068665013,-0.006801803789585228,0.010997622517319497,0.9886854485664505
2013-01-15,0,0.0,0.0,-0.006801803789585228,0.010997622517319497,0.9862847154181573
2013-01-17,0,0.0,0.0,-0.004529627250392045,0.010997622517319497,0.987173982785637
2013-01-22,1,6.998370800675839e-06,0.0001137499583581293,-0.006801803789585228,0.009381069068444235,0.9875057065100858
2013-01-24,1,4.882627143006817e-05,0.00016647076175092985,-0.00617934586340274,0.010997622517319497,0.9874913393091712
2013-01-28,1,0.0005699763668893583,0.0006108222728815324,-0.007403823578534509,0.009383975340815833,0.9866697019936999
2013-01-30,0,0.0,0.0,-0.00617934586340274,0.011999615514159186,0.9855201712099281
2013-02-01,0,0.0,0.0,-0.0047318139692993704,0.009947145758129465,0.986463832841552
2013-02-05,0,0.0,0.0,-0.004562284356950873,0.01094041993785436,0.9869613519421213
2013-02-07,0,0.0,0.0,-0.004047116619024255,0.01094041993785436,0.9872053775854446
2013-02-11,0,0.0,0.0,-0.004047116619024255,0.015075111909300973,0.9864129538513877
2013-02-13,0,0.0,0.0,-0.004047116619024255,0.012150586584839671,0.9894180219120918
2013-02-15,0,0.0,0.0,-0.003896089419874939,0.009997469448356293,0.9900837308030526
2013-02-20,1,0.0035425644228655987,0.004063045701922599,-0.0026728317681976605,0.009997469448356293,0.9921825828565768
2013-02-22,1,0.003824516681683365,0.004365075497152241,-0.0026728317681976605,0.00939192193869174,0.9923395828295268
2013-02-26,1,0.002851345231447546,0.0032679845206059887,-0.0017625999155542926,0.00939192193869174,0.9934862458227885
2013-02-28,1,0.0038678690154620443,0.00445122507785126,-0.0017625999155542926,0.008118698764281153,0.994155399455993
2013-03-04,1,0.004532901101501391,0.005271608889929214,-0.0008972328819253637,0.008118698764281153,0.994347792811569
2013-03-06,1,0.005001817679698103,0.005810424894876859,-0.0008972328819253637,0.007787123950839443,0.9947761155313233
2013-03-08,1,0.005117856662769035,0.005929686998166754,-0.0017625999155542926,0.008329811289254571,0.9935829044723103
2013-03-12,1,0.005993147880628678,0.006909067018042284,-0.0024215990611566895,0.008329811289254571,0.9922358226307104
2013-03-14,1,0.0065075734574489685,0.007553685322274905,-0.0019021707973975756,0.007787123950839443,0.9924461056460632
2013-03-18,1,0.006388576992831749,0.007433707739921155,-0.0012099465183550177,0.008329811289254571,0.9914412411924362
2013-03-20,1,0.00674616683690666,0.007820215311095877,-0.006785032814575195,0.007787123950839443,0.9894152989405548
2013-03-22,1,0.005480749065935335,0.0063110551139289595,-0.0037306803606524264,0.008980672747123605,0.9903968805910655
2013-03-26,1,0.004831167862122985,0.005512606029456567,-0.0037306803606524264,0.010512395821004583,0.9904440941637858
2013-03-28,1,0.0043331132626087746,0.004937581354369412,-0.006785032814575195,0.009013938330938208,0.9892911289777243
2013-04-02,1,0.004135757767099308,0.004681248597100961,-0.006785032814575195,0.010512395821004583,0.9890308749067078
2013-04-04,1,0.0037798897593984116,0.0042247029073769135,-0.005138942742748292,0.010512395821004583,0.9889919963036488
2013-04-08,1,0.0037020600130433174,0.004146054294908905,-0.0050377041775680476,0.009956287139591,0.9893528732158863
2013-04-10,1,0.004047641964139197,0.004493530501645712,-0.0050377041775680476,0.009910882597850251,0.9906536912386124
2013-04-12,1,0.0036900314796681427,0.0040702152724354495,-0.007366032143745453,0.009910882597850251,0.9901327637488689
2013-04-16,1,0.0032451526114251135,0.0035167190308880198,-0.004983108882173354,0.009956287139591,0.9912419590986624
2013-04-18,1,0.0017817748050436596,0.0017937154106884628,-0.004016831600032038,0.010512395821004583,0.991440886919468
2013-04-22,0,0.0,0.0,-0.004016831600032038,0.010268741829747208,0.990846007909864
2013-04-24,0,0.0,0.0,-0.004516962699266214,0.010184495061684043,0.99082168988883
2013-04-26,0,0.0,0.0,-0.004516962699266214,0.010184495061684043,0.9915868880842033
2013-04-30,1,0.0021879886995142487,0.0022592200883019896,-0.005736138802336351,0.009910882597850251,0.9923315064801601
2013-05-02,1,0.0019028548887240599,0.0019076132408941322,-0.006651301630751238,0.01016717277596435,0.9912149275886825
2013-05-06,1,0.0017973867384539026,0.0018019408241924384,-0.006651301630751238,0.009510022200999228,0.9911316369391286
2013-05-08,1,0.001451326503704774,0.001503752582430713,-0.0069227666711890665,0.011222620661637633,0.9903255394142197
2013-05-10,1,0.0006676223754033474,0.0008435151259727984,-0.006651301630751238,0.012620279569715552,0.9897750349000901
2013-05-14,1,0.001761567717700677,0.001770261008539711,-0.006932395279212153,0.010997314120815345,0.9902401507701791
2013-05-16,1,0.0014811368344932593,0.0015436101526951893,-0.006932395279212153,0.010997314120815345,0.9904196014044222
2013-05-20,1,0.0017066428539378748,0.0017688318255216018,-0.006932395279212153,0.011999058706764872,0.9901843045809711
2013-05-22,1,0.0008821323360037638,0.001054848424809047,-0.008537888362810572,0.011999058706764872,0.9895619972942696
2013-05-24,1,0.0005991098738416918,0.0008014932816915493,-0.01228141038838941,0.011999058706764872,0.9891731695848239
2013-05-29,1,0.000507909622425266,0.0007097195537619113,-0.01228141038838941,0.011999058706764872,0.9889844665949012
2013-05-31,1,0.00013752182703788125,0.00039513095073909796,-0.008537888362810572,0.011580064894676414,0.9901079688653948
2013-06-04,-1,-0.0003268934594697606,-1.9012968564907856e-05,-0.006261385285609742,0.012072300543434222,0.9900268304403899
2013-06-06,1,0.00015974503661139565,0.00037563880778512446,-0.007629033146453643,0.011293238244768303,0.9899132949026569
2013-06-10,1,0.0006948416344108763,0.0008380423037031494,-0.007629033146453643,0.011880825596696228,0.9897923353741372
2013-06-12,1,0.00014742337086217662,0.0003444221136127114,-0.004386644060414922,0.011880825596696228,0.990124438323162
2013-06-14,0,0.0,0.0,-0.0025448063378215157,0.011230531246104966,0.9903975427654396
2013-06-18,0,0.0,0.0,-0.0025448063378215157,0.010494886321081864,0.9914203560925284
2013-06-20,0,0.0,0.0,-0.0005247119379499201,0.010494886321081864,0.992528262227869
2013-06-24,0,0.0,0.0,-0.0005247119379499201,0.010494886321081864,0.9926884057966544
2013-06-26,1,0.0008638434664520107,0.0012050470288328527,-0.0035120905464937945,0.010494886321081864,0.9935266071244461
2013-06-28,1,0.0007629433339607986,0.0011401406357834445,-0.0035120905464937945,0.008128108773469853,0.9936529763151227
2013-07-02,1,0.0004940005146343289,0.0009126645860788091,-0.0029562728175440336,0.008128108773469853,0.9933335439896485
2013-07-05,1,0.00019871247679448755,0.0006677354014635517,-0.002277180083861989,0.00785825223623623,0.9940495495565869
2013-07-09,1,0.0028872230836868387,0.0029364858149701543,-0.0029562728175440336,0.005130084497734621,0.9950300302446287
2013-07-11,1,0.002666602314792715,0.0027356710704302036,-0.0029562728175440336,0.006139655552388255,0.9950755585267663
2013-07-15,1,0.0024732611609787347,0.0025865880715421705,-0.0029562728175440336,0.006527986913768423,0.9950548217895178
2013-07-17,1,0.0023790047404094986,0.0024949760312620852,-0.0032681832629328743,0.006527986913768423,0.9947726060154086
2013-07-19,1,0.001823741728132726,0.0020395478104295074,-0.0032681832629328743,0.007048939139311692,0.9940612961235465
2013-07-23,1,0.001959559108546192,0.0021186926413108063,-0.0032681832629328743,0.00776946905633341,0.9934026399300886
2013-07-25,1,0.001357598618326769,0.0016055940265700583,-0.002916147228511863,0.008941518936438846,0.9931130253357147
2013-07-29,1,0.0016334793674728583,0.0018385339757936792,-0.003510177752621249,0.008941518936438846,0.9927214833554939
2013-07-31,1,0.0016804618294426579,0.0018402539981369642,-0.006235266079190671,0.008291479987865023,0.9916612088906037
2013-08-02,1,0.002236050981615294,0.0023019830043220276,-0.007715865106656436,0.0072229427831555625,0.99126656052408
2013-08-06,1,0.0017636976479020955,0.0018770207302928467,-0.007715865106656436,0.008941518936438846,0.9907275191881213
2013-08-08,1,0.0014315784700568114,0.0016037031477422307,-0.007715865106656436,0.008941518936438846,0.9902452637197532
2013-08-12,1,0.0018227785134285785,0.0019472724362960907,-0.007715865106656436,0.011386388867887603,0.9890797875515506
2013-08-14,1,0.0013830862652875805,0.0015622879804799523,-0.009037052393175298,0.011386388867887603,0.9886313575745559
2013-08-16,1,0.0009538803588694163,0.0011963462818240247,-0.007715865106656436,0.012421518887465321,0.9891972368973259
2013-08-20,1,0.0009470237073778267,0.00115265182654099,-0.007126036687989995,0.011682244633698494,0.9900624068491315
2013-08-22,1,0.0009503034798098564,0.0011520509152211245,-0.009037052393175298,0.008857277824101445,0.9890514227855177
2013-08-26,1,0.0007040714965331522,0.0009319808568442271,-0.008186086289874698,0.011119846402394567,0.9892766581982514
2013-08-28,1,0.0001430820883179633,0.0004309306682280618,-0.00671377040850118,0.011119846402394567,0.9908939247602986
2013-08-30,1,0.0005055540344920694,0.0007283540559975124,-0.00671377040850118,0.011119846402394567,0.9908181686144285
2013-09-04,1,0.0013746791503942467,0.0014936471851880644,-0.00671377040850118,0.0038118379732956648,0.9916220284578958
2013-09-06,1,0.0009386374442224909,0.0011076452696514982,-0.004276244469343502,0.006382751070305636,0.9914013447554237
2013-09-10,1,0.0018394626714848374,0.0019458612712212116,-0.004276244469343502,0.0033789479865553983,0.9928731272851836
2013-09-12,1,0.0014198287083488806,0.0015666292985566678,-0.003266315794114532,0.006382751070305636,0.9919577563148774
2013-09-16,1,0.002373868268274083,0.0024016277957638063,-0.003266315794114532,0.005437878577237198,0.992264583995901
2013-09-18,1,0.0006413063847392584,0.0007868064699367843,-0.003266315794114532,0.008278523018443444,0.9910983715481005
2013-09-20,-1,-0.00033798093010990423,-0.00011287407669607343,-0.0011391700832855379,0.00943131054967578,0.9920780241831962
2013-09-24,1,0.00015364040318915635,0.00031706379401308924,-0.0029537776151914875,0.007717913035785786,0.9925710560792091
2013-09-26,1,0.00021154104510386144,0.000367070950198275,-0.003854871438286332,0.007717913035785786,0.9910486503156436
2013-09-30,-1,-0.0007166212872071382,-0.0004530711026960154,-0.0029537776151914875,0.009554727441643162,0.9908949861817756
2013-10-02,-1,-0.0010500106224290155,-0.0007243907361168307,-0.0032643735524370506,0.00963164745534787,0.9903997226801637
2013-10-04,1,0.0001141255115329877,0.00026004499523627926,-0.0032643735524370506,0.008896340571586359,0.9912399776800116
2013-10-08,1,0.00017147546325863494,0.0002876052575065389,-0.005073090925400458,0.00963164745534787,0.9901820739493361
2013-10-10,1,0.001751760863605368,0.0018660974981088878,-0.0075034764963589524,0.008896340571586359,0.9909158807517006
2013-10-14,1,0.0018469679543298577,0.0019541315485227095,-0.0075034764963589524,0.009664415250866573,0.9900356786127229
2013-10-16,1,0.0020563125505407695,0.0021726024372444707,-0.00762768357687802,0.009664415250866573,0.9900666154390092
2013-10-18,1,0.002300184871893717,0.0024348803946237013,-0.00762768357687802,0.010188570048634634,0.9898226137539009
2013-10-22,0,0.0,0.0,-0.00762768357687802,0.010188570048634634,0.98928453999062
2013-10-24,1,0.00019426084549495728,0.00034310689152701153,-0.0014596389414163618,0.012216391827286163,0.9903989572775838
2013-10-28,1,0.0008307265618683784,0.0009023886346461593,-0.0026137840097648565,0.013986822203213673,0.9901998285798721
2013-10-30,1,0.001342064443497015,0.0013654564628448429,-0.0010319790360703235,0.013986822203213673,0.9905216976249299
2013-11-01,1,0.001257028650988496,0.0012759820264732892,-0.0010319790360703235,0.013986822203213673,0.9902552115521243
2013-11-05,1,0.0013017856485777065,0.001302970075589456,-0.0026137840097648565,0.01266808768198717,0.9904107188348715
2013-11-07,1,0.001518337504862497,0.001588762750198091,-0.0026137840097648565,0.013127336150175629,0.9904065152262012
2013-11-11,1,0.0015100191419776515,0.0015398864512385475,-0.0026137840097648565,0.011866189259255148,0.9914265960006798
2013-11-13,1,0.001379822497579481,0.0014000248024080492,-0.0026137840097648565,0.010218361917205017,0.9921453842833707
2013-11-15,1,0.0016714487896231857,0.0017137189265692301,-0.0019447298158554545,0.009384530767135729,0.9922816828220234
2013-11-19,1,0.0019166573605527706,0.0020098816536489868,-0.0027584237182436784,0.011866189259255148,0.9918009745516495
2013-11-21,1,0.0024401324583381906,0.0026120743983350445,-0.0031846337314980623,0.009524025116550438,0.9919495991815609
2013-11-25,1,0.002465483698477426,0.002630077179846233,-0.0031846337314980623,0.008606856898694332,0.9928616085469166
2013-11-27,1,0.003235496255760118,0.0035471368427395884,-0.0034947442193424224,0.005665994462573382,0.9927488160959823
2013-12-02,1,0.0035803523790154364,0.003932109544632515,-0.0034947442193424224,0.0034570697378030024,0.9929144467802039
2013-12-04,1,0.0029069267371877924,0.003188101389965429,-0.0028577742847061167,0.005056835292690218,0.9934398710507865
2013-12-06,1,0.0031854375610479903,0.003505933140190768,-0.0020867998202735824,0.006342635901152147,0.9945492749387571
2013-12-10,1,0.0029289971529577003,0.0031959866216841326,-0.0020867998202735824,0.008606856898694332,0.9941679477548052
2013-12-12,1,0.0022693020840920254,0.002441398691602433,-0.0028577742847061167,0.008606856898694332,0.9934874134550741
2013-12-16,1,0.0021596430419619284,0.002292143687666923,-0.0028577742847061167,0.008977409955790185,0.993272374906437
2013-12-18,1,0.0024585498613049353,0.0026517607478528443,-0.0028577742847061167,0.008537795457608037,0.9937881756301942
2013-12-20,1,0.0027273834402473896,0.002983039251356719,-0.0024580764650020447,0.007366602187597288,0.9939006547449875
2013-12-24,1,0.0030422415560483317,0.003355357422635571,-0.0064279061770386075,0.007366602187597288,0.9912450464418778
2013-12-27,1,0.0027139948472240097,0.0029514971174092884,-0.0064279061770386075,0.008768854165289181,0.9909506788418312
2013-12-31,1,0.002698541905286203,0.002943435965744423,-0.01097470148819514,0.009804344081136127,0.9891383095825788
2014-01-03,1,0.0023334644879173813,0.0025676103774637206,-0.011116137958080719,0.009804344081136127,0.9887239357430587
2014-01-07,1,0.002655694220936148,0.0029247375972188995,-0.011116137958080719,0.00890261216759169,0.9888004490749978
2014-01-09,1,0.0032996825399719235,0.003551032684478961,-0.015066490178379691,0.007688717148398062,0.98852768926784
2014-01-13,1,0.0022751799896855215,0.0023812319610527627,-0.007744690250471599,0.007688717148398062,0.9897018215495774
2014-01-15,1,0.002749766208001033,0.002926488812156717,-0.009158456621190504,0.006171911954879761,0.9896863249039956
2014-01-17,1,0.002401958476579007,0.0025266039193474,-0.009158456621190504,0.007369141053798684,0.989927761103924
2014-01-22,1,0.001454439900127121,0.00152099479537334,-0.012255985028904676,0.007369141053798684,0.9896811498122537
2014-01-24,-1,-0.00035894376360657903,-6.101459829221077e-05,-0.005374964097618259,0.007369141053798684,0.991689155476374
2014-01-28,1,0.0007241031406767567,0.000865372806697146,-0.006865141347684501,0.0061430057050671245,0.99224339471103
2014-01-30,1,0.0003700522351222314,0.0005852543986640853,-0.005218096001287798,0.00725705032404842,0.9927052740096077
2014-02-03,1,9.478030968327331e-05,0.000267879092430346,-0.004592180266968198,0.007369141053798684,0.9927358609539801
2014-02-05,1,9.673382617210956e-05,0.00028839225165665987,-0.004592180266968198,0.007333667932424898,0.9928446348764134
2014-02-07,1,0.00027283750212216156,0.0004302286325271037,-0.003555495308704927,0.009994341389736285,0.992719857970086
2014-02-11,-1,-0.0003985266275083265,-0.0001578475490617837,-0.006865141347684501,0.009994341389736285,0.9908426764694036
2014-02-13,-1,-0.0010842499942121996,-0.0006950557395373085,-0.006897721334507045,0.009994341389736285,0.9904253029516029
2014-02-18,-1,-0.0006970738542163434,-0.00037137442257766237,-0.006897721334507045,0.009994341389736285,0.9903162827504021
2014-02-20,-1,-0.0012139075432827983,-0.0008321449839289328,-0.006897721334507045,0.009994341389736285,0.9896856447454788
2014-02-24,-1,-0.0015908260385277843,-0.0011326265085906124,-0.006897721334507045,0.009994341389736285,0.989965017917922
2014-02-26,-1,-0.0020361928261056267,-0.001520715386393663,-0.005876581462629838,0.009994341389736285,0.9898166753862884
2014-02-28,-1,-0.0007890658121727291,-0.00044139665938346334,-0.008975874563699067,0.00784142766576969,0.9905026203476541
2014-03-04,-1,-0.000684964917250365,-0.0003317928536473232,-0.007386390442362839,0.008684716848232646,0.9901658947926821
2014-03-06,1,0.00011543922494528652,0.00028432299988315684,-0.007386390442362839,0.007895844812813326,0.9903796247949505
2014-03-10,1,0.00103338053708317,0.0010945147291379271,-0.01309281447281865,0.006069510187972071,0.9902100162770079
2014-03-12,-1,-0.0002096394371007503,-1.419503068406016e-05,-0.007058836449217434,0.006069510187972071,0.9922133138411134
2014-03-14,-1,-0.0004797391848752503,-0.0002757578885724017,-0.00951732124668987,0.005817125863896555,0.9919374679454129
2014-03-18,0,-0.000157637423524041,1.4623453224606024e-05,-0.00951732124668987,0.0039802409679920644,0.992169490585452
2014-03-20,-1,-0.0010577855913976115,-0.0007125790311581527,-0.0061662483546752415,0.005730698443543089,0.9915460129334477
2014-03-24,-1,-0.0009170548713412959,-0.0006088596468577899,-0.0061662483546752415,0.007396379840341819,0.9912664718935964
2014-03-26,-1,-0.001402528653478319,-0.0010386573816240053,-0.0026109970255288185,0.007829423280938295,0.9908064787305088
2014-03-28,-1,-0.0022099101702455896,-0.001776132688548805,-0.007292394733014978,0.007829423280938295,0.9910123992309148
2014-04-01,-1,-0.001261502359459437,-0.0009332261915333905,-0.007292394733014978,0.007829423280938295,0.9918027172871585
2014-04-03,-1,-0.0010961191366411949,-0.0007776676555393129,-0.007292394733014978,0.0074880625887435446,0.9918802465908885
2014-04-07,-1,-0.0014551884635484826,-0.0011417766407978602,-0.004689099183416077,0.0074880625887435446,0.991986277590753
2014-04-09,-1,-0.0012841459463051024,-0.0010136108447816941,-0.005537497446176833,0.008264729676436629,0.9915139474535644
2014-04-11,-1,-0.002040467655427249,-0.0016797278000316687,-0.001447156638077474,0.0091341066616485,0.9911988786523143
2014-04-15,-1,-0.001570554604755455,-0.0012548653369227922,-0.004252171023262551,0.0091341066616485,0.9912486220294522
2014-04-17,-1,-0.00015057550005120413,-3.655083346823073e-05,-0.006852882213531104,0.008259030657503358,0.9925067660877547
2014-04-22,1,0.0002875185386049468,0.0003091313961571759,-0.006852882213531104,0.008259030657503358,0.992694343193478
2014-04-24,1,0.0008119654107447761,0.000883571351907297,-0.006852882213531104,0.006505674116478297,0.99301333518373
2014-04-28,1,0.0005033722939654184,0.0005570826509528513,-0.004252171023262551,0.00872840707051628,0.9931431786888452
2014-04-30,1,0.0008193656360861921,0.0008727475175950906,-0.004378424280349262,0.005448201688863975,0.9936249276801437
2014-05-02,1,0.001615712408050978,0.0017690789381449813,-0.004378424280349262,0.005886797581064567,0.9935415456027337
2014-05-06,1,0.0008617153980397387,0.0009082406670450332,-0.003289778821788414,0.007821461793080072,0.9941712259826643
2014-05-08,1,0.0007087665467783463,0.000714064568092827,-0.002048830393045986,0.005886797581064567,0.9946032915289255
2014-05-12,1,0.0014662922363254099,0.0015662122651546265,-0.00386751749810218,0.0033607631471349168,0.9948230553416951
2014-05-14,1,0.0012369183455653472,0.0013177255029494788,-0.00456165124446084,0.0028931311460468788,0.9948117955185949
2014-05-16,1,0.000756654010588942,0.000781663320601907,-0.00386751749810218,0.0028931311460468788,0.9952279206637908
2014-05-20,1,0.0007127748174597924,0.0007452542635994167,-0.00386751749810218,0.004226566273067826,0.994965457286989
2014-05-22,1,0.0007137181003650218,0.0007379407352504021,-0.00386751749810218,0.004326254974531344,0.9949350526356451
2014-05-27,1,0.001297513301336396,0.0014038784784870966,-0.00456165124446084,0.0038879686033916998,0.9950893981331355
2014-05-29,1,0.001092109510370059,0.001150534082340599,-0.005963078238455233,0.0029142732674779237,0.9945811447415841
2014-06-02,1,0.001593885971030459,0.001747693232458202,-0.0067442578150152775,0.002194761292322619,0.9941749373617609
2014-06-04,1,0.0023668276411784933,0.0026785350099062574,-0.008002611052400056,0.002194761292322619,0.9931812272995452
2014-06-06,1,0.0018495587841493022,0.002038871701683018,-0.008002611052400056,0.0025519398077196247,0.993236882948686
2014-06-10,1,0.0017788022500761524,0.0019938330039309636,-0.008084284442882205,0.0025519398077196247,0.9931835743527981
2014-06-12,1,0.0012663883026779812,0.0014080896439592164,-0.008084284442882205,0.004055215188955598,0.993831468166672
2014-06-16,1,0.0007987408142203584,0.0008659962597904662,-0.004837759812945567,0.004055215188955598,0.994302700340963
2014-06-18,1,0.000296994451214677,0.00038453142134182864,-0.008084284442882205,0.0029237486958242544,0.9936585242095008
2014-06-20,1,0.00087500780596942,0.0008796023404512503,-0.008084284442882205,0.002991306579924635,0.9930602581214546
2014-06-24,1,0.00047831077978601323,0.0005289421227118339,-0.004837759812945567,0.003008048882183804,0.9936434771127262
2014-06-26,-1,-0.0007754614486986349,-0.0005269118368891246,-0.0036566673714775624,0.003008048882183804,0.9944088885432903
2014-06-30,-1,-0.0009320506838300714,-0.0006835648125773044,-0.0036566673714775624,0.004300797531050277,0.9935201263408
2014-07-02,-1,-0.0015287141398158837,-0.001371791678402326,-0.004837759812945567,0.003008048882183804,0.9931886846851741
2014-07-07,-1,-0.0010954291938235696,-0.0009819288082745944,-0.004837759812945567,0.002928138745762133,0.993574522735971
2014-07-09,-1,-0.0016274243022612132,-0.0014487129595788105,-0.0038508865444441833,0.0040181584319917245,0.9934224039373682
2014-07-11,-1,-0.0009909464966484924,-0.0009066599193288992,-0.004547741297552227,0.002928138745762133,0.9933314129926917
2014-07-15,-1,-0.0010281613053581642,-0.0009178991755515804,-0.004775995736649399,0.0032166887921121685,0.9932453435336338
2014-07-17,-1,-0.0019968174465469883,-0.0017846828598825058,-0.004547741297552227,0.005834755577161274,0.9929876023018962
2014-07-21,-1,-0.00165071982368146,-0.001463683969467857,-0.004547741297552227,0.005834755577161274,0.9926635321480557
2014-07-23,-1,-0.0007519920437029169,-0.0007195757398928268,-0.004734992135388822,0.005834755577161274,0.992772058658432
2014-07-25,-1,-0.00046377412956078855,-0.00045984808720402537,-0.005329587350235284,0.005834755577161274,0.9922158374822819
2014-07-29,-1,-0.0006122395802826884,-0.0005911565593997611,-0.004734992135388822,0.006815993258384964,0.9923205642125376
2014-07-31,-1,-0.001294443548488356,-0.0012804366701933668,-0.004472521129344688,0.006815993258384964,0.9932826509453933
2014-08-04,-1,-0.002076339098158689,-0.0018779124719103665,-0.004472521129344688,0.006815993258384964,0.9932608992434195
2014-08-06,-1,-0.002170867937546457,-0.001942728525940316,-0.004472521129344688,0.006815993258384964,0.993415458195928
2014-08-08,-1,-0.001452681610174557,-0.001338209021038928,-0.002934856278216995,0.004377017735880664,0.9940060992411784
2014-08-12,-1,-0.0016473800524309896,-0.0014904978235338654,-0.0038533951570145913,0.004377017735880664,0.9936116544902943
2014-08-14,-1,-0.0008401441231432553,-0.0007799960497325228,-0.004657958433864861,0.0018946113485598264,0.9942926179362862
2014-08-18,-1,-0.000469813478790693,-0.0004334603778923932,-0.00406360359538454,0.0028183318750150017,0.9948938112384896
2014-08-20,-1,-0.0014366863842201938,-0.001256488169738263,-0.00228948935709891,0.0036306087739434133,0.9945834153734058
2014-08-22,-1,-0.0011698927940148357,-0.001079665459702353,-0.00228948935709891,0.004428487247390613,0.9944247377339139
2014-08-26,-1,-8.902588523870681e-05,-2.7536838179985178e-05,-0.004349748723895656,0.0036306087739434133,0.9947134073936237
2014-08-28,-1,-0.0005843256240994595,-0.0005245449920080122,-0.007086628613737633,0.00456092153699858,0.9939249114924495
2014-09-02,-1,-0.00038576103173048806,-0.00035183413820745864,-0.00926732487840816,0.00456092153699858,0.99343675352443
2014-09-04,-1,-0.001308805929709367,-0.0011112600299809229,-0.009930131650003771,0.006797006704116995,0.9926259954845639
2014-09-08,-1,-0.0009515876103134884,-0.0008112114019128013,-0.009930131650003771,0.007249381893569372,0.9917080439029099
2014-09-10,-1,-0.0011475785439714254,-0.0010357289315654494,-0.009930131650003771,0.007486471483718162,0.9909453120608273
2014-09-12,-1,-0.0014163047682835665,-0.0012887236095321928,-0.010273882162292528,0.007486471483718162,0.9897582549606943
2014-09-16,-1,-0.0003860602733627463,-0.0003810678144880047,-0.010273882162292528,0.007644510804522891,0.9890104367555754
2014-09-18,-1,-0.0005424465440659791,-0.0004893523566623093,-0.010273882162292528,0.008604514332652196,0.9885700087428069
2014-09-22,-1,-0.00016499548692984185,-0.00012189857845260944,-0.010273882162292528,0.009349088566495039,0.9884537642855492
2014-09-24,0,-4.498884459997265e-05,2.836359737475112e-05,-0.01001128219258351,0.009673832585171887,0.9881122420685621
2014-09-26,-1,-0.000564828250167468,-0.0005362989198845012,-0.009892884464044502,0.011455784802802347,0.9878133959288016
2014-09-30,-1,-0.0010429530434643275,-0.0009621220999788598,-0.009737111533032076,0.013752205888286025,0.9875397457752529
2014-10-02,-1,-0.0010954226008468692,-0.0010497153721948024,-0.009194542874605673,0.013752205888286025,0.9879923481896572
2014-10-06,-1,-0.0011431557996499744,-0.001080328204315565,-0.005460892535786987,0.011496423765577413,0.9883193233585779
2014-10-08,-1,-0.0014150876524292545,-0.0012798409934913304,-0.0018835594362553068,0.009673832585171887,0.9897424772383422
2014-10-10,-1,-0.0029474641108439303,-0.002630098133965715,-0.0014933812257644221,0.009673832585171887,0.9903893318540011
2014-10-14,-1,-0.0025639332296850553,-0.00230220512533087,-0.0014933812257644221,0.00809337934424454,0.9916120161603671
2014-10-16,-1,-0.0020564623211225272,-0.0018914541941334312,-0.0014933812257644221,0.007426757019764573,0.9922922825810424
2014-10-20,-1,-0.001216635129508129,-0.001156356536315748,-0.0025573900206517486,0.007078624853188185,0.9932058416811179
2014-10-22,-1,-0.00016569641483830792,-7.163196046350642e-05,-0.0025573900206517486,0.0067781277428650075,0.9947543211703384
2014-10-24,1,0.0009724285996427617,0.0012518678403436695,-0.0025573900206517486,0.006255139866102924,0.9954805536327659
2014-10-28,1,0.001568216093093224,0.0019353244987253212,-0.003830192965487745,0.005386255917436977,0.9954952195043871
2014-10-30,1,0.0019470051892745035,0.002342910972960844,-0.004299696339866247,0.004207826346263793,0.9954367272206032
2014-11-03,1,0.002130722185928021,0.0025198786940601823,-0.004299696339866247,0.001548968668973026,0.9952555772106302
2014-11-05,1,0.0019019837918499878,0.002237941995583336,-0.004299696339866247,0.004944517375732895,0.9949844415898307
2014-11-07,1,0.001848541318422467,0.0022027433581192804,-0.003830192965487745,0.004944517375732895,0.9953122390244185
2014-11-11,1,0.0019130145747228765,0.0022852143143697306,-0.00453951684390512,0.004944517375732895,0.9942197965729379
2014-11-13,1,0.001689501219257887,0.002006899296304886,-0.005000297448851533,0.005194969590909312,0.9929606509522532
2014-11-17,1,0.0014251823853666068,0.0016593729586948246,-0.005363390264495269,0.004363946994081009,0.9924214849890514
2014-11-19,1,0.0012403062675270565,0.0014181246413411202,-0.005363390264495269,0.007644960157434985,0.9909246313199594
2014-11-21,1,0.0016212172064648473,0.0018525869371271552,-0.005363390264495269,0.007644960157434985,0.990815068918307
2014-11-25,1,0.0014447899840694233,0.0016788158325610366,-0.005072348081889896,0.007864490068098428,0.9911311936606382
2014-11-28,1,0.0010122722202900599,0.0011581957835471396,-0.003924567145461222,0.007864490068098428,0.9913227752103079
2014-12-02,1,0.0012801687085891187,0.0014800041166280653,-0.006209493972789482,0.007864490068098428,0.9908780674581759
2014-12-04,1,0.0019402967959706024,0.0022386593567372444,-0.010259045943050627,0.005469069006847306,0.9897475995885985
2014-12-08,1,0.0014302533715437205,0.001614206953657698,-0.012423204495472752,0.005469069006847306,0.9893036086351175
2014-12-10,1,0.0007082300445747235,0.0008214024651431217,-0.010217547312039216,0.007864490068098428,0.9897734776312955
2014-12-12,1,1.4249283944169872e-05,4.315942423511867e-05,-0.006195661095785678,0.005469069006847306,0.9912184646168273
2014-12-16,-1,-0.0005960270661032826,-0.0005500853576144224,-0.008091333745161848,0.005469069006847306,0.9910476281134949
2014-12-18,1,0.0006138201433412746,0.0006964800672654987,-0.010033661042070721,0.004177130866032965,0.9919651263450556
2014-12-22,1,0.0005146711317147873,0.0005167855338942509,-0.010033661042070721,0.005469069006847306,0.9915320259264553
2014-12-24,1,0.0007120336525611814,0.0007509461944011616,-0.010531913834216191,0.004177130866032965,0.9913479994360211
2014-12-29,1,0.0006714220878573823,0.0007047046472679877,-0.011681268649502296,0.004177130866032965,0.9902956843837002
2014-12-31,1,0.00027894217841654696,0.0002810129590763215,-0.011681268649502296,0.004963069134203107,0.9902274864367989
2015-01-05,-1,-0.0012154958058875852,-0.0010343354037953513,-0.010531913834216191,0.008420671389971345,0.990328955085734
2015-01-07,-1,-0.001223909002708135,-0.0010756914222590703,-0.008257418009210338,0.009913064402641994,0.9905749049319735
2015-01-09,-1,-0.00045857444309283895,-0.0004261270755763437,-0.008342228255119568,0.008420671389971345,0.9909889209975996
2015-01-13,-1,-0.0007759924073361722,-0.0006927918785106585,-0.008342228255119568,0.008420671389971345,0.9908370035175463
2015-01-15,-1,-0.0018328424039462318,-0.0016081072285762032,-0.008342228255119568,0.008420671389971345,0.987870675073693
2015-01-20,-1,-0.00027642798765293127,-0.00020238786117009368,-0.008084242222625219,0.008324019369017627,0.9883809700283317
2015-01-22,1,0.0006700807743132934,0.0007145633210227133,-0.008084242222625219,0.003911905725135984,0.9891904924321471
2015-01-26,1,0.00036729420775983066,0.00037854206514384257,-0.007484479427579072,0.005419702600243744,0.9889517972794627
2015-01-28,-1,-0.0006573987358318291,-0.0005348827907188014,-0.005550674033835907,0.008620019318001684,0.9895200106974343
2015-01-30,-1,-0.0007911888015841727,-0.0006590444772435131,-0.003802708913606992,0.007281075517833937,0.9901100583013104
2015-02-03,1,0.00019028114586723422,0.00024148242712831476,-0.005744697418407215,0.003911905725135984,0.9909502437580884
2015-02-05,1,0.00021770065652922295,0.00028913712429633664,-0.005744697418407215,0.003911905725135984,0.9906511050972974
2015-02-09,1,0.00015062365860201224,0.0002102267141529503,-0.005744697418407215,0.004933160666251692,0.989540007476719
2015-02-11,1,0.000469481547787402,0.0004836554098920053,-0.007882178350140946,0.007281075517833937,0.9880802899218164
2015-02-13,-1,-0.0004761097530311148,-0.0003518457830119862,-0.007882178350140946,0.008620019318001684,0.9910289938101298
2015-02-18,-1,-0.001106587444176748,-0.0009027440695624444,-0.005744697418407215,0.008620019318001684,0.9914073970758913
2015-02-20,-1,-0.0011515020699364507,-0.0009359537148400306,-0.007903897097003346,0.008846776620043136,0.9904786429112292
2015-02-24,-1,-0.001503431724876722,-0.0012177497314316897,-0.006231469711992914,0.008665753617330522,0.9911683902612825
2015-02-26,-1,-0.001630801347335295,-0.0013065604765658744,-0.009649626146820871,0.007387150818066978,0.990585429376333
2015-03-02,-1,-0.001155564291866479,-0.0008981188087991436,-0.009649626146820871,0.009214038416896561,0.9904077155683265
2015-03-04,-1,-0.0019245270400979327,-0.0015769947475405468,-0.006989574040886928,0.009214038416896561,0.9908986648627625
2015-03-06,-1,-0.0021165935354809564,-0.0016860352786273525,-0.006989574040886928,0.006304725203366955,0.9916180378142513
2015-03-10,-1,-0.002547503868406907,-0.0020682318124126977,-0.004602755512972725,0.006304725203366955,0.9925148231806648
2015-03-12,-1,-0.0018533537343402911,-0.0014569940915062354,-0.0034524285146050934,0.004418639350395842,0.994103138195804
2015-03-16,-1,-0.001558075255184969,-0.0012290222762099594,-0.0034524285146050934,0.004418639350395842,0.9942915159469833
2015-03-18,-1,-0.000960421787332046,-0.0007406151072055746,-0.0034524285146050934,0.004418639350395842,0.9943262825773144
2015-03-20,-1,-0.0003548600923481947,-0.00024563245761272253,-0.0034524285146050934,0.004418639350395842,0.9946120382657326
2015-03-24,0,-3.5189713432454476e-05,3.4616114709857426e-06,-0.004602755512972725,0.004459271905567946,0.9937173986229298
2015-03-26,-1,-0.0001417108727804608,-0.00011580255210607588,-0.004602755512972725,0.0041011831749809165,0.9944761482993048
2015-03-30,1,0.0003571902287666511,0.0004248331708491317,-0.00388843779301516,0.0041011831749809165,0.9943776458911917
2015-04-01,1,0.0001260977357965208,0.00016209762779387528,-0.0045649024838007035,0.004460604414872877,0.9930188450679069
2015-04-06,1,5.329062903697751e-05,6.255041928294758e-05,-0.0045649024838007035,0.006847663495626561,0.9924784597126887
2015-04-08,1,0.00019134043424828405,0.00021487887686380859,-0.0045649024838007035,0.007033613554234723,0.9914711653280502
2015-04-10,1,0.0002712523148733592,0.00030390272322110723,-0.0045649024838007035,0.007033613554234723,0.9914803587348703
2015-04-14,1,0.00020010979214700507,0.00022617720076300443,-0.0045649024838007035,0.007033613554234723,0.9916791994368856
2015-04-16,1,0.00022622895814661156,0.00024846998752152535,-0.004725955587203365,0.007834015627612023,0.9910848518260698
2015-04-20,1,0.00027133406380396886,0.00033103303155004345,-0.0038812686855290465,0.010018089912157538,0.9911455970880901
2015-04-22,-1,-0.00027586978011154685,-0.0002454451247211791,-0.002318065142835442,0.010018089912157538,0.9916179036693202
2015-04-24,-1,-0.0007048115564893907,-0.0006154849117148194,-0.001052989013683838,0.010018089912157538,0.9917509546068201
2015-04-28,-1,-0.0002016182430273699,-0.00017901952419226884,-0.001052989013683838,0.007834015627612023,0.9921773801831288
2015-04-30,1,0.0006203958914992632,0.0007415326923082912,-0.00037802787781197954,0.007033613554234723,0.9941808554388804
2015-05-04,1,0.0012432936447766435,0.0014485335358876146,-0.001052989013683838,0.004219117665480726,0.9947706998644236
2015-05-06,1,0.001918382278850415,0.002164083615481603,-0.0026787330647940807,0.003650523014282296,0.9950641770371988
2015-05-08,1,0.0017054150976522154,0.001892808124442198,-0.0036301218238677,0.004219117665480726,0.9946498587969981
2015-05-12,1,0.0011501995749244502,0.0012278063182533023,-0.0026787330647940807,0.005185196398430919,0.9938471014386818
2015-05-14,1,0.002244964327946017,0.0025579305615179753,-0.0033344112654716297,0.00436000821002412,0.994028627976782
2015-05-18,1,0.0031842937440793124,0.0036551956613192957,-0.003342514734258754,0.0039780511869042575,0.9934412060009989
2015-05-20,1,0.0035095324357081567,0.004035784127365094,-0.003342514734258754,0.004461996962701517,0.9925849033549119
2015-05-22,1,0.003327538269075012,0.0038278305412137517,-0.003342514734258754,0.004461996962701517,0.9927124756101803
2015-05-27,1,0.002849725240666651,0.0032624080177501764,-0.003342514734258754,0.005505453663631477,0.9928971965711701
2015-05-29,1,0.0022241493422194194,0.002494252859805264,-0.0039718905664299,0.005505453663631477,0.9927850273292368
2015-06-02,1,0.0018525543822616247,0.0020530309116706617,-0.0054602451098314745,0.005624986892229741,0.9915524488536127
2015-06-04,1,0.0019061799654843557,0.0021382949587678605,-0.003821683465175624,0.005624986892229741,0.9915830240252166
2015-06-08,1,0.0017375830014055601,0.0019352948159495572,-0.003284342231720204,0.008239090516826615,0.9911454378156247
2015-06-10,1,0.00228085128272418,0.002513556267094494,-0.003821683465175624,0.007546496467443552,0.9907538549940909
2015-06-12,1,0.001752522446744674,0.0019073889697075758,-0.0032280219929668383,0.01527948604985287,0.9901194483537538
2015-06-16,1,0.0025031504440211887,0.0027989039170446006,-0.002352361175191369,0.01527948604985287,0.9901708493879537
2015-06-18,1,0.00265414352586928,0.0029470291900398743,-0.0037572597576351337,0.013276352886320973,0.9902049885538136
2015-06-22,1,0.002086005805054905,0.002258809385197697,-0.004755833363837645,0.013276352886320973,0.9899458107443219
2015-06-24,1,0.0018655614568971574,0.001991027771479306,-0.004755833363837645,0.013276352886320973,0.9898760548153902
2015-06-26,1,0.0023289799060090977,0.0025804090624209123,-0.004874878642783511,0.013276352886320973,0.9900205208675174
2015-06-30,1,0.0018955555682284595,0.002104073356474761,-0.0035394052925208455,0.015497502907244335,0.9906606650782316
2015-07-02,1,0.0024617567259267725,0.002737752515857051,-0.004874878642783511,0.014438101860839919,0.9909068795600448
2015-07-07,1,0.002786419034138823,0.0031179146320504105,-0.004874878642783511,0.014438101860839919,0.9907076081408998
2015-07-09,1,0.0014440667040058388,0.0016062201798707483,-0.0037874909186795553,0.014438101860839919,0.9914349468211985
2015-07-13,1,0.0019561698037280557,0.0021497530003236802,-0.0037874909186795553,0.010132742762146525,0.9923670983560985
2015-07-15,1,0.0025140864321726354,0.0027822097340090245,-0.0037883439823791954,0.0090970233423455,0.9927069138882144
2015-07-17,1,0.002179776804843904,0.0023998947496782445,-0.003537612613231502,0.009835349491917802,0.9930328130811859
2015-07-21,1,0.002104448262368127,0.0023173840845255303,-0.0020149393462717013,0.009835349491917802,0.9930974929851725
2015-07-23,1,0.0021496837878096833,0.0023849094708489156,-0.003537612613231502,0.009835349491917802,0.9920852513863024
2015-07-27,1,0.0012277706399438583,0.0013321390352139188,-0.004039572447531212,0.009835349491917802,0.9888491759786427
2015-07-29,1,0.003752357648033236,0.004086164340910215,-0.004039572447531212,0.009835349491917802,0.9878272573754815
2015-07-31,1,0.0033235801809823884,0.0035847092787049365,-0.003685798541627346,0.00930915242794999,0.9881840688869801
2015-08-04,1,0.00415820430277803,0.004555161441946755,-0.005627962576652081,0.008266101221541486,0.9873335063399987
2015-08-06,1,0.0041334983438485184,0.004514082053844251,-0.005627962576652081,0.00930915242794999,0.9871291009676576
2015-08-10,1,0.004433621889229493,0.004853263620650361,-0.006771174447162097,0.00930915242794999,0.9860986431555784
2015-08-12,1,0.00438473609815146,0.004801290413812076,-0.007034850170382592,0.00930915242794999,0.985260508018974
2015-08-14,1,0.004204664237514285,0.004593528950531779,-0.007034850170382592,0.010784249633070732,0.9847285380410395
2015-08-18,1,0.0036492572279950048,0.003943178992172034,-0.009904165352598604,0.013134198622055018,0.9840876903023467
2015-08-20,1,0.0029672327201495674,0.0031685137096066447,-0.009904165352598604,0.013134198622055018,0.9846782494655606
2015-08-24,1,0.002303582338974,0.0024019394778965145,-0.00703454931878398,0.013134198622055018,0.9875529556098673
2015-08-26,1,0.003195762614271748,0.0034078179581260633,-0.00703454931878398,0.011262446266917695,0.988496405678354
2015-08-28,1,0.00313539555870867,0.003340617361627629,-0.009434279148010389,0.01295507127446719,0.9875769997669133
2015-09-01,1,0.002419824986265065,0.0025203227190156744,-0.00703454931878398,0.014598365234735233,0.9882741068005496
2015-09-03,1,0.0024816995218854485,0.002577564746579303,-0.007294619036841884,0.014598365234735233,0.9881423799063906
2015-09-08,1,0.002623556704249782,0.0027333468777531616,-0.006321429565594016,0.014598365234735233,0.9885942685876041
2015-09-10,1,0.0030072321975444464,0.0031456768456423626,-0.004277947456380857,0.014598365234735233,0.9892864270792493
2015-09-14,1,0.0031543341507107056,0.0032802137319493333,-0.007294619036841884,0.011750501804477766,0.9891965262536624
2015-09-16,1,0.0027710502165685757,0.00281967993273072,-0.007294619036841884,0.010839684300542484,0.9897212528703798
2015-09-18,1,0.002183085014763023,0.0022030190740427932,-0.0039386402397700564,0.010839684300542484,0.9907282750852273
2015-09-22,1,0.002195043527389924,0.0022066216397160117,-0.002067792528956814,0.012726673574989564,0.9906389314321203
2015-09-24,1,0.0025507299558014925,0.0026064192348214084,-0.0039386402397700564,0.012726673574989564,0.989431677461672
2015-09-28,1,0.002745389112580432,0.0028733304387722506,-0.002067792528956814,0.012459600776665867,0.990568842724626
2015-09-30,1,0.0033783593571581005,0.0035821125906141736,-0.0039386402397700564,0.011319098694539289,0.9910175885037675
2015-10-02,1,0.002792846687371081,0.0028993321912150196,-0.003819539814997883,0.012373605390300165,0.990614222778778
2015-10-06,1,0.0033955307784405255,0.0035830044323012372,-0.003819539814997883,0.012373605390300165,0.9906564406319369
2015-10-08,1,0.003845872624698997,0.004110413996248008,-0.008084389042530596,0.011565103219817567,0.9908683617507672
2015-10-12,1,0.003194095664623021,0.0033690653250502403,-0.008012277123753148,0.012370480213230969,0.9908234512714957
2015-10-14,1,0.002672190517546849,0.0027591186767336098,-0.006097884393083301,0.012370480213230969,0.9907008180965525
2015-10-16,1,0.0024631715383317495,0.002500146311492956,-0.008012277123753148,0.012370480213230969,0.9892400145486749
2015-10-20,1,0.0029371706243098844,0.0030201764149537353,-0.008012277123753148,0.011696250840707564,0.9895201474651837
2015-10-22,1,0.0025485977246048268,0.002561349217836518,-0.007384111571380674,0.012767048252970157,0.9905234097323578
2015-10-26,1,0.0026488423304015336,0.0026577565258323874,-0.007384111571380674,0.011696250840707564,0.9904784298748938
2015-10-28,1,0.0020223316505975945,0.002100090771597465,-0.007384111571380674,0.011696250840707564,0.9904030238770455
2015-10-30,1,0.0023543605215292033,0.002357689187124384,-0.006084490494564043,0.009972026993060051,0.9913548594701072
2015-11-03,1,0.0024809675549829634,0.0024905437707385667,-0.007384111571380674,0.00780680751633221,0.9915514762652309
2015-11-05,1,0.0024029369722935413,0.002406509525990536,-0.007404649132000461,0.00780680751633221,0.9894217993330161
2015-11-09,1,0.002501697902110607,0.0025101323435082817,-0.007404649132000461,0.006391780028167981,0.989829527092729
2015-11-11,1,0.002209426745821724,0.0022498163464763745,-0.00796601720762165,0.0047864130037391,0.9894101893402841
2015-11-13,1,0.001175057173132144,0.00134859155648304,-0.009621266695394287,0.0047864130037391,0.989367020353052
2015-11-17,1,0.0015008431832103054,0.0016475746259569136,-0.009621266695394287,0.004548357155398403,0.9897373597641773
2015-11-19,1,0.0015425128472730475,0.0017158749609641976,-0.013196042395714754,0.004093059982498216,0.9883305694831538
2015-11-23,1,0.0017899023155947846,0.0019070922958927536,-0.013196042395714754,0.004548357155398403,0.9881486241845393
2015-11-25,1,0.0012882794421832057,0.0014563783558255718,-0.013196042395714754,0.005359376651536744,0.9886795663421161
2015-11-30,1,0.0010468804366006788,0.0012712756141980124,-0.013196042395714754,0.006098947314976481,0.9884229332162487
2015-12-02,1,0.0010690922989916246,0.0012465534495891902,-0.013196042395714754,0.006098947314976481,0.9880476792068926
2015-12-04,1,0.0023445824525837934,0.0023509781097745953,-0.01340764882011696,0.006098947314976481,0.9887328341494425
2015-12-08,1,0.0017030576877175828,0.0017839038817992678,-0.020178493075801943,0.006098947314976481,0.9876626238289407
2015-12-10,1,0.0008937100729332435,0.0010765275988530083,-0.01489200807206845,0.007015550293322698,0.9875676275080462
2015-12-14,0,-0.00014342561353135677,0.0001659496066645687,-0.012442925748801901,0.008501318888293674,0.9886622312102523
2015-12-16,0,-2.0784431411092867e-08,0.00029698327617003065,-0.013205233721876136,0.009113287863253994,0.9881254376595846
2015-12-18,-1,-0.0007937748582125862,-0.0004216656544333323,-0.012442925748801901,0.009113287863253994,0.9888465669291395
2015-12-22,-1,-0.0004156057732200623,-8.516794610276062e-05,-0.012442925748801901,0.009167597084577693,0.9879220654071805
2015-12-24,0,-0.00010301782703627113,0.00016617423650600884,-0.013205233721876136,0.011656177752262223,0.9867367801769144
2015-12-29,1,0.0003099920761909623,0.0005252275778431415,-0.013205233721876136,0.009167597084577693,0.9869070069584689
2015-12-31,0,-0.00011214491270664952,0.00013002395783399024,-0.013205233721876136,0.01193371997865249,0.9864479206276061
2016-01-05,1,8.457385238238809e-05,0.00029895565809502894,-0.013205233721876136,0.009167597084577693,0.9874196466067889
2016-01-07,-1,-0.0008677580022083283,-0.0005545043089242504,-0.010697855273834645,0.009167597084577693,0.9885233836002563
2016-01-11,-1,-0.0008819713281913305,-0.0005828446382373386,-0.010986788449237858,0.00760122564813661,0.988397343892363
2016-01-13,-1,-0.0012798356007390058,-0.0011288038400338893,-0.014299824172229173,0.008046956811156341,0.9836911907113873
2016-01-15,-1,-0.0030930253660451214,-0.002612471211046556,-0.011924641569887786,0.006576556244421071,0.9844382397596974
2016-01-20,-1,-0.0032303376566873345,-0.0027842497925591493,-0.010606583393289685,0.008046956811156341,0.9836920795716658
2016-01-22,-1,-0.002093959878098875,-0.0017768164963914684,-0.010606583393289685,0.007316655500077648,0.9840858343003058
2016-01-26,-1,-0.0030131048857969145,-0.0025266231617263163,-0.007011134446101719,0.006286171307783405,0.9849313741173485
2016-01-28,-1,-0.002738764500888658,-0.0022938318978041805,-0.007011134446101719,0.007269704333799545,0.9837142372765888
2016-02-01,-1,-0.002027163622755541,-0.001673747347111669,-0.010606583393289685,0.007269704333799545,0.98257149878548
2016-02-03,-1,-0.002338588051995007,-0.001978320448346271,-0.007011134446101719,0.010703050880130476,0.9827959905500694
2016-02-05,-1,-0.002475885234824419,-0.002122481693628225,-0.006688801738821678,0.010703050880130476,0.9827287561247157
2016-02-09,-1,-0.0033932263581640094,-0.0029331927613847246,-0.0022032973348661755,0.02008324244222686,0.9815955774453092
2016-02-11,-1,-0.007979025207165386,-0.006949878152030809,-0.0006432081949950704,0.02008324244222686,0.9834564173914961
2016-02-16,-1,-0.007639982430142274,-0.006656166753958883,-0.001263515453216488,0.02008324244222686,0.9832358111457781
2016-02-18,-1,-0.006438436112015983,-0.00563069789607448,-0.001263515453216488,0.016697068163390283,0.9851490649145184
2016-02-22,-1,-0.0052697155267023,-0.004586424197725823,-0.0031304799781452096,0.013011439095975826,0.9873734590518076
2016-02-24,-1,-0.00445215591568369,-0.003921744181885523,-0.003171696683625125,0.013011439095975826,0.9876943712921542
2016-02-26,-1,-0.0034543722828248146,-0.003026160755762442,-0.0066531911974931175,0.011012505503918949,0.9891363182743507
2016-03-01,-1,-0.0025544951311621818,-0.0022767889920489942,-0.006324592755898035,0.011012505503918949,0.9909080372134891
2016-03-03,-1,-0.001612046005385408,-0.0014836076507276589,-0.0072828921301454205,0.011120715601082692,0.9904549016056186
2016-03-07,-1,-0.0022215256006993893,-0.00199675241538499,-0.006324592755898035,0.011120715601082692,0.9905537962005222
2016-03-09,-1,-0.000825084614098243,-0.0007488251440729974,-0.0072828921301454205,0.0073595645286028775,0.9918736224396487
2016-03-11,-1,-0.00023211139764584763,-0.00022738881464477923,-0.0072828921301454205,0.007899892351082353,0.9914868512769498
2016-03-15,1,0.0007950379283255473,0.000987737578707949,-0.0072828921301454205,0.009494053611414624,0.9909224410554157
2016-03-17,1,0.000410636160644815,0.0005156150490400468,-0.006324592755898035,0.009494053611414624,0.9913517958165586
2016-03-21,1,0.0006760039251908385,0.0008481717140068971,-0.005337682002404554,0.009494053611414624,0.9915436174879626
2016-03-23,1,0.0003937961261022623,0.0005146168669030105,-0.005337682002404554,0.009494053611414624,0.9904926815487491
2016-03-28,1,0.0002625545271143956,0.000372750119846935,-0.005337682002404554,0.009494053611414624,0.9904725903879457
2016-03-30,1,0.001041472223130231,0.0013062993985589798,-0.0047524113195451705,0.009494053611414624,0.9878810935390184
2016-04-01,1,0.0010279010736764294,0.0013041415516711814,-0.0047524113195451705,0.008450657253029334,0.9887003841048878
2016-04-05,1,0.0008395936096912638,0.0010995782107413874,-0.002211659914981606,0.009494053611414624,0.9882612493353167
2016-04-07,1,0.0008582714641563099,0.0011327158740161796,-0.0015338180608312985,0.009494053611414624,0.9889671934481796
2016-04-11,1,0.0010741829647760949,0.0013249060973415444,-0.0024050946941643406,0.006789052063636847,0.9895986806754501
2016-04-13,1,0.0025179850306712654,0.00300543743217584,-0.0037182378891338717,0.004710845728660015,0.9899094391448592
2016-04-15,1,0.0027234490862492132,0.0032796774074907386,-0.003245275020031581,0.006789052063636847,0.9897512118884028
2016-04-19,1,0.0031068019127417747,0.0037211254950366155,-0.004299947313150164,0.005191113040516449,0.9890730933298415
2016-04-21,1,0.0018713294750412448,0.0022999258929801893,-0.004299947313150164,0.008776863043210266,0.9897265230866831
2016-04-25,1,0.0020735764027863934,0.0025491855606028036,-0.004114879322318471,0.007251041469727703,0.9899090278491074
2016-04-27,1,0.004293032484856357,0.005043868116723825,-0.006570445163926047,0.007251041469727703,0.9915797803630872
2016-04-29,1,0.004382506622527601,0.005188425620822203,-0.006570445163926047,0.009965891329295885,0.9913741417469215
2016-05-03,1,0.0048644974869579815,0.005718227415024037,-0.007617984665782179,0.007100375187752125,0.991121884637116
2016-05-05,1,0.004518895858028624,0.0052848145490913875,-0.009040654755324255,0.007100375187752125,0.9904041498656857
2016-05-09,1,0.00387064297279545,0.0044831886425731205,-0.009040654755324255,0.007100375187752125,0.9907018422221698
2016-05-11,1,0.004200305656941523,0.004880571765169088,-0.009040654755324255,0.004651953092168346,0.9910374642435282
2016-05-13,1,0.00358538234641664,0.004095176821213287,-0.009040654755324255,0.0035139863102831583,0.9910860543732302
2016-05-17,1,0.003537888033965473,0.0040733302301634525,-0.008033586331491373,0.0017974765287931118,0.991157450321369
2016-05-19,1,0.003906864169135476,0.004496389221508406,-0.007057464845714164,0.003113949061733266,0.9915023515706006
2016-05-23,1,0.004068729522786672,0.004701675465191033,-0.007057464845714164,0.0028674677755351425,0.9917542474692782
2016-05-25,1,0.0038688904542032486,0.004438217265530529,-0.004926316304408457,0.003113949061733266,0.9931989665572794
2016-05-27,1,0.0033722818039078253,0.0038468228871908153,-0.007057464845714164,0.0028674677755351425,0.991062214218834
2016-06-01,1,0.002314023635817673,0.002568983164826553,-0.004926316304408457,0.003324021232504135,0.9907870767159808
2016-06-03,1,0.0017605381907446521,0.001943228621964532,-0.003322334851909503,0.007260360965106524,0.9899768890974663
2016-06-07,1,0.00189686624040302,0.0021185510407295592,-0.003453210863715153,0.007260360965106524,0.9887249357176618
2016-06-09,1,0.0018344919264215696,0.00203340495597344,-0.004926316304408457,0.015300980037312057,0.9871481603789093
2016-06-13,1,0.00102625955088354,0.001068653014338423,-0.0031209076215949387,0.015300980037312057,0.9871169797694377
2016-06-15,1,0.0013278512862792522,0.0014756964975875956,0.0006989264892764134,0.015300980037312057,0.9874349535342943
2016-06-17,1,0.0019363910041269717,0.0021563994119900747,-0.003975816061369305,0.009215022930728385,0.988044934991218
2016-06-21,1,0.002032827384386153,0.002267346905463496,-0.003975816061369305,0.009215022930728385,0.98782903061278
2016-06-23,1,0.002567087036673434,0.0029059887489412215,-0.003975816061369305,0.009215022930728385,0.9877192115284416
2016-06-27,-1,-0.0002494999724002819,-0.0001809406541503587,-0.0035264422725744633,0.009215022930728385,0.9899791235896879
2016-06-29,1,0.0008639244522947458,0.0009043885479830464,-0.004421278748746385,0.005478703992828087,0.9900104444610875
2016-07-01,1,0.0015976394084770162,0.001671801188428643,-0.004421278748746385,0.004326556430975849,0.9914542350877701
2016-07-06,-1,-0.0011086206515225462,-0.0006184001887749061,-0.004135103340368131,0.004785825950606488,0.9930679178351755
2016-07-08,-1,-0.0008059351563383856,-0.00035080264930117,-0.004135103340368131,0.004785825950606488,0.9938928631983283
2016-07-12,0,-0.0003109941448492788,6.977592539881118e-05,-0.004135103340368131,0.003220233713608611,0.9944503732106735
2016-07-14,1,0.00039940923017662026,0.0006482279520791662,-0.004135103340368131,0.0010831666374873194,0.9943225932305068
2016-07-18,0,-0.00019092639659477602,0.000135309540376203,-0.003579538032240739,0.003524843400609111,0.9946078008270411
2016-07-20,1,8.668452158859313e-05,0.00033138548702707623,-0.00425338963159757,0.0057299120517528375,0.9939578403284024
2016-07-22,1,0.0002399956637677553,0.0004579456605837953,-0.00425338963159757,0.0058301134547333764,0.9937080837284233
2016-07-26,-1,-0.0002996514342293135,-3.0378884761414265e-05,-0.0024011911164011895,0.0058301134547333764,0.9943898535471719
2016-07-28,-1,-0.0016886489478303195,-0.0012362487144041059,-0.0005872688271064334,0.007072414495974575,0.9949829394214023
2016-08-01,-1,-0.0010350697040992516,-0.000742401299726552,-0.00014663134566000305,0.007489007677482992,0.9948980242558647
2016-08-03,-1,-0.0005414169597843528,-0.00031938368602436114,-0.00014663134566000305,0.007489007677482992,0.9952417693791683
2016-08-05,0,-0.0001171468613607097,3.7444893634120996e-05,-0.00014663134566000305,0.007489007677482992,0.9956149152569436
2016-08-09,-1,-0.00033571869840286087,-0.00014726115355771557,-0.00014663134566000305,0.007489007677482992,0.9952337048094572
2016-08-11,-1,-0.00035421469857039505,-0.00015531535233822581,-0.001880685722257116,0.007489007677482992,0.9950716887541825
2016-08-15,-1,-0.00038730806309615737,-0.00017292033790401078,-0.0023074451452999934,0.008553884065937331,0.9938537193786412
2016-08-17,-1,-0.0006344149973597455,-0.00038347299785527935,-0.0023074451452999934,0.008553884065937331,0.9935549093497849
2016-08-19,-1,-0.00019087896928405624,-2.553654517491394e-06,-0.0023074451452999934,0.008896862786647093,0.9932758190893577
2016-08-23,-1,-0.0004453460701133665,-0.00021501731962724022,-0.0033214753154319084,0.009654063522000437,0.9923881147145266
2016-08-25,-1,-0.00048053970266636963,-0.00022548246364200938,-0.0036753131706594895,0.009338546236163007,0.9920207596818703
2016-08-29,-1,-0.00034372033550437954,-9.214229217310854e-05,-0.0036753131706594895,0.00861884172030399,0.9921465918264853
2016-08-31,1,0.0001794014030474867,0.00034342409288878477,-0.0036753131706594895,0.009165697598432382,0.9917993028603849
2016-09-02,1,0.0009817114492264465,0.0010006415860564883,-0.004993120404974711,0.008535835803690427,0.9910219335542025
2016-09-07,1,0.000662239629438765,0.0007307678046939306,-0.004679065015419672,0.008535835803690427,0.9910394810878516
2016-09-09,1,0.0003331135780467792,0.0004315898228716304,-0.005427036274595427,0.008535835803690427,0.9910313498162291
2016-09-13,-1,-0.0006182813423616758,-0.00035487492220300887,-0.0033706557024497158,0.008535835803690427,0.9920866488268149
2016-09-15,-1,-0.000963603844942564,-0.0006563381137676945,-0.0033706557024497158,0.008535835803690427,0.9921171765788508
2016-09-19,1,0.0014271406050918763,0.0015258081616292463,-0.0033706557024497158,0.008535835803690427,0.9924165802260827
2016-09-21,1,0.0014821647372573266,0.001559949574437046,-0.005227063936237332,0.007352814855661346,0.9891098599388616
2016-09-23,1,0.0012931776991781012,0.0014324859812398247,-0.004216821798435139,0.007352814855661346,0.9894527980120024
2016-09-27,1,0.0014200471386501257,0.001574218829722354,-0.0071467365231736735,0.006220419920060341,0.9894803369464032
2016-09-29,1,0.0015778963243693429,0.0017455127692003023,-0.008539866857824204,0.0038015547947209656,0.9887601008798058
2016-10-03,1,0.0013026295791559687,0.0014369635806110708,-0.0071467365231736735,0.0038015547947209656,0.9897379030568052
2016-10-05,1,0.0015010888827761337,0.0016722995326508756,-0.008797446526054704,0.0014939632654956438,0.9887741613151722
2016-10-07,1,0.000978988736137847,0.0010660220393710687,-0.008070009543742936,0.003996090379759471,0.9882386079316051
2016-10-11,1,0.0012692080963309029,0.0014110747209670669,-0.008070009543742936,0.0030920850709970837,0.9886861808994277
2016-10-13,1,0.0011523149179683341,0.0012709981638290937,-0.007806928707856348,0.004039587767987998,0.9876814589272309
2016-10-17,1,0.0016067855265895848,0.0017992068149801004,-0.007806928707856348,0.004039587767987998,0.9859798401342168
2016-10-19,-1,-0.0004793408935842818,-0.000398433400370807,-0.0071467365231736735,0.004740213197880654,0.9902509336290511
2016-10-21,-1,-0.0010657271221412748,-0.0008976462031899403,-0.00653521490940736,0.004740213197880654,0.990408223535668
2016-10-25,-1,-0.0016568714424954744,-0.0013916414076388828,-0.006026538558144284,0.004740213197880654,0.9907564651815323
2016-10-27,-1,-0.002542825019011762,-0.0021722193870751657,-0.0032746097064515044,0.006904530554686424,0.9909543076254513
2016-10-31,-1,-0.0023571861684411654,-0.0020105906862727457,-0.005923774682606323,0.004893140058291919,0.9910890292865161
2016-11-02,-1,-0.003320389671767718,-0.0028444845804666925,-0.0009619840075274998,0.005662947833223848,0.9908367045209633
2016-11-04,-1,-0.0029865032357337526,-0.0025386134857253552,-0.0009619840075274998,0.005448151402068385,0.9917448583793944
2016-11-08,-1,-0.0023474787650094317,-0.0020121183383256976,-0.0009619840075274998,0.009319306626185488,0.9902631753315887
2016-11-10,-1,-0.0007337869471918301,-0.0005901653523777361,-0.0030500601346400394,0.006718921842453826,0.9906075101540827
2016-11-14,1,0.0005611647430438737,0.0005806558002542905,-0.0011760413412687442,0.005448151402068385,0.9927430703256442
2016-11-16,-1,-0.0007668267171764762,-0.0005194948211583275,-0.0011760413412687442,0.005448151402068385,0.9926872089668339
2016-11-18,-1,-0.00016741058802594315,-6.48155615826895e-05,-0.0011760413412687442,0.006718921842453826,0.9918890906732426
2016-11-22,1,0.0006459209502019112,0.0007265768703720566,-0.0009487863717905161,0.006718921842453826,0.992120164328111
2016-11-25,1,0.00039977226823479945,0.0004094740909175443,-0.0009487863717905161,0.007234037379146228,0.9920061366463094
2016-11-29,1,0.0005141541323305895,0.0005419212347355883,-0.0009487863717905161,0.007234037379146228,0.9918958699912965
2016-12-01,1,0.0010043742279902653,0.0011226524908819818,-0.0022877763305984428,0.007234037379146228,0.9919336397083941
2016-12-05,1,0.0010852373536902524,0.0012324381825349032,-0.0009487863717905161,0.010658081482126821,0.9915849190176083
2016-12-07,1,0.002366273191527515,0.002662699746589794,-0.0009487863717905161,0.009057347673060621,0.9929581494988667
2016-12-09,1,0.002944547503829294,0.003309870973034243,-0.0009487863717905161,0.005932336162087806,0.9941400201459842
2016-12-13,1,0.002916671792498121,0.0032860148184991307,-0.00013510222059884093,0.007010920264122032,0.9942202308764599
2016-12-15,1,0.0026383813893626528,0.0029358377751511865,-0.0012091282603619088,0.007010920264122032,0.9940455184453472
2016-12-19,1,0.0018831167526048252,0.002006275615063174,-0.0002975884806632682,0.0057712950676627635,0.9950940677074523
2016-12-21,1,0.0016767234080726035,0.0017638216567864389,-0.00031636281837210423,0.0057712950676627635,0.9949652086318933
2016-12-23,1,0.0020863849827950105,0.0022410624938290808,-0.00031636281837210423,0.006782945199885104,0.9945650316452336
2016-12-28,1,0.002057758081419269,0.0022196053190801624,-0.00031636281837210423,0.00818517905946712,0.9941739741180191
2016-12-30,1,0.0017998541072696429,0.0019203188448793465,-0.00031636281837210423,0.00818517905946712,0.9939490772645946
2017-01-04,1,0.0025617885408167106,0.002787732591816976,-0.00047046310854925884,0.0057712950676627635,0.9947575399379017
2017-01-06,1,0.0028271023245360974,0.0030959292137363857,-0.001417107961926549,0.0057712950676627635,0.9944900297197751
2017-01-10,1,0.0020814305895712885,0.0022445868354828897,-0.002405186439345889,0.0057712950676627635,0.9919628409056241
2017-01-12,1,0.002357901517639138,0.002585339892402321,-0.002405186439345889,0.007168188906181375,0.9911564328289131
2017-01-17,1,0.0021323081685461595,0.0023223744102957512,-0.002405186439345889,0.00896811323887523,0.9904258295382824
2017-01-19,1,0.0025555715910129235,0.002815847939716616,-0.002405186439345889,0.009910252594230142,0.9903565219298331
2017-01-23,1,0.0027561791541385184,0.003064517868435761,-0.0011552282090923345,0.010170307843146749,0.9902055648024919
2017-01-25,1,0.0035569205004727,0.003985867063066365,-0.0011552282090923345,0.009910252594230142,0.9908941629208681
2017-01-27,1,0.0035212127577733494,0.003956067959531193,-0.0016081256270090542,0.009910252594230142,0.9910909132938239
2017-01-31,1,0.003148283358001122,0.0035249210924472255,-0.00035643285954177934,0.010170307843146749,0.9907967652219342
2017-02-02,1,0.002857799080624254,0.0031740156827430835,-0.0016081256270090542,0.010170307843146749,0.990152329665939
2017-02-06,1,0.002608605661462325,0.002867360741086952,-0.0013329437067718837,0.010170307843146749,0.9903357532102034
2017-02-08,1,0.0002924997659176705,0.00034868250934562775,-5.172519816513672e-05,0.010170307843146749,0.9929473867145389
2017-02-10,1,0.0015549998369369454,0.0016975311739085975,-0.001480644466223351,0.009191449756268729,0.994216871058413
2017-02-14,1,0.0024919302190621762,0.0027812474504297024,-0.0024571462868247145,0.004661601294714849,0.9948748079546033
2017-02-16,1,0.002752209251638272,0.0030588439930499937,-0.00300309013923983,0.004034198100024217,0.9947874034902485
2017-02-21,1,0.003223184325685712,0.0036022293628321764,-0.004437946527444669,0.003641065870338924,0.993087443384204
2017-02-23,1,0.003609026630290622,0.004048714632642642,-0.004437946527444669,0.0012427814943048923,0.9924691842410499
2017-02-27,1,0.0030687236770294258,0.003411430223066893,-0.004437946527444669,0.0012427814943048923,0.9927675206816047
2017-03-01,1,0.003983423008868345,0.004449608768277272,-0.004858037940574482,0.0009042760054413856,0.9919716652426941
2017-03-03,1,0.003283931472310914,0.0036292641703297695,-0.004437946527444669,0.001623977163501308,0.9929057973103985
2017-03-07,1,0.0031856322242293095,0.0035226720817078897,-0.004858037940574482,0.001623977163501308,0.9927309110323272
2017-03-09,1,0.0031772754349750675,0.0034899525453016183,-0.005550817986384849,0.001623977163501308,0.9924907703850373
2017-03-13,1,0.0030730549825431566,0.0033931865380924303,-0.005550817986384849,0.0018697233677581388,0.9928603044710972
2017-03-15,1,0.0013331459646530866,0.0013698689512544136,-0.006542491144215863,0.0027562529080915913,0.9930679399347735
2017-03-17,1,0.000844997292996757,0.0009675433067610462,-0.0077105768274748875,0.0027562529080915913,0.992283683438581
2017-03-21,-1,-0.0009911635645109475,-0.0006425243265295806,-0.006462916131066109,0.003834859981864577,0.9938834542327336
2017-03-23,-1,-0.001836519050144669,-0.0013394720399120365,-0.006462916131066109,0.004130643887921639,0.993284932477716
2017-03-27,-1,-0.0022821633576029492,-0.0017371936820705766,-0.006462916131066109,0.008727362461188562,0.9921042456000806
2017-03-29,-1,-0.00312848436073008,-0.002435964121472295,-0.004839068339939376,0.005578355178240788,0.9926479790411311
2017-03-31,-1,-0.002521516149388419,-0.001910621052776039,-0.006462916131066109,0.005578355178240788,0.9928217174480138
2017-04-04,-1,-0.0029855096470045245,-0.002313687270112905,-0.004839068339939376,0.009487403324057888,0.9891146924780877
2017-04-06,-1,-0.0021816726562233486,-0.0016994948272282162,-0.004549301983045408,0.009487403324057888,0.9896139304298961
2017-04-10,-1,-0.0016372354897321913,-0.0012693635804337305,-0.005593617060384202,0.01090384562507069,0.9888877153047486
2017-04-12,-1,-0.0021664892584178754,-0.0017395184300669935,-0.006850445485652034,0.01090384562507069,0.9891308638032652
2017-04-17,-1,-0.002174921328492869,-0.0017317154318727858,-0.0060289105651556985,0.009487403324057888,0.9900623025350103
2017-04-19,-1,-0.002458129226545194,-0.0019734313577073684,-0.00629898310929479,0.009487403324057888,0.9897634856233527
2017-04-21,-1,-0.002077130315998152,-0.0016509353047917828,-0.007811030865066665,0.008530077525689355,0.9900198272549026
2017-04-25,-1,-0.0014279152347034996,-0.0010651279733309774,-0.007811030865066665,0.0021728869655399836,0.9912117967615051
2017-04-27,-1,-0.0013244778981186733,-0.000983662259153526,-0.007811030865066665,0.0041765140968988085,0.9908366097391219
2017-05-01,-1,-0.0014591869414926624,-0.0010937691559856175,-0.007811030865066665,0.0021728869655399836,0.990991660528868
2017-05-03,1,0.001996323922654447,0.002125396891478106,-0.007811030865066665,0.0009665580369156547,0.9919333153709515
2017-05-05,1,0.0019963625515128022,0.0021700448283520687,-0.008393098309768792,0.0009665580369156547,0.9916921505488772
2017-05-09,1,0.0020208920625390233,0.002188661506204059,-0.007941995068776722,0.00022560586374563709,0.9923301364008843
2017-05-11,1,0.0014190052388213588,0.0015104548444737236,-0.006222041887882778,0.0021728869655399836,0.9923651937807606
2017-05-15,1,0.001165103618503778,0.0012174460943102372,-0.006176121644659776,0.0029498029928495726,0.9924519976746082
2017-05-17,1,0.0003092599057840757,0.0003677043208906069,-0.004248856521719106,0.005881349798906198,0.9929867807261976
2017-05-19,1,0.0002255538384186914,0.0002821815432158649,-0.0030557141458702137,0.006741871376322737,0.9929969377085438
2017-05-23,1,9.286553992521459e-05,0.00016707284461991336,-0.006151899669942932,0.006741871376322737,0.9918952896079445
2017-05-25,1,0.00027820557004242343,0.0003412535193195259,-0.007280232308270728,0.006741871376322737,0.9909937026630471
2017-05-30,1,1.3188932865814567e-05,6.625093275167528e-05,-0.004248856521719106,0.009423802919074324,0.9905573624114604
2017-06-01,1,0.0007392697073745564,0.000789930846314758,-0.004234203054358212,0.009423802919074324,0.9911029158874177
2017-06-05,-1,-0.00010613288186907776,-1.5124910082012016e-05,-0.004026486127958227,0.01020388520849123,0.9907053565979197
2017-06-07,-1,-0.00017344522902615063,-8.512511827563432e-05,-0.005097315780246289,0.01020388520849123,0.990417878418261
2017-06-09,1,0.0008402357003688527,0.0008687848723858982,-0.005097315780246289,0.01020388520849123,0.9911368626558147
2017-06-13,1,0.0009540715836797401,0.0010150683574785314,-0.005097315780246289,0.01020388520849123,0.9912286843066859
2017-06-15,1,0.0015204894114202038,0.0016605471968907794,-0.005419341751038115,0.009423802919074324,0.9913073707723319
2017-06-19,1,0.002210307489828676,0.0024819700154264483,-0.005419341751038115,0.007709841122558356,0.9911662072830475
2017-06-21,1,0.0013119961208995449,0.0014605791160422507,-0.004654477953555258,0.01020388520849123,0.9919597202854223
2017-06-23,1,0.0008096204055675559,0.0008743371706539862,-0.004500459360487795,0.008039421097898528,0.9930546783346521
2017-06-27,1,0.0015708379963140823,0.0017371711533598836,-0.004654477953555258,0.005944956007358622,0.9936903663000184
2017-06-29,1,0.0016957404523418893,0.001874722647343688,-0.004500459360487795,0.0051871592207732705,0.9941629778053704
2017-07-03,1,5.1141197305913406e-05,0.0001740363408444728,-0.003988395258028806,0.0051871592207732705,0.9948453075862241
2017-07-06,1,0.0003000502176919822,0.00035852513534497037,-0.003896189883115212,0.0051871592207732705,0.9941154269562991
2017-07-10,1,0.0009856865998940866,0.0010516218849029712,-0.004500459360487795,0.0051871592207732705,0.9937032772877589
2017-07-12,1,0.0009387833523056607,0.0010249158488387603,-0.0032473761447564292,0.005944956007358622,0.9936014921689789
2017-07-14,1,0.0012038040194015584,0.0013534679638593393,-0.004395938967040661,0.0051871592207732705,0.9929458452867452
2017-07-18,1,0.0012847495102960393,0.0014585314680823846,-0.0054117138982480014,0.0062673657997623314,0.9921160178808611
2017-07-20,1,0.0014721010827568777,0.0016545009155774,-0.008905593203781372,0.0051871592207732705,0.9912468620309894
2017-07-24,1,0.0019683391827274356,0.0022711966676103763,-0.008905593203781372,0.003195773514173473,0.9909344056431896
2017-07-26,1,0.0014576631159745035,0.0016706983200431274,-0.00743273333518931,0.005095991043162316,0.9915250378271588
2017-07-28,1,0.001478173457610433,0.0016870859209084476,-0.008905593203781372,0.003369793637270116,0.9908208697893077
2017-08-01,1,0.0016943458531380685,0.001957271030376413,-0.01210154241820594,0.002620374378876073,0.9891501693490742
2017-08-03,1,0.000570520918841495,0.0006698145254976694,-0.009731155073701233,0.0027493633902015108,0.9904568748998254
2017-08-07,1,0.00047700498493660065,0.0005558676816641112,-0.011826951090823634,0.002620374378876073,0.989233084058055
2017-08-09,1,0.0009766466932535846,0.0010971435513046322,-0.018624107974502292,0.001888395588287903,0.9874094583213441
2017-08-11,-1,-0.0009600503544082328,-0.0007731832039433296,-0.011826951090823634,0.0033711935295971537,0.9861162057714989
2017-08-15,-1,-0.0007593615002951205,-0.0005926519248195515,-0.011826951090823634,0.0033711935295971537,0.9867819618236564
2017-08-17,-1,-0.0023867159592238407,-0.002011460847456554,-0.0071344702215701255,0.005505953178375785,0.9875879104754881
2017-08-21,-1,-0.0028848402301402225,-0.00244561490852249,-0.009046381136894238,0.005505953178375785,0.9873606519019235
2017-08-23,-1,-0.002265783539176656,-0.0019269965663798576,-0.009046381136894238,0.004154486354550002,0.9874254627928073
2017-08-25,-1,-0.003144620609578005,-0.0026887220921787223,-0.006291244322097359,0.006430599619954144,0.9873411681275025
2017-08-29,-1,-0.0050422224403732915,-0.004362885356111416,-0.0035130683899110508,0.0069323674976049295,0.9872768180264138
2017-08-31,-1,-0.004912352535477907,-0.004254352662902495,-0.0035130683899110508,0.0069323674976049295,0.9874805892287809
2017-09-05,-1,-0.007501979362083978,-0.006519228545312358,-0.002753723412923754,0.0069323674976049295,0.9872859578993637
2017-09-07,-1,-0.008861322606856686,-0.007730705476853592,-0.002753723412923754,0.006619648341025189,0.9875646405057965
2017-09-11,-1,-0.006670023345609455,-0.005792407732816045,-0.00322441810969482,0.005330940713719069,0.9924399041839884
2017-09-13,-1,-0.006238479636487283,-0.005428501427166322,-0.00435849760097392,0.003869893491495921,0.9931578993126328
2017-09-15,-1,-0.005517206090468123,-0.004837408941915349,-0.0031069774452864986,0.003869893491495921,0.9935473703571369
2017-09-19,-1,-0.00572941156762489,-0.005033100831865096,-0.002971290442292628,0.005223146130068119,0.9931217036469814
2017-09-21,-1,-0.005297016890672423,-0.004657545039207985,-0.003877119197801442,0.005436413757289706,0.9909919720214511
2017-09-25,-1,-0.002943335720789639,-0.0027166737489135156,-0.00435849760097392,0.0030581058201977224,0.992488882556457
2017-09-27,-1,-0.0027438927713578595,-0.0025355672938046137,-0.004074360160738395,0.0021494350668628303,0.9930605518720088
2017-09-29,-1,-0.002477693438997793,-0.002315352813175042,-0.004074360160738395,0.0030581058201977224,0.9927809164774495
2017-10-03,-1,-0.0026482307491676378,-0.002435757403002034,-0.004074360160738395,0.005436413757289706,0.9925815638379246
2017-10-05,-1,-0.002656220579192382,-0.0024410957153244432,-0.0041486775549292604,0.005436413757289706,0.9921742343579474
2017-10-09,-1,-0.003022412205696501,-0.00272575487870009,-0.004307844439016653,0.005206943431138026,0.9922664879448264
2017-10-11,-1,-0.003200784798600221,-0.0028740256369255176,-0.0046241492011933885,0.005206943431138026,0.992395588812761
2017-10-13,-1,-0.0029408368563309927,-0.002647903559342956,-0.0058757036376959094,0.0038073654766622375,0.9924641417296596
2017-10-17,-1,-0.0025033497654036807,-0.0022850684081477095,-0.0058757036376959094,0.0038073654766622375,0.9923219144718344
2017-10-19,-1,-0.000525080927770194,-0.0005013350690528894,-0.005945949246950455,0.002270912944106076,0.9949600408780152
2017-10-23,-1,-0.0007720498861677738,-0.0007486668723841116,-0.0042560667996000496,0.0038073654766622375,0.9950887489781436
2017-10-25,-1,-0.0008188782570960703,-0.0007718106673154661,-0.0042560667996000496,0.0038073654766622375,0.9952319038116123
2017-10-27,-1,-0.0007624349835511764,-0.0007164168903221587,-0.0056099601408431095,0.0019784190139421013,0.9954044886537334
