JNU-Tangyin/eata/results/Batch4_SP500/Batch4_SP500-MGM.csv
Date,Action,Predicted_Q25,Predicted_Q75,Actual_Q25,Actual_Q75,RL_Reward
2010-12-14,0,0.0,0.0006704785478022169,-0.002968904207247813,0.0304157729695099,0.9832522146074487
2010-12-16,0,0.0,0.0,-0.0024872585042843235,0.02870622194745977,0.9836015181274025
2010-12-20,0,0.0,0.0,-0.004730572319805473,0.008556329690999913,0.9847706180463927
2010-12-22,0,0.0,0.0,-0.006816817429131157,0.007231139825377671,0.9845761091134021
2010-12-27,0,0.0,0.0,-0.009410043382567172,0.007118664985282361,0.9831138329669351
2010-12-29,1,0.008955976936636184,0.009923981892117057,-0.009410043382567172,0.007118664985282361,0.9779889553173493
2010-12-31,0,0.0,0.0,-0.01750183597852252,0.01222205502245621,0.9782792388688851
2011-01-04,0,0.0,0.0,-0.01750183597852252,0.010738949033759763,0.9789241938374471
2011-01-06,0,0.0,0.0,-0.02175535841591677,0.009850190998418927,0.9788716446342841
2011-01-10,0,0.0,0.0,-0.02175535841591677,0.010966358213460984,0.9796622665256272
2011-01-12,0,0.0,0.0,-0.02175535841591677,0.010966358213460984,0.9796225326774433
2011-01-14,1,0.002880538891674953,0.0029442325756975337,-0.02439278080990917,0.007661628671743346,0.9784778740819472
2011-01-19,0,0.0,0.0,-0.02175535841591677,0.007661628671743346,0.9814671248885243
2011-01-21,-1,-0.00028345871332228123,-0.0002182280199784795,-0.009826368616738742,0.007661628671743346,0.9832910232372563
2011-01-25,0,0.0,0.0,-0.01701738139920434,0.007661628671743346,0.9808209519586955
2011-01-27,0,0.0,0.0,-0.01701738139920434,0.008992541070882253,0.9811717211537384
2011-01-31,1,0.001449390000873936,0.001606157072357273,-0.01701738139920434,0.007661628671743346,0.9827182858968265
2011-02-02,1,0.002032917748523908,0.0021297409536585217,-0.01701738139920434,0.006016101424464719,0.981300770894687
2011-02-04,1,0.0006814485853460164,0.0009502934606455971,-0.01722079859505275,0.006016101424464719,0.9816627657498771
2011-02-08,1,0.0020320767269368053,0.0021737443407131877,-0.01722079859505275,0.0022692619629014073,0.9831434973595748
2011-02-10,1,0.003193870310357872,0.0032956032719452496,-0.023898130592121307,0.0034045719677718183,0.9797665612895934
2011-02-14,1,0.0004887647016745552,0.0007881013752058445,-0.020170779414071967,0.0034045719677718183,0.9818575775038586
2011-02-16,1,0.0005501200012080435,0.000820109358489249,-0.023898130592121307,0.00964573943352015,0.9794136318649458
2011-02-18,1,0.0010532358678785544,0.001159538706054303,-0.023898130592121307,0.010945234996073451,0.9778794611486422
2011-02-23,-1,-0.0018875056912655563,-0.0014561640838167717,-0.014726711494878373,0.010945234996073451,0.9824838139549108
2011-02-25,-1,-0.0008000842845948226,-0.0004971928957562494,-0.014726711494878373,0.010945234996073451,0.9821510705404584
2011-03-01,-1,-0.0019322603552620664,-0.001524832852771219,-0.014726711494878373,0.010945234996073451,0.982853383806611
2011-03-03,1,0.0016057617227233684,0.0018818355131712894,-0.014279322907727602,0.010945234996073451,0.9827748515081233
2011-03-07,-1,-0.00045733017477687563,-0.0003625619603959631,-0.01019038274976554,0.010945234996073451,0.9842401409673117
2011-03-09,-1,-0.003556840327287421,-0.0028419106778128527,-0.01019038274976554,0.010560986353264657,0.9842468178580539
2011-03-11,-1,-0.004908201451276687,-0.003986143651599159,-0.01019038274976554,0.008563873336682435,0.9865511885760346
2011-03-15,-1,-0.0065516366008743715,-0.005392577772916722,-0.01198122061497254,0.008563873336682435,0.9858106847289758
2011-03-17,-1,-0.006464572236042198,-0.005376814177578598,-0.009921032497499753,0.011249780183705947,0.9827365017679788
2011-03-21,-1,-0.006362550654239262,-0.005228698104786148,-0.009921032497499753,0.008563873336682435,0.9839976540268514
2011-03-23,-1,-0.007249069150150003,-0.00600542816436523,-0.012908897154733558,0.008563873336682435,0.981863155303933
2011-03-25,-1,-0.006420802635453449,-0.005259633260588128,-0.012908897154733558,0.007702074723149705,0.9843526963483776
2011-03-29,-1,-0.004081580323777053,-0.003453809056415754,-0.012908897154733558,0.007702074723149705,0.9848944382696506
2011-03-31,-1,-0.0044029224861177885,-0.003637256884622989,-0.016383882463103887,0.005838947154123336,0.9854391809925372
2011-04-04,-1,-0.0029877543961649147,-0.0025018756059611152,-0.016383882463103887,0.005838947154123336,0.984209427804697
2011-04-06,-1,-0.0019309230963703052,-0.0016096077248330125,-0.016383882463103887,0.007153919790205379,0.9795257769451808
2011-04-08,-1,-0.003425138645723533,-0.0028707400738761588,-0.012923782577421026,0.010960910586603608,0.9789777181626862
2011-04-12,-1,-0.006207700710812862,-0.005199955865906452,-0.01102488353643988,0.016836293617681804,0.9783458490716206
2011-04-14,-1,-0.0024271770079002447,-0.001911046728455088,-0.016499211524352613,0.010960910586603608,0.982340333881557
2011-04-18,-1,-0.003009475509986947,-0.002407809902637504,-0.017631998056024816,0.014605196655742112,0.9814471730919915
2011-04-20,-1,-0.004245354490278732,-0.0035043083342819296,-0.0110955563296262,0.019163128357233737,0.9798374750565984
2011-04-25,-1,-0.004557595023955568,-0.003771876363531866,-0.017631998056024816,0.019163128357233737,0.978555014491804
2011-04-27,-1,-0.004144598930046833,-0.003502579779870136,-0.0110955563296262,0.023046190742510308,0.9772059871435217
2011-04-29,-1,-0.004619654619631075,-0.003951262141043594,-0.0110955563296262,0.023046190742510308,0.9764864185259159
2011-05-03,-1,-0.0029331934742746245,-0.002547317568767692,-0.020365781881088514,0.019163128357233737,0.9760351318895739
2011-05-05,-1,-0.00035389886426986895,-0.00018961020061448585,-0.020652868635578612,0.018033989680761905,0.978809234223816
2011-05-09,-1,-0.00036973561241716716,-0.0001583935335585366,-0.02235539058759567,0.018033989680761905,0.9777936642283757
2011-05-11,1,0.00034124945583568014,0.00041302653260497264,-0.0261665872545632,0.014932624492394936,0.9765189518106651
2011-05-13,1,0.0017240442869401263,0.0019713786761996147,-0.029519820135077694,0.012801078360349747,0.9761841244683959
2011-05-17,1,0.002004059619184594,0.00232451491338587,-0.030691494194579484,0.013796434284905736,0.9750617666109532
2011-05-19,1,0.0035439200556212544,0.004066537192633704,-0.030691494194579484,0.0035609127685494128,0.9756632841076917
2011-05-23,1,0.002057001584842983,0.0023756865325862317,-0.030691494194579484,0.012281401818026533,0.9758028379882504
2011-05-25,1,0.0038870040048391893,0.0044526863423183325,-0.030691494194579484,0.012281401818026533,0.9751409238011886
2011-05-27,1,0.0032130943360373777,0.0037257118610083085,-0.030691494194579484,0.013796434284905736,0.9747329276396777
2011-06-01,1,0.0016223967426961443,0.0019224579632996777,-0.0280412450631298,0.01961186282411255,0.9765859905559006
2011-06-03,1,0.002305292135584636,0.002831040381182995,-0.021882074090786456,0.025075921314299122,0.9767188784457924
2011-06-07,1,0.0009435384617782534,0.0012882255730603113,-0.018036611277930173,0.025075921314299122,0.978430167045232
2011-06-09,1,0.0010696518136685703,0.0014948518271881042,-0.015287767366820313,0.02707216903299068,0.978054722047426
2011-06-13,-1,-0.0011656818318623071,-0.0011429628337973033,-0.015287767366820313,0.02966268121818725,0.9752464790303483
2011-06-15,-1,-0.0020251102065885753,-0.001871558373399199,-0.01021530342358807,0.027134859406451366,0.9763718707527541
2011-06-17,-1,-0.0031951224865183177,-0.002872559776508838,-0.008909941153081486,0.027134859406451366,0.9761242724637137
2011-06-21,-1,-0.0009922010343534687,-0.0009815138600736673,-0.0036448517939736335,0.027134859406451366,0.9771454745587904
2011-06-23,-1,-0.0006665257098191327,-0.000644456540838241,-0.0010645964217278275,0.027134859406451366,0.977909935399221
2011-06-27,-1,-0.00019579732379020276,-6.565574969217419e-05,0.0003548030839506339,0.02609626034334208,0.980145780537058
2011-06-29,-1,-0.0002573432060962112,-0.00018944143919709183,-0.003562586002521192,0.021860367714987235,0.9800525983912607
2011-07-01,1,0.002809354491574158,0.0033965906402075043,-0.008507418861430636,0.01663783563253879,0.9827419422063414
2011-07-06,1,0.00361643097818223,0.004338461007188788,-0.008909941153081486,0.01729438373312358,0.9784447243421732
2011-07-08,1,0.005114431846750473,0.00594879376132631,-0.010137420779849117,0.014157090218246206,0.9759962751448659
2011-07-12,1,0.0030056635296830305,0.003475504507211809,-0.01624506194336705,0.011312264889925927,0.9744950257108353
2011-07-14,1,0.002846886453451345,0.0032695831691792942,-0.028592883896713654,0.011312264889925927,0.9686846621533636
2011-07-18,1,0.0013473694732556423,0.0014160228131216133,-0.028592883896713654,0.01617407736991448,0.9664200591763484
2011-07-20,1,0.003276480743055433,0.003696680363195202,-0.03293251369731545,0.011312264889925927,0.9661626067210373
2011-07-22,1,0.0036333457578515034,0.00403470504051043,-0.05650716364641367,0.0035496737905712284,0.9594981603314962
2011-07-26,1,0.0032324859825613545,0.003617018829099398,-0.05650716364641367,0.007695870285876919,0.9576135044020737
2011-07-28,1,0.0021823400445539626,0.0023779495648277157,-0.05650716364641367,0.013780316743015834,0.9533386674611789
2011-08-01,1,0.001002169137666082,0.0010846847656022722,-0.05650716364641367,0.035663641549990965,0.9485455229017234
2011-08-03,-1,-0.0009974566593710429,-0.0007970900097235584,-0.04399409383149655,0.035663641549990965,0.9534716082798422
2011-08-05,-1,-0.004690060204371188,-0.0040327044109726914,-0.04399409383149655,0.035663641549990965,0.9558374987404246
2011-08-09,-1,-0.008256114582682994,-0.0072124174030361934,-0.03910499782826562,0.046452883229752134,0.9581257143274964
2011-08-11,-1,-0.004619162158728928,-0.004007049968886517,-0.03910499782826562,0.035663641549990965,0.9625246505415506
2011-08-15,-1,-0.0023185852387118495,-0.0019550420138363203,-0.03910499782826562,0.020960331298037864,0.963828530310547
2011-08-17,-1,-0.0027298470934564887,-0.0023649500336389365,-0.038129640340565124,0.020960331298037864,0.9645713388889423
2011-08-19,-1,-0.005804711501118852,-0.005050466874275078,-0.012996237655705496,0.020960331298037864,0.9697666303529794
2011-08-23,-1,-0.004974874492016864,-0.004353723311275237,-0.011761414453078626,0.020960331298037864,0.9705828597718069
2011-08-25,0,0.0,0.0,-0.011761414453078626,0.015427257501347474,0.9758445979393797
2011-08-29,-1,-0.005129447055855213,-0.004491690740319285,-0.011761414453078626,0.013371092417288752,0.979476307467742
2011-08-31,-1,-0.006032284887563918,-0.005242080754223774,-0.026940162394999464,0.013371092417288752,0.9768336543228857
2011-09-02,-1,-0.010464728186776661,-0.009063542798729183,-0.03442698524656431,0.013371092417288752,0.9717788613572194
2011-09-07,-1,-0.0047351211823094905,-0.004251496622994512,-0.03442698524656431,0.013371092417288752,0.9718895296666866
2011-09-09,-1,-0.008292140818958025,-0.007373255638235978,-0.03442698524656431,0.015427257501347474,0.9676856533569458
2011-09-13,-1,-0.006708206841373689,-0.005919396370760745,-0.03442698524656431,0.01659655826367784,0.9658916337603825
2011-09-15,-1,-0.005765092272821971,-0.005081700288049541,-0.03442698524656431,0.022789598097095437,0.9651928984010063
2011-09-19,0,0.0,0.0,-0.03442698524656431,0.022789598097095437,0.9659419214892065
2011-09-21,-1,-0.0046933394164753095,-0.004056980859889521,-0.038544736006983105,0.026521487341065735,0.962964922068645
2011-09-23,-1,-0.005811119751433573,-0.005077677772940804,-0.03442698524656431,0.026521487341065735,0.9638343571820561
2011-09-27,-1,-0.002312458963287002,-0.0021760479263840094,-0.03442698524656431,0.031257045619564536,0.9620808512050393
2011-09-29,-1,-0.004083011151853338,-0.003792502624944096,-0.018198369985766082,0.052954646485918404,0.960279222496614
2011-10-03,-1,-0.00942063056897735,-0.008519456164420527,-0.011036973690353773,0.052954646485918404,0.9627447009529002
2011-10-05,-1,-0.006772247721853752,-0.006195048384121915,-0.018198369985766082,0.031685476188733935,0.964701498574079
2011-10-07,-1,-0.0052927970224466245,-0.0048778649830532005,-0.018198369985766082,0.025168854746500453,0.9678138795769818
2011-10-11,-1,-0.0006980726270965582,-0.00042359954332891884,-0.018198369985766082,0.021994493645617733,0.9720930256629815
2011-10-13,1,9.738991574259658e-05,0.00041265070730944384,-0.023006455388602604,0.020266215985739824,0.9701176165171133
2011-10-17,1,0.0004319292290984036,0.0008767153115638306,-0.020656876973186838,0.02288278598856816,0.9691721334298224
2011-10-19,1,0.000899075143725059,0.0014011536672135303,-0.019359815126169196,0.020266215985739824,0.9717425101997793
2011-10-21,1,0.0005730971151121893,0.0009292443734755013,-0.026490790809811943,0.01820446905235619,0.971095928747735
2011-10-25,1,0.0018933109880466263,0.0023912193981367215,-0.03123578987761208,0.01820446905235619,0.9718954040701441
2011-10-27,1,0.00401846423829893,0.004708510315781237,-0.034777097751821515,0.01176536294151858,0.9732944425935747
2011-10-31,1,0.002881750592996027,0.003354375994564222,-0.03123578987761208,0.01176536294151858,0.9724504250299097
2011-11-02,1,0.001800290024262303,0.002051433730272091,-0.030620557572296637,0.01176536294151858,0.9707031359149964
2011-11-04,1,0.0005889249451739581,0.0006761748119192325,-0.026285713374706796,0.011509267362148823,0.9736095897246162
2011-11-08,-1,-0.0002356063137734106,-0.00016916020519524107,-0.026285713374706796,0.018138484806194517,0.9732594638131608
2011-11-10,-1,-0.0025560524093193827,-0.002250876543219964,-0.026285713374706796,0.018138484806194517,0.9739213264438781
2011-11-14,-1,-0.0013550758192189716,-0.0012072762933827618,-0.030007458472881304,0.016328800943712564,0.9739010119530264
2011-11-16,-1,-0.0016967479307025998,-0.001520060561617936,-0.03132265369699197,0.016328800943712564,0.9740689715452521
2011-11-18,0,0.0,0.0,-0.030000065018481167,0.016328800943712564,0.9743999409293986
2011-11-22,0,0.0,0.0,-0.02918800856849145,0.016328800943712564,0.9753035899520114
2011-11-25,0,0.0,0.0,-0.017734412828563542,0.018138484806194517,0.9751005509076514
2011-11-29,0,0.0,0.0,-0.017734412828563542,0.018138484806194517,0.9755742654004891
2011-12-01,0,0.0,0.0,-0.017734412828563542,0.016902524404712224,0.978256518231304
2011-12-05,0,0.0,0.0,-0.017734412828563542,0.018796965784485174,0.9756873815895928
2011-12-07,1,0.0029630498242923927,0.003334137095877724,-0.017734412828563542,0.016548294603142784,0.9771032476545708
2011-12-09,1,0.003017953725571236,0.003694037506220564,-0.008214968377390393,0.017193457439395488,0.9796680781675735
2011-12-13,1,0.001841331327346659,0.0024106190224356624,0.0,0.02231709292191429,0.9793214572667311
2011-12-15,1,0.0036360194433600317,0.004923970944602393,0.0,0.022748993354151623,0.980654654707841
2011-12-19,1,0.0020355128053521723,0.00303607762736668,0.004388127026926412,0.03723492567921759,0.9796757208429313
2011-12-21,1,0.004484435663067413,0.005811149371830703,0.0007919172327534248,0.039276967313414984,0.9804931020013722
2011-12-23,1,0.005540361140756456,0.006848034694473849,-0.0009498516587121338,0.023398563494720675,0.9825825256187205
2011-12-28,1,0.003993875468001694,0.004839039595831386,-0.0009498516587121338,0.017704972193748655,0.9849126770891344
2011-12-30,1,0.0026704843746411834,0.0030250894440927356,-0.003993709581659667,0.017337424250141266,0.984795196413547
2012-01-04,1,0.005140122326939696,0.005827245625559051,-0.00322429990315249,0.017337424250141266,0.986085658177246
2012-01-06,1,0.007189382771549128,0.008349268092119838,-0.003993709581659667,0.022055896914227525,0.9841315979193991
2012-01-10,1,0.007261808889599604,0.008312106681330367,-0.004353877376081748,0.025107992736800793,0.9833871586017269
2012-01-12,1,0.006048615493421447,0.0065301436660337876,-0.004353877376081748,0.019154237900177076,0.9847724165468331
2012-01-17,1,0.005402921749835132,0.0057116218480440465,-0.004353877376081748,0.016500478250920228,0.9849840273697844
2012-01-19,1,0.008236367265085726,0.009054930605777133,-0.004353877376081748,0.01491167115738457,0.9858414484743164
2012-01-23,1,0.012106332998242875,0.013773173439157666,-0.004789314646764653,0.014161183963930318,0.9847794215516025
2012-01-25,1,0.011498502453372597,0.01305087841540787,-0.00544229330205025,0.01491167115738457,0.9831514117098482
2012-01-27,1,0.00982322251140856,0.01095991851662807,-0.010433600674931882,0.01491167115738457,0.9811228776351494
2012-01-31,1,0.01014877160518721,0.011447962165555714,-0.01862896092164271,0.017439912442143376,0.9805356716442164
2012-02-02,1,0.010840437405365545,0.012025527319533779,-0.01862896092164271,0.014474328694338037,0.9814379963698938
2012-02-06,0,0.0,0.0,-0.020083489054943046,0.012218439135028538,0.9832103378721907
2012-02-08,0,0.0,0.0,-0.020083489054943046,0.014474328694338037,0.9818671928560352
2012-02-10,0,0.0,0.0,-0.020083489054943046,0.012677364686451767,0.9821637939686315
2012-02-14,1,0.008282878722707991,0.009192006536453808,-0.020083489054943046,0.018195667039569315,0.9766495528063005
2012-02-16,1,0.008029446377641296,0.008842171867046479,-0.020678713756382094,0.025505767827355315,0.9744866758235132
2012-02-21,1,0.006378346847345384,0.006997625308191096,-0.01911925259978335,0.025505767827355315,0.9761868572779169
2012-02-23,1,0.005378462354743874,0.005711960864984879,-0.018802507025572814,0.015021926377413362,0.9784212604129621
2012-02-27,0,0.0,0.0,-0.014086664239638296,0.02426509280741549,0.9806908823577528
2012-02-29,0,0.0,0.0,-0.014144512940948331,0.014700506609067156,0.9811244519162455
2012-03-02,0,0.0,0.0,-0.017145665468892013,0.011305036615616517,0.980612048856595
2012-03-06,1,0.002885062579224895,0.0030453036925499454,-0.012493776227720485,0.017465511958371253,0.9819774965273291
2012-03-08,1,0.005761957260561164,0.006388012876198607,-0.013605381015432233,0.007154661349791402,0.9818762655412455
2012-03-12,0,0.0,0.0,-0.017145665468892013,0.007154661349791402,0.9823516495344139
2012-03-14,0,0.0,0.0,-0.013605381015432233,0.009333160214694599,0.9834081014486149
2012-03-16,0,0.0,0.0,-0.013045698207335355,0.007154661349791402,0.9854821561454982
2012-03-20,0,0.0,0.0,-0.013045698207335355,0.007154661349791402,0.9856585843047083
2012-03-22,0,0.0,0.0,-0.014927485119085284,0.007154661349791402,0.9853524422278274
2012-03-26,0,0.0,0.0,-0.01699375258471264,0.004886720473145486,0.9852008497182647
2012-03-28,0,0.0,0.0,-0.014927485119085284,0.009333160214694599,0.9843009148646837
2012-03-30,0,0.0,0.0,-0.015314704160422007,0.009333160214694599,0.9844272339817112
2012-04-03,0,0.0,0.0,-0.015314704160422007,0.009699231625563786,0.984107422294844
2012-04-05,1,0.0005565498570939006,0.0007286547085639779,-0.02014775582387375,0.009699231625563786,0.9816350452384884
2012-04-10,-1,-0.00029374742742139745,-4.905660983049102e-05,-0.025175970774395248,0.009699231625563786,0.9811182267272048
2012-04-12,1,0.0008180850192306601,0.0009657985638355624,-0.025175970774395248,0.0021731927377398506,0.9829629766825986
2012-04-16,-1,-0.0004999057295694621,-0.00013372048298287823,-0.026789307637425132,0.001007436266609236,0.9821671101847845
2012-04-18,-1,-0.0007399428959895069,-0.0003419540315193082,-0.026789307637425132,0.00021459719333234004,0.9818098476124717
2012-04-20,-1,-0.002515847104613454,-0.00182142770333559,-0.028983596065707475,-0.001929656948785235,0.981109319925804
2012-04-24,-1,-0.0036783726081557853,-0.002822183178877977,-0.026789307637425132,0.00021459719333234004,0.9798482754680493
2012-04-26,-1,-0.0011725056065549522,-0.0006661519135501479,-0.026789307637425132,0.00021459719333234004,0.9809167969297172
2012-04-30,-1,-0.0021608134851050084,-0.0015557460321410565,-0.025840484242493786,0.001809840775178652,0.9807513248232931
2012-05-02,-1,-0.0019090601572674618,-0.0013428235355617286,-0.025840484242493786,-0.0017150597554528948,0.98071000883931
2012-05-04,-1,-0.006183776570076297,-0.005014609883888659,-0.023000957982397263,0.0016081108252828848,0.9836522713420169
2012-05-08,-1,-0.009329035578054326,-0.007682696614293435,-0.01361078439041332,0.0051230243694116665,0.9815053471810874
2012-05-10,-1,-0.01044162077756242,-0.008619966775918593,-0.012202104868552848,0.008888910114384675,0.9802859838334589
2012-05-14,0,0.0,0.0,-0.012202104868552848,0.016571820492071482,0.9799776562462692
2012-05-16,0,0.0,0.0,-0.01594490444017691,0.016571820492071482,0.9793390335821763
2012-05-18,0,0.0,0.0,-0.01594490444017691,0.016571820492071482,0.9801196315327386
2012-05-22,0,0.0,0.0,-0.011776673753083595,0.016571820492071482,0.9818526059174779
2012-05-24,-1,-0.010076230569776754,-0.008537277844532194,-0.022568957263055637,0.016571820492071482,0.9794541297872115
2012-05-29,-1,-0.008181646788124546,-0.006942619710636684,-0.02335409724457691,0.012211058740674872,0.9796042286621717
2012-05-31,-1,-0.009040221987888423,-0.007714347485599317,-0.02335409724457691,0.015303074143516445,0.9783237786875213
2012-06-04,-1,-0.009939454726596537,-0.008542419286093922,-0.013175373504601883,0.016571820492071482,0.9781234042268406
2012-06-06,-1,-0.006462314486606707,-0.0055764949022426395,-0.015216908660118164,0.011959710438134537,0.9824805778927249
2012-06-08,-1,-0.005275155904215699,-0.00452941707051671,-0.02335409724457691,0.010371124571420608,0.9822747423397651
2012-06-12,-1,-0.004447031565796565,-0.0038884089100722575,-0.017354754301443284,0.00927874508457555,0.9836732755017258
2012-06-14,-1,-0.004206511159032763,-0.0037208147927482406,-0.01757715811396856,0.008678863024115916,0.9828568522928548
2012-06-18,-1,-0.004645832356920571,-0.004113448104985997,-0.01477628408380434,0.008678863024115916,0.983014184350254
2012-06-20,-1,-0.003735887059646591,-0.003319786699816536,-0.01477628408380434,0.00892225867183732,0.9831488728618901
2012-06-22,-1,-0.004651108701793362,-0.004108826908381242,-0.01477628408380434,0.00892225867183732,0.9819525290221965
2012-06-26,-1,-0.004099150650438856,-0.0037421432691553567,-0.016890975022725713,0.00791740688924589,0.9820217195866302
2012-06-28,-1,-0.003217992679058074,-0.002979762707152246,-0.016890975022725713,0.00791740688924589,0.9815812623549313
2012-07-02,-1,-0.0019598352552174384,-0.00191751924248187,-0.016890975022725713,0.005656121511848536,0.9829057364934487
2012-07-05,-1,-0.0013120953687011366,-0.0012205135630742484,-0.023575159062235094,0.0044600193849024606,0.981351311870503
2012-07-09,-1,-0.0027975840531169176,-0.0026844177427626835,-0.016890975022725713,0.01070238137469779,0.981129477192364
2012-07-11,-1,-0.002750082626031902,-0.0026710840286631268,-0.02240585066173862,0.013906407107754024,0.9773727860819743
2012-07-13,-1,-0.004291188026423217,-0.003949128916336949,-0.0205940790701705,0.013906407107754024,0.9783950673665542
2012-07-17,-1,-0.002703380001358336,-0.0026085135333479355,-0.0205940790701705,0.013906407107754024,0.9784963284837053
2012-07-19,-1,-0.002769915761212982,-0.002586925514236436,-0.0205940790701705,0.017718445951661534,0.9778570209694494
2012-07-23,-1,-0.003872176200158634,-0.00358821719705153,-0.012969825931407044,0.017718445951661534,0.9786331486967058
2012-07-25,-1,-0.005704034393597988,-0.005221995306136392,-0.0011947297792343147,0.017718445951661534,0.9797081568825348
2012-07-27,-1,-0.005041592873741656,-0.0045746557181194,-0.010708389305081794,0.014766367206680528,0.9806968006045117
2012-07-31,-1,-0.0034756467984700277,-0.003272414901586903,-0.01349062602016066,0.014766367206680528,0.9809392955179034
2012-08-02,-1,-0.005355233338353901,-0.004910116905804387,-0.01349062602016066,0.014766367206680528,0.9808198543768936
2012-08-06,-1,-0.002682173542045671,-0.0026278643565676484,-0.01349062602016066,0.011833320271914534,0.9829947204682971
2012-08-08,-1,-0.0008481249754539036,-0.000624267690029888,-0.010436655983008811,0.011833320271914534,0.98541035001577
2012-08-10,-1,-0.0008370173744436031,-0.0005856411660899812,-0.006990959073388887,0.016893365147655423,0.9838586705753916
2012-08-14,0,-0.00026641675078984176,3.799897577239574e-05,-0.010436655983008811,0.015927576113452753,0.9841546695027191
2012-08-16,1,0.0018605678478103825,0.0025226814816712052,-0.010436655983008811,0.015023047451934248,0.9848594027798786
2012-08-20,1,0.0018212874312490746,0.0024022684616242115,-0.013559323719277604,0.012818029047302176,0.9839252379464181
2012-08-22,1,0.0014132984288119021,0.001901750014897595,-0.015838856275835943,0.012818029047302176,0.9824816792662999
2012-08-24,1,0.0017113776810180282,0.0023032884085926186,-0.013559323719277604,0.012818029047302176,0.9829035364162075
2012-08-28,1,0.0006262078778030693,0.0010310982452022006,-0.013559323719277604,0.012818029047302176,0.9828907626658007
2012-08-30,-1,-0.0005973429360132565,-0.0004284515513390093,-0.012166540896101573,0.01766340588341658,0.9825592274496862
2012-09-04,0,0.0,0.0,-0.012166540896101573,0.01766340588341658,0.9823945616801784
2012-09-06,0,0.0,0.0,-0.012166540896101573,0.012818029047302176,0.9847132186580929
2012-09-10,1,0.004190995630039955,0.005216053730885961,-0.012166540896101573,0.00822481214834255,0.985679252135384
2012-09-12,1,0.004408336368889204,0.0054326977413022065,-0.012905320444626224,0.006926348717608581,0.9853732330330848
2012-09-14,1,0.005575568736302341,0.006690788055529621,-0.012905320444626224,0.0038307246716959456,0.9856905752671345
2012-09-18,1,0.005816770727495261,0.00709595303302896,-0.01056376630594729,0.008194351957677115,0.9863261161432778
2012-09-20,1,0.0051247439390922234,0.006260291107875847,-0.00966800279022845,0.010545393843657738,0.9871186872473139
2012-09-24,1,0.004918208821460842,0.006039624133470168,-0.009958321599389836,0.010545393843657738,0.9869512064485397
2012-09-26,1,0.0034847417047636437,0.004295747879197685,-0.009958321599389836,0.010545393843657738,0.9864363807132739
2012-09-28,1,0.002979667620293222,0.003633402725147649,-0.009958321599389836,0.010545393843657738,0.9862900356532228
2012-10-02,1,0.00242152629536501,0.0029901916335983904,-0.010232128972214309,0.01339192805678557,0.9854272584009819
2012-10-04,1,0.0014245572880354925,0.0017880176790143498,-0.016228692192720474,0.01339192805678557,0.9842062013748316
2012-10-08,1,0.0008143045547506908,0.0010469133379766718,-0.021821406455104053,0.01654113534063198,0.9829011265594332
2012-10-10,-1,-0.0013580240575296228,-0.001195438538717231,-0.021821406455104053,0.019903905521804786,0.9820327834716647
2012-10-12,-1,-9.465853287403216e-05,-7.881646659299948e-06,-0.024317026681489412,0.019903905521804786,0.9797264737149158
2012-10-16,1,0.001396095589687966,0.0017075421350527266,-0.024317026681489412,0.01654113534063198,0.9803827615285975
2012-10-18,1,0.0030121730962673577,0.0035786828087459666,-0.024317026681489412,0.009524861124704314,0.9801190028126922
2012-10-22,1,0.001990964837318618,0.002354887101823483,-0.024317026681489412,0.01683719423321259,0.9801482275156012
2012-10-24,0,0.0,0.0,-0.021821406455104053,0.01683719423321259,0.9807115214357209
2012-10-26,0,0.0,0.0,-0.018015879131987364,0.013768171744234142,0.9822505382143456
2012-11-01,0,0.0,0.0,-0.0161589881306487,0.013384935356135117,0.9835049958952223
2012-11-05,0,0.0,0.0,-0.0161589881306487,0.013384935356135117,0.9839450137970528
2012-11-07,0,0.0,0.0,-0.014917175741893602,0.013384935356135117,0.981049120655508
2012-11-09,-1,-0.00029153428938369884,-0.0002514748687254208,-0.0067616740447673995,0.010879522998656877,0.983228775317372
2012-11-13,-1,-0.0007490551369438944,-0.0006871221074786228,-0.0022839771343367192,0.013384935356135117,0.9839314178074254
2012-11-15,0,0.0,0.0,-0.0022839771343367192,0.013384935356135117,0.9846340527038726
2012-11-19,0,0.0,0.0,0.000917449914869172,0.013384935356135117,0.9851705321099162
2012-11-21,0,0.0,0.0,-0.0022839771343367192,0.011095101787802488,0.9857514177852355
2012-11-26,0,0.0,0.0,-0.0022839771343367192,0.012944556490344794,0.9859507887748117
2012-11-28,0,0.0,0.0,-0.0038283458511082008,0.011015088536528309,0.9858705921634452
2012-11-30,0,0.0,0.0,-0.00521550734652139,0.011015088536528309,0.9845943449853457
2012-12-04,0,0.0,0.0,-0.0038283458511082008,0.016206842414063824,0.9825117782051148
2012-12-06,1,0.003405537449861839,0.0038093135955408345,-0.0038283458511082008,0.014705911232961694,0.9877867656122429
2012-12-10,1,0.0025029393754530138,0.0028293911808784317,-0.004439143188195231,0.016206842414063824,0.9868638377462345
2012-12-12,1,0.0038367081218909924,0.004359273522975151,-0.005409527619800183,0.014705911232961694,0.9875653950176122
2012-12-14,1,0.0019765954845889456,0.0021808106041174666,-0.005409527619800183,0.016206842414063824,0.9859218918093776
2012-12-18,1,0.0013268910029457705,0.001346304648801928,-0.007942532893687189,0.014705911232961694,0.9857218033344918
2012-12-20,1,0.0013425806842942123,0.0014491331506937875,-0.0061894760759700265,0.014705911232961694,0.9857496945524402
2012-12-24,1,0.0013386738528809363,0.0013624448777191775,-0.0061894760759700265,0.014705911232961694,0.9862632812444208
2012-12-27,0,0.0,0.0,-0.004825175347227796,0.014705911232961694,0.9868524988399695
2012-12-31,0,0.0,0.0,-0.004825175347227796,0.013502955943466576,0.9873682875386581
2013-01-03,0,0.0,0.0,-0.004825175347227796,0.013502955943466576,0.9892641483606429
2013-01-07,0,0.0,0.0,-0.006348014596739378,0.01361103994328396,0.9886425453086657
2013-01-09,0,0.0,0.0,-0.006348014596739378,0.010992481008378501,0.9896471439556181
2013-01-11,0,0.0,0.0,-0.006348014596739378,0.01361103994328396,0.987167144852425
2013-01-15,1,0.006145394506571937,0.006915229362174429,-0.006348014596739378,0.01361103994328396,0.9863396145229615
2013-01-17,1,0.005036523008113807,0.005637775122459249,-0.006348014596739378,0.01361103994328396,0.985752588629577
2013-01-22,1,0.004823681864268574,0.005355361730590247,-0.011817309183774029,0.005458481384304246,0.9849130043047205
2013-01-24,1,0.0038283073995775646,0.0041675258316465095,-0.013832584060341366,0.0067511865766773475,0.9852406046381748
2013-01-28,1,0.003435058899205274,0.0036713100838021958,-0.01491998916409584,0.0067511865766773475,0.9841267592942544
2013-01-30,1,0.0020702191246269696,0.0021082431536531138,-0.013832584060341366,0.015074364189762213,0.9849075258770712
2013-02-01,1,0.0040336938773921265,0.004446634233650107,-0.01491998916409584,0.002166999495300975,0.9837651369362699
2013-02-05,1,0.0044408771788710475,0.004987272928080598,-0.014092111818260618,0.002166999495300975,0.9842421123483049
2013-02-07,1,0.004307433694072144,0.004834694580987605,-0.014092111818260618,0.005512926662872562,0.9837184542638102
2013-02-11,0,0.0,0.0,-0.011541350068495623,0.0046483528302038455,0.9882124471670521
2013-02-13,0,0.0,0.0,-0.011541350068495623,0.005260505498900081,0.9857598318755674
2013-02-15,0,0.0,0.0,-0.010126219141735053,0.005260505498900081,0.9866316298909711
2013-02-20,0,0.0,0.0,-0.008493669073561236,0.007331827223628547,0.9863435572142938
2013-02-22,0,0.0,0.0,-0.008493669073561236,0.010769671710356959,0.9854960361645658
2013-02-26,1,0.0017712647076242368,0.0018377427703361576,-0.007102368928916953,0.010769671710356959,0.9863534843312658
2013-02-28,1,0.0025332129047577604,0.0026495187659580457,-0.008493669073561236,0.010769671710356959,0.9863699446099242
2013-03-04,0,0.0,0.0,-0.010690676000704792,0.010769671710356959,0.9853436068044389
2013-03-06,0,0.0,0.0,-0.013270227660142183,0.008175950212350808,0.9848951163366818
2013-03-08,0,0.0,0.0,-0.015070613028591487,0.008175950212350808,0.9834801968868393
2013-03-12,0,0.0,0.0,-0.015070613028591487,0.016472667895319322,0.9819785674405657
2013-03-14,0,0.0,0.0,-0.015070613028591487,0.014162800614835725,0.9845471190084121
2013-03-18,0,0.0,0.0,-0.019598188832039922,0.015477809484682388,0.9816328439554033
2013-03-20,0,0.0,0.0,-0.02132994226851545,0.015477809484682388,0.9815346010676933
2013-03-22,0,0.0,0.0,-0.02132994226851545,0.014237199723724753,0.9821498323095731
2013-03-26,0,0.0,0.0,-0.02132994226851545,0.018937581132722533,0.979749066661482
2013-03-28,0,0.0,0.0,-0.02132994226851545,0.022134016994203087,0.9792332477171326
2013-04-02,0,0.0,0.0,-0.003755373405953577,0.02272609198284708,0.9796019628754874
2013-04-04,-1,-0.0024862610741639896,-0.0018250287492949885,-0.003755373405953577,0.02412139730713615,0.9766358548653009
2013-04-08,0,0.0,0.0,-0.0013549233225595599,0.02272609198284708,0.9788253423193645
2013-04-10,1,3.0823092442090284e-05,4.294271636383055e-05,-0.003755373405953577,0.018937581132722533,0.9806700281186632
2013-04-12,-1,-0.0034445123068288924,-0.0024256497606137406,-0.0013549233225595599,0.02822536704788992,0.9777479849844756
2013-04-16,0,0.0,0.0,-0.0006946300946993747,0.02822536704788992,0.9815935385457273
2013-04-18,0,0.0,0.0,-0.0006946300946993747,0.02822536704788992,0.981419561523933
2013-04-22,-1,-0.004463509074839479,-0.0035315511656358587,-0.0006946300946993747,0.02822536704788992,0.9798686836497054
2013-04-24,-1,-0.0023280737604733023,-0.0016671654730237501,-0.002242338566394381,0.01911822506505083,0.9823123615470906
2013-04-26,-1,-0.0009714765707220189,-0.00047997181961077426,-0.007550896111110426,0.011890712753374447,0.9842937803577758
2013-04-30,0,-0.00022127706613374776,0.00023415668596426598,-0.010374690617962796,0.01028153147176367,0.984977092586583
2013-05-02,1,0.0026862142136073663,0.0027635786387640313,-0.010069453674868417,0.01028153147176367,0.9875068512498023
2013-05-06,1,0.002839098406484364,0.0029150380441966546,-0.010742278574431365,0.010250864322430175,0.9872974940840484
2013-05-08,1,0.002952191667246649,0.0031027267494367085,-0.011690451774130617,0.010250864322430175,0.9861734026905811
2013-05-10,1,0.004713120880554618,0.005093432506790527,-0.011690451774130617,0.010250864322430175,0.987010217759921
2013-05-14,1,0.005160577403792556,0.00563415225633453,-0.011803343885460551,0.006539403576763249,0.985272236609484
2013-05-16,1,0.003742094781088878,0.004019490243874752,-0.011803343885460551,0.01121020884288492,0.9866973207873352
2013-05-20,1,0.003945734392690966,0.00424720397731009,-0.011803343885460551,0.013048526204914814,0.9862776544663437
2013-05-22,0,0.0,0.0,-0.011803343885460551,0.013048526204914814,0.9847471938620749
2013-05-24,0,0.0,0.0,-0.014973311327638624,0.013048526204914814,0.9824067879205081
2013-05-29,0,0.0,0.0,-0.014973311327638624,0.01400875396465782,0.9802565330346364
2013-05-31,1,0.0037052302084339033,0.004095266110334868,-0.014973311327638624,0.01400875396465782,0.9803134919087271
2013-06-04,1,0.0034912317146643854,0.0038775818421706836,-0.014973311327638624,0.016612914780555214,0.9795259683340517
2013-06-06,1,0.0023410433863730313,0.002556124328469329,-0.013953657949603173,0.02057918410023131,0.9797104155782127
2013-06-10,1,0.003905634565961708,0.004373708963389629,-0.013953657949603173,0.015237019993037004,0.9806918394332418
2013-06-12,1,0.002655403542148123,0.0029246229318340513,-0.009743481035282373,0.015237019993037004,0.9812411375563456
2013-06-14,1,0.0026239345657340916,0.0028977389527688018,-0.007550955677894282,0.02057918410023131,0.981117564485896
2013-06-18,1,0.0031040717904744146,0.0034216233708491656,-0.007550955677894282,0.02057918410023131,0.981603440100833
2013-06-20,1,0.0007976115883761429,0.0008058397829571377,-0.005837523358285664,0.02343540718392199,0.9836019955422349
2013-06-24,-1,-0.0020779169066336384,-0.0016909375259346452,-0.0015730168402044104,0.02343540718392199,0.9857853357594096
2013-06-26,1,0.0012661309018395174,0.0013253896397404934,-0.003783596807913803,0.014833690289664102,0.9890073211543774
2013-06-28,0,0.0,0.0,-0.003783596807913803,0.008464694616467584,0.9903923009430117
2013-07-02,0,0.0,0.0,-0.0026318415808693676,0.008464694616467584,0.9907524526350951
2013-07-05,0,0.0,0.0,-0.003783596807913803,0.008464694616467584,0.9896081814113504
2013-07-09,1,0.004114655226569457,0.004531264092833824,-0.0026318415808693676,0.010649683194479726,0.9883412324649904
2013-07-11,1,0.0028356246709984522,0.0030195692821129057,-0.0015658550766690948,0.021784376278183783,0.9881296810013251
2013-07-15,1,0.003121394234069773,0.003281872160217477,-0.00245370088243826,0.014552619170483188,0.9885211794916382
2013-07-17,1,0.00260578674080565,0.0026696801960266244,-0.00245370088243826,0.014552619170483188,0.9885105931745953
2013-07-19,1,0.002877775940524212,0.0029153958278707198,-0.0026318415808693676,0.009132259751337735,0.9892365902182912
2013-07-23,1,0.002969861031178378,0.003067001026044069,-0.002610356290263421,0.009132259751337735,0.989567564431382
2013-07-25,1,0.001555237831956642,0.0016885841206368923,-0.0007216504976816197,0.014725384101675544,0.9892297738322842
2013-07-29,1,0.0015373642895254462,0.0016769930632913605,-0.0007216504976816197,0.014725384101675544,0.9887605328178092
2013-07-31,1,0.0022376764380508314,0.0022949989672837946,-0.0007216504976816197,0.014179026290889159,0.9872031493393518
2013-08-02,1,0.002197489226536982,0.0022745591971545264,-0.0007216504976816197,0.012304788540339635,0.9894564532318811
2013-08-06,1,0.0038719487704279567,0.004166543168987749,-0.0007216504976816197,0.013466126809230074,0.9896454977927076
2013-08-08,1,0.004350139119863997,0.004664538496666518,-0.0007216504976816197,0.010766015855210264,0.9906905641680505
2013-08-12,1,0.003544904200116752,0.0037230664590988906,0.0017893099565441817,0.015643193180877816,0.9904220782983606
2013-08-14,1,0.003563798893697785,0.0037530831593547698,0.0017893099565441817,0.015643193180877816,0.9900672848739821
2013-08-16,1,0.0031084426400442983,0.0032277628432593984,0.0017893099565441817,0.01587321129871301,0.9897035615186939
2013-08-20,1,0.0029177754114088237,0.002997559196717732,0.002911381974523843,0.01587321129871301,0.9888687937949366
2013-08-22,1,0.002709499833738469,0.002761850017663332,0.001773452311076161,0.01587321129871301,0.9884728585874032
2013-08-26,1,0.0025224497449036205,0.0026384223736040605,-0.0003642681320992025,0.01587321129871301,0.9882564301219902
2013-08-28,1,0.001445564808603393,0.0016655100315566555,0.001773452311076161,0.015643193180877816,0.9907938870190879
2013-08-30,1,0.0019455505784976657,0.0020418069223093194,0.001773452311076161,0.015643193180877816,0.9908319672979984
2013-09-04,1,0.002773806732553459,0.0027738567507530187,-9.34109163715027e-05,0.014243238205088939,0.991575433692327
2013-09-06,1,0.0018984947142801842,0.002073556007731635,-0.0020631333707920316,0.014243238205088939,0.9912154241612262
2013-09-10,1,0.001868895402048897,0.002120368348883458,-0.0037083014729070323,0.011678286954547364,0.9909465868248271
2013-09-12,1,0.0014814500282968495,0.0017577629531992356,-0.0026030723116977445,0.013239683525063037,0.9908815051978078
2013-09-16,1,0.002867079435919063,0.002893797991909172,-0.0026030723116977445,0.011678286954547364,0.9916262420788858
2013-09-18,1,0.0038414507521484778,0.0039969391031093445,-0.0026030723116977445,0.00748552957616648,0.9921824196385
2013-09-20,1,0.004382494132180516,0.004679685199733223,-0.0026030723116977445,0.006330735405847114,0.9933921157579791
2013-09-24,1,0.005584210928870823,0.006013236163692801,-0.0029328406649486902,0.0060054916715424796,0.9930412650213274
2013-09-26,1,0.0056993481591030345,0.006162916154572718,-0.0046976065326598685,0.006330735405847114,0.9906359583846575
2013-09-30,1,0.005482898676650867,0.005883453425884859,-0.009771775603738524,0.0060054916715424796,0.989129938176693
2013-10-02,1,0.006656821302151592,0.007329891108044885,-0.009771775603738524,0.0060054916715424796,0.9887053597660143
2013-10-04,1,0.006314666569972637,0.006910159372854828,-0.011646472630113765,0.006330735405847114,0.9862191782465975
2013-10-08,1,0.004444957926679448,0.004708065961236156,-0.007850612383532567,0.006330735405847114,0.9880344434667987
2013-10-10,1,0.004968726922491925,0.005317814514354772,-0.011219074350169986,0.0060054916715424796,0.9864752811667968
2013-10-14,1,0.004491060710305734,0.0047044172283081265,-0.011219074350169986,0.005902410636691077,0.9856102716194275
2013-10-16,1,0.004077792907840183,0.00420080746565861,-0.011219074350169986,0.007705098660236665,0.9851538053045169
2013-10-18,1,0.004002187574297783,0.004099914716146042,-0.011219074350169986,0.007705098660236665,0.9845749279767109
2013-10-22,1,0.0035636916598389165,0.0035959377160480303,-0.016422575426910925,0.007705098660236665,0.9828015360540732
2013-10-24,1,0.0032843805992844657,0.003319542246501093,-0.011709203596309148,0.007705098660236665,0.9839744340828546
2013-10-28,1,0.0010995099871214378,0.001458412784147726,-0.007144426745528996,0.007705098660236665,0.9860510879229266
2013-10-30,1,0.0022098424242819915,0.0023845270988935414,-0.007144426745528996,0.007735501651610355,0.9854319685980979
2013-11-01,1,7.028736975269291e-05,0.0005518286386328841,-0.007027036205519634,0.0037842818146552855,0.9896761343748377
2013-11-05,-1,-0.000688668310528768,-0.00010725529535841926,-0.005967865150979413,0.008968503540417222,0.9888794085218916
2013-11-07,-1,-0.0016099552108488758,-0.0009433201904060506,-0.004185150184324794,0.019651861356312233,0.9887793238903657
2013-11-11,-1,-0.0017322585688804275,-0.0009393160809320357,-0.004185150184324794,0.019651861356312233,0.9887705044957482
2013-11-13,-1,-0.0024222554951211835,-0.0014566479593919202,-0.005967865150979413,0.013388944649600693,0.9889004779411641
2013-11-15,-1,-0.0012200532758695091,-0.0005301956917581679,-0.00168739196796323,0.01978164226771391,0.9874354289809887
2013-11-19,-1,-0.0024070755192329074,-0.0016366932478910335,0.00025834184237381245,0.023396192242178433,0.9865537390504536
2013-11-21,-1,-0.0017865344526237417,-0.0010859122661082288,0.00025834184237381245,0.020355068715537335,0.9881208278881582
2013-11-25,-1,-0.001474574497375325,-0.0008696550013439967,0.0013004206996836472,0.020355068715537335,0.9875994731041555
2013-11-27,-1,-0.0009978793210536241,-0.00044689467909666473,0.0013004206996836472,0.020355068715537335,0.9884076064058078
2013-12-02,-1,-0.0015760642432198452,-0.0009246568138737477,0.004038809367491102,0.020355068715537335,0.9874233325425015
2013-12-04,0,-0.00022866323440958337,0.00021472798125944984,0.0033951248695963917,0.01816014918853379,0.9884211825368882
2013-12-06,1,0.0002903013449489483,0.0006894069176481314,0.003968601230843262,0.01816014918853379,0.9877076374806137
2013-12-10,1,0.0018694646863959853,0.002015309052004572,0.003968601230843262,0.013182820019779806,0.9891495239988207
2013-12-12,1,0.0013958789730062547,0.0016225650130745838,0.003968601230843262,0.015849880182388507,0.9892158839595846
2013-12-16,1,0.002304718865618032,0.0024755716897319245,0.0005179590360943765,0.011384937684677835,0.9903058090311284
2013-12-18,1,0.0036683306362638186,0.003681511827803113,0.0005179590360943765,0.009978684010562571,0.9913996553785941
2013-12-20,1,0.0038008498369184332,0.00382782911077409,-0.0020017547346764843,0.009978684010562571,0.9901515788158872
2013-12-24,1,0.004414231855214037,0.004519705178057227,-0.003988870844760476,0.009978684010562571,0.9864404641492603
2013-12-27,1,0.004919375440701931,0.005103444870243477,-0.0028299699322034168,0.010420388934342162,0.9864540070658503
2013-12-31,1,0.005685194313092622,0.00602978755468732,-0.006098857182109616,0.012318566522364847,0.9834559167596403
2014-01-03,1,0.004364834990229859,0.004540312631327868,-0.008384535307869471,0.012318566522364847,0.9829744444072179
2014-01-07,1,0.005810325412581117,0.0061804895881042606,-0.02083308858457403,0.012077962447740538,0.9832344510084431
2014-01-09,1,0.005740400656871087,0.006066820049513209,-0.02083308858457403,0.01665669113097452,0.9818646912449105
2014-01-13,1,0.005595262366710981,0.005892060131906485,-0.02083308858457403,0.020991650872583523,0.9813035859993813
2014-01-15,1,0.0063315516232070185,0.006774910239581733,-0.02083308858457403,0.01593640357590263,0.9820615093252778
2014-01-17,1,0.007170869051187955,0.007736266615650574,-0.02083308858457403,0.014987587146714514,0.9819574253990411
2014-01-22,1,0.005749926673764409,0.006085430647034413,-0.010031441738254963,0.01814977559142228,0.9815791163810172
2014-01-24,1,0.0032697348285280984,0.003276136683199366,-0.004514266727396043,0.02193629838186313,0.9839732362428861
2014-01-28,1,0.003892993503335524,0.004019876366992419,-0.006472064870669238,0.02193629838186313,0.9837235655060067
2014-01-30,1,0.00418612060879259,0.004352368984135563,-0.006472064870669238,0.01814977559142228,0.9858629205656777
2014-02-03,1,0.0041384324883581925,0.0043525439067902,-0.004514266727396043,0.02193629838186313,0.9862596631180237
2014-02-05,1,0.0034284939143771824,0.0035220603217891782,-0.0028229435061063717,0.02193629838186313,0.9874700036854335
2014-02-07,1,0.005065734383935435,0.005414012873039983,-0.004514266727396043,0.014394842618332909,0.9878792019552758
2014-02-11,1,0.005703969363144727,0.00617634744762943,-0.004534724649101922,0.011066296282704561,0.9874634298055572
2014-02-13,1,0.005972965744117821,0.006485214255639204,-0.009203379658056034,0.009514680709707818,0.9859024595127163
2014-02-18,1,0.006159162166937382,0.0067032128781594775,-0.009203379658056034,0.009385444492372698,0.9866784935365791
2014-02-20,1,0.007379039469274512,0.008080937216477617,-0.009203379658056034,0.007123226906664315,0.9869508099547687
2014-02-24,1,0.008329386191786785,0.009159281184991586,-0.010863654189023193,0.0028672175256265822,0.9855409875972407
2014-02-26,1,0.007806613177574893,0.008574632818464,-0.011496594443678239,0.0028672175256265822,0.9848487776154737
2014-02-28,1,0.007376226522936959,0.00806520208204858,-0.010114502511928147,-0.0001486925302755126,0.9853633548131824
2014-03-04,1,0.007977386212752622,0.008624608704248424,-0.010114502511928147,0.0009036013730695261,0.9837188250259508
2014-03-06,1,0.007674447020503743,0.00832190202325753,-0.013628183207473794,0.0009995372868645122,0.9832470534832085
2014-03-10,1,0.006623627389275889,0.007158872352962776,-0.016736702141472614,0.0009995372868645122,0.9807543774574794
2014-03-12,1,0.005444604175748004,0.005815920201096008,-0.013628183207473794,0.008308920598437419,0.9819881561066444
2014-03-14,1,0.004160514117606948,0.00435620210094365,-0.013667269386045363,0.008308920598437419,0.9816743958832308
2014-03-18,1,0.004365948351803328,0.0045609716861834855,-0.013667269386045363,0.0009995372868645122,0.9807779118806229
2014-03-20,1,0.003455752813761966,0.0035485585334724666,-0.013667269386045363,0.008894205357530141,0.980207391442464
2014-03-24,1,0.0015560647336077477,0.0017699414975749165,-0.01226469484269476,0.017908771893200483,0.9797497830621009
2014-03-26,1,0.00021112074122160295,0.0005508407603022786,-0.01226469484269476,0.017908771893200483,0.9796534842098289
2014-03-28,-1,-0.0016834098017879863,-0.0010753945295828439,-0.028096744924595195,0.017908771893200483,0.9772627626565313
2014-04-01,0,-0.0002752712938107057,9.70204331006367e-05,-0.028096744924595195,0.015249919770269583,0.9754802524801125
2014-04-03,-1,-0.0017033419367914072,-0.0010962001714821057,-0.028096744924595195,0.017908771893200483,0.9744633322203289
2014-04-07,-1,-0.00494234599409722,-0.004020530605779123,-0.013362022124776036,0.017908771893200483,0.9776583379928347
2014-04-09,-1,-0.0034133265641434424,-0.0027088234798408224,-0.022241453727916697,0.011226537135015726,0.9773727089390892
2014-04-11,-1,-0.0049870473518375535,-0.0040677334869260225,-0.019764481197398664,0.011423901085347436,0.9782610414045892
2014-04-15,-1,-0.006890735940440808,-0.005662516752936381,-0.019764481197398664,0.011423901085347436,0.9776286490036651
2014-04-17,-1,-0.006108902418279139,-0.004996841917036033,-0.019764481197398664,0.010073794571966794,0.979091371935371
2014-04-22,-1,-0.0050561923281366265,-0.004052762322185977,-0.019764481197398664,0.010073794571966794,0.9804478570862214
2014-04-24,-1,-0.005569453016926381,-0.0045299637427909465,-0.019151129434290943,0.010423036601260656,0.9803142012713
2014-04-28,-1,-0.008124545182316294,-0.006781178269237029,-0.01291470860047008,0.012447515437668174,0.9801738419653068
2014-04-30,-1,-0.004778630820981705,-0.0038659446324397755,-0.01291470860047008,0.01138550678160617,0.9847595209690274
2014-05-02,-1,-0.0028797704417344483,-0.0022187246198360966,-0.01291470860047008,0.01138550678160617,0.9866525866390876
2014-05-06,-1,-0.0034684452424237244,-0.0027904816359564715,-0.01291470860047008,0.011830808576087206,0.9857342498499124
2014-05-08,-1,-0.0056788639629556815,-0.004734352645134895,-0.010246683990966472,0.011830808576087206,0.9868143332951886
2014-05-12,-1,-0.0045914991737701525,-0.0038425080424755935,-0.012045524328542279,0.011830808576087206,0.9868206685510399
2014-05-14,-1,-0.00435472045266375,-0.0037031210912191106,-0.012045524328542279,0.012831103376228135,0.9862610728110741
2014-05-16,-1,-0.004742831799925412,-0.004053410744795262,-0.010246683990966472,0.014700230211180722,0.9856459156994538
2014-05-20,-1,-0.004505867882154579,-0.0038707182214863054,-0.009644391661254935,0.014700230211180722,0.9858361647461936
2014-05-22,-1,-0.003107751392154304,-0.0026401408332026306,-0.009644391661254935,0.012387901893914031,0.987560926812673
2014-05-27,-1,-0.0016432804059591443,-0.0013727953483084604,-0.009644391661254935,0.011513369427792824,0.9890123128331585
2014-05-29,-1,-0.001242651655794926,-0.0010124507958619163,-0.009644391661254935,0.012387901893914031,0.9878245468287152
2014-06-02,-1,-0.00026293534334026085,-0.00021992864480406587,-0.010199003778684294,0.01081016939101707,0.9885558452749547
2014-06-04,-1,-0.0004850754903347733,-0.00044833205394591063,-0.005143701210761738,0.01076408614802364,0.9895332167602127
2014-06-06,-1,-0.0009923626759911416,-0.0009170085892078926,-0.0031324400233509685,0.01076408614802364,0.9898795776051573
2014-06-10,-1,-0.001463229077027499,-0.0013718471051019669,-0.0031324400233509685,0.01076408614802364,0.9889285712681011
2014-06-12,-1,-0.0009646625159044381,-0.0009480836176108132,-0.0043632593721691475,0.00989261621560091,0.9899832401606568
2014-06-16,-1,-0.0008558461862223201,-0.0008446301649798059,-0.006806927734069571,0.009522305119608524,0.9904997395712988
2014-06-18,-1,-0.0023486727269522696,-0.0020464050326588065,-0.007691401564321433,0.008762492678607101,0.9904233364389244
2014-06-20,-1,-0.0016679071978532786,-0.0014639803685935694,-0.007691401564321433,0.008574215342813267,0.9906601453879079
2014-06-24,-1,-0.0014486181560911607,-0.0012687733660983302,-0.007691401564321433,0.008574215342813267,0.9895767949736048
2014-06-26,-1,-0.000272604141851296,-0.00021169415697578988,-0.008970000122230277,0.007815269995499707,0.9903124175331799
2014-06-30,-1,-0.0010229722611370244,-0.0008593482154555653,-0.007691401564321433,0.008574215342813267,0.9897086002543525
2014-07-02,1,0.000613025737321206,0.000736688378466241,-0.008970000122230277,0.008574215342813267,0.9891933747996846
2014-07-07,1,0.0005234001963245322,0.0006720267793384894,-0.010321429151310157,0.008574215342813267,0.9884179668825649
2014-07-09,0,-0.00010704316422277093,9.896420996702141e-07,-0.010930834974670385,0.007600444565879614,0.9878308763033721
2014-07-11,-1,-0.0004116543252807203,-0.0003238826490914788,-0.013223469889623748,0.009178091780583915,0.9868143892016216
2014-07-15,1,0.0002413356593513466,0.0004915665075157929,-0.013223469889623748,0.009178091780583915,0.9874191687108904
2014-07-17,1,0.0007606103402547947,0.0011636236222358038,-0.013223469889623748,0.009178091780583915,0.9876259432077833
2014-07-21,1,0.0009141628763361179,0.0013175676890277233,-0.013223469889623748,0.008367697656380445,0.987805791947099
2014-07-23,1,0.00213378865944645,0.0027056186061517407,-0.013223469889623748,0.007330313191145124,0.9892314671230764
2014-07-25,1,0.0028825052112417524,0.0036115922428702255,-0.007934266059049472,0.006842405436440562,0.9901527734147768
2014-07-29,1,0.003868591296159493,0.004742348835912781,-0.010343627787352767,0.004705424049224377,0.9898644487957866
2014-07-31,1,0.003312988180043558,0.004069811846603617,-0.008094396195940953,0.004705424049224377,0.9907043256801908
2014-08-04,1,0.002369461345720015,0.0029442131549312104,-0.011159662018128992,0.004085041999228916,0.9899685544915259
2014-08-06,1,0.00014683279780883652,0.00036343158504645106,-0.005166417164663059,0.004705424049224377,0.9924135006030564
2014-08-08,1,4.447594953873712e-05,0.0002945963343758372,-0.004074072254207042,0.0042455351658814994,0.9941530259242162
2014-08-12,1,4.278827214859997e-05,0.00026709431643504413,-0.004404631830115078,0.0042455351658814994,0.9938919528915459
2014-08-14,1,0.00025606007435033406,0.00047058028353645317,-0.005290422889322414,0.0037848648984196787,0.9934246914681436
2014-08-18,-1,-0.00027874539615217763,-0.00019343745142693,-0.011159662018128992,0.002790779208197337,0.9918632150463111
2014-08-20,-1,-0.00016803108458996488,-7.644467622976555e-05,-0.011159662018128992,0.002790779208197337,0.9908808066873909
2014-08-22,1,0.0008938293252759271,0.0012786867218470036,-0.015966696937701447,0.002790779208197337,0.9892443215991914
2014-08-26,1,0.0005687067267358793,0.0008902082627457974,-0.015966696937701447,0.0038383626206372067,0.9892107141431431
2014-08-28,-1,-0.0013686726454300658,-0.0012619369033874273,-0.01720555249289156,0.0038383626206372067,0.9884927602671496
2014-09-02,-1,-0.00209075242784098,-0.0019696354118160283,-0.01720555249289156,0.005236720858205708,0.9879776209817449
2014-09-04,-1,-0.002361590915119352,-0.0021031677749679054,-0.018568481557073736,0.002907757984851986,0.9873817909931752
2014-09-08,-1,-0.0025936386707925974,-0.0022776031740320813,-0.018568481557073736,0.004266524029904804,0.9871545532403876
2014-09-10,-1,-0.0021911168169900775,-0.001953636803936516,-0.018568481557073736,0.006381331799151447,0.9863021370559899
2014-09-12,-1,-0.0019552269423011295,-0.0018295936845986408,-0.02016602981519721,0.006381331799151447,0.9847778178107462
2014-09-16,-1,-0.003915841647400083,-0.0035415366617846597,-0.02017700634679011,0.008081775056867281,0.9846972474921072
2014-09-18,-1,-0.004686517849597136,-0.004124591655832338,-0.02017700634679011,0.008081775056867281,0.9835585335207822
2014-09-22,-1,-0.004479775000456123,-0.0038997820258714466,-0.018568481557073736,0.009364924561429084,0.9838694214850116
2014-09-24,-1,-0.0021776258066942655,-0.0019238624963043107,-0.018568481557073736,0.01043950711359857,0.9823734466724224
2014-09-26,-1,-0.0031942892603590524,-0.002763709241436719,-0.017608195978840828,0.011877486109932354,0.9824947990164943
2014-09-30,-1,-0.004089366424116014,-0.0034764085285826024,-0.015307645905329714,0.010652475929618413,0.9837016598335044
2014-10-02,-1,-0.005224223484584846,-0.004502746048622023,-0.011676815926151352,0.010652475929618413,0.9840761458453869
2014-10-06,-1,-0.005115297987726331,-0.004376274753928424,-0.011676815926151352,0.011074765972026872,0.983962831453907
2014-10-08,-1,-0.005991079244053557,-0.005135240268905645,-0.016925263854531504,0.011074765972026872,0.9827748918085563
2014-10-10,-1,-0.008052322728521697,-0.0069448934619829195,-0.01008666805163863,0.011074765972026872,0.9832171126334405
2014-10-14,-1,-0.006957483459439721,-0.006075152925530948,-0.003127864270634272,0.011074765972026872,0.9834483822291599
2014-10-16,-1,-0.0036945154641685107,-0.003271730844574744,-0.0008763660605112715,0.010652475929618413,0.9870620592641743
2014-10-20,-1,-0.002477091051586993,-0.0022335121627007435,-0.003137958799150487,0.010025892499842867,0.9878188959551533
2014-10-22,-1,-0.0010037146028517665,-0.0009427450684280845,-0.0032367182863772418,0.009296530233347254,0.9904298690272367
2014-10-24,-1,-0.0005232743841652273,-0.0005022397659014201,-0.0032367182863772418,0.0074585403389444745,0.9903657992468354
2014-10-28,-1,-0.00048759731773261494,-0.0004342215096723598,-0.0035460673899744594,0.006017945582879078,0.9907864042243065
2014-10-30,-1,-0.0009695177213200638,-0.0008111747138906866,-0.0035460673899744594,0.006017945582879078,0.9909394611224488
2014-11-03,-1,-0.0007757551011778525,-0.0006298106872726029,-0.005600899172522407,0.005090585953620461,0.9907257048273208
2014-11-05,-1,-0.00256360444823836,-0.0022377730107418833,-0.0024758016385194224,0.005090585953620461,0.9926072595201216
2014-11-07,-1,-0.001725499780413304,-0.0015274199336448614,-0.005175271569691004,0.003537909532207931,0.9930333363961878
2014-11-11,-1,-5.0507957768447935e-05,-2.351004067137795e-05,-0.007655625500697136,0.00010960356330528725,0.9921116907810923
2014-11-13,1,0.0003292817446141693,0.0004376537110067036,-0.009666065744588089,-0.0003286665977948308,0.990888155017875
2014-11-17,1,0.001057131053833775,0.001367949842604019,-0.013281755026707063,-0.001113146741677682,0.9877599772582737
2014-11-19,1,0.0005635110599878018,0.0007773023765509281,-0.017604973208528385,-0.0003286665977948308,0.9828338179448155
2014-11-21,1,0.001494213735702634,0.0019289748055081452,-0.017604973208528385,-0.0014224958452748997,0.9809103339449233
2014-11-25,1,0.0015635987229237773,0.0019841063297785905,-0.017604973208528385,-0.001462766472709509,0.9792707026231602
2014-11-28,1,0.0012285243474707782,0.0015571294104002268,-0.017604973208528385,0.002739231827033696,0.9781856463183083
2014-12-02,0,-7.737644986123099e-05,4.595326272144659e-05,-0.013281755026707063,0.0030449993336189585,0.979909514419602
2014-12-04,-1,-0.0003734539321674709,-0.00028704089627633496,-0.017604973208528385,0.0030449993336189585,0.9783495906434313
2014-12-08,-1,-0.0007892857139377505,-0.0007859961653179678,-0.020277797368259354,0.016659125094270207,0.9754682630467749
2014-12-10,-1,-0.002183856038490431,-0.0020365593842322427,-0.017604973208528385,0.016659125094270207,0.9766713498856653
2014-12-12,-1,-0.0021515947467906117,-0.0020827502929365634,-0.017088448623412536,0.016659125094270207,0.976703193690884
2014-12-16,-1,-0.004174673071346789,-0.003883657076503211,-0.011136190627461219,0.016659125094270207,0.9792716081904714
2014-12-18,-1,-0.0011503978687425567,-0.0010184057030128428,-0.012057582569988626,0.014738514861374353,0.9826882418603148
2014-12-22,1,0.0004847515510996883,0.0008566593876629441,-0.012057582569988626,0.014738514861374353,0.9830387262675772
2014-12-24,1,0.001314493999606939,0.0017720860434121198,-0.012057582569988626,0.014738514861374353,0.9826155920140122
2014-12-29,1,0.0019118948027479592,0.0023339443392171597,-0.014814143117328038,0.005919954878298756,0.9824320435030583
2014-12-31,1,0.0014205279404212131,0.001755265026984951,-0.01910030686693852,0.005919954878298756,0.9807678338924419
2015-01-05,0,-2.819189650466998e-05,0.0001304560357357191,-0.012057582569988626,0.01355896668594699,0.9808453687162302
2015-01-07,1,0.0005933191316858489,0.000865534801337276,-0.012057582569988626,0.01355896668594699,0.9820993687629773
2015-01-09,1,0.0008246758735545548,0.0011402831417561266,-0.018284065035310205,0.00815875690186346,0.9813993639681338
2015-01-13,1,0.0005780370772290145,0.0008760706256942027,-0.018284065035310205,0.015797883751383822,0.9796299741290487
2015-01-15,1,0.0004606613120071778,0.0007380022600788371,-0.018284065035310205,0.02326643499075877,0.9783957661604235
2015-01-20,-1,-0.0013769100098479598,-0.001354830272898137,-0.009717236939133768,0.02326643499075877,0.9786211221523419
2015-01-22,1,0.0003001360669826639,0.0005479339187807608,-0.009717236939133768,0.020533779962639102,0.9804292628052346
2015-01-26,1,0.0014819636087804928,0.001805709565211268,-0.018284065035310205,0.01924443682759879,0.9812103105850167
2015-01-28,1,0.0008168902345828419,0.0010862268331707614,-0.009717236939133768,0.01924443682759879,0.9823477660504775
2015-01-30,-1,-0.0004479895508885452,-0.0003337884520989487,-0.0051570539152029455,0.01924443682759879,0.9832260481214845
2015-02-03,1,0.001520288740228823,0.0018978241424669928,-0.0051570539152029455,0.012544686117860783,0.9857996750204404
2015-02-05,1,0.0012287496677736152,0.0015302088146291971,-0.007600804332677008,0.008939667136342443,0.9870795900589829
2015-02-09,-1,-0.0010679627970752391,-0.0010117744397806355,-0.007600804332677008,0.008939667136342443,0.9847014690172432
2015-02-11,1,0.0022254229870821295,0.0026217285254512015,-0.011051091321693109,0.007260760085724635,0.9868120358378805
2015-02-13,1,0.002770118213392581,0.0031552384108689295,-0.01453191042282955,0.006691670141950193,0.9868087584361018
2015-02-18,1,0.0020460764957740355,0.0025141258290919356,-0.01453191042282955,0.006691670141950193,0.982169986714119
2015-02-20,1,0.0025170247521397147,0.00303223565133268,-0.01453191042282955,0.006691670141950193,0.9814304734963225
2015-02-24,1,0.001484024034062214,0.0018860407780164682,-0.014283288182079629,0.006691670141950193,0.9819363913590641
2015-02-26,1,0.0009177361518884998,0.0011801565715847343,-0.014974187878991832,0.006691670141950193,0.9805482687851714
2015-03-02,1,0.001041082397177629,0.001338701837958262,-0.014974187878991832,0.006691670141950193,0.9809380667725419
2015-03-04,1,0.00125723046646865,0.0015645436810689715,-0.014974187878991832,0.0006027038924321356,0.9801579744002706
2015-03-06,-1,-0.0005664656777087318,-0.0005064285708723889,-0.014974187878991832,0.008196986649142052,0.9808489766735203
2015-03-10,-1,-0.003828806346706739,-0.0033720011703361097,-0.011920442927053389,0.013323378544568967,0.9833757626633637
2015-03-12,-1,-0.0037251092061540364,-0.0033677889712292472,-0.01090426700808255,0.01649790307346517,0.9822076658649557
2015-03-16,-1,-0.003447725402747263,-0.003162146945616398,-0.01100268209920913,0.01649790307346517,0.9821654778739326
2015-03-18,1,0.0011198318282203688,0.0014393848961853993,-0.01100268209920913,0.003663409380530104,0.9861292470135568
2015-03-20,1,0.001845533378007323,0.0022941251842574792,-0.011920442927053389,0.004365799135680067,0.9849384692090094
2015-03-24,1,0.0013690244849997812,0.0017875310676842744,-0.01100268209920913,0.015420668401026625,0.9855210494083891
2015-03-26,1,0.0004968748053891174,0.0008103120063566054,-0.009130733115846482,0.015420668401026625,0.9871558542784343
2015-03-30,1,0.0005284386218256986,0.0008566968557765383,-0.009130733115846482,0.01776374846670003,0.9863463691083376
2015-04-01,-1,-0.00041725852053160913,-0.0003894548605474072,-0.009130733115846482,0.01776374846670003,0.9844220711742171
2015-04-06,1,0.0004791864220954934,0.0006460288192339969,-0.009130733115846482,0.015420668401026625,0.9846380518959141
2015-04-08,1,0.0013799488662610453,0.0017167840650037884,-0.014104366639728251,0.012550204808629648,0.9821807136570534
2015-04-10,1,0.0027547471567557847,0.0032933223422688448,-0.014104366639728251,0.009790537422544224,0.9836412261570232
2015-04-14,1,0.0015125178109183087,0.0018735202047917836,-0.014837267024346245,0.009790537422544224,0.9836094719923006
2015-04-16,1,0.0016689849226109667,0.002032508099889826,-0.014837267024346245,0.009790537422544224,0.9841472312691368
2015-04-20,1,0.0019557058406318986,0.002404220974595532,-0.007527615689733181,0.009531923543561244,0.9854977509960859
2015-04-22,1,0.0023939271064428213,0.0029111009190281338,-0.007527615689733181,0.009531923543561244,0.9856112779504023
2015-04-24,1,0.002445154707754762,0.002972327392915389,-0.007527615689733181,0.011044489545514347,0.9851482577988879
2015-04-28,1,0.0025158022453809197,0.003000667485576247,-0.01586604496068468,0.009531923543561244,0.9845907833992257
2015-04-30,1,0.0006197247154486902,0.0008405771159539962,-0.008172212650307029,0.011044489545514347,0.9861225380416707
2015-05-04,1,0.0006199271547571444,0.0008153805636943499,-0.014775051552160363,0.0099743239267693,0.9853667186716601
2015-05-06,-1,-0.003057558343669402,-0.0027266514057940534,-0.004009775534361881,0.011227478933264902,0.9867291590794557
2015-05-08,-1,-0.0028832195641264905,-0.0025339547812287216,-0.008172212650307029,0.011227478933264902,0.9852900516212538
2015-05-12,-1,-0.005034389757772586,-0.004256170315669806,-0.0023083648849350023,0.011227478933264902,0.9848422986970629
2015-05-14,-1,-0.004137159064172122,-0.0035122269523341796,-0.004009775534361881,0.011605236594089886,0.9845100951892929
2015-05-18,-1,-0.0025778065085120517,-0.0022080534889054623,-0.008033544705720864,0.01079368485432782,0.9855960982909917
2015-05-20,-1,-0.0014362167084701854,-0.0012383060133482134,-0.008033544705720864,0.01079368485432782,0.9856383253373898
2015-05-22,-1,-9.303795726859637e-05,-8.040100532425936e-05,-0.012639315753220037,0.009468217102729562,0.9858377924004753
2015-05-27,-1,-0.001062611295102335,-0.0009551334014723687,-0.012639315753220037,0.01079368485432782,0.984792700744965
2015-05-29,-1,-0.001650247715667584,-0.0014066564471908818,-0.015380648780620263,0.009468217102729562,0.9851269888962592
2015-06-02,-1,-0.002066821262841702,-0.0017762580471779893,-0.015380648780620263,0.010754490189248095,0.9827652613569676
2015-06-04,-1,-0.0011547668035098717,-0.000977029537899873,-0.015380648780620263,0.010754490189248095,0.9834352131529951
2015-06-08,-1,-0.003065326113926786,-0.0026526602165235238,-0.014234951551747026,0.014934461145814709,0.9830556705250959
2015-06-10,-1,-0.0024216568140518558,-0.002079487404599685,-0.01623997166622593,0.015235142962650081,0.9797791876589518
2015-06-12,-1,-0.0035388141425422015,-0.002986647936573271,-0.014234951551747026,0.01665036909947452,0.9784392770356902
2015-06-16,-1,-0.0033089298997145064,-0.002842046342207551,-0.016341836367579455,0.01665036909947452,0.9778301202466141
2015-06-18,-1,-0.0017518864603657952,-0.0015383230538548271,-0.016341836367579455,0.015634925592716873,0.9783099944361617
2015-06-22,-1,-0.0027786594906437107,-0.0024086889833851606,-0.014234951551747026,0.015634925592716873,0.9788752174822977
2015-06-24,-1,-0.004104556399475185,-0.003524017821528571,-0.013117936807192252,0.015634925592716873,0.9803013637445678
2015-06-26,-1,-0.0036937666832216245,-0.003230085724830695,-0.016341836367579455,0.015634925592716873,0.9788538934029766
2015-06-30,-1,-0.0038114249017434073,-0.003329200714261631,-0.013404377769060808,0.015634925592716873,0.9809624836477341
2015-07-02,-1,-0.004032679009146823,-0.003472440370901165,-0.013404377769060808,0.015869509885286386,0.9780224691171001
2015-07-07,-1,-0.0020729360346824766,-0.0018284403034282569,-0.004355261318352254,0.015869509885286386,0.9760101000610387
2015-07-09,-1,-0.003414473379394555,-0.0030694049740667972,-0.004355261318352254,0.01755481319739766,0.9777443011879265
2015-07-13,-1,-0.0007654246477747423,-0.0007338998755076302,-0.004355261318352254,0.013296531108848302,0.9801064779796177
2015-07-15,-1,-0.0008633513984114564,-0.0008152592112991953,-0.006929857484945587,0.013296531108848302,0.9801736244678363
2015-07-17,-1,-0.001412119826642306,-0.001344568396830537,-0.0023848541867907236,0.013296531108848302,0.9800095784392004
2015-07-21,-1,-0.0011495493740938069,-0.001121769293925173,-0.005486370580028628,0.013296531108848302,0.979593049269352
2015-07-23,-1,-0.0007590136849638942,-0.0007398115700413231,-0.01697018930939429,0.013296531108848302,0.9777741191981716
2015-07-27,-1,-0.0022162959728684356,-0.0020908430387771874,-0.01697018930939429,0.013296531108848302,0.9762130358056261
2015-07-29,-1,-0.001277163319865443,-0.001220826604861162,-0.017226002110568746,0.013296531108848302,0.9760665157903617
2015-07-31,-1,-0.00025998441670537447,-0.0002184521912983585,-0.017226002110568746,0.015458707345327054,0.9768933451456914
2015-08-04,1,0.002288463939620595,0.002552178446513945,-0.01885647963112655,0.011404195989013696,0.9796835850262762
2015-08-06,1,0.0023452959599818135,0.002608817527637886,-0.01885647963112655,0.012165699307508264,0.9805712192119906
2015-08-10,1,0.004966578427212218,0.005786785714095232,-0.01885647963112655,0.012165699307508264,0.979311330786555
2015-08-12,1,0.004422651332587534,0.005178264672961567,-0.019123023313312035,0.012165699307508264,0.9787736765723414
2015-08-14,1,0.004586172518985121,0.005325683702691066,-0.019123023313312035,0.012338653120818185,0.9786871890649594
2015-08-18,1,0.0040844847626049716,0.004705133895786275,-0.019204124898961283,0.015861094221205047,0.9771350756981098
2015-08-20,1,0.002579662161857187,0.0029914162287353677,-0.018966499296744724,0.015861094221205047,0.9787222495334876
2015-08-24,1,0.00012503646947303822,0.00018293112449665048,-0.01740126153244031,0.015861094221205047,0.980475959687146
2015-08-26,1,0.0005893506151044083,0.0007462125691669513,-0.016961175813114952,0.012338653120818185,0.9811564056084044
2015-08-28,1,0.002396670132425731,0.0028115515126638686,-0.018966499296744724,0.010894403307469996,0.9803842503225301
2015-09-01,1,0.0018753424355839098,0.002298666065935709,-0.016961175813114952,0.011410047107133284,0.9790004933409128
2015-09-03,1,0.0022179487290975132,0.002628905951979014,-0.016961175813114952,0.01166827107322048,0.9769726077759746
2015-09-08,1,0.003739234927397112,0.004370239127346999,-0.016961175813114952,0.01166827107322048,0.9779360451849
2015-09-10,1,0.0027467585586980893,0.003240339359590712,-0.01389402348544587,0.015341496199374022,0.9786029308047095
2015-09-14,1,0.0032857684454962567,0.003867419936613501,-0.01389402348544587,0.015341496199374022,0.9786237913189099
2015-09-16,1,0.003552014863534884,0.00416726108863456,-0.01287713298761363,0.012367703663109502,0.9808659752289897
2015-09-18,1,0.003091752928368189,0.003673836135921742,-0.008445270656704732,0.015104274629564122,0.9812235118079581
2015-09-22,1,0.0009294618499858167,0.0011366473316434392,-0.004540286458886707,0.015104274629564122,0.9815801241362451
2015-09-24,1,0.0009526101921928031,0.0011745676351045274,-0.004540286458886707,0.015104274629564122,0.9806017036868055
2015-09-28,-1,-0.0018569559468587299,-0.0016025840099618154,-0.0019960939498918488,0.019558609914723073,0.9801065365928486
2015-09-30,-1,-0.001649910045851998,-0.0014479629484813385,-0.0019960939498918488,0.019558609914723073,0.9806212585371922
2015-10-02,-1,-0.00016812188789717627,-7.679703962591852e-05,-0.0019960939498918488,0.019558609914723073,0.9814816843483974
2015-10-06,1,0.0009222987952223287,0.0009781489773258603,-0.0019960939498918488,0.019558609914723073,0.9814987444713977
2015-10-08,1,0.002073958716034277,0.0023100962396587774,-0.0046659721452059575,0.01927374174737246,0.9828240192973898
2015-10-12,1,0.0021944402914131716,0.002476975307715282,-0.0046659721452059575,0.01927374174737246,0.9820057962162404
2015-10-14,1,0.00265357456161203,0.003031540182777988,-0.005132466359189633,0.01927374174737246,0.9816553177952331
2015-10-16,1,0.0025676628917558173,0.002880322466171351,-0.014904248420340358,0.017643455349133395,0.980821178189473
2015-10-20,1,0.0018388995260264656,0.0020646272542155157,-0.013737399562198462,0.017643455349133395,0.981273227564124
2015-10-22,1,0.0009037695602883175,0.000979937991058917,-0.00945177569126877,0.019724285822430555,0.9819073470008459
2015-10-26,1,0.0028872868989394205,0.0032664411318268326,-0.00945177569126877,0.01563036797808231,0.9840260411794819
2015-10-28,1,0.0021225239789813962,0.0023009127119429183,-0.006252019728778728,0.013378823756469272,0.9869048077071081
2015-10-30,1,0.004089366086364345,0.004553809633314587,-0.006999018430595824,0.006335687387562809,0.9887647701882399
2015-11-03,1,0.004957867845365161,0.005521027456774928,-0.006999018430595824,0.005609007981534303,0.9889612551848778
2015-11-05,1,0.004278487791687523,0.0047093942253733645,-0.00945177569126877,0.007169961798898889,0.9874317693934621
2015-11-09,1,0.0037000106239878858,0.004083388119545795,-0.012964093139085813,0.007169961798898889,0.9871686144633633
2015-11-11,1,0.003089961077869109,0.0033496088273843455,-0.012964093139085813,0.0074721286980474365,0.9874053123925046
2015-11-13,1,0.0015491368891991067,0.0015566264211011346,-0.011975712799966122,0.0074721286980474365,0.986485424833776
2015-11-17,1,0.0006874243589092657,0.000808697761411124,-0.009122315578228873,0.011237343973253084,0.9849170731137686
2015-11-19,1,0.0007481079956322429,0.0008861228611360434,-0.01321488521193675,0.00969226528362437,0.9842510190078761
2015-11-23,1,0.001040667880247678,0.0011272720162110227,-0.01321488521193675,0.011237343973253084,0.9835858645485956
2015-11-25,1,0.0017108771942888905,0.0017383057519416356,-0.01321488521193675,0.012123872474281113,0.9825287295415327
2015-11-30,0,-0.00010149615176113336,0.00020633885428277703,-0.01321488521193675,0.014358595158775418,0.9822570615446211
2015-12-02,1,0.0018520402235298599,0.0018569603122568779,-0.01485111381194954,0.011463968645042368,0.9822897646981328
2015-12-04,1,5.145049365966716e-05,0.00029357556494953206,-0.01485111381194954,0.014358595158775418,0.9829596477660042
2015-12-08,-1,-0.0014398216469361596,-0.00100961789390764,-0.01644531051746798,0.014358595158775418,0.9797704594857172
2015-12-10,-1,-0.0013650198262784316,-0.0009453903262550654,-0.01644531051746798,0.01640209694906872,0.9791259039137815
2015-12-14,-1,-0.0033358435651763604,-0.002698090132663154,-0.01644531051746798,0.01640209694906872,0.9782909155013795
2015-12-16,-1,-0.0025816467244108177,-0.0019311153405767614,-0.018788207677216187,0.01387458544577656,0.9799919278036986
2015-12-18,-1,-0.0036713840564601965,-0.0029372211457187507,-0.018788207677216187,0.01387458544577656,0.9801019409798329
2015-12-22,-1,-0.0012413362528783385,-0.0009203346155217784,-0.018788207677216187,0.01387458544577656,0.9804675737561188
2015-12-24,1,0.0017072884912777452,0.0019301070510293883,-0.020341843811300248,0.012790306983870329,0.9802654694816583
2015-12-29,1,0.0024051866655005593,0.0027388038365918797,-0.020341843811300248,0.012966201100110215,0.9795372267187048
2015-12-31,1,0.0025506362424494618,0.0029517122371702153,-0.020341843811300248,0.014950067810072147,0.9787782209148346
2016-01-05,1,0.0021807541094655053,0.002489022728649,-0.024073406834215667,0.012966201100110215,0.9770036905285477
2016-01-07,-1,-0.00031436353283257316,-0.00030275196071802946,-0.024073406834215667,0.012966201100110215,0.9793004046990024
2016-01-11,1,4.773560280290078e-05,0.0001124015811203699,-0.02693927238947285,0.012016806477106469,0.9767570656528141
2016-01-13,-1,-0.0022280379938320735,-0.001931239909093166,-0.024073406834215667,0.012016806477106469,0.97820399655695
2016-01-15,-1,-0.004595060218082942,-0.0038698110904604385,-0.024073406834215667,0.017327843212744408,0.9739308298907347
2016-01-20,-1,-0.00575535677281194,-0.0049069140611389265,-0.024522685711394588,0.023337623769934566,0.9691357946930278
2016-01-22,-1,-0.003942815863017722,-0.003413720099059785,-0.024522685711394588,0.037316773456239793,0.9673670332539973
2016-01-26,-1,-0.005246785928655282,-0.0044883228401902744,-0.02841150592539282,0.037316773456239793,0.9676898714921689
2016-01-28,-1,-0.004287715223341003,-0.003693337927012351,-0.02841150592539282,0.037316773456239793,0.9669878665292606
2016-02-01,-1,-0.001847425170889779,-0.0016193031043906787,-0.02841150592539282,0.037316773456239793,0.9662726693278187
2016-02-03,-1,-0.005139743852728189,-0.004471019028379729,-0.01840148904623984,0.037316773456239793,0.9679005046167406
2016-02-05,-1,-0.006053080913333049,-0.005303023311601512,-0.01840148904623984,0.037316773456239793,0.9692484338312165
2016-02-09,-1,-0.00819588954385158,-0.0072179525510528775,-0.015102958623341172,0.03762575780569305,0.9686273179128004
2016-02-11,-1,-0.007728249786618817,-0.006768937169140817,-0.004240962042423301,0.03762575780569305,0.9686901156662742
2016-02-16,-1,-0.004229298407710216,-0.0035977512334006093,-0.014290070641295373,0.024555012915288485,0.9756447533342171
2016-02-18,-1,-0.005579318398198715,-0.004782286662710985,-0.012067840389329286,0.023740622723480813,0.9797139166170853
2016-02-22,-1,-0.005693385631846083,-0.004809160672495775,-0.012067840389329286,0.022602536472673424,0.9803863823668588
2016-02-24,-1,-0.006977181748618956,-0.0059255122565741395,-0.012067840389329286,0.022602536472673424,0.9797541968396624
2016-02-26,-1,-0.004262669214429976,-0.003648890923704683,-0.012067840389329286,0.018403370769633373,0.9821665032725952
2016-03-01,-1,-0.0016772186445951883,-0.0014187018041428097,-0.012067840389329286,0.018403370769633373,0.9832532996945881
2016-03-03,-1,-0.00030665821422979603,-0.00026365117392198847,-0.012067840389329286,0.022399611832009135,0.982937242012331
2016-03-07,-1,-0.001210631166348179,-0.001058173512107309,-0.013092027388324384,0.022399611832009135,0.9827553443507406
2016-03-09,-1,-0.0006011707587019262,-0.0005320008389551496,-0.012067840389329286,0.016481821845848597,0.9848041513167987
2016-03-11,1,0.000910474425902175,0.0010624638455994989,-0.013092027388324384,0.016481821845848597,0.9845487074473184
2016-03-15,1,0.00023134927726855254,0.00024042621476243068,-0.012265863437752492,0.022399611832009135,0.983097169613352
2016-03-17,1,0.00016941085023438652,0.0002120723227770952,-0.012837138118408722,0.020497697213733238,0.9842483082119641
2016-03-21,1,0.001255874831781749,0.0014670701986751493,-0.011809049861771375,0.015851708319458896,0.9861745650187935
2016-03-23,1,0.0009529657404877896,0.0011295668012050604,-0.011809049861771375,0.015851708319458896,0.9861481422160704
2016-03-28,1,0.0016765875710645457,0.002080407388205096,-0.012837138118408722,0.015851708319458896,0.9859117493130993
2016-03-30,1,0.0037854655721958584,0.0045516249714952425,-0.012837138118408722,0.008912428105920427,0.9877910697882029
2016-04-01,1,0.00463885676136864,0.005501576695685701,-0.013949252309774096,0.004922503538290605,0.9865449213882778
2016-04-05,1,0.0032730078729622126,0.003906873265155653,-0.011098835921626552,0.00887531413788664,0.9875738935894215
2016-04-07,1,0.0039031810913506245,0.00462045188666407,-0.011098835921626552,0.009589776349082348,0.9870843732145442
2016-04-11,1,0.003890859400011582,0.004539177414502122,-0.010469317269731857,0.0065500907245577,0.9887463722394315
2016-04-13,1,0.005113148190626485,0.005898657674515176,-0.011098835921626552,0.00469102331847859,0.9871402974407261
2016-04-15,1,0.0048794634302781635,0.005657505951577983,-0.011492674473398957,0.00469102331847859,0.9870641145443974
2016-04-19,1,0.005254464798672635,0.00609176541548259,-0.011492674473398957,0.00469102331847859,0.9858270349954972
2016-04-21,1,0.0043718270080009,0.005112246741855965,-0.0111449974844966,0.00469102331847859,0.9867712196773312
2016-04-25,1,0.0034851134872831927,0.004093245089099801,-0.009220271146037672,0.012967782580323255,0.987725056328124
2016-04-27,1,0.004290152203144053,0.005065152627273534,-0.009220271146037672,0.01709545341457183,0.9866550607160643
2016-04-29,1,0.0027813204584172047,0.003290410488755665,-0.009220271146037672,0.017685878801489703,0.9868522291901133
2016-05-03,1,0.002473212729523345,0.0028805966634212875,-0.007641008153913637,0.018637633624736735,0.9867782159096942
2016-05-05,1,0.0032295704200002153,0.003750156055649938,-0.007641008153913637,0.01919490153160692,0.986181110768718
2016-05-09,1,0.002163219491481375,0.0024283015263838973,-0.005585698267646394,0.01919490153160692,0.9857518041637836
2016-05-11,1,0.003361773050579594,0.003899584205529753,-0.0037489075678033674,0.017417314718066474,0.9883564825721859
2016-05-13,1,0.002035590488923069,0.002315353870435335,-0.005585698267646394,0.017417314718066474,0.9868857641730636
2016-05-17,1,0.002936414004827196,0.003384643859180982,-0.004805603035845661,0.017417314718066474,0.9873013849218548
2016-05-19,1,0.002836947191958007,0.003339096538426409,-0.0030488856144627757,0.01863398894701672,0.9870262566525838
2016-05-23,1,0.004081822533773303,0.004786106120988283,-0.005796470660476125,0.01863398894701672,0.9873398138926299
2016-05-25,1,0.004829021501726313,0.005612379107277855,-0.009600553273095384,0.01525497361008923,0.9877299252205058
2016-05-27,1,0.004947562265409034,0.00574670507568318,-0.013727364107288578,0.013269135425963856,0.9827228607024313
2016-06-01,1,0.003970279609195286,0.004457513165153165,-0.013727364107288578,0.01525497361008923,0.9817453071649705
2016-06-03,1,0.004816766095602654,0.005428598113291442,-0.013727364107288578,0.013269135425963856,0.9827958279269454
2016-06-07,1,0.004622973238225957,0.005132492045727695,-0.013727364107288578,0.014170906048934333,0.9821035860739352
2016-06-09,1,0.004891699833335314,0.005411246155844591,-0.013727364107288578,0.012157011920534932,0.9819928095345933
2016-06-13,1,0.002822509312487915,0.0029877189376441337,-0.008944899298916564,0.013569035621984426,0.9838977477968781
2016-06-15,1,0.003302685247121527,0.003542961423574482,-0.008944899298916564,0.010767214638398885,0.9843460578598923
2016-06-17,1,0.002954986068353894,0.003118298018713531,-0.0066525357364053805,0.007762259549788227,0.9858716974116759
2016-06-21,1,0.0027221880260788122,0.0028650080815965026,-0.0066525357364053805,0.008232934116938057,0.9858275356094942
2016-06-23,1,0.0030970603912108107,0.003354544078102301,-0.007036449061293142,0.008232934116938057,0.9855750804888745
2016-06-27,-1,-0.002663721545895249,-0.0020870732818127893,-0.0018620859689561509,0.012914130560902378,0.9891154593200524
2016-06-29,-1,-0.0016797283557587997,-0.0011618784644405447,-0.005132084918875143,0.008232934116938057,0.9911864049356568
2016-07-01,-1,-0.0033014754529355718,-0.002481974167818189,-0.006490637142173369,0.008232934116938057,0.990836868054413
2016-07-06,-1,-0.0030722029651540964,-0.0022877051914544635,-0.006181736796381161,0.0059337460526843,0.9919859825634267
2016-07-08,-1,-0.0007887385281591216,-0.000476314884124441,-0.006181736796381161,0.011875721208551264,0.9912108781920976
2016-07-12,-1,-0.0012494343470173936,-0.0008159614466111524,-0.006181736796381161,0.010857605409635776,0.9908895031060803
2016-07-14,-1,-0.0011939554268157791,-0.0007666116785268902,-0.006986690559724132,0.010860818625067388,0.9904919776689473
2016-07-18,-1,-0.0018642050475998365,-0.0013112199327380502,-0.008500240121306226,0.012300300935710502,0.9892464501401701
2016-07-20,-1,-0.0012809859571308996,-0.0008427443120950263,-0.008514490713127966,0.010860818625067388,0.9898951931345398
2016-07-22,-1,-0.0008174003045166706,-0.00052056579509065,-0.00798759663222965,0.010860818625067388,0.9901270796303819
2016-07-26,1,0.0006473088524818827,0.0007463503866329496,-0.00798759663222965,0.010553028674174163,0.9913148421643677
2016-07-28,1,0.00022490740608403282,0.0004189238474461073,-0.008737105818514654,0.008466167952132567,0.9908694629491821
2016-08-01,0,-0.00015114458299741215,7.827523924660814e-05,-0.007060895594853028,0.008466167952132567,0.9912557238711318
2016-08-03,1,0.00017606039607543798,0.00030977089089561543,-0.004201540673345866,0.008466167952132567,0.991356877194989
2016-08-05,1,0.0008403266841574387,0.000910870796436857,-0.004201540673345866,0.005445930448662702,0.9910373454715268
2016-08-09,1,0.0015476141593388107,0.0015802356416585806,-0.004201540673345866,0.004927119949141989,0.9908117341238721
2016-08-11,1,0.0014189283820963722,0.0014282127304117856,-0.004201540673345866,0.004794415631249284,0.9905353155559241
2016-08-15,1,0.0009571357025896174,0.0010247132476894636,-0.004201540673345866,0.004794415631249284,0.9909079384178996
2016-08-17,0,-0.00016674544676595078,6.515158646577682e-05,-0.002846137438225762,0.007443848667623576,0.9903352682695127
2016-08-19,1,0.00011772376824997993,0.0002483554439696159,-0.003108668586244575,0.007443848667623576,0.9897575171906065
2016-08-23,1,0.0007897299850381958,0.0007965842118685272,-0.003108668586244575,0.007443848667623576,0.9899077120834853
2016-08-25,-1,-0.0008487432357442785,-0.0006009653216135166,-0.003108668586244575,0.01274731950332362,0.9896022333354048
2016-08-29,-1,-0.0004486126202513023,-0.0002760806201373823,-0.004293708868410364,0.01274731950332362,0.9890016127994259
2016-08-31,1,5.527910027360342e-06,9.807332916459495e-05,-0.006264358674495355,0.013313304378057734,0.9869346766166879
2016-09-02,1,0.0015924272994449961,0.0017781095445293868,-0.006264358674495355,0.01274731950332362,0.9884674133616287
2016-09-07,1,0.0019818675294090505,0.002191955693449165,-0.006264358674495355,0.01274731950332362,0.9888359839752378
2016-09-09,1,0.0015879640532361992,0.0017607032837760098,-0.006264358674495355,0.01274731950332362,0.9890858367392333
2016-09-13,1,0.0011053029316847771,0.0011528202021812012,-0.006311040300216713,0.013017448278498165,0.988858597775955
2016-09-15,1,0.0014014780835024162,0.001439494758452072,-0.009282591733327319,0.007292626113807446,0.9890642345010755
2016-09-19,1,0.0006450195061628121,0.0006935606078621302,-0.009282591733327319,0.008443545862375234,0.9892160688121676
2016-09-21,1,9.000039481514555e-05,0.00025766434996876166,-0.009282591733327319,0.0089035254734747,0.9887770151072993
2016-09-23,1,0.0008146823142291617,0.0008954723754784092,-0.009282591733327319,0.008434047334292972,0.9903574896701076
2016-09-27,1,0.0009193910570259237,0.0009607688845176913,-0.008454327291335792,0.0074459526508406015,0.9905948565273921
2016-09-29,1,0.0011023217449749145,0.001130777459960847,-0.007779340863782435,0.006913237791754714,0.9926618303298734
2016-10-03,1,0.0015069995767651465,0.001537113210045369,-0.007779340863782435,0.006228641140851811,0.9929524584214563
2016-10-05,1,0.0015595296719336557,0.0015621822780719865,-0.008454327291335792,0.006228641140851811,0.992338306803708
2016-10-07,1,0.0013786807307662673,0.0013822680740616686,-0.007779340863782435,0.007369590442271698,0.9918052082446513
2016-10-11,1,0.0008735021915463448,0.000979093116675577,-0.006817785729248356,0.008815010602391553,0.9901855311195646
2016-10-13,1,0.0005879521833649067,0.000684583271024708,-0.00594378228624384,0.0089035254734747,0.9897832591032429
2016-10-17,1,0.0009466573462711349,0.0009583678434221051,-0.00594378228624384,0.008815010602391553,0.989848408461779
2016-10-19,1,0.0010325001206128238,0.0010383146237358282,-0.00594378228624384,0.00944864399840254,0.989481054154865
2016-10-21,1,0.0012561735408539356,0.0013268262888909716,-0.00594378228624384,0.01222877946211389,0.9884954016813122
2016-10-25,1,0.0015482141540878497,0.0017052543534287039,-0.00594378228624384,0.014904480120587286,0.9879461755145554
2016-10-27,1,0.0017285232682989677,0.0019506423674027081,-0.007005053234561282,0.014904480120587286,0.9876428323222605
2016-10-31,1,0.00218466205717416,0.0024969368414921853,-0.007005053234561282,0.014904480120587286,0.9877819854815731
2016-11-02,1,0.0012458120060600182,0.0013610715153632195,-0.006569654889005207,0.014904480120587286,0.9880620718447686
2016-11-04,1,0.0020253211623948984,0.0022698640115091265,-0.0058110732593018005,0.014904480120587286,0.9888329720579138
2016-11-08,1,0.003857371765645226,0.004346223895672181,-0.0058110732593018005,0.01222877946211389,0.9902191925913177
2016-11-10,1,0.0032694297542644048,0.0036712442406038673,-0.0058110732593018005,0.014904480120587286,0.9883282194541042
2016-11-14,1,0.002588679023155495,0.0028926033993659324,-0.004619479313093645,0.016900245884063102,0.988285921038183
2016-11-16,1,0.0007711224414773889,0.0009245043688968719,-0.0058110732593018005,0.014998037280941285,0.9875048422391878
2016-11-18,1,0.0023445492037573804,0.002472306114548243,-0.007053253893024277,0.012395168876461107,0.9877591790816819
2016-11-22,1,0.0024485209474964333,0.0025842351942214864,-0.0058110732593018005,0.012395168876461107,0.9880672422741188
2016-11-25,1,0.00229607561582184,0.0024182119633193444,-0.004233276506065933,0.012395168876461107,0.988743095745084
2016-11-29,1,0.00230274004859556,0.002417686483756294,-0.007302272915395929,0.012395168876461107,0.9875698996905444
2016-12-01,1,0.0019572215923596343,0.0020420393345593098,-0.008083988809137353,0.012979437859861567,0.9875504396774508
2016-12-05,1,0.002264140949302819,0.00238056454882592,-0.008083988809137353,0.013822957837629398,0.9872434179868159
2016-12-07,1,0.0031300125428092144,0.003359334689726274,-0.008083988809137353,0.006725165545794412,0.9879412305427218
2016-12-09,1,0.0023591623457266666,0.002485007138879957,-0.008083988809137353,0.006725165545794412,0.9900315019119063
2016-12-13,1,0.002464531760842487,0.0025700758010786017,-0.010477686712570305,0.002557527923355432,0.9892242343221929
2016-12-15,1,0.0019755805753585895,0.002073239637025663,-0.009515789862620406,0.002557527923355432,0.9908660709626576
2016-12-19,1,0.00155630600862156,0.0016072660853959121,-0.008244253652578653,0.003373976568312417,0.9916357742169535
2016-12-21,1,0.0019649299257897277,0.002038945554787509,-0.0087621881919076,0.002006111259832959,0.9920134843599594
2016-12-23,1,0.0017271632394069455,0.001745259867136986,-0.0087621881919076,0.006725165545794412,0.9904524474287115
2016-12-28,1,0.001308023832121225,0.0013186163975313736,-0.004955597617162612,0.01078147408257936,0.9910132147585925
2016-12-30,1,0.0015820325720907924,0.0016585877857657934,-0.00892536918737807,0.006459342009507402,0.9901663494331299
2017-01-04,1,0.0021056895748358777,0.0022431408232764308,-0.00892536918737807,0.0059312677448359165,0.990360069555157
2017-01-06,1,0.0019965406820110073,0.0021060921292083814,-0.00892536918737807,0.007038432516671965,0.9905624998894856
2017-01-10,1,0.001652098950950246,0.001674595342894567,-0.00892536918737807,0.003746703086825149,0.9909955080096742
2017-01-12,0,-2.5321574845646585e-05,0.00017668249201364537,-0.005123893167416362,0.003746703086825149,0.9925830321528456
2017-01-17,0,-5.92644596312757e-05,0.00014409764696837507,-0.008337674902994335,0.007038432516671965,0.9907239308200358
2017-01-19,-1,-0.0007582678585859936,-0.0004424245020408198,-0.00892536918737807,0.008931427752277891,0.9848694504447719
2017-01-23,-1,-0.0010622730694730474,-0.0007210458191021737,-0.009922199291409448,0.011176215131997293,0.984244229668572
2017-01-25,1,6.417885468526497e-05,0.00027231595616040657,-0.012203846892023393,0.007038432516671965,0.9846187809035094
2017-01-27,1,0.0006278467599063096,0.0007336911290283198,-0.012203846892023393,0.006942932972355698,0.984707404167539
2017-01-31,-1,-0.00018090223143135773,-1.6545963869169292e-05,-0.00990536340126444,0.008116854854657612,0.9851014419064946
2017-02-02,-1,-0.0006101334170201889,-0.00037124501611826143,-0.01215333922158837,0.006942932972355698,0.9847346939149341
2017-02-06,-1,-0.0004190565707872457,-0.00020394430007086503,-0.017023026801423136,0.006281268747056945,0.9835292361413807
2017-02-08,-1,-0.0004937406811494479,-0.00030632596026719007,-0.012308903579396476,0.006281268747056945,0.9839275361562807
2017-02-10,-1,-0.0011598829277351887,-0.0008578190617939936,-0.012308903579396476,0.009305493705034041,0.9831115523155758
2017-02-14,-1,-0.0010774014369771857,-0.0007871254100614634,-0.009946892985952076,0.013721992425698638,0.9833194687933475
2017-02-16,-1,-0.0026357724786892963,-0.002192430896957343,-0.009693672791833082,0.013721992425698638,0.9877201769693096
2017-02-21,-1,-0.0026576932239606717,-0.002204734014985999,-0.012481943597652362,0.009869577241620549,0.9864882241971366
2017-02-23,-1,-0.00333640831977391,-0.0028222027355384103,-0.0075338686663741355,0.009869577241620549,0.987400796493311
2017-02-27,-1,-0.002788793006598319,-0.0023567734890725394,-0.008510218163666173,0.015972454462274535,0.9862122643033204
2017-03-01,-1,-0.002167370154503804,-0.0018287493952109934,-0.008510218163666173,0.015972454462274535,0.986029472832866
2017-03-03,-1,-0.00279177424302968,-0.0023668705838039263,-0.005194909925690839,0.015972454462274535,0.986748446853899
2017-03-07,-1,-0.0035510603850321485,-0.0030462670163266346,-0.003926699493895375,0.015972454462274535,0.987142625401183
2017-03-09,-1,-0.00431559158341683,-0.0036923759526254507,-0.003926699493895375,0.01769451301387669,0.9853726036537099
2017-03-13,-1,-0.0036316872367140895,-0.003086129521160812,-0.007956438979895288,0.01601987873342757,0.9861922694476678
2017-03-15,-1,-0.0025151704657244076,-0.0021055750242406843,-0.007956438979895288,0.0065059343355209475,0.9880401987622279
2017-03-17,-1,-0.0016476291173452594,-0.0013384705715281462,-0.008890343804052823,0.003025124319930184,0.9888775249684776
2017-03-21,-1,-0.0034537692683274056,-0.002929770266676929,-0.005766218183953222,0.0104907438512457,0.989521253490858
2017-03-23,-1,-0.003808272990559518,-0.003236372602816143,-0.005766218183953222,0.013506057538026632,0.9884676744478594
2017-03-27,-1,-0.002850465546475333,-0.00240101561467474,-0.0031939249319184212,0.013506057538026632,0.9889328429265103
2017-03-29,-1,-0.0022255627904851113,-0.0018324411289820978,-0.0031939249319184212,0.01516938007747374,0.9877349493205099
2017-03-31,-1,-0.0017348465489881383,-0.0014299509554316662,-0.005766218183953222,0.01516938007747374,0.9872873380064264
2017-04-04,-1,-0.000184382463214905,-0.00014832290640226324,-0.005766218183953222,0.01516938007747374,0.9877991143399424
2017-04-06,1,0.00042796067866415386,0.0004601399168045364,-0.006207813226664123,0.01279960903196705,0.9888331000045868
2017-04-10,-1,-0.0006987005127233228,-0.0005663939403219357,-0.0031939249319184212,0.01516938007747374,0.9883823023876948
2017-04-12,-1,-0.0007089896321506128,-0.0005946674839559009,-0.003932129325961563,0.01516938007747374,0.987838673750846
2017-04-17,-1,-0.0007215318939926582,-0.0006465719907108067,-0.0006813816326794311,0.016030882096336123,0.9873716112287606
2017-04-19,1,0.00048279245439219223,0.0005760872583297038,-0.0033188995771590395,0.015880803902872838,0.9870602354399872
2017-04-21,1,0.0008731622403877959,0.001015663988905328,-0.006575932607913183,0.015347164011727293,0.9873016521178352
2017-04-25,1,0.001934464400661471,0.0022289609787129847,-0.008141951989477302,0.01142786770422089,0.9881951109102041
2017-04-27,1,0.00333862971385605,0.003794415041880805,-0.008141951989477302,0.009585213743260589,0.9901454317161884
2017-05-01,1,0.0034306505435374108,0.003923641127307607,-0.006575932607913183,0.009585213743260589,0.9908007141130153
2017-05-03,1,0.004010233088493888,0.004636944207323994,-0.006575932607913183,0.010966301111111462,0.9901143097372522
2017-05-05,1,0.0035910661649180206,0.004124936946099364,-0.006575932607913183,0.010966301111111462,0.9899564874806631
2017-05-09,1,0.004054897566635851,0.004684024031240504,-0.005054885220110279,0.009585213743260589,0.9911641499699057
2017-05-11,1,0.0035689404726274715,0.0040778980304878665,-0.005054885220110279,0.009585213743260589,0.9902827003020614
2017-05-15,1,0.003993991046912369,0.004529611678457985,-0.006712761201154343,0.009585213743260589,0.989653829411422
2017-05-17,1,0.003745394691479658,0.004290767119139298,-0.005054885220110279,0.009331558498878262,0.9917095870806181
2017-05-19,1,0.0038392751217093805,0.004399717546216509,-0.0038124188338099635,0.009549817329249732,0.9917188208434617
2017-05-23,1,0.003408598696448401,0.003865328820359098,-0.0038124188338099635,0.008562549090636546,0.991905482389335
2017-05-25,1,0.0036947974990612894,0.004192929089230083,-0.0009476804531189591,0.008928868706531591,0.9913530325923117
2017-05-30,1,0.004273042723451053,0.004886996630630595,-0.005187635558174913,0.008928868706531591,0.9906731454403164
2017-06-01,1,0.0045980337346959825,0.005255052557878007,-0.007241648196611778,0.008432252094744418,0.9900521227190755
2017-06-05,1,0.004563343154644627,0.0052193394029945725,-0.00985501203078275,0.008432252094744418,0.9869399893479224
2017-06-07,1,0.0043809020677856155,0.004940318418603741,-0.0146337410570947,0.008276263065481109,0.9855912215362493
2017-06-09,1,0.003492390665277398,0.003930732006890333,-0.00985501203078275,0.011704350718679288,0.9863059814202094
2017-06-13,1,0.00352473212109867,0.003964519229690501,-0.007241648196611778,0.01015354026526248,0.9871640675552965
2017-06-15,1,0.003751873869636861,0.004203191084249342,-0.007241648196611778,0.01015354026526248,0.9871990657737911
2017-06-19,1,0.004847910495560937,0.0055147472322435226,-0.007241648196611778,0.01015354026526248,0.9867908289982414
2017-06-21,1,0.0047308423989750985,0.0053905881241666075,-0.00492751065164432,0.011704350718679288,0.9863088230914921
2017-06-23,1,0.005098010787819268,0.005732984732754435,-0.00492751065164432,0.01015354026526248,0.9870771961450436
2017-06-27,1,0.004483875534203698,0.005030797981632448,-0.004328218865150758,0.01015354026526248,0.9871376323972281
2017-06-29,1,0.0036716042692411695,0.004121860102605128,-0.00853346900883916,0.01015354026526248,0.9871638143197901
2017-07-03,1,0.000977186509647093,0.0010394178938252369,-0.0066243621880428365,0.01015354026526248,0.9891180658447492
2017-07-06,1,0.0005544677732152731,0.0005588409503402858,-0.00853346900883916,0.009136395490004074,0.9894446160683654
2017-07-10,1,0.0014750490153773244,0.001598506080267886,-0.00853346900883916,0.008072890278130466,0.9904545198250072
2017-07-12,1,0.0009819179354704742,0.0010611034729968456,-0.01021559915474841,0.0073091449154909175,0.9905361404943731
2017-07-14,1,0.0010422921424055663,0.0011148904100698011,-0.012037348239797534,0.0073091449154909175,0.989192526989773
2017-07-18,1,0.0009009665668865841,0.0010538246202780426,-0.012037348239797534,0.007589412884818008,0.9889303528935274
2017-07-20,1,0.0023327165782153535,0.002361705456153562,-0.013166787998202605,0.0037885044508593063,0.9883373265839497
2017-07-24,1,0.002692534493404142,0.0027781325800526474,-0.013166787998202605,0.006738330679584726,0.9880018529544403
2017-07-26,1,0.0018981253013437142,0.001951457787909496,-0.013166787998202605,0.006738330679584726,0.9879831073979365
2017-07-28,0,-5.1506524737333654e-05,0.0002958479031713937,-0.010580886684424532,0.0077263578971602164,0.9887771923675602
2017-08-01,-1,-0.0016647503643574747,-0.0010923386037879558,-0.009317639913739451,0.009417244255682626,0.9890821584405606
2017-08-03,-1,-0.0026164244388222242,-0.0019633863575244936,-0.005513955646199106,0.011539659872136045,0.9883881805519824
2017-08-07,-1,-0.001634214267292891,-0.0011553190175010216,-0.005513955646199106,0.011539659872136045,0.9887692644795353
2017-08-09,-1,-0.001653474868738997,-0.0012229803468726721,-0.002680429082516744,0.013037881542526223,0.987750962647318
2017-08-11,-1,-0.004504714904244278,-0.0036220286710622373,-0.00457694208859411,0.013037881542526223,0.9874537541254639
2017-08-15,-1,-0.003554296097301251,-0.002757457371282393,-0.0060497404431783044,0.009417244255682626,0.9893036496184452
2017-08-17,-1,-0.004467098275109011,-0.003624100093844512,-0.004942300364418732,0.009417244255682626,0.9898274365285157
2017-08-21,-1,-0.003168723400113179,-0.002525153235324879,-0.005714242615186606,0.009417244255682626,0.9894826911427039
2017-08-23,-1,-0.002978510161531403,-0.0023592806763926694,-0.004942300364418732,0.009417244255682626,0.9896694610822737
2017-08-25,-1,-0.0021324138518204437,-0.0016340034583348494,-0.008133060103838513,0.008449840095872173,0.9892398640033159
2017-08-29,-1,-0.0014780969311951346,-0.0010965580226193815,-0.008133060103838513,0.008020797382741264,0.988960184442731
2017-08-31,-1,-0.0010470706047681526,-0.0006640359855150176,-0.008133060103838513,0.007621304959435042,0.9898856955302466
2017-09-05,-1,-0.0011360127138483633,-0.0007462763567734885,-0.01087906600371728,0.007098511129568109,0.987514630884522
2017-09-07,-1,-0.000801175715582924,-0.0004119658281934429,-0.01087906600371728,0.005380500588019946,0.9883745230774743
2017-09-11,-1,-0.0013070947691922006,-0.0009154580005296777,-0.008133060103838513,0.005380500588019946,0.9895538873726106
2017-09-13,-1,-0.0017552753421202197,-0.0013294379705577255,-0.008722500072538466,0.007098511129568109,0.9888327866158193
2017-09-15,-1,-0.0019375050081195352,-0.0015460517056640677,-0.011314200712248212,0.007098511129568109,0.9879746558823892
2017-09-19,0,-1.1657096597890101e-05,5.586800512672279e-05,-0.011314200712248212,0.007098511129568109,0.9880690763538398
2017-09-21,1,0.00044160362588844106,0.0004604697646309167,-0.011314200712248212,0.005380500588019946,0.9886265450355265
2017-09-25,-1,-0.0007829290652504925,-0.0006276951576563533,-0.003820000744082975,0.007098511129568109,0.9893684791071434
2017-09-27,-1,-0.00042572317442466945,-0.0002963156525886785,-0.005144068164504769,0.005591118490413343,0.989284751605921
2017-09-29,-1,-0.00027632331289221645,-0.00016787206296184397,-0.005392284968248826,0.006247521607882445,0.9889319335180272
2017-10-03,-1,-0.002196783135593533,-0.0018663728074086818,-0.005392284968248826,0.011172757204208789,0.9896962266476339
2017-10-05,-1,-0.0017019474382975399,-0.0014672200902578676,-0.008749363331246155,0.011172757204208789,0.9892229926930212
2017-10-09,-1,-0.0021392149348287252,-0.0018255050226389648,-0.008749363331246155,0.014657832954306943,0.9876521610276308
2017-10-11,-1,-0.0019718311910976176,-0.0016828566029661366,-0.007914883270693755,0.015273895954419707,0.9861468367911773
2017-10-13,-1,-0.0032234583498396397,-0.0027941395251426067,-0.005361350206478767,0.015273895954419707,0.9869953428194136
2017-10-17,-1,-0.0020527383873227287,-0.0017780499586717872,-0.006735118035727695,0.01381616186254788,0.9879785566638578
2017-10-19,-1,-0.001843477099861969,-0.0016091601308764075,-0.006735118035727695,0.01381616186254788,0.9877379781347719
2017-10-23,-1,-0.001050504336557719,-0.0009308947126841613,-0.006735118035727695,0.011172757204208789,0.9884720150572067
2017-10-25,-1,-0.0009766667281251576,-0.0008630539108504631,-0.004978406715413434,0.0075116204680455816,0.9888906435298874
