JNU-Tangyin/eata/results/Batch4_SP500/Batch4_SP500-PCAR.csv
Date,Action,Predicted_Q25,Predicted_Q75,Actual_Q25,Actual_Q75,RL_Reward
2010-12-14,0,0.0,0.0,-0.001659443579834348,0.00476898799109033,0.9951507713438281
2010-12-16,0,0.0,0.0,-0.00247715570807232,0.004672501079114443,0.99415938129969
2010-12-20,0,0.0,0.0,-0.00247715570807232,0.004545944953777465,0.9942792718652351
2010-12-22,0,0.0,0.0,-0.004861697162821449,0.003332770799513083,0.9940063098593827
2010-12-27,1,0.0027325159956524112,0.0029685958990489252,-0.004861697162821449,0.005671314974627613,0.9931947063908148
2010-12-29,1,0.00265261558136927,0.002860407417763695,-0.004861697162821449,0.006002904787928974,0.9930729203051204
2010-12-31,0,0.0,0.0,-0.011797513739078424,0.008032977937775687,0.9903550336657311
2011-01-04,0,0.0,0.0,-0.01309873354139479,0.006002904787928974,0.9862427705100779
2011-01-06,1,0.00019101239023007843,0.0002719154703527595,-0.01309873354139479,0.004546680151044953,0.986563687307838
2011-01-10,1,0.0014021641280291585,0.0015315261948944117,-0.012041428129936676,0.00587998203044003,0.9868574192432952
2011-01-12,0,0.0,0.0,-0.012780600691057256,0.007435230222701082,0.9857611596968731
2011-01-14,0,0.0,0.0,-0.011884667110470225,0.008047150079055893,0.9854200797148766
2011-01-19,-1,-0.003727801746566725,-0.0026022728023279112,-0.006036901508343953,0.00847506031086599,0.9853802798924481
2011-01-21,-1,-0.004044495838413214,-0.0029978062449414343,-0.005817025251576637,0.00847506031086599,0.984940748118558
2011-01-25,0,0.0,0.0,-0.015202040739008276,0.00847506031086599,0.9835708449584561
2011-01-27,0,0.0,0.0,-0.015202040739008276,0.007577866966637781,0.9839301739247975
2011-01-31,0,0.0,0.0,-0.015153095020791534,0.005262559968271326,0.9857869778281324
2011-02-02,0,0.0,0.0,-0.005817025251576637,0.007577866966637781,0.9894510806359443
2011-02-04,-1,-0.006303639113890777,-0.005188860474522661,-0.013380483645071927,0.007577866966637781,0.9873905727949618
2011-02-08,-1,-0.002637213615849388,-0.0020316435659479644,-0.013380483645071927,0.004572062968330976,0.9886814935726078
2011-02-10,0,0.0,0.0,-0.016728556774244598,0.004572062968330976,0.9875866851332032
2011-02-14,-1,-0.0027241735692495614,-0.002214830282357419,-0.016728556774244598,0.004239700562426448,0.9886535597107791
2011-02-16,-1,-0.002368935093578771,-0.001925623981614405,-0.016728556774244598,0.004239700562426448,0.9881882209051743
2011-02-18,-1,-0.0027580441400017514,-0.0022583063761583175,-0.016728556774244598,0.004548513815642758,0.9863648004424971
2011-02-23,-1,-0.00448334659273976,-0.0038106961613516887,-0.010469670538522033,0.004548513815642758,0.9874284934373982
2011-02-25,-1,-0.004533399089088324,-0.003839144986175059,-0.010469670538522033,0.006639290253304174,0.9869431183476421
2011-03-01,-1,-0.004554535376338691,-0.003908634984832465,-0.010469670538522033,0.011347605664229994,0.9856873231161125
2011-03-03,-1,-0.0034917866966631622,-0.00299969141514754,-0.010469670538522033,0.011347605664229994,0.985068278411056
2011-03-07,-1,-0.004642978714902039,-0.004005941272483264,-0.0072418382376957325,0.014448915331855983,0.9849516596705288
2011-03-09,-1,-0.004396763073890805,-0.003797866810058354,-0.0072418382376957325,0.014448915331855983,0.9852625409702104
2011-03-11,-1,-0.004195168352825344,-0.0036283647486425414,-0.0072418382376957325,0.011347605664229994,0.9860729827671945
2011-03-15,0,0.0,0.0,-0.008248383641023255,0.011347605664229994,0.9859525891999887
2011-03-17,0,0.0,0.0,-0.006932927862470196,0.0095432897236866,0.9866803271093728
2011-03-21,0,0.0,0.0,-0.00879279212566788,0.0095432897236866,0.9865899543163178
2011-03-23,-1,-0.004278977884008846,-0.0037758034662014658,-0.006932927862470196,0.02241557458958751,0.9845755134314599
2011-03-25,-1,-0.0034726438924452224,-0.0030877971242986965,-0.00879279212566788,0.02241557458958751,0.9851313086994667
2011-03-29,-1,-0.0028238173105500468,-0.0025370303002652432,-0.007194261453312208,0.022177692311697417,0.9855365108097507
2011-03-31,-1,-0.000841114730972663,-0.0008285230887268533,-0.010463498570267297,0.010021345065159303,0.9864550778133534
2011-04-04,-1,-0.000820420901216709,-0.0007926825217080618,-0.010463498570267297,0.002189884612235792,0.9877442494856762
2011-04-06,-1,-0.0007256438293036389,-0.0007228454885095262,-0.010894484045598594,0.005441622719597337,0.9872459839516373
2011-04-08,-1,-0.0019021421523175053,-0.0017351209054945348,-0.010454863429432568,0.006033312063362164,0.98841107193812
2011-04-12,-1,-0.0028122557846554054,-0.0025070440188267266,-0.007751163601512012,0.007931351945878365,0.9882654691641906
2011-04-14,-1,-0.0020451120782849184,-0.0018942610050387545,-0.010454863429432568,0.007931351945878365,0.9869891894952189
2011-04-18,-1,-0.0021890197476560017,-0.0019953858729313124,-0.011141128025774933,0.006033312063362164,0.9882049686369117
2011-04-20,1,6.238294989466974e-05,0.00019443477211818937,-0.011141128025774933,0.006033312063362164,0.9899796567029246
2011-04-25,-1,-0.0006234573887017388,-0.0006043027528968094,-0.01226871180607678,0.006033312063362164,0.9893374566594004
2011-04-27,1,0.0013208259227053887,0.0016457486239766104,-0.01226871180607678,0.005290617185759011,0.9898517861083257
2011-04-29,1,0.0006955363655496411,0.0009270782551682627,-0.011502874443043574,0.005290617185759011,0.9903693410567432
2011-05-03,1,0.0007354347809187484,0.0009787200584718601,-0.013958226940535895,0.006127091102470592,0.9876814016454977
2011-05-05,1,0.0007956081963140449,0.0010858746047634471,-0.013958226940535895,0.006127091102470592,0.9881022808746069
2011-05-09,1,0.0011962861315263302,0.0015571096133971034,-0.013958226940535895,0.006940469093365095,0.9878098056279269
2011-05-11,1,0.0015027728515675113,0.0019144940585876723,-0.01589850486747109,0.006274168390807078,0.9873640400590541
2011-05-13,1,0.0004148963525117558,0.0006647680862910787,-0.01589850486747109,0.006274168390807078,0.9876559018658126
2011-05-17,-1,-0.00023703689902895332,-4.778581493437156e-05,-0.01697171790093559,0.006940469093365095,0.9865190642055389
2011-05-19,1,0.0005502623794405772,0.0008443108986084302,-0.01697171790093559,0.007405008518947857,0.9856306955526529
2011-05-23,-1,-0.0003068754137236828,-0.00010074359885684381,-0.006687797272760261,0.008846138811340687,0.9860975195235151
2011-05-25,1,0.00022546547042356978,0.0005031838343044791,-0.006687797272760261,0.007872823272249543,0.9862067475304814
2011-05-27,1,2.145631070157644e-05,0.00027192399979070235,-0.007632701024405164,0.008438642791375652,0.9858397687156957
2011-06-01,-1,-0.0009934882862551535,-0.0008604911520583101,-0.005412188955487085,0.008438642791375652,0.9873372400068251
2011-06-03,-1,-0.0009539431342960941,-0.0008196069178765125,-0.0051520149300918975,0.017115843359978816,0.9854792139977903
2011-06-07,-1,-0.0003421736066481241,-0.0001162734995345542,-0.005963650967375785,0.017115843359978816,0.9861028020586877
2011-06-09,-1,-0.0010929980306059693,-0.0009824061036831687,-0.005963650967375785,0.01973304940485305,0.9843715625912117
2011-06-13,-1,-0.001989825212248356,-0.0019756095239583096,-0.0052165954350842075,0.01973304940485305,0.983643513644545
2011-06-15,-1,-0.0017464742466388231,-0.001743227373505248,-0.005694511193232422,0.017115843359978816,0.9851716927255183
2011-06-17,0,-0.0001744231169425449,6.69013512963842e-05,-0.007826442539382092,0.011258678049619022,0.9866170751318142
2011-06-21,1,0.0008848430314480128,0.0012926807837400525,-0.007826442539382092,0.011258678049619022,0.9867102412158079
2011-06-23,1,0.0010984267749366153,0.0015108804179009632,-0.007826442539382092,0.011258678049619022,0.9870529227468402
2011-06-27,-1,-0.0015126067534125243,-0.0014518526974868977,-0.009133057611025938,0.009562203208647466,0.9824003998484927
2011-06-29,1,0.0006191616308134323,0.0006252650269951946,-0.018883115242637402,0.004557090499333735,0.981681581202629
2011-07-01,1,0.0018601153683926474,0.0020538131042409937,-0.018883115242637402,0.002859425767879343,0.982162687791844
2011-07-06,0,0.0,0.0,-0.021784221938952242,0.002859425767879343,0.9805317561584779
2011-07-08,0,0.0,0.0,-0.02380710970694739,0.002859425767879343,0.9816009077423199
2011-07-12,1,0.0008637446759023408,0.0010406929201245653,-0.02380710970694739,0.003604675062592719,0.9768508458536239
2011-07-14,1,9.213721494544477e-05,0.00016234801659546931,-0.026350926466418963,0.00409598875612026,0.9754844399557747
2011-07-18,-1,-0.0010494287847187945,-0.0009045305919669504,-0.026350926466418963,0.005847074439609471,0.9747725501766101
2011-07-20,0,-3.8148377383297065e-06,5.077250492771676e-06,-0.026350926466418963,0.004412755060718103,0.9750469553374962
2011-07-22,-1,-0.00039294249290077344,-0.00030162093359809597,-0.030026537139112748,0.003710263830792,0.9714283742443959
2011-07-26,-1,-0.002380979937837036,-0.002101249449846672,-0.026350926466418963,0.005094248170965498,0.9743482606351516
2011-07-28,-1,-0.0039568356346358115,-0.0034318173750307337,-0.02792151644958673,0.007871692598436673,0.974373139800772
2011-08-01,-1,-0.004289646843083006,-0.0037483241003752506,-0.02792151644958673,0.016998011563045482,0.9713305842190801
2011-08-03,-1,-0.005551615885247481,-0.004874494240349342,-0.025351541469861308,0.016998011563045482,0.9724673191449806
2011-08-05,-1,-0.0066921449931347105,-0.005861424128694191,-0.025834832179005215,0.016998011563045482,0.9721000941028424
2011-08-09,-1,-0.007450885474839268,-0.006542233013256885,-0.019517741316887646,0.016998011563045482,0.9762552034436605
2011-08-11,-1,-0.00621324056904205,-0.005522888121899332,-0.019517741316887646,0.013164762972508508,0.977793232647505
2011-08-15,-1,-0.005486054292759806,-0.0048426841585677135,-0.019517741316887646,0.012776475133020555,0.9786139630208853
2011-08-17,-1,-0.00618442061677724,-0.005487082575083152,-0.019517741316887646,0.018914828732543312,0.9755682979951449
2011-08-19,-1,-0.007833260445560394,-0.006965345359638581,-0.012071730278933095,0.018914828732543312,0.9786344004694222
2011-08-23,-1,-0.005139257744986678,-0.0046464778157125,-0.014212237983733776,0.014163988786094844,0.9796086119802173
2011-08-25,-1,-0.005837502249755161,-0.005288703665684168,-0.014212237983733776,0.015119352306386658,0.9781940674107175
2011-08-29,-1,-0.0032154919525591535,-0.0029794065963707904,-0.014212237983733776,0.021115505272641565,0.9783493838491243
2011-08-31,-1,-0.004157406235621067,-0.0037681113705657007,-0.021157685074191013,0.021115505272641565,0.9768844134933582
2011-09-02,-1,-0.00551136693162676,-0.0049563535385389506,-0.03141844115700072,0.021115505272641565,0.9754262680408498
2011-09-07,-1,-0.004377661278960145,-0.0039616467870613485,-0.03141844115700072,0.027676515954165586,0.9727060872910102
2011-09-09,-1,-0.00577187432505129,-0.005210421395802475,-0.01776761406563909,0.027676515954165586,0.9724554339978304
2011-09-13,-1,-0.0033016375231297076,-0.0031423658253021377,-0.01776761406563909,0.03054644767777867,0.9709888651432509
2011-09-15,-1,-0.0015205802213854097,-0.001496859308575027,-0.01776761406563909,0.026134840576229626,0.9730290252744823
2011-09-19,-1,-0.0013743903843280842,-0.0012610944451715569,-0.030032264518289005,0.027025529416516612,0.9711846691376776
2011-09-21,-1,-0.00353724021672773,-0.0033579004847681163,-0.01432435829141362,0.028593488064831755,0.9710928363580779
2011-09-23,-1,-0.003817444606260132,-0.003621325449398831,-0.006790702586905803,0.028593488064831755,0.973472467434909
2011-09-27,-1,-0.0018034474646262547,-0.0017564508135445973,-0.012291595339307716,0.028593488064831755,0.9742926693286484
2011-09-29,-1,-0.0019531450824214823,-0.0018974271712173401,-0.006790702586905803,0.033521370073854195,0.9737172364544955
2011-10-03,-1,-0.004149009284927444,-0.003952101693770346,-0.003416223526949557,0.033521370073854195,0.9754539472355205
2011-10-05,-1,-0.0014838367741328747,-0.0014120630509210123,-0.006790702586905803,0.026149268059357834,0.979098753303957
2011-10-07,-1,-0.001365246346145053,-0.0013107968668590049,-0.006059918147990018,0.02553034915607263,0.9792911415720378
2011-10-11,1,0.0007875240117347208,0.0011776905976003764,-0.006059918147990018,0.02321468914884639,0.9815666628714051
2011-10-13,1,0.0007877233237157187,0.0011177761182715764,-0.010099242022560361,0.02031336790667676,0.9802951802289319
2011-10-17,1,0.000937382474046222,0.0013226532877259653,-0.010099242022560361,0.018897703900969974,0.9805731118446693
2011-10-19,1,0.001993582433478141,0.0024965636016565096,-0.021301852835648036,0.014816654761159342,0.9814786834139171
2011-10-21,0,0.0,0.0,-0.021583924588546827,0.01217396043741737,0.9811230863640317
2011-10-25,0,0.0,0.0,-0.021583924588546827,0.0080588345473192,0.9824616398592055
2011-10-27,0,0.0,0.0,-0.021700180556742166,0.006364674451054357,0.9839212065942055
2011-10-31,0,0.0,0.0,-0.021700180556742166,0.0075882562931457835,0.9834315566745957
2011-11-02,0,0.0,0.0,-0.0201604538492936,0.0075882562931457835,0.982147912993494
2011-11-04,1,0.0027860170240993584,0.0032897622434527266,-0.0201604538492936,0.0052703615826716925,0.9825697296885917
2011-11-08,0,0.0,0.0,-0.0201604538492936,0.0021365847886795192,0.9831476122910185
2011-11-10,0,0.0,0.0,-0.0201604538492936,0.0052703615826716925,0.9826633826517689
2011-11-14,0,0.0,0.0,-0.021700180556742166,0.0010536268600994628,0.9820796210694058
2011-11-16,0,0.0,0.0,-0.021700180556742166,0.0010536268600994628,0.9816865919412354
2011-11-18,0,0.0,0.0,-0.02073631420516535,0.0010536268600994628,0.9818483519318469
2011-11-22,1,0.00244788169395694,0.00316372886543571,-0.02073631420516535,0.0052703615826716925,0.9799068185625339
2011-11-25,0,0.0,0.0,-0.01607151497015544,0.011962374104521615,0.9808213658602105
2011-11-29,0,0.0,0.0,-0.02135845276586051,0.006581259448340737,0.981214362112441
2011-12-01,0,0.0,0.0,-0.02135845276586051,0.006581259448340737,0.9834708249893972
2011-12-05,0,0.0,0.0,-0.02135845276586051,0.011962374104521615,0.9818218206913368
2011-12-07,1,0.0036525800862426535,0.004294930328584822,-0.02135845276586051,0.014397843946582358,0.9795237419294923
2011-12-09,1,0.0047475245197458335,0.005611960603794324,-0.011490659625737561,0.014397843946582358,0.9804624251877021
2011-12-13,1,0.002603404721241728,0.0032112844514706937,-0.005697250438758369,0.014397843946582358,0.9840976500990266
2011-12-15,0,0.0,0.0,-0.003998944492270891,0.014397843946582358,0.9846789677572811
2011-12-19,-1,-0.000525432853834835,-0.00041243772977919376,0.00013444326586671413,0.01806050936680058,0.9845335428034235
2011-12-21,0,0.0,0.0,0.0001433312533150371,0.014397843946582358,0.987093273280717
2011-12-23,0,0.0,0.0,0.0001433312533150371,0.01629940052570482,0.9869322288759248
2011-12-28,0,0.0,0.0,0.0007401682099371887,0.01629940052570482,0.9872944668196255
2011-12-30,0,0.0,0.0,0.00028260283057394725,0.013174325376817,0.9876711061315563
2012-01-04,0,0.0,0.0,-0.0007363990445967217,0.0120241527657137,0.9885301594000923
2012-01-06,0,0.0,0.0,-0.0007363990445967217,0.0120241527657137,0.9893317505479665
2012-01-10,0,0.0,0.0,-0.0019332671449582349,0.009372584488988745,0.9914882563625216
2012-01-12,-1,-0.0013623293165430156,-0.0011664288331057807,-0.0039955922104168325,0.009372584488988745,0.9910169658732024
2012-01-17,1,0.00024929796962821983,0.00035690994540562605,-0.009382030416824626,0.009718410817449766,0.990381689309111
2012-01-19,1,0.0005398576378428267,0.0006385155580024952,-0.009382030416824626,0.013174325376817,0.9880812208288873
2012-01-23,1,0.0017542109316895074,0.0021381208206513857,-0.009382030416824626,0.013174325376817,0.9878352371770296
2012-01-25,1,0.002232502439901363,0.002641221678670799,-0.009628764605627213,0.001737354054873347,0.9881730327624947
2012-01-27,1,0.0005583939470997914,0.0005924431539209141,-0.009277128022022517,0.00442126532508196,0.9894480498050916
2012-01-31,1,0.0005768719963055246,0.0006677591184211012,-0.009628764605627213,0.0063437437608600215,0.9891614352930042
2012-02-02,-1,-0.0010727319697763347,-0.000873547609335898,-0.009628764605627213,0.0063437437608600215,0.9891223617326833
2012-02-06,-1,-0.00036233964155669014,-0.00028757861959207234,-0.009830490820901833,0.003481758682052302,0.9896623708546198
2012-02-08,1,0.0028544395916672485,0.0032166444724790796,-0.009830490820901833,0.009646967846994817,0.9883952344461916
2012-02-10,1,0.0013264010572912664,0.0013470221740893658,-0.007702370007659342,0.011528803448741458,0.9886282187531508
2012-02-14,1,0.00013654217368737418,0.0003473606529346162,-0.002590960523863511,0.011528803448741458,0.9886424514699266
2012-02-16,-1,-0.0005425202541967674,-0.00031257766482796826,-0.007310938842990942,0.0086263875502989,0.9910704377197865
2012-02-21,1,0.00019647454599150963,0.0002491518765830732,-0.00829221229640538,0.0086263875502989,0.9910403256021644
2012-02-23,-1,-0.0001191928350299013,-5.3959734179579046e-05,-0.00829221229640538,0.0086263875502989,0.9908892188054954
2012-02-27,-1,-0.0021055101159742273,-0.0015843325702120084,-0.00829221229640538,0.00911109170734472,0.9897470407405208
2012-02-29,1,0.00028161151550853535,0.0003723023265555573,-0.00829221229640538,0.00911109170734472,0.9899012978010359
2012-03-02,-1,-0.0004922457924836372,-0.0003248074560585634,-0.0048298506587938096,0.00911109170734472,0.9908087015699886
2012-03-06,1,5.2607697073045316e-05,0.00021929076449300592,-0.0048298506587938096,0.00911109170734472,0.9910855629187642
2012-03-08,1,0.0007782630067574613,0.0008606894369260587,-0.00829221229640538,0.005516706760716518,0.9914465740785644
2012-03-12,1,0.0010793633130197489,0.001254496886730354,-0.010894173191692015,0.005019408991001081,0.9894030225390293
2012-03-14,1,0.0024504654153950475,0.0028842006629212326,-0.013201903977825627,0.005019408991001081,0.988067195728607
2012-03-16,1,0.002600918941098882,0.0030768912209393805,-0.013262588839751295,0.005019408991001081,0.9878564264285302
2012-03-20,1,0.002263697908109005,0.00270527613126985,-0.015686902363441915,0.005516706760716518,0.987226605108464
2012-03-22,1,0.0026112651237209412,0.00316126631557057,-0.015686902363441915,0.005516706760716518,0.987329679750968
2012-03-26,1,0.003355559976458133,0.003890954532663821,-0.015686902363441915,0.005516706760716518,0.9874737014592858
2012-03-28,1,0.002253308079322064,0.0027146272006055264,-0.013321235920904943,0.006818811088290078,0.9883239107855004
2012-03-30,1,0.0026826988355160676,0.0031684277019137976,-0.016356307113260082,0.00751062089551576,0.9869618526192281
2012-04-03,1,0.002857788034934998,0.0033847767453121236,-0.016356307113260082,0.00900280729137848,0.9865060374059473
2012-04-05,1,0.0018437540978527935,0.0022197617494196602,-0.01996925307304247,0.00900280729137848,0.9851010606180168
2012-04-10,-1,-0.00020379438211237593,-0.0001339055924121714,-0.013814699427262165,0.00900280729137848,0.98775441097011
2012-04-12,-1,-0.0013673102840521044,-0.0011357503082387338,-0.015952747603687544,0.00751062089551576,0.9883096309302508
2012-04-16,-1,-0.0023981676254533823,-0.0020199327398917975,-0.015952747603687544,0.007077937871735296,0.9892934962966102
2012-04-18,-1,-0.0030832368789102957,-0.002574105757955983,-0.012562273564356663,0.002764895081308033,0.9904259509593187
2012-04-20,-1,-0.003223152242521006,-0.0027262790795008355,-0.015952747603687544,0.002764895081308033,0.9893370714021086
2012-04-24,-1,-0.0030328920175602472,-0.002567346575643087,-0.015952747603687544,0.00440910921458628,0.9883348286423312
2012-04-26,-1,-0.0013701661829913045,-0.0011571423891138064,-0.015952747603687544,0.0018752855289250277,0.9884805457547944
2012-04-30,-1,-0.001679384956497552,-0.0014323374635834968,-0.012562273564356663,0.0018752855289250277,0.9890352025839908
2012-05-02,-1,-0.002116902046410369,-0.0017802338302154823,-0.016911528726901794,0.0009370394815447611,0.988746060772123
2012-05-04,-1,-0.003598675178735931,-0.00309813787296027,-0.015330250007964686,0.0009370394815447611,0.989141917281435
2012-05-08,-1,-0.00393174096602817,-0.003299339760287558,-0.015330250007964686,0.004084458439094104,0.986707818168572
2012-05-10,-1,-0.006886291654792572,-0.00587215949050492,-0.010504689657243493,0.009805287139797681,0.9866505332577628
2012-05-14,-1,-0.007082624303850956,-0.005997650648168295,-0.012214411647219228,0.018490707947788846,0.9845601872031845
2012-05-16,-1,-0.0067450073573987555,-0.005765934660850056,-0.01565295772442444,0.018490707947788846,0.9836046683226203
2012-05-18,-1,-0.007320558649914738,-0.0063206203520899,-0.01154878819131719,0.018490707947788846,0.9832896023497584
2012-05-22,-1,-0.006467907185484314,-0.0054594322684321465,-0.01154878819131719,0.018490707947788846,0.9840690973189251
2012-05-24,-1,-0.006482461073765077,-0.005545748904327124,-0.01565295772442444,0.018490707947788846,0.9828375063760776
2012-05-29,-1,-0.006740301748784039,-0.005801621961316547,-0.017309616576630042,0.012299131697034633,0.9826905966686773
2012-05-31,-1,-0.006646200059538297,-0.005764138198700469,-0.01565295772442444,0.012299131697034633,0.9832494276386851
2012-06-04,-1,-0.006803186213913129,-0.005999887581617331,-0.0095413060836496,0.01992049853656801,0.9815801116382648
2012-06-06,0,0.0,0.0,-0.012645937320263045,0.010760994879205774,0.9848673098939307
2012-06-08,0,0.0,0.0,-0.016066317188288333,0.009093642168894987,0.9848019760220075
2012-06-12,0,0.0,0.0,-0.01680422461554156,0.005199718886732348,0.9855108867154826
2012-06-14,0,0.0,0.0,-0.012477473333233551,0.006885325591262044,0.9851232096851005
2012-06-18,-1,-0.0012768601820932783,-0.0012211146656638363,-0.014452709687523893,0.004463613360854701,0.984997302927134
2012-06-20,-1,-0.0012785207097797562,-0.001187877684549659,-0.014452709687523893,0.004463613360854701,0.984780466571468
2012-06-22,-1,-0.002836826844569464,-0.002544202520181178,-0.013826620708234883,0.007648801343930853,0.9855269771040283
2012-06-26,-1,-0.0034429460996500865,-0.003054443427137902,-0.011947634003751671,0.007648801343930853,0.9863425513180129
2012-06-28,-1,-0.003084902056520048,-0.0027587010199959343,-0.011947634003751671,0.017385819039148112,0.9823934884234706
2012-07-02,-1,-0.0025427779089592386,-0.002289120335384672,-0.010992601815598208,0.013482811760232095,0.9847124371926806
2012-07-05,-1,-0.0023673690222756655,-0.0021232284700685423,-0.011602889108791424,0.008080190966950751,0.9843378830078217
2012-07-09,-1,-0.003073444434357965,-0.0027512985974044763,-0.010368242226724491,0.017385819039148112,0.9833330362802184
2012-07-11,-1,-0.002510732295169087,-0.0023960526693349235,-0.008068754155063147,0.017385819039148112,0.9841009567201116
2012-07-13,-1,-0.001048752886512167,-0.001025580972871003,-0.008068754155063147,0.013434482135918299,0.9851380599205977
2012-07-17,-1,-0.0016599120814103643,-0.0016161040799554938,-0.004339520921531529,0.013434482135918299,0.9855862423992106
2012-07-19,-1,-0.0005725771279519419,-0.0004481597974497062,-0.004339520921531529,0.013434482135918299,0.9866486272979369
2012-07-23,1,0.0002523392720311829,0.00045287742392217175,-0.004339520921531529,0.012612379811017944,0.9872256145349161
2012-07-25,-1,-0.00121230674242942,-0.0011835297190097714,-0.004509400914499771,0.012612379811017944,0.9868482356350251
2012-07-27,1,0.001725766232782103,0.00206259852154317,-0.009153217313128768,0.007009171664966552,0.9898144900235623
2012-07-31,1,0.0008867739718087793,0.0011630031655400896,-0.006622778870236431,0.007009171664966552,0.9901267241401137
2012-08-02,1,0.00039668075025317095,0.0006376162584530346,-0.005905913597399751,0.007009171664966552,0.9915773389932838
2012-08-06,1,0.0019223324324532593,0.002421921118686572,-0.008527335651264288,0.006161684099751691,0.9915122104004842
2012-08-08,1,0.0023922575640374032,0.0029480291717883388,-0.008527335651264288,0.006161684099751691,0.9898528546108178
2012-08-10,1,0.0032612221774758338,0.003931945719332978,-0.008527335651264288,0.004375201856710973,0.9891654679279684
2012-08-14,1,0.0025969714931436644,0.003162709976599576,-0.008527335651264288,0.004749554150093801,0.9894662882585613
2012-08-16,1,0.003721951055023209,0.004488326259854252,-0.008527335651264288,0.006789136676331326,0.9884455916574432
2012-08-20,1,0.0028827297827623837,0.0034982058211084277,-0.010595752423365535,0.006789136676331326,0.9881579374914057
2012-08-22,1,0.0025785868720729394,0.0031650275324052995,-0.008499942635794691,0.006789136676331326,0.9888440210401528
2012-08-24,1,0.0026574289857555257,0.0032527021290650352,-0.008499942635794691,0.0055431453409,0.988782188043311
2012-08-28,1,0.0020463403969137946,0.0025488042334068884,-0.010655638977148631,0.0055431453409,0.9879016379233857
2012-08-30,1,0.0011418352512207958,0.001431047813187703,-0.010655638977148631,0.006991725502776872,0.9880300105488647
2012-09-04,1,0.001170481999049901,0.0014804763729321237,-0.008318527364921344,0.006991725502776872,0.9887948851803456
2012-09-06,1,0.002932338481010853,0.0034515033801431278,-0.008318527364921344,0.006991725502776872,0.9902444226113644
2012-09-10,1,0.002456036115944857,0.002888171180365661,-0.008318527364921344,0.005445780026917806,0.9907368429320007
2012-09-12,1,0.0025641701118928094,0.0029916463030628332,-0.011047972138259764,0.005445780026917806,0.9892571949971658
2012-09-14,1,0.0037638678401737072,0.004351164473706725,-0.011047972138259764,0.004784887220912201,0.9900877913880255
2012-09-18,1,0.0030240305670837836,0.0035679625138518665,-0.008536301387527093,0.005445780026917806,0.9912301458208204
2012-09-20,1,0.002886606170548362,0.003385872789714254,-0.007183698951008836,0.005445780026917806,0.991465238830856
2012-09-24,1,0.002751778245189352,0.0032660533444142962,-0.006956060245192561,0.006265663920785854,0.991081180131239
2012-09-26,1,0.0009548154022977365,0.0011293833633488075,-0.006956060245192561,0.006265663920785854,0.9910096099535135
2012-09-28,1,0.0009265805263350901,0.001102816059347624,-0.006956060245192561,0.013293375101910426,0.9869661564080721
2012-10-02,1,0.0007479067431665893,0.0008384261137727822,-0.006956060245192561,0.013293375101910426,0.9856277197619271
2012-10-04,1,0.0015535004812194438,0.0017601636417675162,-0.0077624332785136115,0.007971813329032188,0.9860445669026886
2012-10-08,1,0.0007950636984163414,0.000867982304560373,-0.011095605991119813,0.007971813329032188,0.9847603628876764
2012-10-10,-1,-0.0004974939774769804,-0.0003683175436523107,-0.007423268877238192,0.007971813329032188,0.9857105779297779
2012-10-12,-1,-6.391037854755713e-05,-2.2359577136789227e-05,-0.007423268877238192,0.0057009075144235175,0.985789620278923
2012-10-16,1,0.00032258514564388716,0.0003272925247431795,-0.009511407471227572,0.0025484232992143687,0.9849778929517092
2012-10-18,1,0.0004584068365040833,0.0004972972458125178,-0.009511407471227572,0.006716603788872823,0.9845700544045296
2012-10-22,1,0.0004011159016614572,0.0004187511528795579,-0.007423268877238192,0.004626922800704193,0.9856796317654826
2012-10-24,-1,-0.0018403934012893727,-0.0015056177453776952,-0.004923569484632205,0.006760604233859076,0.9860905919419276
2012-10-26,1,0.0015103770903825257,0.0016651562597676162,-0.004923569484632205,0.005066364818707691,0.9901800772767408
2012-11-01,1,0.003219286646161044,0.0036245696998153934,-0.005526407719443709,0.004626922800704193,0.991357817344373
2012-11-05,1,0.002573013315122374,0.0029245808977523126,-0.005526407719443709,0.004626922800704193,0.99132061616163
2012-11-07,1,0.0011868363058736918,0.0013118841388064667,-0.005526407719443709,0.005066364818707691,0.9919653337746205
2012-11-09,1,0.001048591152210733,0.0011566995644481553,-0.0030914322408300055,0.011721211239965097,0.991507239916921
2012-11-13,1,0.0010823471662458244,0.0012026059637287427,-0.0030914322408300055,0.011989409848197618,0.9903978394625965
2012-11-15,1,0.0003295638630404174,0.00034404442904217587,-0.0030914322408300055,0.011989409848197618,0.9909837433733638
2012-11-19,1,0.0002362375146293457,0.00027634656941090353,-0.0030914322408300055,0.01304014724944003,0.9904367549087746
2012-11-21,1,0.0003515387590649711,0.0003820730973096027,-0.0030914322408300055,0.01304014724944003,0.990585685326986
2012-11-26,1,0.000570796121002026,0.000581394511537082,-0.004201566591105006,0.01304014724944003,0.9909716625713823
2012-11-28,1,0.0014688403847901916,0.0015911341253433725,-0.004201566591105006,0.010008431473577868,0.991748915489492
2012-11-30,1,0.0003087997697991307,0.0003672811350641333,-0.003908013901327996,0.01304014724944003,0.9912020568787249
2012-12-04,-1,-0.00040078209220588195,-0.0002265517053913725,-0.003908013901327996,0.014314378032135115,0.9901464088970491
2012-12-06,0,0.0,0.0,-0.003908013901327996,0.013308920721013688,0.9905801904176356
2012-12-10,0,0.0,0.0,-0.004800592296075604,0.00936832235298725,0.9912518643813542
2012-12-12,0,0.0,0.0,-0.004321669076634839,0.008523239827551255,0.9923015697274413
2012-12-14,0,0.0,0.0,-0.003908013901327996,0.008523239827551255,0.9928621738312414
2012-12-18,0,0.0,0.0,-0.004321669076634839,0.004688941544244996,0.9929064733998465
2012-12-20,0,0.0,0.0,-0.004321669076634839,0.004688941544244996,0.992802991364675
2012-12-24,0,0.0,0.0,-0.004800592296075604,0.008781985153234535,0.9911631921147193
2012-12-27,-1,-0.0006077075814485606,-0.0005240083460929109,-0.004800592296075604,0.00975823106353253,0.9909469484184145
2012-12-31,1,0.0003543700644266675,0.0004202743823050194,-0.005755626506575554,0.008653209397733015,0.9912170104057145
2013-01-03,0,0.0,0.0,-0.006471346636522207,0.008653209397733015,0.9912261980602166
2013-01-07,0,0.0,0.0,-0.006471346636522207,0.008653209397733015,0.9910018173203236
2013-01-09,0,0.0,0.0,-0.006471346636522207,0.008653209397733015,0.9908201431031458
2013-01-11,1,0.0014114899422901731,0.0016300046886083656,-0.006471346636522207,0.008323926250092145,0.9908577620176412
2013-01-15,1,0.0012665044977583167,0.0014461920343034056,-0.006471346636522207,0.008323926250092145,0.9909619666873518
2013-01-17,1,0.0011572084666512817,0.0012891105452105056,-0.002798103158735548,0.007379314600442466,0.9918440587466298
2013-01-22,0,0.0,0.0,-0.006578806773077415,0.007742601240905007,0.9901958144200984
2013-01-24,0,0.0,0.0,-0.009228572724974645,0.007330598381595516,0.9913382872251604
2013-01-28,0,0.0,0.0,-0.012476641874645438,0.007330598381595516,0.9907766627135993
2013-01-30,1,0.0009965402837399575,0.0010078229903650502,-0.012476641874645438,0.007330598381595516,0.9908747587460007
2013-02-01,1,0.001387691690556044,0.0015203679414691185,-0.0106363375379693,0.006381337532809622,0.9918739988985052
2013-02-05,1,0.0013450959945413145,0.001459841118526021,-0.0046047854796892555,0.006381337532809622,0.9915374936175703
2013-02-07,1,0.0010448758605033552,0.0011175826027215222,-0.0019374943898111253,0.007826696568707813,0.9904565919094073
2013-02-11,1,0.0019133202240875957,0.0021672406298912025,-0.0046047854796892555,0.008150216435502457,0.9902389535888904
2013-02-13,1,0.0016192886517413935,0.001791266150931729,-0.0046047854796892555,0.008708680646444257,0.9895334759904989
2013-02-15,1,0.0015057808557656488,0.0016567405396444685,-0.010726640744449132,0.008708680646444257,0.9888306961289172
2013-02-20,1,0.0006922088882407502,0.0007070417633992809,-0.008043665414915831,0.008708680646444257,0.9897939054774718
2013-02-22,0,-3.1841824794794646e-05,7.676154259870946e-05,-0.007464686944198547,0.009040542276519022,0.9897791571768224
2013-02-26,-1,-0.00020164249194797566,-7.303844225215502e-05,-0.007464686944198547,0.01115842873269301,0.9895796522002079
2013-02-28,1,0.0004852940965895423,0.0005088600534305838,-0.007464686944198547,0.009040542276519022,0.990078675772442
2013-03-04,1,0.0005863294140751836,0.0006109203391683621,-0.007464686944198547,0.009040542276519022,0.9898346195317623
2013-03-06,1,0.0012386289461839624,0.0013337762854582385,-0.008797633439617156,0.008600181263143786,0.9896351414604468
2013-03-08,1,0.0018446545992309815,0.001978737448100532,-0.008797633439617156,0.007503645365058598,0.9910136417608901
2013-03-12,1,0.0015653050129390915,0.0016616899991770636,-0.007464686944198547,0.008600181263143786,0.9903337907393968
2013-03-14,1,0.0022327180837321643,0.0024399789960294635,-0.007464686944198547,0.008126445399427622,0.9901669243796142
2013-03-18,1,0.0017581037854063086,0.0018959600062430965,-0.007464686944198547,0.008600181263143786,0.9883807938682978
2013-03-20,1,0.001505421688377677,0.0016166405372556054,-0.008797633439617156,0.008600181263143786,0.9874513336969674
2013-03-22,1,0.0008841080072230448,0.0009356623589577484,-0.007695412619429172,0.013536899520452377,0.9867483796649483
2013-03-26,1,0.0012537754569911432,0.001295423655883992,-0.0058648481969046685,0.009765933753492495,0.9874639100396608
2013-03-28,1,0.0023022009246503215,0.0025869219040023077,-0.006098837081115282,0.014094632776903166,0.9867918425033895
2013-04-02,1,0.0020612006027925763,0.0023192283143153316,-0.005787673879703728,0.014094632776903166,0.9873878745775143
2013-04-04,1,0.00032787588494153714,0.00035781009009669884,-0.005193992409457211,0.01652554381726069,0.9876883425266445
2013-04-08,1,2.1105060753703712e-05,0.00010623594453208936,-0.005787673879703728,0.017033362455458893,0.9858039667774554
2013-04-10,1,0.0011014910442252624,0.0011329747546911725,-0.005787673879703728,0.014527105888970198,0.9866823477236133
2013-04-12,1,0.00030431906648770195,0.0004214497654630553,-0.005787673879703728,0.014527105888970198,0.9867825471040355
2013-04-16,-1,-0.0011777576436944452,-0.0008974335985102622,-0.005193992409457211,0.014527105888970198,0.989055168474006
2013-04-18,-1,-0.00210870543302848,-0.0017278451498319168,-0.005193992409457211,0.014527105888970198,0.9893956526402473
2013-04-22,-1,-0.0008975587476919705,-0.0006907890158731958,-0.005193992409457211,0.010646220489878625,0.9896017586825346
2013-04-24,-1,-0.0005444491861421727,-0.0004227433568428636,-0.005271988704194082,0.010646220489878625,0.9895793757047936
2013-04-26,-1,-0.0004022876668251086,-0.0002863590589994221,-0.005787251110063058,0.0092715250650881,0.9900507243299658
2013-04-30,-1,-0.0004625797076738684,-0.00032159484529317706,-0.005787251110063058,0.01012105623096396,0.9898109720656689
2013-05-02,1,0.00026491926561410554,0.00032819077339259965,-0.0083959265029672,0.0092715250650881,0.9907049489988808
2013-05-06,1,0.0002079558937250402,0.00022950546599900202,-0.0045867344989695795,0.006399530877842097,0.9926216484480905
2013-05-08,1,0.0007229617555966838,0.0007451797553386535,-0.0083959265029672,0.004149535073595785,0.9922307271891385
2013-05-10,0,-7.211685830932357e-05,3.457032777307972e-05,-0.005608511521401313,0.006399530877842097,0.9916750718368157
2013-05-14,1,0.0005444636529425286,0.0005518420882153008,-0.009632282665016582,0.004149535073595785,0.9909128112309133
2013-05-16,1,0.0006608380126508064,0.000670097035903006,-0.010717988490481292,0.005431805833557678,0.9897844638573658
2013-05-20,1,0.0015972077817984222,0.0017211174846340496,-0.010717988490481292,0.010862934414385933,0.9903164486084474
2013-05-22,1,0.0012148112709999442,0.0012834184881497417,-0.012626521344500348,0.010862934414385933,0.9886385086543512
2013-05-24,1,0.0009564785151657952,0.0010170094859400162,-0.012727616591277791,0.010862934414385933,0.9882302535024994
2013-05-29,1,0.0009008514738310663,0.000925829398077458,-0.012727616591277791,0.012036227582782782,0.9874566448895162
2013-05-31,1,0.00045894453883733985,0.000497598350969982,-0.012727616591277791,0.012665321400508245,0.9872073291661717
2013-06-04,1,0.0003194921696433164,0.00040046324186399063,-0.012727616591277791,0.012665321400508245,0.9865573637779328
2013-06-06,0,-8.235600117925944e-05,3.307404672400944e-05,-0.012626521344500348,0.01445985700734833,0.9867688327861591
2013-06-10,1,0.0001976795241254025,0.00028279366377731104,-0.012626521344500348,0.012665321400508245,0.9874295570885229
2013-06-12,-1,-0.0005009366237750945,-0.000346701872503069,-0.006556348502371516,0.01445985700734833,0.9866028897119079
2013-06-14,-1,-0.0003580545871538051,-0.00021696956839656903,-0.0040674290342311474,0.012665321400508245,0.9878238092057027
2013-06-18,1,0.0010599191221790107,0.0011477018729691099,-0.006217170288424764,0.011860477573368913,0.9886947581521018
2013-06-20,1,0.00013952308119645495,0.00017415081275205243,-0.00310816272476481,0.011860477573368913,0.9900723219274811
2013-06-24,-1,-0.0005078982435080591,-0.0003956797893051118,-0.00310816272476481,0.011860477573368913,0.9904668093670962
2013-06-26,1,0.00041934874990580715,0.00045886534265385096,-0.0040674290342311474,0.009297617619710296,0.9911598102339119
2013-06-28,1,0.0010563387437203418,0.0010917973364027687,-0.0040674290342311474,0.007333988401434328,0.9919636532536671
2013-07-02,1,0.0009915498603998438,0.000993842426157176,-0.00310816272476481,0.005842545138538879,0.9924271809934483
2013-07-05,1,0.001384679899000241,0.0014653058284254384,-0.0019456279433784605,0.005842545138538879,0.9932720300738999
2013-07-09,1,0.0017224960823528797,0.0018548660678578866,-0.0037013251725870637,0.0041580184643044745,0.992787656813694
2013-07-11,1,0.002591040143020069,0.002836535010422131,-0.005118858703492512,0.0041580184643044745,0.9939604471902704
2013-07-15,1,0.002353970101342072,0.0025274446882850654,-0.005118858703492512,0.0041580184643044745,0.9941495102425052
2013-07-17,1,0.002003023990334694,0.0021192165229875397,-0.005240845516901769,0.0037252340277938315,0.9940552817296961
2013-07-19,1,0.0020986436009278317,0.00220265213401922,-0.008167326787847182,0.002364779843620731,0.993301666941922
2013-07-23,1,0.002008170760164205,0.002132341759472758,-0.006436596902997154,0.0029666353907681436,0.9933029329836973
2013-07-25,1,0.002035266480574,0.0021285641132869557,-0.006436596902997154,0.00553947193077634,0.9930026212960437
2013-07-29,1,0.002237257569103137,0.0023988408552817093,-0.007348965409836071,0.00553947193077634,0.9926257137867325
2013-07-31,1,0.002841879405511209,0.0031497396987891623,-0.008204312387860528,0.006041168529105768,0.9912838057902963
2013-08-02,1,0.0030227948163533422,0.0033304328025215704,-0.008204312387860528,0.0019473515466128686,0.9909443399757717
2013-08-06,1,0.002691689074304187,0.002987778752817471,-0.007348965409836071,0.006041168529105768,0.9915672319855129
2013-08-08,1,0.0022915984486232676,0.0025072082098258064,-0.007227913930435827,0.007523209495193526,0.9915679823838879
2013-08-12,1,0.002254124475341933,0.0024454292067170704,-0.007227913930435827,0.008146579021244459,0.9906992189929017
2013-08-14,1,0.0017712586322150528,0.001896895433480469,-0.006750563797366798,0.008146579021244459,0.9913254590073973
2013-08-16,1,0.0012424752762390844,0.0012897715781300155,-0.006169735738287975,0.009545379456871686,0.991725567770708
2013-08-20,1,0.0013676736500935292,0.0014496967846094385,-0.0028521913975409602,0.010486608881649895,0.9917981124733639
2013-08-22,1,0.0014074275965745419,0.001466280800169979,-0.0028521913975409602,0.009545379456871686,0.9925951582572848
2013-08-26,1,0.00024110101682398976,0.0004123661951294438,-0.005941509038812286,0.009545379456871686,0.9922408326667985
2013-08-28,1,8.104889020194895e-05,0.0002806132952502446,-0.005878519063378199,0.009545379456871686,0.9933942921950007
2013-08-30,1,0.00033385300180526764,0.00044694174203321473,-0.005878519063378199,0.009545379456871686,0.9930423239667521
2013-09-04,1,0.0003036589315235331,0.0004382745458096186,-0.005878519063378199,0.007037369963041937,0.9934990405448433
2013-09-06,0,-0.00014318552361404285,5.934419934590764e-05,-0.005878519063378199,0.005579347500374319,0.9938584885078066
2013-09-10,0,-0.00019608996734683175,5.321372451232219e-05,-0.006568308015962685,0.0019283324910924747,0.994167592865537
2013-09-12,1,0.00020044794113562893,0.00035584553886112193,-0.006568308015962685,0.0036978427074523686,0.9927507742606361
2013-09-16,1,0.0002693285918324469,0.00042896622636501264,-0.006568308015962685,0.003918146986788294,0.9928475767266124
2013-09-18,1,0.000939029714163121,0.0010086394822220817,-0.007566739515781329,0.003918146986788294,0.9919068519916572
2013-09-20,1,0.0006189340898592839,0.0007170401202114859,-0.00724447532780379,0.004048478089721927,0.9921684338079421
2013-09-24,1,0.00043493663933574117,0.0005020433468683826,-0.0063712627962032005,0.007222188813707719,0.9922854430736594
2013-09-26,-1,-0.00036400656868352177,-0.00018714214107080305,-0.004311665992707608,0.007222188813707719,0.9921265303851992
2013-09-30,-1,-0.0003483277883101789,-0.00022393676351181247,-0.004148195648638567,0.007222188813707719,0.9923954688072165
2013-10-02,-1,-0.000570152026948994,-0.00038111407796157144,-0.007547404355608604,0.007222188813707719,0.9902564705404439
2013-10-04,-1,-0.0006734262929301107,-0.0004818025219729096,-0.0070569933234014785,0.008651895415537144,0.9900614764465796
2013-10-08,-1,-0.001661802408263111,-0.001354817086663395,-0.000493936524852716,0.00938446619694877,0.98991488466829
2013-10-10,-1,-0.00023044330671217583,-0.00014705002796268783,-0.005927308999807895,0.008651895415537144,0.9909616945313521
2013-10-14,1,7.167602255703825e-05,0.00013759849733790857,-0.005927308999807895,0.009240782963780305,0.9909646255812423
2013-10-16,0,-2.6346404353981784e-05,8.226048115122397e-05,-0.004356185592541355,0.006820136677502156,0.9920161664166026
2013-10-18,1,0.00045480151341420526,0.0004989677520655305,-0.004356185592541355,0.00648040982409615,0.9921959338228059
2013-10-22,1,0.0006888757030397676,0.0007306762222191131,-0.007435458762010267,0.005035766105498301,0.9915354216232684
2013-10-24,1,0.0006890458909230327,0.0007256881295804578,-0.007435458762010267,0.00648040982409615,0.9907214010154053
2013-10-28,0,-5.090206295702091e-05,0.00010477727244220174,-0.007435458762010267,0.00648040982409615,0.9908560885938462
2013-10-30,-1,-0.001738914122497924,-0.0013911317876174442,-0.0042993288353823916,0.00648040982409615,0.9922566850186424
2013-11-01,-1,-0.001676702034681261,-0.0012933796043715898,-0.0042993288353823916,0.005951663948770187,0.9928486937115044
2013-11-05,-1,-0.0007045352250689163,-0.0004563375746917866,-0.007435458762010267,0.004357160605470122,0.992588533239644
2013-11-07,-1,-0.0007325666873549021,-0.0005264703390821892,-0.0042993288353823916,0.005810986336429061,0.9922261048398566
2013-11-11,-1,-0.0005376939101396496,-0.0003115391218197226,-0.0042993288353823916,0.0044818581407916926,0.9928952514283006
2013-11-13,-1,-0.0013723587847240606,-0.001008646242936814,-0.00690397722219171,0.0044818581407916926,0.9923123747752522
2013-11-15,-1,-0.0005507273901413094,-0.00033170540565523115,-0.00690397722219171,0.0044818581407916926,0.9915731430170728
2013-11-19,-1,-0.0011005868830232652,-0.0008479871435549404,-0.002340938409389707,0.005810986336429061,0.9921230694924971
2013-11-21,-1,-0.0003432413117418875,-0.0001884790280053622,-0.002340938409389707,0.005768730068828957,0.9927745362044202
2013-11-25,0,-0.0001029210555557949,1.3999759873554215e-05,-0.002340938409389707,0.005460406057232555,0.9927226692162027
2013-11-27,1,0.0004910218854086008,0.0005227851804424025,-0.0034199870533944132,0.005460406057232555,0.9925147853338742
2013-12-02,1,0.0006865327738657035,0.0007156658371844453,-0.002620107091426179,0.005902102906222689,0.9921938585166963
2013-12-04,1,0.00021543592361414582,0.00022667951718137347,-0.0015721577893715486,0.005902102906222689,0.9928506750057592
2013-12-06,1,0.0006355957864834286,0.0006657335940520777,-0.0015721577893715486,0.005902102906222689,0.9937040090145518
2013-12-10,1,0.0009743518647908963,0.0010775837301565945,-0.002190027261626484,0.005902102906222689,0.9938838126380143
2013-12-12,-1,-0.00022703490696410103,-0.00017223087631933402,-0.002190027261626484,0.005902102906222689,0.9937454165502744
2013-12-16,1,0.0007937591760974339,0.0008889236219066905,-0.002190027261626484,0.0056463301474728635,0.9947469312419919
2013-12-18,1,0.0010203966284598124,0.0011398887790167117,-0.0011414044444489268,0.0056463301474728635,0.9949427128329545
2013-12-20,1,0.0008122562530630698,0.0009068203137590236,-0.0026588030165105962,0.005422471822432168,0.9949868748284472
2013-12-24,1,0.0013415270215520452,0.00153323999617988,-0.00475166633430509,0.004946387323698272,0.9929982825312255
2013-12-27,1,0.0011761135555552393,0.0013168651705006613,-0.0038263145535226426,0.004922300211381688,0.9933061355054787
2013-12-31,1,0.0014787604876203091,0.0016524323118644138,-0.004991622984485877,0.00463588777352734,0.992770302008127
2014-01-03,1,0.0012600532288407078,0.0014213345973223069,-0.007769906856524452,0.00463588777352734,0.9902841198028565
2014-01-07,1,0.0010635500851348385,0.001170048110839785,-0.007769906856524452,0.004922300211381688,0.9882675703322927
2014-01-09,1,0.0007932645370977932,0.0008392006314884385,-0.007769906856524452,0.006802123786817308,0.9865790173581016
2014-01-13,1,0.0004029086538417273,0.0004029311775900845,-0.007465156986285441,0.009643841743810734,0.9861569649508329
2014-01-15,1,0.0007871345278066023,0.0008527924569514507,-0.007465156986285441,0.010842689152698842,0.9861226086208166
2014-01-17,1,0.0008887301915427413,0.0009413677347852167,-0.007465156986285441,0.013164095649635745,0.9846888339651444
2014-01-22,1,0.00023250035318493617,0.00028351554973002807,-0.008568930707952699,0.013164095649635745,0.9845329717217111
2014-01-24,-1,-0.0016925620451130054,-0.0013958432307767368,-0.0006375048404528412,0.016978511651823763,0.9843681579183028
2014-01-28,-1,-0.0011445711717371874,-0.000924783820996093,-0.0035802546876005184,0.016978511651823763,0.9846651671029416
2014-01-30,-1,-0.0008478873322992232,-0.0006577439290122157,-0.0003051113030713878,0.0147165978942637,0.9846419819716445
2014-02-03,-1,-0.0020086257139463387,-0.0017318195467503738,0.0024743868056842527,0.0147165978942637,0.9857147682895675
2014-02-05,-1,-0.0008477614565483558,-0.000705151209864555,-0.0003051113030713878,0.012328786826226321,0.9881011681708873
2014-02-07,1,0.0003809751015793534,0.00040674166940721224,-0.00383890945613225,0.012022652710432437,0.9902082890350036
2014-02-11,1,0.0006894290181463395,0.0007873923764776401,-0.0003566505672116206,0.010897536628824277,0.9909766674351932
2014-02-13,1,0.0010339611961853994,0.0011663509469110524,-0.004848684011584456,0.009707362091273253,0.9904732437960162
2014-02-18,1,0.001580296482311576,0.001757423505274255,-0.004848684011584456,0.009442091798533133,0.9909048172854844
2014-02-20,1,0.0012678978748399202,0.0013918858193848647,-0.004848684011584456,0.009442091798533133,0.9907482867559673
2014-02-24,1,0.0013446431397715294,0.0014568779624554284,-0.00629081609116129,0.00871912025671703,0.9914627575505865
2014-02-26,1,0.0011836790617754359,0.0012764554919662773,-0.008521179634965084,0.009442091798533133,0.99038330190095
2014-02-28,1,0.0016990270169665311,0.0018457153794665894,-0.009040719582127925,0.00908774552526665,0.9904247984020224
2014-03-04,1,0.0010984316024474628,0.001110406879511167,-0.008500281225417353,0.00908774552526665,0.9907377511202227
2014-03-06,1,0.001491706578546229,0.0016087167162322676,-0.008500281225417353,0.008926114706555589,0.9907666951935679
2014-03-10,1,0.0014348252825559338,0.0015618764036918367,-0.011607486816645717,0.008926114706555589,0.989142220045391
2014-03-12,1,0.002092858214889288,0.002314185194306457,-0.011607486816645717,0.010991508577431044,0.9884766744835725
2014-03-14,1,0.0014829212651503222,0.0016322551741443675,-0.012641984715776378,0.010991508577431044,0.9874839331905894
2014-03-18,1,0.0028345449675464445,0.003190418225896932,-0.012641984715776378,0.007514917446180035,0.989040846540893
2014-03-20,1,0.0024929295991848828,0.002799799133167492,-0.012641984715776378,0.010018206684576406,0.9885268998362113
2014-03-24,1,0.0020739079665786425,0.0023094203088032507,-0.012641984715776378,0.010018206684576406,0.9889430345932759
2014-03-26,1,0.0011515680713677725,0.0011914895332420807,-0.009914100621064407,0.008277619940346832,0.990113002089909
2014-03-28,1,0.001448349425280679,0.0015552049911464953,-0.010276975479867835,0.0070378811347015366,0.990551296500169
2014-04-01,1,0.00218533091361702,0.0024228597918882636,-0.012641984715776378,0.006977497204792832,0.9893728510721772
2014-04-03,1,0.0015413544585196096,0.0016530845125516658,-0.012556062376616946,0.0049570630170301146,0.9894975538458862
2014-04-07,1,0.0007889452588996763,0.0008258662259125111,-0.009652193952433942,0.0049570630170301146,0.9907662496356737
2014-04-09,1,0.001375042908541635,0.0014733689228252406,-0.009652193952433942,0.002882294036073493,0.9920920065845438
2014-04-11,1,0.0002209233444975542,0.0002618550718126642,-0.00513208561488108,0.004055589682332417,0.9924398160021516
2014-04-15,0,-4.27364306626352e-05,7.120333941286044e-05,-0.007494964831505492,0.002735735782998649,0.9913981916186004
2014-04-17,1,0.00045396362590803134,0.0004868550602285722,-0.009652193952433942,0.002407641206936053,0.991645547723839
2014-04-22,1,0.0007189988660022523,0.0007224341591479301,-0.010550035669531431,0.002407641206936053,0.9908519328503745
2014-04-24,1,0.001004583911362842,0.0010620715402719341,-0.010550035669531431,0.0025036209284993722,0.9904890155915592
2014-04-28,1,0.0007000045310111591,0.0007071812455419174,-0.010550035669531431,0.00815604557283318,0.9897569257615093
2014-04-30,1,0.00028970721823329856,0.00037442271156902887,-0.0076920358621854305,0.004569776952441993,0.9913234042754427
2014-05-02,1,0.00011014629970684665,0.00018769149841114116,-0.006841578801422655,0.004569776952441993,0.991814991202848
2014-05-06,-1,-0.0003171598913622221,-0.00018840153083004977,-0.006759628863368193,0.004569776952441993,0.9922216442540415
2014-05-08,-1,-0.000658739539565876,-0.00045379949393997796,-0.006759628863368193,0.010555230174341103,0.9913981984265827
2014-05-12,1,0.0002674475427258745,0.0003250669178920736,-0.006775805995334003,0.010027425580359274,0.9920788953515797
2014-05-14,-1,-0.0006389178903025898,-0.00048495276793052107,-0.006976641975903216,0.010027425580359274,0.9922569975135823
2014-05-16,-1,-0.0009983798766805027,-0.0007938043737120039,-0.0036164651188236173,0.010027425580359274,0.992707924264034
2014-05-20,-1,-0.0009148759866489178,-0.0007333510329424059,-0.0025056803898977605,0.007017053740060706,0.9934594957462592
2014-05-22,-1,-0.00032142960464823125,-0.0002152450652847335,-0.0025056803898977605,0.006215263241061612,0.9938217287002886
2014-05-27,1,0.0007205365331941509,0.0007594330276322578,-0.005521966797743721,0.0042327691344046965,0.9946085145022602
2014-05-29,1,8.863247896804432e-05,0.00014660918019678842,-0.005521966797743721,0.0042327691344046965,0.994655064055811
2014-06-02,1,7.407232669642767e-05,0.00012512601995574025,-0.005913663363521313,0.0042327691344046965,0.9944538309976668
2014-06-04,1,7.948608320615342e-06,7.024797009057602e-05,-0.005913663363521313,0.005292004345383191,0.9938993271843309
2014-06-06,1,0.0002529543220019577,0.0003201760685752297,-0.006548368759224949,0.004566666340455364,0.9913662461519092
2014-06-10,1,0.00018143305328647928,0.0002445734478339534,-0.005913663363521313,0.004566666340455364,0.9915763100495486
2014-06-12,-1,-0.0005351992425232458,-0.00040506624075296817,-0.005521966797743721,0.005292004345383191,0.9918709915319774
2014-06-16,-1,-0.0005566627359420442,-0.00040400733108490126,-0.005521966797743721,0.005033522313175567,0.9918611274614659
2014-06-18,-1,-0.0013151423547262788,-0.0009984644982327078,-0.005913663363521313,0.005466875454241257,0.9914221596587478
2014-06-20,-1,-0.0009980486620285414,-0.0007297059537323616,-0.005913663363521313,0.005759681363714353,0.9913360795384396
2014-06-24,-1,-0.0013878732788577836,-0.0010807645753743698,-0.005104605652953883,0.005759681363714353,0.9915611151322061
2014-06-26,-1,-0.0030469603364903955,-0.00243177870563193,-0.005676271748865936,0.005759681363714353,0.9915729553436132
2014-06-30,-1,-0.0025178053666009663,-0.002037431716443804,-0.0060415900867380416,0.005759681363714353,0.9908646330799759
2014-07-02,-1,-0.0012980358648675152,-0.0010173200351276525,-0.007971681235045129,0.0053083175436387,0.9899555533955401
2014-07-07,-1,-0.00207220258543812,-0.0016990979204355345,-0.007971681235045129,0.0053083175436387,0.9928681943721701
2014-07-09,-1,-0.0020983414231692567,-0.0017416086697111001,-0.007971681235045129,0.0053083175436387,0.9924608383215372
2014-07-11,-1,-0.0012319901200310694,-0.0010340476375040762,-0.007523088501839524,0.0053083175436387,0.9920701015752135
2014-07-15,-1,-0.0014144174141285403,-0.0011850695509097427,-0.007523088501839524,0.004844935881017162,0.9923640873381134
2014-07-17,-1,-0.001131849363294605,-0.0009730490545871091,-0.007356980878446515,0.004680915971011746,0.9926797827117432
2014-07-21,-1,-0.0009612477682682198,-0.0008213343849138189,-0.007356980878446515,0.004680915971011746,0.9921013256366922
2014-07-23,-1,-0.0003688287360684245,-0.00033842445422997876,-0.007356980878446515,0.005649662941612689,0.9915403576600812
2014-07-25,-1,-0.0006263765999091383,-0.0005452387770062049,-0.007828472943436098,0.005649662941612689,0.991048652610833
2014-07-29,-1,-0.0016503055065021231,-0.0014491215368803525,-0.007356980878446515,0.006151750137249356,0.9915649489112824
2014-07-31,-1,-0.0024026776088476413,-0.002105006328211375,-0.006938632575940721,0.005659690407233108,0.992952323459674
2014-08-04,-1,-0.001930985636023555,-0.001719255922970063,-0.003882968450170621,0.004530819981706122,0.993687586546466
2014-08-06,-1,-0.003046715150304753,-0.0026610542326938836,-0.002696128363036872,0.004530819981706122,0.9934834722419329
2014-08-08,-1,-0.0015408829524839423,-0.001395913298993191,-0.003882968450170621,0.0024888049660480157,0.9944168160184366
2014-08-12,-1,-0.0017169595672542786,-0.0015729723849527717,-0.006899200866178838,0.0024888049660480157,0.9939719482055249
2014-08-14,-1,-0.0015521239657993401,-0.0014215878766125302,-0.007563293270839501,0.001660571232357913,0.9940778762715119
2014-08-18,-1,-0.000759637021617215,-0.0007192523010810479,-0.008802295508471995,0.0007552039902669725,0.9943727862658236
2014-08-20,-1,-0.00013310705992886166,-8.792869762894612e-05,-0.008802295508471995,0.000839755160864667,0.9941177512154801
2014-08-22,-1,-0.0005748083059657005,-0.0005472780028433579,-0.00742852373397971,0.000839755160864667,0.9947895873554429
2014-08-26,-1,-0.00063258229905735,-0.0006211748817033819,-0.008331455280842028,0.000839755160864667,0.9945998306616789
2014-08-28,-1,-0.001317026024394544,-0.001158219288423884,-0.00904599684694311,0.000839755160864667,0.9941198430461777
2014-09-02,-1,-0.0006731940074837971,-0.000634136215974355,-0.00904599684694311,-0.0015838616823529853,0.9934619142719067
2014-09-04,-1,-0.0017277695890687058,-0.0015030846323665478,-0.010126093905559191,-0.0012088074455139635,0.9930591998847268
2014-09-08,-1,-0.002128835814192282,-0.0018737180196424037,-0.00904599684694311,0.004164787594546489,0.9924867939334551
2014-09-10,-1,-0.0025337080738262524,-0.002254341115953473,-0.00904599684694311,0.006982652814327363,0.9901123224333684
2014-09-12,-1,-0.002694753520402886,-0.002405604891475394,-0.012376327396908205,0.006982652814327363,0.9890049457850623
2014-09-16,-1,-0.003104556614914498,-0.002784355135357316,-0.01450534342005009,0.007306882873142915,0.987540110890775
2014-09-18,-1,-0.0022265169517511566,-0.002004738573041817,-0.01450534342005009,0.008904615444166923,0.9872268209330607
2014-09-22,-1,-0.0022914489676613124,-0.002092405661949472,-0.01450534342005009,0.008904615444166923,0.986968418950168
2014-09-24,-1,-0.002651831259890359,-0.0023941222121253887,-0.0127140179308558,0.014952906078014888,0.9864311099295903
2014-09-26,-1,-0.00344754219570646,-0.0030845940944966965,-0.00910923123701155,0.015634400610668123,0.9850668536726253
2014-09-30,-1,-0.0036473595620179393,-0.0032736226643503663,-0.00910923123701155,0.01806005784684051,0.983697926523512
2014-10-02,-1,-0.0027601799356015847,-0.002518389674831251,-0.0033984644678063365,0.01806005784684051,0.9843054889615267
2014-10-06,-1,-0.0015951927882949279,-0.0013944807612889876,-0.0033984644678063365,0.021299111795940177,0.9847138580489052
2014-10-08,-1,-0.00025029244727414854,-0.00021718817925242865,-0.0010792368575611021,0.01806005784684051,0.9876142622743737
2014-10-10,-1,-0.002312742421393,-0.0020221723288329644,0.0,0.01806005784684051,0.9874759214724459
2014-10-14,-1,-0.0013042659825309362,-0.0011492860344192112,-0.00021045054913018262,0.014444832776009464,0.9900308705856221
2014-10-16,-1,-4.522422338221023e-05,-1.533513242892781e-05,-0.0010792368575611021,0.01043478135773057,0.9908523580178047
2014-10-20,-1,-0.0011027739600923195,-0.0009867795839724968,-0.0008939949676280702,0.01043478135773057,0.9909749003024728
2014-10-22,-1,-0.0005570681623157373,-0.0005097194977460296,-0.0012012174901612383,0.008773248389581564,0.9924089840137335
2014-10-24,1,0.0003055589461342451,0.0003604485595890644,-0.0012012174901612383,0.007500374083383629,0.9939439154986374
2014-10-28,1,0.0010476595039164106,0.0012344621011985578,-0.00048796607940081985,0.007500374083383629,0.9949765233039543
2014-10-30,1,0.0021058037835165323,0.00241416856477255,-0.0016879399694408408,0.00612688403201592,0.9947353759883315
2014-11-03,1,0.0010227747703154938,0.0011640711744830968,-0.0016879399694408408,0.007102040943217186,0.9950629729778071
2014-11-05,1,0.0012476280750000515,0.0014374522241905833,-0.00250391035477088,0.007102040943217186,0.9933162578231085
2014-11-07,1,0.0017603815904475386,0.0020261760078778947,-0.004740925831773508,0.006037693644525361,0.9932865802905309
2014-11-11,1,0.001523256220988096,0.0017575228802077553,-0.005467305009629229,0.007102040943217186,0.9916154678669078
2014-11-13,1,0.0012067017158118032,0.001379506640600059,-0.005658196073911256,0.007754734087231399,0.9901724444636425
2014-11-17,1,0.001242082973136526,0.0014202071762896996,-0.005658196073911256,0.007754734087231399,0.9900656698689618
2014-11-19,1,0.0011060044752348034,0.001251237557824976,-0.005658196073911256,0.009460764473217906,0.9890790050366927
2014-11-21,1,0.0012133003291628953,0.0013881288864188526,-0.005658196073911256,0.009460764473217906,0.9890496503467203
2014-11-25,1,0.0022114709911094975,0.0025574592773700833,-0.005658196073911256,0.008037827366118619,0.9893966205873932
2014-11-28,1,0.0017919259679412373,0.002078380896141173,-0.004211639745090071,0.008037827366118619,0.9897289204861188
2014-12-02,1,0.0023446236711349242,0.0027230445126746883,-0.007895145345009756,0.004800691266024416,0.9890350066881923
2014-12-04,1,0.0026121028526088245,0.003009175299631253,-0.00970337643163593,0.0038519302237748467,0.9893347068041843
2014-12-08,1,0.002509477726062593,0.0028858032899940524,-0.006106223491527528,0.004800691266024416,0.9894776860292934
2014-12-10,1,0.0021679537888865913,0.0025079047285172544,-0.006106223491527528,0.004800691266024416,0.9892666560110248
2014-12-12,1,0.0019515263482191663,0.0022648713775859355,-0.005020485844666343,0.004800691266024416,0.990550292542212
2014-12-16,1,0.0020399000964485916,0.002345946695842531,-0.009870343675132443,0.004800691266024416,0.9890883893473369
2014-12-18,1,0.0023711405094223575,0.0026863132141040943,-0.009870343675132443,0.0045179674105067374,0.9891501333494517
2014-12-22,1,0.0016506518142395802,0.0018438167155440687,-0.009870343675132443,0.007398651572537036,0.9890085118626755
2014-12-24,1,0.001670601993624099,0.0018738142614961833,-0.009870343675132443,0.009302475455814842,0.9886228457969873
2014-12-29,1,0.0015481448477431005,0.0017020821590967002,-0.011485475041693468,0.009302475455814842,0.9876666832665316
2014-12-31,1,0.0010506638918853597,0.0011706061969057853,-0.012132677355603024,0.009615344935408476,0.9855455993705398
2015-01-05,1,0.0002900512441399989,0.0002907734759037361,-0.009650995742530456,0.010960351988223737,0.9852150924294514
2015-01-07,1,0.0009225633513788518,0.0010160465521611055,-0.009650995742530456,0.009767733462464994,0.9853988792818653
2015-01-09,1,0.0005357753192509035,0.000616353736364837,-0.007687948909318326,0.009615344935408476,0.9872398809508702
2015-01-13,1,0.0007685505194659061,0.0008819596241910559,-0.007287154329593137,0.009615344935408476,0.9876995780097405
2015-01-15,-1,-0.000427397592953599,-0.00035767728257829663,-0.004732769641689854,0.009767733462464994,0.9882289821937466
2015-01-20,1,8.01062428608695e-06,3.451070256204109e-05,-0.004732769641689854,0.009615344935408476,0.9889379625322661
2015-01-22,1,0.00025949255519094275,0.00027474891145655683,-0.00367698501002542,0.008427960029353851,0.9896817901428383
2015-01-26,1,0.0003857070535549278,0.0004097383935798581,-0.004732769641689854,0.006908428711128909,0.9896442918847891
2015-01-28,-1,-0.0005618750689398796,-0.0004636011576753391,-0.0022487520848030835,0.008427960029353851,0.9901519107507342
2015-01-30,-1,-0.001747502132237054,-0.0014999478447830848,-0.0022487520848030835,0.009237764997610724,0.992158646633024
2015-02-03,-1,-0.0007193076424520428,-0.000582586146283391,-0.004732769641689854,0.006407513008135322,0.9930932831607672
2015-02-05,-1,-0.0012859565387249262,-0.0010680169227574097,-0.005224930290245303,0.006407513008135322,0.9925956844984333
2015-02-09,-1,-0.0010047990791472888,-0.0008093833392592914,-0.0065953613616050516,0.00439418930977411,0.9915767344529826
2015-02-11,-1,-0.00102337797200588,-0.0008386433824997993,-0.0065953613616050516,0.008507090218617182,0.9902229697015554
2015-02-13,-1,-0.0006636526355463825,-0.0005086769410490505,-0.00948620070872408,0.008507090218617182,0.9902768800560827
2015-02-18,-1,-0.0010386738980186776,-0.0008256427548606993,-0.00948620070872408,0.010511736349733444,0.9895386050285182
2015-02-20,-1,-0.0010702603038974393,-0.0008285532244884628,-0.010208958131199597,0.012880918532597258,0.9880351619558628
2015-02-24,-1,-0.0018901460419714963,-0.001537655200228207,-0.00948620070872408,0.012880918532597258,0.9879726721422314
2015-02-26,-1,-0.0014321335952213123,-0.0011495162822782656,-0.010739518840639466,0.010537980434056479,0.9875681146187765
2015-03-02,-1,-0.0011146281620013927,-0.0008761943758221663,-0.010739518840639466,0.010537980434056479,0.9875313933970168
2015-03-04,-1,-0.0014774772626506853,-0.0012469718012974504,-0.010739518840639466,0.010537980434056479,0.9879922380982631
2015-03-06,-1,-0.003109989951726627,-0.0025906393439186094,-0.01040412875113549,0.01319195403494573,0.987398776420172
2015-03-10,-1,-0.003370061722484838,-0.0028457901877289244,-0.006237956572848306,0.01319195403494573,0.9883307496385633
2015-03-12,-1,-0.0016410641349563783,-0.0013649587382802662,-0.006237956572848306,0.010601096694918495,0.9897250810261
2015-03-16,-1,-0.0023780768796481336,-0.001974994057551553,-0.005451709887558649,0.008186206678661606,0.9900705133977219
2015-03-18,-1,-0.0010136208917552359,-0.000793266968046778,-0.005451709887558649,0.008186206678661606,0.9903814252369217
2015-03-20,-1,-0.0008591951944804134,-0.0007048119664088908,-0.005451709887558649,0.008186206678661606,0.9902715065827418
2015-03-24,-1,-0.0007718198538472255,-0.0006500223731236215,-0.005451709887558649,0.011228538211755984,0.9879650590715711
2015-03-26,-1,-0.0011654663156450643,-0.0010296425012409362,-0.005687360059438927,0.011228538211755984,0.9883798749371403
2015-03-30,-1,-0.0005993541016094845,-0.0005220855141518725,-0.005687360059438927,0.009946624753855247,0.9889103765277037
2015-04-01,-1,-0.0013597147443180873,-0.0012025095241073509,-0.0076098720964203085,0.009946624753855247,0.9888688398740585
2015-04-06,-1,-0.0006519255013730781,-0.0006033147227187115,-0.005687360059438927,0.008186206678661606,0.9895828910171681
2015-04-08,-1,-0.0006079932029175989,-0.0005542285472684008,-0.0076098720964203085,0.007515499088021529,0.9893521742086624
2015-04-10,-1,-0.0005050910745398127,-0.000462036952570124,-0.0076098720964203085,0.010800908171872512,0.9884781836789012
2015-04-14,-1,-0.0002575641083957422,-0.0002474274002467334,-0.009609343529964372,0.010800908171872512,0.9885305497439726
2015-04-16,-1,-8.952070339287598e-05,-7.885772010926949e-05,-0.009609343529964372,0.008190113616965658,0.9888934150576624
2015-04-20,1,4.887888184768865e-05,8.882115203142938e-05,-0.009609343529964372,0.007201067307857165,0.9899285354139532
2015-04-22,1,0.0016213246282658698,0.0018953188305096875,-0.009609343529964372,0.005510435699680403,0.9922761500536214
2015-04-24,1,0.0008776146329341123,0.0010295885377871298,-0.00654460602828079,0.005510435699680403,0.9931266433789934
2015-04-28,1,0.0015288820838412218,0.0017966670064943767,-0.00654460602828079,0.004710410376280179,0.9927931373524395
2015-04-30,1,0.001267481477664802,0.0015415938922156809,-0.006587441709947628,0.004710410376280179,0.9919611423395013
2015-05-04,1,0.0014225067446776247,0.00170526449562997,-0.006587441709947628,0.007299473662950066,0.9917049001388771
2015-05-06,1,0.0007955967404053995,0.0009687930854034173,-0.006587441709947628,0.007299473662950066,0.9919875896060867
2015-05-08,1,0.0013607494864026194,0.0015983555120647102,-0.006587441709947628,0.0037941827384684033,0.9926218419450993
2015-05-12,1,0.0012664093473851328,0.0014992103564196845,-0.005489461667830903,0.006631598443856256,0.9921431438026989
2015-05-14,1,0.0019478044988494928,0.0023164509614280416,-0.0059095052457385135,0.006506814281696914,0.9917871750117933
2015-05-18,1,0.0014702355834754419,0.0017612252876315364,-0.0058616614919608755,0.006506814281696914,0.9918974539515238
2015-05-20,1,0.0013783757067091919,0.0016626878666790345,-0.0058616614919608755,0.006925121176472041,0.9915050960402988
2015-05-22,1,0.0016636118446729737,0.001997544349237734,-0.0058616614919608755,0.006925121176472041,0.9912131814689958
2015-05-27,1,0.001531976042664224,0.0018066428101339905,-0.0051645595183843745,0.006506814281696914,0.9917105820733967
2015-05-29,1,3.131794805844032e-05,6.082330978435294e-05,-0.004052029637072337,0.006862725921320808,0.9932552192713852
2015-06-02,1,0.0008125741926063236,0.0009757455893789693,-0.0051645595183843745,0.00636707186850384,0.9924746510987331
2015-06-04,1,8.123057831039751e-05,0.00010647059361970817,-0.004052029637072337,0.006506814281696914,0.9925765315564744
2015-06-08,-1,-4.534706276694118e-05,-2.7883689834133064e-05,-0.004672544703653689,0.006506814281696914,0.9923804323943987
2015-06-10,1,0.0002899513229130274,0.00030047929699386346,-0.007240525041081035,0.006314158747679874,0.9924707708679843
2015-06-12,1,0.0003938199584334191,0.0004469345873005198,-0.0048869650266062945,0.006653312554444165,0.9918578097728399
2015-06-16,1,0.00016926876763684307,0.0001988097945621004,-0.0023712599350447397,0.006653312554444165,0.9922462127289996
2015-06-18,1,0.0006024003970081589,0.0007023982424940994,-0.003815352113291295,0.00640013038931774,0.9920543765445333
2015-06-22,1,0.0002351796930406748,0.00024154517935644413,-0.003815352113291295,0.0064199274237544,0.9918057778017625
2015-06-24,-1,-0.0007852753738934696,-0.0005995057843094884,-0.003918679904442971,0.0064199274237544,0.9915063471266663
2015-06-26,0,-1.1546403143615077e-05,2.337619356918523e-05,-0.004382395084180259,0.006320757759158761,0.9919929153724231
2015-06-30,-1,-0.0006886189691492743,-0.0005606706207731532,-0.0029107534101331127,0.0064199274237544,0.992444795720056
2015-07-02,0,-1.6201228927531286e-05,1.0801612113028972e-05,-0.004382395084180259,0.005519397855536435,0.9925422412265779
2015-07-07,-1,-0.00017606256363491939,-0.00012173673121421743,-0.005657350342919927,0.005519397855536435,0.9918108240895371
2015-07-09,-1,-0.000560931694335749,-0.0004925864772796775,-0.004925732031426879,0.0064199274237544,0.9922914646293968
2015-07-13,1,0.000285232163490593,0.000321743177765946,-0.0055349064965486625,0.005519397855536435,0.9927807012792685
2015-07-15,1,0.0004531671468677909,0.0005187091961180501,-0.005657350342919927,0.005519397855536435,0.9922933230946198
2015-07-17,-1,-2.593208311712423e-05,-6.5363249655381415e-06,-0.0055349064965486625,0.004301786596283108,0.9931664206983416
2015-07-21,1,0.00044492122276931214,0.0005044398655556091,-0.0055349064965486625,0.0026216366957715776,0.9935063535256303
2015-07-23,1,0.0004913908146205971,0.0005658466844124497,-0.0063071385381559646,0.0018912484152339322,0.992081347582132
2015-07-27,-1,-0.0003193048219089821,-0.00023211063762210098,-0.013180721798439304,0.0018912484152339322,0.9891649666906513
2015-07-29,-1,-0.0001050836334320533,-2.9692618421859945e-05,-0.013180721798439304,0.0013634960306366808,0.9873602241560535
2015-07-31,-1,-0.000839434572415193,-0.0006532055823600647,-0.00976840873744886,0.002308483532144057,0.9872074653442416
2015-08-04,-1,-0.0009975310842565744,-0.0008419803183728222,-0.00976840873744886,0.002308483532144057,0.9865489832613422
2015-08-06,-1,-0.0009534073437436946,-0.0008006682334399124,-0.00976840873744886,0.002308483532144057,0.986092781460268
2015-08-10,-1,-0.00018934459433706677,-0.00016946011917870688,-0.015049303623544816,0.002308483532144057,0.9850263474413202
2015-08-12,-1,-0.0005528614350765375,-0.0004772857787953235,-0.011812415897090145,0.002308483532144057,0.9857623284259602
2015-08-14,-1,-0.0007310966398546726,-0.0006331673008431607,-0.011812415897090145,0.001877995338876606,0.9856513246384292
2015-08-18,-1,-0.0010937896271486537,-0.0009209529063927555,-0.011812415897090145,0.008233747255853937,0.9845012543529968
2015-08-20,-1,-0.0015789591211647332,-0.0013840454617335817,-0.01680430189535944,0.008233747255853937,0.9842864409574371
2015-08-24,-1,-0.0026744908988605605,-0.0023119198555338525,-0.010353408161387068,0.008233747255853937,0.986296389430336
2015-08-26,-1,-0.001881397457957699,-0.0016382692863753177,-0.010520543272306622,0.004826907856442494,0.9883848211355594
2015-08-28,-1,-0.0020301667279978464,-0.0017677400502245537,-0.021988039110786013,0.0027659182336031893,0.9873068066222969
2015-09-01,-1,-0.002984139991888201,-0.002611460958167885,-0.01680430189535944,0.004826907856442494,0.9885265176110754
2015-09-03,-1,-0.0024830188510214374,-0.002183221315461035,-0.01680430189535944,0.004826907856442494,0.9888007937892047
2015-09-08,-1,-0.0024507260766331246,-0.0021587585514773527,-0.011168099552465081,0.004826907856442494,0.9882854882304776
2015-09-10,-1,-0.0024837144667486243,-0.002193595314302392,-0.011168099552465081,0.00793199914121662,0.9866776537848724
2015-09-14,-1,-0.0018794647929854763,-0.0017257558296550762,-0.011168099552465081,0.00793199914121662,0.9864711448317646
2015-09-16,-1,-0.0013498877342385718,-0.0012326071938800348,-0.01583817565241683,0.005132302806000971,0.98665740120601
2015-09-18,-1,-0.0018951172227737213,-0.0017430477355551816,-0.012815579713783627,0.005132302806000971,0.9875349233584605
2015-09-22,-1,-0.002771189700278144,-0.0024864164682892377,-0.01016056757292068,0.00793199914121662,0.9882319109935226
2015-09-24,-1,-0.002689306798661675,-0.0024303274945345725,-0.01016056757292068,0.009780322724207091,0.9872912646418689
2015-09-28,-1,-0.004236739347199269,-0.0037814204979975765,-0.008027989856478544,0.013853661943621674,0.9882382680420767
2015-09-30,-1,-0.002781656684951111,-0.0025206237118617107,-0.0094331788976447,0.015171813627854526,0.983349123720223
2015-10-02,-1,-0.0022102625688871086,-0.0020146380245222714,-0.009734461812568226,0.015171813627854526,0.9833893875921252
2015-10-06,-1,-0.0018530393511580956,-0.0017108207996658648,-0.009734461812568226,0.015171813627854526,0.984102079348577
2015-10-08,-1,-0.000928111335933331,-0.0008837604236728391,-0.009734461812568226,0.013870722364327142,0.9844858248728124
2015-10-12,-1,-0.0016832544057084492,-0.0015463956113939085,-0.011064416317691256,0.013870722364327142,0.983220940810476
2015-10-14,-1,-0.0021285279084404182,-0.001952956062707328,-0.009660872574008737,0.013870722364327142,0.9838842006048334
2015-10-16,-1,-0.0019660458188923615,-0.0018282063225166913,-0.009660872574008737,0.013870722364327142,0.9836645245386454
2015-10-20,-1,-0.00176391973059689,-0.0016008988408286705,-0.009660872574008737,0.01000294764506379,0.9839339272941194
2015-10-22,-1,-0.0012095526019264466,-0.0011433940551543072,-0.009660872574008737,0.01000294764506379,0.9832730624098307
2015-10-26,-1,-0.0013082701923703309,-0.0012110942243174477,-0.009660872574008737,0.007778716878425843,0.9838235219256469
2015-10-28,-1,-0.0005483179520472038,-0.0005313214540298228,-0.00900787760908932,0.007109527422063354,0.9890203093329025
2015-10-30,-1,-0.0014444714563336225,-0.0013710359232993892,-0.008615154584111601,0.007109527422063354,0.989506143096248
2015-11-03,-1,-0.0012773171510473014,-0.0012111687242380084,-0.007476546991639469,0.005238058163012163,0.9903932904371786
2015-11-05,-1,-0.0009033180456534872,-0.0008787387358156411,-0.007476546991639469,0.005238058163012163,0.9881300840378576
2015-11-09,-1,-0.0014744782436143132,-0.0014034976087250628,-0.009314722151563334,0.003203209748433399,0.9891123108237441
2015-11-11,-1,-0.0017514136479451472,-0.0016487029222284112,-0.007476546991639469,0.005238058163012163,0.9891787798406528
2015-11-13,-1,-0.0021537912860291556,-0.0020000700970091915,-0.007476546991639469,0.0058766190551666885,0.9884754525470005
2015-11-17,-1,-0.00197268937131512,-0.001851669909537401,-0.009314722151563334,0.005987500195179357,0.9876084013945563
2015-11-19,-1,-0.001519732904435557,-0.001437368953179813,-0.012537711039268802,0.004864049087384165,0.9880088887037686
2015-11-23,-1,-0.0011798560270080483,-0.0011619454435494178,-0.012537711039268802,0.006073930541135546,0.9858308687555709
2015-11-25,-1,-0.000877700235074978,-0.0008401396246179997,-0.012537711039268802,0.007853299889295664,0.9848149215874773
2015-11-30,-1,-0.0007571892132340804,-0.0007488285413664287,-0.012537711039268802,0.007949897409151615,0.9843766975411739
2015-12-02,-1,-0.0007632349563614549,-0.0006925257900313567,-0.013500234005465586,0.007949897409151615,0.9840840688647018
2015-12-04,-1,-0.0007485143323563995,-0.000669800740997011,-0.011948741631355439,0.007820091399211433,0.9871470841391551
2015-12-08,-1,-0.001618064793064958,-0.001580554780504381,-0.010193772122349608,0.007820091399211433,0.986880631098766
2015-12-10,-1,-0.0010565562550465236,-0.0010053961307360023,-0.011752413817644972,0.006073930541135546,0.9868661520731605
2015-12-14,-1,-0.0013249119547013312,-0.001307689812640096,-0.011752413817644972,0.002106006392586051,0.9878535274011406
2015-12-16,-1,-0.0015221198528073442,-0.00150863101632535,-0.009807488529047191,0.002138205565871368,0.9874533529066609
2015-12-18,-1,-0.0020439392177267132,-0.001999863639165645,-0.008885063193384349,0.006975892081373898,0.9883321744012258
2015-12-22,-1,-0.00042407191213669293,-0.00026338633945852303,-0.008885063193384349,0.006975892081373898,0.9895502773820908
2015-12-24,-1,-0.0006849164586571201,-0.0005898913129608142,-0.009807488529047191,0.006975892081373898,0.9881111475822453
2015-12-29,-1,-0.0003720210646518797,-0.00022609742668735648,-0.011752413817644972,0.007394933262410752,0.9878186180028239
2015-12-31,-1,-0.0007282700792261522,-0.0006055229380834246,-0.01094218645754844,0.009841891075380901,0.9864844925379226
2016-01-05,-1,-0.00048543875742725767,-0.00033722407120707237,-0.011889473587905833,0.009841891075380901,0.9854766333652664
2016-01-07,-1,-0.0012368439734348304,-0.0011788573168211066,-0.01094218645754844,0.01187101133933181,0.9844114825017589
2016-01-11,-1,-0.0010909550666082474,-0.0010020235594996943,-0.009263295836218098,0.01187101133933181,0.9848446568114196
2016-01-13,-1,-0.002034819461736488,-0.001965322177558208,-0.00947220592388951,0.01187101133933181,0.9842398473801363
2016-01-15,-1,-0.001438667324551052,-0.0013922314034600699,-0.00947220592388951,0.018587779483025056,0.98308123441381
2016-01-20,-1,-0.0007558712803550241,-0.0006823817243687207,-0.011465529821111717,0.018587779483025056,0.982459704755404
2016-01-22,-1,-0.0005337080854273168,-0.0004160753247094064,-0.011465529821111717,0.02654460195771166,0.9821933896293212
2016-01-26,0,-3.459833188267103e-05,9.892590787799742e-05,-0.011465529821111717,0.016657447374451288,0.9840003413685026
2016-01-28,1,0.00016671997924317967,0.0003575555372155909,-0.00947220592388951,0.016657447374451288,0.9844131141187192
2016-02-01,1,0.0007501035340814724,0.001021049470374805,-0.008753971614350537,0.0159496963692595,0.985169239923749
2016-02-03,1,0.0006061854219523218,0.00085095460905208,-0.008426199599590135,0.02420287885902977,0.9843647966088802
2016-02-05,1,0.0013608799890017847,0.0016996885555675316,-0.008753971614350537,0.0159496963692595,0.9858298003246149
2016-02-09,1,0.0017490782804420013,0.0021872522580512234,-0.0097316771358309,0.0159496963692595,0.9848031602098907
2016-02-11,1,0.0006413667617386207,0.0008783703892620342,-0.008485000195897695,0.019633932388365697,0.985113250042944
2016-02-16,1,0.002092217511648861,0.0024936158000321796,-0.008485000195897695,0.01466263121410207,0.9868226384985781
2016-02-18,1,0.0017944899172066208,0.002147734662898087,-0.008367136422472127,0.01735973829778659,0.9870124453691951
2016-02-22,1,0.0015417347358589835,0.0017778144046748626,-0.008367136422472127,0.01378476317619912,0.9881635294214238
2016-02-24,1,0.0014825499707116344,0.0017286856061047135,-0.008458544417516083,0.01378476317619912,0.9880561440626084
2016-02-26,1,0.0017399326175191283,0.002038086438666363,-0.008458544417516083,0.012823494070807621,0.9881289315781078
2016-03-01,1,0.0024614080905508923,0.0028856491487811936,-0.008367136422472127,0.012823494070807621,0.9886276445364958
2016-03-03,1,0.0037923593760027,0.004450057336139911,-0.008458544417516083,0.007485741303936805,0.9899538983091293
2016-03-07,1,0.002930147391119873,0.0034342301160277147,-0.008611458331519637,0.007485741303936805,0.9892735532659735
2016-03-09,1,0.0018238798218586025,0.0021407477800141654,-0.008611458331519637,0.007485741303936805,0.9900810549719194
2016-03-11,1,0.002226945057357576,0.002582403580280135,-0.008611458331519637,0.005944363059527726,0.9911972821929481
2016-03-15,1,0.0025389086628008948,0.002965434597172041,-0.008611458331519637,0.007485741303936805,0.9900330135226313
2016-03-17,1,0.0034586693152951417,0.004021241412641366,-0.008611458331519637,0.004841687859107101,0.9907784596910626
2016-03-21,1,0.003513377536542545,0.004098591004199938,-0.008611458331519637,0.004841687859107101,0.9911236352125933
2016-03-23,1,0.003395546780118863,0.00398768501591406,-0.005407664289567142,0.005609884406906242,0.9919390143755935
2016-03-28,1,0.002880762267614788,0.0033382657703199046,-0.00803595751265715,0.005609884406906242,0.9915688950687478
2016-03-30,1,0.0033049641500670396,0.0038330120838113236,-0.00803595751265715,0.00699433572233594,0.9893722970097396
2016-04-01,1,0.0033499060300897308,0.0038967993654062385,-0.009401543188350403,0.00699433572233594,0.9886205216540558
2016-04-05,1,0.0019913402266785807,0.0023047875088257827,-0.008145515302832708,0.00699433572233594,0.988848773660244
2016-04-07,1,0.0015424345515166315,0.0017693634834759465,-0.008145515302832708,0.006736388445550544,0.9876370559677878
2016-04-11,1,0.0012963860227787464,0.0014507034920710265,-0.008145515302832708,0.006736388445550544,0.9874241458330631
2016-04-13,1,0.0029035441544688853,0.0032651022055340895,-0.009609205038752086,0.005432099443590208,0.9876496899670393
2016-04-15,1,0.002864592563479704,0.003256943999636151,-0.010905298989977778,0.005432099443590208,0.9868190333778181
2016-04-19,1,0.0030121044697525743,0.003424056308440708,-0.010905298989977778,0.006736388445550544,0.985454593406544
2016-04-21,1,0.0029074302113981307,0.0033114097046067752,-0.012173967893531982,0.006644585907829641,0.9832179808644411
2016-04-25,1,0.0031302589971134885,0.0035819837462104194,-0.012173967893531982,0.0020534010402745192,0.9835401280043589
2016-04-27,1,0.00477683976710145,0.005408702466529084,-0.012173967893531982,0.0020534010402745192,0.9842642952424644
2016-04-29,1,0.0037559191623400563,0.0042152481700592215,-0.012173967893531982,0.0035137040692567404,0.9859502196487818
2016-05-03,1,0.0026754741872258687,0.00293368456605599,-0.010932355909417029,0.0035137040692567404,0.9873532189608153
2016-05-05,1,0.0015965846204939503,0.001720195168028914,-0.010932355909417029,0.006655766709766206,0.9880936382207522
2016-05-09,1,0.0012075287141949784,0.0012324193557387954,-0.010932355909417029,0.011730124877187694,0.9874431987355318
2016-05-11,1,0.0013719724112716282,0.0013822277967853723,-0.011891302918807658,0.01101792088326534,0.9881544783818004
2016-05-13,0,-7.898132932918143e-06,0.00020524182451612464,-0.011891302918807658,0.01101792088326534,0.9878036040517947
2016-05-17,1,0.0010669875688878987,0.0010705173465410506,-0.009915914005471635,0.008253880516417542,0.9883533800632118
2016-05-19,-1,-0.0004973598525620892,-0.0003241570866319049,-0.004875132601558179,0.008253880516417542,0.9907119196338258
2016-05-23,-1,-0.0006971652785795756,-0.0004987829036967437,-0.006238586593917078,0.010329510118857283,0.9900997105163156
2016-05-25,1,0.00016395595653806541,0.00029817147551811454,-0.006238586593917078,0.008224193540698269,0.9907065352960954
2016-05-27,0,-2.3636070121736382e-05,0.00012121326814721565,-0.009915914005471635,0.008224193540698269,0.9841429809739264
2016-06-01,-1,-0.0006652998782861697,-0.00038401063540599123,-0.009915914005471635,0.01101792088326534,0.9826082513178915
2016-06-03,-1,-0.0014625262889168126,-0.0010702062242609694,-0.006795280892860044,0.013528174388938396,0.9829813155133059
2016-06-07,-1,-0.0014298136354575122,-0.000997847444803158,-0.009915914005471635,0.010928859956107519,0.9826913466115084
2016-06-09,-1,-0.0012274301227573625,-0.0008519144987911727,-0.006795280892860044,0.011788671937072333,0.9826737885762784
2016-06-13,-1,-0.002208030827460029,-0.0017108136010654082,-0.004919509751705243,0.017521942584046435,0.9815672985099824
2016-06-15,-1,-0.002435090870564976,-0.0019337044554359152,-0.0016989090127293304,0.017521942584046435,0.981485786223782
2016-06-17,-1,-0.0017861722368119255,-0.0013966431056562294,-0.00452682176282727,0.017521942584046435,0.9814610702034947
2016-06-21,-1,-0.0018047253658435148,-0.0014067840057846467,-0.00452682176282727,0.019953880910959648,0.9802925263203774
2016-06-23,-1,-0.0005055398562571729,-0.0002897568471336386,-0.0047495561659928074,0.017521942584046435,0.9817513663198923
2016-06-27,-1,-0.004904958153767734,-0.004154205031197098,-0.0016989090127293304,0.019953880910959648,0.9835093034154229
2016-06-29,-1,-0.0031391824535119787,-0.0026536635125191874,-0.004507157000448717,0.01804045642912553,0.9852948274959089
2016-07-01,-1,-0.002599220485983977,-0.0021688389845667027,-0.0047495561659928074,0.01663012243420571,0.9861497876394197
2016-07-06,-1,-0.0036593608266255124,-0.0030601551931836064,-0.0047495561659928074,0.01663012243420571,0.9869795236959574
2016-07-08,-1,-0.001764373496749943,-0.0014791792191717061,-0.0053380211769845035,0.01431104502240407,0.9879281759062222
2016-07-12,-1,-0.0008044231811038291,-0.0006236928896564532,-0.0053380211769845035,0.011061649880022452,0.9896696100704631
2016-07-14,-1,-0.000698065664140419,-0.0005530819354733413,-0.0053380211769845035,0.011061649880022452,0.9896840616305574
2016-07-18,-1,-0.0007185711085501989,-0.0005434903144771266,-0.005279026889848843,0.011061649880022452,0.9894883334003194
2016-07-20,-1,-0.00029891421013465236,-0.00018925579185212455,-0.004030212899491155,0.00829727914675396,0.9912286409782358
2016-07-22,-1,-8.917469603477056e-05,-2.45021136316311e-05,-0.0034104181388079175,0.008498641259048053,0.9910141963961906
2016-07-26,1,0.0019184352503018014,0.002151864140646286,-0.0034104181388079175,0.006666051910924457,0.9940518621577403
2016-07-28,1,0.0016648909586347667,0.0018440586128233966,-0.0034104181388079175,0.004143118468764835,0.9947434048926039
2016-08-01,1,0.0011803011372418218,0.0012472456176116534,-0.003143174920326187,0.004143118468764835,0.9949962183906494
2016-08-03,1,0.0009341760625767726,0.0009845722504766023,-0.003143174920326187,0.004332795969719299,0.9950303978802931
2016-08-05,1,0.0010812688770024113,0.001166080139379774,-0.0034104181388079175,0.003459977859998814,0.9953005638254611
2016-08-09,1,0.0013922786657946176,0.0015624991301454718,-0.004585449062212706,0.003459977859998814,0.9940438037572952
2016-08-11,1,0.0013271770845509382,0.0014846146042599756,-0.005062076594005339,0.003459977859998814,0.9930593946663384
2016-08-15,1,0.001379416057394531,0.0015034449772033344,-0.005794905160638124,0.003459977859998814,0.9925246675956104
2016-08-17,1,0.0014596137728150036,0.001594560208702667,-0.005794905160638124,0.004332795969719299,0.992294224858626
2016-08-19,1,0.001864181957064592,0.002072214131577163,-0.006119253427609689,0.003096563902072528,0.9923534616916558
2016-08-23,1,0.0017160692061206012,0.0018948754752917112,-0.006119253427609689,0.004422838859252957,0.9917278180634683
2016-08-25,1,0.0012335958371442798,0.001300650747004905,-0.006966799558958179,0.0068529503954748005,0.9910855482181917
2016-08-29,1,0.001199898391682696,0.0012443976228243704,-0.009399647430057095,0.004422838859252957,0.9907064504142533
2016-08-31,1,0.0009397347815253683,0.0009540051626361215,-0.00932149065407243,0.007239054631952942,0.9899465973374739
2016-09-02,1,0.0013502366001738198,0.0015079876676411409,-0.00932149065407243,0.009193217237207538,0.9898690493826682
2016-09-07,1,0.0005526881883224717,0.0006012995501906888,-0.006966799558958179,0.010838223772903409,0.9904832419364313
2016-09-09,0,-1.211318817137701e-05,2.6061793821204537e-06,-0.006966799558958179,0.010838223772903409,0.990881726496467
2016-09-13,1,3.788498180726323e-05,5.357043452358067e-05,-0.008830941160362626,0.009193217237207538,0.9911723103799623
2016-09-15,1,0.0003640307976136735,0.00039294478480547906,-0.00932149065407243,0.009193217237207538,0.9910004026629419
2016-09-19,1,0.0013176668941340497,0.0015939745656674204,-0.00932149065407243,0.009193217237207538,0.9913060397241771
2016-09-21,1,0.0015450218473257154,0.001815431077254015,-0.00932149065407243,0.0038529638474964203,0.991991915106675
2016-09-23,1,0.0013603794431486034,0.0015769959634757157,-0.009255931370017935,0.002550469698401127,0.9924670583310835
2016-09-27,1,0.0004891814771541141,0.0005259773097646317,-0.009255931370017935,0.002025464853572835,0.9919303759863665
2016-09-29,1,0.0007183675251776311,0.0007896798691514307,-0.006416490943600663,0.002025464853572835,0.9929450065018752
2016-10-03,1,0.001383237768544941,0.0015726156603021516,-0.008566253229844428,0.0019496369893073334,0.9929608610041917
2016-10-05,1,0.0016262114672620652,0.001820363355792936,-0.008566253229844428,0.00040322558015147255,0.9930332226135324
2016-10-07,1,0.0012841821132498013,0.0014422879410135906,-0.007485338602119087,0.0008793814227607875,0.9933308725013328
2016-10-11,-1,-0.0004093957492624261,-0.000274470509631869,-0.005670881825456631,0.0019496369893073334,0.9939538025059037
2016-10-13,-1,-0.0010079296558928544,-0.0007888523867468284,-0.004094799106109953,0.003474609185110927,0.9904371711934379
2016-10-17,-1,-0.00019747641410706155,-0.00013915607113838393,-0.005670881825456631,0.0065713586998467554,0.989290527880929
2016-10-19,-1,-6.755277833779436e-05,-2.1608575299910304e-05,-0.005670881825456631,0.007362680887691129,0.9882560743556065
2016-10-21,-1,-0.00017056502635640316,-0.00011698882347375346,-0.0055388230323806156,0.007362680887691129,0.9882427402012419
2016-10-25,-1,-0.0016029775159105237,-0.001356188169222048,-0.004843291970566538,0.008831360475384705,0.9888348349273902
2016-10-27,-1,-0.0008387326240347727,-0.0007164545084330145,-0.004843291970566538,0.012141270222340288,0.9882859092094217
2016-10-31,-1,-0.0012666792743407313,-0.0010895953164851298,-0.004843291970566538,0.012141270222340288,0.9877826704682241
2016-11-02,-1,-0.0019110405625520357,-0.0016197108341959318,-0.00415987859281436,0.01530601859580322,0.9863764795032155
2016-11-04,-1,-0.00204203623929408,-0.001713290705016869,-0.0036897332251138006,0.01866376486001875,0.9850306821857754
2016-11-08,-1,-0.0012790682484877317,-0.0010564130271592262,-0.00415987859281436,0.01866376486001875,0.9834044198939379
2016-11-10,1,0.0015188024300476252,0.0016422319874846195,-0.004843291970566538,0.0143308057860835,0.9875913067357204
2016-11-14,1,0.0014819183071866867,0.0016582836955077343,-0.004843291970566538,0.0143308057860835,0.9883493569006319
2016-11-16,-1,-0.001056891341772078,-0.0006577114598844192,-0.005312992943712637,0.011187303166683869,0.9878993242948668
2016-11-18,-1,-0.0008920742737363451,-0.000571125964785255,-0.005312992943712637,0.011187303166683869,0.9879433482411943
2016-11-22,1,8.827208251001274e-05,0.0002623534843864392,-0.005313583731429869,0.00921565994267022,0.9882973652279243
2016-11-25,1,0.0003336357858924146,0.0005048326948100862,-0.005313583731429869,0.006758056694553945,0.9889284325267582
2016-11-29,1,0.0002548168403752529,0.0004006575104400497,-0.005313583731429869,0.006758056694553945,0.9892631449509219
2016-12-01,1,0.0024666940951500733,0.002664411820910886,-0.007618609219044259,0.003405482308032637,0.9892003550991558
2016-12-05,1,0.0027940311191595917,0.0030112063372637297,-0.007618609219044259,0.004965479015128439,0.9893519088102455
2016-12-07,1,0.00429444330453592,0.004735977444538504,-0.007618609219044259,0.004965479015128439,0.9906096042978456
2016-12-09,1,0.0037647411924915967,0.004142157628970588,-0.008697939243610465,0.005217510879347017,0.9899367858984698
2016-12-13,1,0.003251523610431649,0.0035491099902988307,-0.007746781493987434,0.007711097429587683,0.9900802640491421
2016-12-15,1,0.003211996100628451,0.003637825762670033,-0.007697725918641322,0.009066478314260627,0.9904842040201984
2016-12-19,1,0.00289198015002393,0.003254223120612864,-0.008935289342401656,0.009066478314260627,0.9897731529876955
2016-12-21,1,0.002794343694949914,0.0031362678740473058,-0.008935289342401656,0.009066478314260627,0.9898150337337789
2016-12-23,1,0.0025755230874208506,0.0028636974370919877,-0.008935289342401656,0.01481888947825904,0.988296051436368
2016-12-28,1,0.0022021052549651707,0.0024388230051045545,-0.00866854663144691,0.01481888947825904,0.9881096302972222
2016-12-30,1,0.0016079169442467164,0.001758784553193244,-0.008171709464328526,0.01481888947825904,0.988726245798525
2017-01-04,1,0.002646667559204532,0.002934279565279446,-0.00866854663144691,0.013005216345180839,0.9884709216401274
2017-01-06,1,0.002795840458537643,0.0031366197011226792,-0.008171709464328526,0.014471832223521436,0.9888646342872877
2017-01-10,1,0.0029798523414199273,0.0033504132730913876,-0.008171709464328526,0.009555350273707493,0.989122083014198
2017-01-12,1,0.0029227419672591573,0.0032969149942552217,-0.008171709464328526,0.014471832223521436,0.9888288692748524
2017-01-17,1,0.002983116373653758,0.00335488780526594,-0.007405692608271248,0.014133360317651902,0.9894570814319898
2017-01-19,1,0.0023647020015285045,0.002653850444865175,-0.006647351385223858,0.014133360317651902,0.9894362441701616
2017-01-23,1,0.002308840649224035,0.0026028340775350023,-0.0062151841763336746,0.014133360317651902,0.9898215199024728
2017-01-25,1,0.003634451131723274,0.004079004590041142,-0.007602701376274671,0.0041265770106405615,0.989937182324642
2017-01-27,1,0.00273506207775865,0.0030338235129580685,-0.007052557462070577,0.0041265770106405615,0.9910639301663379
2017-01-31,1,0.0023547399999124244,0.0025446871803370087,-0.009267497750672489,0.009268197773639759,0.9892956623533629
2017-02-02,1,0.001377999160783246,0.0013948206599609186,-0.009267497750672489,0.009268197773639759,0.9888824072947201
2017-02-06,1,0.0015585519797857836,0.0016043394608315214,-0.010343779094287462,0.0041265770106405615,0.9889158229623868
2017-02-08,1,0.0010428544304806673,0.0010477802010218685,-0.009177080054686487,0.0041265770106405615,0.9892711208167763
2017-02-10,1,0.001660340433465518,0.0017172274382190784,-0.009177080054686487,0.0028292471194676003,0.989705183617167
2017-02-14,1,0.002284784213780337,0.002456575225997054,-0.009177080054686487,0.002476852439873038,0.9888027855820088
2017-02-16,1,0.0016176278055152092,0.0017037888437544898,-0.008778599653119865,0.004399886854480032,0.9897099879309155
2017-02-21,1,0.001327355218468618,0.0013499110510982715,-0.009177080054686487,0.004399886854480032,0.9884375971295677
2017-02-23,1,0.000684830876003472,0.0007413305953069092,-0.007937666549862245,0.004399886854480032,0.9895284271914481
2017-02-27,1,0.0010116107155013437,0.0010153015296992247,-0.009137360100991525,0.00405854815572192,0.9886885720850296
2017-03-01,1,0.0021539698000396868,0.0023446089460547846,-0.007937666549862245,0.00851627844497526,0.9899850013959598
2017-03-03,1,0.0014145364460977368,0.0014677666164547114,-0.006794239284125892,0.0038590732442604905,0.9918835807407365
2017-03-07,1,3.0972218011032825e-06,0.0001668015157767246,-0.006049410676463029,0.0038590732442604905,0.992681101212102
2017-03-09,-1,-0.0007020164224467037,-0.0004313648410781438,-0.0054922457990768435,0.006693551309375296,0.9928657741080905
2017-03-13,-1,-0.00042381667368751987,-0.00017888238641979492,-0.0054922457990768435,0.006430777051222195,0.9933937774682444
2017-03-15,1,0.00021173251119513251,0.0003780019986384482,-0.0054922457990768435,0.0029990877262083626,0.9934003495057423
2017-03-17,1,0.00015143759839856,0.0003383491630433316,-0.006049410676463029,0.0029990877262083626,0.9925494575278502
2017-03-21,-1,-0.0017156554099748416,-0.0012491843396195523,-0.005644129828352745,0.005741209046935404,0.992808194134601
2017-03-23,-1,-0.0017130397837976233,-0.0012568775686676793,-0.005644129828352745,0.006430777051222195,0.9918373897029338
2017-03-27,-1,-0.002471234002757697,-0.0019210927170957768,-0.005644129828352745,0.007558751581721658,0.9896588270754952
2017-03-29,-1,-0.0022069541481895124,-0.0016788933694101707,-0.006416477651563651,0.006430777051222195,0.9896627314005207
2017-03-31,-1,-0.0026174225654029704,-0.002044404123773518,-0.006850765774702129,0.006430777051222195,0.9892808414678818
2017-04-04,-1,-0.0027478183076568687,-0.0021761818242945585,-0.008752910977426483,0.008218382167384367,0.987531765495315
2017-04-06,-1,-0.0008598840794310863,-0.0006515209735604749,-0.008752910977426483,0.008218382167384367,0.9877010485675299
2017-04-10,-1,-0.0010269830900522547,-0.0007680955621864891,-0.010398717320333936,0.006952013981533333,0.987667300434675
2017-04-12,-1,-0.001880760206299208,-0.0015318604896448764,-0.010398717320333936,0.006952013981533333,0.987817947552672
2017-04-17,-1,-0.0020844249385966857,-0.0016988675951422093,-0.010398717320333936,0.005823098846287093,0.9880702635585544
2017-04-19,-1,-0.002244757060734923,-0.0018629220118481676,-0.010398717320333936,0.007439484396298896,0.9878856797962619
2017-04-21,-1,-0.0014823816631809933,-0.0012141113780140553,-0.011938717597408227,0.006857906896628389,0.9876665841080204
2017-04-25,-1,-0.0016352175877483149,-0.0013338451784135797,-0.010398717320333936,0.005231393960913759,0.9904565839163341
2017-04-27,-1,-0.0013861349451512722,-0.00112213367683737,-0.010398717320333936,0.0027741364886374013,0.9914611197158181
2017-05-01,-1,-0.0006791910273033136,-0.0005625337812103274,-0.010398717320333936,0.0011200061306550493,0.9919231495493707
2017-05-03,1,0.00033386059582383645,0.0003872700430179265,-0.007806692442624179,0.00284663785079639,0.9927746945757692
2017-05-05,1,0.00021265877338956868,0.0002506201211678598,-0.01134074071239191,0.0018739775172469265,0.9921558319787572
2017-05-09,-1,-0.00017891857725275853,-0.00015623412270358102,-0.011122725802943644,0.005448898047390725,0.9908596075728766
2017-05-11,-1,-0.0012055784619129579,-0.0010316507157393728,-0.00897118912461526,0.006857906896628389,0.991782541985155
2017-05-15,-1,-0.0014750620183310052,-0.0012681122878039977,-0.004907278175563995,0.008065223481739445,0.9921927981127332
2017-05-17,-1,-0.0015991808847620873,-0.0013800560694090078,-0.00449759009015873,0.008065223481739445,0.9922061319756613
2017-05-19,-1,-0.0016963215072883359,-0.0014689974957817415,-0.002362141447724939,0.00588027315493867,0.9931692322796564
2017-05-23,-1,-0.0017885254607697772,-0.0015416092505445484,-0.007249458470641645,0.00588027315493867,0.991612344854055
2017-05-25,-1,-0.0021205541462182113,-0.0018152592256105594,-0.007249458470641645,0.00588027315493867,0.9914876990892065
2017-05-30,-1,-0.001603544010618884,-0.0014031346723685357,-0.007249458470641645,0.00833372608930554,0.9908010643248917
2017-06-01,-1,-0.0011534200098517213,-0.0010023002860597866,-0.007249458470641645,0.00833372608930554,0.9896754273065407
2017-06-05,-1,-0.0017188240293930452,-0.001509198912149729,-0.004411509235679093,0.010953076778472282,0.9891278479163639
2017-06-07,-1,-0.0012156461037743996,-0.0010651084195162181,-0.004411509235679093,0.010953076778472282,0.9901220497264295
2017-06-09,-1,-0.0008943641922892656,-0.0007922889792157287,-0.004411509235679093,0.011433283858010913,0.9896894475184882
2017-06-13,-1,-0.001037232542434275,-0.0008961548525833286,-0.004411509235679093,0.011433283858010913,0.9901538190727203
2017-06-15,-1,-0.0006958764794219707,-0.0005895895491941461,-0.0038020064120793126,0.010953076778472282,0.9910637346962938
2017-06-19,1,3.044042550023757e-05,7.625224523206094e-05,-0.004398036706532468,0.010953076778472282,0.9908284263408651
2017-06-21,-1,-0.0011241134785174654,-0.0010116656763531488,-0.0015223885653712728,0.010953076778472282,0.9921841894842895
2017-06-23,-1,-0.0011925708612020548,-0.0010759116311441473,-0.0001912601411064443,0.010953076778472282,0.9918005283438879
2017-06-27,-1,-0.001045362943755952,-0.0009476825574935312,-0.0008651623863367762,0.007481943215506642,0.9924050558021882
2017-06-29,1,0.0002038028363284406,0.00027076592169151994,-0.0018227540311042698,0.005847601236104638,0.9946324436525529
2017-07-03,1,0.0006075670813881954,0.0006999050796015558,-0.004304378651389442,0.004137072460609183,0.9946860369003574
2017-07-06,1,0.001114856565649834,0.0013206197210468746,-0.0018227540311042698,0.004137072460609183,0.9954390094166792
2017-07-10,1,0.0018907315295919136,0.0022300232950571396,-0.0018227540311042698,0.00393029975909252,0.9954222694945158
2017-07-12,1,0.0015936354172432206,0.0018622387958118771,-0.005905153424462855,0.00393029975909252,0.994451536324215
2017-07-14,1,0.0017048775799138648,0.001990959382350864,-0.0064084649699240725,0.003398315733474859,0.9929440510764423
2017-07-18,1,0.0013437639125723855,0.0015507430730991039,-0.0064084649699240725,0.00393029975909252,0.9929244681680202
2017-07-20,1,0.0014056138397071163,0.0016243716337126465,-0.00779431580730512,0.00393029975909252,0.9915262850856397
2017-07-24,1,0.0020360152488204304,0.002379311997386731,-0.00779431580730512,0.0028805630506129965,0.9912615792774729
2017-07-26,1,0.0016622800991143338,0.0019421282193326829,-0.00749072604202611,0.0039621057536272895,0.990725924666575
2017-07-28,1,0.0012799945655629394,0.0014825288242017994,-0.00749072604202611,0.0039621057536272895,0.9909345229448147
2017-08-01,1,0.0006370319804256961,0.0007334752965445128,-0.006793854657490172,0.005998154408990123,0.9914148233219866
2017-08-03,1,0.00113748526167393,0.001329285054635844,-0.006793854657490172,0.0061125689040028314,0.9909473017215826
2017-08-07,1,0.0017568082849091908,0.0020563359435205398,-0.007478030415788344,0.004499387541621025,0.9906975718634693
2017-08-09,1,0.0013462894558166566,0.0016077961857798085,-0.006793854657490172,0.0061125689040028314,0.9906424789206516
2017-08-11,-1,-3.677722340520035e-05,-4.169033868815474e-06,-0.005606109546964727,0.007509363401337602,0.9917929179788136
2017-08-15,1,6.907346497923947e-06,4.517051276062895e-05,-0.003921951612957344,0.011591609616534302,0.9913351245114849
2017-08-17,-1,-0.00104614239383463,-0.0009343786460573808,-0.001168225847763131,0.011591609616534302,0.9916846434458387
2017-08-21,-1,-0.0005506459634587518,-0.0005218585327297567,0.00023191451412936707,0.012211949144761432,0.9914235297745438
2017-08-23,-1,-0.00028988127022979283,-0.00028339626905310943,-0.0007859794674982477,0.011591609616534302,0.9927038263979486
2017-08-25,-1,-0.0004133947003637829,-0.0003800072131841182,0.00023191451412936707,0.011591609616534302,0.9919955739993097
2017-08-29,1,0.00026261608651935735,0.0003306962251204502,-0.0007859794674982477,0.011437543783357096,0.9925205969389067
2017-08-31,1,0.0009275676302949751,0.001096773395932909,-0.0010935223032167995,0.010436851115267366,0.9932612977694047
2017-09-05,1,5.115118703093524e-05,5.3702592018445994e-05,-0.0005024339094793059,0.011436995527842445,0.992853449879978
2017-09-07,1,0.0006149000222207171,0.0006868734713232672,0.0003197234746988372,0.010436851115267366,0.9937689634550589
2017-09-11,1,0.0006535884663236171,0.0007067198198097454,-0.0005225525857898372,0.010058909809038782,0.9933388012896901
2017-09-13,1,0.0014410865893231617,0.0016272836396559083,-0.0010935223032167995,0.00912609528281591,0.9939915328618617
2017-09-15,1,0.0020531782544765172,0.0023219649838096303,-0.002000879348553028,0.00830613376714688,0.9940713630763731
