JNU-Tangyin/eata/results/Batch4_SP500/Batch4_SP500-SEGXF.csv
Date,Action,Predicted_Q25,Predicted_Q75,Actual_Q25,Actual_Q75,RL_Reward
2010-12-14,0,0.0,4.691120930834083e-05,0.0,0.0,0.9977960417575455
2010-12-16,1,4.5503187078158345e-05,5.41138238444767e-05,0.0,0.0,0.9977660267878786
2010-12-20,1,3.8227982178326895e-05,4.5909142134509915e-05,0.0,0.0,0.9982067685797718
2010-12-22,0,0.0,0.0,0.0,0.0,0.9982486881602062
2010-12-27,0,0.0,0.0,0.0,0.0,0.9982486881602062
2010-12-29,1,4.127535812070483e-05,4.951597441463549e-05,0.0,0.0,0.9982034534085069
2010-12-31,1,9.379820290039818e-06,1.3472975385011523e-05,0.0,0.0,0.9999885737327237
2011-01-04,1,1.1292780910276954e-05,1.571486136076454e-05,0.0,0.0,0.9999864963612152
2011-01-06,1,1.3265149088991375e-05,1.8037542139343265e-05,0.0,0.0,0.9999843488993466
2011-01-10,1,1.518672640866363e-05,2.0289526418959163e-05,0.0,0.0,0.9999822621882218
2011-01-12,-1,-4.167826621101362e-05,-3.446716477418353e-05,0.0,0.0,0.9949871822249675
2011-01-14,-1,-4.283938863012716e-05,-3.545792946385183e-05,0.0,0.0,0.9949861170425346
2011-01-19,-1,-4.8613722810377114e-05,-4.069188183683672e-05,0.0,0.0,0.9949806679849917
2011-01-21,-1,-4.944983938697689e-05,-4.140532493887746e-05,0.0,0.0,0.9949799009639786
2011-01-25,-1,-5.0285955963576586e-05,-4.2118768040918135e-05,0.0,0.0,0.9949791339441482
2011-01-27,0,0.0,0.0,0.0,0.0,0.9950248756218907
2011-01-31,0,0.0,0.0,0.0,0.0,0.9950248756218907
2011-02-02,0,0.0,0.0,0.0,0.0,0.9950248756218907
2011-02-04,-1,-4.8572858077467555e-05,-4.018461342028422e-05,0.0,0.0,0.9949809393072829
2011-02-08,-1,-5.095676448836429e-05,-4.2373693832033435e-05,0.0,0.0,0.9949786757135206
2011-02-10,1,4.7648640796179684e-05,5.0832132159628426e-05,0.0,0.0,0.9999507620380185
2011-02-14,1,4.404328014439934e-05,4.657730313650848e-05,0.0,0.0,0.999954691761289
2011-02-16,1,3.985173971523121e-05,4.170334095383992e-05,0.0,0.0,0.9999592241224053
2011-02-18,1,3.599491949583628e-05,3.7183357076811465e-05,0.0,0.0,0.9999634122004297
2011-02-23,1,3.213809927644131e-05,3.2663373199782976e-05,0.0,0.0,0.9999676003135357
2011-02-25,1,2.8143389322754544e-05,2.8281279057046394e-05,0.0,0.0,0.9999717884617234
2011-03-01,1,2.362340544572605e-05,2.4424458837651422e-05,0.0,0.0,0.9999759766449938
2011-03-03,1,1.9103421568697543e-05,2.0567638618256443e-05,0.0,0.0,0.999980164863347
2011-03-07,1,1.4583437691669078e-05,1.6710818398861498e-05,0.0,0.0,0.9999843531167836
2011-03-09,1,0.00011774533878751675,0.0001355891481593135,0.0,0.0,0.9998733487990851
2011-03-11,1,0.0001158927978237944,0.00013341807074029047,0.0,0.0,0.9998753601027586
2011-03-15,1,0.00011404025686007215,0.00013124699332126756,0.0,0.0,0.9998773714145235
2011-03-17,1,0.0001121877158963498,0.00012907591590224452,0.0,0.0,0.9998793827343805
2011-03-21,1,9.403942127179029e-05,0.00010618677527740708,0.0,0.0,0.9998998969233547
2011-03-23,1,9.093720353129785e-05,0.00010255114453176213,0.0,0.0,0.9999032651844982
2011-03-25,1,8.783498579080539e-05,9.89155137861171e-05,0.0,0.0,0.9999066334683347
2011-03-29,1,8.473276805031298e-05,9.527988304047213e-05,0.0,0.0,0.9999100017748642
2011-03-31,1,8.163055030982053e-05,9.164425229482715e-05,0.0,0.0,0.9999133701040869
2011-04-04,1,7.852833256932808e-05,8.800862154918216e-05,0.0,0.0,0.9999167384560027
2011-04-06,1,7.542611482883567e-05,8.437299080353718e-05,0.0,0.0,0.9999201068306123
2011-04-08,1,7.232389708834319e-05,8.073736005789218e-05,0.0,0.0,0.9999234752279159
2011-04-12,1,6.92216793478508e-05,7.710172931224722e-05,0.0,0.0,0.9999268436479133
2011-04-14,1,6.611946160735833e-05,7.346609856660222e-05,0.0,0.0,0.9999302120906052
2011-04-18,1,6.30172438668659e-05,6.983046782095725e-05,0.0,0.0,0.9999335805559917
2011-04-20,1,5.9915026126373456e-05,6.619483707531226e-05,0.0,0.0,0.9999369490440729
2011-04-25,0,0.0,0.0,0.0,0.0,1.0
2011-04-27,0,0.0,0.0,0.0,0.0,1.0
2011-04-29,0,0.0,0.0,0.0,0.0,1.0
2011-05-03,0,0.0,0.0,0.0,0.0,1.0
2011-05-05,0,0.0,0.0,0.0,0.0,0.9985022456792352
2011-05-09,0,0.0,0.0,0.0,0.0,0.9985022456792352
2011-05-11,0,0.0,0.0,0.0,0.0,0.9985022456792352
2011-05-13,0,0.0,0.0,0.0,0.0,0.9985022456792352
2011-05-17,0,0.0,0.0,0.0,0.0,0.9985022456792352
2011-05-19,1,0.000287777184866816,0.0003604633490645585,0.0,0.0,0.9982187379787064
2011-05-23,1,0.00030612439682649,0.00038187590904118044,0.0,0.0,0.9982012155162072
2011-05-25,-1,-1.237132748728569e-07,-8.359126489956429e-08,0.0,0.0,0.9985021423372348
2011-05-27,-1,-1.4698673642511388e-07,-1.0345008730515806e-07,0.0,0.0,0.9985021208356509
2011-06-01,-1,-1.7026019797737124e-07,-1.2330890971075217e-07,0.0,0.0,0.998502099334068
2011-06-03,-1,-1.241572457756533e-06,-1.069684273894027e-06,0.0,0.0,0.9999988443729696
2011-06-07,1,3.593389639778667e-08,6.030257188038607e-08,0.0,0.0,0.9999999518817683
2011-06-09,1,1.6041604758254873e-08,3.064865432746731e-08,0.0,0.0,0.999999976654871
2011-06-13,1,2.5179974035973353e-08,4.135832691990662e-08,0.0,0.0,0.9999999667308506
2011-06-15,1,3.4318343313691945e-08,5.206799951234606e-08,0.0,0.0,0.9999999568068304
2011-06-17,1,4.345671259141045e-08,6.27776721047854e-08,0.0,0.0,0.9999999468828104
2011-06-21,1,5.259508186912901e-08,7.348734469722481e-08,0.0,0.0,0.9999999369587906
2011-06-23,1,6.173345114684744e-08,8.419701728966404e-08,0.0,0.0,0.999999927034771
2011-06-27,0,0.0,0.0,0.0,0.0,1.0
2011-06-29,0,0.0,0.0,0.0,0.0,1.0
2011-07-01,0,0.0,0.0,0.0,0.0,1.0
2011-07-06,0,0.0,0.0,0.0,0.0,1.0
2011-07-08,0,0.0,0.0,0.0,0.0,1.0
2011-07-12,0,0.0,0.0,0.0,0.0,1.0
2011-07-14,0,0.0,0.0,0.0,0.0,1.0
2011-07-18,0,0.0,0.0,0.0,0.0,1.0
2011-07-20,0,0.0,0.0,0.0,0.0,1.0
2011-07-22,0,0.0,0.0,0.0,0.0,1.0
2011-07-26,0,0.0,0.0,0.0,0.0,1.0
2011-07-28,0,0.0,0.0,0.0,0.0,1.0
2011-08-01,0,0.0,0.0,0.0,0.0,1.0
2011-08-03,0,0.0,0.0,0.0,0.0,1.0
2011-08-05,0,0.0,0.0,0.0,0.0,1.0
2011-08-09,0,0.0,0.0,0.0,0.0,1.0
2011-08-11,0,0.0,0.0,0.0,0.0,1.0
2011-08-15,0,0.0,0.0,0.0,0.0,1.0
2011-08-17,0,0.0,0.0,0.0,0.0,1.0
2011-08-19,0,0.0,0.0,0.0,0.0,1.0
2011-08-23,0,0.0,0.0,0.0,0.0,1.0
2011-08-25,0,0.0,0.0,0.0,0.0,1.0
2011-08-29,0,0.0,0.0,0.0,0.0,1.0
2011-08-31,0,0.0,0.0,0.0,0.0,1.0
2011-09-02,0,0.0,0.0,0.0,0.0,1.0
2011-09-07,0,0.0,0.0,0.0,0.0,1.0
2011-09-09,0,0.0,0.0,0.0,0.0,1.0
2011-09-13,0,0.0,0.0,0.0,0.0,1.0
2011-09-15,0,0.0,0.0,0.0,0.0,1.0
2011-09-19,0,0.0,0.0,0.0,0.0,1.0
2011-09-21,0,0.0,0.0,0.0,0.0,1.0
2011-09-23,0,0.0,0.0,0.0,0.0,1.0
2011-09-27,0,0.0,0.0,0.0,0.0,1.0
2011-09-29,0,0.0,0.0,0.0,0.0,1.0
2011-10-03,0,0.0,0.0,0.0,0.0,1.0
2011-10-05,0,0.0,0.0,0.0,0.0,1.0
2011-10-07,0,0.0,0.0,0.0,0.0,1.0
2011-10-11,0,0.0,0.0,0.0,0.0,1.0
2011-10-13,0,0.0,0.0,0.0,0.0,1.0
2011-10-17,0,0.0,0.0,0.0,0.0,1.0
2011-10-19,0,0.0,0.0,0.0,0.0,1.0
2011-10-21,0,0.0,0.0,0.0,0.0,1.0
2011-10-25,0,0.0,0.0,0.0,0.0,1.0
2011-10-27,0,0.0,0.0,0.0,0.0,1.0
2011-10-31,0,0.0,0.0,0.0,0.0,1.0
2011-11-02,0,0.0,0.0,0.0,0.0,1.0
2011-11-04,0,0.0,0.0,0.0,0.0,1.0
2011-11-08,0,0.0,0.0,0.0,0.0,1.0
2011-11-10,0,0.0,0.0,0.0,0.0,1.0
2011-11-14,0,0.0,0.0,0.0,0.0,1.0
2011-11-16,0,0.0,0.0,0.0,0.0,1.0
2011-11-18,0,0.0,0.0,0.0,0.0,1.0
2011-11-22,0,0.0,0.0,0.0,0.0,1.0
2011-11-25,0,0.0,0.0,0.0,0.0,1.0
2011-11-29,0,0.0,0.0,0.0,0.0,0.9950248756218907
2011-12-01,0,0.0,0.0,0.0,0.0,0.9950248756218907
2011-12-05,0,0.0,0.0,0.0,0.0,0.9950248756218907
2011-12-07,0,0.0,0.0,0.0,0.0,0.9950248756218907
2011-12-09,0,0.0,0.0,0.0,0.0,0.9950248756218907
2011-12-13,0,0.0,0.0,0.0,0.0,0.9950248756218907
2011-12-15,0,0.0,0.0,0.0,0.0,0.9950248756218907
2011-12-19,0,0.0,0.0,0.0,0.0,0.9950248756218907
2011-12-21,0,0.0,0.0,0.0,0.0,0.9950248756218907
2011-12-23,-1,-0.0039036632906498782,-0.0039036632906498782,0.0,0.0,0.9915585674604058
2011-12-28,0,0.0,0.0,0.0,0.0,1.0
2011-12-30,0,0.0,0.0,0.0,0.0,1.0
2012-01-04,0,0.0,0.0,0.0,0.0,1.0
2012-01-06,0,0.0,0.0,0.0,0.0,1.0
2012-01-10,0,0.0,0.0,0.0,0.0,1.0
2012-01-12,-1,-0.0017259217886135179,-0.0015349232554392714,0.0,0.0,0.9983722314285131
2012-01-17,-1,-0.0016600659425633959,-0.0014787318451234478,0.0,0.0,0.993473476442794
2012-01-19,-1,-0.0015941272303232707,-0.0014224666728532174,0.0,0.0,0.9935337870822328
2012-01-23,-1,-0.0015282116122584176,-0.001366222072110621,0.0,0.0,0.9935940834906244
2012-01-25,-1,-0.0014419954409330099,-0.0012917915038667595,0.0,0.0,0.9911552156969456
2012-01-27,0,0.0,0.0,0.0,0.0,0.9914360751394534
2012-01-31,0,0.0,0.0,0.0,0.0,0.9914360751394534
2012-02-02,0,0.0,0.0,0.0,0.0,0.9914360751394534
2012-02-06,0,0.0,0.0,0.0,0.0,0.9914360751394534
2012-02-08,0,0.0,0.0,0.0,0.0,0.9903970122847509
2012-02-10,0,0.0,0.0,0.0,0.0,0.9880168060178319
2012-02-14,0,0.0,0.0,0.0,0.0,0.9929219237565067
2012-02-16,-1,-0.0008465641287910357,-0.000781326149085583,0.0,0.0,0.9922066539319702
2012-02-21,-1,-0.0007876669124636014,-0.000731197590820021,0.0,0.0,0.9922540928187111
2012-02-23,-1,-0.0009199220977264676,-0.0008506082394902666,0.0,0.0,0.9917479105760855
2012-02-27,-1,-0.0008326638923965778,-0.0007748212932242936,0.0,0.0,0.992874508577443
2012-02-29,-1,-0.0007834157310929654,-0.0007333441602958572,0.0,0.0,0.9929088330575095
2012-03-02,0,0.0,0.0,0.0,0.0,0.9905041140008133
2012-03-06,1,0.0005481117870783834,0.0006282079648600621,0.0,0.0,0.9900575704987996
2012-03-08,1,0.00043859020811584887,0.0005039172250746284,0.0,0.0,0.9911850469542218
2012-03-12,1,0.0006613584987213087,0.0007555689020811369,0.0,0.0,0.9933204314100509
2012-03-14,1,0.0006489243562640236,0.0007409179549551959,0.0,0.0,0.9933322388305748
2012-03-16,1,0.0006338185184660902,0.0007232147332825043,0.0,0.0,0.9933465505970682
2012-03-20,0,0.0,0.0,0.0,0.0,0.9939406505845623
2012-03-22,0,0.0,0.0,0.0,0.0,0.9969668993702864
2012-03-26,0,0.0,0.0,0.0,0.0,0.9969668993702864
2012-03-28,0,0.0,0.0,0.0,0.0,0.9969668993702864
2012-03-30,0,0.0,0.0,0.0,0.0,1.0
2012-04-03,0,0.0,0.0,0.0,0.0,1.0
2012-04-05,0,0.0,0.0,0.0,0.0,1.0
2012-04-10,1,0.00014769765425360384,0.00017030877625751143,0.0,0.0,0.9998410220627475
2012-04-12,1,0.00014581179627996428,0.00016809364087461552,0.0,0.0,0.9994387511009774
2012-04-16,1,0.0001436836258585763,0.00016559908327660883,0.0,0.0,0.9994407924007572
2012-04-18,0,0.0,0.0,0.0,0.0,0.9995776436462812
2012-04-20,0,0.0,0.0,0.0,0.0,0.9995776436462812
2012-04-24,1,0.00019556742968735873,0.0002195494947710028,0.0,0.0,0.9975832747215554
2012-04-26,1,0.00017204939904341972,0.0001928119914582852,0.0,0.0,0.9976054606358481
2012-04-30,-1,-6.378071383780748e-05,-5.442292570716391e-05,0.0,0.0,0.9977148026496272
2012-05-02,1,0.0001618451004733265,0.00018085310761369625,0.0,0.0,0.9976152118376336
2012-05-04,1,0.00015504223475993102,0.0001728805183839703,0.0,0.0,0.9976217127447292
2012-05-08,1,0.00014962478371052172,0.00016644912475381664,0.0,0.0,0.9976269185076554
2012-05-10,-1,-9.168477614184833e-05,-7.823295570404815e-05,0.0,0.0,0.9981128096587477
2012-05-14,0,0.0,0.0,0.0,0.0,0.9981876498116207
2012-05-16,1,0.000151871805529837,0.00017373231631228394,0.0,0.0,0.9980254636810317
2012-05-18,1,0.0001477750897674824,0.00016895455707906183,0.0,0.0,0.9973086205025194
2012-05-22,1,7.174700230693873e-05,8.823494182864757e-05,0.0,0.0,0.998178931525506
2012-05-24,1,7.48424463155756e-05,9.185674688034194e-05,0.0,0.0,0.9971720146779676
2012-05-29,1,7.694440922851868e-05,9.426195472890273e-05,0.0,0.0,0.9949814260207037
2012-05-31,1,7.45447898012665e-05,9.116641396636962e-05,0.0,0.0,0.9949838051952979
2012-06-04,0,0.0,0.0,0.0,0.0,0.9950559887051974
2012-06-06,0,0.0,0.0,0.0,0.0,0.9950559887051974
2012-06-08,0,0.0,0.0,0.0,0.0,0.9950559887051974
2012-06-12,0,0.0,0.0,0.0,0.0,0.9950559887051974
2012-06-14,1,0.00010434582262180435,0.00012034747059445525,0.0,0.0,0.9900446834861723
2012-06-18,1,0.00014279451688970017,0.00016362925764294971,0.0,0.0,0.9896575153560596
2012-06-20,1,7.824088351454807e-05,9.052546072331675e-05,0.0,0.0,0.9907025715678244
2012-06-22,1,0.00013647366492958613,0.00015641580057605323,0.0,0.0,0.9916461392713789
2012-06-26,1,0.00023490669271168318,0.00026765182933899455,0.0,0.0,0.9937396452266112
2012-06-28,1,0.00023505501382221032,0.0002675364711386719,0.0,0.0,0.9937395828693115
2012-07-02,1,0.00022467358605699367,0.0002556357092147559,0.0,0.0,0.9937481002901668
2012-07-05,1,0.0002187584516189441,0.0002487034928371322,0.0,0.0,0.993752984890901
2012-07-09,1,0.0002447504621260738,0.0002808891612352553,0.0,0.0,0.9937311630586413
2012-07-11,1,0.00021185688831974628,0.00024305863090884626,0.0,0.0,0.9917851969947113
2012-07-13,1,0.0002940400416243661,0.00033584878252817456,0.0,0.0,0.9966353256624039
2012-07-17,1,0.00018478703119456657,0.00020559436748681932,0.0,0.0,0.9974164659457991
2012-07-19,1,0.0001352327481733271,0.00014519847683642628,0.0,0.0,0.9972042258337118
2012-07-23,1,0.00012437095394042682,0.00013253450476092386,0.0,0.0,0.9972145742117341
2012-07-25,1,0.00011417386130114482,0.00012058406587597343,0.0,0.0,0.9972243108928154
2012-07-27,1,0.0001031495245738322,0.00010766329846147773,0.0,0.0,0.9971148843109241
2012-07-31,1,0.0001376369739916537,0.00014999968727555965,0.0,0.0,0.9952625753701818
2012-08-02,1,5.073518953161856e-05,5.837286404309272e-05,0.0,0.0,0.9937154083610132
2012-08-06,1,3.0323396257869268e-05,3.9455282153991354e-05,0.0,0.0,0.9929015655928441
2012-08-08,-1,-0.00010390192268954332,-7.917830414279536e-05,0.0,0.0,0.9948795716220721
2012-08-10,-1,-0.00011281593537904737,-8.672153856996754e-05,0.0,0.0,0.9932327978680374
2012-08-14,1,7.803332043109692e-06,9.061959107838723e-06,0.0,0.0,0.9936622309080548
2012-08-16,1,7.4463082664083125e-06,8.655493286293253e-06,0.0,0.0,0.9939210212054289
2012-08-20,1,7.141708532109904e-06,8.296746682512666e-06,0.0,0.0,0.9939212362045544
2012-08-22,1,6.12460222827164e-06,6.908467794002572e-06,0.0,0.0,0.9939219694628272
2012-08-24,1,6.103968076111186e-06,6.876658327339945e-06,0.0,0.0,0.9940512842306489
2012-08-28,1,3.060434305643347e-06,3.4235125622801946e-06,0.0,0.0,0.9958725811119428
2012-08-30,1,5.718125720967447e-07,6.018580805397534e-07,0.0,0.0,0.9974986872241447
2012-09-04,1,1.7012422704869725e-06,1.8779910192868513e-06,0.0,0.0,0.9983391185094931
2012-09-06,1,1.6298248196765953e-06,1.7933640729463028e-06,0.0,0.0,0.996339150226681
2012-09-10,-1,-6.774616491093168e-05,-5.195266968368935e-05,0.0,0.0,0.9961363314848254
2012-09-12,-1,-7.29680652999463e-05,-5.6378975418263224e-05,0.0,0.0,0.9961321022408068
2012-09-14,-1,-7.980452217218426e-05,-6.221853487554162e-05,0.0,0.0,0.9961265410258023
2012-09-18,-1,-8.571108815663236e-05,-6.725958792622203e-05,0.0,0.0,0.9961217385931991
2012-09-20,-1,-9.193555098162914e-05,-7.25708091012193e-05,0.0,0.0,0.9961166783647656
2012-09-24,-1,-9.816001380662614e-05,-7.788203027621674e-05,0.0,0.0,0.996111618187743
2012-09-26,-1,-0.00010424662593213299,-8.309161638189474e-05,0.0,0.0,0.9961066613997719
2012-09-28,-1,-0.000115430030821902,-9.219416471262197e-05,0.0,0.0,0.9950291897894543
2012-10-02,-1,-0.00015299259919585115,-0.0001226589992585071,0.0,0.0,0.9949995846534117
2012-10-04,1,3.580736779471297e-05,4.441079000779837e-05,0.0,0.0,0.9970842590930813
2012-10-08,-1,-0.00015069018989064006,-0.00012095101830970088,0.0,0.0,0.9973419084893471
2012-10-10,-1,-0.0001589170290923488,-0.00012795645301350164,0.0,0.0,0.9973343328449047
2012-10-12,-1,-6.823659185583488e-05,-5.5579092711779806e-05,0.0,0.0,0.9974154342596684
2012-10-16,-1,-7.096126577236354e-05,-5.792227325771207e-05,0.0,0.0,0.9925973626220361
2012-10-18,-1,-7.71011564823588e-05,-6.229198289222462e-05,0.0,0.0,0.992592877488876
2012-10-22,-1,-8.116123710864426e-05,-6.572178277716346e-05,0.0,0.0,0.9925896188968577
2012-10-24,-1,-8.46507097020201e-05,-6.872097057245022e-05,0.0,0.0,0.9925867904270348
2012-10-26,-1,-0.00021135431265009258,-0.00018061864120651086,0.0,0.0,0.9935456299286193
2012-11-01,-1,-0.0002106905151105672,-0.0001800200338040691,0.0,0.0,0.9935461842664592
2012-11-05,-1,-0.00021062321102586058,-0.00017998365627661588,0.0,0.0,0.9935462272700363
2012-11-07,-1,-0.0003684956567897329,-0.0003195733573278462,0.0,0.0,0.9948501234700793
2012-11-09,-1,-0.0003161199968071815,-0.00027761199731649424,0.0,0.0,0.9948911099707163
2012-11-13,-1,-0.0004011443100893849,-0.0003465919683525849,0.0,0.0,0.9906245457431844
2012-11-15,-1,-0.0003482725894913,-0.00030450354906273367,0.0,0.0,0.9954332002887709
2012-11-19,-1,-0.0002222599017688388,-0.00020579183110841994,0.0,0.0,0.993473247508196
2012-11-21,-1,-0.00015582770654919294,-0.00014465874874437215,0.0,0.0,0.9935362042663787
2012-11-26,-1,-0.00014538112030944327,-0.0001358064899709883,0.0,0.0,0.9920598160994978
2012-11-28,-1,-0.00011334183145362309,-0.00010714999329655258,0.0,0.0,0.9909022741148338
2012-11-30,-1,-9.316261499284865e-05,-8.934490036480572e-05,0.0,0.0,0.9909188246193195
2012-12-04,-1,-8.534296773783093e-05,-8.274807167218822e-05,0.0,0.0,0.9909250747102132
2012-12-06,-1,-7.416387566044505e-05,-7.403224907648754e-05,0.0,0.0,0.9908108925784767
2012-12-10,-1,-0.000129423127406663,-0.00011875472462652372,0.0,0.0,0.9907677601502707
2012-12-12,-1,-0.00020068587588523444,-0.00018198606784645776,0.0,0.0,0.9949094220196818
2012-12-14,-1,-0.00018930449720926218,-0.00017227454395692162,0.0,0.0,0.9949186522301793
2012-12-18,-1,-0.0002693371330913934,-0.0002428274721966966,0.0,0.0,0.9946082545301155
2012-12-20,-1,-0.0003015585200006293,-0.00027175498556583644,0.0,0.0,0.9945846759678588
2012-12-24,-1,-0.0004205079220477334,-0.0003772887600238491,0.0,0.0,0.9959916073165448
2012-12-27,-1,-0.00030037771241617976,-0.0002717501566081615,0.0,0.0,0.9972588560192504
2012-12-31,-1,-0.00028342088638397923,-0.00025725101599838,0.0,0.0,0.997272689476672
2013-01-03,-1,-0.0003947305209018602,-0.0003490314095022538,0.0,0.0,0.9971837470041647
2013-01-07,-1,-0.00039610918981832963,-0.0003506105509555671,0.0,0.0,0.9967862469117282
2013-01-09,-1,-0.000370894972870717,-0.0003307732180264955,0.0,0.0,0.9968058561602517
2013-01-11,-1,-0.0003396150970901091,-0.0003049374054237921,0.0,0.0,0.9968308539829289
2013-01-15,-1,-0.00032356700463519026,-0.00029124385935222046,0.0,0.0,0.9968439192312678
2013-01-17,-1,-0.00013418844072914636,-0.00012431998792195883,0.0,0.0,0.9983276313651637
2013-01-22,-1,-0.00012765784136825034,-0.00011797212172730497,0.0,0.0,0.9983333891280434
2013-01-24,-1,-3.938691944441117e-05,-2.8623135275436808e-05,0.0,0.0,0.9970963461975981
2013-01-28,1,5.050859490546468e-05,8.280153750904885e-05,0.0,0.0,0.9970787717715666
2013-01-30,1,2.504193728975008e-05,5.035831513114249e-05,0.0,0.0,0.9971004868960628
2013-02-01,1,4.124632121433373e-05,6.934897321470429e-05,0.0,0.0,0.9970870154503156
2013-02-05,0,0.0,0.0,0.0,0.0,0.9966215013580348
2013-02-07,0,0.0,0.0,0.0,0.0,0.9966215013580348
2013-02-11,0,0.0,0.0,0.0,0.0,0.9966215013580348
2013-02-13,0,0.0,0.0,0.0,0.0,0.9966215013580348
2013-02-15,1,4.29838546407527e-06,6.074714385738603e-06,0.0,0.0,0.9956874969511456
2013-02-20,0,0.0,0.0,0.0,0.0,0.995691276824434
2013-02-22,0,0.0,0.0,0.0,0.0,0.9970043852860474
2013-02-26,0,0.0,0.0,0.0,0.0,0.9970043852860474
2013-02-28,-1,-1.4986099665966954e-05,-1.4776404346138517e-05,0.0,0.0,0.9969910933016484
2013-03-04,-1,-1.5010277777087106e-05,-8.638006681040223e-06,0.0,0.0,0.996994440733826
2013-03-06,-1,-1.74407299757087e-05,-1.31793920763743e-05,0.0,0.0,0.9980149526990969
2013-03-08,-1,-1.9311036742320766e-05,-1.476937084336595e-05,0.0,0.0,0.995876605598297
2013-03-12,0,0.0,0.0,0.0,0.0,0.9958913653580501
2013-03-14,0,0.0,0.0,0.0,0.0,0.9958913653580501
2013-03-18,0,0.0,0.0,0.0,0.0,0.9978527210549157
2013-03-20,0,0.0,0.0,0.0,0.0,0.9978527210549157
2013-03-22,1,2.6209521994557045e-05,2.6841141946010792e-05,0.0,0.0,0.997826310214268
2013-03-26,1,4.4808019937565727e-05,4.929981284696558e-05,0.0,0.0,0.9978058711970706
2013-03-28,1,4.2330181196623e-05,4.639592038586075e-05,0.0,0.0,0.9978085502746078
2013-04-02,1,2.93100076781603e-05,3.198686937489327e-05,0.0,0.0,0.9928719581665528
2013-04-04,1,4.611316434268633e-05,5.2920112362774434e-05,0.0,0.0,0.9928556254222839
2013-04-08,-1,-2.3006490208276588e-06,-1.908997017690678e-06,0.0,0.0,0.99502279169465
2013-04-10,-1,-1.686926609859137e-06,-1.192798989168921e-06,0.0,0.0,0.9943099686859793
2013-04-12,-1,-9.980971745838962e-05,-8.109700873335876e-05,0.0,0.0,0.9942219730711781
2013-04-16,-1,-9.903341850488808e-05,-8.063337072601725e-05,0.0,0.0,0.9924689087376825
2013-04-18,-1,-0.00010313288161113537,-8.413136820277655e-05,0.0,0.0,0.9924651670232127
2013-04-22,0,0.0,0.0,0.0,0.0,0.991094204759014
2013-04-24,0,0.0,0.0,0.0,0.0033333301544189453,0.9904397926240224
2013-04-26,0,0.0,0.0,0.0,0.0033333301544189453,0.9904397926240224
2013-04-30,0,0.0,0.0,0.0,0.0,0.9953690582421711
2013-05-02,0,0.0,0.0,0.0,0.0,0.9953690582421711
2013-05-06,-1,-0.0001411613529840755,-0.00011261160038767889,0.0,0.0,0.9952433601276228
2013-05-08,-1,-5.169956377627266e-05,-2.5229754718528448e-05,0.0,0.0,0.9960458983580184
2013-05-10,-1,-7.240436851816597e-05,-4.295557785587251e-05,0.0,0.0,0.9960268350671164
2013-05-14,1,0.00015819358105048436,0.00016608933413874425,0.0,0.0,0.9977228983306493
2013-05-16,1,0.00024147445931777328,0.00026887386069300454,0.0,0.0,0.9976524943205969
2013-05-20,1,0.0005804728984727431,0.0006650008551795127,0.0,0.0,0.9987828069401292
2013-05-22,1,0.000743797779271844,0.0008328532785368957,0.0,0.0,0.9973546549347727
2013-05-24,-1,-0.00023863901252375755,-0.0002095312018799417,0.0,0.0,0.9979414446285662
2013-05-29,-1,-0.00023585186419709534,-0.0002072347945196184,0.0,0.0,0.9979436739527354
2013-05-31,1,0.0002891374280174817,0.00030509621163503386,0.0,0.0,0.9946695975351131
2013-06-04,-1,-0.00041801897015030756,-0.0003674163688002347,0.0,0.0,0.9946312342924174
2013-06-06,-1,-0.0003784849368274304,-0.0003329751101947009,0.0,0.0,0.9927233824975593
2013-06-10,-1,-0.0003684061924018234,-0.00032438092969845893,0.0,0.0,0.990079502885687
2013-06-12,-1,-0.0002637710486842439,-0.00023901240248931624,0.0,0.0,0.990139625448982
2013-06-14,-1,-0.0002490032574459351,-0.00022641131421261256,0.0,0.0,0.9901484464836915
2013-06-18,-1,-0.00023444348241270552,-0.00021401981960693622,0.0,0.0,0.9901571239601423
2013-06-20,-1,-2.7340168774801378e-05,-2.264425139040497e-05,0.0,0.0,0.9921183052409827
2013-06-24,-1,-0.00010869890886897809,-0.00010365962207894248,0.0,0.0,0.9886331287366624
2013-06-26,-1,-8.566818084519898e-05,-8.261952065180027e-05,0.0,0.0,0.9886499902301715
2013-06-28,-1,-2.811103216746342e-05,-2.5504363828079126e-05,0.0,0.0,0.9918585104070439
2013-07-02,1,0.001806699554070954,0.0020449359516722942,0.0,0.0,0.990412837469112
2013-07-05,1,8.016246399061987e-05,9.753899760582554e-05,0.0,0.0,0.9937866090479501
2013-07-09,1,0.0008004633526491654,0.0008759530157210944,0.0,0.0,0.9942580921990212
2013-07-11,0,0.0,0.0,0.0,0.0,0.9944906642360501
2013-07-15,1,0.0009869310839067738,0.0010657656408934475,0.0,0.0,0.993801521085403
2013-07-17,-1,-2.057646859776567e-05,-1.6416916903587435e-05,0.0,0.0,0.994472371127353
2013-07-19,-1,-1.4639698380016594e-05,-9.459344566949387e-06,0.0,0.0,0.9944787472613621
2013-07-23,-1,-0.00015001613611611685,-0.00013900462601632553,0.0,0.0,0.9978088133783442
2013-07-25,-1,-0.00013916858388159862,-0.00012983428547407467,0.0,0.0,0.9978187786093725
2013-07-29,-1,-0.00011991150917044598,-0.000117794292324771,0.0,0.0,0.9968081362957433
2013-07-31,-1,-0.0001000835927293655,-9.527374458081174e-05,0.0,0.0,0.9968273395622141
2013-08-02,1,0.00014570299983477606,0.00016735968514316465,0.0,0.0,0.996793862248173
2013-08-06,-1,-0.00020820818004811963,-0.00020115944766749668,0.0,0.0,0.9983543096229709
2013-08-08,-1,-0.0003601278616540483,-0.0003285009124954521,0.0,0.0,0.9986512609514252
2013-08-12,-1,-0.0003373285943161213,-0.0003089645342452058,0.0,0.0,0.998669935576692
2013-08-14,-1,-0.0003151020304258303,-0.00029001288964932077,0.0,0.0,0.9986880902192748
2013-08-16,-1,-0.000292454236511622,-0.00027067987994841493,0.0,0.0,0.9987066017797609
2013-08-20,-1,-0.00027006743493992433,-0.0002515776284142636,0.0,0.0,0.9987248963184211
2013-08-22,-1,-0.00014829619686031718,-0.00013974097538061657,0.0,0.0,0.9942761298813871
2013-08-26,-1,-5.053063271824518e-05,-4.865871082358835e-05,0.0,0.0,0.9932685165850544
2013-08-28,1,4.292988171301607e-06,1.900454514162197e-05,0.0,0.0,0.9933033282360579
2013-08-30,1,1.5032296212077315e-05,3.158692370508393e-05,0.0,0.0,0.993293304913632
2013-09-04,1,2.5834682617105545e-05,4.423974324502345e-05,0.0,0.0,0.9916799545977081
2013-09-06,-1,-1.1533000439702324e-05,-3.3646740577330007e-06,0.0,0.0,0.9916983011761896
2013-09-10,0,-4.155149806247634e-06,5.431247435567132e-06,0.0,0.0,0.991314142400313
2013-09-12,1,3.969153518604823e-06,1.4894450022228815e-05,0.0,0.0,0.9913118776213303
2013-09-16,1,1.1648606772182752e-05,2.368418770273212e-05,0.0,0.0,0.9913065397783968
2013-09-18,1,1.9925226010199823e-05,3.353658383923444e-05,0.0,0.0,0.9913007201498351
2013-09-20,1,0.000515251688939549,0.0005284566927203329,0.0,0.0,0.9934463132624218
2013-09-24,1,0.00033337474519966814,0.0003427819262578945,0.0,0.0,0.9953585854789943
2013-09-26,1,0.0002764054334131646,0.00029227651541971055,0.0,0.0,0.9953926876071417
2013-09-30,1,0.00033319718768284076,0.00033685150553482726,0.0,0.0,0.9953584810421844
2013-10-02,1,0.0004245635873331926,0.0004305217550103342,0.0,0.0,0.9968813478801829
2013-10-04,1,0.0004511112107870052,0.0004652936232155526,0.0,0.0,0.9968622138932185
2013-10-08,1,0.0005259934201772635,0.0005479735131848506,0.0,0.0,0.9971472678179075
2013-10-10,-1,-0.0002840523240830261,-0.0002560441234661304,0.0,0.0,0.9973017804412128
2013-10-14,-1,-0.0003156131547045909,-0.0002811950060961233,0.0,0.0,0.9954510372167445
2013-10-16,-1,-0.0002855494302469758,-0.00025486134848173695,0.0,0.0,0.9954758166652052
2013-10-18,-1,-0.00041021000871884546,-0.00036536825361853766,0.0,0.0,0.9974163618262215
2013-10-22,-1,-0.00041948011933279534,-0.00037395397188055206,0.0,0.0,0.9968176370678072
2013-10-24,-1,-0.0004034706594975415,-0.00036031167580169844,0.0,0.0,0.9968306605247294
2013-10-28,-1,-0.00038574718681734087,-0.00034516039308722646,0.0,0.0,0.9968451051592769
2013-10-30,-1,-0.00036982942954711707,-0.00033162638196627503,0.0,0.0,0.9968580382563573
2013-11-01,-1,-0.0003522179979035331,-0.00031656900622085234,0.0,0.0,0.9968723933886346
2013-11-05,-1,-0.0003352400970981789,-0.0003020820715568242,0.0,0.0,0.9968862167852199
2013-11-07,-1,-0.00031876099098915577,-0.00028804416487446374,0.0,0.0,0.9968996216313095
2013-11-11,1,0.00019781193344928837,0.00022890780460798875,0.0,0.0,0.9983907327342404
2013-11-13,1,0.00042660260399230115,0.0004351186722335326,0.0,0.0,0.9982130588001429
2013-11-15,1,0.00037649936928509537,0.0003765672364587437,0.0,0.0,0.9982547722264257
2013-11-19,1,0.00045169958820214336,0.0004587478529886681,0.0,0.0,0.9991155940514831
2013-11-21,1,0.000530809609984823,0.00054206372477725,0.0,0.0,0.9974054285177364
2013-11-25,1,0.0003775629749901564,0.0003969339507319622,0.0,0.0,0.9975257050213341
2013-11-27,1,0.0001319043445671824,0.00015136177084030741,0.0,0.0,0.9966436647025013
2013-12-02,1,5.4551843775293505e-05,9.138919192801954e-05,0.0,0.0,0.9966960430120595
2013-12-04,1,8.258888552139853e-06,5.1969567330298385e-05,0.0,0.0,0.9967263480860736
2013-12-06,0,-3.932650194871771e-05,1.136581713458585e-05,0.0,0.0,0.9967244535943092
2013-12-10,1,4.518383068270314e-06,5.141249755755316e-05,0.0,0.0,0.9968417646836403
2013-12-12,1,0.00033568701211586277,0.00035260730138511116,0.0,0.0,0.9963496616668984
2013-12-16,1,0.0002656041790212749,0.0002928141119578002,0.0,0.0,0.9963975311458967
2013-12-18,-1,-0.00013678707952519305,-6.533923207352794e-05,0.0,0.0,0.996517506233502
2013-12-20,-1,-0.00024232432375676362,-0.00015695381314650666,0.0,0.0,0.9981307255939944
2013-12-24,1,0.0002248450430128624,0.00026340150871928655,0.0,0.0,0.9980864362146126
2013-12-27,0,-2.7508541401607067e-05,3.241965915121273e-05,0.0,0.0,0.9993510405999442
2013-12-31,1,0.0003795791459220577,0.0003914178935289455,0.0,0.0,0.9990253607516372
2014-01-03,1,0.00030780090000460773,0.0003301308497213415,0.0,0.0,0.9990861742451494
2014-01-07,1,0.00023631019596377864,0.0002691291292849584,0.0,0.0,0.9991467375717265
2014-01-09,1,0.00027807695729671346,0.0003082875946733024,0.0,0.0,0.9994383185720984
2014-01-13,1,0.00011577622714185396,0.00016715001895898547,0.0,0.0,0.9998585568859342
2014-01-15,1,4.334552275723263e-05,0.00010532741048294389,0.0,0.0,0.9999256690588795
2014-01-17,-1,-9.330600450693861e-05,-4.103581187855644e-05,0.0,0.0,0.99723778005225
2014-01-22,-1,-0.0002258193102798386,-0.00011944568053010469,0.0,0.0,0.9971329113056558
2014-01-24,-1,-0.0003035376958336823,-0.0001857131581103178,0.0,0.0,0.997061335740694
2014-01-28,-1,-0.00038111393396979997,-0.00025191710299116583,0.0,0.0,0.9969898726724351
2014-01-30,-1,-0.0004503735182152297,-0.0003123674778020581,0.0,0.0,0.9963311474399069
2014-02-03,-1,-0.0005270873181549218,-0.00037775598633267517,0.0,0.0,0.99626062167426
2014-02-05,-1,-0.0006033533924153062,-0.00044283244352010757,0.0,0.0,0.996190482891803
2014-02-07,-1,-0.0006791689084170765,-0.0005075716315734275,0.0,0.0,0.9961207448477654
2014-02-11,-1,-0.000755472455924177,-0.0005726744390376019,0.0,0.0,0.9960505940982658
2014-02-13,1,2.833425722234072e-05,4.2588781545477444e-05,0.0,0.0,0.9966843695110429
2014-02-18,-1,-1.877238547005663e-05,-1.2348948850849469e-05,0.0,0.0,0.9993865238416264
2014-02-20,-1,-9.118869810551848e-06,-9.524653609885005e-07,0.0,0.0,0.9993966131045892
2014-02-24,1,7.429873054775835e-05,0.00010113636924679631,0.0,0.0,0.9949590936979927
2014-02-26,1,6.74366249206552e-05,9.157596792531919e-05,0.0,0.0,0.9949661424419026
2014-02-28,1,5.425371515874186e-06,2.193010847197732e-05,0.0,0.0,0.9956136464830412
2014-03-04,-1,-2.5565939658332823e-05,-1.5795533490653947e-05,0.0,0.0,0.9956098312723427
2014-03-06,-1,-1.4022730481518761e-05,-2.3353064553299614e-06,0.0,0.0,0.9956204969222403
2014-03-10,0,-3.149195220936706e-06,1.0407886451868016e-05,0.0,0.0,0.9956207810776255
2014-03-12,1,7.724340039645417e-06,2.3151079359066067e-05,0.0,0.0,0.9956120099336585
2014-03-14,1,3.632077179258509e-05,5.28866396762163e-05,0.0,0.0,0.9955831001757317
2014-03-18,-1,-5.233885039503748e-05,-5.213409660553334e-05,0.0,0.0,0.9955807325905368
2014-03-20,-1,-4.537834055424249e-05,-4.442147113130748e-05,0.0,0.0,0.9955873518626064
2014-03-24,-1,-3.067258014499224e-05,-2.7511361962045292e-05,0.0,0.0,0.9999709088752646
2014-03-26,1,2.0044615007718126e-05,3.143163048583031e-05,0.0,0.0,0.999974262539687
2014-03-28,1,1.3803776405114286e-05,2.2738071530693168e-05,0.0,0.0,0.9999817294098525
2014-04-01,-1,-9.244670243756991e-06,-1.997747707972873e-06,0.0,0.0,0.9950192149016355
2014-04-03,0,-2.4295095022517494e-06,5.9892506270943545e-06,0.0,0.0,0.9950213214647665
2014-04-07,-1,-1.2782663902712938e-05,-9.233537456605713e-06,0.0,0.0,0.9950139769014574
2014-04-09,-1,-1.1255711174568315e-05,-7.422264684965563e-06,0.0,0.0,0.995015629413977
2014-04-11,-1,-7.200715091521068e-06,-4.376878706746732e-06,0.0,0.0,0.9950191443146894
2014-04-15,-1,-1.9358693684462804e-05,-1.3312585951088225e-05,0.0,0.0,0.9949275561342602
2014-04-17,-1,-1.3689515343218508e-05,-6.30441206682764e-06,0.0,0.0,0.9949338307078783
2014-04-22,0,-9.484273645902192e-07,3.705523304293586e-06,0.0,0.0,0.9949422566647841
2014-04-24,1,4.159005729079715e-06,1.0760744126084758e-05,0.0,0.0,0.9936446313222875
2014-04-28,1,8.699062496892982e-06,1.6081444139042388e-05,0.0,0.0,0.993640883046661
2014-04-30,1,5.7318418166233203e-05,6.925449122493684e-05,0.0,0.0,0.9985550260848937
2014-05-02,1,5.35038700691809e-05,6.630931208137946e-05,0.0,0.0,0.9968922140533087
2014-05-06,-1,-1.5746446668099448e-05,-1.1611848412768665e-05,0.0,0.0,0.9969256078513393
2014-05-08,-1,-1.046944677062584e-05,-5.42749106686068e-06,0.0,0.0,0.9969308240037917
2014-05-12,-1,-1.2782295295758786e-05,-7.657825787356577e-06,0.0,0.0,0.9969288003064355
2014-05-14,1,1.5873153770182218e-05,2.2116710891337102e-05,0.0,0.0,0.9970025344084572
2014-05-16,1,3.757859093961787e-05,4.655752060517284e-05,0.0,0.0,0.9969821652164264
2014-05-20,1,4.47924097022986e-05,5.504361910063113e-05,0.0,0.0,0.994154930656993
2014-05-22,0,0.0,0.0,0.0,0.0,0.995494191836736
2014-05-27,0,0.0,0.0,0.0,0.0,0.995494191836736
2014-05-29,0,0.0,0.0,0.0,0.0,0.995494191836736
2014-06-02,0,0.0,0.0,0.0,0.0,0.9967341370594548
2014-06-04,0,0.0,0.0,0.0,0.0,0.9967341370594548
2014-06-06,0,0.0,0.0,0.0,0.0,0.9967341370594548
2014-06-10,0,0.0,0.0,0.0,0.0,0.9967341370594548
2014-06-12,0,0.0,0.0,0.0,0.0,0.9967341370594548
2014-06-16,0,0.0,0.0,0.0,0.0,0.9967341370594548
2014-06-18,0,0.0,0.0,0.0,0.0,0.999569149599232
2014-06-20,0,0.0,0.0,0.0,0.0,0.999569149599232
2014-06-24,0,0.0,0.0,0.0,0.0,0.999569149599232
2014-06-26,0,0.0,0.0,0.0,0.0,0.999569149599232
2014-06-30,0,0.0,0.0,0.0,0.0,1.0
2014-07-02,0,0.0,0.0,0.0,0.0,1.0
2014-07-07,0,0.0,0.0,0.0,0.0,1.0
2014-07-09,0,0.0,0.0,0.0,0.0,1.0
2014-07-11,0,0.0,0.0,0.0,0.0,1.0
2014-07-15,0,0.0,0.0,0.0,0.0,1.0
2014-07-17,0,0.0,0.0,0.0,0.0,1.0
2014-07-21,0,0.0,0.0,0.0,0.0,1.0
2014-07-23,0,0.0,0.0,0.0,0.0,0.9962748000608326
2014-07-25,0,0.0,0.0,0.0,0.0,0.9962748000608326
2014-07-29,0,0.0,0.0,0.0,0.0,0.9962748000608326
2014-07-31,0,0.0,0.0,0.0,0.0,0.9962748000608326
2014-08-04,0,0.0,0.0,0.0,0.0,0.9962748000608326
2014-08-06,0,0.0,0.0,0.0,0.0,0.9962748000608326
2014-08-08,0,0.0,0.0,0.0,0.0,0.9962748000608326
2014-08-12,0,0.0,0.0,0.0,0.0,0.9962748000608326
2014-08-14,0,0.0,0.0,0.0,0.0,0.9962748000608326
2014-08-18,0,0.0,0.0,0.0,0.0,0.9962748000608326
2014-08-20,0,0.0,0.0,0.0,0.0,0.9993531700681102
2014-08-22,0,0.0,0.0,0.0,0.0,0.9989440339245348
2014-08-26,0,0.0,0.0,0.0,0.0,0.9989440339245348
2014-08-28,0,0.0,0.0,0.0,0.0,0.9989440339245348
2014-09-02,0,0.0,0.0,0.0,0.0,0.9989440339245348
2014-09-04,0,0.0,0.0,0.0,0.0,0.9989440339245348
2014-09-08,0,0.0,0.0,0.0,0.0,0.9969686615727639
2014-09-10,0,0.0,0.0,0.0,0.0,0.9969686615727639
2014-09-12,0,0.0,0.0,0.0,0.0,0.9969686615727639
2014-09-16,0,0.0,0.0,0.0,0.0,0.9943240314957688
2014-09-18,0,0.0,0.0,0.0,0.0,0.994964365517199
2014-09-22,0,0.0,0.0,0.0,0.0,0.9953702475973076
2014-09-24,0,0.0,0.0,0.0,0.0,0.9924963512516021
2014-09-26,0,0.0,0.0,0.0,0.0,0.9924963512516021
2014-09-30,0,0.0,0.0,0.0,0.0,0.9924963512516021
2014-10-02,0,0.0,0.0,0.0,0.0,0.9924963512516021
2014-10-06,-1,-1.5734644847182988e-05,-1.4436812789514143e-05,0.0,0.0,0.9924059044592934
2014-10-08,-1,-5.5991490106335154e-06,-5.22812056948827e-06,0.0,0.0,0.9924143864289152
2014-10-10,-1,-1.213868860214966e-05,-1.1279611678413703e-05,0.0,0.0,0.9924088541967627
2014-10-14,-1,-1.802250468822744e-05,-1.5879739440914147e-05,0.0,0.0,0.9950368584055708
2014-10-16,-1,-1.6854175576337176e-05,-1.4936263542881695e-05,0.0,0.0,0.9950379038539967
2014-10-20,-1,-2.587917463051661e-05,-2.3008056507900268e-05,0.0,0.0,0.995029440155423
2014-10-22,-1,-1.7327094898578757e-05,-1.628433279509114e-05,0.0,0.0,0.9979256525050332
2014-10-24,-1,-1.5738771697925658e-05,-1.4929045430827298e-05,0.0,0.0,0.9979271182127301
2014-10-28,-1,-1.4010087148206406e-05,-1.3456407832789705e-05,0.0,0.0,0.9979287122472656
2014-10-30,-1,-1.2419203077349115e-05,-1.2098935324452016e-05,0.0,0.0,0.9979301803271446
2014-11-03,1,1.755818180259944e-06,3.3093025310315306e-06,0.0,0.0,0.9999974674460582
2014-11-05,1,1.3298550535512152e-06,3.1276839010966605e-06,0.0,0.0,0.9999977712354899
2014-11-07,1,4.4273155748754965e-07,1.344977588961275e-06,0.0,0.0,0.9999991053070814
2014-11-11,1,1.0798774637112401e-06,2.0916779948976366e-06,0.0,0.0,0.9999984142247853
2014-11-13,1,1.717023369934937e-06,2.8383784008340062e-06,0.0,0.0,0.9999977223043025
2014-11-17,1,2.1884831442364147e-06,3.5816175645888136e-06,0.0,0.0,0.9999971149579691
2014-11-19,-1,-3.1299504151832436e-06,-2.8589453926398e-06,0.0,0.0,0.9999970055610629
2014-11-21,-1,-2.5058646398780337e-06,-2.1275507509925177e-06,0.0,0.0,0.9999976832976717
2014-11-25,-1,-1.8817788645728136e-06,-1.3961561093452246e-06,0.0,0.0,0.9999983610351991
2014-11-28,-1,-1.2576930892676002e-06,-6.647614676979376e-07,0.0,0.0,0.9999990387736455
2014-12-02,-1,-7.023232185695845e-07,-7.48122955822652e-08,0.0,0.0,0.999999555487443
2014-12-04,0,-1.2521753885681276e-07,6.015242249860966e-07,0.0,0.0,0.9999995804831178
2014-12-08,1,4.5188814085596367e-07,1.2778607455544626e-06,0.0,0.0,0.9999991351263048
2014-12-10,1,1.028993820568744e-06,1.954197266122835e-06,0.0,0.0,0.9999985084066816
2014-12-12,1,1.7900996345639213e-06,2.911606426348016e-06,0.0,0.0,0.999997649152496
2014-12-16,1,2.417671704715028e-06,3.647086816253611e-06,0.0,0.0,0.9999969676299347
2014-12-18,1,3.045243774866137e-06,4.382567206159209e-06,0.0,0.0,0.9999962861083026
2014-12-22,1,3.672815845017246e-06,5.118047596064807e-06,0.0,0.0,0.9999956045875992
2014-12-24,1,3.6014010598135697e-06,4.917692145211692e-06,0.0,0.0,0.9999957404715412
2014-12-29,1,4.138998084804739e-06,5.5477266677126526e-06,0.0,0.0,0.9999951566610817
2014-12-31,1,4.676595109795897e-06,6.1777611902136035e-06,0.0,0.0,0.9999945728513041
2015-01-05,1,5.214192134787065e-06,6.807795712714568e-06,0.0,0.0,0.9999939890422082
2015-01-07,1,6.855421989700161e-06,8.843368873716769e-06,0.0,0.0,0.9999921506661809
2015-01-09,1,8.074663564702315e-06,1.0328070587693334e-05,0.0,0.0,0.9999907987175881
2015-01-13,1,1.0130564579851457e-05,1.2719281475109007e-05,0.0,0.0,0.9999885752075
2015-01-15,1,1.0783667372336193e-05,1.3484682485306049e-05,0.0,0.0,0.9999878659723076
2015-01-20,1,1.0688475480018951e-05,1.3263793190598945e-05,0.0,0.0,0.9999880240090907
2015-01-22,1,1.1257257756476676e-05,1.3930375134501886e-05,0.0,0.0,0.9999874063421568
2015-01-26,1,1.1826040032934404e-05,1.4596957078404836e-05,0.0,0.0,0.9999867886759858
2015-01-28,1,1.3304147578243142e-05,1.642483270083151e-05,0.0,0.0,0.9959604121097236
2015-01-30,1,1.2131214516692485e-05,1.365418372618108e-05,0.0,0.0,0.9958120094512019
2015-02-03,1,1.1697045831131018e-05,1.3145361601473298e-05,0.0,0.0,0.9958123694682496
2015-02-05,1,1.1262877145569555e-05,1.263653947676552e-05,0.0,0.0,0.9958127294855574
2015-02-09,1,1.0828708460008081e-05,1.212771735205773e-05,0.0,0.0,0.9958130895031255
2015-02-11,1,1.1391137366091876e-05,1.4268642353624047e-05,0.0,0.0,0.9931028770297213
2015-02-13,0,-3.505707033950405e-07,1.3745675361108418e-07,0.0,0.0,0.992477481081344
2015-02-18,1,5.597042851380265e-06,6.240518803539506e-06,0.0,0.0,0.9924736779480077
2015-02-20,1,5.351082093939011e-06,5.952266151153603e-06,0.0,0.0,0.9924738509370592
2015-02-24,1,4.5513267351839e-06,5.030333032315151e-06,0.0,0.0,0.9924744121887982
2015-02-26,1,9.956184992940697e-05,0.00011255307301265081,0.0,0.0,0.9963941444312118
2015-03-02,1,0.00013466544208555006,0.00015200959671050543,0.0,0.0,0.996501166727878
2015-03-04,1,9.200508789978748e-05,0.00010271495644193897,0.0,0.0,0.9965416002665388
2015-03-06,1,0.00012380617387471957,0.0001394582604099168,0.0,0.0,0.9958015264547586
2015-03-10,1,2.9609886404083743e-05,2.996849525070285e-05,0.0,0.0,0.9952544286257154
2015-03-12,1,7.270012353963767e-06,1.0371450890466363e-05,0.0,0.0,0.9979928589468504
2015-03-16,1,6.748422119871428e-06,9.994515812137382e-06,0.0,0.0,0.9986340715385498
2015-03-18,-1,-6.0145775402189744e-05,-5.747078681054749e-05,0.0,0.0,0.9985887474330485
2015-03-20,-1,-0.0001029445765767864,-9.484558358884072e-05,0.0,0.0,0.9985533132007876
2015-03-24,-1,-9.552448760929474e-05,-8.851415632314319e-05,0.0,0.0,0.998559374976711
2015-03-26,-1,-9.778308787622373e-06,-4.99091389133612e-06,0.0,0.0,0.9986351109961408
2015-03-30,-1,-6.844747624622664e-05,-6.0073782952217544e-05,0.0,0.0,0.9985844224418602
2015-04-01,-1,-7.346509039564606e-05,-6.465860363594596e-05,0.0,0.0,0.9965202273747171
2015-04-06,1,0.00022665470750078684,0.0002566489497629569,0.0,0.0,0.9971055376973464
2015-04-08,1,4.0797896837593416e-05,4.613267891811416e-05,0.0,0.0,0.9978957901039169
2015-04-10,-1,-7.272789169892338e-05,-6.427111482614246e-05,0.0,0.0,0.9978660025298879
2015-04-14,-1,-0.0001632067748157742,-0.00014586729441505076,0.0,0.0,0.9968806719385563
2015-04-16,-1,-0.00010513618232781556,-9.379809953531825e-05,0.0,0.0,0.9969293320927819
2015-04-20,-1,-0.00010080658555760937,-9.010373317927357e-05,0.0,0.0,0.9969328576141447
2015-04-22,-1,-9.647698878740314e-05,-8.640936682322888e-05,0.0,0.0,0.996936383160443
2015-04-24,-1,-9.214739201719694e-05,-8.27150004671842e-05,0.0,0.0,0.9969399087316767
2015-04-28,-1,-8.78177952469907e-05,-7.902063411113949e-05,0.0,0.0,0.9969434343278463
2015-04-30,-1,-0.00016795580796644385,-0.0001499580166913107,0.0,0.0,0.9989381895163115
2015-05-04,-1,-0.00016091755847604428,-0.00014395240612228248,0.0,0.0,0.9989439437832908
2015-05-06,-1,-0.00015181203123864403,-0.00013604566685692428,0.0,0.0,0.9989514635733093
2015-05-08,-1,-0.00014491907053688037,-0.0001301640285747244,0.0,0.0,0.9989570992055252
2015-05-12,-1,-0.00014143075367951155,-0.0001271879987330016,0.0,0.0,0.9991931228483062
2015-05-14,-1,-0.0001126963497905293,-0.00010057471223717751,0.0,0.0,0.9992177779710565
2015-05-18,-1,-0.0001078632189650817,-9.646770659250316e-05,0.0,0.0,0.9992217222576802
2015-05-20,-1,-9.69724561660785e-05,-8.645826126422978e-05,0.0,0.0,0.998854264833165
2015-05-22,-1,-7.819031737298275e-05,-6.810863633781845e-05,0.0,0.0,0.9980901267262782
2015-05-27,-1,-7.683473925385208e-05,-6.705092980202184e-05,0.0,0.0,0.9977925393438282
2015-05-29,-1,-7.181783830729621e-05,-6.250915197417805e-05,0.0,0.0,0.9977957431670829
2015-06-02,-1,-7.051673172229282e-05,-6.139894133600914e-05,0.0,0.0,0.9977965323973766
2015-06-04,-1,-6.921562513728942e-05,-6.028873069784022e-05,0.0,0.0,0.9977973216289188
2015-06-08,-1,-6.365723102924632e-05,-5.505057438221788e-05,0.0,0.0,0.9966529253157294
2015-06-10,1,4.390438793700055e-05,4.829498146208202e-05,0.0,0.0,0.9967771657088376
2015-06-12,1,4.146833267563611e-05,4.544005697025673e-05,0.0,0.0,0.9967794897157504
2015-06-16,1,3.893047742926525e-05,4.242646086927748e-05,0.0,0.0,0.9967819245419055
2015-06-18,1,0.00010822523937867399,0.0001207093560904808,0.0,0.0,0.9971020412319688
2015-06-22,1,9.752475996826894e-06,1.0295838624613482e-05,0.0,0.0,0.9979707421615786
2015-06-24,1,7.061623026688198e-05,7.803704485191398e-05,0.0,0.0,0.9982132037904662
2015-06-26,1,6.697127335047938e-05,7.374220854691792e-05,0.0,0.0,0.9982171595286348
2015-06-30,1,6.27506684410475e-05,6.875791463678523e-05,0.0,0.0,0.998221745602877
2015-07-02,1,5.889493351625531e-05,6.421905063688019e-05,0.0,0.0,0.9982259280054032
2015-07-07,1,0.00013363865405820457,0.00014861511589497312,0.0,0.0,0.9993046804365966
2015-07-09,1,0.00021537255621501943,0.00024084749266612836,0.0,0.0,0.9997719419978759
2015-07-13,-1,-0.0003877629231880253,-0.0003246475538320081,0.0,0.0,0.9937010105562234
2015-07-15,-1,-0.00038957747892224854,-0.0003262005966127488,0.0,0.0,0.9936993479054069
2015-07-17,-1,-0.00039658745919625264,-0.00033216560347038124,0.0,0.0,0.9922843348042593
2015-07-21,-1,-0.00019616815945568911,-0.00017326643214392548,0.0,0.0,0.9924612638958413
2015-07-23,-1,-0.00017481568342866163,-0.00015579882337955235,0.0,0.0,0.9924803827552845
2015-07-27,-1,-0.0001680665267129392,-0.00015005313207145532,0.0,0.0,0.9924865366142367
2015-07-29,-1,-0.0001610275981364494,-0.00014404694205058947,0.0,0.0,0.9924929615693191
2015-07-31,-1,-0.00015371683528757904,-0.00013780157480176421,0.0,0.0,0.9924996382948761
2015-08-04,-1,-0.00022145990617272146,-0.00019239844745797463,0.0,0.0,0.9924393861337696
2015-08-06,-1,-9.322396439846161e-05,-8.304610010450442e-05,0.0,0.0,0.9876644787700257
2015-08-10,1,0.000369010425706654,0.0004182865585991146,0.0,0.0,0.9932677049027964
2015-08-12,1,0.00035946612656853605,0.0004070466204974569,0.0,0.0,0.9932767650945762
2015-08-14,1,0.00035954505381589967,0.00040669651130586723,0.0,0.0,0.9946457020500097
2015-08-18,1,0.00043999352114561826,0.000497236744482261,0.0,0.0,0.9945611279651014
2015-08-20,1,0.00042779108378597936,0.00048284735066823084,0.0,0.0,0.9945742798183472
2015-08-24,1,0.00041308103820688295,0.0004656289133110995,0.0,0.0,0.9945900715454985
2015-08-26,1,0.0004104044602733809,0.0004584699364014031,0.0,0.0,0.9945949362809965
2015-08-28,1,0.00042372230862899516,0.00047608898702531163,0.0,0.0,0.994579634830921
2015-09-01,1,0.00040791895447813055,0.0004575683140611761,0.0,0.0,0.9945966115897198
2015-09-03,-1,-0.00011243337235607687,-8.887648262602219e-05,0.0,0.0,0.9995213689673021
2015-09-08,-1,-0.00012023690060068652,-9.551600822626406e-05,0.0,0.0,0.9995149921427365
2015-09-10,-1,-0.00012796609045421397,-0.00010209846337387857,0.0,0.0,0.9995086727503222
2015-09-14,-1,-0.0001354792211871652,-0.00010850928148964006,0.0,0.0,0.9995025232897256
2015-09-16,-1,-0.00014299235192011636,-0.00011492009960540149,0.0,0.0,0.9994963739047972
2015-09-18,-1,-0.00015023551766176136,-0.00012111328378803062,0.0,0.0,0.9994904385636735
2015-09-22,-1,-2.47635314939529e-05,-2.0786356516335958e-05,0.0,0.0,0.9995894424103633
2015-09-24,-1,-2.5127834203856114e-05,-2.1097209407797778e-05,0.0,0.0,0.9995891441804454
2015-09-28,-1,-2.0410718463060065e-05,-1.7140733784227908e-05,0.0,0.0,0.9959088193187848
2015-09-30,-1,-2.0702403702015077e-05,-1.7389623505498404e-05,0.0,0.0,0.9959085822910748
2015-10-02,-1,-5.995625884429418e-05,-5.2027968054285504e-05,0.0,0.0,0.9962572789127949
2015-10-06,-1,-5.903640119967234e-05,-5.12430702185271e-05,0.0,0.0,0.9962581249227693
2015-10-08,-1,-5.8116543555050366e-05,-5.045817238276858e-05,0.0,0.0,0.9962589709341805
2015-10-12,-1,-5.7196685910428586e-05,-4.9673274547010225e-05,0.0,0.0,0.9962598169470286
2015-10-14,-1,-5.6276828265806704e-05,-4.88883767112518e-05,0.0,0.0,0.9962606629613135
2015-10-16,-1,-5.535697062118471e-05,-4.8103478875493245e-05,0.0,0.0,0.9962615089770352
2015-10-20,-1,-5.99026865685873e-05,-5.2069442589909064e-05,0.0,0.0,0.9928552711282526
2015-10-22,-1,-5.8514348450284796e-05,-5.087869579229945e-05,0.0,0.0,0.9928563957150135
2015-10-26,1,0.00028979221712423816,0.0003268740903468039,0.0,0.0,0.9962599576036453
2015-10-28,1,0.0002794471885769177,0.00031477368844101954,0.0,0.0,0.9962259391180588
2015-10-30,1,0.00023601414580162218,0.0002612019314309928,0.0,0.0,0.996268257972459
2015-11-03,1,0.00016185730877911955,0.00017857177301693124,0.0,0.0,0.9930465992573457
2015-11-05,1,0.0001633735022218011,0.0001796169698849103,0.0,0.0,0.99222563779536
2015-11-09,1,0.0001389676004652262,0.00014984606022170157,0.0,0.0,0.992245972510787
2015-11-11,1,0.00016195329386812216,0.00017897795878458816,0.0,0.0,0.9920175472752282
2015-11-13,1,0.0001413076032107493,0.00015388186481445909,0.0,0.0,0.9920321269554326
2015-11-17,-1,-0.0001397061735906614,-0.00011789011748246638,0.0,0.0,0.9954358429203226
2015-11-19,-1,-0.00014093715799584421,-0.00011894204363794422,0.0,0.0,0.9954349716913264
2015-11-23,-1,-0.00014266720901921415,-0.0001204151657797127,0.0,0.0,0.9954337503327324
2015-11-25,-1,-0.000200062186479095,-0.0001662223940008847,0.0,0.0,0.9954730471986654
2015-11-30,-1,-0.0002347019703627233,-0.0001943447400575111,0.0,0.0,0.9954493934189768
2015-12-02,-1,-7.382231006069122e-05,-5.228296029068361e-05,0.0,0.0,0.9973663532776531
2015-12-04,-1,-0.00015124412737943066,-0.00012045753711956031,0.0,0.0,0.9972735604016694
2015-12-08,-1,-0.00016035004680643687,-0.00012822745292407142,0.0,0.0,0.9972670986271055
2015-12-10,-1,-0.00015032935164247826,-0.00011913067998540419,0.0,0.0,0.9960822533388478
2015-12-14,-1,-0.00015638161505660816,-0.00012450250527103125,0.0,0.0,0.9960784674061183
2015-12-16,-1,-0.00016564362653660663,-0.00013241653468354264,0.0,0.0,0.9960728618748845
2015-12-18,-1,-0.0001748824967998402,-0.00014031081811572563,0.0,0.0,0.9941179185790351
2015-12-22,-1,-0.0001768698292486623,-0.00014236703485817826,0.0,0.0,0.9927554364251839
2015-12-24,-1,-0.00018260520358335814,-0.00014741384898411884,0.0,0.0,0.9927524770627424
2015-12-29,-1,-0.00019075591559819993,-0.00015440147291293107,0.0,0.0,0.9927483872883125
2015-12-31,-1,-1.4489947319102336e-05,-1.342175625130138e-05,0.0,0.0,0.9943408404899151
2016-01-05,-1,-3.270774871993013e-05,-3.162870194404729e-05,0.0,0.0,0.9951847624964104
2016-01-07,0,0.0,0.0,0.0,0.0,0.995210047992824
2016-01-11,0,0.0,0.0,0.0,0.0,0.9966452302942822
2016-01-13,0,0.0,0.0,0.0,0.0,0.9966452302942822
2016-01-15,0,0.0,0.0,0.0,0.0,0.9962287494165158
2016-01-20,0,0.0,0.0,0.0,0.0,0.9982044561083295
2016-01-22,0,0.0,0.0,0.0,0.0,0.9995807111921593
2016-01-26,0,0.0,0.0,0.0,0.0,0.9984830123055508
2016-01-28,-1,-4.8412385374374885e-05,-4.2570137515758696e-05,0.0,0.0,0.9984478344638511
2016-02-01,-1,-4.70769223293741e-05,-4.1430611133730984e-05,0.0,0.0,0.9984487843799532
2016-02-03,-1,-4.560587378955209e-05,-4.017165508809605e-05,0.0,0.0,0.9983683036982934
2016-02-05,-1,-4.427436929503317e-05,-3.903550646535984e-05,0.0,0.0,0.9983691122946726
2016-02-09,-1,-4.263025947697084e-05,-3.7623467038518186e-05,0.0,0.0,0.9983701163722379
2016-02-11,-1,-4.130844776619179e-05,-3.649558909225498e-05,0.0,0.0,0.9983709190852912
2016-02-16,-1,-4.5543534433394675e-05,-4.027753453409635e-05,0.0,0.0,0.9987818201879886
2016-02-18,-1,-4.40435276961635e-05,-3.899760600541646e-05,0.0,0.0,0.9987828878582206
2016-02-22,-1,-4.293598822889363e-05,-3.806562599138651e-05,0.0,0.0,0.9987836684989987
2016-02-24,-1,-5.5747546487857564e-05,-4.9429982902783894e-05,0.0,0.0,0.9998668124423031
2016-02-26,-1,-5.6905442764948096e-05,-5.026095992150006e-05,0.0,0.0,0.9998659503716695
2016-03-01,-1,-5.4295441066649046e-05,-4.8009008477133946e-05,0.0,0.0,0.9998681018732571
2016-03-03,-1,-5.402728672569507e-05,-4.782716212894231e-05,0.0,0.0,0.9999490753690228
2016-03-07,-1,-5.219827227878428e-05,-4.626649729200298e-05,0.0,0.0,0.999950770038923
2016-03-09,-1,-5.036925783187349e-05,-4.4705832455063676e-05,0.0,0.0,0.9999524647145673
2016-03-11,-1,-4.8540243384962696e-05,-4.3145167618124344e-05,0.0,0.0,0.9999541593959559
2016-03-15,-1,-3.640728368482003e-05,-3.2411452622839245e-05,0.0,0.0,0.9964255548153083
2016-03-17,-1,-3.3331647145463624e-05,-2.972358767040277e-05,0.0,0.0,0.9945877379939818
2016-03-21,-1,-1.3426940046176158e-05,-1.2174504241144265e-05,0.0,0.0,0.994604177506975
2016-03-23,-1,-1.0680407608805855e-05,-8.955717357529296e-06,0.0,0.0,0.9946068797343226
2016-03-28,-1,-7.810869294974015e-06,-5.647985734356488e-06,0.0,0.0,0.9933651406774548
2016-03-30,-1,-5.106918747445915e-06,-2.479102513497763e-06,0.0,0.0,0.993367545675278
2016-04-01,0,-1.929942275146551e-06,5.539980084583953e-07,0.0,0.0,0.990063011342959
2016-04-05,1,2.4173461809377645e-07,3.0990854082287363e-06,0.0,0.0,0.9889553983219039
2016-04-07,1,2.4134115113340795e-06,5.644172807999046e-06,0.0,0.0,0.9889536500989258
2016-04-11,0,0.0,0.0,0.0,0.0,0.9889562036319893
2016-04-13,-1,-5.8118574323477896e-05,-4.885186409718958e-05,0.0,0.0,0.9924088485957485
2016-04-15,-1,-1.548226307622506e-05,-1.11247997581282e-05,0.0,0.0,0.9942697835470912
2016-04-19,-1,-1.7548014643791024e-05,-1.2904426900157772e-05,0.0,0.0,0.994268316568672
2016-04-21,-1,-2.0893169959639036e-05,-1.5702409199680698e-05,0.0,0.0,0.9942659898965903
2016-04-25,1,6.215076774267433e-06,8.34347432058642e-06,0.0,0.0,0.9955208913374629
2016-04-27,0,0.0,0.0,0.0,0.0,0.9955271732307719
2016-04-29,0,0.0,0.0,0.0,0.0,0.9968132172830613
2016-05-03,0,0.0,0.0,0.0,0.0,0.9979381443947659
2016-05-05,0,0.0,0.0,0.0,0.0,0.9979381443947659
2016-05-09,0,0.0,0.0,0.0,0.0,0.9979381443947659
2016-05-11,0,0.0,0.0,0.0,0.0,0.9979381443947659
2016-05-13,0,0.0,0.0,0.0,0.0,0.9971483855254112
2016-05-17,0,0.0,0.0,0.0,0.0,0.9947486007372273
2016-05-19,0,0.0,0.0,0.0,0.0,0.9947486007372273
2016-05-23,0,0.0,0.0,0.0,0.0,0.9898254632644454
2016-05-25,0,0.0,0.0,0.0,0.0,0.9898254632644454
2016-05-27,0,0.0,0.0,0.0,0.0,0.9918538975882459
2016-06-01,0,0.0,0.0,0.0,0.0,0.9918538975882459
2016-06-03,0,0.0,0.0,0.0,0.0,0.9918538975882459
2016-06-07,0,0.0,0.0,0.0,0.0,0.9918538975882459
2016-06-09,0,0.0,0.0,0.0,0.0,0.9918538975882459
2016-06-13,0,0.0,0.0,0.0,0.0,0.9877329956466209
2016-06-15,0,0.0,0.0,0.0,0.0,0.9900990099009901
2016-06-17,0,0.0,0.0,0.0,0.0,0.9900990099009901
2016-06-21,0,0.0,0.0,0.0,0.0,0.994006183168807
2016-06-23,0,0.0,0.0,0.0,0.0,0.994006183168807
2016-06-27,0,0.0,0.0,0.0,0.0,0.994006183168807
2016-06-29,0,0.0,0.0,0.0,0.0,0.994006183168807
2016-07-01,0,0.0,0.0,0.0,0.0,0.9921965483992933
2016-07-06,0,0.0,0.0,0.0,0.0,0.9921965483992933
2016-07-08,0,0.0,0.0,0.0,0.0,0.9921965483992933
2016-07-12,0,0.0,0.0,0.0,0.0,0.9971433593965561
2016-07-14,0,0.0,0.0,0.0,0.0,0.9971433593965561
2016-07-18,0,0.0,0.0,0.0,0.0,0.9971433593965561
2016-07-20,0,0.0,0.0,0.0,0.0,0.9981684954893321
2016-07-22,0,0.0,0.0,0.0,0.0,0.9981684954893321
2016-07-26,0,0.0,0.0,0.0,0.0,0.9981684954893321
2016-07-28,0,0.0,0.0,0.0,0.0,0.9981684954893321
2016-08-01,0,0.0,0.0,0.0,0.0,0.9991158275594124
2016-08-03,0,0.0,0.0,0.0,0.0,0.9991158275594124
2016-08-05,0,0.0,0.0,0.0,0.0,0.9991158275594124
2016-08-09,0,0.0,0.0,0.0,0.0,0.9991158275594124
2016-08-11,0,0.0,0.0,0.0,0.0,0.9991158275594124
2016-08-15,0,0.0,0.0,0.0,0.0,0.9991158275594124
2016-08-17,0,0.0,0.0,0.0,0.0,0.9991158275594124
2016-08-19,0,0.0,0.0,0.0,0.0,0.9991158275594124
2016-08-23,0,0.0,0.0,0.0,0.0,0.9991158275594124
2016-08-25,0,0.0,0.0,0.0,0.0,0.9991158275594124
2016-08-29,0,0.0,0.0,0.0,0.0,0.9990443911616124
2016-08-31,0,0.0,0.0,0.0,0.0,0.9972592005684369
2016-09-02,0,0.0,0.0,0.0,0.0,0.9972592005684369
2016-09-07,0,0.0,0.0,0.0,0.0,0.9972592005684369
2016-09-09,0,0.0,0.0,0.0,0.0,0.9972592005684369
2016-09-13,0,0.0,0.0,0.0,0.0,0.9972592005684369
2016-09-15,0,0.0,0.0,0.0,0.0,0.9972592005684369
2016-09-19,0,0.0,0.0,0.0,0.0,0.9972592005684369
2016-09-21,0,0.0,0.0,0.0,0.0,0.9972592005684369
2016-09-23,0,0.0,0.0,0.0,0.0,0.9972592005684369
2016-09-27,0,0.0,0.0,0.0,0.0,0.998211395679221
2016-09-29,0,0.0,0.0,0.0,0.0,1.0
2016-10-03,0,0.0,0.0,0.0,0.0,0.9964726623606422
2016-10-05,0,0.0,0.0,0.0,0.0,0.9964726623606422
2016-10-07,0,0.0,0.0,0.0,0.0,0.9964726623606422
2016-10-11,0,0.0,0.0,0.0,0.0,0.9964726623606422
2016-10-13,0,0.0,0.0,0.0,0.0,0.9964726623606422
2016-10-17,0,0.0,0.0,0.0,0.0,0.9964726623606422
2016-10-19,0,0.0,0.0,0.0,0.0,0.9941140730818468
2016-10-21,0,0.0,0.0,0.0,0.0,0.9941140730818468
2016-10-25,0,0.0,0.0,0.0,0.0,0.9941140730818468
2016-10-27,0,0.0,0.0,0.0,0.0,0.9941140730818468
2016-10-31,0,0.0,0.0,0.0,0.0,0.997624703087886
2016-11-02,0,0.0,0.0,0.0,0.0,0.997624703087886
2016-11-04,0,0.0,0.0,0.0,0.0,0.9966304408884096
2016-11-08,0,0.0,0.0,0.0,0.0,0.9966304408884096
2016-11-10,0,0.0,0.0,0.0,0.0,0.9966304408884096
2016-11-14,0,0.0,0.0,0.0,0.0,0.9966304408884096
2016-11-16,0,0.0,0.0,0.0,0.0,0.9990009999527689
2016-11-18,0,0.0,0.0,0.0,0.0,0.9990009999527689
2016-11-22,1,5.642996345919903e-05,6.114939467957232e-05,0.0,0.0,0.995564722139165
2016-11-25,1,5.22959341489741e-05,5.633206971963913e-05,0.0,0.0,0.9955681426810151
2016-11-29,1,4.7935076230526605e-05,5.127644686682528e-05,0.0,0.0,0.9955717454989023
2016-12-01,1,0.00014539413514068822,0.00016732354192823795,0.0,0.0,0.9954905951661256
2016-12-05,1,0.0001132347214826139,0.00013073170564996346,0.0,0.0,0.995308512445461
2016-12-07,1,0.00011171285897067634,0.00012894816542104116,0.0,0.0,0.9953097731145357
2016-12-09,1,9.905046044956309e-05,0.00011301199559752049,0.0,0.0,0.9953204911133964
2016-12-13,1,9.642041071268987e-05,0.00010993805747463775,0.0,0.0,0.9953226680899063
2016-12-15,1,9.405928159454322e-05,0.00010717094235427582,0.0,0.0,0.9953246240413708
2016-12-19,1,9.169815247639647e-05,0.00010440382723391381,0.0,0.0,0.9953265800005227
2016-12-21,-1,-4.717904842668412e-06,-1.9528242069687644e-06,0.0,0.0,0.9987877066776364
2016-12-23,-1,-6.9340629913718775e-06,-3.837715259145681e-06,0.0,0.0,0.9983324229836933
2016-12-28,0,0.0,0.0,0.0,0.0,0.996556972760219
2016-12-30,0,0.0,0.0,0.0,0.0,0.996556972760219
2017-01-04,0,0.0,0.0,0.0,0.0,0.99776053323225
2017-01-06,0,0.0,0.0,0.0,0.0,0.99776053323225
2017-01-10,0,0.0,0.0,0.0,0.0,0.99776053323225
2017-01-12,0,0.0,0.0,0.0,0.0,0.99776053323225
2017-01-17,0,0.0,0.0,0.0,0.0,0.9968956096266384
2017-01-19,0,0.0,0.0,0.0,0.0,0.9968956096266384
2017-01-23,1,0.00018740010563873458,0.00022598561198599034,0.0,0.008851708627754648,0.9926756480517961
2017-01-25,1,0.00018904469509146543,0.00022550082961219871,0.0,0.0021929908950869543,0.9931004601481715
2017-01-27,1,0.00031453229333979935,0.0003675908721828062,0.0,0.0,0.9947350826210962
2017-01-31,1,0.0003138482434422419,0.0003667888579343494,0.0,0.0,0.9934128006311348
2017-02-02,1,0.0003014238501821313,0.0003522662138164542,0.0,0.0,0.9934215525075795
2017-02-06,1,0.0003006632644672614,0.0003513748486573986,0.0,0.0,0.9934220884649893
2017-02-08,1,0.00029990267875239137,0.00035048348349834283,0.0,0.0,0.9934226244229775
2017-02-10,1,0.000299321488595565,0.0003498017687850678,0.0,0.0,0.9934230340152325
2017-02-14,1,0.000356563822855027,0.00041455762075008563,0.0,0.0,0.9941990853867404
2017-02-16,1,0.00035400649499575757,0.00041156057135845306,0.0,0.0,0.9942011990886749
2017-02-21,1,0.000525298088893608,0.0006061446769733206,0.0,0.0,0.9944054867233814
2017-02-23,1,0.0004929739284571066,0.0005637114828339587,0.0,0.0,0.9944424497134541
2017-02-27,1,0.000482300235540759,0.0005511982819326141,0.0,0.0,0.9944539147882951
2017-03-01,1,0.0003968994996564506,0.0004541078865216439,0.0,0.0,0.9958699411730874
2017-03-03,1,0.0003878295867397974,0.00044349429188306547,0.0,0.0,0.994840463593061
2017-03-07,1,0.0003727737916532149,0.00042604019200220367,0.0,0.0,0.9948565514974366
2017-03-09,1,0.00036442079778237403,0.0004162509367418064,0.0,0.0,0.9948655296292782
2017-03-13,1,0.0003560678039115332,0.0004064616814814093,0.0,0.0,0.9948745079231682
2017-03-15,1,0.00034771481004069234,0.0003966724262210122,0.0,0.0,0.9948834863791116
2017-03-17,1,0.00033893149337022044,0.00038639258953333,0.0,0.0,0.9948929207578956
2017-03-21,1,0.0001305738171635141,0.00015036752889886748,0.0,0.0,0.9988119922809444
2017-03-23,1,0.00012856812274825012,0.00014801604933326848,0.0,0.0,0.9988141656993826
2017-03-27,1,1.201739062345663e-05,1.8163138052009445e-05,0.0,0.0,0.99450416853725
2017-03-29,1,3.1416692258398946e-06,9.5078578345163e-06,0.0,0.0,0.9912809123459776
2017-03-31,-1,-5.3876251457538084e-05,-4.065166303669142e-05,0.0,0.0,0.9922699796020786
2017-04-04,-1,-5.95115815539223e-05,-4.546018794518916e-05,0.0,0.0,0.9922648381204023
2017-04-06,-1,-6.507881523330007e-05,-5.0216149939660976e-05,0.0,0.0,0.9922597560913511
2017-04-10,-1,-7.073654891310206e-05,-5.504166628663537e-05,0.0,0.0,0.9922545953220582
2017-04-12,-1,-0.0001577995631692489,-0.00012522676651922633,0.0,0.0,0.9921771905370771
2017-04-17,-1,-0.0001677787580050758,-0.00013374183238300139,0.0,0.0,0.9921680876014319
2017-04-19,-1,-0.00017820239755743418,-0.00014261258017152096,0.0,0.0,0.992158591018863
2017-04-21,-1,-0.0001875503818868691,-0.0001506219721604951,0.0,0.0,0.9921500479769187
2017-04-25,1,2.6957961391583557e-05,3.932040242140666e-05,0.0,0.0,0.9967036236570397
2017-04-27,1,0.00017086315557009822,0.00017509440580493974,0.0,0.0,0.9998270511357962
2017-05-01,1,0.00017867972513232412,0.00018576040050016985,0.0,0.0,0.9998178131352856
2017-05-03,1,0.0001604454006574509,0.00016439076231468497,0.0,0.0,0.9998376082938633
2017-05-05,1,0.00014114979949465345,0.00014195380230734618,0.0,0.0,0.9991042568190306
2017-05-09,1,0.00012074363903369255,0.0001230515520680996,0.0,0.0,0.9991220643679284
2017-05-11,1,9.915868032237107e-05,0.00010455818571392743,0.0,0.0,0.9991403769128063
2017-05-15,1,7.817551538454251e-05,8.669126922120607e-05,0.0,0.0,0.9991581408107215
2017-05-17,1,0.0002043389621016416,0.00021188043234993993,0.0,0.0,0.999045138016732
2017-05-19,1,0.00018305727095359347,0.0001869394458913677,0.0,0.0,0.9990655337033029
2017-05-23,1,0.00016218512862881015,0.00016240857143735523,0.0,0.0,0.9990855621056284
2017-05-25,1,0.00013688398754953642,0.00014031605284541568,0.0,0.0,0.9970695316069912
2017-05-30,1,0.00016853487046629312,0.0001727469146343496,0.0,0.0,0.9970409419460192
2017-06-01,1,0.0001494334541199656,0.00015036109185743185,0.0,0.0,0.9970591747139044
2017-06-05,1,0.00018254392275137107,0.00018703528443678044,0.0,0.0,0.9977747188858207
2017-06-07,1,0.00016180014415473869,0.0001627247022805461,0.0,0.0,0.9977971464232357
2017-06-09,1,0.00013824218114965374,0.00014088114395200405,0.0,0.0,0.9978197477930938
2017-06-13,1,0.00011254439982536115,0.00011866860143523093,0.0,0.0,0.9969007081360112
2017-06-15,1,8.856600907145071e-05,9.820827573401778e-05,0.0,0.0,0.9969227904682514
2017-06-19,1,7.5982062198636e-05,8.396579013498408e-05,0.0,0.0,0.9969361214392073
2017-06-21,1,0.0001144826038580888,0.00011787805323279065,0.0,0.0,0.9969001378598307
2017-06-23,-1,-2.053118047739608e-05,-7.4248143185819075e-06,0.0,0.0,0.9990417830932113
2017-06-27,-1,-3.1174372614687643e-05,-1.6522378136458515e-05,0.0,0.0,0.9990330711119452
2017-06-29,-1,-4.184994964060617e-05,-2.563165428598745e-05,0.0,0.0,0.9990243415407971
2017-07-03,-1,-5.2525526666524475e-05,-3.474093043551621e-05,0.0,0.0,0.9990156121222062
2017-07-06,-1,-4.552867668951515e-05,-3.158869051339413e-05,0.0,0.0,0.9940543865332813
2017-07-10,-1,-2.9370140170549638e-05,-1.9098137911604092e-05,0.0,0.0,0.9924939161090923
2017-07-12,-1,-7.600676201685165e-05,-6.013281816931213e-05,0.0,0.0,0.9933818209570194
2017-07-14,0,0.0,0.0,0.0,0.0,0.9934489972748878
2017-07-18,0,0.0,0.0,0.0,0.0,0.9934489972748878
2017-07-20,0,0.0,0.0,0.0,0.0,0.9934489972748878
2017-07-24,0,0.0,0.0,0.0,0.0,0.9934489972748878
2017-07-26,0,0.0,0.0,0.0,0.0,0.9934489972748878
2017-07-28,0,0.0,0.0,0.0,0.0,0.9934489972748878
2017-08-01,0,0.0,0.0,0.0,0.0,0.9934489972748878
2017-08-03,0,0.0,0.0,0.0,0.0,0.9984083360766189
2017-08-07,0,0.0,0.0,0.0,0.0,1.0
2017-08-09,0,0.0,0.0,0.0,0.0,1.0
2017-08-11,0,0.0,0.0,0.0,0.0,1.0
2017-08-15,0,0.0,0.0,0.0,0.0,1.0
2017-08-17,0,0.0,0.0,0.0,0.0,1.0
2017-08-21,0,0.0,0.0,0.0,0.0,1.0
2017-08-23,0,0.0,0.0,0.0,0.0,1.0
2017-08-25,0,0.0,0.0,0.0,0.0,1.0
2017-08-29,0,0.0,0.0,0.0,0.0,1.0
2017-08-31,0,0.0,0.0,0.0,0.0,1.0
2017-09-05,0,0.0,0.0,0.0,0.0,1.0
2017-09-07,0,0.0,0.0,0.0,0.0,1.0
2017-09-11,0,0.0,0.0,0.0,0.0,1.0
2017-09-13,0,0.0,0.0,0.0,0.0,1.0
2017-09-15,0,0.0,0.0,0.0,0.0,1.0
2017-09-19,0,0.0,0.0,0.0,0.0,1.0
2017-09-21,0,0.0,0.0,0.0,0.0,0.9987375486906998
2017-09-25,-1,-3.714187258288713e-05,-3.3680126014017075e-05,0.0,0.0,0.9980234097131179
2017-09-27,-1,-3.70376929542093e-05,-3.3703773070273384e-05,0.0,0.0,0.9980234330774694
2017-09-29,-1,-3.4813013207481624e-05,-3.180549421302699e-05,0.0,0.0,0.998025248573833
2017-10-03,-1,-3.258833346075395e-05,-2.9907215355780602e-05,0.0,0.0,0.9980270640768021
2017-10-05,-1,-3.036365371402629e-05,-2.8008936498534218e-05,0.0,0.0,0.998028879586376
2017-10-09,-1,-2.813897396729862e-05,-2.6110657641287827e-05,0.0,0.0,0.9980306951025552
2017-10-11,-1,-2.5914294220570958e-05,-2.4212378784041443e-05,0.0,0.0,0.9980325106253395
2017-10-13,-1,-2.368961447384328e-05,-2.2314099926795046e-05,0.0,0.0,0.9980343261547293
2017-10-17,-1,-2.1464934727115608e-05,-2.0415821069548655e-05,0.0,0.0,0.9980361416907243
2017-10-19,-1,-3.933434877719462e-05,-3.627177217577293e-05,0.0,0.0,0.9992818654892676
2017-10-23,-1,-2.5908757914064032e-05,-2.450084981743673e-05,0.0,0.0,0.9999747958314004
2017-10-25,-1,-3.136951325096405e-05,-2.8812471462627115e-05,0.0,0.0,0.9999699099130839
2017-10-27,-1,-2.9377692813761245e-05,-2.712513534269355e-05,0.0,0.0,0.9999717493840418
2017-10-31,-1,-2.703613793829937e-05,-2.5114880944870766e-05,0.0,0.0,0.9992799961576778
2017-11-02,-1,-2.4869450281967022e-05,-2.3266085685992587e-05,0.0,0.0,0.9992820010130357
2017-11-06,-1,-2.2702762625634678e-05,-2.1417290427114407e-05,0.0,0.0,0.999284005876438
2017-11-08,-1,-2.0536074969302347e-05,-1.956849516823624e-05,0.0,0.0,0.9992860107478849
2017-11-10,-1,-1.803939831932388e-05,-1.740138194691454e-05,0.0,0.0,0.9992883393195398
2017-11-14,1,1.072627940351544e-06,7.251520187782222e-06,0.0,0.0,0.9993024952815975
2017-11-16,1,5.6958588973476285e-06,1.2669695834216554e-05,0.0,0.0,0.9992984782503777
2017-11-20,1,1.0319089854343672e-05,1.8087871480650832e-05,0.0,0.0,0.9992940453576591
2017-11-22,1,1.4942320811339727e-05,2.3506047127085124e-05,0.0,0.0,0.9992896125042692
2017-11-27,1,1.684032494298535e-05,2.4895458310086786e-05,0.0,0.0,0.9970389055401951
2017-11-29,1,6.4323193006914325e-06,1.322578976526707e-05,0.0,0.0,0.9977366939813237
2017-12-01,1,2.235264096519187e-05,3.283880335617291e-05,0.0,0.0,0.9977211441209759
2017-12-05,1,2.446685451364466e-05,3.4589074131844066e-05,0.0,0.0,0.9956401302811654
2017-12-07,1,2.902899521456034e-05,3.993565531527013e-05,0.0,0.0,0.9956363486296559
2017-12-11,1,3.359113591547609e-05,4.5282236498696275e-05,0.0,0.0,0.9956325670068736
2017-12-13,1,3.8153276616391805e-05,5.0628817682122394e-05,0.0,0.0,0.9956287854128176
2017-12-15,1,4.271541731730753e-05,5.597539886554849e-05,0.0,0.0,0.9956250038474879
2017-12-19,1,4.727755801822321e-05,6.132198004897457e-05,0.0,0.0,0.9956212223108843
2017-12-21,1,6.314042654016328e-05,8.120188938519912e-05,0.0,0.0,0.9946781422372001
2017-12-26,-1,-0.00013101919560783845,-0.0001223746814252385,0.0,0.0,0.996852389600092
2017-12-28,-1,-0.00022675715579281033,-0.00020232262279367569,0.0,0.0,0.9967754028763065
2018-01-02,-1,-0.00021739857226291175,-0.00019433711329519077,0.0,0.0,0.9967830210992988
2018-01-04,-1,-0.0003784425708894351,-0.00033699565571220896,0.0,0.0,0.9987363934220616
2018-01-08,-1,-0.00035457032509907235,-0.00031627892150389676,0.0,0.0,0.9982881196601333
2018-01-10,-1,-0.0003408442426784126,-0.0003045997501794406,0.0,0.0,0.9962978122405418
2018-01-12,-1,-0.0002451873569171521,-0.000219557200390165,0.0,0.0,0.9963577651746613
2018-01-17,-1,-0.00023423093332544898,-0.00021020828296249553,0.0,0.0,0.9963643920615427
2018-01-19,-1,-0.00022327450973374586,-0.00020085936553482605,0.0,0.0,0.9963710190365771
2018-01-23,-1,-0.00010882813182784223,-9.83408290294275e-05,0.0,0.0,0.9937395265063134
2018-01-25,-1,-0.00010302353482452354,-9.338787174088143e-05,0.0,0.0,0.99374361648639
2018-01-29,-1,-9.721893782120483e-05,-8.843491445233535e-05,0.0,0.0,0.9937477065001333
2018-01-31,-1,-9.14143408178861e-05,-8.348195716378924e-05,0.0,0.0,0.9937517965475438
2018-02-02,-1,-8.560974381456738e-05,-7.852899987524317e-05,0.0,0.0,0.993755886628622
2018-02-06,-1,-6.267562842679311e-05,-5.842411042755318e-05,0.0,0.0,0.993836667019777
2018-02-08,1,7.330856123238292e-06,1.1902985499199184e-05,0.0,0.0,0.9959085329956301
2018-02-12,1,9.85219103153756e-06,1.4846879766577048e-05,0.0,0.0,0.9959064441704508
2018-02-14,1,1.2458940588175736e-05,1.7918118970029886e-05,0.0,0.0,0.9959042788256305
2018-02-16,1,1.3144304390021342e-05,1.8307670697356505e-05,0.0,0.0,0.9937727756483204
2018-02-21,-1,-8.573070866565447e-05,-7.891134557654254e-05,0.0,0.0,0.9973348455066507
2018-02-23,-1,-7.878392975788073e-05,-7.292256555240851e-05,0.0,0.0,0.9973412788982935
2018-02-27,-1,-7.287574719463488e-05,-6.789118619061114e-05,0.0,0.0,0.9973467196623572
2018-03-01,-1,-6.682976732540568e-05,-6.273226128289047e-05,0.0,0.0,0.9973522924555712
2018-03-05,-1,-6.078378745617644e-05,-5.757333637516976e-05,0.0,0.0,0.997357865311063
2018-03-07,-1,-6.748401308745017e-05,-6.367678927050653e-05,0.0,0.0,0.9977841656313857
2018-03-09,-1,-6.103849419579833e-05,-5.817790656334255e-05,0.0,0.0,0.9976725856773613
2018-03-13,-1,-5.468083210656723e-05,-5.276402861903734e-05,0.0,0.0,0.9976784441164107
2018-03-15,0,0.0,0.0,0.0,0.0,0.9977319202632675
2018-03-19,0,0.0,0.0,0.0,0.0,0.9983534402260652
2018-03-21,0,0.0,0.0,0.0,0.0,0.9983534402260652
2018-03-23,0,0.0,0.0,0.0,0.0,0.9982395409471918
2018-03-27,0,0.0,0.0,0.0,0.0,0.9974411659255761
2018-03-29,0,0.0,0.0,0.0,0.0,0.9974411659255761
2018-04-03,1,0.00013420847619248554,0.00014084650312927666,0.0,0.0,0.9973471702644541
2018-04-05,1,0.00012174495384573836,0.00012621088832792925,0.0,0.0,0.9962917940955773
2018-04-09,1,0.00011104765718226856,0.00011397412346590366,0.0,0.0,0.9964051540581095
2018-04-11,1,9.875786444385362e-05,9.95417043312186e-05,0.0,0.0,0.9964153632780507
2018-04-13,1,8.443858197330269e-05,8.579525838343975e-05,0.0,0.0,0.9964266171171287
2018-04-17,1,0.00014399345185572062,0.00014976335836975474,0.0,0.0,0.9978857194021346
2018-04-19,1,0.00012958452377308583,0.00013284216196251468,0.0,0.0,0.9978995084294812
2018-04-23,1,0.00010914868466256292,0.00010917649146938837,0.0,0.0,0.9980327757034335
2018-04-25,1,0.00015247241030985154,0.00015943568725086316,0.0,0.0,0.9987745260018487
2018-04-27,1,0.0001376229796924816,0.00014203296087123053,0.0,0.0,0.9987906128394851
2018-05-01,1,0.00012299476267704882,0.00012485479347266383,0.0,0.0,0.9988064778407185
2018-05-03,1,4.969953871340566e-05,5.711876644095643e-05,0.0,0.0,0.999946593699808
2018-05-07,1,3.3196014269432057e-05,4.2639727620049535e-05,0.0,0.0,0.9988736208576833
2018-05-09,1,1.5966641331437856e-05,2.629777530492795e-05,0.0,0.0,0.9979321038364091
2018-05-11,1,2.5150870789591206e-06,1.4687514530294595e-05,0.0,0.0,0.997942106210452
2018-05-15,0,-1.0769800771312477e-05,3.351760804773255e-06,0.0,0.0,0.997942847678352
2018-05-17,-1,-2.4054688621584184e-05,-7.983992920748146e-06,0.0,0.0,0.9979342329594849
2018-05-21,1,3.1083280491116757e-05,3.7347939355576424e-05,0.0,0.0,0.9979209131773158
2018-05-23,1,1.9652357735830394e-05,2.7613966666275307e-05,0.0,0.0,0.9978177847636186
2018-05-25,1,8.149579924837138e-06,1.7779028833770255e-05,0.0,0.0,0.9978265973516397
2018-05-30,1,7.302811093394533e-05,7.5489886657455e-05,0.0,0.0,0.9977764248477214
2018-06-01,1,6.513870234833128e-05,6.625995213806945e-05,0.0,0.0,0.9973973706721346
2018-06-05,1,0.00011467709400379042,0.00012202799065778228,0.0,0.0,0.9984398840025436
2018-06-07,1,0.00011439048356579217,0.00012135976371723205,0.0,0.0,0.9993884843069024
2018-06-11,1,0.00010493163265693815,0.0001102337346430252,0.0,0.0,0.9993975697457965
2018-06-13,1,9.510555708174138e-05,9.871810761145977e-05,0.0,0.0,0.9994069932814726
2018-06-15,1,8.511533650105827e-05,8.55689329259524e-05,0.0,0.0,0.9994170782442694
2018-06-19,1,7.14066049391378e-05,7.387152105265347e-05,0.0,0.0,0.9994286987165472
2018-06-21,1,5.012152022906354e-05,5.547624977759398e-05,0.0,0.0,0.9995590685620163
2018-06-25,1,3.665970117969415e-05,4.3989523870603115e-05,0.0,0.0,0.9995704829744126
2018-06-27,1,2.3099446986914726e-05,3.236487944325756e-05,0.0,0.0,0.9995819999727075
2018-06-29,1,1.538367641091894e-05,2.7826895440045145e-05,0.0,0.0,0.9999783951808529
2018-07-03,-1,-0.00010013810834375702,-6.321722582883992e-05,0.0,0.0,0.9999183290036102
2018-07-06,-1,-0.00012353650281360932,-8.320927254906046e-05,0.0,0.0,0.999896637797168
2018-07-10,-1,-0.0001269538041683894,-8.916002462311142e-05,0.0,0.0,0.997955412948217
2018-07-12,-1,-0.00014705286592753617,-0.00010633681061334767,0.0,0.0,0.9979389986427672
2018-07-16,0,-1.7386233203068224e-05,7.0859110591038e-06,0.0,0.0,0.9980381197580165
2018-07-18,-1,-4.0606985837271135e-05,-1.272793578320833e-05,0.0,0.0,0.9980272613141867
2018-07-20,-1,-4.969511331064097e-05,-2.533643857095504e-05,0.0,0.0,0.9960004731998314
2018-07-24,-1,-6.777436789414492e-05,-4.076313842792173e-05,0.0,0.0,0.9959876765515693
2018-07-26,-1,-8.601320170158492e-05,-5.629428036348475e-05,0.0,0.0,0.9956742796956713
2018-07-30,-1,-7.707040584739454e-05,-4.996594114273959e-05,0.0,0.0,0.995679844353845
2018-08-01,-1,-9.380367384529277e-05,-6.424413507144814e-05,0.0,0.0,0.9956680080191211
2018-08-03,-1,-0.00011053694184319104,-7.85223290001567e-05,0.0,0.0,0.9956561719658074
2018-08-07,-1,-0.00032923902695561975,-0.00027135063986773243,0.0,0.0,0.9974043610558672
2018-08-09,-1,-0.00026567447763456073,-0.0002230497642481317,0.0,0.0,0.9974529234206851
2018-08-13,-1,-0.0002695360246807763,-0.0002263447522682616,0.0,0.0,0.9974497757420205
2018-08-15,-1,-0.00027282957123171437,-0.0002291626494152163,0.0,0.0,0.9955925974568358
2018-08-17,-1,-0.00044593171707726367,-0.0003844862028952853,0.0,0.0,0.9965447869993879
2018-08-21,-1,-0.0004214458060438997,-0.00036341015239857335,0.0,0.0,0.9965648102117418
2018-08-23,-1,-0.0003836558089516521,-0.00033017450115841937,0.0,0.0,0.9967207820043759
2018-08-27,-1,-0.0003810280969755418,-0.00032793487955551457,0.0,0.0,0.9967229194127518
2018-08-29,-1,-0.00036958716595728784,-0.00031854746338327985,0.0,0.0,0.9967320269145242
2018-08-31,-1,-0.0003662128927565268,-0.0003156682572930552,0.0,0.0,0.996734773441578
2018-09-05,-1,-0.00036515390700963114,-0.0003147849703992023,0.0,0.0,0.9967356243112139
2018-09-07,1,2.9823424654791273e-05,3.3711798463358504e-05,0.0,0.0,0.9970101574845063
2018-09-11,1,2.8867354494090393e-05,3.2591336148328973e-05,0.0,0.0,0.9970109521767405
2018-09-13,1,5.645540204824411e-06,6.358602643548849e-06,0.0,0.0,0.9988892400850569
2018-09-17,1,1.2002744438328701e-05,1.2911216125261683e-05,0.0,0.0,0.9998114019240049
2018-09-19,1,1.1111680877263264e-05,1.1866938015234767e-05,0.0,0.0,0.9998122571843415
2018-09-21,1,8.00543345144745e-06,8.31693169553096e-06,0.0,0.0,0.9999918388840309
2018-09-25,1,1.5617752038791568e-05,1.7748135137262586e-05,0.0,0.0,0.999983317334728
2018-09-27,1,1.5093553412260531e-05,1.7137315609162725e-05,0.0,0.0,0.9999838848251924
2018-10-01,1,1.4668201317620585e-05,1.6638826050286044e-05,0.0,0.0,0.9968691807063003
2018-10-03,0,0.0,0.0,0.0,0.0,0.996884736599517
2018-10-05,0,0.0,0.0,0.0,0.0,0.9965723271400798
2018-10-09,0,0.0,0.0,0.0,0.0,0.9965723271400798
2018-10-11,0,0.0,0.0,0.0,0.0,0.9965723271400798
2018-10-15,0,0.0,0.0,0.0,0.0,0.9965723271400798
2018-10-17,0,0.0,0.0,0.0,0.0,0.9965723271400798
2018-10-19,0,0.0,0.0,0.0,0.0,0.9965094746635037
2018-10-23,0,0.0,0.0,0.0,0.0,0.9965094746635037
2018-10-25,0,0.0,0.0,0.0,0.0,0.9964467095569902
2018-10-29,0,0.0,0.0,0.0,0.0,0.9995592316173091
2018-10-31,0,0.0,0.0,0.0,0.0,0.9995592316173091
2018-11-02,0,0.0,0.0,0.0,0.0,0.9998735168718426
2018-11-06,0,0.0,0.0,0.0,0.0,0.9998735168718426
2018-11-08,0,0.0,0.0,0.0,0.0,0.9974748295138826
2018-11-12,0,0.0,0.0,0.0,0.0,0.9969458787295304
2018-11-14,0,0.0,0.0,0.0,0.0,0.9969458787295304
2018-11-16,0,0.0,0.0,0.0,0.0,0.9970087862702057
2018-11-20,0,0.0,0.0,0.0,0.0,0.9970087862702057
2018-11-23,0,0.0,0.0,0.0,0.0,0.9959609798991778
2018-11-27,0,0.0,0.0,0.0,0.0,0.9959609798991778
2018-11-29,0,0.0,0.0,0.0,0.0,0.9959609798991778
2018-12-03,0,0.0,0.0,0.0,0.0,0.9958274934384469
2018-12-06,0,0.0,0.0,0.0,0.0,0.9958274934384469
2018-12-10,0,0.0,0.0,0.0,0.0,0.9967491651636426
2018-12-12,0,0.0,0.0,0.0,0.0,0.9972779071721241
2018-12-14,0,0.0,0.0,0.0,0.0,0.9972779071721241
2018-12-18,0,0.0,0.0,0.0,0.0,0.9948847831165515
2018-12-20,0,0.0,0.0,0.0,0.0,0.9948847831165515
2018-12-24,0,0.0,0.0,0.0,0.0,0.9959930251529453
2018-12-27,0,0.0,0.0,0.0,0.0,0.9959930251529453
2018-12-31,0,0.0,0.0,0.0,0.0,0.9959930251529453
2019-01-03,0,0.0,0.0,0.0,0.0,0.9961265559979915
2019-01-07,0,0.0,0.0,0.0,0.0,0.9961265559979915
2019-01-09,0,0.0,0.0,0.0,0.0,0.9975938097017436
2019-01-11,0,0.0,0.0,0.0,0.0,0.995987256118631
2019-01-15,0,0.0,0.0,0.0,0.0,0.995987256118631
2019-01-17,0,0.0,0.0,0.0,0.0,0.998385693345685
2019-01-22,0,0.0,0.0,0.0,0.0,0.998385693345685
2019-01-24,0,0.0,0.0,0.0,0.0,0.998385693345685
2019-01-28,0,0.0,0.0,0.0,0.0,0.998385693345685
2019-01-30,0,0.0,0.0,0.0,0.0,0.998385693345685
2019-02-01,0,0.0,0.0,0.0,0.0,0.998385693345685
2019-02-05,0,0.0,0.0,0.0,0.0,0.998385693345685
2019-02-07,0,0.0,0.0,0.0,0.0,0.998385693345685
2019-02-11,0,0.0,0.0,0.0,0.0,1.0
2019-02-13,0,0.0,0.0,0.0,0.0,1.0
2019-02-15,0,0.0,0.0,0.0,0.0,1.0
2019-02-20,0,0.0,0.0,0.0,0.0,1.0
2019-02-22,0,0.0,0.0,0.0,0.0,0.9971766669339536
2019-02-26,0,0.0,0.0,0.0,0.0,0.9971766669339536
2019-02-28,0,0.0,0.0,0.0,0.0,0.9971766669339536
2019-03-04,0,0.0,0.0,0.0,0.0,0.9971766669339536
2019-03-06,0,0.0,0.0,0.0,0.0,0.9961572746372591
2019-03-08,0,0.0,0.0,0.0,0.0,0.9961572746372591
2019-03-12,0,0.0,0.0,0.0,0.0,0.9961572746372591
2019-03-14,0,0.0,0.0,0.0,0.0,0.9961572746372591
2019-03-18,0,0.0,0.0,0.0,0.0,0.9961572746372591
2019-03-20,0,0.0,0.0,0.0,0.0,0.9961572746372591
2019-03-22,0,0.0,0.0,0.0,0.0,0.998974830033144
2019-03-26,0,0.0,0.0,0.0,0.0,0.998974830033144
2019-03-28,0,0.0,0.0,0.0,0.0,0.998974830033144
2019-04-01,0,0.0,0.0,0.0,0.0,0.998974830033144
2019-04-03,0,0.0,0.0,0.0,0.0,1.0
2019-04-05,0,0.0,0.0,0.0,0.0,1.0
2019-04-09,0,0.0,0.0,0.0,0.0,1.0
2019-04-11,0,0.0,0.0,0.0,0.0,1.0
2019-04-15,0,0.0,0.0,0.0,0.0,1.0
2019-04-17,0,0.0,0.0,0.0,0.0,0.9994974585156723
2019-04-22,0,0.0,0.0,0.0,0.0,0.9994974585156723
2019-04-24,0,0.0,0.0,0.0,0.0,0.9994974585156723
2019-04-26,0,0.0,0.0,0.0,0.0,0.9994974585156723
2019-04-30,0,0.0,0.0,0.0,0.0,0.9994974585156723
2019-05-02,0,0.0,0.0,0.0,0.0,0.9994974585156723
2019-05-06,0,0.0,0.0,0.0,0.0,0.9994974585156723
2019-05-08,0,0.0,0.0,0.0,0.0,0.9994974585156723
2019-05-10,0,0.0,0.0,0.0,0.0,0.9994974585156723
2019-05-14,0,0.0,0.0,0.0,0.0,0.9985621467565867
2019-05-16,0,0.0,0.0,0.0,0.0,0.9990637479063986
2019-05-20,0,0.0,0.0,0.0,0.0,0.9989544385519142
2019-05-22,0,-3.31241833982478e-06,1.7924352386288586e-06,0.0,0.0,0.9989531071672256
2019-05-24,1,1.0639747127926222e-06,6.921330264094491e-06,0.0,0.0,0.9980812992528987
2019-05-29,0,0.0,0.0,0.0,0.0,0.9978687522168254
2019-05-31,0,0.0,0.0,0.0,0.0,0.9978687522168254
2019-06-04,0,0.0,0.0,0.0,0.0,0.9978687522168254
2019-06-06,0,0.0,0.0,0.0,0.0005476315399416174,0.9975493679038234
2019-06-10,0,0.0,0.0,0.0,0.0005476315399416174,0.9975493679038234
2019-06-12,-1,-9.661259065507278e-06,-8.760510179504661e-06,0.0,0.0,0.998473599610848
2019-06-14,-1,-7.618515600798272e-06,-6.388803677515209e-06,0.0,0.0,0.9984758001076053
2019-06-18,-1,-1.0288246484094271e-05,-9.372301737245349e-06,0.0,0.0,0.9983713648187948
2019-06-20,-1,-4.63256972221101e-06,-2.8903668119596573e-06,0.0,0.0,0.9983242345073233
2019-06-24,-1,-1.1357393652389375e-05,-1.035772065084496e-05,0.0,0.0,0.9991905810861538
2019-06-26,-1,-1.0969137914314056e-05,-9.870574858659298e-06,0.0,0.0,0.999405470526349
2019-06-28,-1,-8.667217115829306e-06,-7.172848674009751e-06,0.0,0.0,0.999140835456969
2019-07-02,-1,-6.02731598191032e-06,-4.237505366031325e-06,0.0,0.0,0.9982951356531011
2019-07-05,-1,-1.8643179378915832e-05,-1.8343376444052048e-05,0.0,0.0,0.9986040572420259
2019-07-09,-1,-1.639036356815676e-05,-1.6310442614421136e-05,0.0,0.0,0.9986057252162647
2019-07-11,-1,-1.4155144900814523e-05,-1.3690887705635443e-05,0.0,0.0,0.9964775635682361
2019-07-15,0,0.0,0.0,0.0,0.0,0.9960536879119715
2019-07-17,0,0.0,0.0,0.0,0.0,0.9962645980281736
2019-07-19,0,0.0,0.0,0.0,0.0,0.9963175659390688
2019-07-23,0,0.0,0.0,0.0,0.0,0.9963175659390688
2019-07-25,0,0.0,0.0,0.0,0.0,0.9963175659390688
2019-07-29,0,0.0,0.0,0.0,0.0,0.9937469584409896
2019-07-31,0,0.0,0.0,0.0,0.0,0.9945872280318135
2019-08-02,0,0.0,0.0,0.0,0.0,0.9945872280318135
2019-08-06,0,0.0,0.0,0.0,0.0,0.9945872280318135
2019-08-08,0,0.0,0.0,0.0,0.0,0.9967107354842459
2019-08-12,0,0.0,0.0,0.0,0.0,0.9971447372017711
2019-08-14,0,0.0,0.0,0.0,0.0,0.9971447372017711
2019-08-16,0,0.0,0.0,0.0,0.0,0.9971447372017711
2019-08-20,0,0.0,0.0,0.0,0.0,0.9971447372017711
2019-08-22,0,0.0,0.0,0.0,0.0,0.9971447372017711
2019-08-26,0,0.0,0.0,0.0,0.0,0.9991153662409469
2019-08-28,0,0.0,0.0,0.0,0.0,0.9979927281831766
2019-08-30,1,7.833905225928321e-05,8.489353642129808e-05,0.0,0.0,0.9979289380055966
2019-09-04,1,7.300540626442334e-05,7.864279292505958e-05,0.0,0.0,0.9979333795606177
2019-09-06,1,6.791828762937971e-05,7.265577274185868e-05,0.0,0.0,0.9978951501997059
2019-09-10,1,6.256521123016697e-05,6.638225786676318e-05,0.0,0.0,0.9978989563825488
2019-09-12,1,5.067063847097215e-05,5.323605549897247e-05,0.0,0.0,0.9964158523799557
2019-09-16,1,0.00012771822557508734,0.0001325851262326469,0.0,0.0,0.9933652629463628
2019-09-18,1,0.00011453469622167229,0.00011713474567819216,0.0,0.0,0.9933729860980812
2019-09-20,1,0.00010157522987533519,0.00010190916475186653,0.0,0.0002502559837575609,0.9913807816635047
2019-09-24,1,0.00021000134934246083,0.00022258527793074526,0.0,0.0002502559837575609,0.9911900482106424
2019-09-26,1,0.0003604005543545172,0.00039097281626226276,0.0,0.0,0.9912873611757669
2019-09-30,1,0.0003290815603068734,0.0003549321114929436,0.0,0.0,0.9913056559512796
2019-10-02,1,0.00030537823987517336,0.00032715310700511414,0.0,0.0,0.9913194843526115
2019-10-04,1,0.0002883217161195452,0.0003068926955335338,0.0,0.0,0.9910581274658681
2019-10-08,1,0.00030198764662083926,0.0003255957898954246,0.0,0.0,0.9910502562289799
2019-10-10,1,7.452893611026454e-05,8.084837750897953e-05,0.0,0.0,0.9926595547932558
2019-10-14,1,0.00047041134725587743,0.0005145510656233524,0.0,0.0,0.9953795555036536
2019-10-16,1,0.00044207135784426766,0.00048133813685590025,0.0,0.0,0.9953996048671268
2019-10-18,1,0.0006894515808610575,0.0007601958554091449,0.0,0.0,0.9969892655124548
2019-10-22,1,0.0007543832187791986,0.0008332168335708364,0.0,0.0,0.9966636584915844
2019-10-24,1,0.0005972156341163435,0.0006537601689542139,0.0,0.0,0.9977031209076491
2019-10-28,1,0.0005616269394159371,0.0006120521511831494,0.0,0.0,0.9977327444717735
2019-10-30,1,0.0005267372988613322,0.0005711020658152903,0.0,0.0,0.9977618007120573
2019-11-01,1,0.000629109740614703,0.0006872932496205885,0.0,0.0,0.9970107484605646
2019-11-05,1,0.0005902004100211558,0.0006417236865439706,0.0,0.0,0.9970430849402424
2019-11-07,1,0.0006114503867761447,0.0006677426763793748,0.0,0.0,0.9970251875924441
2019-11-11,1,0.0005447277246869916,0.000587061981941399,0.0,0.0,0.9970811728341245
2019-11-13,1,0.0005708562882275553,0.000623311472993381,0.0,0.0,0.99705827405341
2019-11-15,1,0.0005269363854912338,0.0005741722079796879,0.0,0.0,0.9953092767620058
2019-11-19,1,0.0007158162173545225,0.0007852959330672415,0.0,0.0,0.9957096063936298
2019-11-21,1,0.0006666112662943506,0.0007282554093618325,0.0,0.0,0.9957502704357076
2019-11-25,1,0.0006544366068574407,0.000715865418300526,0.0,0.0,0.9957599725997616
2019-11-27,1,0.0006157165330986173,0.0006704302765797832,0.0,0.0,0.9957920893085075
2019-12-02,1,0.0007262238589042041,0.0007938226338455611,0.0,0.0,0.9966090544982192
2019-12-04,1,0.000669825281718731,0.0007287532939835644,0.0,0.0,0.9959214172830929
2019-12-06,1,0.0006101871448026826,0.0006574152771607955,0.0,0.0,0.9959711849720105
2019-12-10,1,0.000560843030828611,0.0005992970426150226,0.0,0.0,0.9960121768430367
2019-12-12,1,0.0004888063881018431,0.000517942984297629,0.0,0.0,0.9945537123627302
2019-12-16,1,0.0007371094264592597,0.0007972920433892114,0.0,0.0,0.9962930262977988
2019-12-18,1,0.0006111087615971829,0.0006549470164140904,0.0,0.0,0.9970894438946472
2019-12-20,1,0.0006432885276028638,0.0006965495050683126,0.0,0.0,0.9970573726982092
2019-12-24,1,0.0005987040836980813,0.0006443327923295147,0.0,0.0,0.9949446039588298
2019-12-27,1,0.000496888858601922,0.0005309657740825344,0.0,0.0,0.995027649035073
2019-12-31,1,0.00032500476808017037,0.00033624248720582034,0.0,0.0,0.9951685727484423
2020-01-03,1,0.0003528277221379632,0.00036648328783112354,0.0,0.0,0.9959236441382978
2020-01-07,1,0.00028403284523390417,0.00030789841491121663,0.0,0.0,0.9959815147134881
2020-01-09,1,0.00021397334716673612,0.00024792367132532437,0.0,0.0,0.9960405646679377
2020-01-13,-1,-0.00010099898651224284,-2.8397414861177386e-05,0.0,0.0,0.9977017670101432
2020-01-15,-1,-0.0001623039762888528,-8.067349629615504e-05,0.0,0.0,0.997645266400346
2020-01-17,1,8.115159728109094e-05,0.00012312047594997057,0.0,0.0,0.9976788719040764
2020-01-22,1,2.408260032201175e-05,7.442453645979102e-05,0.0,0.0,0.9977269728474589
2020-01-24,1,0.0004175236632928034,0.00042377885421101934,0.0,0.0,0.9995795256143277
2020-01-28,1,0.00034600800084056945,0.00036275583721509774,0.0,0.0,0.9996457436230268
2020-01-30,1,0.0001831271140018521,0.0002013005568417915,0.0,0.0,0.9956253272089578
2020-02-03,1,0.0001354155569226883,0.00016058915099431969,0.0,0.0,0.9956691546441989
2020-02-05,1,8.745070309307389e-05,0.00011953152783234432,0.0,0.0,0.993367347795
2020-02-07,1,3.5978760782955676e-05,7.122112546355431e-05,0.0,0.0,0.9934119701643944
2020-02-11,0,-4.185599169976236e-06,2.0851736478252794e-05,0.0,0.0,0.9877210293561649
2020-02-13,-1,-4.222336340840095e-05,-1.7188291533025082e-06,0.0,0.0,0.9877145695697371
2020-02-18,0,-4.2445656746032805e-05,3.08792071036909e-05,0.0,0.0,0.9784609520311913
2020-02-20,1,1.8257763238601265e-05,0.00019099628272055153,0.0,0.0,0.9741081685478933
2020-02-24,0,-8.246580605964979e-05,3.703842057213141e-05,0.0,0.0002965383999268737,0.9725896807660848
2020-02-26,1,1.3201819224228098e-05,0.00010098744375543981,0.0,0.009027636215012898,0.9678789263262002
2020-02-28,1,0.0009051502690116613,0.0010995536575142489,0.0,0.03369092748801873,0.9691392744502303
2020-03-03,1,0.0009177552220076692,0.0011136089816132398,-0.001611181979387319,0.03369092748801873,0.9674652742687
2020-03-05,1,0.0006449949175228553,0.0008257701315165238,-0.001611181979387319,0.009027636215012898,0.9696999433750098
2020-03-09,1,0.00038632332201027244,0.000501571197035646,-0.001611181979387319,0.009027636215012898,0.9697823261068612
2020-03-11,1,0.0011263775639125903,0.0013371861874677494,0.0,0.009027636215012898,0.9722140906493001
2020-03-13,1,0.0007002708432477713,0.0008375109449817828,0.0,0.033342619703438166,0.970763875501703
2020-03-17,1,0.000655421474294789,0.0007723825800263334,0.0,0.009027636215012898,0.9791084773311705
2020-03-19,1,0.0006149694929634645,0.0007322021064689551,0.0,0.008138021015232278,0.9834463553403514
2020-03-23,1,0.00030956883146108203,0.0003881939517254248,0.0,0.005500006675720215,0.9824438313381417
2020-03-25,-1,-0.001133715490542259,-0.0010358659639019096,0.0,0.0,0.9868313224812756
2020-03-27,-1,-0.0017035056399384498,-0.0015381509877139606,0.0,0.0,0.9891110551868892
2020-03-31,-1,-0.00107658963572806,-0.0009828943015818838,0.0,0.0,0.9861878462754134
2020-04-02,-1,-0.0010089970481375506,-0.0009252491417482543,0.0,0.0,0.9862278817636454
2020-04-06,-1,-0.0009413401229250645,-0.0008675490837893088,0.0,0.0,0.9862679586321716
2020-04-08,-1,-0.001328341008942861,-0.001208076590160027,0.0,0.0,0.9840655943084083
2020-04-13,-1,-0.0015568614159082558,-0.0014140195228882673,0.0,0.0,0.9821808280368484
2020-04-15,-1,-0.0014396302106406999,-0.001300511467064177,0.0,0.0,0.9805079099895185
2020-04-17,-1,-0.0013691373883164219,-0.0012406723369877658,0.0,0.0,0.9800076583274733
2020-04-21,-1,-0.0011806322697828088,-0.0010765899835575412,0.0,0.0,0.9822118590023012
2020-04-23,-1,-0.0011043847625569316,-0.0010113439057653508,0.0,0.0012376048309927774,0.9820180315455411
2020-04-27,-1,-0.0011497941295722308,-0.0010451923238220956,0.0,0.005436968461682449,0.9816618610057364
2020-04-29,-1,-0.00019709912061813175,-0.00018804616520751887,0.0,0.010280606286132147,0.98575223729423
2020-05-01,-1,-0.00015743037956735006,-0.0001432715427515278,0.0,0.012241931355583833,0.9838183603286483
2020-05-05,-1,-0.00012995316808738652,-0.00010965201937899335,0.0,0.01462814895645833,0.9742708641899873
2020-05-07,-1,-0.0011129347121386429,-0.0010235173016177434,0.0,0.012241931355583833,0.9737657668099436
2020-05-11,-1,-0.002108284983899133,-0.0018917820738391833,-0.0026315707819372074,0.012241931355583833,0.9696625715929873
2020-05-13,-1,-0.001292733070965424,-0.0011735454113642827,0.0,0.012241931355583833,0.9716290851767975
2020-05-15,-1,-0.001272318229956999,-0.0011563182116822277,-0.010133544302584702,0.012241931355583833,0.9699769345266254
2020-05-19,-1,-0.0011530599104599636,-0.0010494781683145996,-0.010133544302584702,0.018314457776950874,0.9632304564900797
2020-05-21,-1,-0.0012513671137938122,-0.0011420943287729522,-0.02074253407775241,0.018314457776950874,0.958844101811516
2020-05-26,-1,-0.0012373278284125557,-0.0011319775009895328,-0.02074253407775241,0.028204616998337463,0.957603920685986
2020-05-28,-1,-0.0012687198013858496,-0.00115466540721897,-0.023577629472397513,0.028204616998337463,0.9578893971496619
2020-06-01,-1,-0.001862267285972558,-0.0016816108865163326,-0.023577629472397513,0.015430662662949911,0.9593156911790093
2020-06-03,-1,-0.0007791879376124123,-0.0007265898842823788,-0.016685779325218367,0.014819168934732101,0.9668080668004881
2020-06-05,-1,-0.0009040190788358415,-0.0008537843725028029,-0.010133544302584702,0.014819168934732101,0.9713952563122158
2020-06-09,-1,-0.0012632592746382564,-0.0011742805142131649,-0.010133544302584702,0.009651983249301648,0.9752179466793955
2020-06-11,-1,-0.0011006508991042152,-0.0010305754068008154,-0.008686362037197587,0.014819168934732101,0.9714412242513223
2020-06-15,-1,-0.000527901061513247,-0.0005272206658732566,-0.0015837250518155844,0.014980151446168297,0.9729210269031148
2020-06-17,-1,-0.0020018302578958596,-0.0018125289489742792,-0.0015837250518155844,0.010883975492864503,0.9787533406578746
2020-06-19,-1,-0.0012795720054157007,-0.0011788972131144806,-0.0015837250518155844,0.013385754354567165,0.9805061765362758
2020-06-23,-1,-0.0014982305110001325,-0.0013743947732949295,-0.0015837250518155844,0.010883975492864503,0.9820495747846079
2020-06-25,-1,-0.0011552246588889975,-0.001074373018979336,0.0,0.010883975492864503,0.9832115381049092
2020-06-29,-1,-0.0011478874934791685,-0.0010707327076716054,0.0,0.010883975492864503,0.9829654690015008
2020-07-01,-1,-0.001393437987026388,-0.0012900900784525212,0.0,0.010019355000575297,0.9825787592736317
2020-07-06,-1,-0.0012764146349716309,-0.0011894553204524487,0.0,0.012876360951846706,0.9817503672379375
2020-07-08,-1,-0.0005019229034980968,-0.0005014063634936514,0.0,0.01887996319720518,0.9821874448830326
2020-07-10,-1,-0.0011034406658425777,-0.0010306011249538428,0.0,0.01887996319720518,0.9829315911258393
2020-07-14,-1,-0.0007184411849836957,-0.0006799358037983622,-0.0030991852784216976,0.01887996319720518,0.9792675823889224
2020-07-16,-1,-0.0010677678734997342,-0.0010049891552669239,-0.0030991852784216976,0.016837528730160162,0.9792337751144827
2020-07-20,-1,-0.0014581417304387208,-0.0013110794067904086,0.0,0.016837528730160162,0.9805684247390871
2020-07-22,-1,-0.000933570471261207,-0.0008899426248752532,0.0,0.016837528730160162,0.9808077765212199
2020-07-24,-1,-0.0008291962327340526,-0.0008002672545035742,0.0,0.021119506301882012,0.9794484058477229
2020-07-28,-1,-0.0009402112984055098,-0.0008798827324154427,0.0,0.021119506301882012,0.9801081881226055
2020-07-30,-1,-0.0012661987488795504,-0.001170529095496983,0.0,0.016837528730160162,0.9819793794493229
2020-08-03,-1,-0.00114998723706446,-0.001095257952201475,0.0,0.005286475632204577,0.9782239927044086
2020-08-05,-1,-0.0020428084082791905,-0.0018833864509784704,0.0,0.005286475632204577,0.9761166567635313
2020-08-07,-1,-0.0010158000433617936,-0.000956625893327434,0.0,0.00040161562389719435,0.9768409259149221
2020-08-11,1,1.0492146827369348e-05,0.00011841846470220642,0.0,0.005111107900511721,0.9816718383851023
2020-08-13,-1,-0.00014031903446072054,-4.769976702140023e-05,0.0,0.0,0.9802174972919223
2020-08-17,-1,-0.000783677886770294,-0.0007699386419484916,0.0,0.0,0.981550424472457
2020-08-19,-1,-0.0009913857050040825,-0.0009343603376740681,0.0,0.0,0.9798429274039848
2020-08-21,-1,-0.0009647823078561995,-0.0009302030902358623,0.0,0.0,0.9812592421405828
2020-08-25,-1,-0.0008532477289798037,-0.0008352560979723174,0.0,0.0,0.9805727766949404
2020-08-27,-1,-0.0007242795348681637,-0.000722975479235153,0.0,0.0,0.9806496639730187
2020-08-31,-1,-9.506191457410107e-05,-3.854837966156161e-05,0.0,0.0,0.9849992225189949
2020-09-02,-1,-0.0011289688138743001,-0.0010456128690379822,0.0,0.0,0.9881729849532994
2020-09-04,-1,-0.00029562996832143947,-0.00027139002571314254,0.0,0.0039062610288201375,0.9901715001388662
2020-09-09,-1,-0.00035631916582918146,-0.00033958987318149993,0.0,0.0010000038146972656,0.990695453820833
2020-09-11,1,0.0001291702061687163,0.0002170602719163463,0.0,0.0010000038146972656,0.9926402545633691
2020-09-15,1,0.0001801190024515515,0.000276876581346396,0.0,0.0010000038146972656,0.9908332496372567
2020-09-17,0,-3.0646313867656994e-05,4.037143288066589e-05,0.0,0.0,0.9925475590204518
2020-09-21,1,0.000506103560316105,0.0007086019388772414,-0.0002090348839870348,0.0,0.9922044886471575
2020-09-23,1,0.00046281637234835333,0.0006630445618329604,-0.0002090348839870348,0.0,0.9929307197286305
2020-09-25,1,0.0005553023184749533,0.0007713105204280038,-0.0002090348839870348,0.0,0.9928656267508827
2020-09-29,1,0.0003587337722769754,0.0005063740346225025,0.0,0.0,0.9939658321424206
2020-10-01,-1,-0.00011837575628788824,-7.069133813564457e-05,-0.0002090348839870348,0.0,0.9944323140849008
2020-10-05,1,0.00010429572850590286,0.00021592616321514514,0.0,0.0,0.9964719458258204
2020-10-07,1,8.098955384398197e-05,0.00018499323286223389,-0.0002090348839870348,0.0,0.9903319059832422
2020-10-09,1,0.00017166304437194895,0.0002719819006690659,0.0,0.0,0.9908003938236545
2020-10-13,1,0.0004905552212109874,0.0006326393788691476,0.0,0.0,0.9922863702931924
2020-10-15,1,0.0005054679296988968,0.0006480500640289153,0.0,0.0,0.9922729836802135
2020-10-19,1,0.0004401610422148864,0.0005631567449249691,0.0,0.0,0.9901840143132136
2020-10-21,1,0.0002536844920514812,0.00032660368310466936,0.0,0.0,0.987925324769202
2020-10-23,1,0.0004910578186857809,0.0006256444450143359,0.0,0.0,0.9874659722284171
2020-10-27,1,0.0006765840954118905,0.0008502668885995959,0.0,0.0,0.9873362460524401
2020-10-29,1,0.0005331880401227182,0.0006557102547279292,0.0,0.0,0.9882139151943334
2020-11-02,1,0.0005603263136431491,0.0006878431129177455,0.0,0.0,0.9866447254128611
2020-11-04,1,0.00016568984842302555,0.00024027218442598678,0.0,0.0,0.9918989477163088
2020-11-06,-1,-0.00020110734913983145,-0.00018967696368955562,0.0,0.0,0.9902865793988135
2020-11-10,1,4.9704592087490145e-05,9.487608918733935e-05,0.0,0.0,0.990360043514394
2020-11-12,0,-8.85098354554202e-06,1.7783035622809785e-05,0.0,0.0,0.9893562366100683
2020-11-16,1,0.00024249383217333711,0.0003063645491705102,0.0,0.0016722392025687966,0.9897531487388981
2020-11-18,1,0.0003149498523886431,0.0003872929427104949,0.0,0.0,0.9921644965258172
2020-11-20,1,0.00023277440483376953,0.00028683840334934197,0.0,0.0,0.9925125020245453
2020-11-24,1,0.00024459359523514425,0.00030074698168683416,0.0,0.0,0.9922655328345019
2020-11-27,1,0.00022111726755150607,0.00027100634312597236,0.0,0.003521132803927168,0.9898114679839372
2020-12-01,1,6.781584814041856e-05,9.438803095622573e-05,0.0,0.0,0.9915041465883853
2020-12-03,1,0.0001425435948668263,0.00017508136641296144,0.0,0.0,0.9927261999987134
2020-12-07,1,0.00015176052029687841,0.00018535220748969292,0.0,0.0,0.9943496837913578
2020-12-09,1,0.00022069749918282963,0.0002593474891901099,0.0,0.003521132803927168,0.9932299592039553
2020-12-11,1,0.000148518957929775,0.00017765393438395132,0.0,0.0,0.9940759695072909
2020-12-15,1,3.712098094947683e-05,5.17333978046931e-05,0.0,0.0,0.9958315900295578
2020-12-17,1,5.961523000460915e-05,7.92556144326437e-05,0.0,0.0,0.995815568546879
2020-12-21,-1,-1.8391139814205522e-05,-1.719125342100954e-05,0.0,0.0,0.9955082886223574
2020-12-23,-1,-4.6754315291668906e-05,-4.032128587453122e-05,0.0,0.0,0.9938610848926066
2020-12-28,-1,-0.0006881981889957584,-0.0005778169719868485,0.0,0.0,0.99605789298648
2020-12-30,-1,-0.000579115837973249,-0.000491202531037157,0.0,0.0,0.9953523542105395
2021-01-04,0,-7.871439579171402e-06,6.032326248367778e-06,0.0,0.00018781508062133605,0.9944916981039646
2021-01-06,-1,-0.00016541974192965628,-0.00014778611136305646,0.0,0.00018781508062133605,0.9944019381725082
2021-01-08,-1,-0.0002980334026874424,-0.00025962964581362615,0.0,0.0,0.9954437638643456
2021-01-12,-1,-0.0002783037544357999,-0.00024236706019501732,0.0,0.0,0.995650104784596
2021-01-14,-1,-0.00032249271065186024,-0.00027731259254161955,0.0,0.0,0.9934428929161111
2021-01-19,-1,-0.0003204487179183013,-0.00027556994433667985,0.0,0.0,0.993443913881914
2021-01-21,-1,-0.00025548820665611074,-0.00021930368234001924,0.0,0.0043773424229670566,0.9908421694274563
2021-01-25,-1,-0.00018983790072891614,-0.00017903406486627127,0.0,0.0032433722164097404,0.9895711179250669
2021-01-27,1,0.00018213646605959256,0.00021205451614777078,0.0,0.008361766912880573,0.9890965670707359
2021-01-29,1,0.0001490000904822544,0.0001650298614185717,0.0,0.0024573918879756216,0.9898326679284536
2021-02-02,1,0.0008697549394858682,0.0009776999326175156,0.0,0.0,0.9894471487902476
2021-02-04,1,0.0006748083185538303,0.0007231821072305697,-0.0011278274202299846,0.0,0.9875974075929617
2021-02-08,1,0.0007041938267291405,0.0007487573685892083,-0.008859312450763587,0.0,0.9858959620580223
2021-02-10,1,0.0008866531810732556,0.0009774461494745732,-0.008859312450763587,0.0,0.9857912193781582
2021-02-12,1,0.0002848347542932686,0.0002951393866311928,-0.0011278274202299846,0.0018939466461116133,0.9873343046834596
2021-02-17,1,0.0003386040466105533,0.0003677473560732839,-0.0011278274202299846,0.0018939466461116133,0.9873107553298367
2021-02-19,1,0.0005799776944027354,0.0006467440288379946,-0.008859312450763587,0.0,0.9848624930967218
2021-02-23,1,0.00018896973255653828,0.0001962578617498775,-0.0011278274202299846,0.0,0.9882005146662797
2021-02-25,1,0.0002463997975875773,0.00026960451371373074,0.0,0.0,0.988723458200416
2021-03-01,1,0.00022988510099023892,0.00025519449210919436,-0.0029527484406110575,0.0,0.9868028119139692
2021-03-03,1,0.00022269115770906693,0.00024808832932735145,0.0,0.0,0.9878753236156865
2021-03-05,-1,-4.4967925642170916e-05,-3.294133649474158e-05,0.0,0.0,0.9899697720872805
2021-03-09,-1,-0.0005056492648705628,-0.0004284782529583328,0.0,0.0,0.9891897485039104
2021-03-11,-1,-0.00048115243015777126,-0.0004077376977599076,0.0,0.0,0.9892067582332873
2021-03-15,-1,-0.00036950152372478267,-0.00030870689136270257,0.0,0.0,0.9903074071255423
2021-03-17,-1,-0.0003771102226133673,-0.0003151881283600124,0.0,0.0,0.9902285396300359
2021-03-19,-1,-0.0002832326991732083,-0.0002343026859894174,0.0,0.0,0.991882857648958
2021-03-23,-1,-0.00029076138603462636,-0.00024073395157444186,0.0,0.0,0.9918775685507207
2021-03-25,-1,-0.00034927613389872304,-0.00028822025652793887,0.0,0.0,0.9899843198131795
2021-03-29,-1,-0.0002570794306708576,-0.00020802616250478387,0.0,0.0,0.9900196584643061
2021-03-31,-1,-2.3408190206193423e-05,-1.8976425429366414e-05,0.0,0.0,0.9901421861457969
2021-04-05,-1,-3.559885602520548e-06,-3.08265511080136e-06,0.0,0.0,0.988552349026549
2021-04-07,1,2.2937804588881774e-05,2.5896526395619165e-05,0.0,0.0,0.9906845117897519
2021-04-09,1,2.6726722054001928e-05,3.0059984553001865e-05,0.0,0.0,0.9847587449170214
2021-04-13,1,1.0219848270501538e-05,1.2663854679690892e-05,-0.0005725321712193329,0.0,0.9828458257711913
2021-04-15,1,1.14714019067979e-05,2.6672268825162304e-05,-0.005171200179361509,0.0,0.9819579075622912
2021-04-19,-1,-0.00023943449184429428,-0.00022297365484055337,-0.005171200179361509,0.0,0.9854121174334304
2021-04-21,-1,-0.00021878297934710213,-0.0002052776183938491,-0.005171200179361509,0.0,0.9854202938778163
2021-04-23,-1,-5.998831414932143e-05,-5.4772287768022177e-05,0.0,0.0,0.9842798630836453
2021-04-27,-1,-0.00024680146406542633,-0.00022483609697015845,0.0,0.0,0.986024207255395
2021-04-29,-1,-0.00018264682152868494,-0.00017312111515484783,-0.002221464685987904,0.0,0.9856745727838562
2021-05-03,0,-1.4718717575370208e-06,2.4814102858907355e-05,0.0,0.0,0.9838694050641449
2021-05-05,1,2.3907167905666015e-05,6.141758776811802e-05,-0.0006435000313902454,0.0,0.9837309221223668
2021-05-07,1,6.419414068584346e-05,9.241005007081687e-05,-0.0006435000313902454,0.0,0.9879395874243777
2021-05-11,-1,-0.00020350417583053575,-0.00019149575107941597,0.0,0.0,0.9891621851189087
2021-05-13,-1,-0.00011727218722798344,-0.00011693733802063005,0.0,0.0005136940443040192,0.9847637113426035
2021-05-17,-1,-9.92215995626107e-05,-9.623569527881014e-05,-0.0006435000313902454,0.0037902190906434602,0.98257624866972
2021-05-19,-1,-6.884771891116127e-05,-6.109553282028634e-05,-0.0006435000313902454,0.01008742098838491,0.9818990574460734
2021-05-21,-1,-0.0005004905658165804,-0.00044772804188563785,-0.00415196478015864,0.009959033267943286,0.9835938781879049
2021-05-25,-1,-0.0005510642717709564,-0.0004938674554527489,-0.009835281677946513,0.012974877299437937,0.9810890249582664
2021-05-27,-1,-0.0004616182515217981,-0.0004153327827330464,-0.013544920924464531,0.013620854063779499,0.9787934279681768
2021-06-01,-1,-0.0007854488080796434,-0.0007021423740138789,-0.017998407909568814,0.012974877299437937,0.9807908988201185
2021-06-03,-1,-0.0008503941384949387,-0.0007547907914975742,-0.017998407909568814,0.012974877299437937,0.9808297426657907
2021-06-07,-1,-0.0006273422015637279,-0.0005597385079300168,-0.013544920924464531,0.013620854063779499,0.9801537754919917
2021-06-09,-1,-0.0007152488583434665,-0.0006385919585014579,-0.01774194163660852,0.013235690902454626,0.979750576734599
2021-06-11,-1,-0.0003700607276482447,-0.0003342916054857821,-0.013544920924464531,0.013235690902454626,0.9834951808711723
2021-06-15,-1,-0.0004257278701827417,-0.000385848973455549,-0.0031708876199828006,0.018577995822191877,0.9833794976446032
2021-06-17,-1,-0.0005164062254035353,-0.0004667459401659047,-0.013544920924464531,0.017410391851816937,0.9821166714126568
