JNU-Tangyin/eata/results/Batch4_SP500/Batch4_SP500-AMZN.csv
Date,Action,Predicted_Q25,Predicted_Q75,Actual_Q25,Actual_Q75,RL_Reward
2010-12-14,0,0.0,0.0009082015473612709,-0.003627562351092853,0.010175905725052921,0.9917748741336924
2010-12-16,0,-0.00026892142920217216,4.0184725549094295e-05,-0.003627562351092853,0.00912175058164932,0.9913639232268197
2010-12-20,0,-0.000220220251864768,8.865042700892097e-05,-0.00471630283111038,0.00912175058164932,0.9912898132490401
2010-12-22,1,0.000475898176452597,0.0007076939892843247,-0.009178897675232655,0.009055313272484653,0.9889425826121647
2010-12-27,0,0.0,0.0,-0.006404546368947037,0.009055313272484653,0.9895042265111017
2010-12-29,0,0.0,0.0,-0.007641183256114281,0.009164294212483234,0.9875150071792003
2010-12-31,0,0.0,0.0,-0.008433851725953023,0.009164294212483234,0.9844771128334266
2011-01-04,0,0.0,0.0,-0.008433851725953023,0.0094445076502401,0.9847156890055997
2011-01-06,0,0.0,0.0,-0.007751476530310658,0.009382893413018576,0.9850810367536973
2011-01-10,0,0.0,0.0,-0.007751476530310658,0.012896203806549114,0.9834310901375791
2011-01-12,0,0.0,0.0,-0.007751476530310658,0.012896203806549114,0.9827595833824999
2011-01-14,0,0.0,0.0,-0.007751476530310658,0.012896203806549114,0.9828911797568446
2011-01-19,0,0.0,0.0,-0.007751476530310658,0.012372339011498033,0.9836693926956549
2011-01-21,0,0.0,0.0,-0.006857911750651742,0.012372339011498033,0.985531012694249
2011-01-25,0,0.0,0.0,-0.007751476530310658,0.012372339011498033,0.9831441268966431
2011-01-27,0,0.0,0.0,-0.00766592058412573,0.009247030626449734,0.9855735419179049
2011-01-31,-1,-0.00015826124076072297,-9.151352772680587e-05,-0.00866205218884418,0.009247030626449734,0.9873541794568602
2011-02-02,-1,-0.0009680577091937168,-0.0007066359968372758,-0.00866205218884418,0.007695866132218994,0.9874626636758238
2011-02-04,0,0.0,0.0,-0.0133336984940877,0.0061270209401885056,0.9871193587813297
2011-02-08,0,0.0,0.0,-0.013486169397776745,0.0061270209401885056,0.9878275446782315
2011-02-10,0,0.0,0.0,-0.015618730811139406,0.0061270209401885056,0.9872578533211009
2011-02-14,0,0.0,0.0,-0.015618730811139406,0.004871194905784175,0.9874839734263948
2011-02-16,0,0.0,0.0,-0.018092757220018817,0.004871194905784175,0.9872451158515821
2011-02-18,-1,-8.57736490409224e-05,-8.541722168031236e-05,-0.018092757220018817,0.005474364303856974,0.986824760057354
2011-02-23,0,0.0,0.0,-0.013486169397776745,0.007446285498111224,0.9880149675548173
2011-02-25,0,0.0,0.0,-0.013486169397776745,0.011948168146489111,0.9867116098627434
2011-03-01,0,0.0,0.0,-0.010339790495728978,0.013513709609868071,0.9868991121209892
2011-03-03,0,0.0,0.0,-0.010339790495728978,0.013878369718769185,0.9863275919950097
2011-03-07,0,0.0,0.0,-0.009624037458601882,0.015871197540993674,0.9866180220681837
2011-03-09,0,0.0,0.0,-0.009624037458601882,0.015871197540993674,0.986588593875802
2011-03-11,0,0.0,0.0,-0.008362922538366927,0.015871197540993674,0.9873671587732162
2011-03-15,0,0.0,0.0,-0.005103856484777896,0.015871197540993674,0.9871185332029391
2011-03-17,0,0.0,0.0,-0.0028406134269857736,0.015871197540993674,0.9877202015503875
2011-03-21,0,0.0,0.0,-0.00934126067191366,0.013534215766857226,0.9878535597035933
2011-03-23,0,0.0,0.0,-0.005039848298319391,0.013534215766857226,0.987729946980569
2011-03-25,0,0.0,0.0,-0.005039848298319391,0.01203447093882513,0.9888115910025992
2011-03-29,-1,-0.00041433308656242354,-0.0003155119612555084,-0.005039848298319391,0.01203447093882513,0.9861553039879266
2011-03-31,1,0.000589374900735002,0.0006643019286435486,-0.008269580240382577,0.011180599323732505,0.9870773917824213
2011-04-04,1,0.0004675396613145773,0.0004824449581084915,-0.00944666122854729,0.011180599323732505,0.9858213112613202
2011-04-06,0,0.0,0.0,-0.00944666122854729,0.010268125939570213,0.9860805273504841
2011-04-08,0,0.0,0.0,-0.00944666122854729,0.010268125939570213,0.9857969425491829
2011-04-12,0,0.0,0.0,-0.008269580240382577,0.012148933853177724,0.9860485079138882
2011-04-14,0,0.0,0.0,-0.00944666122854729,0.012148933853177724,0.9854317403651057
2011-04-18,0,0.0,0.0,-0.009355011078860087,0.012869982512797692,0.983380719528493
2011-04-20,0,0.0,0.0,-0.009355011078860087,0.011764611053037957,0.9838912073733441
2011-04-25,0,0.0,0.0,-0.012579172602582116,0.011764611053037957,0.98391673845792
2011-04-27,0,0.0,0.0,-0.012579172602582116,0.009433073020969879,0.9875689848228183
2011-04-29,0,0.0,0.0,-0.012579172602582116,0.011764611053037957,0.9872284371507499
2011-05-03,0,0.0,0.0,-0.012749956244451851,0.011764611053037957,0.9875256158838969
2011-05-05,1,0.00278208786324343,0.0029866268479188454,-0.012932966001238822,0.011764611053037957,0.9872131829604787
2011-05-09,1,0.0031633835219220616,0.003420079781518396,-0.014232749260547472,0.010438388451122913,0.9866995948036642
2011-05-11,1,0.0034195043972095433,0.003736509882816131,-0.014232749260547472,0.009011320585814912,0.9870664733697915
2011-05-13,1,0.0032457056663816215,0.0035697600255247836,-0.014232749260547472,0.009011320585814912,0.9871105418044912
2011-05-17,1,0.00298568482953133,0.0032686052857225606,-0.014232749260547472,0.009011320585814912,0.9881648259647748
2011-05-19,1,0.0025281494140028393,0.00274335741186063,-0.014232749260547472,0.00900509376201989,0.9876250080909543
2011-05-23,1,0.001974206726034634,0.0021223684251203564,-0.014232749260547472,0.010809243578069524,0.9867014174374481
2011-05-25,1,0.0014487051620701704,0.001495968859718886,-0.01353105635323935,0.013190934489143696,0.9864847881808482
2011-05-27,1,0.001671117491517971,0.0017709483669966276,-0.01353105635323935,0.013190934489143696,0.9848469217266899
2011-06-01,0,0.0,0.0,-0.012742714643090805,0.01081311180283896,0.9856237702473721
2011-06-03,0,0.0,0.0,-0.009351198713878144,0.01360459103908465,0.9860150021757262
2011-06-07,1,0.001820061975920769,0.001977875182421188,-0.0030380470141965097,0.01552355536613833,0.9868699230222429
2011-06-09,1,0.0027994875081874676,0.003150086676055877,-0.0030380470141965097,0.01552355536613833,0.986900358369615
2011-06-13,1,0.001763362920395923,0.0019508498995976621,-0.0067307747332245906,0.01552355536613833,0.9857895330964911
2011-06-15,1,0.00035871403075366523,0.0004762048060986789,-0.0067307747332245906,0.01360459103908465,0.9859691270321002
2011-06-17,0,0.0,0.0,-0.006231466237240603,0.012229593425201775,0.9862039396678994
2011-06-21,0,0.0,0.0,-0.006794266642643654,0.012229593425201775,0.9861816745793472
2011-06-23,0,0.0,0.0,-0.006794266642643654,0.012810123858812137,0.9861917930361481
2011-06-27,0,0.0,0.0,-0.007435219495577902,0.011853133454807097,0.9879577072067178
2011-06-29,0,0.0,0.0,-0.007435219495577902,0.012810123858812137,0.9864650623188044
2011-07-01,0,0.0,0.0,-0.007435219495577902,0.011853133454807097,0.9871668419107
2011-07-06,0,0.0,0.0,-0.01101964474486501,0.011018915206073707,0.9857396608532658
2011-07-08,0,0.0,0.0,-0.012131442457782082,0.007337878382029494,0.9844086389489123
2011-07-12,0,0.0,0.0,-0.012131442457782082,0.011018915206073707,0.9809928763018935
2011-07-14,0,0.0,0.0,-0.012131442457782082,0.012757979134500868,0.9785991533066373
2011-07-18,1,0.003139091220343177,0.003393705033385953,-0.012131442457782082,0.016609203111185383,0.978477170314596
2011-07-20,1,0.0032163815018649445,0.0034818558994058747,-0.016987300554499023,0.008532384527814676,0.9785012084915871
2011-07-22,1,0.0026279285050611464,0.002726284007342096,-0.029572412059992004,0.006091790303492365,0.975314453433746
2011-07-26,1,0.0029536375784334694,0.0030851029136725397,-0.029572412059992004,0.009616926741106611,0.9714415297776909
2011-07-28,1,0.003988080321387775,0.004224285643177991,-0.029572412059992004,0.003923601921400412,0.9721627613933874
2011-08-01,1,0.0030222533591883235,0.0030589834357562574,-0.029572412059992004,0.020344507227605658,0.9702009355800241
2011-08-03,1,0.002102812686681026,0.002147929820265907,-0.02124360699396692,0.021389348985635295,0.9712497963903481
2011-08-05,0,-2.124303823274271e-05,0.00031455320653515125,-0.014291013045785249,0.021389348985635295,0.9723450361975382
2011-08-09,1,0.00152345295147094,0.0017354978876439548,-0.012087584630773493,0.021389348985635295,0.975052950521265
2011-08-11,-1,-0.0011558551623765798,-0.0006748246532779381,-0.012128666794533727,0.02063976376362337,0.9768234318235101
2011-08-15,1,0.0006981896945857733,0.0009914021165240146,-0.012128666794533727,0.022056257555608198,0.9760095857181986
2011-08-17,-1,-0.0016867734594696471,-0.0011844811515585784,-0.011964372211531907,0.022056257555608198,0.9759287799663429
2011-08-19,-1,-0.00541279132383862,-0.004501698155460194,-0.008020074261346537,0.025700023673295318,0.9755470717476102
2011-08-23,-1,-0.0003278979188614101,-7.349903354298749e-05,-0.009568997291411252,0.022056257555608198,0.9798458203659574
2011-08-25,-1,-0.0024421109131936595,-0.0019336426697033396,-0.011964372211531907,0.022056257555608198,0.9779892114418577
2011-08-29,1,0.0014410941076846919,0.00149638277109487,-0.012128666794533727,0.02063976376362337,0.9797322261556871
2011-08-31,1,0.002839703342336378,0.002979178566999182,-0.015508175161201067,0.020300825616469856,0.9789625368449145
2011-09-02,1,0.003042008469871147,0.0031340838854551434,-0.02515791995530877,0.020300825616469856,0.9778318883703543
2011-09-07,1,0.004408956035903503,0.004690991726353819,-0.02515791995530877,0.020300825616469856,0.9782632204390437
2011-09-09,1,0.0018026495887917718,0.001915403905858257,-0.0208756689560205,0.020300825616469856,0.9794664538975161
2011-09-13,1,0.004017105508602858,0.00423774919233417,-0.0208756689560205,0.020319188525888588,0.9793606666932492
2011-09-15,1,0.004791660146738133,0.005157872579911247,-0.0208756689560205,0.019620477380637942,0.9802068278401329
2011-09-19,1,0.0067186435866045235,0.0074479257197902025,-0.0208756689560205,0.019620477380637942,0.9796883563745584
2011-09-21,1,0.005938177601043537,0.006521504014912022,-0.0208756689560205,0.019620477380637942,0.9796108103753131
2011-09-23,1,0.004020220190711485,0.00437000336469146,-0.01822896092282669,0.019620477380637942,0.9813878105298385
2011-09-27,1,0.0035030920570372484,0.00375584502744248,-0.01822896092282669,0.015432304662806462,0.9810568470422458
2011-09-29,1,0.005275798837845972,0.005773587747380002,-0.01822896092282669,0.015432304662806462,0.9773711464968194
2011-10-03,1,0.003256735537262985,0.003532892829253103,-0.006473226388707568,0.02080737927033646,0.97621805109139
2011-10-05,1,0.0041356676113885795,0.004498068939662663,-0.00933589940890342,0.016942941933633746,0.9768687488740763
2011-10-07,1,0.004357149989354472,0.004676452683551018,-0.010601726493838252,0.016942941933633746,0.9766295480323207
2011-10-11,1,0.006416143873058755,0.007046629625388905,-0.010601726493838252,0.012136073490311733,0.9781909760156172
2011-10-13,1,0.005942366914157495,0.006459704114452555,-0.01758723727318869,0.012136073490311733,0.9765683007487261
2011-10-17,1,0.006151199981460038,0.006631014153487321,-0.010601726493838252,0.012136073490311733,0.9782750011702644
2011-10-19,1,0.004422953071301727,0.004684456131676763,-0.010601726493838252,0.012136073490311733,0.9790760061473514
2011-10-21,1,0.004516006427622994,0.004751541336058087,-0.027871593629979596,0.012136073490311733,0.9754233637708074
2011-10-25,1,0.002375902326381338,0.0024670697142854603,-0.027871593629979596,0.013369081269768126,0.9757747159617836
2011-10-27,1,0.0017620407081026935,0.0019470333470829426,-0.027871593629979596,0.008408734856208105,0.9799996126033099
2011-10-31,1,0.000967935344811815,0.0012403897817312493,-0.030014962405846626,0.008408734856208105,0.9789588046515878
2011-11-02,1,0.0019337849775864216,0.0021012104709828812,-0.030014962405846626,0.013369081269768126,0.9778436414864383
2011-11-04,1,0.0016772223343960503,0.0018932738146848322,-0.030014962405846626,0.00939491124872962,0.9784894103688282
2011-11-08,1,0.0015828820070195708,0.0018183316506422658,-0.030014962405846626,0.016581873696054173,0.9768154073019396
2011-11-10,1,0.0009144786292512714,0.0011456848351812721,-0.02752442347040502,0.016581873696054173,0.976866946640376
2011-11-14,1,0.0023541940186676937,0.002429370340113567,-0.03096824180991927,0.014122293582247836,0.9747717583397246
2011-11-16,1,0.001422434164086008,0.0015251375983877803,-0.03096824180991927,0.014122293582247836,0.9764353388144653
2011-11-18,-1,-0.0013625202904822321,-0.0009582546368112654,-0.022437861835634496,0.014122293582247836,0.9799241592884069
2011-11-22,-1,-0.0012520015932831583,-0.0009145998461226186,-0.022437861835634496,0.014376556830969335,0.979585705977525
2011-11-25,-1,-0.002754968377360446,-0.0022859383735186513,-0.019052073399472014,0.017455609527486073,0.9802173957782138
2011-11-29,-1,-0.0009513922826614366,-0.0007243990745306478,-0.014672470457329456,0.014376556830969335,0.9838704674852434
2011-12-01,0,-1.3609321473602551e-05,0.00017153638284387413,-0.014672470457329456,0.002260072506809044,0.985727308194444
2011-12-05,-1,-0.0004355006930221903,-0.00019697078364848343,-0.014672470457329456,0.007716679742334039,0.9841227249974496
2011-12-07,-1,-0.00034552425782717676,-0.00012581612322433162,-0.011361236124628936,0.007716679742334039,0.9845767978081499
2011-12-09,-1,-0.0008620720816790475,-0.0006298293326655515,-0.011361236124628936,0.004732799923516484,0.9851962216151097
2011-12-13,-1,-0.0026692053522872463,-0.00223767678071906,-0.009993048453285068,0.004732799923516484,0.9876569738301992
2011-12-15,-1,-0.002612065729894736,-0.002172675034966001,-0.009993048453285068,0.015062071139967562,0.9862922279549657
2011-12-19,-1,-0.0019138115833267533,-0.0016035010616383039,-0.008811379700347143,0.020231189987944882,0.9832116410182467
2011-12-21,-1,-0.0027339163232683672,-0.002311810082820983,-0.010706657304532408,0.020231189987944882,0.9843557290848772
2011-12-23,-1,-0.004893051150152562,-0.004100223080615738,-0.00974318149162666,0.015154827614663614,0.9852020370786588
2011-12-28,-1,-0.0069044238484553015,-0.005818370252640904,-0.0054010644922232506,0.020231189987944882,0.9824699350136143
2011-12-30,-1,-0.006564084612437221,-0.005538570965051031,-0.010488059085150343,0.020231189987944882,0.9816382927905635
2012-01-04,-1,-0.005805864363327047,-0.004693716130422832,-0.0165115289759594,0.015154827614663614,0.9797288066713702
2012-01-06,-1,-0.00406442436927015,-0.003200643571239673,-0.01697662339373756,0.015154827614663614,0.9792668790424225
2012-01-10,-1,-0.0061266922075725195,-0.004938109772952174,-0.0165115289759594,0.015154827614663614,0.9789591969796205
2012-01-12,-1,-0.00870337434443955,-0.007047819907449799,-0.0061422208255582315,0.015154827614663614,0.9780916950388677
2012-01-17,-1,-0.004416997948956636,-0.0034184511449869195,-0.0061422208255582315,0.016056659545136208,0.9797980436838901
2012-01-19,-1,-0.0011418573642946036,-0.0005457889487452405,-0.019624261622459446,0.01093257574862528,0.9815463749436791
2012-01-23,-1,-0.00228948029143846,-0.001666719290626924,-0.0061422208255582315,0.012086691205554945,0.9824465091364184
2012-01-25,-1,-0.0009528534490855283,-0.000573437772874842,-0.011139468755694104,0.012086691205554945,0.9824101454427394
2012-01-27,1,3.7553677968245195e-05,0.0003677388751723445,-0.011139468755694104,0.008232160488528107,0.9840704495330901
2012-01-31,1,0.0008145753367105316,0.0009468796375385317,-0.012609381761103117,0.008401074450563432,0.9827697321226103
2012-02-02,-1,-0.0011980643899594907,-0.0007421426886173256,-0.009252862677119873,0.006050954029212696,0.9871670401908621
2012-02-06,1,3.5908789029745914e-05,0.00026306931030586856,-0.005387013842080487,0.005448914063296284,0.9892534079667649
2012-02-08,1,0.0013784703137288356,0.0013792938211176376,-0.005387013842080487,0.00758639718942708,0.9880034129306863
2012-02-10,1,0.001910792382403982,0.002060428559694398,-0.009252862677119873,0.00758639718942708,0.9869867588294333
2012-02-14,1,0.0025697259416204536,0.002735335739829139,-0.010174715102771369,0.005651407901949601,0.9875280344232302
2012-02-16,1,0.0003265377170150476,0.0004611087493490825,-0.006088509286076668,0.00788406042945461,0.9902165010196895
2012-02-21,1,0.0009435235620313199,0.000999309427857119,-0.006088509286076668,0.00788406042945461,0.989168947957031
2012-02-23,1,5.244626574781529e-05,0.0002307963486945844,-0.003539660830971116,0.00788406042945461,0.9896618939832411
2012-02-27,-1,-0.001540344005751738,-0.0010710139541201627,-0.003367248976447937,0.013990897443687998,0.9868282292865534
2012-02-29,-1,-0.0004147442613733674,-0.000147801127012972,-0.003367248976447937,0.01293150961986264,0.9880364819347908
2012-03-02,0,-7.367183146629824e-05,0.00010666553126116379,-0.0036010807911133307,0.013990897443687998,0.987073908501318
2012-03-06,1,0.0014996401375546261,0.0016145448826634019,-0.006349988063171243,0.013990897443687998,0.9865150878735589
2012-03-08,1,0.002994801670191386,0.0033067498863797603,-0.01085324678773806,0.012096643144419958,0.9868773604063902
2012-03-12,1,0.002692588474705408,0.0030090120380123417,-0.012707812292807043,0.012096643144419958,0.9861151942263974
2012-03-14,1,0.0016301418279393751,0.0017180483184089793,-0.01093850063977035,0.01293150961986264,0.9860059575440066
2012-03-16,1,0.002484195747552182,0.0027169300649943742,-0.01364926193954269,0.01293150961986264,0.9852000867481547
2012-03-20,1,0.0037633877757083556,0.00403110758706998,-0.01364926193954269,0.013847505285472161,0.9856430087902766
2012-03-22,1,0.0037249486266300747,0.004154910498813454,-0.01364926193954269,0.013847505285472161,0.9854257657499
2012-03-26,1,0.005391565964724303,0.006094200383099931,-0.01364926193954269,0.011494249551958503,0.9863913252290623
2012-03-28,1,0.004993187506472479,0.0056543792223448545,-0.012011656345656162,0.011883644489249652,0.9872215029352324
2012-03-30,1,0.005895873197116217,0.007040207192169776,-0.012011656345656162,0.014286931612730227,0.9832782375036234
2012-04-03,1,0.005614575734561177,0.006743987983393794,-0.009792723607276134,0.014286931612730227,0.9837982704162561
2012-04-05,1,0.003869982004971322,0.004696146236436298,-0.009792723607276134,0.014286931612730227,0.9838865407190639
2012-04-10,1,0.003241294519737945,0.004080221877639307,-0.006400843429524365,0.014286931612730227,0.9856523700692598
2012-04-12,1,0.0035079292436473357,0.00430667183750836,-0.006400843429524365,0.01456424036187261,0.9852006404252515
2012-04-16,1,0.0009570791368333943,0.0012381017159530825,-0.0056622805347436985,0.01456424036187261,0.9854248992202398
2012-04-18,1,0.002175935072223692,0.0026460850772031374,-0.0056622805347436985,0.008832265945254684,0.986343648705488
2012-04-20,1,0.0005501335745587596,0.0006253330216139677,-0.008305262435945635,0.008832265945254684,0.9843289935526892
2012-04-24,1,0.0009893068915511776,0.0011210355058331597,-0.009202014468137914,0.010216102600785423,0.9837427679785713
2012-04-26,1,0.003130676082036319,0.003658360132297313,-0.010228085447203668,0.007175816112639746,0.9839175511315033
2012-04-30,1,0.005653729579181917,0.006500877174738202,-0.011375018958875209,0.0055548892656783954,0.987605778416119
2012-05-02,1,0.005195176582285655,0.005962338315079566,-0.014722885899128166,0.007096089138106559,0.9866357937948955
2012-05-04,1,0.003628385886364035,0.00415264346653811,-0.014722885899128166,0.00881667224395621,0.9862024863739737
2012-05-08,1,0.002280663006921052,0.002462832210961178,-0.014722885899128166,0.010951458943875114,0.9853850251272158
2012-05-10,1,0.002707637964767072,0.0029464915801229196,-0.014722885899128166,0.00881667224395621,0.9860474342101986
2012-05-14,1,0.001565871997700376,0.0016189525906612063,-0.011375018958875209,0.00881667224395621,0.9866861291117595
2012-05-16,1,0.0011278118609739736,0.00118731686202777,-0.011375018958875209,0.00881667224395621,0.9866065350376159
2012-05-18,-1,-0.0007696957034343467,-0.0005223784916211466,-0.009144166522333082,0.017737733138413647,0.987477819622557
2012-05-22,-1,-0.0011292267989081162,-0.0007889106744229669,-0.008122342344778375,0.01118896515900696,0.9885997001544218
2012-05-24,-1,-0.0014692608375733113,-0.0010742156883606468,-0.008122342344778375,0.010949784235407399,0.9886400930257842
2012-05-29,-1,-0.001035750240565935,-0.0007350868914926073,-0.008122342344778375,0.017737733138413647,0.9878626900310706
2012-05-31,-1,-0.0007724868935613549,-0.0005621523125779786,-0.008122342344778375,0.009952967905711152,0.9889957357633593
2012-06-04,-1,-0.0010820039819162816,-0.0007919727744194552,-0.006705978478696197,0.009952967905711152,0.9897494906315819
2012-06-06,-1,-0.0011063868081634869,-0.0007647153960457382,-0.008122342344778375,0.006416783209298107,0.9905328220700675
2012-06-08,-1,-0.00025163883124280754,-7.33475007171036e-05,-0.00890487467092046,0.006416783209298107,0.9904047182240172
2012-06-12,1,0.0007712785005222668,0.0008581917796238167,-0.00899112599904478,0.006416783209298107,0.9892023228430348
2012-06-14,-1,-0.0008958110277848336,-0.0006766508113519019,-0.009745990782157918,0.00892384329845713,0.988432964964569
2012-06-18,1,0.0010175710560052804,0.001042282534265636,-0.010795325838825257,0.004732539852285281,0.9893147017549409
2012-06-20,1,0.0018310685752086682,0.002053604788570025,-0.010795325838825257,0.004996483501327201,0.9877799040000376
2012-06-22,1,0.0014597190568646787,0.0016232059218211495,-0.010180770959751125,0.005537698752881104,0.9877721082077476
2012-06-26,-1,-0.00024882318787105347,-0.00019630911672441245,-0.011458722352598288,0.004250679630623588,0.987661415806411
2012-06-28,-1,-0.0011928593038442,-0.0011123400978369606,-0.010795325838825257,0.01043945361936488,0.9840078121566523
2012-07-02,1,0.0008456739797863055,0.0009970722317257125,-0.011127855559517072,0.005537698752881104,0.9848934906375494
2012-07-05,1,0.00041466805055744835,0.0005098041464864358,-0.011127855559517072,0.005537698752881104,0.9849594401635684
2012-07-09,1,0.000671579032076187,0.0008685943787612027,-0.011127855559517072,0.01043945361936488,0.9843501164358421
2012-07-11,-1,-0.002335807296023897,-0.002014135927284449,-0.010214987134294171,0.011646877728567128,0.985242449085898
2012-07-13,-1,-0.002018400203291663,-0.00176125266278712,-0.009408409979050564,0.009775949865706894,0.9863298260727315
2012-07-17,-1,-0.0028774168842077294,-0.0024773857497849884,-0.006501517828902034,0.009775949865706894,0.9868658525753347
2012-07-19,-1,-0.0012908443500522036,-0.00107085620383685,-0.006501517828902034,0.011646877728567128,0.9870753313596317
2012-07-23,-1,-0.0013472562717384575,-0.0011247519424164181,-0.005535554282741159,0.011646877728567128,0.9879036329085914
2012-07-25,-1,-0.0034487791434289323,-0.0029759465027514136,-0.005183808157237183,0.014038855855436632,0.9888074808116722
2012-07-27,-1,-0.0006982125412092557,-0.0005696152606846985,-0.005268629029682768,0.012048344594462674,0.9919299165205059
2012-07-31,-1,-0.0005688828653959252,-0.000529272981315916,-0.005268629029682768,0.012048344594462674,0.9918402483973736
2012-08-02,-1,-0.0017669717216164246,-0.0015327075952481538,-0.0038510909556304916,0.012048344594462674,0.9920699019749843
2012-08-06,-1,-0.001387402710957957,-0.001181836997890434,-0.0036676075333003655,0.009479604385308092,0.9926952772019363
2012-08-08,-1,-0.0009160150073294004,-0.0007993823367046394,-0.0036676075333003655,0.010544575004861624,0.9922404319540689
2012-08-10,-1,-0.0003236271145028291,-0.00028168813178643164,-0.0036676075333003655,0.015781276649558522,0.9905544421872602
2012-08-14,-1,-0.00014933911918634467,-7.917479389384725e-05,-0.004189250532864125,0.015781276649558522,0.9905248604621435
2012-08-16,1,0.002333162656895556,0.0028537280019214797,-0.004189250532864125,0.010544575004861624,0.9911542446060011
2012-08-20,1,0.0019306204912550172,0.0023693333784130053,-0.005816724908520502,0.010544575004861624,0.9908562057593253
2012-08-22,0,0.0,0.0,-0.005816724908520502,0.009564671689437086,0.9908425325283866
2012-08-24,0,0.0,0.0,-0.006874145027076561,0.008489000269007733,0.9910124940694094
2012-08-28,0,0.0,0.0,-0.008228995328444316,0.005159357978605461,0.9908234535960567
2012-08-30,0,0.0,0.0,-0.008931044554333153,0.009075324103003744,0.989410909833629
2012-09-04,1,0.0022505141522623424,0.0022536116941144534,-0.009108165322998761,0.005799343020174677,0.9885177533342842
2012-09-06,0,-5.2688918205931e-05,8.612534588910912e-05,-0.009108165322998761,0.012937498803721253,0.9886870369954455
2012-09-10,1,0.0008072540628232076,0.0008128128352204665,-0.009108165322998761,0.005799343020174677,0.9898912208956122
2012-09-12,0,0.0,0.0,-0.010540437133086993,0.005799343020174677,0.9876332535501637
2012-09-14,0,0.0,0.0,-0.010540437133086993,0.002322443416912986,0.9881813880376333
2012-09-18,1,0.0009695771724843611,0.0009931439146880973,-0.00948027022275237,0.003473056130842306,0.9881466259712737
2012-09-20,1,0.0031414716213270105,0.003573142491841059,-0.010444384753910158,0.003473056130842306,0.9867406575547214
2012-09-24,1,0.002504640187133558,0.0028398516582577374,-0.010763147336760455,0.003473056130842306,0.9859400246719752
2012-09-26,1,0.001333634694597585,0.001450721090960787,-0.012952338762211326,0.0035776646780480105,0.9862180402203908
2012-09-28,1,0.0016986617350430845,0.0018550341493008397,-0.020803216583486644,0.0035776646780480105,0.9833827482827785
2012-10-02,1,0.0014503843053069176,0.0016063688085398784,-0.022789419474492596,0.0035776646780480105,0.982923060886092
2012-10-04,1,0.0023630959327276195,0.002606914156952761,-0.022789419474492596,0.002162458604470294,0.983903909674398
2012-10-08,1,0.0020148975807488144,0.0022189525068511055,-0.023311234051534752,0.0035776646780480105,0.9827906099806148
2012-10-10,-1,-0.0008544243757089019,-0.0006207719215373414,-0.020836401926569825,0.0035776646780480105,0.9851902458893018
2012-10-12,-1,-0.00039865222528020583,-0.00021044234689058237,-0.020836401926569825,0.0035776646780480105,0.985451639643274
2012-10-16,-1,-0.00032857061632594756,-0.00014346659051774112,-0.020836401926569825,0.001471389335188198,0.9845826919922293
2012-10-18,-1,-0.00041138103509242023,-0.00020492688939245207,-0.020836401926569825,0.003754770503764362,0.9838220100932392
2012-10-22,-1,-0.0023079686624165453,-0.0018597909657142478,-0.017154857136674098,0.014767476628434799,0.9841881233724917
2012-10-24,-1,-0.003053745954369941,-0.0025277450524653147,-0.0119322976354477,0.01612279723916205,0.9840618461404135
2012-10-26,0,0.0,0.0,-0.006065963261794339,0.015329576298544029,0.9880875174304825
2012-11-01,0,0.0,0.0,-0.0018208767274527932,0.015901959436520383,0.9883676962456415
2012-11-05,1,0.0010910135593702555,0.0013417536025638666,-0.005136837021797757,0.015901959436520383,0.9884448347631439
2012-11-07,-1,-0.003936613099028737,-0.0032214194331919733,-0.002886012983156809,0.015901959436520383,0.9883223165550361
2012-11-09,-1,-0.004148843566834205,-0.003494639443054815,-0.0012580648575218653,0.015901959436520383,0.9879434660643723
2012-11-13,0,0.0,0.0,-0.0012580648575218653,0.015901959436520383,0.988893054594221
2012-11-15,0,0.0,0.0,-0.001183705176284632,0.015901959436520383,0.9896967387890764
2012-11-19,-1,-0.0020065383146379767,-0.0016813812696852214,-0.001183705176284632,0.015901959436520383,0.9888690706770099
2012-11-21,-1,-0.0012762163513539084,-0.0009983952396011306,-0.0021001220695141807,0.014014481866061962,0.9899596474059811
2012-11-26,1,0.00012315610036992293,0.00018250748569871456,-0.0034484014120049734,0.012240129805359766,0.9901656285772623
2012-11-28,1,0.0002843230800666549,0.00034712363179614835,-0.00716774675005916,0.009417724471753208,0.988988905103773
2012-11-30,1,0.0006307859876878482,0.0006713906704013796,-0.008462993895473782,0.009417724471753208,0.9881380106869526
2012-12-04,0,-2.09827240306905e-05,0.0001382914533326366,-0.008462993895473782,0.012240129805359766,0.9875422920800502
2012-12-06,0,-0.00011053929935476352,6.272229348906641e-05,-0.008462993895473782,0.014889049450825802,0.986067453981623
2012-12-10,-1,-0.0011881323121579236,-0.0008740376051344946,-0.007860671541477184,0.014889049450825802,0.9866398685790149
2012-12-12,1,7.816786601589628e-05,0.00018112669345532283,-0.007860671541477184,0.014889049450825802,0.9868478158741182
2012-12-14,-1,-0.000422590317604415,-0.0002521522031151029,-0.004780973009493693,0.01809302512823729,0.9863036560865603
2012-12-18,1,0.0001720285234183478,0.00034791402639329245,-0.00812468536174108,0.010750360966475492,0.987719619835222
2012-12-20,1,0.0019700775753000574,0.0021867963893652375,-0.007256341804079639,0.0074123259329262284,0.9882142117746185
2012-12-24,1,0.0010402164435878518,0.0010814618334494303,-0.007243922004424242,0.011818352858945988,0.9879521410779872
2012-12-27,-1,-0.0004891870181247905,-0.0003257251661778745,-0.007243922004424242,0.018396477250002104,0.986647316778028
2012-12-31,1,0.00024407063986844188,0.0002875018351385236,-0.007243922004424242,0.018396477250002104,0.9833506725949004
2013-01-03,1,0.0004795441698750042,0.00048080359596940406,-0.0077106426312667595,0.011818352858945988,0.9833403402142742
2013-01-07,1,0.0012393958642293104,0.0013299559292437725,-0.00854171798255119,0.011818352858945988,0.982843503107295
2013-01-09,1,0.0007621167109226289,0.000785917172467558,-0.01256682704152038,0.011818352858945988,0.982078158928394
2013-01-11,1,0.0014470920802152904,0.0016122096831240817,-0.017647112795366113,0.009426408604356824,0.9814656999352968
2013-01-15,1,0.0014489464683664418,0.0015958785215989865,-0.017647112795366113,0.009945746182469165,0.9803319217550842
2013-01-17,1,0.0014028961485242544,0.0015601645461591515,-0.017647112795366113,0.009945746182469165,0.9802164292822831
2013-01-22,1,0.0014054036933447871,0.0015731023160673234,-0.017647112795366113,0.01817281247660847,0.979413335981094
2013-01-24,1,0.001678267078666223,0.0018777024668375942,-0.017647112795366113,0.00935185367989228,0.9803465196883889
2013-01-28,1,0.0016481191193270426,0.0018339200880288604,-0.017647112795366113,0.005997078227150227,0.9822772777326966
2013-01-30,1,0.0017538171895804416,0.0019657857213366096,-0.015934743057210377,0.005997078227150227,0.9865795741554254
2013-02-01,1,0.0011851542724689223,0.0013389293956642596,-0.013139796092823352,0.008706737414469874,0.9867455759725388
2013-02-05,1,0.0016109513668403049,0.0018351505399909459,-0.008787223796653223,0.007227263774645817,0.988194679703402
2013-02-07,1,0.001082928149028486,0.0012348635161298412,-0.0031047151222938617,0.007227263774645817,0.9895109709533596
2013-02-11,0,0.0,0.0,-0.0031047151222938617,0.009474108803000326,0.9895650216504515
2013-02-13,0,0.0,0.0,-0.007588330853200454,0.006441991571864175,0.9900481036525691
2013-02-15,0,0.0,0.0,-0.011164679295413673,0.006441991571864175,0.9893871930236955
2013-02-20,0,0.0,0.0,-0.007588330853200454,0.004296579550967657,0.9904077018941553
2013-02-22,1,0.0007940009917832282,0.0008968742078275286,-0.0117570410814705,0.006441991571864175,0.9890917794463215
2013-02-26,1,0.00048184424982853117,0.0005667419778240354,-0.0077236987911831635,0.009474108803000326,0.9891042377861436
2013-02-28,1,0.0006948195511182286,0.0007896970909894646,-0.0077236987911831635,0.009474108803000326,0.9888967810805314
2013-03-04,1,0.001919656602372611,0.0022344475743932505,-0.0117570410814705,0.007172516877590138,0.9892570113063925
2013-03-06,0,0.0,0.0,-0.014816026188958257,0.0049982269379782885,0.9891141191968883
2013-03-08,0,0.0,0.0,-0.014816026188958257,0.00756606532754473,0.9878430727219393
2013-03-12,0,0.0,0.0,-0.014816026188958257,0.009738489529354598,0.9877970127736844
2013-03-14,0,0.0,0.0,-0.014109325825893304,0.013661848278569878,0.9881476520674561
2013-03-18,0,0.0,0.0,-0.008507793705990764,0.014614546674412573,0.9878368152615805
2013-03-20,0,0.0,0.0,-0.015412782422960033,0.014614546674412573,0.9859449032799725
2013-03-22,-1,-0.0009883273750132375,-0.0007512594071165414,-0.014494507756395617,0.013661848278569878,0.9866015653499285
2013-03-26,-1,-7.873477968214793e-05,-1.4017670365930936e-05,-0.014494507756395617,0.013661848278569878,0.9868942541701451
2013-03-28,-1,-0.00044673990797793354,-0.00028299526273105894,-0.01675376518338869,0.013661848278569878,0.983452483775127
2013-04-02,-1,-0.0006059364898882926,-0.0004257359399670158,-0.01675376518338869,0.014499645294210418,0.982871693771639
2013-04-04,-1,-0.0012475427179746469,-0.0009743478413954714,-0.018322680043592797,0.01653690677285527,0.9816375416191062
2013-04-08,-1,-0.0017103459478058438,-0.0013499874920829466,-0.018322680043592797,0.017293419649400045,0.9813962195008527
2013-04-10,-1,-0.0011812673415230986,-0.0008805072707202371,-0.018322680043592797,0.017293419649400045,0.98203405780059
2013-04-12,-1,-0.0009618218728779204,-0.0006538576237925532,-0.018322680043592797,0.01653690677285527,0.9826480776048673
2013-04-16,-1,-0.0006512094975270567,-0.0004221419551632558,-0.011306705649106531,0.014905580509150786,0.9835169001578996
2013-04-18,-1,-0.0013203801073802769,-0.0010600907002479925,-0.007204580196871664,0.014905580509150786,0.984838058211073
2013-04-22,-1,-0.0005773899132365458,-0.0004281510022310518,-0.00856518446217858,0.01657349449905766,0.9844122567453504
2013-04-24,-1,-0.00018374053938691247,-9.340148603296334e-05,-0.009060348065116972,0.014905580509150786,0.98418258442658
2013-04-26,-1,-0.0011753564229713231,-0.000983412262252493,-0.00856518446217858,0.013613911834017205,0.988439238506001
2013-04-30,-1,-0.0010567687206427773,-0.0008819593274600097,-0.007049891650288761,0.013613911834017205,0.9888630597937293
2013-05-02,-1,-0.0010918733946749185,-0.0009121423758798807,-0.006587562263096602,0.009996018485420158,0.9900099766861576
2013-05-06,-1,-0.0013811919216428444,-0.0011403939929951995,-0.006587562263096602,0.008115636124174654,0.9909639696639718
2013-05-08,-1,-0.00086928987739159,-0.00070688196687714,-0.006587562263096602,0.006511547027697842,0.9911919418972018
2013-05-10,-1,-0.000638477035406451,-0.0004892725862392941,-0.006587562263096602,0.010271980131176866,0.9897645410319659
2013-05-14,1,0.00041685866922291687,0.00045250453487607876,-0.008462407136312624,0.006369908905726041,0.9889753068116776
2013-05-16,0,0.0,0.0,-0.007041097018198907,0.010452901524956539,0.9887091323719066
2013-05-20,0,0.0,0.0,-0.0065411947212247815,0.013693518587715586,0.9888134182471534
2013-05-22,-1,-0.001726526020123431,-0.0014036592619656348,-0.007093008238915854,0.013693518587715586,0.9886906132893325
2013-05-24,-1,-0.000934199426169068,-0.000753932336727401,-0.008978600606151884,0.013693518587715586,0.9884155536525038
2013-05-29,-1,-0.00019511797923798185,-0.0001343312133244813,-0.008978600606151884,0.013693518587715586,0.9884989876349853
2013-05-31,0,0.0,0.0,-0.008978600606151884,0.013693518587715586,0.9891295136440326
2013-06-04,0,0.0,0.0,-0.007410032048762403,0.014932276792651265,0.9887080366954927
2013-06-06,0,0.0,0.0,-0.007410032048762403,0.014932276792651265,0.9887291615911974
2013-06-10,1,0.0015052556195059175,0.0017202775954385401,-0.007410032048762403,0.013693518587715586,0.9904232324952538
2013-06-12,1,0.0006368475708010168,0.0007278817671527574,-0.00012719916145837335,0.014932276792651265,0.9907404945083039
2013-06-14,1,0.0007769891655984471,0.0008845215886838806,-0.00012719916145837335,0.015111160797846267,0.9904080656253469
2013-06-18,1,0.0015713590013993663,0.0018032610661886514,-0.00012719916145837335,0.008855287864799522,0.9916406501081771
2013-06-20,1,0.0009803400781560653,0.0011428662630597636,0.00036028781852404004,0.008855287864799522,0.9921939026860637
2013-06-24,1,0.001146922806424948,0.001336940380601883,0.00036028781852404004,0.008855287864799522,0.9920817461075209
2013-06-26,1,0.0014312312027164903,0.0016042627402432204,-0.0008506772587512592,0.008614887644180514,0.9921604405668094
2013-06-28,1,0.0015325136943943538,0.0017315779812306263,-0.0038231996401404044,0.015159817705329003,0.9899970031794925
2013-07-02,1,0.0017310755330795734,0.0019049575642144287,-0.006060525379011095,0.008614887644180514,0.9899460264507993
2013-07-05,1,0.001658209681967084,0.0017952908110721402,-0.006060525379011095,0.014560795286997483,0.9892691521058603
2013-07-09,1,0.0030200303124715048,0.003426465919579068,-0.007274914641516469,0.008058431854317365,0.9891188145392777
2013-07-11,1,0.00351921995869426,0.0039530326957383215,-0.008626778884222353,0.004244899562395011,0.9888497043236518
2013-07-15,1,0.004171032076811744,0.004695128468280914,-0.008626778884222353,0.004047109551090908,0.9896424920931419
2013-07-17,1,0.004201275008378762,0.004716957942661798,-0.009522082420809276,0.0003227004871169209,0.988517266412463
2013-07-19,1,0.003255668566020884,0.003596478719874713,-0.009522082420809276,-0.0016374585136682451,0.9885122219522174
2013-07-23,1,0.0029738339705124017,0.0033077146669756776,-0.009522082420809276,0.0032598174369079884,0.9895423914218616
2013-07-25,1,0.0036246083487800557,0.0041049549295798645,-0.009522082420809276,0.0032598174369079884,0.9890025245481846
2013-07-29,1,0.0037908019232731943,0.004290654805095417,-0.009522082420809276,0.0013831100662295692,0.9902226658344423
2013-07-31,1,0.003240602518653178,0.0036665120639477753,-0.009522082420809276,0.00239362241898307,0.9905367174397542
2013-08-02,1,0.0034506315952549252,0.0038999224640104964,-0.01056931005414823,0.00239362241898307,0.9904043435640281
2013-08-06,1,0.002523541281388728,0.0027869376489794125,-0.009516936632910717,0.005185423948418051,0.9898629624959504
2013-08-08,1,0.001373201907541104,0.0014208594280763881,-0.009001797484581318,0.005488122131599105,0.9907788943771693
2013-08-12,1,0.0012891431246044346,0.0013145903698064594,-0.009001797484581318,0.006619115547272445,0.9904963981162609
2013-08-14,1,0.0005310433633047829,0.0005986616128630729,-0.006514222457626176,0.006619115547272445,0.9910488121852726
2013-08-16,-1,-0.00020575273030126918,-6.48559032375381e-05,-0.003919773257954177,0.006619115547272445,0.991590631187222
2013-08-20,1,0.0004801176622847094,0.0005023228708275938,-0.003919773257954177,0.01394945014324445,0.9894335925072237
2013-08-22,1,0.0004636906314224756,0.0005128581779400975,-0.00273868856895489,0.013188528394866766,0.9900973814264216
2013-08-26,-1,-0.0004559136720489463,-0.00026843785407044333,-0.00273868856895489,0.013188528394866766,0.9894724903079024
2013-08-28,-1,-0.0011739386437317942,-0.000897563083341693,-0.00273868856895489,0.014476278166664525,0.9892456357424575
2013-08-30,-1,-0.0008678366710699984,-0.0006633211400840778,-0.0035368226474704945,0.014476278166664525,0.9894591173001617
2013-09-04,1,0.0011845446440501266,0.0012817060808314568,-0.0035368226474704945,0.013188528394866766,0.9903827010012054
2013-09-06,1,0.0013208514062832126,0.001428102525966812,-0.005094398630725156,0.013627073443646259,0.9890778756276141
2013-09-10,1,0.0007787330007454712,0.0008289098010175276,-0.00764060234061318,0.013627073443646259,0.9872370794030524
2013-09-12,1,0.0007587410315325109,0.0007887512548874318,-0.011831068160491707,0.01466042500353,0.9856213931384183
2013-09-16,1,0.0006941794595583283,0.0007008744915938921,-0.011831068160491707,0.01780763993399526,0.9852087058592103
2013-09-18,1,0.0013359567200441518,0.0013527698426997053,-0.014212701083012858,0.013627073443646259,0.9862855054220789
2013-09-20,1,0.0014450276767072195,0.0014567995410762512,-0.014212701083012858,0.014572142028889418,0.9841310999796634
2013-09-24,1,0.0008514204843323044,0.000937705645653743,-0.011458093804203248,0.01779333647108662,0.9841567141434753
2013-09-26,1,0.0012683589834218815,0.0012928080539282576,-0.014502078466495767,0.017180840484125798,0.9834781074587383
2013-09-30,1,0.0005967669583551856,0.0006583912074226867,-0.014916446711151419,0.018700757069476687,0.979277497254309
2013-10-02,1,0.0012985367147814173,0.001342198521955368,-0.014916446711151419,0.017180840484125798,0.9797465693335445
2013-10-04,1,0.001286657155323234,0.0013477428106789097,-0.01397784947494295,0.017180840484125798,0.9802141836477227
2013-10-08,-1,-0.0002764083279158565,-0.0001241070936293864,-0.009131886350162727,0.017180840484125798,0.9826420630682807
2013-10-10,0,-4.737605429594308e-06,0.00010312417738011712,-0.009131886350162727,0.014181175247801745,0.9824840185477005
2013-10-14,1,6.996051826540297e-05,0.0001948294029157723,-0.009131886350162727,0.014181175247801745,0.9819302626226314
2013-10-16,0,-0.00015423952568051873,7.83444074806697e-06,-0.009098984840871438,0.017180840484125798,0.9816574191846664
2013-10-18,1,0.0014953264920975911,0.001536445103379658,-0.009098984840871438,0.017180840484125798,0.9827601653637064
2013-10-22,1,0.0017842141130016633,0.0018771474038014073,-0.009495905753777865,0.013676636102939815,0.9833228428947264
2013-10-24,1,0.0014329784652306664,0.0014537872999582173,-0.007688104236902858,0.013885347020566222,0.9838101910034527
2013-10-28,1,0.003254687567452701,0.003518190761557051,-0.006758418123975701,0.01189158451375029,0.9883253249494017
2013-10-30,1,0.0038957228441523304,0.004307856883600182,-0.006758418123975701,0.01291933957834714,0.9883402943322525
2013-11-01,1,0.003192221734017494,0.0034476860908690594,-0.004163297040661198,0.014880073401954758,0.9882215727239895
2013-11-05,1,0.003108551033792938,0.003356198109054789,-0.006758418123975701,0.014880073401954758,0.9874205242373855
2013-11-07,1,0.0022006760897396154,0.002364345775560767,-0.0034919128473608913,0.014880073401954758,0.9890126632755958
2013-11-11,1,0.00239493746352433,0.0025308196400482793,-0.004187430724446714,0.01291933957834714,0.9897171815155872
2013-11-13,1,0.0022070281392037837,0.002291285431286767,-0.004187430724446714,0.011862219778773105,0.9902122328605634
2013-11-15,1,0.0032075213979918292,0.0034565234984766102,-0.004187430724446714,0.011800120813899438,0.9911904145995036
2013-11-19,1,0.0027078891467371873,0.0028816042294359935,-0.003497349928425208,0.012372102488286105,0.9907156535387113
2013-11-21,1,0.0030730799133988898,0.0033199796768141224,-0.003363509847102395,0.012372102488286105,0.9910431842724757
2013-11-25,1,0.003501665035966045,0.0038072746493568867,-0.003497349928425208,0.012372102488286105,0.9910790660385461
2013-11-27,1,0.004193223373583256,0.004612911123766263,-0.004187430724446714,0.00895946389154741,0.9905248401732692
2013-12-02,1,0.004740435391470066,0.005265524345649237,-0.006300949534445652,0.00895946389154741,0.9902441909514147
2013-12-04,1,0.004380845054689227,0.004887903162728531,-0.0042143104041634525,0.00895946389154741,0.9908076961224407
2013-12-06,1,0.004357543721862969,0.004864643375706988,-0.005764822633335906,0.011461054973616592,0.9904168415721812
2013-12-10,1,0.004087427820941869,0.0045334921114596576,-0.004655414640731012,0.011461054973616592,0.9904845741328948
2013-12-12,1,0.003279245135491068,0.0035895445557222704,-0.007404596087452501,0.011461054973616592,0.990183234647898
2013-12-16,1,0.0037381023236226084,0.004111687659955179,-0.007404596087452501,0.01163381104971278,0.9896836710073018
2013-12-18,1,0.004017308905748073,0.004437972660732712,-0.007404596087452501,0.01012436613116308,0.9903532093210893
2013-12-20,1,0.004003680021036618,0.004388546058385542,-0.007404596087452501,0.01012436613116308,0.9900955501241342
2013-12-24,1,0.0037505418293128957,0.0041073902883630295,-0.009151471964879752,0.01012436613116308,0.9884586326796493
2013-12-27,1,0.003302066320302617,0.0035725600864015394,-0.007404596087452501,0.01012436613116308,0.9887627451800542
2013-12-31,1,0.0028187993254033205,0.002995322307004267,-0.007404596087452501,0.01012436613116308,0.9864704114826476
2014-01-03,1,0.0018906129559269,0.001987851475262011,-0.01285752766067031,0.01012436613116308,0.980473131884972
2014-01-07,1,0.001617935972502597,0.0016497676096575093,-0.01285752766067031,0.009662775243205607,0.9809521601023223
2014-01-09,1,0.0013194390513653817,0.0013607003064964604,-0.01285752766067031,0.017159525068015803,0.9797409031736894
2014-01-13,1,0.0006319436992359492,0.0007522778315038756,-0.00751078715734959,0.017159525068015803,0.9810305043317251
2014-01-15,1,0.0007953492012919888,0.0008943098800775341,-0.015142021438108015,0.018381724463655335,0.9792545414218121
2014-01-17,1,0.0006221169433857902,0.0007639044513403876,-0.015142021438108015,0.018381724463655335,0.9792156056182261
2014-01-22,1,0.00042212864198885934,0.0006123772571482243,-0.01978115883571075,0.009800560346874328,0.9792770465659332
2014-01-24,-1,-0.0008045048143238075,-0.0004593360199465523,-0.012197840819154546,0.015433434697651006,0.9803265463416465
2014-01-28,0,-4.114454329336246e-05,0.00017634563104886123,-0.012197840819154546,0.015433434697651006,0.9803596143183285
2014-01-30,1,0.0003648468845545555,0.0005326919389487305,-0.009106519851996096,0.00884407613549383,0.983715347675172
2014-02-03,-1,-0.0026274278287036564,-0.0021236456573239687,-0.004834930761743112,0.01220779329671167,0.9885889300995643
2014-02-05,-1,-0.00284550497220548,-0.0023038941346726874,-0.002037946265857208,0.015433434697651006,0.9876066304856838
2014-02-07,-1,-0.0021683885088631992,-0.0016911936463534457,-0.004685934166447926,0.008087690405640885,0.989963212661281
2014-02-11,-1,-0.001506951962509595,-0.0011658252686266835,-0.005063043861595493,0.008087690405640885,0.989908643940355
2014-02-13,-1,-0.001709157750630054,-0.0013548120921681901,-0.004237939770415971,0.00624350175534112,0.9921037315045348
2014-02-18,-1,-0.002138588342515728,-0.0017230631785016919,-0.0014510237006165449,0.007711221752043034,0.9916337138145509
2014-02-20,-1,-0.0023307979371408145,-0.001901969677180447,-0.004237939770415971,0.006988272155482548,0.9917096449852427
2014-02-24,-1,-0.002567325918769078,-0.0020865516178104238,-0.005063043861595493,0.005603285489517729,0.9907271765471415
2014-02-26,-1,-0.0018326614361252969,-0.001460435691838085,-0.007658755277713634,0.005603285489517729,0.9902007413027998
2014-02-28,-1,-0.0019230275055481876,-0.001526555157950586,-0.012156735560923303,0.005201605861131723,0.9900066884123655
2014-03-04,-1,-0.002622308618124538,-0.002085277721102342,-0.012156735560923303,0.005201605861131723,0.9896495168933189
2014-03-06,-1,-0.0022435545169447266,-0.001745505879041558,-0.014445394926773785,0.0038424455885689157,0.9898263439156945
2014-03-10,-1,-0.0023443922809698314,-0.0018420626114554214,-0.017824822284978437,0.0038424455885689157,0.9878735264420703
2014-03-12,-1,-0.0025308137236647313,-0.001999533594985451,-0.017824822284978437,0.0065339998093153035,0.9860410930342557
2014-03-14,-1,-0.001654038666890886,-0.001285288594080841,-0.02305270564950511,0.004640897739848562,0.9835856635787806
2014-03-18,-1,-0.0012397945009728422,-0.0009324701122049251,-0.02305270564950511,0.0024357115672468507,0.9834206063982732
2014-03-20,-1,-0.001921906046358567,-0.0015410636549202448,-0.02305270564950511,0.009448586734463641,0.9832352754706223
2014-03-24,-1,-0.0024044215595579272,-0.002043089929585026,-0.01640861804865195,0.013679832258877622,0.9842171803579651
2014-03-26,-1,-0.0029602800956475706,-0.0025458850902763423,-0.014850678425095062,0.015455100577759753,0.9836084397291742
2014-03-28,-1,-0.002931263164346657,-0.0025250489930127695,-0.0186897881894865,0.015455100577759753,0.9786265933565065
2014-04-01,-1,-0.0025873732248899175,-0.002220967617345556,-0.0186897881894865,0.013679832258877622,0.9783502151177287
2014-04-03,-1,-0.003907755673199405,-0.0033357526953572323,-0.01640861804865195,0.013679832258877622,0.9784495435787445
2014-04-07,-1,-0.004614698736872358,-0.003999202038113426,-0.01503638067734509,0.013679832258877622,0.9779390085708076
2014-04-09,-1,-0.0034656572911024473,-0.0029903985676404126,-0.016019315078341468,0.012566315765232356,0.9794491468460136
2014-04-11,-1,-0.004340396162965249,-0.0038107922734859578,-0.01454438729327513,0.013455764919378247,0.979135312656235
2014-04-15,-1,-0.00409951262274837,-0.003586689986104133,-0.015174274744171967,0.013008530071199292,0.9788581562536618
2014-04-17,-1,-0.003139068030893224,-0.002754191175994584,-0.015174274744171967,0.012566315765232356,0.9797925176227057
2014-04-22,-1,-0.002386890297693386,-0.002117691156628639,-0.015174274744171967,0.012566315765232356,0.9800386289216363
2014-04-24,-1,-0.0012606024360795327,-0.001158235329406784,-0.015174274744171967,0.012533895791846855,0.9818988049397358
2014-04-28,-1,-0.00402232079212415,-0.003620470967813265,-0.005452036264271763,0.012715443183397766,0.9856346338854918
2014-04-30,-1,-0.0034274079000535286,-0.003080402603553161,-0.005452036264271763,0.012443092863046436,0.9865975244008819
2014-05-02,-1,-0.0029211487143120966,-0.002641403582963286,-0.009091093690802559,0.011924290340941827,0.9871313912963067
2014-05-06,-1,-0.003615387765858104,-0.0032622735101795774,-0.006048145070517907,0.011924290340941827,0.9891944126929638
2014-05-08,-1,-0.004679666061008874,-0.0041898213984037525,-0.004076931660997179,0.013928970735865458,0.9859916622689987
2014-05-12,-1,-0.00282965702009125,-0.002588161736139779,-0.004746492908872912,0.013244229912773884,0.98826363288673
2014-05-14,-1,-0.002835378760311436,-0.0026229258377107093,-0.004746492908872912,0.013244229912773884,0.9878945176702225
2014-05-16,-1,-0.0023600254288347966,-0.002230908444688937,-0.004076931660997179,0.013244229912773884,0.9882684043002135
2014-05-20,-1,-0.0019320072708786567,-0.001850090305369808,-0.004746492908872912,0.013260367630031265,0.9876159766342824
2014-05-22,-1,-0.0014407959359517557,-0.0014207431981670068,-0.0062240702350242726,0.012501634760960827,0.9870636910626559
2014-05-27,-1,-0.0007626215614192711,-0.0006863149407772381,-0.007077426120568098,0.009950560877806595,0.9875102383408996
2014-05-29,-1,-0.00045006253746378505,-0.00033461548800605133,-0.007077426120568098,0.009562324182610132,0.9874164118921072
2014-06-02,-1,-0.0006340284712176452,-0.000530496970051684,-0.0062240702350242726,0.009562324182610132,0.9879434920758445
2014-06-04,-1,-0.000529150873808022,-0.00039271034664353235,-0.0062240702350242726,0.011336924675371438,0.9869833950879284
2014-06-06,1,0.001084362445612237,0.0014004157024160115,-0.007077426120568098,0.009562324182610132,0.9895591016634422
2014-06-10,1,0.0015744954149414516,0.001979522522549183,-0.008775080585047721,0.009562324182610132,0.9882044423267231
2014-06-12,1,0.0013027145241250163,0.001686319432385215,-0.00680024845196027,0.011073883068077012,0.9869883573641594
2014-06-16,1,0.0017384990158407479,0.0022054858168244216,-0.00680024845196027,0.015211059846184774,0.9856821003742817
2014-06-18,1,0.0018029017372355718,0.002219116250255877,-0.008775080585047721,0.011073883068077012,0.9865828431133168
2014-06-20,1,0.0013805147916009723,0.0017706607642970014,-0.00556153582944089,0.014860071689670507,0.9874543549118787
2014-06-24,1,0.00204741945046827,0.002599834705833966,-0.00556153582944089,0.014860071689670507,0.9879427421195776
2014-06-26,1,0.00026768153423959427,0.00036344894440944707,-0.006530194262340042,0.014860071689670507,0.9835710156099369
2014-06-30,1,0.00018652981785469705,0.0002607639018196795,-0.008035357238326515,0.014860071689670507,0.983120713189699
2014-07-02,1,0.0013161954841091712,0.0015996769896174617,-0.010048023011544182,0.009367858240624367,0.9825843462186796
2014-07-07,1,0.0014452747015933872,0.0017511911800891515,-0.010048023011544182,0.010287695469384319,0.9818684861901094
2014-07-09,1,0.001076407825635063,0.0013161477331784946,-0.008035357238326515,0.005731094891559043,0.9837454697773627
2014-07-11,1,0.0021307242951723675,0.0024973635670605004,-0.008253497586590438,0.005731094891559043,0.9855051222119708
2014-07-15,1,0.002538163987589723,0.002942927712441791,-0.008253497586590438,0.0048788767271255775,0.9867668163966961
2014-07-17,1,0.002409665448432902,0.0028031972306854997,-0.007555266949694692,0.010177227619848302,0.985591510600921
2014-07-21,1,0.003143917650101754,0.0036655291271790605,-0.007555266949694692,0.005731094891559043,0.9861806559918445
2014-07-23,1,0.0031088510156617698,0.0036342757597923056,-0.005123634491552325,0.005731094891559043,0.9865916919199257
2014-07-25,1,0.0010259672365896901,0.0012846436789735313,-0.005123634491552325,0.005731094891559043,0.9906717188052675
2014-07-29,1,0.0010901216494522336,0.0013906120097608014,-0.0040338701985275765,0.010177227619848302,0.9900354241140414
2014-07-31,1,0.0006331320119412152,0.0008708237370992863,-0.0040338701985275765,0.009790673982197465,0.9910039141308605
2014-08-04,1,0.0007912958619464819,0.0010531143336197204,-0.003152886855308927,0.00795907957967544,0.9924422822949672
2014-08-06,1,0.0010081814436322116,0.0013137768621009067,-0.003152886855308927,0.011682928770240216,0.9915168610453686
2014-08-08,1,0.001483943132659647,0.0018745796251612408,-0.003152886855308927,0.00795907957967544,0.992290484743294
2014-08-12,1,0.0014395827959449853,0.0017921653032915222,-0.0051105824889471595,0.00795907957967544,0.9904532586237905
2014-08-14,1,0.0018515941854912402,0.002194236695867148,-0.0051105824889471595,0.0041599300486671355,0.992139664637671
2014-08-18,1,0.001653417854184183,0.001937781602293804,-0.008712432219594009,0.0054257352185740106,0.9905545129493815
2014-08-20,1,0.00156271224657942,0.0018152783840629206,-0.009374037392250793,0.0054257352185740106,0.989842164606863
2014-08-22,1,0.0014237722749787882,0.0016753757093340123,-0.010271945930036917,0.00795907957967544,0.9886617662420866
2014-08-26,1,0.0016484904500337996,0.001893145752189743,-0.010271945930036917,0.006056486814588261,0.9891623043083012
2014-08-28,1,0.0008056940095334584,0.000879178648979001,-0.011519711508291664,0.006056486814588261,0.988640442110493
2014-09-02,1,0.0014647380171441257,0.0016802799349509745,-0.011519711508291664,0.004179860665497672,0.988998296067577
2014-09-04,1,0.0009019560864851541,0.0009630150683832409,-0.012608780830073827,0.003308771470510826,0.9895361607230191
2014-09-08,1,0.0008616622334167527,0.0009361215859408073,-0.01246502092205315,0.004179860665497672,0.9894272682022731
2014-09-10,1,0.0004710179022835498,0.0005215482658004403,-0.01246502092205315,0.005969109531023103,0.9897734323524261
2014-09-12,1,0.0005319797349554723,0.0006029390831372759,-0.01563382080648807,0.005969109531023103,0.9882187138178348
2014-09-16,1,0.0008615380856610034,0.001028530399983393,-0.01554961518905979,0.004499343804425382,0.9888197741000441
2014-09-18,-1,-0.0012005307215811338,-0.0009612561042187316,-0.01554961518905979,0.004499343804425382,0.9890004658285103
2014-09-22,-1,-0.0008653161910547181,-0.0006966484070109621,-0.013326266897861604,0.004499343804425382,0.9902525368122393
2014-09-24,-1,-0.0003022807950198045,-0.00020767903473383257,-0.013326266897861604,0.004499343804425382,0.9891624036070698
2014-09-26,-1,-0.0012991410005242033,-0.0010472920464119706,-0.013326266897861604,0.003761728548345124,0.9863579243153286
2014-09-30,-1,-0.001509569231989299,-0.001232176263251465,-0.013326266897861604,0.008882293676261964,0.985126676214425
2014-10-02,-1,-0.0007775475963577307,-0.0006475830192734509,-0.01077834644530415,0.011002644168251297,0.9848881137602321
2014-10-06,-1,-0.0013605951718920432,-0.0011250688972079376,-0.01077834644530415,0.011810407053054748,0.984483552263824
2014-10-08,-1,-0.0007189976273330681,-0.0005777299667817972,-0.01077834644530415,0.008882293676261964,0.9847489016605931
2014-10-10,-1,-0.0018372863208383355,-0.0015673288249906324,-0.008071935963184148,0.010316681246321893,0.9856470528988386
2014-10-14,-1,-0.001828555247202203,-0.0015597696640762253,-0.007510603304693428,0.016999410933086698,0.9845941876380102
2014-10-16,-1,-0.0014188460988156428,-0.0012174244979408382,-0.0024451827943571132,0.016999410933086698,0.9845468438971913
2014-10-20,-1,-0.0014962038660104096,-0.001293369041420828,-0.0056008683631180705,0.01797644953019765,0.9827566165974413
2014-10-22,-1,-0.0015871948792177569,-0.0013557246654384365,-0.0024451827943571132,0.016999410933086698,0.9838779495614732
2014-10-24,-1,-0.002803886760444763,-0.0024288587620065845,-9.71385134734154e-05,0.016999410933086698,0.9862826040111433
2014-10-28,-1,-0.0010374196788408667,-0.0009356853054188002,-0.0016488012827561753,0.01617340519805149,0.9881027672340383
2014-10-30,-1,-0.0006691490719080541,-0.0006175246740351371,-0.0016488012827561753,0.015388055610681264,0.9883234084554808
2014-11-03,-1,-0.0009511930924242871,-0.0008434541343667328,-0.002437575264803548,0.012987073191443314,0.9875562038261074
2014-11-05,-1,-0.0012530238354403556,-0.0011235246558617264,-0.0016488012827561753,0.012987073191443314,0.9873055883438128
2014-11-07,-1,-0.0005580245374866905,-0.0005433219189714991,-0.006682641269339239,0.012987073191443314,0.9865672093068838
2014-11-11,-1,-6.23734741502592e-05,-5.605722091461964e-05,-0.013813431478069231,0.009849214203584311,0.986650050061605
2014-11-13,-1,-0.00016975901180463757,-0.00015518685067808844,-0.013813431478069231,0.0070044950399139935,0.9872475100105779
2014-11-17,1,0.0002434035531830198,0.000293505258058099,-0.014965770280420225,0.005945386863643301,0.9877893541703215
2014-11-19,1,0.00018847112115131723,0.00022610519300004218,-0.014965770280420225,0.0070044950399139935,0.9874689525869347
2014-11-21,1,0.00048137007325352066,0.0005738039835646633,-0.014965770280420225,0.007728601678004255,0.9869365451697298
2014-11-25,1,0.0007747149989199183,0.000907759113272201,-0.014965770280420225,0.0055495624314071314,0.9868123199309163
2014-11-28,1,0.0009474337327215153,0.0011183466768299134,-0.014965770280420225,0.007852375193053299,0.9864016778216361
2014-12-02,1,0.001015131884606094,0.001251161296959145,-0.011374554664881294,0.007852375193053299,0.9879226932621187
2014-12-04,1,0.0006802616803068633,0.0008669089706516175,-0.011374554664881294,0.007852375193053299,0.9881326762164123
2014-12-08,1,5.832719118072099e-05,0.00014892104233796874,-0.007083318673816761,0.009808046132583657,0.9882578139176318
2014-12-10,1,0.00025915155091830354,0.00040320106732017293,-0.007083318673816761,0.007852375193053299,0.9893114798756089
2014-12-12,1,0.0005390298918452273,0.0007140342387507553,-0.010919788671624683,0.009808046132583657,0.9880512015950773
2014-12-16,-1,-0.0016036923950720774,-0.0014398206121394698,-0.010919788671624683,0.009808046132583657,0.9888950793606992
2014-12-18,-1,-0.0015410869691196575,-0.0013483204148659223,-0.010919788671624683,0.009808046132583657,0.9888666804813522
2014-12-22,-1,-0.0010953232157116383,-0.0009316695042257201,-0.010919788671624683,0.010806606449524912,0.9868257062235882
2014-12-24,-1,-0.0015028262040554133,-0.0013059303164362139,-0.009491476791958848,0.010806606449524912,0.9865710307623137
2014-12-29,-1,-0.00046985574112348206,-0.0003904512574675129,-0.009985214188043028,0.007776949347004392,0.9871230627414885
2014-12-31,-1,-0.0007311399656582943,-0.0006423021023638998,-0.009985214188043028,0.011872370080150617,0.9812926091660916
2015-01-05,-1,-0.0011596147067536753,-0.0010156584583204426,-0.009293082407042881,0.016379845133695822,0.9810552398361061
2015-01-07,-1,-0.0004803438408689711,-0.00047624817673025285,-0.00886890043998137,0.025267670871002415,0.9811825323485988
2015-01-09,-1,-0.0010409648829738751,-0.0009539022306336677,-0.00886890043998137,0.025267670871002415,0.9815402504997274
2015-01-13,-1,-0.0008970567304479611,-0.0008366486294802989,-0.005925391786826878,0.025267670871002415,0.9823080305928223
2015-01-15,-1,-0.0017204547680699813,-0.0015498836188242461,-0.0030109705856492344,0.025267670871002415,0.9823106827430144
2015-01-20,-1,-0.000491801329497595,-0.00045541780161590723,-0.006300005379030556,0.025267670871002415,0.9825283644402935
2015-01-22,1,0.0011632949288950373,0.0013865673908756166,-0.006300005379030556,0.013036087924206664,0.9852152383815931
2015-01-26,1,0.0006988642226708508,0.0008884761914992944,-0.006408935856079953,0.013036087924206664,0.9851087685693933
2015-01-28,1,0.0002262278477391687,0.0003549052497273158,-0.0029124937978277036,0.015786273873852976,0.9849706645942073
2015-01-30,1,0.0035649497621855412,0.00412880147971539,-0.00442980332593612,0.01288328922697998,0.9903855191157314
2015-02-03,1,0.0028515331846798346,0.00327930903710946,-0.005057279211499716,0.012310417961673006,0.9911163435488906
2015-02-05,1,0.0035901614251021893,0.004111590740171262,-0.006408935856079953,0.012310417961673006,0.9905410014397038
2015-02-09,1,0.0030479627546131788,0.003507383411851469,-0.006408935856079953,0.012310417961673006,0.9896325102823845
2015-02-11,1,0.0028958130303711493,0.003292244276016329,-0.008666993659435109,0.012604330736230211,0.9884459961644029
2015-02-13,1,0.0032552100177759766,0.003706043472591386,-0.009326078363930292,0.012559587498443506,0.9880707967599507
2015-02-18,1,0.0028391122389722044,0.003270273202575685,-0.008666993659435109,0.012559587498443506,0.9889729228045336
2015-02-20,1,0.003476847601898256,0.003957886365604275,-0.008666993659435109,0.009831263192855173,0.9888951283895192
2015-02-24,1,0.0027063886727184275,0.0030718237967538387,-0.008605827233899806,0.009831263192855173,0.9891624178512629
2015-02-26,1,0.0028602501863246466,0.0032446377818799,-0.009130493648730309,0.007770520262485937,0.9888739835168379
2015-03-02,1,0.0030110529438710895,0.003401935961091947,-0.008605827233899806,0.008677862633301656,0.9894825096723932
2015-03-04,1,0.002690152469997636,0.003067446748397398,-0.008605827233899806,0.008677862633301656,0.9893787681084335
2015-03-06,1,0.0018133178550758535,0.0019901394748537793,-0.008399651788850904,0.008677862633301656,0.9905011149382957
2015-03-10,1,0.001195188666997242,0.0012887702433396655,-0.007323215221851914,0.009272534970338059,0.9908511273675537
2015-03-12,1,0.0019418409071667738,0.0021456779027384807,-0.006729286623511112,0.008677862633301656,0.9918862771770353
2015-03-16,1,0.00165023513708615,0.001796390430983531,-0.00546037501557787,0.008677862633301656,0.9923461568548999
2015-03-18,1,0.0018080673480209888,0.001975226148875452,-0.00546037501557787,0.0075787203838909795,0.9924104244734759
2015-03-20,1,0.0009653659889059759,0.0010153449824782548,-0.006729286623511112,0.0075787203838909795,0.9902199828096564
2015-03-24,1,0.0010136968752779843,0.0010144019608121157,-0.0053704630189656604,0.0075787203838909795,0.9904799643152874
2015-03-26,1,0.0006122179712281844,0.0006439532301791092,-0.00372346667010402,0.009272534970338059,0.9865792971207784
2015-03-30,1,0.0008273159156235515,0.0008423719021143181,-0.0053704630189656604,0.006863880979707197,0.9856423244098639
2015-04-01,1,8.166456959838382e-05,0.00018747049716280628,-0.004976674380110176,0.006863880979707197,0.985432767630055
2015-04-06,1,0.0009597568083435511,0.000970064648517213,-0.004976674380110176,0.006292514514002728,0.9860248641921332
2015-04-08,1,0.0015419365959619808,0.0016925067023622954,-0.004520386592776074,0.004750210144589327,0.9865730097455875
2015-04-10,1,0.0010948950378981582,0.0011792779517041487,-0.004520386592776074,0.006863880979707197,0.9855281760478705
2015-04-14,1,0.0015160949287040476,0.001676202697899867,-0.004520386592776074,0.004904184096560643,0.9854037655658351
2015-04-16,1,0.0013370826236321965,0.0014679637569382877,-0.006128677975068088,0.006383989057130493,0.9849012612376925
2015-04-20,1,0.002232172164431688,0.0024906084329627542,-0.006128677975068088,0.0030100252939430044,0.9867738559370212
2015-04-22,1,0.0015661238909439536,0.001753739176984133,-0.008632926363874138,0.0032127403940460032,0.9867447075836328
2015-04-24,1,0.0033033344137948393,0.0037216590699406466,-0.009357443972174952,0.0032127403940460032,0.9895216302299947
2015-04-28,1,0.0019349872245189954,0.0021368468628797837,-0.005863594759396329,0.006992134357439488,0.9911458452521872
2015-04-30,1,0.0013475339378496778,0.0014463409879681027,-0.005863594759396329,0.007845234346447223,0.9914284678887205
2015-05-04,1,0.0007315391493231843,0.0007503785048424489,-0.005863594759396329,0.007845234346447223,0.9914394359032108
2015-05-06,1,0.0007011758430924817,0.000731950294301248,-0.008542626192349674,0.01275358542685541,0.990687812639574
2015-05-08,1,0.0012426374012609535,0.0012955618793568078,-0.00898491286009053,0.005382660402189872,0.9912549263017468
2015-05-12,1,0.00044033239449229645,0.0005431497268864079,-0.00898491286009053,0.007785070531009875,0.991070817461411
2015-05-14,1,0.0008046612813916676,0.0008403020336614108,-0.008448549212163021,0.005389311683870253,0.9915026393611318
2015-05-18,1,0.0005568285394212971,0.000600287433074436,-0.008448549212163021,0.006795221140488425,0.9912584801060772
2015-05-20,1,0.00011779025814480219,0.00024873048573765215,-0.008283159078345717,0.009463452778882333,0.990586728942959
2015-05-22,1,0.00032587669616421504,0.00038805661768914236,-0.008283159078345717,0.006795221140488425,0.991269483191547
2015-05-27,1,0.0004406491792786753,0.000522931841699414,-0.009211417634419971,0.006795221140488425,0.9905681228234882
2015-05-29,-1,-0.00031441052448724985,-0.00012818449171716768,-0.008283159078345717,0.005948772433161072,0.991088778057181
2015-06-02,-1,-0.00018810150170458855,-1.863092941408503e-05,-0.009211417634419971,0.008815307779561896,0.9898985633870304
2015-06-04,-1,-0.0008329028527586729,-0.000564528070427693,-0.008283159078345717,0.007819949143667083,0.9907607816655346
2015-06-08,-1,-0.0011916642723441466,-0.0008738796315098319,-0.005169358133584184,0.007819949143667083,0.9912163346012912
2015-06-10,-1,-0.0011723492207332748,-0.0008255623948506427,-0.007826571880370774,0.007819949143667083,0.9908556501680992
2015-06-12,-1,-0.0013672680744133614,-0.0010104767210907155,-0.005951555139450011,0.010108951635276586,0.9889545447629084
2015-06-16,-1,-0.00027203364885601354,-0.00013291157171717175,-0.005760218647439114,0.013434662225951927,0.9886318433345661
2015-06-18,0,-6.437570174322823e-05,8.897505652154822e-05,-0.005760218647439114,0.017126199573915188,0.9877791446237697
2015-06-22,-1,-0.0011819456006666013,-0.0008596251662135581,-0.003997568637574077,0.017126199573915188,0.9876988455756778
2015-06-24,1,0.0006005609295386512,0.0006142643788065838,-0.003997568637574077,0.012145056130932632,0.9889611517880419
2015-06-26,-1,-0.0001367842306082068,-0.0001326592816969113,-0.0011075166909375186,0.017126199573915188,0.9841427849701982
2015-06-30,1,0.00010712978845005101,0.00015720932779952248,-0.0011075166909375186,0.017126199573915188,0.9848901109668994
2015-07-02,-1,-5.1909038024291405e-05,-4.4013343457010886e-05,-0.001806121305035815,0.017126199573915188,0.9844448788700665
2015-07-07,1,0.0004558792735938701,0.0005309894638619789,-0.003029305785470903,0.017126199573915188,0.9844633184964486
2015-07-09,-1,-0.00027432319587067486,-0.00025673567542625503,-0.003029305785470903,0.017126199573915188,0.9844427167448672
2015-07-13,1,1.559708633456532e-05,1.665596085043987e-05,-0.006739554950887538,0.011570888256003789,0.9860777265776294
2015-07-15,-1,-0.00020187596723752457,-0.00019820974180703775,-0.0036664748771166756,0.00983985930663883,0.9871198039667521
2015-07-17,-1,-0.00019806050772995363,-0.00018098910921594962,-0.0036664748771166756,0.006734869358858033,0.988893490049727
2015-07-21,-1,-0.000324533252586696,-0.0002883538003110734,-0.0036664748771166756,0.0066925318969108406,0.9890584672737519
2015-07-23,0,-5.117066538959047e-06,1.6907110707036656e-05,-0.004406335983714902,0.0066925318969108406,0.9879545917220148
2015-07-27,1,0.0009732080898909245,0.0010778508669661143,-0.010822678892506958,0.005885310240951792,0.987673685590829
2015-07-29,1,0.0003022589967908302,0.0003332149216210574,-0.007617297574397157,0.0066925318969108406,0.9846717838761521
2015-07-31,1,0.0005033201941987904,0.0005397277568520294,-0.007617297574397157,0.0066925318969108406,0.9836844979603663
2015-08-04,1,0.0008654809899680744,0.0009802071450409995,-0.013203927652532418,0.0066925318969108406,0.9820514523225895
2015-08-06,1,0.0007239315199616644,0.0008208844332955939,-0.011793992903693859,0.0066925318969108406,0.9812876326111728
2015-08-10,1,0.00068454039406226,0.0007882361998375815,-0.011354506712881407,0.007003485281608587,0.9797116608582362
2015-08-12,1,0.0012241063862371828,0.0013644772442077385,-0.011354506712881407,0.007935463724095296,0.9795773799612755
2015-08-14,1,0.0005354311938932534,0.0005757921544345278,-0.012370203006672312,0.011209468505037725,0.9786639029686334
2015-08-18,1,0.0003751066135271638,0.00039017264277256287,-0.012370203006672312,0.011209468505037725,0.97852180458901
2015-08-20,1,0.00021860954401615773,0.00022173026689109913,-0.011354506712881407,0.015781996954520008,0.9791360248502482
2015-08-24,1,0.0006583054863834557,0.0007103553538022789,-0.010246191406132431,0.016728134238802844,0.9826834313087744
2015-08-26,1,0.0018156480951938992,0.0020550031294865687,-0.010246191406132431,0.014102167432819796,0.9861108084307931
2015-08-28,1,0.0006241836641473588,0.0006998161664831255,-0.012370203006672312,0.011209468505037725,0.9849730648285981
2015-09-01,1,9.15322797890631e-05,0.00012310976544759337,-0.012370203006672312,0.014102167432819796,0.984725171216232
2015-09-03,1,0.00021719781804743153,0.0002220185198428417,-0.012305648322616285,0.015598675715831092,0.984717520606892
2015-09-08,1,0.0007371557464163506,0.0007778059165366681,-0.012358717410936628,0.015598675715831092,0.9855722533955068
2015-09-10,1,0.0010636099516922928,0.0012007458871529956,-0.015380541842834524,0.015598675715831092,0.9850316152843503
2015-09-14,1,0.0002654688118607694,0.00028553746265684376,-0.012515631417894208,0.01774931575434737,0.9847852177131045
2015-09-16,1,0.0010580984371433965,0.0011795732312448908,-0.012515631417894208,0.01774931575434737,0.9848687840488791
2015-09-18,1,0.000843371219182807,0.0009023942723765004,-0.012515631417894208,0.01774931575434737,0.9837340215701688
2015-09-22,1,0.0006035356656953518,0.0006262604641989867,-0.012515631417894208,0.01774931575434737,0.9840867827975224
2015-09-24,1,0.0007257340197461052,0.0007536134341549589,-0.012515631417894208,0.01774931575434737,0.9834300983022843
2015-09-28,1,0.00041465166917702405,0.00041768540406781295,-0.007838768441171682,0.019665569162918325,0.9824057614559425
2015-09-30,1,0.0005291873511793787,0.0005527935458857455,-0.003612202320955841,0.01774931575434737,0.9841384073950185
2015-10-02,1,0.0015515069706948871,0.0017084182921789956,-0.003612202320955841,0.015483300125823031,0.9856100750884219
2015-10-06,1,0.00031858223307372116,0.00032246386713997765,-0.002968025855385651,0.01492291629840074,0.9863025771396893
2015-10-08,1,0.000675360631956544,0.0007009428830448789,-0.001364222444904515,0.016806367469308456,0.9853464577082348
2015-10-12,1,0.0006636574392431978,0.0006896135604409173,-0.002968025855385651,0.015483300125823031,0.9862561131590861
2015-10-14,0,-3.26329762696813e-05,4.629827998062574e-05,0.002676408360882165,0.017137017631993823,0.9852445621605748
2015-10-16,1,0.0008495087486700409,0.0009029422999756877,-0.005099635425051709,0.015483300125823031,0.9855309438380873
2015-10-20,1,0.00022988890837743735,0.0002835328396900095,-0.005099635425051709,0.015483300125823031,0.9858427427040067
2015-10-22,1,0.00046043449136678376,0.00047992801848312553,-0.003775274410119654,0.017137017631993823,0.9853486432371459
2015-10-26,1,0.0010757573565359124,0.0011192070975821707,-0.003775274410119654,0.01542712743629566,0.9880571206923723
2015-10-28,1,0.0007886722655971955,0.0007917523721312062,-0.005099635425051709,0.01542712743629566,0.9876819782070286
2015-10-30,1,0.0006478404898303435,0.0006532857746286106,-0.00615368823039591,0.01208540582716879,0.9876269283414932
2015-11-03,1,0.0004798648374707353,0.0005200338154470144,-0.00615368823039591,0.016968499563411708,0.9867922747394755
2015-11-05,1,0.0012593516626917475,0.0013185207514690134,-0.008062092804581554,0.009907727569438377,0.9879193271416687
2015-11-09,1,0.0012156761286280906,0.0012993884313518508,-0.008062092804581554,0.010942665074243374,0.9877457251445554
2015-11-11,1,0.0011262399284706869,0.001157902784471995,-0.01140874377483548,0.009907727569438377,0.987726398870978
2015-11-13,1,0.0002696223766145614,0.0003474939741265174,-0.008108052705300406,0.010942665074243374,0.9872154246794668
2015-11-17,1,0.00025525660804277887,0.00033628471363111466,-0.00625528654760306,0.012339611315078845,0.9866798174020193
2015-11-19,1,0.00035793789744384776,0.00043459360226742174,-0.01016691702853825,0.010942665074243374,0.9874959991733716
2015-11-23,1,0.0008314552948044862,0.0008522229022917809,-0.01016691702853825,0.0070799959791126325,0.9884856863547674
2015-11-25,1,0.0006814488028535446,0.0007009139611452895,-0.00810917167896681,0.003229906787513007,0.9892915036494603
2015-11-30,-1,-0.00030162742946952294,-0.00012130981152232807,-0.005262769998089516,0.013078612678944172,0.9880143436541603
2015-12-02,1,0.000371478934039508,0.0004246217326015939,-0.00810917167896681,0.00999246273207506,0.9878978496690451
2015-12-04,1,0.0005430537910030933,0.0006118261158567914,-0.00810917167896681,0.0036313760642057965,0.9859499022563694
2015-12-08,1,0.001156810196164826,0.0012041772415598906,-0.011908748752076821,0.0008994207844132611,0.9843657282758407
2015-12-10,1,0.00016765688364920833,0.00023833061305495064,-0.00810917167896681,0.00523458160626792,0.9849432287083189
2015-12-14,1,0.001015517350981242,0.0010293110256768415,-0.00810917167896681,0.0008994207844132611,0.9847406506011973
2015-12-16,1,0.0030709129849577138,0.0033617353256958607,-0.01206207156251312,0.0006251212527555011,0.9819789628455892
2015-12-18,1,0.0019005164988322755,0.0020284409863674177,-0.01007748749395415,0.0025074054622227114,0.9830904233113192
2015-12-22,1,0.001995286468514895,0.002141178234519549,-0.01007748749395415,0.010058535639696272,0.9814637418189588
2015-12-24,1,0.0017129302738920413,0.0018074587892058873,-0.01007748749395415,0.010336744881042118,0.9813581407964812
2015-12-29,1,0.0026802846232719924,0.002893902057900661,-0.021788262459262582,0.007634219689909669,0.9774741607068687
2015-12-31,1,0.000961476109774504,0.00098761624201479,-0.031949057450399485,0.007634219689909669,0.9745402461075026
2016-01-05,1,0.0002097211860578904,0.0002691310748230033,-0.03818876704896092,0.007634219689909669,0.9740517165027363
2016-01-07,-1,-0.0005658952464861686,-0.0004050600125141505,-0.03818876704896092,0.008377507259150863,0.9725838585168486
2016-01-11,-1,-0.00016445823336486923,-3.938526149250437e-05,-0.03818876704896092,0.007634219689909669,0.9715724384921409
2016-01-13,-1,-0.0018908485296889718,-0.0015343099340416957,-0.03185122819789626,0.011690954355152099,0.9723394172867275
2016-01-15,-1,-0.0038843652441943426,-0.0031711330986973624,-0.02839855750030645,0.011690954355152099,0.9732962181358756
2016-01-20,-1,-0.0028335368321317734,-0.0023245284640253596,-0.02839855750030645,0.019320996040729215,0.9718793548750762
2016-01-22,-1,-0.0017001268909720443,-0.00134992112804502,-0.02839855750030645,0.02037968414261021,0.9708620428255111
2016-01-26,-1,-0.0022540446252317034,-0.0017868812314771332,-0.02839855750030645,0.02037968414261021,0.9708039749953236
2016-01-28,-1,-0.0007744055272614492,-0.0004938396105549382,-0.02256022190694191,0.017798486726057994,0.9761821684160773
2016-02-01,-1,-0.0027427329885893383,-0.0022579815693579385,-0.013525030211366267,0.02037968414261021,0.9779592248368632
2016-02-03,-1,-0.004394578224654428,-0.003720703848728895,-0.006591841637261583,0.02037968414261021,0.9807456464219907
2016-02-05,-1,-0.005617330144656253,-0.004798136564843303,-0.006591841637261583,0.02037968414261021,0.9830329536088979
2016-02-09,-1,-0.006369917668107221,-0.005474592109866117,-0.004556818891984725,0.02037968414261021,0.9836964720881441
2016-02-11,-1,-0.004898962834199048,-0.0042032797416795015,-0.004556818891984725,0.018919852070001214,0.9858603002130214
2016-02-16,-1,-0.004296819520771248,-0.003667025957533994,-0.004556818891984725,0.009665092609528442,0.9871586783251427
2016-02-18,-1,-0.004340058912553976,-0.003695429261980892,-0.004707433195988796,0.006424642170368583,0.9881219361467988
2016-02-22,-1,-0.0035424312464196585,-0.0029335785030070866,-0.004794634014717063,0.002375823207427425,0.9909572354748607
2016-02-24,-1,-0.003720680839283721,-0.0031008191855868665,-0.004707433195988796,0.006424642170368583,0.9898981829694399
2016-02-26,-1,-0.0032816814199418017,-0.002754318211458696,-0.004794634014717063,0.00788412474392657,0.9889348710048177
2016-03-01,-1,-0.0021786013280941487,-0.0017865696729886785,-0.004707433195988796,0.009033221625495568,0.9897762371495614
2016-03-03,-1,-0.0024833982954419083,-0.002046811174094768,-0.004895281636704385,0.009073411676571809,0.9892576252777965
2016-03-07,-1,-0.0026722339389220915,-0.0022452958968083333,-0.006071362140569565,0.009073411676571809,0.9894482889024572
2016-03-09,-1,-0.002976281862446609,-0.002500721241488488,-0.008544363660088272,0.012881304734963671,0.9873767393302175
2016-03-11,-1,-0.0019448934902081766,-0.0016417016212072883,-0.008544363660088272,0.009073411676571809,0.9879905887718117
2016-03-15,-1,-0.0019031154578666217,-0.0015850492848976101,-0.008544363660088272,0.013193171592312432,0.9871055665594247
2016-03-17,-1,-0.0024694047795032568,-0.0020934880705269316,-0.006071362140569565,0.013193171592312432,0.9871786022715299
2016-03-21,-1,-0.001993530089822039,-0.0017504806914528887,-0.006071362140569565,0.015417174582943916,0.9867820316768089
2016-03-23,-1,-0.0010380911373385328,-0.0009244251186632739,-0.006071362140569565,0.012890460172207014,0.9879927352910982
2016-03-28,-1,-0.00034395775211042953,-0.0003292974051180275,-0.008544363660088272,0.010271134470497035,0.9882739421223248
2016-03-30,1,0.00039009247996561134,0.000470335461123992,-0.011765583813172978,0.009300885889840948,0.9884809835428955
2016-04-01,1,0.0009392040216981622,0.0011538480199709401,-0.011765583813172978,0.010271134470497035,0.9843968902501232
2016-04-05,1,0.0004710410338412751,0.0006126792582427797,-0.012515205575279178,0.012890460172207014,0.9827002623615432
2016-04-07,1,0.0008549066836231321,0.0010711300863905102,-0.012515205575279178,0.010271134470497035,0.9840170746667902
2016-04-11,1,0.0005476590132993233,0.0006725668806377384,-0.012515205575279178,0.012890460172207014,0.9827979115134562
2016-04-13,1,0.00121405411104012,0.0014327621565937746,-0.012515205575279178,0.014616784662210964,0.9820793382085307
2016-04-15,1,0.0017684034839868558,0.002089502876431324,-0.012515205575279178,0.014616784662210964,0.9820134003366999
2016-04-19,1,0.0021032852076319063,0.002499092335852972,-0.015322619026153696,0.010502324510342094,0.9821276467214954
2016-04-21,1,0.0021499663386173127,0.0025471180364850508,-0.015322619026153696,0.010502324510342094,0.9825893200778887
2016-04-25,1,0.001932094228146419,0.0022841492908005747,-0.012088686526317114,0.010067228409476065,0.9831255340983387
2016-04-27,1,0.0015602546941862589,0.0018832776391321936,-0.0078027252675954215,0.01163204571881181,0.9842077022165179
2016-04-29,1,0.003058730548015393,0.0035767870747737732,-0.0049531247588584905,0.009618807860304897,0.9888362126270138
2016-05-03,1,0.0034067579789267884,0.003978792434940846,-0.003959735365973651,0.009618807860304897,0.9906103823029402
2016-05-05,1,0.0028522972629987406,0.003323293106827647,-0.0037143202422135796,0.011077247155727991,0.9909592638406687
2016-05-09,1,0.0033327605804535044,0.0038632450555696283,-0.0038296003266406727,0.009618807860304897,0.9917538759586747
2016-05-11,1,0.004345209076677808,0.005034286709577031,-0.0038296003266406727,0.006242884816460362,0.9934428170034773
2016-05-13,1,0.004094841706214228,0.004731088639769884,-0.0038296003266406727,0.0059517341769605644,0.993072960645907
2016-05-17,1,0.0036761914086853465,0.004253711381955675,-0.0038296003266406727,0.0059517341769605644,0.9940280511719349
2016-05-19,1,0.003695488261683339,0.004272393440942988,-0.004244400117054164,0.0059517341769605644,0.9932102853641781
2016-05-23,1,0.00398006275389766,0.004641028066903632,-0.0038296003266406727,0.006735152406735119,0.993507615167055
2016-05-25,1,0.0038423430513812185,0.0044517115158230975,-0.004244400117054164,0.006572526971293537,0.9927509103805225
2016-05-27,1,0.0033443359861052508,0.003824286962927554,-0.007078181282596471,0.004831688539227237,0.9909911943904668
2016-06-01,1,0.003153194328661425,0.003563687775194759,-0.007078181282596471,0.006954107765195108,0.9906116782099865
2016-06-03,1,0.0033076878080034395,0.0037505462274079852,-0.007078181282596471,0.006954107765195108,0.9906879175097383
2016-06-07,1,0.002287777173400383,0.002540064687020952,-0.007078181282596471,0.010791902536970432,0.9905949925457402
2016-06-09,1,0.0021349143989343295,0.002343084098428416,-0.007078181282596471,0.011240550106122144,0.9899993593974642
2016-06-13,1,0.001914119984750258,0.002092132801589074,-0.007078181282596471,0.011240550106122144,0.9901068355726954
2016-06-15,1,0.0019700416043587354,0.0021911409282714357,-0.00731663864566755,0.011240550106122144,0.9901045677009335
2016-06-17,1,0.0018029383756957892,0.0020050471320892747,-0.00731663864566755,0.011240550106122144,0.9905358841986115
2016-06-21,1,0.0035985200025491016,0.004125591985672965,-0.00731663864566755,0.011240550106122144,0.9906616757027227
2016-06-23,1,0.0028439981349236017,0.003084916021123397,-0.0032915221739889832,0.010716206164225679,0.9913707221932541
2016-06-27,1,0.0004088780823038304,0.0005634571125125986,-0.002802994489012999,0.010716206164225679,0.9930217077652851
2016-06-29,0,-6.257157104960613e-05,0.00019254500597824017,-0.002802994489012999,0.008519907942305381,0.9936085174464738
2016-07-01,0,-0.0002772566741439679,4.229141183386006e-05,-0.002802994489012999,0.008850032129040845,0.9933124541421597
2016-07-06,1,0.0007527207426599627,0.0008937494775449306,-0.007133597045521217,0.007907809193296794,0.9931881233520183
2016-07-08,1,0.0007384142565892958,0.0008590917556662943,-0.007133597045521217,0.00787911740811393,0.9932093489808775
2016-07-12,1,0.00048095326823528663,0.0006415932277202316,-0.005838558363602495,0.007085646747773668,0.9940227866428857
2016-07-14,1,0.001026683062861758,0.0010366001339936935,-0.0026562074932506285,0.007085646747773668,0.9943608586820821
2016-07-18,1,0.0007497570827456632,0.0008060525575271226,-0.0026144241362260727,0.007085646747773668,0.9944584081034646
2016-07-20,1,0.0004603810453759747,0.0005779600102478475,-0.005309952794057458,0.00432732665754503,0.9947036802399378
2016-07-22,1,0.000987074121590278,0.0009985693310318882,-0.005524120255717252,0.00432732665754503,0.9942418396150411
2016-07-26,1,0.0003146720011316262,0.00041315068910431326,-0.00148377291768672,0.004645042544683439,0.9946196735628495
2016-07-28,1,0.0005435040935660834,0.0006301749615628483,-0.005398770184643584,0.0035929164842865803,0.9953017910287221
2016-08-01,1,0.0006479865597633088,0.0007324372847796822,-0.005398770184643584,0.003105136467282957,0.9955266118014738
2016-08-03,1,0.00013993247214115484,0.00028007841685211317,-0.0013692438103831998,0.003105136467282957,0.9959689113048369
2016-08-05,1,0.00044473843512103856,0.0005380577333677189,-0.0013692438103831998,0.002667460678912795,0.9965786105056251
2016-08-09,0,-0.0001356019443861943,6.25252371148396e-05,-0.004924582115122342,0.0028934678839253386,0.9952589723440729
2016-08-11,0,-0.0001446249890438223,4.4227632370150475e-05,-0.005342367031596178,0.002667460678912795,0.9939214730926893
2016-08-15,-1,-0.0002001562255134747,-1.7122890239813673e-05,-0.00562136296833341,0.0028934678839253386,0.9928501116407185
2016-08-17,-1,-0.00026879251414592517,-8.530563024721567e-05,-0.004998779709685617,0.0032110417629957603,0.9925844149311348
2016-08-19,-1,-0.0003743352763252133,-0.0002030662651970973,-0.004497180544898397,0.005757872113410181,0.9922140461714823
2016-08-23,-1,-0.0002536439203588687,-0.00010191257395788345,-0.004497180544898397,0.011342716946309062,0.9916456876291885
2016-08-25,-1,-0.0007528221765853628,-0.0005063325015057766,-0.001499760563950101,0.011654478578422243,0.9909336622346212
2016-08-29,-1,-0.0005490873825133826,-0.00033264526344058934,-0.004497180544898397,0.011654478578422243,0.9904026253579064
2016-08-31,-1,-0.0006426637453009849,-0.0004109391342402509,-0.001499760563950101,0.012884096786533909,0.9898743489913245
2016-09-02,-1,-0.00034030947483051763,-0.00017861240151423134,-0.0016087788972097416,0.012884096786533909,0.9896772377296246
2016-09-07,0,-8.259693835255591e-05,3.873156860891686e-05,-0.001320257542672037,0.012247627565037025,0.9902774850001166
2016-09-09,-1,-0.0006563547760887069,-0.00046959731347896087,-0.0027865527733083816,0.012247627565037025,0.9913857076226497
2016-09-13,-1,-0.0007219705866460799,-0.0005213740106389227,-0.0027865527733083816,0.011654478578422243,0.992016416576879
2016-09-15,-1,-0.000321606192792411,-0.00017494009705619604,-0.0032079374859402413,0.011654478578422243,0.9922254269965681
2016-09-19,-1,-0.000892481115221245,-0.0006454773792425182,-0.003870779780821058,0.010522852983323977,0.9920469210967852
2016-09-21,1,0.0002817650109494977,0.0004172114444214338,-0.003870779780821058,0.006826886297832756,0.9927224563634273
2016-09-23,1,0.0009783423687461461,0.0010175891638867615,-0.006230308250003413,0.006826886297832756,0.9925406827792661
2016-09-27,1,0.0010094915711813036,0.001078878421333662,-0.00404581548150358,0.006826886297832756,0.9926744130321181
2016-09-29,1,0.001592306086917082,0.0016579386412735068,-0.006230308250003413,0.004234148768093615,0.9921420808043434
2016-10-03,1,0.0020248611256786448,0.0022355085030190164,-0.007969133298563587,0.004234148768093615,0.9892096480551167
2016-10-05,1,0.0021146616202318584,0.0023146353436765362,-0.009800743487459001,0.002966665437964769,0.9882116560263728
2016-10-07,1,0.00148881848756585,0.0015714867315997764,-0.012303574749964057,0.002966665437964769,0.9880099474816608
2016-10-11,1,0.0011724785713773435,0.001231598109406016,-0.009800743487459001,0.004234148768093615,0.9868619582531796
2016-10-13,1,0.0008421063152304524,0.0008541322893005058,-0.015210591549227005,0.0041399157872266555,0.9844505523907497
2016-10-17,1,0.0007272180886324794,0.000736594901859466,-0.016750558709139943,0.0041399157872266555,0.9839146613066864
2016-10-19,1,0.0008442748258872027,0.0008529536932563557,-0.016750558709139943,0.005954488890546529,0.9824039466018417
2016-10-21,1,0.0009875817842261016,0.001024675939453946,-0.016750558709139943,0.0070470372665737266,0.9825558527904166
2016-10-25,1,0.001486009722534663,0.0015977060247275602,-0.016750558709139943,0.00844382895508361,0.9823947470188851
2016-10-27,1,0.0008080912536704711,0.0008227484471410874,-0.016750558709139943,0.00844382895508361,0.9830167512550647
2016-10-31,0,-2.0582745637305643e-05,5.737013680276996e-05,-0.016070978281411408,0.0054365048672293,0.9852353774540936
2016-11-02,-1,-0.0013205263631621094,-0.0010649975715596308,-0.015631997925868984,0.0054365048672293,0.9856157834518179
2016-11-04,-1,-0.0018023330154075007,-0.001485277669260746,-0.010832687361999164,0.00844382895508361,0.9850354319602681
2016-11-08,-1,-0.0007742613979237501,-0.0005613923847857379,-0.010832687361999164,0.007157388820811687,0.9863741818426904
2016-11-10,-1,-0.0021529423726954324,-0.0017921658169868665,-0.005815604216392616,0.007157388820811687,0.9888220251984398
2016-11-14,-1,-0.0031632681565444114,-0.0026952453691209237,-0.005815604216392616,0.008909134946530046,0.9885728394663447
2016-11-16,-1,-0.0030606725161839,-0.0025295737067244136,-0.007651353202944935,0.007157388820811687,0.9902009044096199
2016-11-18,-1,-0.002031767942496287,-0.001668294038845434,-0.007651353202944935,0.007157388820811687,0.9904479771531464
2016-11-22,-1,-0.000758613813018301,-0.0005656677604284236,-0.007651353202944935,0.006875651462836121,0.9915491287148601
2016-11-25,-1,-0.0007048671329851753,-0.0005442027161634984,-0.007932361792093114,0.006875651462836121,0.9912842897667451
2016-11-29,-1,-0.001323472769405411,-0.001102489942946306,-0.007222247896046014,0.007157388820811687,0.9916017517993558
2016-12-01,-1,-0.001977786514585805,-0.0016857915549621566,-0.007222247896046014,0.007157388820811687,0.9914360509924708
2016-12-05,-1,-0.0013934354279231298,-0.0011520939313970319,-0.007222247896046014,0.006875651462836121,0.9922876696183834
2016-12-07,-1,-0.0011087038652715145,-0.0008923439923380218,-0.007222247896046014,0.007826194597364356,0.990525966510245
2016-12-09,-1,-0.0011669051695884,-0.0009593464216905812,-0.007222247896046014,0.007826194597364356,0.9906770217666183
2016-12-13,-1,-0.0009025552400626929,-0.000720554530524235,-0.005928214730531469,0.007826194597364356,0.9909792218093021
2016-12-15,-1,-0.0018664615184464787,-0.0015524107851210155,-0.004565315626871322,0.007826194597364356,0.9908312723122561
2016-12-19,-1,-0.0010625532387737605,-0.0008826667601641037,-0.003456805617026362,0.005504297079885928,0.991550087829178
2016-12-21,-1,-0.0006254272682673794,-0.0005232163215914517,-0.003456805617026362,0.006754257418710623,0.991361685530531
2016-12-23,-1,-0.0014603822079559115,-0.001229705823033238,-0.0009781771913153416,0.012414045228775365,0.9904450544537345
2016-12-28,-1,-0.0007233652795442662,-0.0006010949161831752,-0.001651586956366149,0.007135180258890804,0.9912037546877559
2016-12-30,-1,-0.0016100322527514187,-0.0013878775189075478,-0.001651586956366149,0.007135180258890804,0.9916034331803897
2017-01-04,-1,-0.0011929020498373413,-0.0010261112016033453,-0.001651586956366149,0.011032156001231341,0.9912641742463522
2017-01-06,1,0.00040305950210244273,0.00042088735223956314,-0.0033767185182927454,0.006464254153148021,0.9921848121635206
2017-01-10,1,0.00021392879835908566,0.00022680902868751768,-0.0033767185182927454,0.00893809079074687,0.991572819361998
2017-01-12,1,0.0006546553262899747,0.0006787170568765589,-0.0033767185182927454,0.007788499263715838,0.9922948369573794
2017-01-17,1,0.0005126165940051357,0.0005264210522432648,-0.002864700512828366,0.00893809079074687,0.9923717018766172
2017-01-19,1,0.0003377766882703521,0.00035273647737887144,-0.0014480978410201452,0.00893809079074687,0.9921473369067619
2017-01-23,1,0.00087021427875768,0.000946017746372235,-0.0009154362394095076,0.00893809079074687,0.9923371699367505
2017-01-25,1,0.0013503161985532572,0.001483674691246488,-0.0033690280092654543,0.007876679609019657,0.9931364787429915
2017-01-27,1,0.001266651334244089,0.0013907021163051417,-0.0033690280092654543,0.007876679609019657,0.9928761716677551
2017-01-31,1,0.0010379784590121193,0.0011548060044558376,-0.0015167659164984563,0.00893809079074687,0.9930016832471714
2017-02-02,1,0.0010701129125396214,0.0011411741499626044,-0.0033690280092654543,0.007456107661033287,0.9935598357200983
2017-02-06,0,-3.732279347736287e-05,2.8374443073805438e-05,-0.0016887359476359621,0.007456107661033287,0.9950199821686335
2017-02-08,1,0.0005431851574393218,0.0005643286629422136,-0.0016887359476359621,0.005828266312607213,0.9954379247437708
2017-02-10,1,0.0007841835947664963,0.0008434575194493888,-0.0016887359476359621,0.004340724627532069,0.9957414591213598
2017-02-14,1,0.0012579319286568614,0.0014084899625997063,-0.002769784045666179,0.003210206139162839,0.9961216548322358
2017-02-16,1,0.0016903591672351634,0.0019247908453321342,-0.002769784045666179,0.0026088274399854554,0.9961168825767363
2017-02-21,1,0.0022214440382255134,0.0025470372346870713,-0.0038849381026779713,0.0026088274399854554,0.9954688724424248
2017-02-23,1,0.00223523207630979,0.002582550196902175,-0.002769784045666179,0.003210206139162839,0.9956409550206791
2017-02-27,1,0.0022817420894529795,0.0026494459968035462,-0.002169242718912777,0.0026088274399854554,0.9959368054349206
2017-03-01,1,0.0024916601692210804,0.002901111330420659,-0.0014976909701753598,0.0035284480452999465,0.9952091093917351
2017-03-03,1,0.0022980533128785525,0.0026704448487277037,-0.000926542019304667,0.005338448916852526,0.9952600678293154
2017-03-07,1,0.0020340731337260484,0.002356004521226315,-0.00067526219227944,0.005645501456506645,0.9948253796433545
2017-03-09,1,0.0022678393284404456,0.0026200138160592324,-0.000926542019304667,0.005645501456506645,0.994285897501576
2017-03-13,1,0.002021408536551134,0.002306122162198438,-0.0014976909701753598,0.007032955367133592,0.993562469383591
2017-03-15,1,0.0020343881836957277,0.0023289472583131327,-0.002512874655121552,0.007032955367133592,0.9930713559409705
2017-03-17,1,0.001969476313246429,0.002258680066582191,-0.004128707943490782,0.011040230767841344,0.9917141459113568
2017-03-21,1,0.0019438491844027336,0.0022582505342102726,-0.004105693314329691,0.011040230767841344,0.992428684066434
2017-03-23,1,0.001734077397634024,0.0019868676342171916,-0.004201887664603443,0.011040230767841344,0.9923572050743867
2017-03-27,1,0.0014016121195499919,0.0015513756514498604,-0.004201887664603443,0.011040230767841344,0.9919669263997539
2017-03-29,1,0.0017324030358626763,0.0018677452214124358,-0.004201887664603443,0.009911304031773179,0.9930285295263076
2017-03-31,1,0.0018354893262701772,0.001950895251602425,-0.004201887664603443,0.009911304031773179,0.9921284718701439
2017-04-04,1,0.003277071409620343,0.003654240143213555,-0.005090621695666521,0.007868821457087699,0.9922044311266477
2017-04-06,1,0.0017180493275315626,0.0017914839891117176,-0.004201887664603443,0.007868821457087699,0.9926824725494343
2017-04-10,1,0.0012107540392340833,0.001260148259066863,-0.004201887664603443,0.007868821457087699,0.9927177099903086
2017-04-12,1,0.0013050000835301678,0.0013166752220731808,-0.0037678131809111013,0.007868821457087699,0.9930180183999676
2017-04-17,1,0.001651682827734462,0.0017347031566156195,-0.0036337211978910763,0.007868821457087699,0.9937691166061712
2017-04-19,1,0.0017856566750791606,0.0019396102198386122,-0.0036337211978910763,0.0088122791072451,0.9926457026327152
2017-04-21,1,0.0015630781804322653,0.0016696031342568734,-0.0035382539707235015,0.009911304031773179,0.9923271398652207
2017-04-25,1,0.00138186881316818,0.0014182234439320148,-0.0035382539707235015,0.010318362834591891,0.992253544690561
2017-04-27,1,0.001150477059140946,0.0011832617866211358,-0.0035382539707235015,0.011785126099868296,0.9917110477827309
2017-05-01,1,0.0023665050353207347,0.002527020064385486,-0.0035382539707235015,0.009621874687497783,0.9930720255118825
2017-05-03,1,0.002059324607592869,0.002192237269434582,-0.002444151884242505,0.009621874687497783,0.9934330225686381
2017-05-05,1,0.0015819782966752867,0.001634848611916677,0.0003218248210229641,0.010938624986124221,0.9933617597121696
2017-05-09,1,0.0021099808879151355,0.0022422900888549833,-0.0015728492659631496,0.009507038918506305,0.9934728899530231
2017-05-11,1,0.0014982949172705263,0.0015062495195752766,-0.00037324252288286426,0.009507038918506305,0.9921283129491529
2017-05-15,1,0.0020365665169811836,0.002086896006388206,-0.00037324252288286426,0.009507038918506305,0.9915526366405807
2017-05-17,1,0.0014929450424093495,0.001508810012667074,-0.002666317554070488,0.009507038918506305,0.9920516866374113
2017-05-19,1,0.0014373085913589084,0.0014762371782638018,-0.002666317554070488,0.009507038918506305,0.9912847739647194
2017-05-23,1,0.0018126838126070878,0.0018446065825422886,-0.0030455094277852617,0.009229075124849806,0.9911869468974682
2017-05-25,1,0.0017165046972840007,0.0017553789612164868,-0.0030455094277852617,0.007174837627549172,0.991953439188416
2017-05-30,1,0.0017877238505395812,0.001815302665321651,-0.008615763986844844,0.007174837627549172,0.9905092940541079
2017-06-01,1,0.002207299775609845,0.0023192129343086844,-0.010441816436637528,0.008092560206349951,0.989328670203709
2017-06-05,1,0.0024398724967410095,0.002580535095533244,-0.012871602887509655,0.007174837627549172,0.9884416943244781
2017-06-07,1,0.0024358391766155143,0.002606966350486033,-0.012871602887509655,0.008092560206349951,0.9879743531391122
2017-06-09,1,0.0010235333435435299,0.0010487032998232248,-0.010441816436637528,0.013932034162618852,0.9885215247613129
2017-06-13,1,0.001235602799561397,0.0012391804079128492,-0.00852508453022708,0.012807833370232684,0.9892415291816329
2017-06-15,1,0.0006355639933364623,0.000700603681537829,-0.006864619948198038,0.012807833370232684,0.9898830248873396
2017-06-19,1,0.0018167220113070094,0.001932778838339028,-0.006864619948198038,0.012807833370232684,0.9903055011029883
2017-06-21,1,0.0018656662038502693,0.001981623068687217,-0.006864619948198038,0.012807833370232684,0.9908758909872163
2017-06-23,1,0.0015423557630719288,0.0015867015312695338,-0.006864619948198038,0.013178707795220302,0.9902387509986451
2017-06-27,1,0.0009659554912951164,0.0009777449079842653,-0.0036695948528792733,0.013178707795220302,0.9910562617628913
2017-06-29,0,-1.7528640531544524e-05,0.00020823631824057494,-0.005992532835958579,0.01257671381399072,0.9907626982221707
2017-07-03,-1,-0.000688888319743665,-0.00042267849299677666,-0.0036695948528792733,0.01257671381399072,0.9897503137423654
2017-07-06,-1,-0.0002557567067882618,-5.1178610460385614e-05,-0.0036695948528792733,0.012438951954043095,0.9906315815442789
2017-07-10,1,0.0008925317314383994,0.0009514197109574866,-0.0036695948528792733,0.00828985240355044,0.9920597192003836
2017-07-12,1,0.001257789477779851,0.0012643179476745788,-0.005996199827919563,0.005615469940461587,0.9921188919046519
2017-07-14,1,0.0011919275058568427,0.0011969200105125888,-0.006821831493215845,0.00828985240355044,0.9906537712195789
2017-07-18,1,0.00161868881970798,0.00166466244759555,-0.006821831493215845,0.0056902112063647444,0.9907681570096015
2017-07-20,1,0.001513548059156314,0.0015295266539455132,-0.008184556614379671,0.0056902112063647444,0.9895706810766428
2017-07-24,1,0.001742636467803879,0.0017893436603404031,-0.008184556614379671,0.0018513835048498141,0.9897196624408419
2017-07-26,1,0.0018788973735198193,0.0019305590407361216,-0.009056397839286539,0.0016888055007717889,0.9890696176230883
2017-07-28,1,0.0004825864788811567,0.0006136903764927085,-0.008184556614379671,0.0016888055007717889,0.9906378551241442
2017-08-01,-1,-0.0003184895196565641,-0.00010197244000396055,-0.00763933263932895,0.0017902108363809066,0.9924763507192569
2017-08-03,-1,-0.0007973715556299054,-0.0005194601326565052,-0.006232234579112199,0.0092661765332004,0.9916107868936543
2017-08-07,-1,-0.0008257971717203261,-0.000535757085731348,-0.00763933263932895,0.0092661765332004,0.9912412703305975
2017-08-09,-1,-0.0013812327426361473,-0.0010206300022384692,-0.006232234579112199,0.011690860147589549,0.9909378409570957
2017-08-11,-1,-0.002201610436209403,-0.0017286716361266433,-0.006232234579112199,0.012165150651438222,0.9915254111561844
2017-08-15,-1,-0.0017155706924871419,-0.0013031501762259352,-0.006232234579112199,0.012165150651438222,0.9911600129116352
2017-08-17,-1,-0.0026834269129712533,-0.002150543745306447,-0.006193227156111378,0.012165150651438222,0.9916676097584157
2017-08-21,-1,-0.0024309068961932403,-0.001977028107913014,-0.007431948798094633,0.012165150651438222,0.9911895379970204
2017-08-23,-1,-0.0020498718541259705,-0.0016615896820296819,-0.007431948798094633,0.009388648071846084,0.9917076266662572
2017-08-25,-1,-0.002111012781904721,-0.0017504874209582038,-0.009071723988463296,0.009388648071846084,0.991074687657274
2017-08-29,-1,-0.0020150326903143924,-0.0016534406186395026,-0.009071723988463296,0.012165150651438222,0.9909522942209221
2017-08-31,-1,-0.0009642938956385455,-0.0007380251469615069,-0.009071723988463296,0.005335700987597798,0.9916577394343782
2017-09-05,-1,-0.0017854231603962585,-0.0014430533759415933,-0.007743622028723355,0.005335700987597798,0.992312873576167
2017-09-07,-1,-0.001306255302117501,-0.0010241491227014165,-0.007743622028723355,0.006542871591160202,0.9917783729153673
2017-09-11,-1,-0.0014673987796036923,-0.0011612195633584218,-0.005945148899576006,0.006542871591160202,0.9924594678115638
2017-09-13,-1,-0.0008869616596645951,-0.0006436173297989225,-0.005945148899576006,0.0063370866674186555,0.9930159129088048
2017-09-15,-1,-0.0012048101114828643,-0.0009355508042990287,-0.003979503289157604,0.006445147243381116,0.9930892183997836
2017-09-19,-1,-0.0015823643618516712,-0.0012890294697718392,-0.0021959074785063977,0.006445147243381116,0.9932877764445223
2017-09-21,-1,-0.0012462548386134417,-0.0010367642392860661,-0.0026412659722651636,0.006445147243381116,0.9929780082182423
2017-09-25,-1,-0.0022496463383312876,-0.0019142018996863115,-0.002622717689534691,0.006445147243381116,0.9930238877869352
2017-09-27,-1,-0.002038896466980109,-0.0017149624709715968,-0.0032354087848206316,0.006445147243381116,0.9932164649126402
2017-09-29,-1,-0.0012505345424279597,-0.0010509023661415793,-0.0032354087848206316,0.008106906982614629,0.9889502738527429
2017-10-03,-1,-0.0012646926547516632,-0.0010649249560618294,-0.0037687913869792304,0.00876831000957689,0.9883603725331143
2017-10-05,-1,-0.00043256768996291327,-0.00034525192782671225,-0.0041218699839882965,0.006445147243381116,0.9893217528147074
2017-10-09,-1,-0.0003595689731568388,-0.00026100515299104634,-0.0041218699839882965,0.007963440950714773,0.9886571227117615
2017-10-11,0,-3.827454206625613e-05,1.8957346130506962e-06,-0.004066225135796879,0.0082740931700841,0.9886661815264746
