JNU-Tangyin/eata/results/Batch4_SP500/Batch4_SP500-MSCI.csv
Date,Action,Predicted_Q25,Predicted_Q75,Actual_Q25,Actual_Q75,RL_Reward
2010-12-14,0,0.0,0.002883830958925439,-0.0069048996235104325,0.012783302552359328,0.9898582291588143
2010-12-16,1,0.0026638450138653574,0.0028573905513027084,-0.009122272458453068,0.012783302552359328,0.9850474321020014
2010-12-20,1,0.002057993012709128,0.002058117789266787,-0.01001723391822151,0.011490540704888672,0.9842907949086425
2010-12-22,1,0.005782145036062479,0.006375600272075673,-0.01001723391822151,0.007638022065113115,0.9852696441731329
2010-12-27,1,0.005741434469697548,0.006331396688534181,-0.010248944241209193,0.007638022065113115,0.9846970652728086
2010-12-29,1,0.0048054326003097066,0.005215406099919294,-0.00962740162408538,0.0027050190751161923,0.9849836940207981
2010-12-31,1,0.0035538429140523184,0.003778772255016516,-0.009199509232782297,0.007778538389152842,0.9854641630542283
2011-01-04,1,0.002058760109957177,0.002138834781475501,-0.007967174645798504,0.007778538389152842,0.986884124360123
2011-01-06,1,0.0021562284521438988,0.0022229344996922587,-0.009199509232782297,0.007778538389152842,0.9860961752692381
2011-01-10,0,0.0,0.0,-0.009199509232782297,0.010897150341083572,0.9851174479866165
2011-01-12,0,0.0,0.0,-0.009199509232782297,0.0048336632389445085,0.9861950766729489
2011-01-14,0,0.0,0.0,-0.0073431544740713665,0.005014349054021902,0.9899178486250879
2011-01-19,0,0.0,0.0,-0.007126410815729423,0.006065018750854837,0.9908743406375142
2011-01-21,0,0.0,0.0,-0.007126410815729423,0.006065018750854837,0.9906138613495424
2011-01-25,-1,-0.004971329324807181,-0.003976391289449266,-0.007385261247230331,0.006065018750854837,0.9891498994271969
2011-01-27,0,0.0,0.0,-0.007385261247230331,0.006065018750854837,0.9900571979432405
2011-01-31,-1,-0.0030624409263189777,-0.0025561583613529486,-0.00898072958430661,0.0049780651255328014,0.9891742356410332
2011-02-02,-1,-0.002515590589943524,-0.002093517306984855,-0.00898072958430661,0.005954741019964741,0.9885961281076912
2011-02-04,-1,-0.002310417121788565,-0.00195700162466689,-0.009124342662877122,0.0049780651255328014,0.98955192584067
2011-02-08,-1,-0.0015899070146835836,-0.0012816324902261383,-0.009124342662877122,0.0049780651255328014,0.9909726551009018
2011-02-10,-1,-0.000848350205923038,-0.0006682017139830006,-0.012220850343145453,0.005954741019964741,0.9892725141336589
2011-02-14,-1,-0.0011883512957472741,-0.0009154599195721358,-0.013731128020059616,0.005954741019964741,0.9884307622733832
2011-02-16,-1,-0.0015547397738157568,-0.001220706345362295,-0.013731128020059616,0.007765392176048038,0.9880359786554457
2011-02-18,-1,-0.00038135248597159885,-0.00032618387704814826,-0.013731128020059616,0.01264363313182197,0.986834500813395
2011-02-23,-1,-0.001958839156730747,-0.0016551234716427202,-0.010586946694225469,0.01264363313182197,0.9876356420372563
2011-02-25,-1,-0.001763707145994397,-0.001494526598794215,-0.010586946694225469,0.014544950050471035,0.9865888660705758
2011-03-01,-1,-0.002906558370986653,-0.0025003711268135505,-0.006524809708832004,0.014544950050471035,0.9876068925037619
2011-03-03,-1,-0.0017717698113111184,-0.00153748339772495,-0.008579708113237126,0.014517551452262481,0.9878995957854841
2011-03-07,0,0.0,0.0,-0.0058949304077529855,0.015191424793935229,0.9871459914388008
2011-03-09,0,0.0,0.0,-0.006877541495052286,0.015191424793935229,0.9867600034278233
2011-03-11,-1,-0.0011517976905924417,-0.0010851988259017085,-0.006877541495052286,0.012859124712976702,0.9876275743245454
2011-03-15,-1,-0.0021181379706295624,-0.0019441500495980112,-0.006257938452973762,0.012859124712976702,0.9883701386628254
2011-03-17,-1,-0.0023075667951225794,-0.002095384102782999,-0.00848624709405281,0.011364571350737556,0.9879900985502087
2011-03-21,-1,-0.0017427377984095918,-0.0015642196430115905,-0.011828657015940333,0.004248448350226359,0.9887786394207918
2011-03-23,0,0.0,0.0,-0.011828657015940333,0.004968104279505763,0.9885028767289683
2011-03-25,-1,-0.0006589638361015049,-0.00060526194029897,-0.011828657015940333,0.0037102823010165473,0.9894482254227122
2011-03-29,-1,-0.00043790015785281737,-0.0004242182180025759,-0.011828657015940333,0.004790428864870811,0.988384806989754
2011-03-31,0,0.0,0.0,-0.008598274784742396,0.004527799615256781,0.9893590348349064
2011-04-04,0,0.0,0.0,-0.011313230756942093,0.0037102823010165473,0.9905278432800815
2011-04-06,0,0.0,0.0,-0.008314438341053396,0.005084013019753301,0.989400576424597
2011-04-08,1,7.011836956168682e-05,9.775996233403455e-05,-0.005946265402262939,0.006884954248696888,0.9893068942787168
2011-04-12,-1,-0.001128239647911348,-0.0009030110514870893,-0.0038908788120195935,0.009855442465416718,0.9890881880700594
2011-04-14,-1,-0.0021241936445069104,-0.0018074714556834655,-0.0031842834843346856,0.009855442465416718,0.98896016616855
2011-04-18,-1,-0.003957237539060042,-0.003375834377385735,-0.003641716537691778,0.009855442465416718,0.9889006661102283
2011-04-20,-1,-0.003485635031248041,-0.002991549342778473,-0.006041987352656145,0.012211871251711047,0.9880066986733252
2011-04-25,-1,-0.0037056835907976976,-0.003138455491402098,-0.007838639366130874,0.012211871251711047,0.9884356750054485
2011-04-27,-1,-0.0008025429866764149,-0.0007077106674327619,-0.007838639366130874,0.00803051939700141,0.9894698117453198
2011-04-29,-1,-0.0008227324507634895,-0.0007170681536516791,-0.007838639366130874,0.00803051939700141,0.9891919421630437
2011-05-03,-1,-0.0008244646917594391,-0.0007588180234815796,-0.007838639366130874,0.012301516413257753,0.9878871182294203
2011-05-05,1,0.0006991916206266303,0.0007925671977563661,-0.008439562695684175,0.0067741060725399595,0.9892129393101947
2011-05-09,1,0.0017111897760086901,0.0019657625718744825,-0.009067836759636988,0.0067741060725399595,0.9893755170580002
2011-05-11,1,0.0018912678812388994,0.002173158763405033,-0.009067836759636988,0.0067741060725399595,0.9889416236692433
2011-05-13,1,0.0012589230777138149,0.0014742997009372335,-0.008439562695684175,0.007800317206786305,0.989969224279455
2011-05-17,1,0.0019275415580775497,0.0023771706618408526,-0.007644608558972031,0.00942738217376522,0.9905310162267774
2011-05-19,1,0.002451514917127435,0.002971282252652343,-0.007644608558972031,0.008208781944552289,0.9909194261917021
2011-05-23,1,0.0020083526048424952,0.002461442638288501,-0.00488856135873563,0.00942738217376522,0.9908300974659344
2011-05-25,1,0.0019643571599133325,0.0023665468241730186,-0.010063216431232449,0.00942738217376522,0.9897709066966484
2011-05-27,1,0.0022357258206062167,0.00266604902693533,-0.01088155163966461,0.011688539368913519,0.9886172255796131
2011-06-01,1,0.0023845395427378093,0.002847587553387005,-0.010063216431232449,0.0095290257493665,0.990062955001501
2011-06-03,1,0.0017745034774543796,0.0021404190088963157,-0.008217474360243091,0.0095290257493665,0.9906152577623808
2011-06-07,1,0.002711263341723567,0.0032688651433152973,-0.006263562673545685,0.0095290257493665,0.9912715513007594
2011-06-09,1,0.0013735105500455797,0.0015719776828845985,-0.004429780000380753,0.008945624155228498,0.9918697267421099
2011-06-13,1,0.0009878001393805926,0.0010679326725751728,-0.006841130285178461,0.008242663136419382,0.9905721430116615
2011-06-15,1,0.001239773046950976,0.001366133959121941,-0.010542433931391513,0.006571631730328246,0.9902204951354987
2011-06-17,1,0.0007003887934068835,0.0007330494687526199,-0.010542433931391513,0.004743160617657031,0.9903463750891751
2011-06-21,1,0.0013384846657486461,0.0014349737975333395,-0.010542433931391513,0.004440542978170632,0.9902389431075598
2011-06-23,1,7.959148932938588e-05,0.00017341915538075976,-0.005990568686771119,0.006839833261798378,0.9900008976072086
2011-06-27,0,0.0,0.0,-0.005990568686771119,0.004440542978170632,0.9904029753809959
2011-06-29,0,0.0,0.0,-0.008952828685234667,0.004440542978170632,0.9880491050747581
2011-07-01,0,0.0,0.0,-0.012607336642296543,0.005027803404908992,0.987660476422412
2011-07-06,0,0.0,0.0,-0.016631951961815702,0.005027803404908992,0.9859456755358438
2011-07-08,0,0.0,0.0,-0.021520468282071024,0.004894710697221071,0.9835628157218836
2011-07-12,1,0.0014937634488088444,0.001772556839180182,-0.021520468282071024,0.00951328670137042,0.9763414608230183
2011-07-14,1,0.001646334103228818,0.0020183317734596773,-0.02790650845491293,0.013225773319456392,0.9734763974723186
2011-07-18,-1,-0.0002459870310086446,-0.00017452888515208763,-0.02790650845491293,0.015649253497628045,0.972332900135633
2011-07-20,0,0.0,0.0,-0.02790650845491293,0.013225773319456392,0.9721053295628065
2011-07-22,0,0.0,0.0,-0.03150348234682835,0.00951328670137042,0.9694339401829669
2011-07-26,0,0.0,0.0,-0.03150348234682835,0.013225773319456392,0.9677378437528368
2011-07-28,0,0.0,0.0,-0.02823118235860926,0.01004510365256918,0.9697625363441642
2011-08-01,-1,-0.0011775723459537476,-0.000980868398878524,-0.02823118235860926,0.03180459323650397,0.9673504481816046
2011-08-03,-1,-0.0021137614190872515,-0.0017971673885480099,-0.02759960879295273,0.03180459323650397,0.96887443325691
2011-08-05,-1,-0.004615879808591518,-0.0039609025112614,-0.023581579120025013,0.03180459323650397,0.9690540101386729
2011-08-09,-1,-0.0041638111763087045,-0.0035672432215286707,-0.02291015418155625,0.03180459323650397,0.973655026959524
2011-08-11,-1,-0.0031737756342289855,-0.0027622127360896597,-0.02364930644164066,0.00943636217844622,0.9752504249013494
2011-08-15,-1,-0.0018011426413211608,-0.0015464935892597848,-0.02364930644164066,0.008993007594828403,0.9759052747631625
2011-08-17,-1,-0.0023171078304448714,-0.0020450425366688447,-0.02364930644164066,0.017306572386352075,0.9753612526777771
2011-08-19,-1,-0.004675279815167258,-0.004137900237594181,-0.022380395347845132,0.017306572386352075,0.9772221229036762
2011-08-23,-1,-0.002603237790384973,-0.002317314520915717,-0.02364930644164066,0.008993007594828403,0.9777560918651562
2011-08-25,-1,-0.0013300767403159252,-0.0012517112371752234,-0.02364930644164066,0.015707705516293774,0.9764471941776947
2011-08-29,1,0.00013441323838353655,0.0002204470640674416,-0.02364930644164066,0.015707705516293774,0.9760038322182851
2011-08-31,-1,-0.0008852224024513829,-0.0008023363350668868,-0.025605960421171393,0.016720337046163464,0.9751985271065047
2011-09-02,-1,-0.0031547311999633332,-0.0027879694530160547,-0.02728938470612513,0.016720337046163464,0.9723777138123723
2011-09-07,-1,-0.0028625923171384164,-0.0024722698401726446,-0.02728938470612513,0.01782832082554127,0.9727881832305865
2011-09-09,-1,-0.005503509473129437,-0.00474964902017228,-0.019803110126571082,0.01911447611361204,0.9733268101930056
2011-09-13,-1,-0.004490571767229564,-0.0038625322348226796,-0.019803110126571082,0.020597207563918328,0.972983339863504
2011-09-15,-1,-0.004058589377887927,-0.0034980915173172715,-0.018810479761159862,0.020597207563918328,0.9721704886362375
2011-09-19,0,0.0,0.0,-0.018810479761159862,0.020597207563918328,0.9720342736485638
2011-09-21,0,0.0,0.0,-0.015650843131677528,0.02234148031462316,0.9725851580204576
2011-09-23,0,0.0,0.0,-0.014223817312838585,0.02234148031462316,0.9729732940220679
2011-09-27,0,0.0,0.0,-0.01828338083007874,0.021579975321518948,0.9743738618611018
2011-09-29,0,0.0,0.0,-0.014223817312838585,0.024081490202519856,0.9734614454290869
2011-10-03,-1,-0.0059310313502494855,-0.0053452153767422845,-0.01043247306497749,0.024081490202519856,0.9762561278906868
2011-10-05,-1,-0.0033744642305235913,-0.0030506110790593515,-0.014223817312838585,0.021579975321518948,0.9755601175440783
2011-10-07,-1,-0.0034704786725717205,-0.0031187970965837848,-0.010849581790025903,0.024081490202519856,0.9752483360732225
2011-10-11,-1,-0.0018888690239122715,-0.0017450687837433235,-0.010849581790025903,0.024081490202519856,0.9758805240434341
2011-10-13,-1,-0.0004390688373951362,-0.00042857758246907896,-0.016524164109148906,0.020135826956273906,0.9765507465002894
2011-10-17,-1,-0.0012990054019707807,-0.0012248047126316337,-0.016524164109148906,0.02049231591637342,0.977082483725027
2011-10-19,-1,-0.0005529931248397875,-0.0005150704810949152,-0.019692383211706875,0.01919327052525983,0.977262961666245
2011-10-21,1,0.0002533126405520012,0.0003973084342096183,-0.019692383211706875,0.015460117250005293,0.9780050733437858
2011-10-25,-1,-0.0002477863563696836,-0.00018818436209123098,-0.01872145301627495,0.013081186196042234,0.9796825643453854
2011-10-27,1,0.0017796115081158827,0.002117285960790371,-0.01872145301627495,0.010298865061638324,0.9811298521911361
2011-10-31,1,0.0009941298570031259,0.001243524141265565,-0.01820346532027981,0.013081186196042234,0.9805712626221593
2011-11-02,1,0.001055629171548802,0.0013290332027272062,-0.010545142130440251,0.013081186196042234,0.9832885019084275
2011-11-04,1,0.0021374762273644737,0.002567939009486057,-0.010545142130440251,0.010298865061638324,0.984897347295145
2011-11-08,1,0.002691815838016006,0.003177650286787528,-0.017989979087436977,0.003484229632115434,0.984666914565109
2011-11-10,1,0.0020545228389692275,0.0025033360896797095,-0.017989979087436977,0.004590056280026368,0.9839259573690571
2011-11-14,1,0.0018905410967673905,0.0022833665203197775,-0.016932475292085154,0.002288327661227692,0.9846669557413741
2011-11-16,1,0.0013713663751142515,0.0017073789852978256,-0.016932475292085154,0.002288327661227692,0.9850126609558914
2011-11-18,1,0.001328277690569264,0.0016737399191154103,-0.016932475292085154,0.003922279336271531,0.9848818617671018
2011-11-22,1,0.0009908031854017696,0.0012951008449288257,-0.01291552935930637,0.008722832325048908,0.9842834733429666
2011-11-25,1,0.0006895345835536928,0.000986322182104616,-0.008933215680844098,0.015488249691297855,0.9845530025128916
2011-11-29,1,0.001724809573115654,0.002176551439210481,-0.01291552935930637,0.008722832325048908,0.9851678113007917
2011-12-01,1,0.0027182784434353906,0.0032568385543501293,-0.01291552935930637,0.00819917284697615,0.9866547389877562
2011-12-05,1,0.0025102676388705078,0.0029870623176970245,-0.014664211590950212,0.00819917284697615,0.9855925390534097
2011-12-07,1,0.0019621154727894525,0.0023461833670872785,-0.01227152136226357,0.011799497751523835,0.9858658624083763
2011-12-09,1,0.0024602587985466245,0.0029622100577509866,-0.007459379022522474,0.011799497751523835,0.9880407673788524
2011-12-13,1,0.0019612417437592238,0.0024160380419829355,-0.004457964637823106,0.011799497751523835,0.9889528830748591
2011-12-15,1,0.0016568127493016974,0.0020350589679991567,-0.006907959212705611,0.01148151852046479,0.9890476155654853
2011-12-19,1,0.0010499693844943881,0.0013039791119838764,-0.006081391104457053,0.011526745465262347,0.9891575663883942
2011-12-21,1,0.0017499508746894477,0.0020944367917306193,-0.0044897261405998454,0.011452564490128424,0.9903321390078063
2011-12-23,1,0.0018957525462930422,0.0022217280315386624,-0.007003243721035828,0.011452564490128424,0.989697841304457
2011-12-28,-1,-0.00011750112902147418,-7.738945601962117e-05,-0.0044897261405998454,0.011452564490128424,0.991059042158063
2011-12-30,1,0.001032955269511246,0.0011915439013458515,-0.006534515195260147,0.007947281984583339,0.9912036642508106
2012-01-04,1,0.00048045053608666545,0.0005624582923547298,-0.006534515195260147,0.011452564490128424,0.98999624560411
2012-01-06,1,0.0017545206616641478,0.0020769786235439714,-0.006534515195260147,0.008139182169351852,0.9888924755368251
2012-01-10,1,0.001474379480053782,0.001697835889308172,-0.006534515195260147,0.007443061600784864,0.9894655501667802
2012-01-12,1,0.00010271788671461178,0.00018699935576105603,-0.008076762468454459,0.009409429729225018,0.9883295534778114
2012-01-17,1,9.848718888115572e-05,0.00011527945181285097,-0.003696834094423846,0.009409429729225018,0.9895422923049089
2012-01-19,1,3.642353233265055e-05,6.722695442908508e-05,-0.004054673676896723,0.009905615924380771,0.9887252199667608
2012-01-23,1,0.0011458012873313932,0.0013933406331432566,-0.00917334539099852,0.013048107538384028,0.9879234900502614
2012-01-25,1,0.0009871422533806106,0.0011797738247204719,-0.00917334539099852,0.009760806365325782,0.9885092896200026
2012-01-27,1,0.00029644763433243253,0.0003008086726480069,-0.00917334539099852,0.013048107538384028,0.9870731597539626
2012-01-31,1,0.0006447086790654717,0.0007508710594656427,-0.005619985125216465,0.013048107538384028,0.9873086435009557
2012-02-02,0,-4.105373560325012e-05,2.871069540543388e-05,-0.0053189821325633595,0.012264621714745516,0.9885136268291245
2012-02-06,1,0.0014240587098869962,0.0015811542287812817,-0.012966270757998432,0.009547914277131274,0.9897407027315238
2012-02-08,1,0.001840918693324383,0.0020528115804346048,-0.012966270757998432,0.013048107538384028,0.9877150946333921
2012-02-10,1,0.0011345375757610887,0.0011851046104329396,-0.0053189821325633595,0.012264621714745516,0.988313276892677
2012-02-14,1,0.00011313381253970199,0.0002696112329443279,-0.009136055227183847,0.013100116806210083,0.9866449628409637
2012-02-16,0,-4.321033900169511e-05,0.00012155057300215012,-0.004114005474970189,0.012264621714745516,0.9877122485821508
2012-02-21,1,0.0009476385776463379,0.0010132518431476725,-0.0023473345865654754,0.011437684823700988,0.988977075699139
2012-02-23,1,0.00032073234618130054,0.0003458003309930828,-0.0032490144602292056,0.011437684823700988,0.9887932316333738
2012-02-27,-1,-0.0009238013639263389,-0.0005914095198051145,-0.0032490144602292056,0.010049598546124021,0.9898599050722385
2012-02-29,1,5.667182666517517e-05,0.00017676099979352042,-0.007765289488628948,0.010049598546124021,0.989406154154303
2012-03-02,-1,-0.00028607900477653915,-0.0001217680734395587,-0.007765289488628948,0.010049598546124021,0.9897542486341595
2012-03-06,-1,-0.0002514919028861991,-0.00013496513110367524,-0.005299890817184493,0.011938625890818854,0.9895275266418885
2012-03-08,1,0.0014276518273905348,0.0015730175561492429,-0.007765289488628948,0.010049598546124021,0.9912086868882526
2012-03-12,1,0.0009722058229134831,0.0010041011016208433,-0.008376109139980971,0.0066586111817317755,0.9896770248941891
2012-03-14,1,0.0015023521867304854,0.0016223571746750058,-0.008376109139980971,0.0066586111817317755,0.9906787858515962
2012-03-16,1,0.0018901634215147938,0.002092630520879065,-0.008888342718103607,0.0033093544490496968,0.990187315090817
2012-03-20,1,0.001682675260996855,0.0018294613919869894,-0.011262035571063594,0.006799438461875947,0.9889122126544575
2012-03-22,1,0.002018217333650316,0.002293915984139203,-0.008888342718103607,0.006799438461875947,0.9894848274258027
2012-03-26,1,0.0019276360386799045,0.00214444165958502,-0.008888342718103607,0.004974979076200271,0.9891282055745102
2012-03-28,1,0.0014796844439378567,0.0016268448064186785,-0.008888342718103607,0.012932341230223854,0.9886499661014584
2012-03-30,1,0.0016961277042849693,0.0019132246061246934,-0.008353401359632025,0.012932341230223854,0.9887300250004186
2012-04-03,1,0.0025480687292496022,0.0029096584234384716,-0.011269323023009583,0.005866169637131628,0.9873728845595116
2012-04-05,1,0.001675420798252174,0.0018649534063681296,-0.011269323023009583,0.013116678355066852,0.9856122471853
2012-04-10,1,0.0007485109316966742,0.0008166444570891769,-0.009924431798846983,0.013116678355066852,0.9867367694712796
2012-04-12,1,0.001010797246279563,0.0010773452421774965,-0.009924431798846983,0.005866169637131628,0.9869295162489162
2012-04-16,1,0.0003512533833460592,0.0003835976173226344,-0.009924431798846983,0.005866169637131628,0.9867176568945362
2012-04-18,0,-8.174870909661463e-05,3.160707384423282e-05,-0.0076814135911745934,0.00225853962254082,0.9880266978493144
2012-04-20,-1,-0.0008497886478922002,-0.0006084052215704522,-0.009880199290023923,0.005866169637131628,0.9871530791505372
2012-04-24,-1,-0.00026010235314452736,-0.00012149871527989634,-0.009656508596287357,0.013240407087556796,0.9861717329351235
2012-04-26,1,0.0014772089106742695,0.0016245698389293476,-0.009674844598400074,0.00225853962254082,0.9867802749505011
2012-04-30,1,0.0012532927545909464,0.0013742901787353362,-0.009674844598400074,0.012370062653440223,0.9860381610023662
2012-05-02,-1,-0.00030262809433260807,-0.00020222455516068878,-0.011799376611641108,0.012370062653440223,0.9872768646819974
2012-05-04,-1,-0.0005843448996294411,-0.0004471415819252684,-0.011732152813293378,0.004412756324367025,0.9894398538384637
2012-05-08,-1,-0.00147882343605245,-0.0011972615067895038,-0.008574346189809992,0.011174988543004902,0.9899591625019347
2012-05-10,-1,-0.002163354270448,-0.001789194385226306,-0.00933955654827625,0.011174988543004902,0.9901411914370135
2012-05-14,-1,-0.0032818296609973792,-0.002762045169492003,-0.010912964361306106,0.011174988543004902,0.9902534814376985
2012-05-16,-1,-0.0030189519928739213,-0.0025634043182968373,-0.011732152813293378,0.011174988543004902,0.9892110874968966
2012-05-18,-1,-0.002751184408129527,-0.002355683505313639,-0.010912964361306106,0.009578522539681202,0.989924767776173
2012-05-22,-1,-0.002113878452339361,-0.0017364011257625831,-0.010912964361306106,0.009578522539681202,0.9903312732506467
2012-05-24,-1,-0.002153253187320232,-0.0018037861817561684,-0.011732152813293378,0.011174988543004902,0.9884314792584407
2012-05-29,-1,-0.0016725205972265191,-0.001345087605412673,-0.012785363038515577,0.006798731169353556,0.9880836995989086
2012-05-31,-1,-0.0020607435739148673,-0.0017259413512363232,-0.011241626503597595,0.011278168915602405,0.9875737315182956
2012-06-04,-1,-0.0025694904474316636,-0.0021932285133829305,-0.009176047778377655,0.012597528091500448,0.9856995262885735
2012-06-06,-1,-0.0021997996971919753,-0.0018617879226283517,-0.009176047778377655,0.012597528091500448,0.9865244380581264
2012-06-08,0,0.0,0.0,-0.011709596751341006,0.012597528091500448,0.9859184147764911
2012-06-12,0,0.0,0.0,-0.00957575315790917,0.012597528091500448,0.9864229693181982
2012-06-14,0,0.0,0.0,-0.007586408352056004,0.013365151233029315,0.9863159306015419
2012-06-18,-1,-0.004122067234709732,-0.0035286696916636074,-0.00957575315790917,0.013365151233029315,0.9851814282059588
2012-06-20,-1,-0.0029950108310032733,-0.002543127165281002,-0.00957575315790917,0.010309797466128773,0.9860788938239616
2012-06-22,-1,-0.003302929845053669,-0.0027966407695557824,-0.012290498479056028,0.009040908690344577,0.9870807489821531
2012-06-26,-1,-0.003963794887440211,-0.0034119006444977627,-0.012290498479056028,0.009040908690344577,0.9877522953423329
2012-06-28,-1,-0.0018214077354893987,-0.0015809445385661773,-0.012290498479056028,0.007949502406987226,0.9880836587639025
2012-07-02,-1,-0.0004051098369038952,-0.0003469301469286861,-0.012290498479056028,0.006279335691711422,0.9900893122429228
2012-07-05,-1,-0.0008088337938245279,-0.000697521264987983,-0.014258042551697086,0.006279335691711422,0.9885864456042799
2012-07-09,-1,-0.0008712758873066311,-0.0007629968408665788,-0.012290498479056028,0.007273292999584367,0.9877217711841098
2012-07-11,-1,-0.0014646108257742986,-0.001282013412570308,-0.008705201760128655,0.009040908690344577,0.9860111511470644
2012-07-13,-1,-0.00034926686392784906,-0.000294188224828336,-0.008705201760128655,0.007600907072766296,0.987242055515728
2012-07-17,-1,-0.0011679669693155299,-0.0009837204147858495,-0.0037486421578862596,0.007143930824378683,0.987844493985765
2012-07-19,1,0.00030946940478641444,0.0004022420325052488,-0.0037486421578862596,0.007188359050580214,0.9880271308765023
2012-07-23,-1,-0.0006868281232835461,-0.0006190423288830386,-0.0037486421578862596,0.007188359050580214,0.9878815393590997
2012-07-25,-1,-0.0015489446129679852,-0.001369269696226511,-0.0013183429516893154,0.0073279335440084945,0.9881525797784053
2012-07-27,-1,-0.0009774799599868173,-0.0008326210368865036,-0.0037486421578862596,0.0073279335440084945,0.9885664734175418
2012-07-31,-1,-0.0001336588085098999,-5.5168125799709026e-05,-0.004464872517494667,0.0073279335440084945,0.9887121161696147
2012-08-02,-1,-0.0010424900156770355,-0.0009824571326127426,-0.004464872517494667,0.007664552111539732,0.9892645550066447
2012-08-06,1,0.0005143172156608167,0.0006971673237283573,-0.004464872517494667,0.007664552111539732,0.9906246317636386
2012-08-08,1,0.0019113098285464551,0.0022929454907683324,-0.004464872517494667,0.007664552111539732,0.9919134302550437
2012-08-10,0,0.0,0.0,-0.008541530916028302,0.007664552111539732,0.9910675762521202
2012-08-14,0,0.0,0.0,-0.011380936982726353,0.00820146286038666,0.9898447853066158
2012-08-16,1,0.0018482617402538887,0.002242494617237448,-0.011380936982726353,0.007768697491120051,0.9905523950789794
2012-08-20,1,0.0009081990038971361,0.0011470177575597991,-0.008233875093426659,0.007768697491120051,0.9910427074479611
2012-08-22,1,0.0010581689927598688,0.0013061091931699722,-0.008233875093426659,0.007768697491120051,0.9910197542987489
2012-08-24,1,0.001418142104850432,0.0017545217327123947,-0.008233875093426659,0.006561230455081786,0.9915916785905403
2012-08-28,1,0.0009245429075649744,0.0011855489131857551,-0.010191077715337284,0.007768697491120051,0.9910469881469419
2012-08-30,1,0.0002795537492004028,0.00040491791939744443,-0.010191077715337284,0.008106090391802882,0.9902258766779961
2012-09-04,0,0.0,0.0,-0.010671080706288541,0.006624435631444903,0.986180635155167
2012-09-06,1,0.0033784664138108945,0.003911526198508224,-0.011492025578877388,0.0059205843248932594,0.9813580553584671
2012-09-10,1,0.002956893414879098,0.0034306814742323115,-0.015591903379312056,0.0059205843248932594,0.9804149048792145
2012-09-12,1,0.002815384184575707,0.0032525334999101456,-0.012285607549001223,0.0059205843248932594,0.9814894535118656
2012-09-14,1,0.0033040173862220867,0.003814032853416482,-0.01626968428375597,0.0010455494530350576,0.9801071280600057
2012-09-18,1,0.00335371461753561,0.003938829179402934,-0.01626968428375597,0.00324465617692952,0.9775669407649604
2012-09-20,0,0.0,0.0,-0.01626968428375597,0.008119153739913754,0.978544462106987
2012-09-24,0,0.0,0.0,-0.01626968428375597,0.008119153739913754,0.9783574354352531
2012-09-26,0,0.0,0.0,-0.014115641767346714,0.004492086416389751,0.9792326090094167
2012-09-28,1,0.0019012955838854945,0.0021752232135215928,-0.014115641767346714,0.004492086416389751,0.9795873754797724
2012-10-02,-1,-0.0021117460991998704,-0.0018598956703041222,-0.014115641767346714,0.008187678300642483,0.9826009703693362
2012-10-04,-1,-0.0009485482928132427,-0.000779292889708425,-0.014115641767346714,0.008187678300642483,0.9856649783247147
2012-10-08,-1,-0.0023830893375124135,-0.002024548518523024,-0.012868860735940641,0.008187678300642483,0.9852949638613905
2012-10-10,0,0.0,0.0,-0.012868860735940641,0.004791100902159206,0.9854417980527574
2012-10-12,0,0.0,0.0,-0.00920606515507847,0.004791100902159206,0.9861549242697405
2012-10-16,1,0.0003342161060113579,0.0003411940336477165,-0.005594180695686878,0.003359893950228658,0.9898127252196764
2012-10-18,0,0.0,0.0,-0.006047710246127378,0.003359893950228658,0.9893055700159252
2012-10-22,0,0.0,0.0,-0.004939359301091654,0.00392366525627003,0.9896646452794235
2012-10-24,-1,-0.001174328760814745,-0.0009763451785095784,-0.0039206351332219825,0.01353470320749139,0.9882720003739881
2012-10-26,0,0.0,0.0,-0.006047710246127378,0.01353470320749139,0.9879446949063434
2012-11-01,0,0.0,0.0,-0.0039206351332219825,0.014390300266602197,0.9874959552552689
2012-11-05,-1,-0.0042984377620360935,-0.003751644560888674,-0.00172320837945949,0.014160090870471086,0.9877027203908262
2012-11-07,-1,-0.006782946755745777,-0.005924942816102331,-0.0005770472761599156,0.016574125384348735,0.9860422627976018
2012-11-09,-1,-0.0032452591275721355,-0.0027334626504235482,-0.0039206351332219825,0.016574125384348735,0.9879343750506551
2012-11-13,-1,-0.0029260695817674097,-0.0025027160642417446,-0.0035049375999363867,0.016574125384348735,0.9880110522777026
2012-11-15,-1,-0.0031194751670807746,-0.0026631530233455405,-0.0041457962516753665,0.017785273309242487,0.9862978041894314
2012-11-19,-1,-0.003371902901814807,-0.0028360947597831157,-0.0035049375999363867,0.01908935857499352,0.985671096886527
2012-11-21,-1,-0.0026650214179833676,-0.002263080290817167,0.0007615628165597021,0.01908935857499352,0.9853740572389277
2012-11-26,-1,-0.0004054080894005227,-0.000354735518611777,-0.004329214635871669,0.01908935857499352,0.9871770963727313
2012-11-28,0,0.0,0.0,-0.004329214635871669,0.013583874956418532,0.9877166262748214
2012-11-30,0,0.0,0.0,-0.004329214635871669,0.006954057230791127,0.9901932913596962
2012-12-04,0,0.0,0.0,-0.005266508697959821,0.011278672048823959,0.988452635672065
2012-12-06,0,0.0,0.0,-0.005266508697959821,0.005047045543316846,0.989885728266961
2012-12-10,0,0.0,0.0,-0.003735945437463552,0.005047045543316846,0.9908393055109984
2012-12-12,-1,-0.029016689524781987,-0.025378714850332433,-0.004060070229640498,0.005781140523933333,0.9694466520985798
2012-12-14,1,0.0029305548487717223,0.0032129668258904258,-0.002821017812212525,0.005781140523933333,0.992454812069045
2012-12-18,0,0.0,0.0,-0.005057208482976924,0.005047045543316846,0.9922967000191999
2012-12-20,0,0.0,0.0,-0.005057208482976924,0.005781140523933333,0.9912564648530225
2012-12-24,0,0.0,0.0,-0.004060070229640498,0.00712560409477676,0.9912133993151554
2012-12-27,0,0.0,0.0,-0.002821017812212525,0.009330771840713532,0.9912748612858566
2012-12-31,1,0.002237252246221554,0.002472238183145051,-0.004060070229640498,0.009330771840713532,0.9916375106777265
2013-01-03,1,0.004246751351306643,0.004850794965348782,-0.002821017812212525,0.008902729806315117,0.9934267754347997
2013-01-07,1,0.004100185900371304,0.004694493330145945,-0.0032049867956377457,0.009330771840713532,0.9922532947080915
2013-01-09,1,0.004202706444130316,0.004823134003636291,-0.005374578244296184,0.009751480522545156,0.9897782485127058
2013-01-11,1,0.004557581601104125,0.005262396797430449,-0.006495380769572365,0.011388146110750726,0.989202218375544
2013-01-15,1,0.0044206536639471335,0.005050954349653458,-0.008223351573310304,0.01046771028013432,0.988995569266332
2013-01-17,1,0.003860114922076932,0.004430326337555253,-0.008223351573310304,0.01046771028013432,0.9893223387164052
2013-01-22,1,0.004939734702390308,0.005641437325631732,-0.00909822079193037,0.009569515093243252,0.9896725052334958
2013-01-24,1,0.005079714052287432,0.00577092677428624,-0.00909822079193037,0.009569515093243252,0.9891910675913789
2013-01-28,1,0.005379312158258024,0.0060889269983119745,-0.009358796744623954,0.00490955132299491,0.9882865523361806
2013-01-30,1,0.005556164371529486,0.006325095471256571,-0.009358796744623954,0.0064142368825735865,0.9877305580073982
2013-02-01,1,0.005955584014981023,0.006826469530490754,-0.009358796744623954,0.0064142368825735865,0.987181837562446
2013-02-05,1,0.005736766470067676,0.0065463667808067305,-0.008788106654296126,0.006872636131826922,0.9888323019535556
2013-02-07,1,0.005089281676977809,0.005807682566250061,-0.008119980194098889,0.005938932212604282,0.9914920368725831
2013-02-11,1,0.005325711834406765,0.006093204856716661,-0.008119980194098889,0.005779025725249125,0.9916415896528005
2013-02-13,1,0.004963406119913624,0.005643764300321409,-0.006913293208844668,0.005779025725249125,0.9921573009579623
2013-02-15,1,0.004387167882547052,0.0049776327260401595,-0.004307740772827597,0.005779025725249125,0.9930879948924701
2013-02-20,1,0.003950205061033499,0.00445861438363337,-0.003625440640734091,0.005779025725249125,0.9937029084799426
2013-02-22,1,0.0034091439128360506,0.0038049135595007375,-0.003625440640734091,0.005779025725249125,0.993485824539359
2013-02-26,1,0.003070954042887223,0.003437067247418835,-0.003625440640734091,0.005779025725249125,0.9939069078243512
2013-02-28,1,0.0007068613145931029,0.0009456041825959202,-0.0033291770452110532,0.005779025725249125,0.9946882186743549
2013-03-04,1,0.0015601518931175203,0.0016239888952294702,-0.0036821607954606243,0.005779025725249125,0.9938219742618514
2013-03-06,1,0.001130103180050844,0.0013121809840690984,-0.005424740466666918,0.005508627088085936,0.9931615195061979
2013-03-08,1,0.001063099108801598,0.001243930132732013,-0.0073969452885928,0.005508627088085936,0.9926520838720655
2013-03-12,1,9.235509681880831e-05,0.00042851578134337116,-0.005424740466666918,0.005790910237125616,0.9923371474176175
2013-03-14,1,0.0011457096948866278,0.0012897700470728092,-0.005424740466666918,0.005790910237125616,0.992203708429642
2013-03-18,1,0.001469799439006021,0.0015730600790106874,-0.0073969452885928,0.0072433696910858755,0.9897208586920034
2013-03-20,1,0.001037750474802565,0.0012070453973123513,-0.009744302692571743,0.0072433696910858755,0.9891955421445036
2013-03-22,1,0.0004829579325486053,0.000721436109370796,-0.007379076638053222,0.008323699236493747,0.989479192560018
2013-03-26,1,0.0004570779124875214,0.0006751551995611708,-0.007379076638053222,0.010286959054141861,0.9893420624945479
2013-03-28,1,0.00042146817415140124,0.0006504116417562539,-0.007379076638053222,0.010286959054141861,0.9896354272079284
2013-04-02,-1,-0.0011267662658613516,-0.000676266204527887,-0.004977587709978297,0.010789348595126484,0.9895821984214912
2013-04-04,-1,-0.0027170011846057297,-0.002036716221963717,-0.004977587709978297,0.011594024389679509,0.9889562975384315
2013-04-08,-1,-0.0028757038009104576,-0.00217620943380526,-0.004977587709978297,0.011594024389679509,0.9893976239491802
2013-04-10,-1,-0.002745364978785986,-0.002039701178865752,-0.0033309182698961683,0.011594024389679509,0.9893106181347319
2013-04-12,-1,-0.002810516773601512,-0.002080219757818522,-0.0059638611572977885,0.011594024389679509,0.9894787736668246
2013-04-16,-1,-0.003488676233312051,-0.0026799174008775525,-0.0033309182698961683,0.011594024389679509,0.9907444567763891
2013-04-18,-1,-0.004330909350317834,-0.003420041731942931,-0.0018022596806424591,0.011594024389679509,0.9899828162587105
2013-04-22,-1,-0.003266340365224803,-0.0025237403361922997,-0.0029641098765358946,0.0096738871398984,0.9912593004258939
2013-04-24,-1,-0.002848003319528108,-0.00217995287794288,-0.004191891650375009,0.007454767884989554,0.9912398062505959
2013-04-26,-1,-0.0015172970069703183,-0.0011201409634021605,-0.004191891650375009,0.0077381745169571355,0.9912472201143842
2013-04-30,-1,-0.000587678626786158,-0.00030631214851824153,-0.004191891650375009,0.0077381745169571355,0.991766969810148
2013-05-02,-1,-0.00019742389023842905,-1.732754926109237e-05,-0.004191891650375009,0.0077381745169571355,0.992207476246827
2013-05-06,-1,-0.0014611201018298748,-0.0010691937881815588,-0.004163637286155363,0.0077381745169571355,0.9921700771320936
2013-05-08,-1,-0.0007355473392594415,-0.0004232710763623877,-0.005430547130807019,0.0077381745169571355,0.9918589624214549
2013-05-10,-1,-0.0005583599745946161,-0.0003119812148117358,-0.004163637286155363,0.0077381745169571355,0.9919534968791619
2013-05-14,1,0.0005073515524457006,0.0005707383136400052,-0.006428743991620714,0.006148133343417023,0.9913694282535708
2013-05-16,1,0.0007718344661180558,0.0007904170273765628,-0.006343980898961775,0.006148133343417023,0.9913622592565635
2013-05-20,1,0.00046740712919332095,0.0005407268974146168,-0.006343980898961775,0.007605279635817525,0.9911624322264084
2013-05-22,0,-0.00013543634263441103,4.1479567099005966e-05,-0.01030526053270787,0.007605279635817525,0.9905370695872238
2013-05-24,1,6.103939221407479e-05,0.0001981035822244312,-0.0119486796872817,0.0064520114679950625,0.9899137209335709
2013-05-29,1,0.001223441683375731,0.0012764488547753056,-0.0119486796872817,0.005328168225253079,0.9899205200492889
2013-05-31,1,0.0012031782980785333,0.0012427373128051145,-0.009716851680942927,0.005328168225253079,0.9905578850600563
2013-06-04,1,0.0008543796027843274,0.0008631897441833521,-0.009716851680942927,0.0064520114679950625,0.9894924056297122
2013-06-06,1,0.0005096071643556828,0.000559188907068343,-0.008661746847841524,0.00766020170475973,0.9905298133239054
2013-06-10,1,0.0007791239944378652,0.0007798465726254911,-0.008661746847841524,0.00766020170475973,0.9903882707795788
2013-06-12,-1,-0.0006836601924495414,-0.0004839315721155218,-0.008420228456223372,0.008583873088833436,0.9898863980144952
2013-06-14,1,0.00012803542776417941,0.000164970428664072,-0.008420228456223372,0.007727160784041524,0.9901789843721673
2013-06-18,1,0.0007363066485979706,0.0007994587880154136,-0.008420228456223372,0.005730898304174635,0.9904306053291531
2013-06-20,-1,-3.0087373006072974e-05,-2.888414928569449e-05,-0.007232890908075575,0.0068148292869926195,0.9913219332134818
2013-06-24,-1,-0.0008415083945507109,-0.0007363581369653724,-0.0041564455302428565,0.007727160784041524,0.9912393523145765
2013-06-26,-1,-0.0009403460082764626,-0.0008251700403584429,-0.0037501674628342696,0.008797781262775294,0.9912076250398735
2013-06-28,-1,-0.00022920146359293596,-0.00019925884467255663,-0.006566404034234299,0.007727160784041524,0.9916082105188742
2013-07-02,1,0.00028744100135370154,0.000299764263105986,-0.005347569832008539,0.0068148292869926195,0.9930353552709583
2013-07-05,1,0.0008948479764096455,0.0009975906729331428,-0.005347569832008539,0.007180390070634859,0.9907496554377991
2013-07-09,1,0.0007137697364448732,0.0007947102158157646,-0.004381941594164789,0.008817990406310344,0.9905828690454311
2013-07-11,1,0.0007678877024493983,0.0008360645321729172,-0.004381941594164789,0.008817990406310344,0.9915157197082962
2013-07-15,1,0.0008243188244771897,0.0008876333471364516,-0.004381941594164789,0.008817990406310344,0.9914946304202681
2013-07-17,1,0.0006113711926061827,0.0006432886741991992,-0.0036032669640068114,0.008817990406310344,0.9918341600827119
2013-07-19,1,0.0008025036129137822,0.000834874056494198,-0.004381941594164789,0.008817990406310344,0.9916974675690657
2013-07-23,1,0.0011516254174526684,0.0012502698197502497,-0.004381941594164789,0.008817990406310344,0.9915397162532315
2013-07-25,1,0.001059934872161515,0.0011349779495284738,-0.004287379964936413,0.009366112676030675,0.9914383304448106
2013-07-29,1,0.0008176296963362372,0.0008876473782104833,-0.0027066097725331924,0.009366112676030675,0.9920539923129094
2013-07-31,1,0.000963644606398942,0.001055888619306283,-0.0032558430818215058,0.011078771796806514,0.9902719793772661
2013-08-02,1,0.0027291974041646614,0.0030383175222751736,-0.004287379964936413,0.007137134489163844,0.9923893098355419
2013-08-06,1,0.002931728531174037,0.003283902666261298,-0.0033081819514205885,0.007691551313802301,0.9920632411239676
2013-08-08,1,0.0031663817946659253,0.0035526496839292272,-0.0027066097725331924,0.007255513770807874,0.9924327710337163
2013-08-12,1,0.0031828807749654468,0.0035739705638408647,-0.0013321765979372579,0.009197583054014236,0.9919943663527181
2013-08-14,1,0.0029586829947037645,0.0033044251841222476,-0.0013321765979372579,0.009197583054014236,0.9919333346424964
2013-08-16,1,0.0024932279416792318,0.00277253468963978,-0.0005728533052688102,0.01013251838107428,0.9923223154293433
2013-08-20,1,0.003053079048183886,0.0034067536962019765,-0.0005728533052688102,0.01013251838107428,0.9923060393977421
2013-08-22,1,0.0027223565130137964,0.002985687662346228,-0.0007843303584650891,0.0092866209534694,0.9918735524525205
2013-08-26,1,0.0023832427147038736,0.0025706284423640093,-0.0010958351123564291,0.0092866209534694,0.991708778441825
2013-08-28,1,0.0018579741873041196,0.001969172263459117,-0.0005779945910877954,0.00871631840728555,0.9933650820132452
2013-08-30,1,0.001563382272476227,0.0016630450619399442,-0.0005779945910877954,0.00871631840728555,0.9936179794131175
2013-09-04,1,0.0021710071781866824,0.0023506992179663966,-0.0008740754875221798,0.008469515630473315,0.9936886023165257
2013-09-06,1,0.002244379615001858,0.0023981087141710343,-0.002486310463989127,0.008515191632622404,0.993567836071272
2013-09-10,1,0.002373878002311065,0.0025159246754492895,-0.006910970965438266,0.007137404399415993,0.9924946244597801
2013-09-12,1,0.002619411513854825,0.0028074850129577683,-0.010934068329941662,0.008515191632622404,0.990782656488006
2013-09-16,1,0.0028201297168854813,0.0030482449636819614,-0.010934068329941662,0.008515191632622404,0.9906176732222377
2013-09-18,1,0.0033729567958561265,0.003665905483397582,-0.010934068329941662,0.003167322347728506,0.9907825637257274
2013-09-20,1,0.0031323263100541724,0.0034296080016157316,-0.0061034852151799724,0.008510258671554197,0.9914741663379508
2013-09-24,1,0.0027940396833532437,0.0030291916780925947,-0.0061034852151799724,0.008510258671554197,0.9918458854062362
2013-09-26,1,0.0027769830175190767,0.002982477737670318,-0.0061034852151799724,0.008754894814095374,0.991572395496217
2013-09-30,1,0.0026983306507926182,0.002932157518924232,-0.0041276887378045996,0.008754894814095374,0.9921125837116319
2013-10-02,1,0.0022120253616387245,0.0023684195992384866,-0.0041276887378045996,0.008959382334669266,0.9915363749621916
2013-10-04,1,0.0021876471900622147,0.0023716953161059973,-0.006068043962145394,0.008944583451464646,0.9914129768801668
2013-10-08,1,0.001101030081280781,0.0011425795841513953,-0.0007852620283887919,0.009671598440713434,0.9924824946825387
2013-10-10,1,0.001197508408400924,0.0012456549994001366,-0.0007852620283887919,0.008944583451464646,0.9933954883798024
2013-10-14,1,0.0013405973488508824,0.0013869405985783723,-0.0007852620283887919,0.008944583451464646,0.9927431475784129
2013-10-16,1,0.0012237682593486889,0.0012616212159796318,0.0005436519332095238,0.009671598440713434,0.992428781046049
2013-10-18,1,0.0020678888723224807,0.0022488479377622537,0.0005436519332095238,0.01076540269448904,0.992424926641842
2013-10-22,1,0.002155225438297127,0.0023432718185141216,-0.0007852620283887919,0.01076540269448904,0.9918268017143953
2013-10-24,1,0.002425551488305937,0.0026293715391064324,-0.0007852620283887919,0.011041312928114782,0.9916844012192392
2013-10-28,1,0.002165182057174385,0.0023195900825360542,0.00010727123840823357,0.011041312928114782,0.991413523110992
2013-10-30,1,0.0019632025529138088,0.002088422172485467,0.00010727123840823357,0.01076540269448904,0.9926231112602172
2013-11-01,1,0.0011799516806242937,0.0012071564487315671,0.00010727123840823357,0.01076540269448904,0.9926806130834848
2013-11-05,1,0.0013956995339104758,0.001400382284894938,-0.0017958981990692999,0.008968523534359042,0.9922961254516806
2013-11-07,1,0.0008123885116236994,0.000870559193534073,-0.0010758703890319037,0.008968523534359042,0.9927600293248386
2013-11-11,1,0.0008664198041676529,0.0009762910153241338,-0.0017958981990692999,0.007911082175180785,0.9933407431000584
2013-11-13,1,0.0006792185510456808,0.0008456249588349651,-0.0034380048081744247,0.007911082175180785,0.9924019228175229
2013-11-15,1,0.0011655349898430794,0.0012842058217981114,-0.006243526906906419,0.005564196736244335,0.9930868487409713
2013-11-19,1,0.0008759671956896785,0.001006968961032057,-0.006243526906906419,0.007281492201014698,0.992779136266791
2013-11-21,1,0.001603336405160107,0.0016269739732265615,-0.007659815359507157,0.007281492201014698,0.9917147452896191
2013-11-25,1,0.0020389095030226346,0.0020883258619887484,-0.007659815359507157,0.007562166165189538,0.9914482769207528
2013-11-27,1,0.0017270674086764131,0.0017356194235932428,-0.007659815359507157,0.007562166165189538,0.9916693082370099
2013-12-02,1,0.0017779868472652936,0.0017931776688101557,-0.007659815359507157,0.007562166165189538,0.9920314780696897
2013-12-04,1,0.0010461083343418854,0.0011426834124169962,-0.007669423723575814,0.007562166165189538,0.9924013926746642
2013-12-06,1,0.0009042084851967399,0.0010338745953691975,-0.007669423723575814,0.007601367581741883,0.9922625031145892
2013-12-10,1,0.0004174113055127138,0.0005891611405796473,-0.0027692720468088646,0.007601367581741883,0.9927642979264755
2013-12-12,1,0.0002818446187683053,0.00046066617204505733,-0.0027692720468088646,0.004807899776342631,0.9934034878774891
2013-12-16,0,-9.003780954319339e-05,0.00013380651684877123,-0.0025331094013479193,0.007601367581741883,0.9927937405475907
2013-12-18,-1,-0.0007881498612198033,-0.00044658025323374736,-0.0016111548514676057,0.008277662098702183,0.9926567810756959
2013-12-20,-1,-0.0011966023125882725,-0.000811433100391326,-5.436129417671153e-05,0.008135116375607885,0.9933185748472533
2013-12-24,1,0.0006310771128245666,0.000706453228869046,-0.0016111548514676057,0.005655424012640411,0.9925575834919038
2013-12-27,1,0.000690705097011424,0.0007610043302639405,-0.0025331094013479193,0.005655424012640411,0.9916446150215679
2013-12-31,1,0.0008293740921401395,0.0008753398209374182,-0.00721035305648326,0.007921090771653995,0.9895926627238207
2014-01-03,1,0.00022578759943485486,0.0003398796785100979,-0.007719820488300562,0.007921090771653995,0.9881517154673852
2014-01-07,1,0.0004082484402241165,0.000506171213156413,-0.007719820488300562,0.007921090771653995,0.9876473500926869
2014-01-09,1,1.9324801861661197e-05,0.00019568296197175413,-0.015670039665793594,0.007921090771653995,0.9864363063797013
2014-01-13,0,-0.00010479322900732081,5.317829173877249e-05,-0.012831898112303761,0.010578696741671533,0.9859197423812404
2014-01-15,1,0.00015827167168141175,0.0002795848164945036,-0.012831898112303761,0.010729033870372318,0.9856528181445752
2014-01-17,1,0.0007453400089105851,0.0007984841262826819,-0.012831898112303761,0.011776124064211094,0.9849915269049869
2014-01-22,1,0.0008841714969131817,0.0009527831737202929,-0.012831898112303761,0.01777819423196222,0.9836566737177694
2014-01-24,-1,-0.0014061633284238638,-0.0010298904828429406,-0.010326143883507874,0.01777819423196222,0.9849083428565546
2014-01-28,-1,-0.0017285430974468658,-0.0013440696059956881,-0.008997535907575084,0.01777819423196222,0.9854935409604414
2014-01-30,-1,-0.001231700913315933,-0.0009318252806962963,-0.008272699388372537,0.011776124064211094,0.9876158021829703
2014-02-03,-1,-0.0022977242607844115,-0.0019111505119430887,-0.007425361994016109,0.01777819423196222,0.987369546807571
2014-02-05,-1,-0.0018175361799887136,-0.0014884066942955462,-0.008272699388372537,0.0147625263289376,0.987378915271077
2014-02-07,-1,-0.0028242814087624125,-0.0023945113222007403,-0.003678822774833167,0.0147625263289376,0.9881323758159749
2014-02-11,-1,-0.0011156603862703379,-0.0009304610777773876,-0.003678822774833167,0.011387545090863014,0.9895347874660142
2014-02-13,-1,-0.0006265397830214692,-0.0004644967777693399,-0.007425361994016109,0.0078118700761149774,0.9898705828313636
2014-02-18,1,0.0005622311417710988,0.0005916846075663795,-0.007425361994016109,0.006833386696727953,0.9908718378812
2014-02-20,1,0.0015883311729999296,0.0017088119545517145,-0.0074168100844889655,0.0056213198416709,0.9920708835473091
2014-02-24,1,0.000651006682028837,0.000676984468133756,-0.004665710042467495,0.0056213198416709,0.9920343371512077
2014-02-26,1,8.142007768239932e-05,0.00018435359342375675,-0.008603495203894546,0.0056213198416709,0.9896449102644355
2014-02-28,0,-3.579062295448217e-05,7.740662829056158e-05,-0.008603495203894546,0.005821114277924519,0.9894014304715514
2014-03-04,1,0.0007180993463826234,0.0008119179775688086,-0.008603495203894546,0.005821114277924519,0.9895004271417198
2014-03-06,1,0.0008295316716187302,0.0009067342187172041,-0.004665710042467495,0.005532273502349342,0.9904853205792122
2014-03-10,1,0.0009660985543909039,0.0010086825094010937,-0.01641140902977274,0.005532273502349342,0.9887745160743133
2014-03-12,1,0.0011651988568241536,0.0011972305370815722,-0.01641140902977274,0.006427720660346794,0.9883527973864793
2014-03-14,1,0.000502180546544894,0.0005810027022204965,-0.01641140902977274,0.006427720660346794,0.9880477114167695
2014-03-18,1,0.0008692013594714945,0.0008970986380142498,-0.01641140902977274,0.005078640529644152,0.9877849132943202
2014-03-20,1,0.0009880530145639707,0.0010078592825793317,-0.01641140902977274,0.006427720660346794,0.9874276210958046
2014-03-24,0,-4.3085871632823154e-05,6.26044701258327e-05,-0.010181521938247763,0.006427720660346794,0.988335817573847
2014-03-26,-1,-0.0026263574719509976,-0.0022132294185948443,-0.0065184065880694985,0.006427720660346794,0.9905371512750903
2014-03-28,-1,-0.002469847880427792,-0.0020629545357477063,-0.007014113915040376,0.006041425757895975,0.9904086540357234
2014-04-01,-1,-0.000685966865517807,-0.0005043813044633354,-0.009728221625764283,0.0028016404639378887,0.9912047349333994
2014-04-03,-1,-0.00124807007747946,-0.0009639457187091497,-0.009728221625764283,0.005437518126171746,0.9903896402067908
2014-04-07,-1,-0.0020052991365071982,-0.0016853413183257494,-0.0065184065880694985,0.005437518126171746,0.9916887415804908
2014-04-09,-1,-0.0009220808979699227,-0.0007551578130723559,-0.007014113915040376,0.004312072011688511,0.9909221941948209
2014-04-11,-1,-0.0015850584744092496,-0.0013903303919005918,-0.004680675298182263,0.005437518126171746,0.9899214150471995
2014-04-15,-1,-0.0022421628785267746,-0.0019521718659739156,-0.00803731570729672,0.005437518126171746,0.9889458763691426
2014-04-17,-1,-0.0008881556293322315,-0.0007937476582387712,-0.00803731570729672,0.004312072011688511,0.990135028315711
2014-04-22,-1,-0.00017415822408090509,-0.0001560952297062197,-0.012797827002533312,0.004195027456443065,0.9889486138124388
2014-04-24,-1,-0.00034281483340785563,-0.00034279638201818827,-0.012797827002533312,0.007741975217863079,0.9878438369524681
2014-04-28,-1,-0.0006332995138851182,-0.0006107311866571326,-0.004538842638090344,0.010807621554812923,0.9875953100429317
2014-04-30,-1,-0.002198760244989815,-0.0019608302555231944,-0.0014276814443282596,0.010807621554812923,0.9881599796890226
2014-05-02,-1,-0.0012663501186125725,-0.0011529087553519917,-0.003394868567144788,0.009550166035831538,0.9889516992891828
2014-05-06,-1,-0.0015123040780006054,-0.0013456005890063562,-0.003394868567144788,0.009550166035831538,0.9887886775057816
2014-05-08,-1,-0.0014036957663591553,-0.0012454127007157064,-0.0012296693148212943,0.010445088577041947,0.9894932118652288
2014-05-12,1,0.00035053845427035214,0.0003896585476279087,-0.002224281989111214,0.009513300950141423,0.9917874278689454
2014-05-14,-1,-0.0008619172020101648,-0.0007456446268194783,-0.0012296693148212943,0.009513300950141423,0.9923704568032767
2014-05-16,-1,-0.0009690619818573892,-0.0008228516851585144,-0.0016891391411911175,0.009513300950141423,0.9924043193639639
2014-05-20,-1,-0.0014145013971819198,-0.0012507853269717573,-0.0016891391411911175,0.010445088577041947,0.9927716447404226
2014-05-22,-1,-0.00013721679585515376,-0.00012932331270731098,-0.002787542106121025,0.009180677277427149,0.9940199993484952
2014-05-27,1,0.0007170311863865047,0.0008340208206095876,-0.0033915786286250744,0.00492592138852546,0.9943351214432095
2014-05-29,1,0.000514315700837872,0.000575673811047599,-0.0033915786286250744,0.00492592138852546,0.9942802641640222
2014-06-02,1,0.0005553841014284196,0.0006409775034876268,-0.002966134716756192,0.009513300950141423,0.9933887600407149
2014-06-04,1,0.0006771905503131813,0.0007826989521278233,-0.002966134716756192,0.010671880298472027,0.992729783359932
2014-06-06,1,0.001233735629233054,0.0013861513762068447,-0.0033915786286250744,0.010519233660206509,0.9926263169022885
2014-06-10,1,0.0015666589088863783,0.0017775989289307232,-0.004532022531269525,0.008305731863736659,0.9922803229962517
2014-06-12,1,0.0019176957501791502,0.0022137606174437866,-0.006011344134480873,0.008305731863736659,0.9920410594128787
2014-06-16,1,0.00223847744928825,0.002613052424316034,-0.006011344134480873,0.008305731863736659,0.9919649446765146
2014-06-18,1,0.0016184941614723045,0.0018118640331745107,-0.006011344134480873,0.006126486953486773,0.9924455368169313
2014-06-20,1,0.0008275496088292953,0.0008816051911727901,-0.005208563660962208,0.00827663648321288,0.9921691892565078
2014-06-24,1,0.0007877556846784553,0.000845062496367344,-0.0036994501101846582,0.008122307649432765,0.9925516108089557
2014-06-26,-1,-0.00013574310742815488,-2.32645133328626e-06,-0.005208563660962208,0.008211490000797558,0.9922218359553704
2014-06-30,1,0.001297088406584719,0.0013585319769960384,-0.005764204779978485,0.005560580413021599,0.993078463781056
2014-07-02,1,0.0010323354831328776,0.0010724966126962631,-0.006700730271029092,0.005363122473298778,0.9923499027046702
2014-07-07,1,0.0019804132050742587,0.0021153459867717123,-0.0072796221531240555,0.004550946654451905,0.9921600385229443
2014-07-09,1,0.0017020601493967797,0.0018513391684772344,-0.0072796221531240555,0.004550946654451905,0.9923967185375766
2014-07-11,1,0.0021052079000867174,0.0023805427765633373,-0.006700730271029092,0.004550946654451905,0.9926098454815168
2014-07-15,1,0.002733647519043226,0.0031470194531191707,-0.006700730271029092,0.004550946654451905,0.9922142835956723
2014-07-17,1,0.0022336644941795742,0.0025399180910997666,-0.005891978705814635,0.004677899132877405,0.9925933050597155
2014-07-21,1,0.0023321623001805697,0.0026289808717449804,-0.005891978705814635,0.004677899132877405,0.993032407654256
2014-07-23,1,0.0022812794295998225,0.002561882824313794,-0.005891978705814635,0.004599416025425885,0.9931174579601181
2014-07-25,1,0.0030629718053129026,0.003540688873958427,-0.002537418489590379,0.004599416025425885,0.9934499371934037
2014-07-29,1,0.0027774056038197686,0.0032232485556730524,0.00021356552327766141,0.005524837925946362,0.9937683878664039
2014-07-31,1,0.0018588673793829688,0.002183176990926076,-0.0022365441544380795,0.005524837925946362,0.9941171351725822
2014-08-04,1,0.0015409767166857402,0.0018505804946053182,0.00021356552327766141,0.007027034059640032,0.9946972569295403
2014-08-06,1,0.0007717218272261465,0.0009281674322539832,-0.00027363855476420445,0.007027034059640032,0.9949993112497425
2014-08-08,1,0.0008606531484485529,0.0010510664328926738,-0.0011445271020968763,0.007027034059640032,0.9951893428859135
2014-08-12,1,0.0013130179283343357,0.0015562753132931531,-0.0014016001465425405,0.007027034059640032,0.9952625280452613
2014-08-14,1,0.0012290251254930189,0.001408469790677945,-0.0017731702864531664,0.006159095597527157,0.9954296917796452
2014-08-18,1,0.00041662283854533415,0.0004788245765250385,-0.0019286852806552311,0.0052519525758755545,0.9954725209829215
2014-08-20,1,0.000657742553849854,0.0006780920037182884,-0.002263275468471861,0.006159095597527157,0.9926154753715186
2014-08-22,1,0.0016174888774290641,0.0018101415578957157,-0.005491733738673884,0.0037344736563335824,0.9913506349560786
2014-08-26,1,0.0019480883660564674,0.002178974932679061,-0.0059948157507912075,0.0037344736563335824,0.990664160233331
2014-08-28,1,0.00047464156038050506,0.0005106979146332111,-0.005634783964209216,0.004678748857276785,0.9912113017892579
2014-09-02,1,0.0013280998444181354,0.001438604261085964,-0.005634783964209216,0.0030051010036632308,0.9916046185648307
2014-09-04,1,0.000413525786622276,0.0004866786515256179,-0.007263737687382924,0.0033319865262737276,0.9905660008607999
2014-09-08,0,-0.00010071421634068724,5.974134171583329e-05,-0.010125581814895621,0.0033319865262737276,0.9901788813188124
2014-09-10,1,0.0006011666602360155,0.0006439843937691444,-0.011322841568093798,0.0030051010036632308,0.9891498555408292
2014-09-12,1,0.0007401073301621546,0.000753483028248914,-0.012393526233848387,0.0012331128129113393,0.9869616883195166
2014-09-16,1,0.0003080208471654231,0.0003886108894187169,-0.01400409475505664,0.00047896200661484917,0.9864863166284347
2014-09-18,1,0.001976007008832115,0.0020712441975699832,-0.01400409475505664,0.00047896200661484917,0.9880747556162053
2014-09-22,0,-4.971254418266013e-05,0.0001660070280114518,-0.01223310987352913,0.001957677448805488,0.9890300817567593
2014-09-24,0,-8.342062471131746e-05,0.000109211824411881,-0.011322841568093798,0.004646956724338983,0.9884538752474191
2014-09-26,-1,-0.0005655110604631672,-0.00031269524056475094,-0.010125581814895621,0.006883179077333653,0.9882354380138465
2014-09-30,-1,-0.0005864329547695718,-0.00033340979849462687,-0.010125581814895621,0.008527163934125948,0.9874719779439057
2014-10-02,1,0.0008972512426771912,0.000907133768546414,-0.009132288727819127,0.007194010263291519,0.9886073463167808
2014-10-06,-1,-0.0004240395601523546,-0.00022192694377547455,-0.006114238458856057,0.007194010263291519,0.9890458575002186
2014-10-08,-1,-0.0016588018225471614,-0.0013129909892241674,-0.0048410890629186866,0.008178278525891206,0.9894906494288358
2014-10-10,-1,-0.004194571428605314,-0.003508656068851178,-0.002119388449456185,0.008465147438791181,0.9900215141387227
2014-10-14,-1,-0.004455504587809137,-0.003794132716077489,0.001049446129212909,0.008970160427901299,0.9892725813884125
2014-10-16,-1,-0.00424614127131347,-0.0036489971195341427,6.179435643928802e-05,0.008970160427901299,0.9897588189047964
2014-10-20,-1,-0.00285145070647777,-0.0024199488485522843,-0.002119388449456185,0.008465147438791181,0.991676734885793
2014-10-22,-1,-0.0016452833068421172,-0.0013468076496821046,-0.003505211430538506,0.008465147438791181,0.9922680956445914
2014-10-24,-1,-0.0008196044863691942,-0.0006204850343314206,-0.0038593554212718985,0.008465147438791181,0.9926273175383917
2014-10-28,1,0.0003147241130389286,0.0003404048582370527,-0.004510496224341163,0.008455251751447145,0.9926872947558552
2014-10-30,1,0.000282735325527832,0.0003014743158597109,-0.0038593554212718985,0.008455251751447145,0.9928355451545261
2014-11-03,1,0.00014181827920247667,0.0001761916467345443,-0.00468676332227648,0.008455251751447145,0.9920803879157283
2014-11-05,1,0.0006107654084974679,0.0006320337494287532,-0.00468676332227648,0.005940925290913826,0.9926717563843442
2014-11-07,1,0.0009501330998593012,0.0010309976357599335,-0.004952656457802131,0.0057676060977301935,0.9925415827069247
2014-11-11,1,0.0012017278109661593,0.001287110775718538,-0.0065428538792996135,0.0037722750232064995,0.991818970405412
2014-11-13,1,0.000689238848779407,0.0006988363472827747,-0.008189790022663056,0.005161609396489212,0.9912033995210143
2014-11-17,1,0.00017566479118742272,0.00022791506051158354,-0.005457677561742875,0.005161609396489212,0.9920582541270336
2014-11-19,1,0.001617167508861976,0.001811194601754373,-0.005457677561742875,0.0061484891842706205,0.9918848549070372
2014-11-21,1,0.0018988578289418552,0.0021589297945718055,-0.003928948789585259,0.005838599953385917,0.9923403817372604
2014-11-25,1,0.002099718117881977,0.002410318003883038,-0.002954958812252154,0.0054346003169311475,0.9929250750320868
2014-11-28,1,0.0016488291160013965,0.0018636656435189487,-0.0031756195552625852,0.0054346003169311475,0.9927917295981211
2014-12-02,1,0.0011994145367070137,0.001342396350960297,-0.0031756195552625852,0.0054346003169311475,0.9929986634880957
2014-12-04,1,0.0012779853882376254,0.001443452095107121,-0.00473585600899735,0.0054346003169311475,0.9923862326034566
2014-12-08,1,0.001316461140864189,0.0014800460777501297,-0.003320544545643384,0.005838599953385917,0.9905872981166642
2014-12-10,1,0.0006214742621186483,0.0007117052755496391,-0.00101148836669839,0.013888668661833635,0.9896930249797152
2014-12-12,1,9.574811107786574e-05,0.00012233667275554785,-0.000704633379722175,0.015593574681792274,0.988835003005405
2014-12-16,1,4.451824551284244e-05,6.344468822253567e-05,-0.0023769157603902675,0.015593574681792274,0.9878455158869278
2014-12-18,1,0.0009853535330209841,0.001110062900386562,-0.005496837615592672,0.016464078713231953,0.9881977625381363
2014-12-22,1,0.0008578880523020726,0.0009140053240461679,-0.005496837615592672,0.016682328765659248,0.9877969752823167
2014-12-24,1,0.0006956133973433954,0.0006963271490036927,-0.005496837615592672,0.016682328765659248,0.9875801575065125
2014-12-29,1,0.00012683298643418483,0.0002125779191757655,-0.006521412791881802,0.016682328765659248,0.9873547563031035
2014-12-31,-1,-0.0005675374744905199,-0.00039267372149291263,-0.006521412791881802,0.016682328765659248,0.9870301963514717
2015-01-05,-1,-0.0005090979287218462,-0.000362863130317018,-0.005331061376911879,0.016682328765659248,0.9867787843464328
2015-01-07,1,0.0014442060771541945,0.0015567483736058426,-0.005331061376911879,0.01215020360550627,0.9888852975864689
2015-01-09,1,0.0030140957204002478,0.003353269006317391,-0.005331061376911879,0.01035493783644417,0.9901231177839414
2015-01-13,1,0.004275462620850654,0.004782955493562965,-0.006521412791881802,0.009670511137138935,0.9916376739656709
2015-01-15,1,0.003537038883328415,0.003956062420827049,-0.003306523251084879,0.010264575521326074,0.9924709150931122
2015-01-20,1,0.004076886299252474,0.004584139417794637,-0.0025053654342075456,0.009670511137138935,0.9936625392695749
2015-01-22,1,0.003975051781592588,0.004425138573214349,-0.0010820199423533427,0.008871946119215494,0.9942730091174596
2015-01-26,1,0.004174845458734057,0.004675426181557842,-0.0016297108570690574,0.008871946119215494,0.9939730855609017
2015-01-28,1,0.0035557326256359925,0.003961569262976403,-0.0021473035851613956,0.008871946119215494,0.9938302497446302
2015-01-30,1,0.003305222469546467,0.0036652082406889016,-0.0021473035851613956,0.008871946119215494,0.9931057852632604
2015-02-03,1,0.003911050825174966,0.004359441135741585,-0.007074376256783601,0.007127050551846913,0.9925424069576917
2015-02-05,1,0.004193068386991471,0.00467315875446368,-0.0072495474282736165,0.005077931298548725,0.9910058268151012
2015-02-09,1,0.004753114275344627,0.0052925567229488235,-0.007386095461463315,0.00291354795702152,0.9902831205820708
2015-02-11,1,0.005367824159090781,0.006087200398911512,-0.007386095461463315,0.005077931298548725,0.9891640919329178
2015-02-13,1,0.005022502986654327,0.0056324449542474,-0.007689932132428266,0.005077931298548725,0.9884774673329498
2015-02-18,1,0.0047737237516629685,0.005329961193744094,-0.007689932132428266,0.008482589633315775,0.9888205628021849
2015-02-20,1,0.00487346000059522,0.00541783689885039,-0.007689932132428266,0.011169483462202505,0.98803523111754
2015-02-24,1,0.004459488949951315,0.004942408897651155,-0.007689932132428266,0.011169483462202505,0.9882395730843659
2015-02-26,1,0.0039092460675448385,0.004338199408008724,-0.0076948931032959165,0.011169483462202505,0.9886790687632108
2015-03-02,1,0.003895633325095164,0.004291062749756629,-0.006908780374902671,0.011169483462202505,0.9892269078276463
2015-03-04,1,0.0026988306041426397,0.002871468576361921,-0.004964580445857292,0.011169483462202505,0.9895606402323209
2015-03-06,1,0.0007074143135091217,0.0008717803041725287,-0.00410996447792054,0.012001110396013114,0.9897921607555146
2015-03-10,-1,-0.000536891509540905,-0.000178701778701901,-0.00410996447792054,0.012001110396013114,0.989456741169248
2015-03-12,1,0.0005812725829864089,0.0008310260882286744,-0.004964580445857292,0.008850007151051586,0.9907929475226469
2015-03-16,1,0.0014395022279715226,0.0015463762363943688,-0.004458002998402495,0.008850007151051586,0.991341494388
2015-03-18,1,0.002241462381273582,0.0022835060091117515,-0.004458002998402495,0.008565456796442567,0.9916212271293469
2015-03-20,1,0.0028949432224554374,0.003050417555049623,-0.004731676977540103,0.008264046532768939,0.9921428578682016
2015-03-24,1,0.002942317896783167,0.0031285602927587715,-0.004458002998402495,0.008565456796442567,0.9922368497340751
2015-03-26,1,0.0026933204599792417,0.0028294917670704752,-0.00410996447792054,0.009210708562598929,0.9923975349135806
2015-03-30,1,0.0029886427492929416,0.003147662450119813,-0.0029528348544198683,0.008147446130689679,0.9935195769423382
2015-04-01,1,0.003014621695124206,0.003192914599445237,-0.004731676977540103,0.008147446130689679,0.9923864386220308
2015-04-06,1,0.0033331609556069364,0.0035632773924501506,-0.004731676977540103,0.008147446130689679,0.9920000998407112
2015-04-08,1,0.0031972991426382734,0.003430300098629128,-0.005110024112317982,0.004597748327033208,0.992056625402548
2015-04-10,1,0.0021977393789195357,0.002269102425902499,-0.004731676977540103,0.007932855509808979,0.9932248030715839
2015-04-14,1,0.0020169560320867997,0.0020341513505886463,-0.005110024112317982,0.004597748327033208,0.9932691757311782
2015-04-16,1,0.002230239892967244,0.0023165599254153933,-0.005110024112317982,0.007932855509808979,0.9927377684293551
2015-04-20,1,0.0019308604267236176,0.001969754626346675,-0.004571816824952054,0.008725655759480885,0.992248937177155
2015-04-22,1,0.002069595366429073,0.0021155513074237143,-0.005454900304660643,0.007932855509808979,0.9923759679178514
2015-04-24,1,0.0023596094785293216,0.0024277842911227163,-0.005454900304660643,0.006795109309856635,0.9926009785679667
2015-04-28,1,0.0020268888735966153,0.002031433036828427,-0.006413285537924695,0.006795109309856635,0.9920823312008299
2015-04-30,1,0.0007265210660200615,0.0008921471261227507,-0.006413285537924695,0.006795109309856635,0.9933465925318471
2015-05-04,1,0.0012130716040189226,0.001325052420834959,-0.006413285537924695,0.003335146177749341,0.994047202715417
2015-05-06,0,-0.00017024537373398112,0.00015883580705535881,-0.005108303227199851,0.005245242991803967,0.9945455343658124
2015-05-08,-1,-0.0004760593162563883,-6.538444158435126e-05,-0.0069445393445640245,0.0024149028848033417,0.9946514668773194
2015-05-12,-1,-0.0013121263288911438,-0.0007903552574659984,-0.0043006940715798305,0.004746799040415043,0.99493805708689
2015-05-14,0,-0.0002145025890779317,0.00013018149299278304,-0.0043006940715798305,0.002342879617042149,0.995543296224065
2015-05-18,1,0.00030094494684588776,0.0005733354447419953,-0.0069445393445640245,0.002342879617042149,0.9954375603431593
2015-05-20,0,-0.00014269391952630183,0.00018135045539510839,-0.0043006940715798305,0.0033193262211998003,0.9957136355779458
2015-05-22,-1,-0.0004398320252862458,-6.049216941277492e-05,-0.0043006940715798305,0.002304290209488538,0.995983188036748
2015-05-27,-1,-0.0015033604618775278,-0.0009641980681464005,-0.002348456931756627,0.0033193262211998003,0.995360616535688
2015-05-29,-1,-0.0023371002368570678,-0.001678173759036729,-0.0018446532920702325,0.0045826566656203774,0.9948190383459785
2015-06-02,-1,-0.0013337181798252246,-0.000892319049977316,-0.003390401755592105,0.0045826566656203774,0.9937773173491904
2015-06-04,-1,-0.0007116526392726553,-0.0004164477327168284,-0.003097066682984514,0.0045826566656203774,0.9936935984126354
2015-06-08,-1,-0.000449761016181967,-0.00023704577306361016,-0.0018446532920702325,0.005238353544723494,0.9933836094861789
2015-06-10,-1,-0.0008443343032427264,-0.0005508666869359714,-0.002305539573722147,0.007053322985737998,0.9922789771365096
2015-06-12,-1,-0.0005834541495155012,-0.00034406861030280265,-0.002305539573722147,0.00806879042590498,0.9910542028107049
2015-06-16,-1,-0.000587742926881537,-0.00036300477263573533,-0.0016034151348142248,0.007281546069837637,0.991394197174061
2015-06-18,-1,-0.0005232681807556533,-0.00030615250401621,-0.002305539573722147,0.00924584153197989,0.990423670596738
2015-06-22,-1,-0.0009121805118295117,-0.0006237319747799389,-0.002305539573722147,0.00924584153197989,0.990230631505079
2015-06-24,-1,-0.0004964599960394206,-0.00024227713209987818,-0.0014416290812591802,0.007281546069837637,0.9911759965593508
2015-06-26,1,0.00010310168583006264,0.0002596747756785037,-0.0031209306372743193,0.0065148704165452495,0.9907401023513888
2015-06-30,-1,-0.0010322574504756147,-0.0007631185287248296,0.0004508214611341441,0.00924584153197989,0.9910835062881195
2015-07-02,-1,-0.0003419463999398976,-0.00019190209575282432,0.0013139777793531081,0.009785185038797016,0.9910883296113692
2015-07-07,0,-5.4981581037773025e-05,7.484164006078267e-05,-0.0015084103935834657,0.0065148704165452495,0.991091635441482
2015-07-09,-1,-0.0003113779953657803,-0.00016777547983370012,-0.0015084103935834657,0.006715989511327419,0.991120608306529
2015-07-13,1,0.0007247237475960277,0.0007480906343149839,-0.003581020981853714,0.006478422154789553,0.9922454739005132
2015-07-15,1,0.001185498734206677,0.001239614180947158,-0.008714719006537152,0.006014427842740155,0.9905341716058993
2015-07-17,1,0.001536574712701272,0.0016190997518121236,-0.008724413797438388,0.006014427842740155,0.9908462197755157
2015-07-21,1,0.001259945130509047,0.0012707517972908762,-0.008724413797438388,0.006482383729600879,0.9908000682672611
2015-07-23,1,0.0014485755433545908,0.001506478078975416,-0.0108532645905633,0.006482383729600879,0.989494527426404
2015-07-27,1,0.0006583868966557297,0.0007450434319417028,-0.016734560234872756,0.006482383729600879,0.9870063248406408
2015-07-29,1,0.00043340771269501105,0.0005391063176347379,-0.016734560234872756,0.006482383729600879,0.9855570169760528
2015-07-31,1,0.0005789298167174535,0.0006980234411018117,-0.016734560234872756,0.008356275646972923,0.9848034549325264
2015-08-04,1,0.0006494611291295128,0.0007015121829701882,-0.022605641796356008,0.008356275646972923,0.9827734166350679
2015-08-06,0,-2.3108120310188173e-05,6.58904595088056e-05,-0.022605641796356008,0.008356275646972923,0.982946115570583
2015-08-10,1,0.00046131841308036533,0.0004663362354282273,-0.022605641796356008,0.008885748140636165,0.9807315706700789
2015-08-12,-1,-0.0006625249078969905,-0.0005473360025366899,-0.018233544703131984,0.011247697392004085,0.9818202304600399
2015-08-14,-1,-0.0006847455481136742,-0.0005608666547013634,-0.01991929913871641,0.00940788892680617,0.9817069416696774
2015-08-18,-1,-0.0007711771847181818,-0.0006338388326118112,-0.01991929913871641,0.013286450675671356,0.9812709954133452
2015-08-20,-1,-0.0013645913134158485,-0.0011753801979686334,-0.017488319226581926,0.013286450675671356,0.982029241193463
2015-08-24,-1,-0.0036004396420617722,-0.0031592416676275437,-0.013655687739426985,0.016705511145254662,0.9833696386914028
2015-08-26,-1,-0.0013988871582443882,-0.0012139717569730024,-0.014138910974124695,0.013286450675671356,0.984660853727599
2015-08-28,-1,-0.0005440362782826555,-0.0004539631529105847,-0.01571179847558172,0.013124722676132813,0.9837165119787756
2015-09-01,-1,-0.002425749951304351,-0.002090390806927366,-0.013655687739426985,0.014218259452527493,0.9849577868810285
2015-09-03,-1,-0.001846189551610754,-0.0015872753340580746,-0.014138910974124695,0.013124722676132813,0.984500922361738
2015-09-08,-1,-0.0012244346745222258,-0.0010406771569328,-0.013655687739426985,0.011654953672275134,0.9861393525497064
2015-09-10,-1,-0.0013102745308620552,-0.0011110920273083125,-0.01234471754129254,0.011479913229096715,0.9862250040437754
2015-09-14,-1,-0.0015972766871333388,-0.0013787876095837201,-0.01081984610910343,0.011479913229096715,0.9866440620537331
2015-09-16,-1,-0.0008990384850947782,-0.0007869939097980509,-0.01234471754129254,0.010841286073038157,0.9865526690175157
2015-09-18,-1,-0.0010687357878670263,-0.0009415993691633795,-0.01234471754129254,0.01118003864383091,0.9861550336573951
2015-09-22,-1,-0.0011296931835294527,-0.0009585320380192379,-0.01081984610910343,0.01081177729447219,0.9875277495950546
2015-09-24,-1,-0.0010158255732312278,-0.0008849882241868032,-0.00803566175734011,0.01081177729447219,0.9877823349907026
2015-09-28,-1,-0.0019402160406491859,-0.0016814363936417576,-0.006021824311089993,0.01118003864383091,0.9886434915898988
2015-09-30,-1,-0.0014856390411519147,-0.0012947004012593042,-0.006021824311089993,0.01118003864383091,0.9881943615886285
2015-10-02,-1,-0.0021712120003676326,-0.0018836730538887144,-0.0005291733302101903,0.011869321817900451,0.9865253175295415
2015-10-06,-1,-0.0018541244981937774,-0.001631773806703968,-0.0005291733302101903,0.013009421689976857,0.9841851966057114
2015-10-08,-1,-0.0008324942793166251,-0.0007536984489346703,-0.008089308926779854,0.012764785530076882,0.9847323835353748
2015-10-12,-1,-0.0006223511767352114,-0.0005599095655179435,-0.01189034620638844,0.012764785530076882,0.9838378952522153
2015-10-14,-1,-0.0011682008405026363,-0.001050070155981196,-0.010967358209602186,0.012764785530076882,0.9840588324266527
2015-10-16,-1,-0.0008253417829917082,-0.0007314762382715791,-0.010967358209602186,0.012764785530076882,0.9843249246699138
2015-10-20,-1,-0.0006398747362410953,-0.0005527433633348317,-0.010967358209602186,0.018435660020346037,0.9827626497668622
2015-10-22,-1,-0.000494481816792713,-0.00042780932116235997,-0.010967358209602186,0.018435660020346037,0.9834039052540898
2015-10-26,1,0.0003001407917293806,0.00032450559494695905,-0.010967358209602186,0.018435660020346037,0.9846500619899072
2015-10-28,1,0.0002721590008633055,0.0002746899097982713,-0.008960782789406586,0.012835580832145276,0.9863378438616422
2015-10-30,1,0.002048260236808064,0.002292444963798543,-0.008960782789406586,0.008364244532180314,0.9883124216756871
2015-11-03,1,0.0033511780111304314,0.0037675956944887975,-0.007892597726963995,0.006719989966885431,0.9910681621958563
2015-11-05,1,0.002538404933712433,0.002837532318759858,-0.007136574740681842,0.008364244532180314,0.9906308976421832
2015-11-09,1,0.001642677798576013,0.0018267043670248963,-0.003751233480038655,0.008364244532180314,0.9912629388458657
2015-11-11,1,0.0019139976340874386,0.002131669120270635,-0.007136574740681842,0.007739830249808163,0.9906705566553204
2015-11-13,1,0.0016407215527616354,0.0018510400224218924,-0.003751233480038655,0.008364244532180314,0.9902657419327022
2015-11-17,1,0.0030244062287027784,0.003432590650230761,-0.003751233480038655,0.008364244532180314,0.9911613188486367
2015-11-19,1,0.002503797157393067,0.002777232134313989,-0.007268150547268375,0.008987988373217775,0.9904688817231596
2015-11-23,1,0.0025654315755083094,0.0028558371381662874,-0.007268150547268375,0.008987988373217775,0.9900657570949878
2015-11-25,1,0.0028594513205628526,0.003209683774457152,-0.007268150547268375,0.009032287987317507,0.9902523593616557
2015-11-30,1,0.0026631484432437964,0.002962889401697966,-0.006544564916627222,0.00890173591089464,0.9907242606091594
2015-12-02,1,0.0031426625778474336,0.0035567672111154625,-0.006816239589299397,0.00890173591089464,0.990392564289312
2015-12-04,1,0.003826245314163364,0.0043456948626729,-0.006816239589299397,0.007947744863487318,0.9910660546360878
2015-12-08,1,0.00346223492425535,0.003963893447235121,-0.007861985911093473,0.007947744863487318,0.9909006564575142
2015-12-10,1,0.003220649866239134,0.0036951087262284106,-0.007861985911093473,0.007851243561692638,0.9907135289618105
2015-12-14,1,0.003096641305265587,0.003559361919664256,-0.007861985911093473,0.007851243561692638,0.9903331070724396
2015-12-16,1,0.0036369106285264905,0.004146961588286679,-0.008129738178005236,0.006342388858058809,0.9905299768962638
2015-12-18,1,0.0038946094873754953,0.004468070594281626,-0.013124302184031295,0.004229413398311539,0.9893765381960182
2015-12-22,1,0.004038939017597457,0.004660411011906578,-0.013124302184031295,0.004279791647329793,0.9889656521960057
2015-12-24,1,0.004001163503148241,0.004583403782285063,-0.013124302184031295,0.002489986421040956,0.9881827063545225
2015-12-29,1,0.004017073723325816,0.004586688882407573,-0.013124302184031295,0.002489986421040956,0.9883150746422075
2015-12-31,1,0.0037029350754895175,0.004234831313500531,-0.014580698656464892,0.003940219732558745,0.9869403490358248
2016-01-05,1,0.0025357206725568657,0.0028352231295339413,-0.014079780177875006,0.002489986421040956,0.9874975049295384
2016-01-07,1,0.0018436629999216683,0.0020507543052427353,-0.014079780177875006,0.003940219732558745,0.9875614618039967
2016-01-11,1,0.0013274334739341634,0.0014720070483596678,-0.014512889358452711,0.006000098919138701,0.9856680655104801
2016-01-13,1,0.000694727480140861,0.0007040622702164473,-0.013068687612903224,0.006000098919138701,0.9861808445062096
2016-01-15,-1,-0.001148604499987282,-0.0008023170866133915,-0.013068687612903224,0.01573909339114971,0.9845450460234019
2016-01-20,-1,-0.0016686549489306037,-0.0013172520422184571,-0.010490975366315287,0.020094096111852124,0.9842589261570512
2016-01-22,-1,-0.00018982170059688922,-6.350447948170069e-05,-0.010490975366315287,0.018323509748324425,0.984068044725084
2016-01-26,-1,-0.002168163894054315,-0.001697882784448659,-0.012139726786564976,0.018323509748324425,0.9835349988521735
2016-01-28,-1,-0.0016229900035553545,-0.001245504349343681,-0.012139726786564976,0.018323509748324425,0.9832955957731094
2016-02-01,-1,-0.0006147198040752841,-0.00038632006179684336,-0.012139726786564976,0.016123903922321863,0.9838273015783546
2016-02-03,-1,-0.0015866444789865756,-0.001240194785785124,-0.010923083758480966,0.016123903922321863,0.9838039241665044
2016-02-05,-1,-0.0026858653719279675,-0.002176691146793748,-0.009603876540945085,0.016123903922321863,0.9844300370376908
2016-02-09,-1,-0.002545287878340498,-0.002075244653256685,-0.009603876540945085,0.014716598201626168,0.9860949074607671
2016-02-11,-1,-0.002764965575960616,-0.0022483491440713948,-0.00862065493257146,0.014412824037267846,0.9864919639667497
2016-02-16,-1,-0.0006110584682809357,-0.0003658920365889419,-0.00862065493257146,0.011517534835978569,0.9889778389614364
2016-02-18,1,0.00020311835684190104,0.0003775203349047772,-0.00862065493257146,0.010053608809337018,0.9897552533690982
2016-02-22,1,0.0006323489333331142,0.0008151538377782272,-0.00862065493257146,0.0074069446960874415,0.9904663999576391
2016-02-24,0,-0.0002185840720750024,5.779052738270386e-05,-0.007611213823031159,0.0074069446960874415,0.9912440694279613
2016-02-26,0,-0.0002774120448645484,3.505035311831433e-05,-0.00862065493257146,0.007204107400874509,0.9910618812870877
2016-03-01,-1,-0.0010460075496943255,-0.0006332643111289088,-0.007611213823031159,0.007204107400874509,0.9916875254637711
2016-03-03,-1,-0.0015675452688190294,-0.0011304168215984308,-0.0017486213366144198,0.009108759006233591,0.9912517466068291
2016-03-07,-1,-0.0016367613608075733,-0.001201776559612706,-0.005502856529510962,0.009108759006233591,0.9915734676395277
2016-03-09,-1,-0.0026477393177724634,-0.002046569729488919,-0.005502856529510962,0.009108759006233591,0.9911830517093109
2016-03-11,-1,-0.0023469918683920923,-0.0018081569919166582,-0.0044375792949429916,0.007592288670837884,0.9919368723977124
2016-03-15,-1,-0.0024310674995577665,-0.0019003597521978018,-0.003869856104900177,0.008584178866597859,0.9913970764855276
2016-03-17,-1,-0.0020068477856404685,-0.0015263672640420944,-0.003869856104900177,0.008584178866597859,0.9918050404194001
2016-03-21,-1,-0.000880808335139567,-0.0005773736866549694,-0.003869856104900177,0.008584178866597859,0.992093325447023
2016-03-23,-1,-0.0008300392702535982,-0.000536801823145826,-0.004978140468788141,0.008584178866597859,0.9919110855882048
2016-03-28,1,0.0004069891458084124,0.00043662761363764214,-0.004281992907047386,0.007485041056030285,0.992844242515963
2016-03-30,1,0.002232232695192969,0.0025436764169586047,-0.004281992907047386,0.007456347509858781,0.99393155279319
2016-04-01,1,0.002382454481993506,0.002660744261906073,-0.004978140468788141,0.005940737207231234,0.9935595687585528
2016-04-05,1,0.0012806059884402422,0.0013412816614757294,-0.004281992907047386,0.005940737207231234,0.9931903381187941
2016-04-07,1,0.0013642760483110685,0.0014570957865874987,-0.003869856104900177,0.004557227068597231,0.9945528032255136
2016-04-11,1,0.0006234964974520462,0.0006624801196555534,-0.0009647938965474017,0.007905988912468218,0.9939625695339525
2016-04-13,1,0.0018095768442996545,0.00201536233111795,-0.002620286601132517,0.007905988912468218,0.9936382911318206
2016-04-15,1,0.002056425372064197,0.0022984782320941036,-0.005886009028841073,0.007905988912468218,0.992674869888316
2016-04-19,1,0.0025810351783487426,0.0028915373556026133,-0.006716312290135654,0.005788681155685892,0.9925574908047216
2016-04-21,1,0.0022416756076370434,0.002517238648079372,-0.006716312290135654,0.006669403969773823,0.9931134652325783
2016-04-25,1,0.0022815818353796027,0.002564143509638339,-0.006716312290135654,0.007905988912468218,0.9928707290397853
2016-04-27,1,0.0027527606539414374,0.0031020156987551385,-0.006716312290135654,0.007973775844307111,0.9913589102458676
2016-04-29,1,0.00286822434601721,0.0032744171539030695,-0.005020524086824869,0.008139785346748791,0.9918607337756138
2016-05-03,1,0.001940446488204112,0.002180186721772252,-0.005020524086824869,0.008139785346748791,0.991801097081473
2016-05-05,1,0.0016931073926709792,0.0018812127728687982,-0.006716312290135654,0.008139785346748791,0.9908338276702454
2016-05-09,1,0.0022452025436732518,0.002492819046604578,-0.006716312290135654,0.00641136490838152,0.9914271929555224
2016-05-11,1,0.002718352264033248,0.003080318612757881,-0.005020524086824869,0.006021009349895052,0.9924333221025677
2016-05-13,1,0.001961628179457324,0.0022219907162061977,-0.005020524086824869,0.006021009349895052,0.9919736527018232
2016-05-17,1,0.0016431091049764093,0.0018599401729416049,-0.006385665276225073,0.006021009349895052,0.9913625588392707
2016-05-19,1,0.0021620364194513825,0.0024690147474884794,-0.008823944707418612,0.00463965263579005,0.9910230500189606
2016-05-23,1,0.0026593624096078266,0.0030437897013285815,-0.008823944707418612,0.004700657948424253,0.9907675837958813
2016-05-25,1,0.003383335563981082,0.0038395206300370554,-0.008823944707418612,0.004700657948424253,0.9912138799970835
2016-05-27,1,0.002950542459152293,0.003319988718376161,-0.014405724520299328,0.0035046954451923686,0.9885478010200971
2016-06-01,1,0.0022537841009284865,0.0024839778056093727,-0.013150080409256831,0.004899756847246885,0.98793082946804
2016-06-03,1,0.0012106153239847101,0.0012619647737637583,-0.008823944707418612,0.008027639318732788,0.9876421074231134
2016-06-07,1,0.0012949078804847607,0.0013445153577022972,-0.008823944707418612,0.011191607527705993,0.9873609479443493
2016-06-09,1,0.0012000169766231289,0.001218920340479983,-0.008823944707418612,0.012145663844121309,0.9864377364977704
2016-06-13,-1,-0.0005564079830311694,-0.0003171008487911053,-0.002585828817484271,0.013286033028015816,0.9870391286353001
2016-06-15,-1,-0.0009187611691825401,-0.0006688829696640883,-0.001148251181769682,0.013286033028015816,0.987387998206512
2016-06-17,-1,-0.0016087161596849615,-0.0012528194486410608,-0.0020783143859127015,0.013286033028015816,0.987299549946089
2016-06-21,-1,-0.0010510111605970913,-0.0007666803113011264,-0.0020783143859127015,0.013286033028015816,0.9874324579750915
2016-06-23,1,2.790925009227979e-05,0.00016023834729689875,-0.0020783143859127015,0.01139204394295714,0.9885042648776773
2016-06-27,-1,-0.0027227720411629516,-0.002231008612826769,-0.0009333080846847594,0.01139204394295714,0.9899148505438281
2016-06-29,-1,-0.0016339993253330696,-0.0012486188082351337,-0.0009333080846847594,0.010754884160859237,0.9919415016464692
2016-07-01,-1,-0.0008926839335653155,-0.0006016991342700397,-0.0007587766523448693,0.010754884160859237,0.9931196641486332
2016-07-06,-1,-0.0007757564667171979,-0.00048599353790567334,-0.0007587766523448693,0.010065183233772246,0.9929766146056523
2016-07-08,1,0.0007639845363721655,0.0008005153440191542,-0.0007587766523448693,0.007862256843459928,0.9933704534806944
2016-07-12,1,0.0016578812281892031,0.0017832591741169068,-0.000811031275569836,0.0071326474244547316,0.9941550898033925
2016-07-14,1,0.002193705801240519,0.0024383897498549646,-0.0011945108231459054,0.0071326474244547316,0.9941861273593742
2016-07-18,1,0.0016351632494125462,0.0017701912399448112,-0.0005281874406887857,0.007862256843459928,0.9940692062888663
2016-07-20,1,0.0021622859187167697,0.0023870957185269564,-0.000811031275569836,0.005961070941961678,0.9940690284930868
2016-07-22,1,0.001967880017258261,0.0021412029025583063,-0.0005281874406887857,0.005307928337044692,0.9943696513195345
2016-07-26,1,0.0017357129804754959,0.0018410349826868174,-0.0005281874406887857,0.004206144943454842,0.9945762314412713
2016-07-28,1,0.001946814437201831,0.002072145176298832,0.00023225284891075624,0.004842222277988031,0.9950313230731106
2016-08-01,1,0.0020398662005748874,0.0021582334731947194,0.0006314850598120648,0.004842222277988031,0.9953206939132345
2016-08-03,1,0.0016102790286675204,0.0016665579442370914,0.001129857149872029,0.004842222277988031,0.9960406646593525
2016-08-05,1,0.0019514088937233423,0.0020382143965735336,0.0006314850598120648,0.00336227311437773,0.9963738051943916
2016-08-09,1,0.0017948325865743244,0.0018738059414768551,0.0006314850598120648,0.004327381312015711,0.9961106348855296
2016-08-11,1,0.001875068328340462,0.001982533795767718,-0.001842659128021599,0.004327381312015711,0.9937544474434693
2016-08-15,1,0.00225175767159213,0.0024038197123238013,-0.009502519112942486,0.004327381312015711,0.9930172983187509
2016-08-17,1,0.0018534690847725726,0.0019408794230318823,-0.003860332837917143,0.005205931383670637,0.9929034423229544
2016-08-19,1,0.002148945546054067,0.0023129967148021965,-0.00672555910591942,0.005205931383670637,0.9923998726874581
2016-08-23,1,0.002377474146509145,0.002601005879593903,-0.00672555910591942,0.005496659585546561,0.9919063586351565
2016-08-25,1,0.002391686894883018,0.0025917164163770153,-0.00672555910591942,0.004993465093124825,0.9917722595399892
2016-08-29,1,0.0026084847409848103,0.002827833542092889,-0.009726114370272116,0.003584301041414101,0.9911877290224211
2016-08-31,1,0.002413732901039869,0.002586457055198487,-0.010618518670574343,0.003584301041414101,0.9900341147740094
2016-09-02,1,0.0022397599314864115,0.002405293768572102,-0.010618518670574343,0.004952700571515008,0.9902191075409726
2016-09-07,1,0.0020427997839884728,0.0021891775422097763,-0.007062751491523018,0.0029483090771283355,0.990666785159883
2016-09-09,1,0.0007793029290309268,0.0007845536460676175,-0.0056064755672428565,0.0029483090771283355,0.9932257956010992
2016-09-13,1,0.0005130894920574221,0.000556415821894191,-0.0056064755672428565,0.002654044177048065,0.9927904417263291
2016-09-15,1,0.0007678504557164312,0.0007786405898303997,-0.0056064755672428565,0.002654044177048065,0.9923603814897841
2016-09-19,1,0.0006714548645227218,0.0006778752498311141,-0.005225571704260851,0.004044537642154322,0.9922551598218068
2016-09-21,1,0.000971329008824544,0.000989150575560973,-0.005225571704260851,0.001295764242907065,0.9928453408813716
2016-09-23,1,0.0004849064651630692,0.0005498276531684495,-0.005617523803391325,0.002654044177048065,0.9927190341562634
2016-09-27,0,-5.682214536303199e-05,7.836372996632688e-05,-0.005225571704260851,0.003777721712569475,0.9932664843197644
2016-09-29,-1,-0.0004226618022557701,-0.0002746344773334589,-0.005225571704260851,0.003777721712569475,0.9921782897863832
2016-10-03,-1,-0.0005210564697058566,-0.00035151689909197797,-0.005617523803391325,0.003777721712569475,0.9915062122909584
2016-10-05,-1,-0.0011338323396579996,-0.0008579582185330492,-0.005657912507244996,0.003777721712569475,0.9911470337994955
2016-10-07,-1,-0.0016252397188560395,-0.0012762110272117608,-0.004917253079994719,0.003777721712569475,0.9908232373644726
2016-10-11,-1,-0.0025138332612716823,-0.0020768172985707253,-0.0034807035170733203,0.004320507063586718,0.99120184453318
2016-10-13,-1,-0.0015900738817149502,-0.0012780867322553725,-0.004917253079994719,0.004320507063586718,0.9919764076880713
2016-10-17,-1,-0.0006652320378109387,-0.0005083889485471755,-0.007726778840376692,0.003715405137923358,0.9906192229932288
2016-10-19,-1,-0.0005742263909019622,-0.00043686206556554203,-0.007726778840376692,0.004249709439174135,0.990400430748736
2016-10-21,-1,-0.0007990462295560114,-0.0006206274825572093,-0.007726778840376692,0.004249709439174135,0.9898123248877901
2016-10-25,-1,-0.0011684589062106797,-0.0009109884010985138,-0.007726778840376692,0.0062531668969888834,0.9893780103063812
2016-10-27,-1,-0.002547647922387349,-0.00214324759439563,-0.005625998880293338,0.0077073029716954195,0.9904986118964626
2016-10-31,-1,-0.0022493184939125195,-0.0018835628319169124,-0.005278306055439979,0.005903343909431478,0.9912166285843874
2016-11-02,-1,-0.0035535919162307493,-0.0029830089691520985,-0.006537343822077008,0.005903343909431478,0.9896534850563978
2016-11-04,-1,-0.0038767603941618567,-0.0032285613005026328,-0.006537343822077008,0.008826335377695532,0.9876845433759056
2016-11-08,-1,-0.00340889408161332,-0.002796006147681792,-0.009288859273107502,0.008826335377695532,0.9876261824301198
2016-11-10,-1,-0.0031443329464314012,-0.002586267627301789,-0.008245780798547422,0.009130674996282253,0.9877253355633363
2016-11-14,-1,-0.0046757823408022856,-0.003966845104311282,-0.005278306055439979,0.009130674996282253,0.9881874843007262
2016-11-16,-1,-0.0066654242298013295,-0.005573149351755091,-0.007649836267047417,0.009130674996282253,0.98718802664549
2016-11-18,-1,-0.004760171750883498,-0.003972073978966931,-0.0089673638097927,0.008739681172615405,0.9886984436396015
2016-11-22,-1,-0.003976656476128687,-0.003333424336648496,-0.012366843568891391,0.007678418236668712,0.9884984768951172
2016-11-25,-1,-0.0033699511002540025,-0.0028152067677261385,-0.013703182678024199,0.00737897315197724,0.9885650079577837
2016-11-29,-1,-0.0029026647394208,-0.0024495965709241422,-0.013703182678024199,0.00737897315197724,0.9886041026978483
2016-12-01,-1,-0.0043160662797756474,-0.0037398451695881433,-0.0089673638097927,0.00737897315197724,0.9896016124082254
2016-12-05,-1,-0.002023751142703493,-0.0017337570166282587,-0.0089673638097927,0.006318974255369726,0.991167170507746
2016-12-07,-1,-0.002151760751418973,-0.0018337043950686367,-0.006647316624013291,0.00737897315197724,0.9908659039564038
2016-12-09,-1,-0.001311648141012854,-0.001127864557123717,-0.009482429022097736,0.006318974255369726,0.9906754290548025
2016-12-13,-1,-0.0014002144530177911,-0.0012160282769964018,-0.008118042791652371,0.004811815405965197,0.9914281347331506
2016-12-15,-1,-0.001418472697054014,-0.0012492107234687447,-0.008118042791652371,0.004811815405965197,0.9910911572120191
2016-12-19,-1,-0.0011156409571046856,-0.0010151144148955026,-0.009818880514470402,0.007460104195647624,0.9903207260384077
2016-12-21,-1,-0.0009990019876562383,-0.0009420626158757259,-0.00681900502811497,0.008332844019116482,0.9905920790418895
2016-12-23,-1,-0.0017813214967721653,-0.0016118473488444746,-0.004037598220014669,0.008332844019116482,0.9906895972441134
2016-12-28,-1,-0.0012603715709514959,-0.0011997056888284647,-0.0046422992119621465,0.010043410704768881,0.9903835554970707
2016-12-30,-1,-0.0010941667914446736,-0.0010428718110724912,-0.00872007103654068,0.010583667497925726,0.9898042222908221
2017-01-04,0,-2.98522471628088e-05,5.452875493672086e-05,-0.00872007103654068,0.011663202760499512,0.987732882875829
2017-01-06,1,0.0016254873231667396,0.0019672449385108393,-0.00872007103654068,0.012601910342234887,0.9874885288201601
2017-01-10,1,0.0006948539793282776,0.0009031223366520121,-0.003612200384182431,0.012601910342234887,0.9881675357490131
2017-01-12,1,0.0007119087534829741,0.0009334650417962632,-0.00562977455320153,0.012601910342234887,0.9867340901398453
2017-01-17,1,0.0007951354983977344,0.0010389561555243058,-0.0014519848235217572,0.013044296509218054,0.9868632131877072
2017-01-19,1,0.0011488136072783186,0.0014696699180313313,-0.001328260222567445,0.012188770171024429,0.9878901098689556
2017-01-23,1,0.001959379627632898,0.0024207021501293615,-0.001328260222567445,0.012188770171024429,0.9885005388115976
2017-01-25,1,0.002410537717161953,0.002944334578408963,-0.001328260222567445,0.012188770171024429,0.9886854223485374
2017-01-27,1,0.002386461222211,0.002905837213181088,-0.00018645347035698448,0.012188770171024429,0.989290159073697
2017-01-31,1,0.0023275245843500272,0.002827765622902024,-0.00018645347035698448,0.012785432054720637,0.9891243684946549
2017-02-02,1,0.004128030694777192,0.0047512401933865935,-0.001328260222567445,0.010514892415696496,0.9918386762106098
2017-02-06,1,0.00583354060339485,0.006682743576374092,-0.0041415388899756055,0.006876267678557516,0.992506966187395
2017-02-08,1,0.005782069194172038,0.006647359917042325,-0.004820785338925455,0.006876267678557516,0.9922534015449166
2017-02-10,1,0.004992881629565203,0.005733749189261192,-0.0011632242947322903,0.006019023245168744,0.9941122241147172
2017-02-14,1,0.006693118113499506,0.007701229552578197,-0.0011632242947322903,0.006019023245168744,0.9925701590564434
2017-02-16,1,0.005473677424199562,0.006287752096044048,-0.004418228944863647,0.005318030506185687,0.992215889826855
2017-02-21,1,0.005259579234313588,0.006015496800574096,-0.007847180864331438,0.005318030506185687,0.9912746605697891
2017-02-23,1,0.004970726493528778,0.005640829293260524,-0.007847180864331438,0.006242542738977228,0.9914821242618659
2017-02-27,1,0.005033130655550496,0.0057055639344183,-0.008736480845441522,0.006242542738977228,0.9909506355265858
2017-03-01,1,0.004919939375757057,0.00556417119626729,-0.007526131815674632,0.005335696680816217,0.9914848778916087
2017-03-03,1,0.004504815648123151,0.005074592616440998,-0.004418228944863647,0.005187690337305205,0.9923041206963095
2017-03-07,1,0.003958507335831273,0.004382499592631637,-0.003716885952435036,0.004655700686137268,0.9924407810978295
2017-03-09,1,0.0038494353994450135,0.004301828860985536,-0.002500527007883354,0.005187690337305205,0.9927440493335619
2017-03-13,1,0.004248336691322883,0.0047719882807645796,-0.003716885952435036,0.005187690337305205,0.9919490314087184
2017-03-15,1,0.005530407492632722,0.006216719582592586,-0.003716885952435036,0.0032355291137584636,0.9921502075518877
2017-03-17,1,0.004590204851840977,0.0051443866658417445,-0.0027363405300461735,0.0037119990292991617,0.9929488362029636
2017-03-21,1,0.0038579054224898053,0.004315713977842482,-0.0023701326676626795,0.004695319422624361,0.9942720640190388
2017-03-23,1,0.0032685331253772144,0.0035567819010258023,-0.0033257029317730123,0.0036226631449864767,0.994280255575729
2017-03-27,1,0.0030019476057918416,0.0032624911785436644,-0.0023701326676626795,0.00519983056402726,0.9945873127648385
2017-03-29,1,0.0023924446292909567,0.0025315871530849116,-0.0022014310089338088,0.00603866926961183,0.9947048541963385
2017-03-31,1,0.0025640798359526456,0.002731770623700675,-0.0022014310089338088,0.00603866926961183,0.9946589335270283
2017-04-04,1,0.002576209862284788,0.0027788935980912854,-0.0022014310089338088,0.006777425640678613,0.9943433512234056
2017-04-06,1,0.0027966455592462877,0.0030241378987908955,-0.0035194024640091918,0.006777425640678613,0.9921630897331092
2017-04-10,1,0.001538419523993374,0.0015639356831062628,-0.0053248540342519515,0.006777425640678613,0.9914109291201749
2017-04-12,1,0.0013907689745092035,0.0014328403220798588,-0.0053248540342519515,0.006777425640678613,0.9913207979031441
2017-04-17,1,0.0018303929919095733,0.0018765900128120843,-0.005191738904374222,0.006777425640678613,0.991993492436885
2017-04-19,1,0.0017525717592738119,0.0017879561189082288,-0.005921272297384089,0.006777425640678613,0.9912960648578695
2017-04-21,1,0.0016788135247886224,0.0017141623392565347,-0.0053248540342519515,0.007874112804782937,0.9911675257725315
2017-04-25,1,0.0019106930375209627,0.0019635732039926437,-0.0053248540342519515,0.006719302333137821,0.9912355575764121
2017-04-27,1,0.0010817826320737342,0.0012111432622555077,-0.0053248540342519515,0.009533044896377848,0.9907683259997061
2017-05-01,1,0.0017814702438668692,0.0018113354974697439,-0.0053248540342519515,0.009533044896377848,0.9903123109841857
2017-05-03,1,0.0017980575997590912,0.0018216936868295354,-0.005317468290757962,0.01068154748727662,0.9894622002913831
2017-05-05,1,0.0011623631997400513,0.0012090858614838764,-0.0046940353214268826,0.009533044896377848,0.9921513432505612
2017-05-09,1,0.0001719078476350288,0.0003506208592749631,-0.00421538583242347,0.009533044896377848,0.9927556438098025
2017-05-11,1,4.1030470425387506e-05,0.00024998241406977396,-0.00421538583242347,0.009533044896377848,0.9927113797581644
2017-05-15,0,-7.809634418376281e-05,0.00015631590199843826,-0.004052067620846054,0.00967959755848652,0.9924069330530992
2017-05-17,-1,-0.0010699695758568553,-0.0007021352950188956,-0.0033853394986726975,0.00967959755848652,0.9928050462876441
2017-05-19,-1,-0.0009299768926765819,-0.0005485648299984333,-0.0033853394986726975,0.006205243109682846,0.9935601171133924
2017-05-23,-1,-0.0012484325821051335,-0.0008150670703505176,-0.004052067620846054,0.006205243109682846,0.9920642973196281
2017-05-25,-1,-0.0007191454948664187,-0.0003442673416307225,-0.004052067620846054,0.0072684878867440425,0.9916858543133777
2017-05-30,-1,-0.0007876783645200129,-0.0004367654135662513,-0.004205406449721582,0.0072684878867440425,0.9911369855166727
2017-06-01,1,0.0010120909472083424,0.0011028338237977823,-0.004784948835295964,0.004474310442922798,0.9912786515279686
2017-06-05,1,0.00046626905832383454,0.0006654693761333581,-0.005826199534959963,0.004342353233947535,0.9909268510289174
2017-06-07,0,-0.00010145833346846065,0.00017816018407425065,-0.008035030311289056,0.004342353233947535,0.9909217736030018
2017-06-09,-1,-0.00037564274454607977,-5.327386460439649e-05,-0.008035030311289056,0.004593202032360053,0.9909912413355436
2017-06-13,0,-6.155330908791997e-06,0.00028307927669381824,-0.008035030311289056,0.004593202032360053,0.9908854114291872
2017-06-15,0,-0.00012302685324664699,0.00016889069671209784,-0.008035030311289056,0.008161960687855428,0.9903133550160047
2017-06-19,0,-0.00010343893301520987,0.00018440977778752163,-0.008035030311289056,0.008161960687855428,0.9903838533187147
2017-06-21,-1,-0.0017946562272243023,-0.0013048664673867194,-0.004474210254419597,0.008161960687855428,0.9918348305650077
2017-06-23,-1,-0.0010550005084668079,-0.0006445158788154417,-0.004474210254419597,0.00672681291133979,0.9925989607119333
2017-06-27,-1,-0.0004119589232659917,-0.000206654117608245,-0.0018099130444603506,0.007156065829073254,0.9928692634404803
2017-06-29,1,0.0007526479113112355,0.0007538841821908187,-0.0018099130444603506,0.00672681291133979,0.9941795902986893
2017-07-03,1,0.00015664167911719722,0.00023819499000605473,-0.0004414788049044833,0.007156065829073254,0.9933444955952929
2017-07-06,-1,-0.0003936446619146537,-0.00022441979853572486,-0.0004414788049044833,0.008692222907485407,0.9914590118071097
2017-07-10,1,0.0002641008649895903,0.0003175199433969217,-0.0024179534101932175,0.008692222907485407,0.9917453339998933
2017-07-12,1,0.0009125786099035296,0.0009389031325353989,-0.00484884719869871,0.007156065829073254,0.9921391812871776
2017-07-14,1,0.001414821784805309,0.0015077286315214496,-0.005278080172250016,0.006022260969200511,0.9916368511470037
2017-07-18,1,0.0012603658347334053,0.0013367974647249751,-0.006644838037375758,0.007156065829073254,0.9901281312558936
2017-07-20,1,0.0013611764391931991,0.001455796205914252,-0.007752744453612503,0.008692222907485407,0.9883665967967514
2017-07-24,1,0.001723098755444307,0.0018673385203171388,-0.007752744453612503,0.008238153890279569,0.9881555090997515
2017-07-26,1,0.0018696657925448992,0.0020207625379312253,-0.007752744453612503,0.008835571459528915,0.9871524813976928
2017-07-28,1,0.001735937251730729,0.0018649182576186735,-0.007752744453612503,0.015600319518645874,0.9866105563619831
2017-08-01,1,0.0014910719951923502,0.0015631549187094535,-0.007458893620772129,0.01030095790186724,0.9873237042673397
2017-08-03,1,0.0018239558960328772,0.0019505038908375122,-0.007220626225482638,0.008886232334204602,0.9886553315366285
2017-08-07,1,0.0027154657690699755,0.0030165875810376453,-0.007458893620772129,0.00908127268893145,0.9875231331051619
2017-08-09,1,0.0017107588893583978,0.0018316868796266388,-0.00827697259587776,0.015057759931996227,0.9873161143315784
2017-08-11,1,0.00034700565572356594,0.00043705067748127494,-0.0073953689395710575,0.015057759931996227,0.9880378523264604
2017-08-15,1,0.001284338265023817,0.0013366063158970374,-0.0073953689395710575,0.015007309747977086,0.9876400121229048
2017-08-17,1,0.0014108867982518922,0.0014616718817469165,-0.007215149406165602,0.009329001538388372,0.989185898042955
2017-08-21,1,0.0012107093945363367,0.001224290681618578,-0.006794758870723613,0.009329001538388372,0.9895363976115391
2017-08-23,1,0.0017962941001357278,0.0018982754257605532,-0.003587862680149965,0.007953904201311288,0.9905642424296882
2017-08-25,1,0.0021492212588648833,0.0022776292583780566,-0.00744246316282102,0.007953904201311288,0.9901553413309409
2017-08-29,1,0.0018486721354185583,0.001956987456187143,-0.007116825968930146,0.007953904201311288,0.9902490894287698
2017-08-31,1,0.0020523811437032783,0.0021690957332954532,-0.007116825968930146,0.007953904201311288,0.9904739787996966
2017-09-05,1,0.001440452053833975,0.0014704719540916582,-0.0028247035971552363,0.009241053563909007,0.9911030109101016
2017-09-07,1,0.0016896433222757332,0.0017604416758300722,-0.0013454875881208522,0.009241053563909007,0.9915481055954792
2017-09-11,1,0.002075073265511568,0.002193016929902031,-0.0013454875881208522,0.009241053563909007,0.9921636497179597
2017-09-13,1,0.0014486673863870394,0.0014727142145292043,-0.0007798141305667831,0.008202299278893993,0.9941600390187919
2017-09-15,1,0.0012654523686488341,0.0012888323425054278,-0.00039567898531352945,0.008202299278893993,0.9940752733866576
