JNU-Tangyin/eata/results/Batch4_SP500/Batch4_SP500-IT.csv
Date,Action,Predicted_Q25,Predicted_Q75,Actual_Q25,Actual_Q75,RL_Reward
2010-12-14,0,0.0,5.1392778754769585e-05,-0.0014940904382237281,0.007316280033254417,0.9931761051991164
2010-12-16,0,0.0,0.0,-0.002110943311071308,0.006281786580133402,0.9931352764810433
2010-12-20,0,0.0,0.0,-0.00320664870411359,0.005097442112334398,0.9935129080719663
2010-12-22,0,0.0,0.0,-0.002881413493048579,0.005097442112334398,0.9936369146201968
2010-12-27,0,0.0,0.0,-0.004690820869224621,0.005097442112334398,0.9933574711625648
2010-12-29,0,0.0,0.0,-0.004690820869224621,0.01006650252962022,0.9909342046069531
2010-12-31,0,0.0,0.0,-0.004690820869224621,0.01006650252962022,0.9908303615667101
2011-01-04,0,0.0,0.0,-0.002605667366108319,0.011330611297419278,0.9904392385828229
2011-01-06,-1,-0.0005181757954868648,-0.00017431561824484548,-0.002605667366108319,0.010553329403026463,0.9912684919769098
2011-01-10,0,0.0,0.0,-0.002605667366108319,0.010553329403026463,0.9896928963387681
2011-01-12,1,0.001545971156684226,0.0016357658073955833,-0.0047238902671508255,0.011330611297419278,0.9874538898976645
2011-01-14,1,0.0007297775298800796,0.0009447258425588138,-0.00150474287208534,0.012312887736231171,0.9871029254584661
2011-01-19,1,0.0008467885758299633,0.0009894054746871672,-0.00150474287208534,0.012312887736231171,0.9862257730778063
2011-01-21,1,0.00034138109534634614,0.000565393549684283,-0.001863047481076555,0.01565276703038208,0.9817328207966985
2011-01-25,1,0.00048712393318446276,0.000612221367821031,-0.010472206546104403,0.01565276703038208,0.9808835820935679
2011-01-27,1,0.00231775883537496,0.002438746474930315,-0.010472206546104403,0.012312887736231171,0.9824849394534974
2011-01-31,0,0.0,0.0,-0.004798476275609297,0.012312887736231171,0.9834602003374913
2011-02-02,0,0.0,0.0,-0.007404424587499152,0.012891051809439308,0.9823909813624988
2011-02-04,0,0.0,0.0,-0.009087728038017768,0.012891051809439308,0.9814833276802181
2011-02-08,0,0.0,0.0,-0.009087728038017768,0.012891051809439308,0.9827304972408372
2011-02-10,1,0.00277628262814863,0.00288319317432326,-0.009087728038017768,0.012891051809439308,0.9829676369906347
2011-02-14,0,0.0,0.0,-0.009835896992527439,0.008293805926184094,0.9836442666883128
2011-02-16,0,0.0,0.0,-0.007951936896501614,0.008293805926184094,0.9849779724896025
2011-02-18,0,0.0,0.0,-0.007404424587499152,0.013751769895528398,0.9880951494763265
2011-02-23,1,0.0007885195070708001,0.0008740115722448409,-0.006021880808207371,0.013751769895528398,0.9890602176185597
2011-02-25,1,0.0012300106184674516,0.0012457822566768273,-0.006021880808207371,0.00913195311029769,0.9894111147442064
2011-03-01,1,0.0013342900086937874,0.0013563088780798262,-0.006021880808207371,0.00913195311029769,0.9891142105021186
2011-03-03,1,0.001967637288437429,0.002072330384767877,-0.005299078185326027,0.009020179305361276,0.9908278592459511
2011-03-07,1,0.0014826410273634085,0.0015448959872295502,-0.002465008911182661,0.010960089083651207,0.9908823885177942
2011-03-09,1,0.0019903136208858853,0.002123003015619473,-0.005299078185326027,0.008379272464828889,0.991338262053845
2011-03-11,0,0.0,0.0,-0.00571842566966698,0.007316768309794051,0.991840934794373
2011-03-15,0,0.0,0.0,-0.0027179688507276167,0.007316768309794051,0.9921717240250836
2011-03-17,0,0.0,0.0,-0.0019033077666116335,0.00813246586540978,0.9919499127365017
2011-03-21,0,0.0,0.0,-0.00327444241731903,0.006644844071756318,0.992939527737015
2011-03-23,0,0.0,0.0,-0.00327444241731903,0.00813246586540978,0.9914564979945532
2011-03-25,-1,-0.058955814299154696,-0.03703419301787669,-0.004591346810611441,0.009578762444861496,0.951719362823089
2011-03-29,0,0.0,0.0,-0.004604668231514224,0.010639196747698284,0.9907868166707907
2011-03-31,0,0.0,0.0,-0.005099059061255592,0.009578762444861496,0.9913175159888261
2011-04-04,0,0.0,0.0,-0.005788948795415041,0.007183296585857696,0.9912441475972612
2011-04-06,0,0.0,0.0,-0.005788948795415041,0.0063970510729028564,0.9875754006662885
2011-04-08,0,0.0,0.0,-0.004936138058081147,0.00989877694944096,0.9876437838699392
2011-04-12,0,0.0,0.0,-0.0053001857858917065,0.010837339033769164,0.9871013535285419
2011-04-14,0,0.0,0.0,-0.006353725820122391,0.010837339033769164,0.9870537284461431
2011-04-18,0,0.0,0.0,-0.006353725820122391,0.010837339033769164,0.9862753347242575
2011-04-20,0,0.0,0.0,-0.006353725820122391,0.006570072973438396,0.9876901001785717
2011-04-25,0,0.0,0.0,-0.008697721189051575,0.0035282469372072862,0.9872377411373381
2011-04-27,1,0.0040571229299664145,0.004323859266907603,-0.008697721189051575,0.005596091464807035,0.9867205783464318
2011-04-29,1,0.002286273578457271,0.0023992453375914933,-0.008697721189051575,0.007415424621904665,0.9869127595693207
2011-05-03,1,0.0014668163333520531,0.0014708866416943793,-0.008697721189051575,0.007825436497042558,0.9860314939311691
2011-05-05,-1,-0.0021712109761281733,-0.0017069079531273584,-0.00817592179723357,0.009317745299687319,0.9888704833729095
2011-05-09,0,0.0,0.0,-0.010172267060368374,0.007825436497042558,0.9888182722157691
2011-05-11,0,0.0,0.0,-0.010454797026064753,0.007415424621904665,0.9890873797274511
2011-05-13,0,0.0,0.0,-0.01100114867615245,0.007825436497042558,0.9884620716890127
2011-05-17,0,0.0,0.0,-0.009744644323782494,0.009578892869897425,0.9886171925207335
2011-05-19,-1,-0.002113805166653374,-0.0016952595006370546,-0.010118298398521288,0.009578892869897425,0.9882735787404053
2011-05-23,-1,-0.003308419756178292,-0.0027497846843964743,-0.009744644323782494,0.011885938087708025,0.9867223753682485
2011-05-25,-1,-0.0032275740800099093,-0.002653119544056322,-0.010118298398521288,0.011885938087708025,0.9863633124890802
2011-05-27,-1,-0.002503404700228854,-0.0020174206347339943,-0.011274521003279695,0.01195456090933615,0.9862178874629157
2011-06-01,0,0.0,0.0,-0.010118298398521288,0.014879179489775046,0.9868808900028628
2011-06-03,0,0.0,0.0,-0.010118298398521288,0.014879179489775046,0.987027506307072
2011-06-07,0,0.0,0.0,-0.0012331455965468652,0.015628935907627952,0.9875267036073813
2011-06-09,0,0.0,0.0,-0.0001756374687487685,0.015628935907627952,0.9877365874966569
2011-06-13,0,0.0,0.0,-0.003871665595787169,0.015628935907627952,0.9877469464817379
2011-06-15,0,0.0,0.0,-0.006945774015126998,0.014879179489775046,0.9879390562508247
2011-06-17,-1,-0.0012126142322769914,-0.0009257831225486972,-0.008615832601285192,0.014879179489775046,0.987588476919678
2011-06-21,-1,-0.000559344068238647,-0.00041732941158075334,-0.011359774181234166,0.012917919709236957,0.9887535639461773
2011-06-23,-1,-0.0010669783876647776,-0.000850732762010604,-0.007784736365223166,0.012917919709236957,0.9897559260555775
2011-06-27,-1,-0.0007970126217536096,-0.0006406489929824576,-0.007784736365223166,0.007731660181893709,0.9902046818641502
2011-06-29,-1,-0.00011751876988825395,-2.9177788048430814e-05,-0.011488934255496502,0.0035493269046179155,0.9893176399436875
2011-07-01,0,0.0,0.0,-0.011488934255496502,0.0019396724848595925,0.9891880534684965
2011-07-06,1,0.0005439553756572153,0.0005696479536095769,-0.011488934255496502,0.002935402056009104,0.988791132352934
2011-07-08,0,0.0,0.0,-0.017946153388270745,0.0015112847542754775,0.9861469630677029
2011-07-12,-1,-0.0002804221213971343,-0.00017714614023526311,-0.017946153388270745,0.005724477505915197,0.9811057803264251
2011-07-14,-1,-0.0001207986298699727,-4.9057035011092985e-05,-0.018726694826715594,0.012564669183786197,0.9795364982020832
2011-07-18,-1,-0.0013146519701070745,-0.0010881117787748336,-0.014453986858814995,0.014124231055464478,0.9794601239279529
2011-07-20,-1,-0.0010590810171422526,-0.0008733927830276866,-0.016839814983023095,0.012169821634100254,0.9797710158111251
2011-07-22,-1,-0.0011956887512312398,-0.0009838854349904199,-0.025024600559515345,0.012169821634100254,0.9750081746755093
2011-07-26,-1,-0.001651899066682723,-0.00140458290659774,-0.025024600559515345,0.0152330147338219,0.9734408148738142
2011-07-28,-1,-0.0036982051065744094,-0.0031678526717336553,-0.02239747030363807,0.012287076511874322,0.9741034737263929
2011-08-01,-1,-0.002892464263169901,-0.0025065954690670967,-0.02239747030363807,0.020101192026023236,0.9719595458723683
2011-08-03,0,0.0,0.0,-0.02239747030363807,0.01559029834189314,0.9728131662519262
2011-08-05,0,0.0,0.0,-0.02239747030363807,0.01559029834189314,0.9736553601691865
2011-08-09,0,0.0,0.0,-0.02062963010085842,0.01559029834189314,0.9776551557663806
2011-08-11,0,0.0,0.0,-0.020350522515131107,0.012287076511874322,0.9787247875070428
2011-08-15,0,0.0,0.0,-0.02094489582602129,0.014446737996783128,0.9771735513211289
2011-08-17,0,0.0,0.0,-0.02094489582602129,0.01504394871474144,0.9764784550562197
2011-08-19,0,0.0,0.0,-0.019919792476237392,0.02712239598878613,0.9775345636370981
2011-08-23,-1,-0.0017099531105905614,-0.0015918502616973508,-0.020350522515131107,0.02304645666210671,0.9780296867389928
2011-08-25,-1,-0.0018515706862239293,-0.001725155616942987,-0.020350522515131107,0.02304645666210671,0.978214387460498
2011-08-29,1,0.0001740406592407722,0.00028792772021252243,-0.020350522515131107,0.015426066187614359,0.9798849024500692
2011-08-31,0,0.0,0.0,-0.020779995991276827,0.015426066187614359,0.9791776409751158
2011-09-02,0,0.0,0.0,-0.020998233168077796,0.015426066187614359,0.9774603357144048
2011-09-07,0,0.0,0.0,-0.020998233168077796,0.015426066187614359,0.977111608171287
2011-09-09,0,0.0,0.0,-0.020998233168077796,0.020243363956593034,0.9770832870292997
2011-09-13,0,0.0,0.0,-0.020074803044298522,0.020243363956593034,0.9777505892239845
2011-09-15,0,0.0,0.0,-0.01937054968876722,0.02419280908072547,0.9776434423944087
2011-09-19,0,0.0,0.0,-0.021043387510231396,0.01372665506264083,0.9799742027405022
2011-09-21,1,0.002802875602152639,0.0034017570678953075,-0.01539219959122846,0.020243363956593034,0.9810597598083524
2011-09-23,1,0.002207102266104411,0.002687496597189353,-0.013145176907336562,0.023905187336843395,0.9812121639237495
2011-09-27,-1,-0.003344786865563427,-0.0031071817081935113,-0.015466440355089933,0.023994630133606677,0.9783955226415209
2011-09-29,-1,-0.00374147507862808,-0.0034950733813922438,-0.013145176907336562,0.026016705739855418,0.9764643959347163
2011-10-03,-1,-0.005202357519567413,-0.004759445220701397,-0.011737322982944302,0.026016705739855418,0.9775076722055684
2011-10-05,-1,-0.004782872961185066,-0.004448374649686481,-0.011737322982944302,0.026016705739855418,0.9780874058696712
2011-10-07,-1,-0.0030195002539006818,-0.002798439750233009,-0.011737322982944302,0.026016705739855418,0.9789513472360785
2011-10-11,-1,-0.0008062661634436602,-0.0007415486784438745,-0.011737322982944302,0.023994630133606677,0.9814037562249386
2011-10-13,-1,-0.0004511720336560249,-0.00040637808118583485,-0.015009660160352586,0.016515990431286057,0.9817567437126365
2011-10-17,-1,-0.000511218953198204,-0.0004715822313736282,-0.011737322982944302,0.016515990431286057,0.9826123594809034
2011-10-19,1,8.757074852927863e-05,0.00027298423140059496,-0.011975515980999139,0.013440932942663951,0.9835545748581448
2011-10-21,1,0.00042370257406252915,0.0006387925800796084,-0.015509686100930568,0.010712576124578158,0.9837254428236439
2011-10-25,1,0.001556544553866176,0.0018937072946807998,-0.014607296844817656,0.00914993236614888,0.9852327235604948
2011-10-27,1,0.001484914051266236,0.0017611766540634273,-0.017471041373239415,0.004563931693809614,0.9864259737740793
2011-10-31,-1,-0.0012544019449862674,-0.0011839132387418017,-0.014607296844817656,0.006515429952177089,0.9875925738252698
2011-11-02,1,0.0005348577525492513,0.0006791582334336251,-0.014607296844817656,0.004563931693809614,0.9884830252141231
2011-11-04,-1,-0.00034535427602082997,-0.00024082560034589947,-0.011204456543643661,0.004563931693809614,0.9898690711995385
2011-11-08,-1,-0.00025997847255709026,-0.00017073871682832806,-0.011204456543643661,0.004563931693809614,0.989686067956096
2011-11-10,1,0.00013643483187664976,0.00039116323317539103,-0.011204456543643661,0.004563931693809614,0.989464037921487
2011-11-14,1,0.000145490610778541,0.00038664122355355237,-0.01003084056900127,0.0016488722066320312,0.9900761840148062
2011-11-16,1,2.0744933247102376e-05,0.00023041596262062566,-0.010684625659770887,0.0016488722066320312,0.9895442548815808
2011-11-18,0,-0.00023958792167443413,3.839871107962989e-05,-0.009785547066115221,0.0016488722066320312,0.9897737502859237
2011-11-22,-1,-0.0005045072362187041,-0.00010892419140771828,-0.009785547066115221,0.004971301966450252,0.9878358004499083
2011-11-25,-1,-0.0005907267507191264,-0.0002343847911206586,-0.007180820876829754,0.007930536057378855,0.9886749685470526
2011-11-29,1,0.00047401531673180045,0.0010676725929432015,-0.009785547066115221,0.002440694417443993,0.9889184568684948
2011-12-01,1,0.0005078378447486401,0.0010537026165966692,-0.00824308443562596,0.001977221593183848,0.9898814799586365
2011-12-05,0,0.0,0.0,-0.007562868234566508,0.0035345695831513293,0.9901002613188692
2011-12-07,0,0.0,0.0,-0.011367394190767646,0.005956350126105702,0.9894649862407268
2011-12-09,0,0.0,0.0,-0.007027887050654443,0.005956350126105702,0.9904500951733728
2011-12-13,0,0.0,0.0,-0.0067053493935196155,0.007521589381153044,0.990212647796391
2011-12-15,0,0.0,0.0,-0.0036808484934762217,0.006131170908372608,0.9916129008382532
2011-12-19,0,0.0,0.0,-0.0015632099022130311,0.009211389570745089,0.9900102421763322
2011-12-21,0,0.0,0.0,-0.0015632099022130311,0.009211389570745089,0.9908149991128488
2011-12-23,-1,-0.0006409671281789714,-0.0004914034200069471,-0.0015632099022130311,0.009741893465492417,0.9903568702955332
2011-12-28,-1,-0.0015378844946354981,-0.0011880923681531568,-0.001352701819559049,0.009741893465492417,0.9904589161827985
2011-12-30,-1,-0.001344557127910268,-0.0009576522130570746,-0.0022927267818577167,0.009741893465492417,0.9903410957029309
2012-01-04,0,0.0,0.0,-0.004061227124754706,0.013985494282021681,0.9886981364346555
2012-01-06,0,0.0,0.0,-0.0016322076091061725,0.014214583015555173,0.9885546533775543
2012-01-10,-1,-0.0013990060197885904,-0.0011939401370646878,-0.004061227124754706,0.014214583015555173,0.9871554022506663
2012-01-12,-1,-0.003549439015910016,-0.0028962096525884202,-0.006473472464995987,0.014214583015555173,0.9867163183291259
2012-01-17,-1,-0.0023773873608231707,-0.0019779178625170006,-0.006473472464995987,0.014214583015555173,0.9865826145276776
2012-01-19,-1,-0.0009936471218623469,-0.0007100195002545388,-0.006473472464995987,0.008509757622903671,0.9887834535306349
2012-01-23,1,0.0005222294369114894,0.0005309617748144023,-0.0049491985367334165,0.008509757622903671,0.9901528948174602
2012-01-25,1,0.0010025296136135055,0.0010577290449351332,-0.0049491985367334165,0.009958497529583634,0.9895265338147403
2012-01-27,-1,-0.0003721878789796143,-0.00018276225340190563,-0.004911252493836278,0.009958497529583634,0.9894276291934948
2012-01-31,1,0.0007456841570510689,0.0007752451629666824,-0.004911252493836278,0.010878162260134428,0.9893455539005563
2012-02-02,1,6.793504821969764e-05,0.00019225644978748528,-0.0062337331421293786,0.009622457943563468,0.9900916629669195
2012-02-06,1,0.001257058485062802,0.0013106792302565772,-0.006381615681461056,0.009622457943563468,0.9899230567131836
2012-02-08,-1,-0.00047356719450651207,-0.00029373237805443183,-0.0062337331421293786,0.010980688282615125,0.9901501079779017
2012-02-10,1,0.001144397455780769,0.0013424002382758917,-0.004911252493836278,0.010980688282615125,0.9902289865246126
2012-02-14,1,0.00018808049713736575,0.00022809865527163907,-0.0062677775527696395,0.012740280151736047,0.9890119099836239
2012-02-16,1,0.0005946396260750463,0.0005996450298888017,-0.0062677775527696395,0.012740280151736047,0.9893913592032292
2012-02-21,1,0.001063694528432871,0.0011543108600860538,-0.006642588864709529,0.010980688282615125,0.98977091385896
2012-02-23,1,0.002170744224999668,0.0023851915920563792,-0.006642588864709529,0.010046626216989782,0.9914024981059277
2012-02-27,1,1.977881941615388e-05,0.00022836133460415076,-0.006642588864709529,0.010576298014941162,0.9903372273921296
2012-02-29,1,0.0013171480839846304,0.0013724881989025618,-0.004446945116970904,0.01008080155781668,0.9911752125103491
2012-03-02,1,0.00026023147528408735,0.0003477034075735113,-0.0026291686994244557,0.01008080155781668,0.9914433665588733
2012-03-06,1,0.0007847060590185841,0.0008322704010659925,-0.0016339258442662962,0.010049467789202255,0.9920401480487046
2012-03-08,1,0.002269178209499668,0.0025615425973932703,-0.0026291686994244557,0.006518880435689188,0.9936145333657382
2012-03-12,1,0.0021311930121003424,0.002361499427881131,-0.007295153902976684,0.005838390722974103,0.992371370348593
2012-03-14,1,0.0025946816884440745,0.002900169655879289,-0.004622990301254992,0.005838390722974103,0.9934388042699505
2012-03-16,1,0.0030770386869472394,0.0034969697729910834,-0.005311898037634046,0.005838390722974103,0.9929339947242066
2012-03-20,1,0.002921359684943484,0.0033162482005389196,-0.003785859828523358,0.005838390722974103,0.9926270222759552
2012-03-22,1,0.003985695536884126,0.004633814121987266,-0.004575016270151274,0.006210978210420813,0.992300073184911
2012-03-26,1,0.0034354591642654824,0.0038982096548226997,-0.008230983476270924,0.005713796747872575,0.9913970311029572
2012-03-28,1,0.0037398444665800576,0.004322157819129888,-0.008230983476270924,0.007287377049886596,0.9904694702030955
2012-03-30,1,0.002775323308017218,0.0031600278908185887,-0.005612644153380632,0.007905207543734829,0.9911749788500475
2012-04-03,1,0.0033359864258567856,0.0038049127380271044,-0.005612644153380632,0.008529474863434435,0.9907734930597302
2012-04-05,1,0.003106100755722082,0.0035240034955190376,-0.006020338173822609,0.008529474863434435,0.9897323394543579
2012-04-10,1,0.0021447591412552787,0.0024245190575045237,-0.004575016270151274,0.008529474863434435,0.990320543278039
2012-04-12,0,0.0,0.0,-0.005385326290924482,0.007905207543734829,0.9901112513853186
2012-04-16,0,0.0,0.0,-0.007549029888902473,0.007905207543734829,0.9897395920268838
2012-04-18,0,0.0,0.0,-0.007549029888902473,0.007205458961980714,0.9906807046648872
2012-04-20,0,0.0,0.0,-0.012126540166791634,0.006411983462046131,0.9897986402689256
2012-04-24,0,0.0,0.0,-0.008149263683511163,0.008529474863434435,0.9901751023610639
2012-04-26,0,0.0,0.0,-0.012126540166791634,0.006411983462046131,0.990526816038163
2012-04-30,0,0.0,0.0,-0.012126540166791634,0.004042609115611983,0.9908289115254646
2012-05-02,1,0.0031036032383381477,0.003372024497351712,-0.012126540166791634,0.0020153200339554454,0.9902643614559291
2012-05-04,1,0.0021132275810951803,0.0022036967367588638,-0.012126540166791634,0.002237734314691806,0.9905216956398778
2012-05-08,1,0.00152859907647874,0.001545351499296743,-0.010796691614759359,0.005158796430003269,0.9902409918775075
2012-05-10,1,0.0008574763944732024,0.000972832391754162,-0.010796691614759359,0.007981761564622568,0.9905819442050593
2012-05-14,0,-8.957902555359212e-05,0.00016315478877990358,-0.010258535182448594,0.007981761564622568,0.9907986073135391
2012-05-16,0,-0.00015980429707673327,0.00010271009739194173,-0.010258535182448594,0.010411394191709358,0.9898480082086287
2012-05-18,-1,-0.001073609244503922,-0.0007148785441340576,-0.0063739488604151835,0.011924449579613923,0.9891023561365409
2012-05-22,-1,-0.0010305874406621454,-0.000635629139608862,-0.009299347752020484,0.01144978242319351,0.9891489112572054
2012-05-24,-1,-0.002058936608242165,-0.0015457399897158902,-0.007446346010133208,0.01482760476123874,0.9887852886687101
2012-05-29,-1,-0.0021390664050925786,-0.0016144137870018774,-0.009299347752020484,0.01482760476123874,0.9881177684505381
2012-05-31,-1,-0.0026216238890056174,-0.0020298449467223935,-0.010951517610821455,0.015703734222650194,0.9869113022080784
2012-06-04,-1,-0.0024677637093202458,-0.001904999277243862,-0.007745476627844058,0.016515133130575697,0.9856965509503186
2012-06-06,-1,-0.0014288384099131397,-0.0009899375976387052,-0.007745476627844058,0.016515133130575697,0.9860888590868081
2012-06-08,-1,-0.0015345335413708625,-0.0010807244286914668,-0.010951517610821455,0.016515133130575697,0.9859120578852278
2012-06-12,-1,-0.0007995592136858941,-0.0005303327116362401,-0.009365544521482043,0.016515133130575697,0.9855332972966895
2012-06-14,-1,-0.0005256088548430029,-0.0002903395188759803,-0.011947188194807055,0.0161130498479828,0.9857890736009012
2012-06-18,1,0.0010928378884968145,0.0011125622264098352,-0.011947188194807055,0.011827969855483098,0.9874855724640518
2012-06-20,1,3.3418381691231204e-05,0.00019053332282355798,-0.00894265671047549,0.011827969855483098,0.9883098263912797
2012-06-22,0,-5.895761174907186e-05,0.00011682986457123924,-0.009205992814558049,0.007002781974921121,0.9885826290118169
2012-06-26,-1,-0.00037212112399251005,-0.00018430226026828567,-0.009205992814558049,0.007002781974921121,0.9879295716460704
2012-06-28,1,0.00010750887214250278,0.00020714094391989838,-0.008169887520728005,0.007002781974921121,0.9885707540397531
2012-07-02,1,0.0013362676908874058,0.0013572454225413313,-0.009205992814558049,0.005476782187180382,0.990134283548273
2012-07-05,1,0.002108176040742547,0.0021673978660610737,-0.010484151843982225,0.005476782187180382,0.9903409382158653
2012-07-09,1,0.0009855197826800295,0.001051697378380013,-0.008859276634618624,0.012489948862834478,0.9877463816798651
2012-07-11,1,0.0012341772925388858,0.0012590878046098825,-0.008859276634618624,0.007223441644038248,0.9885221941298217
2012-07-13,1,0.001093832908317283,0.0011244872855198256,-0.00504564775935859,0.011859909426062482,0.9887821010921712
2012-07-17,1,0.0015818227730263045,0.0016813458988127494,-0.008859276634618624,0.012710568651140435,0.9869576740374407
2012-07-19,1,0.001408106751370724,0.001469464163054103,-0.008859276634618624,0.012710568651140435,0.9871744482616973
2012-07-23,1,0.0007513284533918418,0.0007703425574946497,-0.0016634035448995605,0.012710568651140435,0.987839923852351
2012-07-25,-1,-0.0007020398108454913,-0.00047316578419101,-0.0014393775186082025,0.012710568651140435,0.9885653296212452
2012-07-27,-1,-0.0003071015924408553,-0.00011154836345492365,-0.0028695504408199363,0.011859909426062482,0.989117404572124
2012-07-31,1,0.0001712498042953429,0.0002569815591714293,-0.0014393775186082025,0.010855166021124761,0.9894728336810424
2012-08-02,1,0.0006668176646687025,0.0006744437125487724,-0.0014393775186082025,0.009787790277076082,0.9899870415530216
2012-08-06,1,0.0033891993658902325,0.0037653896874407953,-0.0014393775186082025,0.008534817308713352,0.9927198428724945
2012-08-08,1,0.0031962686395673717,0.003549570207502701,-0.0005533427792446192,0.008534817308713352,0.9928598223071805
2012-08-10,1,0.003528391260899732,0.00391777875540152,-0.0014393775186082025,0.008351336520108735,0.9908760438512108
2012-08-14,1,0.0031224251375153154,0.003450357488082395,-0.0014393775186082025,0.008351336520108735,0.9924540920163792
2012-08-16,1,0.0034829545220070013,0.003901957996569633,-0.0009553917445514111,0.008351336520108735,0.9925559925099579
2012-08-20,1,0.003725774475309543,0.004169390333781658,-0.003545674691789398,0.007083855963845437,0.9918341047155855
2012-08-22,1,0.003441781987221154,0.0038169552830420936,-0.004275332855442391,0.007083855963845437,0.9914387673222715
2012-08-24,1,0.003602735151100427,0.004025530132918563,-0.005550977583935186,0.007083855963845437,0.9902990765834874
2012-08-28,1,0.0039856006314336005,0.004440505335415746,-0.007006825588218827,0.004275677248749122,0.9891921244828364
2012-08-30,1,0.0028835326244230682,0.0031247109084938844,-0.005550977583935186,0.0024252916426751223,0.9898661855836078
2012-09-04,1,0.004133511346322491,0.004567004742865793,-0.005825436547057347,0.0013136129851029667,0.989799889228071
2012-09-06,1,0.0037765108177195946,0.004141185098371759,-0.005825436547057347,0.0031849594303028487,0.9901885462594321
2012-09-10,1,0.003016810910378714,0.0033156641037042902,-0.005550977583935186,0.004512159910906992,0.9926833472617023
2012-09-12,1,0.0030841426065750656,0.0033887886972058727,-0.005550977583935186,0.0031849594303028487,0.9926293948439411
2012-09-14,1,0.0025777020966562276,0.0027499783670476624,-0.005550977583935186,0.001992790233765364,0.9927489473836293
2012-09-18,1,0.0024462215326226814,0.0026644758584004253,-0.004940799531506947,0.003472635568522521,0.9928350437105401
2012-09-20,1,0.002291284696470742,0.0025019786790418507,-0.005825436547057347,0.003472635568522521,0.9916499958634557
2012-09-24,1,0.001950527696925187,0.0021716504311041834,-0.0071067063701741205,0.003472635568522521,0.9921241820831663
2012-09-26,1,0.0004142120150749961,0.00045180622157579435,-0.00630513410563107,0.005382450523632098,0.9927077106748128
2012-09-28,-1,-0.00020351028602429524,-7.143313041980455e-05,-0.00630513410563107,0.005849378655729587,0.9924032194534487
2012-10-02,-1,-0.0005863267629588254,-0.00039371093982461713,-0.005549068008795356,0.007390070796950258,0.9905708757469485
2012-10-04,-1,-0.000609944140820228,-0.00039096212245921867,-0.007145937202976289,0.009247630964317861,0.9854900464818285
2012-10-08,-1,-0.00028066501907275145,-9.932636076181404e-05,-0.007145937202976289,0.015144675025660918,0.9842807270039724
2012-10-10,-1,-0.0016521786148417374,-0.001242247009602867,-0.010121575325894283,0.015144675025660918,0.9835811375876723
2012-10-12,-1,-0.0011777104263100346,-0.0008698886058505284,-0.010121575325894283,0.019463926096135325,0.9822098036058633
2012-10-16,-1,-0.0010675222542236209,-0.000708700965785793,-0.01369734494107937,0.015144675025660918,0.981686641851946
2012-10-18,-1,-0.002856257547626656,-0.0022877517221025993,-0.010121575325894283,0.015144675025660918,0.9821372107487705
2012-10-22,-1,-0.004115860593466253,-0.003379680536946147,-0.006566680236506692,0.015214843377743108,0.9816387743976889
2012-10-24,-1,-0.004316575560007806,-0.0035365437574330265,-0.005976827786172838,0.015214843377743108,0.9813869292233027
2012-10-26,-1,-0.003260648933238907,-0.0026806739390667477,-0.007680781424275183,0.015214843377743108,0.9815599805086418
2012-11-01,-1,-0.0011046064012975878,-0.000782570302882674,-0.007680781424275183,0.011629406624138782,0.9837940584865132
2012-11-05,-1,-0.0031146505859949974,-0.0025401567445084315,-0.01016059479039896,0.010321779285252117,0.9879529186233535
2012-11-07,-1,-0.002300264021667763,-0.0018399631541057963,-0.01016059479039896,0.00851477931163672,0.989507646608636
2012-11-09,-1,-0.0024670851703494368,-0.002078265967667402,-0.0028983264887431966,0.00851477931163672,0.9899138267550377
2012-11-13,-1,-0.0020135468660419345,-0.001610510907247257,-0.009181145319411057,0.007576644281779464,0.9905143689143635
2012-11-15,-1,-0.003672194719817526,-0.0030814813945905005,-0.004351840983013629,0.007576644281779464,0.990795671379065
2012-11-19,-1,-0.003196401829864139,-0.002621335945328841,-0.008238788508975643,0.0062756209108891115,0.9917082201615869
2012-11-21,-1,-0.0023676947029749947,-0.0018973532477986534,-0.008238788508975643,0.005544422568821276,0.9925715248345436
2012-11-26,0,-2.2133394540787762e-05,4.7983289172985095e-05,-0.009095543291716128,0.004514576082517142,0.9927329044296782
2012-11-28,1,0.0005083713911407624,0.0005706314631420829,-0.009401033279800719,0.004404429083905341,0.9922652001997412
2012-11-30,1,0.00022559358146564284,0.00025242024964008416,-0.009401033279800719,0.005624799025623942,0.9916988473634817
2012-12-04,-1,-0.0010999908538056717,-0.0009374421630699957,-0.007478282323085529,0.007367313011048224,0.9903004249299094
2012-12-06,-1,-0.001095154470038866,-0.0009183248799112732,-0.007478282323085529,0.007367313011048224,0.9904287919650362
2012-12-10,-1,-0.0008205175742830376,-0.0006715878817813077,-0.007478282323085529,0.00882853335321263,0.9901210881820606
2012-12-12,-1,-0.0006430957124726402,-0.0005165627107840463,-0.005801432442254015,0.008216648021466773,0.9905563973841455
2012-12-14,-1,-0.002097001016510015,-0.0017525509322253276,-0.0034805396056388277,0.008280209718756485,0.9905063076485338
2012-12-18,-1,-0.0028599750509598924,-0.0023633448032381113,-0.0034805396056388277,0.008151221886472777,0.9908292913944649
2012-12-20,-1,-0.0027546270730569463,-0.00230832554771444,-0.002829708013156857,0.008151221886472777,0.990643491556641
2012-12-24,-1,-0.002850855781618934,-0.002387376582809344,-0.0024922124588186477,0.008632254948230646,0.9896428699907712
2012-12-27,-1,-0.0036902014920979914,-0.003145739413814807,-0.0011963128562276042,0.01110700787927461,0.9881079636149689
2012-12-31,-1,-0.0007027691663983687,-0.0006619231259584941,-0.002708631083043557,0.008632254948230646,0.9901204015500059
2013-01-03,1,0.0015948102509713024,0.0018371991780708678,-0.002829708013156857,0.008151221886472777,0.9919910446000727
2013-01-07,1,0.0015630270163619554,0.0018454226772705478,-0.003077959992813095,0.008632254948230646,0.9908691960918565
2013-01-09,1,0.0019080609136554471,0.0022102849698872134,-0.005077611132830279,0.008151221886472777,0.9887542850950314
2013-01-11,1,0.00251666256880509,0.0028974278452458388,-0.008821253456481186,0.007648495663551827,0.9880270995824735
2013-01-15,1,0.003049582879805165,0.003530741234388326,-0.009252470940397193,0.002165120227179482,0.9874339963633887
2013-01-17,1,0.0024911345388568687,0.0029006156467559756,-0.008910396160193285,0.00755235734886823,0.9878113759371974
2013-01-22,1,0.002691735807366179,0.0031138581994632703,-0.008910396160193285,0.007017900538999056,0.9873749811917858
2013-01-24,1,0.0046258217085678194,0.00535786982638832,-0.009628917502900333,0.007017900538999056,0.9869706352425698
2013-01-28,1,0.004622507087161037,0.005320526451311305,-0.009628917502900333,0.006862620477404615,0.9882362040403453
2013-01-30,1,0.004857409780657169,0.0056656871346554075,-0.00816796808886776,0.007866534591822563,0.9890102995978299
2013-02-01,1,0.0054366191866591605,0.0063143831256504985,-0.00816796808886776,0.007866534591822563,0.988937450795671
2013-02-05,1,0.005042476391912824,0.005795855711770251,-0.007604219682839895,0.007866534591822563,0.9895208958087263
2013-02-07,1,0.0033193807607404036,0.0038558396503787,-0.007604219682839895,0.007986670911812738,0.9915239813488402
2013-02-11,1,0.0024917821640607464,0.002933531988453068,-0.003710220288195112,0.007986670911812738,0.9924158118029044
2013-02-13,1,0.0017031698693785009,0.001997790445823276,-0.0013117913110919205,0.007986670911812738,0.9927184143662491
2013-02-15,1,0.001530584963073814,0.0017793076656036906,-0.0005963895244148723,0.008399093581550549,0.9923654508651765
2013-02-20,1,0.0007173789723299755,0.0008113866547322089,-0.0005963895244148723,0.009802251273613297,0.9919452669857802
2013-02-22,1,2.9035655145045645e-06,5.70615025370015e-05,-0.0005963895244148723,0.008399093581550549,0.9928485047462197
2013-02-26,1,7.224436886560224e-06,7.819987400988363e-05,-0.0006738386726260492,0.008399093581550549,0.9927223040159532
2013-02-28,1,0.0006315213262957121,0.0006396783324748668,-0.0006738386726260492,0.009414053464898431,0.9925440934992376
2013-03-04,1,0.0019639173417391733,0.0021616410305938917,-0.0006738386726260492,0.007659435741226507,0.9936012346502243
2013-03-06,1,0.002474908928056142,0.0027667769209577028,-0.0036894986416369712,0.0049412976846857385,0.9934812464560169
2013-03-08,1,0.0020910165578869712,0.0023028438076526906,-0.0030683690365068163,0.0049412976846857385,0.9936445832983627
2013-03-12,1,0.002038275455355117,0.0022392850767162962,-0.0031807879827296394,0.009053147735491813,0.990885374289442
2013-03-14,1,0.002626111304040858,0.0029761764877566056,-0.0031807879827296394,0.005463796358885063,0.9910212268660334
2013-03-18,1,0.0025894280722923322,0.0028402674415908,-0.0036894986416369712,0.005463796358885063,0.9893506486993963
2013-03-20,1,0.0021901062257483482,0.002330804170004767,-0.005945715932319577,0.0026657794448746636,0.9893963188006506
2013-03-22,1,0.002040752903221069,0.002170408139828545,-0.005945715932319577,0.005793944964307318,0.9893883672973429
2013-03-26,1,0.0017026731880246488,0.0017900365421815293,-0.005009569570429895,0.006512026948984557,0.9893313625864333
2013-03-28,1,0.0034873827356076853,0.003905946081838732,-0.005670490157201759,0.005793944964307318,0.9896631612680981
2013-04-02,1,0.002252926411387006,0.0023858082501965008,-0.005670490157201759,0.006512026948984557,0.9892456025957261
2013-04-04,1,0.0019388797585987887,0.002076054562892576,-0.005758624384091234,0.006512026948984557,0.9880472826601147
2013-04-08,1,0.0016458558501681716,0.0016812206661692543,-0.005758624384091234,0.006512026948984557,0.9878601851277378
2013-04-10,1,0.004091914371793706,0.004503420220185658,-0.005758624384091234,0.008273591567928815,0.9900127875870258
2013-04-12,1,0.0030594394789206884,0.0032516142836138424,-0.005758624384091234,0.008273591567928815,0.9896559280565929
2013-04-16,1,0.002949391610217705,0.003165346883996422,-0.005758624384091234,0.008273591567928815,0.9910654333616095
2013-04-18,1,0.002508195369212968,0.002697026023170758,-0.004947205721020448,0.009718962861643442,0.9906473553644847
2013-04-22,1,0.0030729356566359207,0.0033634453920773112,-0.004947205721020448,0.009718962861643442,0.990794367820103
2013-04-24,1,0.002824883723547599,0.003064908827110996,-0.007491595820965019,0.009718962861643442,0.9899185006911374
2013-04-26,1,0.0027002239638504785,0.002931184310838366,-0.0063139361225972804,0.009718962861643442,0.989867139625435
2013-04-30,1,0.0026918324179860805,0.002853283044325948,-0.007076643319019781,0.009718962861643442,0.9896960761914917
2013-05-02,1,0.0013471058299947098,0.0013597245206036248,-0.00429214910877616,0.009718962861643442,0.9910218125603032
2013-05-06,1,0.0014851797678584397,0.0014946666403686205,-0.005160164353738584,0.008556130387355034,0.9914174841373508
2013-05-08,1,0.0022135144941156275,0.0023225125341044817,-0.005711633183986642,0.006646196125260258,0.9907006719492608
2013-05-10,1,0.001695148289251906,0.0016991084653712014,-0.007155015538342793,0.007582480879750464,0.9904185056392283
2013-05-14,1,0.001509269536207441,0.0015344425239971404,-0.006784967141851081,0.0049878141459420225,0.991216542710296
2013-05-16,1,0.0007484519012068499,0.0008803318176645634,-0.005790122625294505,0.0049878141459420225,0.9919094348368764
2013-05-20,1,0.0006335716748349688,0.0007867767392949116,-0.005790122625294505,0.00914762027453091,0.9908424611165441
2013-05-22,-1,-0.0006707958990731034,-0.0003211941193302321,-0.006784967141851081,0.008412659638925872,0.9906913515467527
2013-05-24,-1,-0.00033373946230360913,-6.17048472492021e-05,-0.008255115250281523,0.011907711525159417,0.9889254550147516
2013-05-29,1,0.0009685983748883883,0.0010112897416761424,-0.008255115250281523,0.011555282772072618,0.9888760015853046
2013-05-31,1,0.00024575176890433533,0.0003932314034837733,-0.008255115250281523,0.013044820173748046,0.9878921318068437
2013-06-04,1,2.6386833238312862e-05,0.0001823083186847065,-0.008255115250281523,0.013044820173748046,0.9875414953054553
2013-06-06,1,0.0010780616197984204,0.0010923974467996725,-0.008255115250281523,0.013044820173748046,0.9877379691264153
2013-06-10,1,0.0008077501684873069,0.0008504484027110179,-0.006156822529274082,0.014033009426232713,0.9876626179991398
2013-06-12,1,2.262299117206058e-05,0.00018249529431350338,-0.004904723238063334,0.014509058644282822,0.9868293067416033
2013-06-14,1,0.00023767926435754218,0.00036170702027688126,-0.004548230172261484,0.014509058644282822,0.9875765938148625
2013-06-18,1,0.0018456715382073727,0.0019867794690550823,-0.007153507767663785,0.012854128097902196,0.9879405645079566
2013-06-20,1,0.0005892679004579975,0.0005912183613682393,-0.00424229900527455,0.012854128097902196,0.9899092581206536
2013-06-24,1,0.00022695171471436807,0.00029652653798506337,-0.002876630608802409,0.01149076605857755,0.9913457488706231
2013-06-26,1,0.000886165664704066,0.0009196259730597867,-0.002876630608802409,0.010950183408410086,0.9914302809852511
2013-06-28,1,0.0008721184951738402,0.0009166422864703137,-0.002876630608802409,0.009519780434055297,0.9925420421662691
2013-07-02,1,0.00014319402812993363,0.00026848174364931454,-0.002876630608802409,0.008712920712121043,0.9929056864956954
2013-07-05,1,7.254803041821512e-05,0.00018319944242199432,-0.00424229900527455,0.008129763624726356,0.9883793016349055
2013-07-09,1,0.00039825368779344584,0.0005149760665493862,-0.002876630608802409,0.008129763624726356,0.9883888833331307
2013-07-11,1,0.0009663143800974532,0.0010239490235730388,-0.005017952364148773,0.005434374141805844,0.9880516537789221
2013-07-15,1,0.0006136020517780833,0.0007232411743983158,-0.005017952364148773,0.00829563972681598,0.9871748230180799
2013-07-17,0,-0.00013470134596810918,7.106822725434379e-05,-0.0006280331717898897,0.008502051330470226,0.9873689118359776
2013-07-19,0,-0.00016347749184682204,4.6549177275544075e-05,-0.004160443421864332,0.008502051330470226,0.9864560906227536
2013-07-23,1,0.00015227238891861347,0.00030915185167356026,-0.006266678054950053,0.008502051330470226,0.986447890289047
2013-07-25,1,0.0007557534712317,0.0008107293038793404,-0.009131758735505913,0.010015198864841018,0.9855421259355603
2013-07-29,1,0.0002466398917183658,0.0003505803589463298,-0.006266678054950053,0.010015198864841018,0.9862488385236249
2013-07-31,0,-5.5213562791795725e-05,8.791955937926936e-05,-0.00779131111021982,0.010015198864841018,0.9859411717541839
2013-08-02,-1,-0.0008709258596992453,-0.0006293517154536483,-0.007094803574763161,0.009790630104731846,0.9904770427641104
2013-08-06,-1,-0.000316463078843428,-0.00014506353678554675,-0.011616135294945238,0.008522764090508096,0.990304494691898
2013-08-08,0,-7.716543081544882e-05,3.6585944042727945e-05,-0.010293783221628041,0.0072513707748292095,0.9913252543544908
2013-08-12,1,0.0005588010820912065,0.0005996008821794867,-0.010293783221628041,0.008522764090508096,0.991320454963631
2013-08-14,1,0.0003306939256603562,0.0004059874943496875,-0.010293783221628041,0.0060681471696909664,0.991526705941932
2013-08-16,-1,-0.00034009548840945644,-0.0001747127095277975,-0.010293783221628041,0.0060681471696909664,0.9917523855234198
2013-08-20,0,-6.414121341920747e-05,3.756408943517798e-05,-0.010293783221628041,0.009526376494454581,0.9913143786249489
2013-08-22,1,8.523405339875894e-06,0.00011426181334419548,-0.006259010443386381,0.009526376494454581,0.9919543121612602
2013-08-26,-1,-0.000404470366011561,-0.00023408369709809821,-0.006259010443386381,0.0107870365764073,0.9911912299702529
2013-08-28,-1,-0.000651659542839722,-0.0004638806598687435,-0.005122635329692671,0.0107870365764073,0.9912602721780597
2013-08-30,1,0.0003246478474191237,0.00035307345494777257,-0.003484738180121119,0.009526376494454581,0.9922069467828698
2013-09-04,1,0.00011782627298049344,0.00012654906847876497,-0.003155503816561527,0.008380082419142577,0.9931081285354799
2013-09-06,-1,-0.0003360674416752771,-0.00026315023480089875,-0.003155503816561527,0.010406503376655,0.9928967036604884
2013-09-10,-1,-0.00011721956524437629,-4.9003378500724705e-05,-0.004516599585851542,0.0058646579387984475,0.9928471813474303
2013-09-12,-1,-0.00014016637782575264,-8.324206900226422e-05,-0.004655610449587214,0.008561279993603446,0.991398022823722
2013-09-16,-1,-0.0006153138484519386,-0.0005011009882950718,-0.003840246415243071,0.008561279993603446,0.9921608204489935
2013-09-18,-1,-0.00011579009408616258,-5.633538547468697e-05,-0.004655610449587214,0.008561279993603446,0.9918531245926937
2013-09-20,1,0.0003118055347088914,0.000334093832472008,-0.004655610449587214,0.010475903085298824,0.9916613357754052
2013-09-24,1,0.0003505293767203093,0.0003638672142722689,-0.004655610449587214,0.008403215655357184,0.9920402811027457
2013-09-26,1,0.0003517655992644799,0.0003631788030170076,-0.005353679696594807,0.008385767063524414,0.9921130511075659
2013-09-30,1,0.0007103010798343823,0.000779734976198713,-0.005353679696594807,0.008385767063524414,0.9919956094140319
2013-10-02,1,0.0004957036301840125,0.0005330560535090938,-0.008704346112629139,0.008385767063524414,0.9914919564380005
2013-10-04,1,0.0006926276728893056,0.0007593050540205915,-0.00994741056397765,0.006018895778653937,0.9911111950886806
2013-10-08,-1,-0.00013744297808206439,-8.972435206567868e-05,-0.0075530644260830455,0.006018895778653937,0.9917088110070165
2013-10-10,1,0.00020124789897411975,0.0002058903058824456,-0.0075530644260830455,0.004414561225281447,0.9928659841740656
2013-10-14,0,-1.4733042866654653e-05,2.980931679570959e-05,-0.0075530644260830455,0.008047331139145691,0.990480148244825
2013-10-16,1,7.164876010761409e-05,0.00011331953085946568,-0.006007387860645659,0.008985341206551267,0.9905696441844113
2013-10-18,1,0.0006504395274088856,0.0006789512228266317,-0.006007387860645659,0.008047331139145691,0.9908113291647916
2013-10-22,1,0.0005752030744472893,0.00057600000066093,-0.006007387860645659,0.008985341206551267,0.9904570702929588
2013-10-24,1,0.00013765026658721128,0.0002030961324435907,-0.004107612351019829,0.008985341206551267,0.9906887140371992
2013-10-28,1,0.000625824000024424,0.0006559995371796434,-0.004107612351019829,0.008985341206551267,0.9910077031022194
2013-10-30,1,6.395373551290411e-05,0.00011310548763280648,-0.0013549096794239482,0.009621891609554479,0.9909242078215488
2013-11-01,-1,-0.00045897652168386553,-0.0003317590940894803,-0.0013549096794239482,0.011521482061765873,0.9906121326612501
2013-11-05,-1,-0.0007230952743202726,-0.0005731711268779087,-0.00015479675027226745,0.011521482061765873,0.9907562375357425
2013-11-07,-1,-0.0005191288007905211,-0.00043238568890165174,0.001282257731728939,0.011803477401981465,0.9902929930787306
2013-11-11,1,8.988786333361581e-05,0.0001572045825385587,-0.0013549096794239482,0.011434325852180276,0.9926215925391872
2013-11-13,1,0.0006574339710518391,0.0006686802872342395,-0.0038371379540179224,0.011434325852180276,0.9929586041907074
2013-11-15,1,0.001174900405261005,0.001240760790005266,-0.0038371379540179224,0.010792975758309743,0.993408989309183
2013-11-19,1,0.0014376134762310458,0.0015397033301316494,-0.0038371379540179224,0.009649352132021713,0.9937537027384011
2013-11-21,1,0.0013910303949103671,0.001493395382153223,-0.004039590081729918,0.010886974205048274,0.9929762416226302
2013-11-25,1,0.0016298927498805966,0.001805606314217627,-0.004039590081729918,0.011453043302506365,0.9922575133297918
2013-11-27,1,0.0019884766194805015,0.0022214423921611765,-0.004818884941833132,0.011453043302506365,0.9916680422671316
2013-12-02,1,0.0022156309015703432,0.0025131592476472404,-0.004039590081729918,0.01124258987392694,0.9927098853706474
2013-12-04,1,0.002005733584605891,0.002267702447692869,-0.004039590081729918,0.01124258987392694,0.9920182613396881
2013-12-06,1,0.002152449160373736,0.0024048347329870823,-0.004818884941833132,0.009797143787191213,0.9922294322952686
2013-12-10,1,0.0018474281883411512,0.002059425015623003,-0.00160275832824909,0.009797143787191213,0.9923462156520826
2013-12-12,1,0.001968973730615088,0.0022106327349649753,-0.002671512347770963,0.008573853640083728,0.9920475087606808
2013-12-16,1,0.002281527619162972,0.0025799183821692668,-0.002671512347770963,0.00810334844172179,0.9922214973805213
2013-12-18,1,0.0022998151175811664,0.002574913986295367,-0.0036523562498387476,0.0075470077978119455,0.9921422037532095
2013-12-20,1,0.002474230494954335,0.0027605260470316252,-0.002611626469480131,0.006914048989293939,0.9930080773253884
2013-12-24,1,0.004413169278454256,0.004818311720894105,-0.005167807156160195,0.005402484287736992,0.9922261899332635
2013-12-27,1,0.004554004528483287,0.005009743458605799,-0.003049629793133413,0.005402484287736992,0.9926709698548055
2013-12-31,1,0.004569094764441631,0.004995926384183228,-0.003396984733328407,0.005147403518147414,0.9914906955987565
2014-01-03,1,0.004062187587679818,0.0044685332835750075,-0.003396984733328407,0.005147403518147414,0.9894055780057808
2014-01-07,1,0.0037523980432625417,0.004121660460412259,-0.0029844679137269103,0.006914048989293939,0.9897825664284297
2014-01-09,1,0.0035389748884464265,0.0038396375101604472,-0.003396984733328407,0.005465813433734719,0.9849472495032395
2014-01-13,1,0.002409591001313935,0.0025615529396135,-0.003396984733328407,0.00896217537931131,0.9853661459202787
2014-01-15,1,0.002711781535554595,0.002909630043640548,-0.003396984733328407,0.012289551245156221,0.9846923454185588
2014-01-17,1,0.002558961868860046,0.002722298122946654,-0.004604432968408462,0.012289551245156221,0.9843240327349415
2014-01-22,1,0.0023506161137512257,0.002452710517163561,-0.00707034411670548,0.012289551245156221,0.9838489965509144
2014-01-24,1,0.0014678906158803293,0.0014813745131944062,-0.004604432968408462,0.012608532254214813,0.9841267173340242
2014-01-28,1,0.001654408141224136,0.0016695667425568606,-0.004604432968408462,0.012289551245156221,0.9840902006981265
2014-01-30,1,0.0019146856055866548,0.0019252372885268515,-0.004604432968408462,0.012082126944454524,0.9850525361297661
2014-02-03,-1,-0.0002507942096195173,-2.3672597578402966e-05,-0.0016597897963867112,0.012289551245156221,0.986656561413228
2014-02-05,0,-0.0001642081102009765,6.92829392612385e-05,-0.0016597897963867112,0.012082126944454524,0.9867657408744235
2014-02-07,1,0.0013712574126854174,0.0014599250252735252,-0.0012290827286699445,0.01182660497085833,0.9917342839179212
2014-02-11,1,0.0013682346164759886,0.0014311081307807397,-0.0012290827286699445,0.011789159020540042,0.9924028683648356
2014-02-13,1,0.0021278076100045332,0.002177404464292235,-0.0023644348106744003,0.010358528018724937,0.9924666794394702
2014-02-18,1,0.0017971719442040003,0.001831128693142062,0.00012661105598640155,0.01102711916658936,0.9924862948081884
2014-02-20,1,0.0013658816738589586,0.0013900677555181314,0.0008349188787478126,0.01102711916658936,0.9921629167745093
2014-02-24,1,0.0021624684618452602,0.0022423966133643465,-0.0023644348106744003,0.009103478630405839,0.9922402879421458
2014-02-26,1,0.0024967566330344948,0.0026001010728014394,-0.0038819805156321105,0.006215478982490879,0.9911059314771532
2014-02-28,1,0.0027706122336377532,0.002910781017952451,-0.008531713339275089,0.005327401016557309,0.9898318366286996
2014-03-04,1,0.002995461538819421,0.0031070056001946053,-0.008531713339275089,0.006991910995501546,0.989099691041853
2014-03-06,1,0.0033238933682317126,0.0034892045666025115,-0.01152663483359372,0.005327401016557309,0.988420952852298
2014-03-10,1,0.003315835698620511,0.0034660614481544,-0.014921985476907724,0.0050046582371779105,0.987073532646665
2014-03-12,1,0.0032187845734204445,0.0033497980278055133,-0.014921985476907724,0.00530531753445668,0.9865665612280613
2014-03-14,1,0.00270710682695723,0.0028217995563603587,-0.015080445290699056,0.00530531753445668,0.9853578169887728
2014-03-18,1,0.0030171071125344026,0.003176459230633092,-0.015080445290699056,0.005179705345999657,0.9853114309762974
2014-03-20,1,0.0024152158097723894,0.002471156013068471,-0.015080445290699056,0.007505026917148012,0.9854187245654393
2014-03-24,1,0.0016434491519270462,0.0016790600628840365,-0.013270564256620047,0.012553379895348951,0.9861971353331699
2014-03-26,0,-3.2072388451961855e-05,0.0002337139524156382,-0.011817107050640563,0.012553379895348951,0.987317797037678
2014-03-28,-1,-0.001353298347478563,-0.0009059094103438649,-0.011817107050640563,0.012553379895348951,0.9877678910826505
2014-04-01,0,-4.7107092276773795e-05,0.0002780676620392649,-0.011817107050640563,0.012803833727674394,0.9882788397741281
2014-04-03,-1,-0.002259283261311468,-0.0017846729300055597,-0.011300581119965113,0.013643390147075003,0.9846823259945338
2014-04-07,-1,-0.002377617074201738,-0.001959074915091317,-0.011300581119965113,0.013643390147075003,0.9845283851732419
2014-04-09,-1,-0.001103797082894163,-0.0008699762728632393,-0.012937421371355317,0.013375331412060699,0.9845163274684624
2014-04-11,-1,-0.002444646742737572,-0.0020680145448498362,-0.011661468804448367,0.013643390147075003,0.985088616126004
2014-04-15,-1,-0.0014020231364617404,-0.001171701604766322,-0.012937421371355317,0.013643390147075003,0.9851313773145449
2014-04-17,-1,-0.0014160956784371047,-0.0011776067821977216,-0.013458704896912853,0.014749279630760212,0.9841047940185955
2014-04-22,-1,-0.0010669408556753992,-0.0008635513505282566,-0.013458704896912853,0.014749279630760212,0.9843194894224279
2014-04-24,-1,-0.0014931670385115925,-0.0012640080134622513,-0.013458704896912853,0.014749279630760212,0.9851193373970001
2014-04-28,-1,-0.0013615921050276526,-0.001155298268993163,-0.01326771705681272,0.014749279630760212,0.985093774152005
2014-04-30,1,0.00012189175353288702,0.0002201611410381992,-0.01326771705681272,0.00850911375507565,0.9863817769786406
2014-05-02,1,0.0020328511531223737,0.002200692300480829,-0.01326771705681272,0.0026294790894167736,0.9896247781781766
2014-05-06,1,0.00014321884495325997,0.0001855638522874762,-0.0057319274086453705,0.0073357268960723854,0.9913458141531104
2014-05-08,-1,-0.0007209025044161558,-0.0005959855977301083,-0.00444896193319657,0.0073357268960723854,0.9926437871655838
2014-05-12,1,0.0001716523030627097,0.00018300579978679853,-0.004676577712498416,0.002944661918002186,0.9935310281975331
2014-05-14,-1,-0.0001690578870971714,-8.07022153836223e-05,-0.004676577712498416,0.002944661918002186,0.9938248419549096
2014-05-16,1,0.00036762716023926655,0.000431587917419171,-0.004676577712498416,0.0012304208412424276,0.9951209937061296
2014-05-20,1,0.0004790308813337012,0.0005931717284772039,-0.004676577712498416,0.0012304208412424276,0.9950452256936193
2014-05-22,1,0.00039881417237586753,0.0004126585934691668,-0.006209413407077979,0.00234899886025717,0.9948107998005463
2014-05-27,1,0.0008028429457255105,0.0009586460457699801,-0.006615719817851775,0.0008022050970723694,0.9948663013671961
2014-05-29,1,0.00038094301765470904,0.00044899625383680385,-0.007436092083268044,0.0012304208412424276,0.9944043046994336
2014-06-02,1,0.0004014357350756306,0.00045852867524382444,-0.007436092083268044,0.004608596414887922,0.9933441502962397
2014-06-04,1,0.0012076402584217751,0.0013965555576682296,-0.00756141508974535,0.004608596414887922,0.9918762156922628
2014-06-06,1,0.00045751528040389935,0.0005080065824184749,-0.00756141508974535,0.005150283697447657,0.9915925359935156
2014-06-10,1,0.00031658032476917803,0.0003547730738290418,-0.007436092083268044,0.00682898029658777,0.9914969829982573
2014-06-12,-1,-1.9625246875855814e-05,-1.2751817977891459e-05,-0.006787324078959968,0.007194805448363472,0.9914785343029353
2014-06-16,-1,-0.00014124251793440316,-0.00013374624830951923,-0.0062666148274473765,0.007194805448363472,0.9917251021119303
2014-06-18,-1,-0.0002820078676229697,-0.00016276164866730583,-0.006805489566147215,0.007194805448363472,0.9915344557196055
2014-06-20,-1,-0.00020100104277812416,-0.00018916131819480354,-0.006805489566147215,0.007194805448363472,0.9914877053040323
2014-06-24,-1,-0.00021221883167696202,-0.00018794250119974303,-0.005377730741791732,0.007194805448363472,0.9918599857180163
2014-06-26,-1,-0.0013383533474627474,-0.0011204051947669785,-0.004308304879705736,0.005994002970729266,0.9925326572887854
2014-06-30,-1,-0.00031120539803230357,-0.0002361692682158643,-0.005164275262231512,0.004003264558274284,0.993191962244928
2014-07-02,-1,-0.0016552982875042933,-0.0014241411949429063,-0.005164275262231512,0.0034757941475155084,0.9946539651450993
2014-07-07,-1,-0.0016665573752180473,-0.001418594169122789,-0.004308304879705736,0.0034757941475155084,0.9946847481883613
2014-07-09,-1,-0.0008029044954110498,-0.0007117475508275424,-0.005164275262231512,0.0034757941475155084,0.9925558834499094
2014-07-11,-1,-0.0013113093585343251,-0.0011282521272830501,-0.004158535527108351,0.0034757941475155084,0.9926969354237282
2014-07-15,-1,-0.0015157204859942972,-0.001297814057033178,-0.005164275262231512,0.004139143273966224,0.992296581830934
2014-07-17,-1,-0.0014956066481232075,-0.0013314821827677763,-0.004158535527108351,0.005739235651339853,0.992220183216501
2014-07-21,-1,-0.0009195506639911636,-0.0008546264845271793,-0.0043448775469241184,0.005903450266898066,0.991633657847182
2014-07-23,-1,-0.0006195409076686045,-0.0006052601716280871,-0.0043448775469241184,0.0076266755768176564,0.9912801191950719
2014-07-25,-1,-0.00020009892727418485,-9.943457795155122e-05,-0.0043448775469241184,0.0076266755768176564,0.9913685428580523
2014-07-29,-1,-0.0002597863947394121,-0.0001428904468012825,-0.0017254294240349778,0.0076266755768176564,0.9914233503222739
2014-07-31,-1,-0.0003903563802832744,-0.0002710940706651707,-0.0012857668128180956,0.0076266755768176564,0.99220826831871
2014-08-04,1,0.0004749197534934423,0.0007249549617525157,-0.0012857668128180956,0.00812007106360755,0.9923920414663608
2014-08-06,1,0.0003993256707148109,0.0006094468242988935,-0.0012857668128180956,0.00656883986180987,0.9947141908594582
2014-08-08,1,0.0014715173459525779,0.001865369383457162,-0.0012857668128180956,0.00656883986180987,0.9953005915365304
2014-08-12,1,0.0013783996969513215,0.0017523201280663842,-0.0012857668128180956,0.008034348230104588,0.9948467646551735
2014-08-14,1,0.0014333654304734915,0.0017735279946503436,-0.0012857668128180956,0.008034348230104588,0.9950750297818475
2014-08-18,1,0.0008041520172306492,0.000976569256097942,-0.0012857668128180956,0.005347378590246099,0.9956838096786673
2014-08-20,1,0.0006278456720272803,0.0007229190485742558,-0.0019093599084526944,0.004950275296043997,0.995290317886074
2014-08-22,1,0.0016955357914646353,0.002031322484900453,-0.0034353768320631757,0.004950275296043997,0.9944616311452885
2014-08-26,1,0.0014334665233548356,0.00170026793502781,-0.0044759189083977535,0.00637315814154228,0.9932746976490351
2014-08-28,1,0.0007824962214052757,0.0008915091003164204,-0.006272617498806011,0.006628817017027581,0.9921300424659645
2014-09-02,1,0.0019049016450522426,0.0022194656652437805,-0.006272617498806011,0.006061274472501946,0.9922208464269026
2014-09-04,1,0.0009120626902117819,0.000995821897890487,-0.006272617498806011,0.00654582906436663,0.9919926867853833
2014-09-08,1,0.0016580259716642387,0.0018841149025963558,-0.006272617498806011,0.00654582906436663,0.9910492128066495
2014-09-10,1,0.0021024263691672472,0.0024054436225478294,-0.007283194744869695,0.006061274472501946,0.9912887469240199
2014-09-12,1,0.002452958382827564,0.0028301387971365636,-0.01356937199574562,0.006061274472501946,0.9896234584969303
2014-09-16,1,0.001744033864946871,0.0019757652459606576,-0.01356937199574562,0.00654582906436663,0.989774577679556
2014-09-18,1,0.0013293917940985771,0.001497804458018431,-0.012030465231255536,0.00654582906436663,0.9901934609546116
2014-09-22,1,0.0011823567009307814,0.0014032387085187968,-0.010676017363058302,0.008008696782058507,0.9901563010815483
2014-09-24,1,0.0019322057418692188,0.002308882768449663,-0.006050769591362143,0.008008696782058507,0.9906781700861814
2014-09-26,1,0.0007262642686593952,0.0008562404992224944,-0.004127420207382611,0.009440303847557853,0.9910243377183597
2014-09-30,1,0.00011504346176359113,0.00013327821687871493,-0.0037082674357967306,0.011359864003015694,0.9901456855360441
2014-10-02,1,0.0006566401393393497,0.0007464045059793571,-0.0037082674357967306,0.011359864003015694,0.990250475420904
2014-10-06,1,0.0005999081908915666,0.0006326981419582248,-0.0018922687370001871,0.01076077631880251,0.9910297435684378
2014-10-08,1,0.0007148265702347541,0.0007857522972896607,-0.001952959696128391,0.01076077631880251,0.9915434961201246
2014-10-10,-1,-0.0003768960576390077,-0.00030686010152481075,-0.001359343870190731,0.012256148594285783,0.9895571642730981
2014-10-14,-1,-0.00019831832024487322,-0.00013583124775136513,-0.001359343870190731,0.012256148594285783,0.9894568925005828
2014-10-16,1,6.503142583148781e-06,1.7846863609525707e-05,0.00037177768502785107,0.012825192709060261,0.9894618000904783
2014-10-20,1,0.000540875766879945,0.0005906874288738546,0.00037177768502785107,0.011846742281664092,0.9905556082779676
2014-10-22,1,0.0009870483522374574,0.0010997885784008329,-0.001952959696128391,0.01041522361046895,0.9910982541670603
2014-10-24,1,0.0018620112883020947,0.0021188827589251158,-0.0034116693716498684,0.008579711910529465,0.9912869062823614
2014-10-28,1,0.0021896501354931796,0.0024688556553945753,-0.002690743359551412,0.008547872865798964,0.9919976921667089
2014-10-30,1,0.002256729783422134,0.0025258230727003483,-0.002690743359551412,0.008547872865798964,0.9917042899887366
2014-11-03,1,0.0021584904271031782,0.002383950395019459,-0.004068911208180709,0.005168657742307996,0.9915128896543636
2014-11-05,1,0.001785403712728601,0.0019408743455619098,-0.006633816022120683,0.005168657742307996,0.991494573580018
2014-11-07,1,0.002599515474047062,0.002861707409778814,-0.006633816022120683,0.005103221839717046,0.9933315147619486
2014-11-11,1,0.0028461138026383047,0.0031327285575004594,-0.006633816022120683,0.004622764931250115,0.9932948934227708
2014-11-13,1,0.0028026903067324355,0.0030535914324896305,-0.007796835906401557,0.004622764931250115,0.9924594462920769
2014-11-17,1,0.0029180615025679348,0.0031805526274196498,-0.008150018826335065,0.006526988884674361,0.990823397241078
2014-11-19,1,0.0026165428993266647,0.002878497314675894,-0.007796835906401557,0.00835156515802611,0.9896647524073531
2014-11-21,1,0.0020768920583702777,0.0022591549685799226,-0.008248286035791383,0.00835156515802611,0.9893566346365917
2014-11-25,1,0.0022390995379259118,0.0024449143602192688,-0.008248286035791383,0.007504686749435023,0.9898073801138877
2014-11-28,1,0.0025987627327283265,0.002857840155651939,-0.008248286035791383,0.006526988884674361,0.9899495315216462
2014-12-02,1,0.0020741475971866653,0.002250435231159221,-0.009427687230039635,0.006526988884674361,0.9897854236021338
2014-12-04,1,0.0017831193988260576,0.0019093937413939774,-0.009654766718150513,0.006526988884674361,0.9889221107643144
2014-12-08,1,0.0010774762218712256,0.0010802566644286143,-0.009427687230039635,0.006526988884674361,0.9890563552710234
2014-12-10,1,0.001171433141810344,0.0011789480406140522,-0.009427687230039635,0.008055770628047215,0.9886602411835681
2014-12-12,1,0.0005684515385861008,0.0006333398731524187,-0.009204074166159695,0.0072245030421706335,0.9896797501728478
2014-12-16,1,0.0004255226155657373,0.000520707574230685,-0.009128200028220158,0.003583829890056444,0.9905535340122148
2014-12-18,1,0.0018659617449696768,0.001922066574742754,-0.009128200028220158,0.002757789845550214,0.9913319550453209
2014-12-22,1,0.0006765093536410846,0.00079334392767805,-0.007250588555184526,0.0038050677548823347,0.991825246289066
2014-12-24,1,0.000911499068178218,0.0009784656251055329,-0.007250588555184526,0.0038050677548823347,0.991656865048731
2014-12-29,1,0.001061889070447804,0.0010973009599148105,-0.007734676395275626,0.0038050677548823347,0.9912112188632998
2014-12-31,1,0.0006683989606057887,0.0007269901503397947,-0.007734676395275626,0.0072245030421706335,0.990372537818629
2015-01-05,-1,-0.00036123101012564235,-0.00017552247804414475,-0.007734676395275626,0.011377762386971003,0.990107977180228
2015-01-07,1,5.284434306588123e-05,0.0001696916426350291,-0.007734676395275626,0.008893525219161886,0.9872892376306536
2015-01-09,1,3.469950722823268e-05,0.00015847477085535164,-0.00922777338350731,0.006839528614064776,0.9872602908927991
2015-01-13,1,0.00017136404569621794,0.00026753808411387976,-0.00922777338350731,0.0056811378435511015,0.9874474944000817
2015-01-15,-1,-0.0003941114723334832,-0.0002320494921903879,-0.005988732921625398,0.016740078092518727,0.986266447105717
2015-01-20,1,0.0004638467207585156,0.0005285678433383759,-0.008730752996213276,0.016740078092518727,0.9862405502651236
2015-01-22,1,0.0010433998951309472,0.0010478793297381288,-0.008730752996213276,0.012421728858665812,0.9863356993649622
2015-01-26,1,0.0010127403119054579,0.0010299076015492954,-0.008730752996213276,0.012421728858665812,0.985995560682969
2015-01-28,1,0.00037717844077404523,0.000445428656425978,-0.008599637921529126,0.012421728858665812,0.9859517204705246
2015-01-30,1,0.0003088800946910525,0.000373546471278834,-0.0069888611446569816,0.009755551568680288,0.9870655303468415
2015-02-03,1,0.0005875550524624307,0.0006117064345462511,-0.0069888611446569816,0.00870311448374217,0.9877144105800088
2015-02-05,-1,-0.0014906447395726845,-0.001228473811326617,-0.0068635185737024405,0.008401539471900697,0.9913856609889611
2015-02-09,-1,-0.002264743032579682,-0.0019023950410386723,-0.0068635185737024405,0.008401539471900697,0.9910777069937803
2015-02-11,-1,-0.0019395985357399915,-0.0016021580563416894,-0.0068635185737024405,0.008401539471900697,0.9910481130185267
2015-02-13,-1,-0.00133777600894323,-0.0010408311236057913,-0.0068635185737024405,0.006906532779916745,0.99232099779252
2015-02-18,-1,-0.0009120475913982007,-0.0006631635706460216,-0.006020269938630321,0.005876446779840075,0.9936159081659264
2015-02-20,-1,-0.00081902767147395,-0.0005530333958356181,-0.006020269938630321,0.0033612783524762033,0.9937121358743295
2015-02-24,-1,-0.0007882396371543598,-0.0005223995265012115,-0.006812676331896639,0.0033612783524762033,0.9934939517460718
2015-02-26,-1,-0.0013214900822281304,-0.0009948851353497614,-0.006812676331896639,0.0033612783524762033,0.9930319346643125
2015-03-02,-1,-0.0014371980092584757,-0.0011254763395185392,-0.005482051605972092,0.007138140039810797,0.9917665554542401
2015-03-04,-1,-0.002231096548462982,-0.0018163916501657896,-0.004429414702540493,0.007138140039810797,0.9918874963615735
2015-03-06,-1,-0.003031732501105503,-0.002470034076198754,-0.0019384155089243265,0.007138140039810797,0.9918911684825632
2015-03-10,-1,-0.003486650563414366,-0.0028799797023836664,-0.0011389142574542816,0.007813800322776723,0.9918935440336621
2015-03-12,-1,-0.0034506322904272815,-0.002833706745607239,-0.0011389142574542816,0.007813800322776723,0.9920739603697426
2015-03-16,-1,-0.002641351418202189,-0.002153182837697578,-0.0019384155089243265,0.005002797409415371,0.9929649468001761
2015-03-18,-1,-0.0022999345334830086,-0.0018856937740126518,-0.0019384155089243265,0.005002797409415371,0.9929249870670956
2015-03-20,-1,-0.001383270355633745,-0.0011035532004467974,-0.004429414702540493,0.005002797409415371,0.9931031888948106
2015-03-24,-1,-0.001094944922408914,-0.0008798552298557829,-0.004429414702540493,0.0033678974488524,0.9935164048918427
2015-03-26,-1,-0.0014849452581688358,-0.001240473830915515,-0.004429414702540493,0.005002797409415371,0.9932139731712064
2015-03-30,-1,-0.0001835855861849547,-0.00010454414032803845,-0.004456679685907158,0.0026375969142293067,0.9946833957506531
2015-04-01,-1,-0.0006938023101259599,-0.0005456678489528674,-0.0037313466749658505,0.0026375969142293067,0.994958887530825
2015-04-06,1,0.0003852404323311992,0.00041787828735469825,-0.0037313466749658505,0.004101406311664233,0.9942411569450684
2015-04-08,1,0.0008497438130469291,0.0009681023004036772,-0.00515286164478561,0.0037225869217015375,0.9937398282613583
2015-04-10,1,0.001179009098473435,0.0013644365919037896,-0.00515286164478561,0.007204832986771213,0.9930913132515456
2015-04-14,1,0.0010141686740981746,0.001196095812580409,-0.008234339314307382,0.007204832986771213,0.992414946152757
2015-04-16,1,0.0008014539490674858,0.0009342211490833822,-0.008234339314307382,0.009293021837912589,0.9901547511727244
2015-04-20,1,0.0003767378122149778,0.0004321438706795925,-0.00689021196158884,0.008176055310794086,0.9908152275367047
2015-04-22,1,0.00016368002022565948,0.00020467819640860172,-0.004763410281054485,0.008707223707156111,0.9908118763856875
2015-04-24,1,0.0005404964665781916,0.0006521048944415706,-0.004942624521991118,0.007590532579889804,0.9915831748897568
2015-04-28,1,0.0003476167470413172,0.00041468239117684795,-0.004942624521991118,0.008707223707156111,0.9909120635905413
2015-04-30,1,0.00011919718430154563,0.0001435718173704157,-0.005979064899326061,0.008707223707156111,0.9905498187065848
2015-05-04,1,0.0005565531846858579,0.0006223931409842713,-0.0065704397547152885,0.007590532579889804,0.9910056377085611
2015-05-06,1,0.00047334589955703153,0.0005394281320487367,-0.0065704397547152885,0.007590532579889804,0.9911451281915422
2015-05-08,1,0.0007305787193061418,0.0008043993641855285,-0.007205708121847782,0.005917000747640247,0.9910338310321086
2015-05-12,1,0.00015140549065092879,0.0001550064126806134,-0.005979064899326061,0.007568668608285348,0.9917152980524617
2015-05-14,1,0.002522113430145436,0.002936216686026524,-0.005979064899326061,0.005917000747640247,0.9929900555985779
2015-05-18,1,0.0020103976832839573,0.0023177543343784967,-0.005057250710038234,0.007556478242055731,0.9928275717686244
2015-05-20,1,0.0021889337374002386,0.0025238834007567015,-0.005057250710038234,0.005917000747640247,0.9932854587482715
2015-05-22,1,0.0017381795254657294,0.002005031165035304,-0.0046499375914980596,0.006801667580057675,0.9936134679972124
2015-05-27,1,0.0019309810119777031,0.0021920323126117403,-0.0053184512873710515,0.006801667580057675,0.9934066391058622
2015-05-29,1,0.0010866481363985055,0.0011925096982361616,-0.0046499375914980596,0.006801667580057675,0.9938751168920006
2015-06-02,1,0.000894773914944567,0.0009889385583301447,-0.0046499375914980596,0.006801667580057675,0.9930955898245348
2015-06-04,1,0.0008714154853540997,0.0009706281367537143,-0.0034494277887154087,0.005722781779116187,0.9935464816388809
2015-06-08,1,0.0006701222846532805,0.0007445173131425996,-0.003139550048094102,0.004799454384242083,0.9940552174190441
2015-06-10,1,0.0006360397535798469,0.0006743151373609644,-0.0036686141134829285,0.0041836350663245064,0.994116347668969
2015-06-12,1,0.0011029120258631744,0.0012559116737906732,-0.003139550048094102,0.0041836350663245064,0.9943338182973602
2015-06-16,1,0.0016112247558625302,0.001869474598253945,-0.0022189357493900405,0.0041836350663245064,0.9947391471167316
2015-06-18,1,0.0016222863354736251,0.001870838028220848,-0.003139550048094102,0.004799454384242083,0.9937748296782022
2015-06-22,1,0.0015430914681980887,0.0017520447602307884,-0.00447703986183216,0.0041836350663245064,0.9935334010255906
2015-06-24,1,0.0012265134739967852,0.0013854955241560237,-0.003581789936729654,0.0041836350663245064,0.994130735967031
2015-06-26,1,0.0012870115938344892,0.0014652624236896944,-0.005852042252912466,0.0041836350663245064,0.9934866045938668
2015-06-30,-1,-0.0006473514100170507,-0.000478986823758427,-0.004486231194825821,0.005422948237226241,0.9939546122698998
2015-07-02,-1,-0.0008700936554717373,-0.0006451300723337207,-0.004486231194825821,0.007147505440110146,0.9934534924635852
2015-07-07,-1,-0.0008493832725838985,-0.0006500758322908276,-0.004486231194825821,0.007147505440110146,0.9931772831736649
2015-07-09,-1,-0.0005713710646243995,-0.0004619992699654917,-0.004486231194825821,0.008139333097848787,0.9911210794937989
2015-07-13,1,4.481836392419954e-05,5.4692369747920436e-05,-0.004486231194825821,0.008766295862902564,0.9911533320642133
2015-07-15,1,0.0005126007890758056,0.0005921995074175338,-0.005852042252912466,0.008147418731886314,0.9911330594984133
2015-07-17,1,0.0006924487108195543,0.0008008520039071543,-0.004486231194825821,0.006650788664394277,0.9919782417342335
2015-07-21,1,3.034912136274392e-05,3.784876859312682e-05,-0.003023931819441079,0.00709964804836202,0.9919215839977378
2015-07-23,-1,-7.899669267576833e-05,-4.1924378919756494e-05,-0.005833095192279101,0.006809223649651568,0.9911255208677453
2015-07-27,-1,-0.0011970126711914534,-0.0009964766399680252,-0.007852543142220784,0.006809223649651568,0.9884230860289329
2015-07-29,1,0.00015529629249681564,0.0002890221734441587,-0.007852543142220784,0.006809223649651568,0.9879715540360814
2015-07-31,1,0.00027558364008363294,0.00042268815062719865,-0.007852543142220784,0.006366349526022913,0.9877907402470815
2015-08-04,1,0.0005490026166282661,0.0006566806971921367,-0.016018070956536724,0.006366349526022913,0.9860922835015922
2015-08-06,1,0.0008019464264330872,0.0008574915014920344,-0.009821705026965784,0.006366349526022913,0.9874634242571168
2015-08-10,1,0.0009227485494567006,0.0009623547612804183,-0.01489119749198936,0.006366349526022913,0.9860137289263304
2015-08-12,1,0.0011650359913245715,0.0011965427814636025,-0.01489119749198936,0.006366349526022913,0.985770964708786
2015-08-14,1,0.00117448670702524,0.001200289724670249,-0.01489119749198936,0.008692554811471399,0.9851603289523961
2015-08-18,1,0.0007316015959747191,0.0007857370990768057,-0.01489119749198936,0.012751488669738058,0.9846023317016347
2015-08-20,1,0.0007041579598282738,0.0007065708164017508,-0.01395020629853505,0.012751488669738058,0.9854565966497837
2015-08-24,1,0.0003608047961164624,0.00041477544158699563,-0.006680393017279271,0.012751488669738058,0.9878936968344277
2015-08-26,1,0.0006074294720680971,0.0006324457155058907,-0.008593381091006052,0.010735349088277613,0.9885249344938928
2015-08-28,1,0.0010703501528875343,0.0011117220712180426,-0.01395020629853505,0.00970037215994406,0.9881855605388776
2015-09-01,-1,-0.00016190115039505258,-5.362099220138788e-05,-0.006625177734412641,0.00970037215994406,0.989806330197182
2015-09-03,1,0.0003838289781723765,0.00044683648289951507,-0.007654096211901025,0.009682857987907592,0.9899738368376273
2015-09-08,1,0.0012615504784832228,0.0013152590508908085,-0.006625177734412641,0.005055428288531817,0.9916388527329474
2015-09-10,1,0.0005797003367412892,0.0006281942193020606,-0.006069029493408817,0.005768066780906131,0.9922792581421592
2015-09-14,1,0.00046548379055230893,0.0005440604566086624,-0.006069029493408817,0.009682857987907592,0.9921068730835642
2015-09-16,1,0.0012942919315323763,0.001317803718112255,-0.006625177734412641,0.0038111383340300757,0.9921976465462118
2015-09-18,1,0.0007809358179024572,0.0008233844118630547,-0.006625177734412641,0.005949988124402367,0.9917807337481455
2015-09-22,1,0.0007285204111816492,0.0007904082308468002,-0.004325147106561488,0.005949988124402367,0.9921097686356452
2015-09-24,1,0.0004189338713619273,0.0004932000085726083,-0.004325147106561488,0.01024757083960131,0.9916247670412751
2015-09-28,-1,-0.0002701663838661808,-0.0001074662230478306,-0.003123022368527731,0.01024757083960131,0.9925335042994761
2015-09-30,1,1.2711164180364068e-05,0.0001260481831209916,-0.0018718576281988154,0.010401482895926531,0.9922663937180005
2015-10-02,0,-7.440520238034771e-05,7.945785483740893e-05,-0.0018718576281988154,0.011041565650488997,0.9922026557243949
2015-10-06,1,0.0012774428625766047,0.0013791690334103292,-0.0020275209462814426,0.011041565650488997,0.9922399147401801
2015-10-08,1,0.001274291587376318,0.001359223584049722,-0.004009029672411321,0.011041565650488997,0.9901448900716368
2015-10-12,1,0.0013971965477609736,0.0015386228480732483,-0.004009029672411321,0.00600839856634367,0.9909930379586319
2015-10-14,1,0.0004970295652072798,0.0005019091107250407,-0.004009029672411321,0.010968158586118479,0.9911148559083315
2015-10-16,1,0.0012665344511918696,0.0014036079777328945,-0.005688900092542725,0.00600839856634367,0.9909679873056684
2015-10-20,1,0.0012387094227422327,0.0013408771664547732,-0.005688900092542725,0.005919525931996078,0.9910366999080588
2015-10-22,1,0.0014809245640479006,0.0015972318445819503,-0.005349555187473211,0.005919525931996078,0.9912895248961444
2015-10-26,1,0.0015772986276842357,0.0016937925627656663,-0.005349555187473211,0.012504340116494405,0.9901530049730218
2015-10-28,1,0.0018385492174430237,0.001970575459557798,-0.005349555187473211,0.012420526006516913,0.9900028384373286
2015-10-30,1,0.0021561515632637415,0.002341899566332033,-0.004814141330556796,0.010701540683075703,0.9907074200651561
2015-11-03,1,0.0019581717543434045,0.002116859196945315,-0.004814141330556796,0.010701540683075703,0.9900842695127007
2015-11-05,1,0.0016267119764449608,0.0017512811716088813,-0.004814141330556796,0.010701540683075703,0.9912291030413561
2015-11-09,1,0.0015760333988255886,0.0016966259980368509,-0.0057802685480164645,0.010701540683075703,0.9907877073369096
2015-11-11,1,0.0017708791303891452,0.0019188396716166964,-0.0064633148243547975,0.00815214910365693,0.9907473770056021
2015-11-13,1,0.0009115748971696518,0.0009243550935705471,-0.0051366016827372,0.00815214910365693,0.9902686251814907
2015-11-17,1,0.0011186959611468555,0.0011527643180374958,-0.0051366016827372,0.01293595593811664,0.989628701390964
2015-11-19,1,0.0012080806282151245,0.001217318260741411,-0.009082354696808634,0.00868831062726582,0.9897032332547929
2015-11-23,1,0.0023909631142096078,0.002569907036775023,-0.012094673708824392,0.007223517489861709,0.9898584262470981
2015-11-25,1,0.0028038118983385505,0.0030199789345944747,-0.012094673708824392,0.006410710788637056,0.9902991802580594
2015-11-30,1,0.002713087026982112,0.0028859201208731185,-0.012094673708824392,0.006315518402876183,0.9903181383522152
2015-12-02,1,0.0024943762386850383,0.0026526043987657485,-0.010095568835494447,0.006315518402876183,0.990345822049799
2015-12-04,1,0.002143247611479179,0.0022757823190483173,-0.010095568835494447,0.007663414015398547,0.9895217601625705
2015-12-08,1,0.0021948435980663206,0.002346755647925358,-0.012398399924454155,0.007663414015398547,0.9883548637923526
2015-12-10,1,0.000945249521362527,0.0009790942850926693,-0.010095568835494447,0.007663414015398547,0.9888441174043863
2015-12-14,1,0.00033685838362630655,0.0004414841888390234,-0.010095568835494447,0.010358586050140289,0.9882771885182589
2015-12-16,1,0.0009005392150158495,0.000980471714948426,-0.010095568835494447,0.00811353902768721,0.9883887497537128
2015-12-18,1,0.0004642728382346134,0.000565170048737822,-0.011986043754332838,0.00811353902768721,0.9877536938417788
2015-12-22,1,0.0013128659322293674,0.0013406357113672405,-0.01117537024581383,0.00811353902768721,0.9880541724729098
2015-12-24,1,0.0017189840801215266,0.0018123850802296223,-0.011295698122021641,0.00811353902768721,0.9870762899751814
2015-12-29,1,0.0020774469347279354,0.0022218414609105736,-0.015479356858060147,0.010456592898081703,0.9855742302051577
2015-12-31,1,0.0014572592811428497,0.0015737767232830513,-0.015479356858060147,0.01209153252763323,0.9850055304775357
2016-01-05,1,0.0013825824346098017,0.001474626338122973,-0.015479356858060147,0.01209153252763323,0.9856026944214388
2016-01-07,1,0.00032084687657775516,0.00036682575033333706,-0.015479356858060147,0.01209153252763323,0.9852666993288023
2016-01-11,1,0.00011232468376331178,0.00017338419070917307,-0.01716724708871599,0.012198435567835958,0.9834585215023599
2016-01-13,-1,-0.0013374061431554495,-0.001059818033493554,-0.015800656848948165,0.012198435567835958,0.9846586658871944
2016-01-15,-1,-0.0010331460530369893,-0.0008092908035368229,-0.015800656848948165,0.012906011596879366,0.9847617291425537
2016-01-20,-1,-0.0018801883757040652,-0.0015825994263917987,-0.014361118250311087,0.016441278337107533,0.984999820675865
2016-01-22,-1,-0.0010816624108961927,-0.0009081517825996605,-0.014361118250311087,0.012911667188810122,0.98547836481636
2016-01-26,-1,-0.0016429340076510872,-0.001333518228721145,-0.014361118250311087,0.011238959985668664,0.9861569111957308
2016-01-28,-1,-0.0010504367857303836,-0.0008453264210400356,-0.013408523059516108,0.011238959985668664,0.9868317013978911
2016-02-01,1,0.0009060494592348668,0.0009590029831847327,-0.013408523059516108,0.011238959985668664,0.9874700929822453
2016-02-03,-1,-0.00017090775464219052,-6.909822292467657e-05,-0.01218757468266492,0.011238959985668664,0.9886334811728769
2016-02-05,-1,-0.0014244513560965895,-0.0011872506371425787,-0.0041091864634749415,0.012911667188810122,0.9895402466014399
2016-02-09,-1,-0.00130963341021505,-0.0011338827267258088,-0.005220995449175798,0.012911667188810122,0.9909043832446848
2016-02-11,-1,-0.002146309862208153,-0.001852888839297466,-0.005220995449175798,0.012911667188810122,0.9905921491842661
2016-02-16,-1,-0.0012070596907650432,-0.0010289171202986494,-0.005220995449175798,0.011882672971426126,0.9914091710566342
2016-02-18,-1,-0.0015658270201557834,-0.0013119252918956446,-0.003998117305192221,0.009447217018705437,0.9918177386730762
2016-02-22,-1,-0.001531973532475995,-0.001247507824781668,-0.003998117305192221,0.008846200563768572,0.9916459283725055
2016-02-24,-1,-0.0022114691030148516,-0.0018444861842725046,-0.0032288789868496217,0.008846200563768572,0.991868074225413
2016-02-26,-1,-0.0014368536236915286,-0.0011697652281182193,-0.0032288789868496217,0.0087476567036569,0.9925370630472398
2016-03-01,-1,-0.0009353619503046783,-0.00071178363646765,-0.003052854908783613,0.0087476567036569,0.9929116338709092
2016-03-03,-1,-0.0008145889841222626,-0.0006151144368792613,-0.003052854908783613,0.009815994868224612,0.9917863205108568
2016-03-07,1,0.00013801306483190214,0.00018964499116676427,-0.0035994819820832405,0.009150404088396761,0.9921817417264778
2016-03-09,-1,-0.0010394359046324358,-0.0008167056606950595,-0.003218358097943217,0.009150404088396761,0.9923645033990968
2016-03-11,-1,-0.0007435802742633943,-0.000580019582899558,-0.003218358097943217,0.0087476567036569,0.9930961887765208
2016-03-15,-1,-0.000599720924474101,-0.0004693140191506441,-0.0030234138060463195,0.0087476567036569,0.9928134142082404
2016-03-17,1,0.00037652162177418845,0.0003804051229943388,-0.004301226400069399,0.009150404088396761,0.9924942193294773
2016-03-21,1,0.0010361740922850537,0.0011360144779099719,-0.004301226400069399,0.008352216674947907,0.9931198255601592
2016-03-23,1,0.001063672877065669,0.0011947308962078984,-0.004736858072019468,0.008352216674947907,0.9928167682215868
2016-03-28,1,0.0014654741031679059,0.0016685072010565395,-0.004736858072019468,0.00544273278276641,0.9930509616663845
2016-03-30,1,0.0018322718677914395,0.0020748956926502004,-0.004736858072019468,0.0037769778628422737,0.993370010012411
2016-04-01,1,0.00255847762770413,0.002821561698413632,-0.008336087439309022,0.003193237815349021,0.9934599309530305
2016-04-05,1,0.0018534246139722947,0.0020206480007206712,-0.008336087439309022,0.0034937595224709857,0.9933113165418733
2016-04-07,1,0.0014413422249975494,0.0015628434938675117,-0.004685378732492786,0.004767782918038151,0.9897998943578428
2016-04-11,-1,-0.0001709804787329445,-0.00011488431023491056,-0.004880639973089631,0.006162419499594312,0.9883815430548983
2016-04-13,1,0.00044340922027619504,0.0004789445602643627,-0.007754946918490026,0.007430826440040924,0.9875257258495301
2016-04-15,1,0.000836018231752482,0.0009510693740316458,-0.005507798908410585,0.006266349759928509,0.9881420309304929
2016-04-19,1,0.0015110828389896113,0.0017794482331962957,-0.007754946918490026,0.006266349759928509,0.9876486562425206
2016-04-21,1,0.001527391767135324,0.0018355361231836968,-0.005507798908410585,0.006764251433272039,0.9881476627635907
2016-04-25,1,0.0016379934572461556,0.001978278534641188,-0.005507798908410585,0.009025128910446783,0.9878684264508274
2016-04-27,1,0.0015857804238113358,0.0019031120197080648,-0.005507798908410585,0.011170417014441485,0.9869245924489713
2016-04-29,1,0.0011557404013685824,0.00140040820782816,-0.0036438856476389394,0.011170417014441485,0.9871217386124385
2016-05-03,1,0.0012032165062044937,0.001454486480437478,-0.0036438856476389394,0.009025128910446783,0.9879297753257429
2016-05-05,1,0.004286384842290065,0.004912235869336029,-0.0036438856476389394,0.008937985205029166,0.9920983639935709
2016-05-09,1,0.0037299188001804935,0.004250811209589922,-0.0029281324266579385,0.006764251433272039,0.9935501542255879
2016-05-11,1,0.004479524688713349,0.0051428483035571935,-0.003351040660960746,0.005385736719371822,0.9939310477632803
2016-05-13,1,0.004141569405920961,0.004715156737065181,-0.003351040660960746,0.004974591274980702,0.9939076241260234
2016-05-17,1,0.004108451832875732,0.004698849625536145,-0.0029281324266579385,0.003915870923592251,0.9942131373961369
2016-05-19,1,0.0045690999327476665,0.005237852033432179,-0.00391035761212681,0.002972424892215785,0.9926050055323168
2016-05-23,1,0.00475000953112182,0.005454172828132595,-0.004682598826928588,0.002972424892215785,0.9923131782187884
2016-05-25,1,0.005120243275316218,0.005837991869845197,-0.004682598826928588,0.002972424892215785,0.9923159282584146
2016-05-27,1,0.004907266337788618,0.005563261912934905,-0.006528097155118063,-7.331651294565176e-05,0.9883361607896378
2016-06-01,1,0.004063841039592874,0.004545504472277624,-0.005563921608493623,0.0042418083307229106,0.988810836373231
2016-06-03,1,0.00403364632762712,0.004496244030094184,-0.005563921608493623,0.0042418083307229106,0.9882545474737643
2016-06-07,1,0.0033799129597166765,0.003715272161165759,-0.005563921608493623,0.005552396272684354,0.9886377893195266
2016-06-09,1,0.0033443605667215267,0.003719248988763744,-0.004936851779211302,0.008828697752826953,0.9888187965185485
2016-06-13,1,0.002529420427533092,0.0027291324157928966,-0.0031933758519517097,0.008828697752826953,0.9893779136249617
2016-06-15,1,0.002511570617465097,0.0027228740163225975,-0.00354116571311646,0.008828697752826953,0.9893311683663694
2016-06-17,1,0.0020157787274149297,0.002172543239152173,-0.003710265874054893,0.008828697752826953,0.9896771814747167
2016-06-21,1,0.001890753848183622,0.0020320838255481737,-0.0028825725728234804,0.010720590964239916,0.9900026035401227
2016-06-23,1,0.002695188468854047,0.002999004388426128,-0.003710265874054893,0.010131828423281329,0.9900406103305911
2016-06-27,1,0.0002083691458261766,0.000261531456945785,-0.0028825725728234804,0.010535021281385747,0.9928981261656551
2016-06-29,1,0.00019707872813274924,0.0003272564591791324,-0.0046748054838175734,0.0066232773580867845,0.9937219922930945
2016-07-01,1,0.00043787657617021865,0.000555998112369746,-0.0046748054838175734,0.0066232773580867845,0.9941535410919476
2016-07-06,1,5.674207384599576e-05,0.0002645899526459363,-0.004909921152644817,0.0066232773580867845,0.9938925126301266
2016-07-08,1,0.00047013271565061164,0.0005969223438600829,-0.005200322347623571,0.004020715201478317,0.9922343561348904
2016-07-12,1,0.0004649451685199263,0.0005962867066091639,-0.005882923205303657,0.003086239272878352,0.9921291242069311
2016-07-14,1,0.0005183252060011062,0.0006336888144862218,-0.005882923205303657,0.0027137430015974798,0.992286431741935
2016-07-18,-1,-0.0003229954854220065,-8.003842259613522e-05,-0.005882923205303657,0.0027137430015974798,0.992557148273362
2016-07-20,1,0.00020186127691193784,0.00036630728126502854,-0.007716487657740927,0.0006896895234667609,0.991736951383
2016-07-22,1,0.0004043119958100314,0.0005298626765280121,-0.007716487657740927,0.0009399476074960554,0.9922868598008265
2016-07-26,1,0.00042957213000744575,0.0005551918462233522,-0.007716487657740927,0.00018955408605883671,0.9928210910269545
2016-07-28,1,8.312177301150292e-05,0.00023822310462045713,-0.008496357833064457,0.0009399476074960554,0.9928166403488615
2016-08-01,0,-0.00010681068545658455,0.0001024613217628376,-0.008496357833064457,0.0019314135953810434,0.9931787600776403
2016-08-03,-1,-0.00047135283568322994,-0.0002139830948731632,-0.008496357833064457,0.0018935297052948366,0.9932576401845024
2016-08-05,-1,-0.0019132064096506556,-0.0014816221834822517,-0.007706998308257947,0.002326702249461207,0.9948437504657779
2016-08-09,-1,-0.001886649208124067,-0.001481378079248404,-0.0039898507530162705,0.002326702249461207,0.9950854945547709
2016-08-11,-1,-0.0016637819530634312,-0.0013023082829693943,-0.009209786809626398,0.0018935297052948366,0.9941028401729483
2016-08-15,-1,-0.002257125631612276,-0.0018149860403984617,-0.008496357833064457,0.0023485605832842564,0.9937316575837571
2016-08-17,-1,-0.0028846646327429825,-0.0023780772916954505,-0.00607094323280442,0.003658147367117254,0.9934128008550913
2016-08-19,-1,-0.0026247203303930424,-0.002164725647630163,-0.006865941060916859,0.0034789206953894855,0.99363571553853
2016-08-23,-1,-0.0022853715168913917,-0.0019035253700825192,-0.006865941060916859,0.007255637599063696,0.9930007382628395
2016-08-25,-1,-0.0026129620215445183,-0.0021683509564061638,-0.00622690921731196,0.007255637599063696,0.9930882953276208
2016-08-29,-1,-0.0025979909490598755,-0.002136483120653545,-0.00622690921731196,0.0034789206953894855,0.9936854248211925
2016-08-31,-1,-0.003095056138901632,-0.0025578150869908917,-0.00622690921731196,0.0025177963116070046,0.9936100369292297
2016-09-02,-1,-0.0028687536569775565,-0.0023702467220502316,-0.00622690921731196,0.002773909278870311,0.9934904439088744
2016-09-07,-1,-0.002894650655781706,-0.0023967895919942183,-0.006435461880863475,0.002773909278870311,0.9932795937416307
2016-09-09,-1,-0.003641431264396344,-0.0030631553999408787,-0.0061077699718784075,0.002773909278870311,0.9942216161990959
2016-09-13,-1,-0.0036302673968228207,-0.0030374579577611073,-0.0061077699718784075,0.002773909278870311,0.9943425424603535
2016-09-15,-1,-0.0033589563681094003,-0.002790396864905319,-0.0061077699718784075,0.002773909278870311,0.9945149979151497
2016-09-19,-1,-0.0037373135165894474,-0.003123380405540233,-0.005732535932183886,0.002773909278870311,0.994594055493238
2016-09-21,-1,-0.003887157913227103,-0.0032402575766393342,-0.005246850183140776,0.002773909278870311,0.9946599890580397
2016-09-23,-1,-0.003806781488511041,-0.0031681287406865252,-0.005802053486701058,0.002773909278870311,0.9947455649660145
2016-09-27,-1,-0.0018326163799868393,-0.0015761922113397063,-0.006466072655301411,0.004412056271611489,0.9932350250920977
2016-09-29,-1,-0.002216836603020679,-0.0019307602144480584,-0.006466072655301411,0.004412056271611489,0.9936271817850688
2016-10-03,-1,-0.0017298264260334996,-0.001522136452308046,-0.006466072655301411,0.006006704153435111,0.9933646511128421
2016-10-05,-1,-0.0017476955651191603,-0.0015447916625736195,-0.005951803506572546,0.006006704153435111,0.9935178251788989
2016-10-07,-1,-0.0017176553978885747,-0.0015565766311123011,-0.005950964957657513,0.007042763621553811,0.9889952548559237
2016-10-11,-1,-0.001423716733244802,-0.0013141263695158048,-0.005246850183140776,0.008269536472514192,0.9873821674457888
2016-10-13,-1,-0.0010807295047448248,-0.0010208698332644542,-0.004592296340707221,0.008269536472514192,0.9870213908204128
2016-10-17,-1,-0.0008841817782019906,-0.0008813747594477054,-0.0025280843480762097,0.008269536472514192,0.9867620887106722
2016-10-19,-1,-0.0005590866235481105,-0.000502567668182472,-0.0009932954695508055,0.009533391637151068,0.9868367250034719
2016-10-21,-1,-0.0004975837200478776,-0.0004369379592764422,-0.0009932954695508055,0.012176556052284303,0.9860195590352432
2016-10-25,-1,-0.0008088279854969795,-0.0007750886311576113,0.0002535554557740463,0.012176556052284303,0.9869066499310752
2016-10-27,-1,-0.0009423024416792221,-0.0009267664737156768,0.0005090353783813098,0.012176556052284303,0.9870812652747776
2016-10-31,-1,-0.0006702671029529424,-0.0006270734330894167,0.0005090353783813098,0.011613673830895524,0.9873810702202542
2016-11-02,-1,-0.0006494287405582927,-0.000605511747256458,-0.00317910968733117,0.011613673830895524,0.98615117301067
2016-11-04,-1,-0.00053359114973582,-0.0004643791752337543,-0.00317910968733117,0.00749331983281236,0.9902564916742396
2016-11-08,1,0.0002877687306134172,0.00044379765728121427,-0.00317910968733117,0.007316961941691355,0.9915304310006309
2016-11-10,1,0.0007702643695796476,0.000993684001880414,-0.004744293360684661,0.007316961941691355,0.9920314130228477
2016-11-14,1,0.0012656213054790158,0.0015828784898913849,-0.0067066056579069885,0.008816690556658461,0.9913320077429244
2016-11-16,1,0.000489804144369919,0.0005773158733213082,-0.008048886143126755,0.007316961941691355,0.9911022004962734
2016-11-18,1,0.0008859835755295165,0.0010771367225088258,-0.006451403304016183,0.007306635755134135,0.9922431025737226
2016-11-22,1,0.0014098304333546008,0.0017002310057006955,-0.0071213390303114955,0.007228142036663478,0.9919470580591995
2016-11-25,1,0.001427867080044134,0.001733292380168041,-0.00800478272096965,0.007228142036663478,0.9914545712763635
2016-11-29,1,0.0016741302438288512,0.002019327671736227,-0.008676472848351872,0.006721104395827192,0.9911184220795155
2016-12-01,1,0.001013790077510758,0.0012820311789541853,-0.0071213390303114955,0.006721104395827192,0.9925040226549047
2016-12-05,1,0.0009841719681760613,0.0012537309547453052,-0.0071213390303114955,0.008609354105865795,0.991703802515656
2016-12-07,1,0.0016338699049402894,0.00196449669059449,-0.00800478272096965,0.005911724870577126,0.985168445020271
2016-12-09,1,0.0018725462754734308,0.0022627733733914506,-0.00800478272096965,0.005911724870577126,0.9851964767613001
2016-12-13,1,0.0019170012980559415,0.0023221675475189945,-0.0071213390303114955,0.008672384474140014,0.985462767243436
2016-12-15,1,0.0019578518972635708,0.0023819961182511068,-0.007332437962045196,0.010101004966271438,0.9838101333253945
2016-12-19,1,0.0020946157687925524,0.0025167082565759414,-0.007332437962045196,0.010101004966271438,0.9837563036583509
2016-12-21,1,0.002235652819017357,0.0026929198756881845,-0.007200637707800179,0.01044594645961211,0.9839020593347214
2016-12-23,1,0.001773963970365178,0.0021665599222134325,-0.004454075189278929,0.01044594645961211,0.9845803787191767
2016-12-28,1,0.0008639880503223636,0.0010581957318526337,-0.0039737063563221806,0.01044594645961211,0.9844031084320083
2016-12-30,1,0.0006922599060209154,0.0008541513572747757,-0.006880810255505928,0.01044594645961211,0.9839450025257604
2017-01-04,1,0.0011261961004979287,0.001352420586977562,-0.005831965668003879,0.009007434636414558,0.9851923637065342
2017-01-06,1,1.9194340806197112e-05,7.836520613226455e-05,-0.0053748190773278024,0.006557034420796353,0.9919321193658636
2017-01-10,-1,-6.851542069931812e-05,-5.664079909563229e-05,-0.0053748190773278024,0.0048485505927840546,0.9926016105505955
2017-01-12,1,0.0005231896080618303,0.0006176545967604846,-0.0053748190773278024,0.0048485505927840546,0.9928056365204986
2017-01-17,1,0.00014056343716659596,0.000172478197534679,-0.004786532571393508,0.0043918857499807736,0.9946784096710232
2017-01-19,1,6.216372985710046e-05,8.619174045224214e-05,-0.0041045246898619376,0.005747469848289599,0.9940714633329075
2017-01-23,1,0.000701021250701521,0.0008274953182621919,-0.0041045246898619376,0.004838186815041579,0.994666236027537
2017-01-25,1,0.0006776870623014078,0.0007847802705114586,-0.004786532571393508,0.004104357161548427,0.9944990796802938
2017-01-27,1,0.0005296294045609818,0.0006231465028700992,-0.0041045246898619376,0.006172780747458083,0.9942014184886454
2017-01-31,1,0.0002510849851208438,0.00030851196931868286,-0.003159557522820076,0.007634740225964355,0.9936351903768098
2017-02-02,1,8.034545519965586e-05,9.769129806891835e-05,-0.003159557522820076,0.007634740225964355,0.9936197942095619
2017-02-06,-1,-0.0002638311259454157,-0.00022085946647286268,-0.0029006821420470962,0.007634740225964355,0.9937431109406041
2017-02-08,1,4.116792702785031e-05,6.472482852284187e-05,-0.0019822704536956995,0.008104439490848997,0.9935423937812099
2017-02-10,1,0.0002610217681160535,0.0002780517571371872,-0.0019822704536956995,0.008487356985793393,0.9925314177437669
2017-02-14,1,0.0004397674435688642,0.0004954861370721313,-0.0018767384365497282,0.010046595740852813,0.9915455912734754
2017-02-16,1,0.0008757045198212062,0.0009868651707802827,-0.0029006821420470962,0.008487356985793393,0.9923683257066842
2017-02-21,1,0.0008197731427674892,0.0009146630447470548,-0.0031585896348618123,0.008487356985793393,0.9914932365465705
2017-02-23,1,0.00025987794569248097,0.0002709767688252238,-0.0031585896348618123,0.010046595740852813,0.9906774911648563
2017-02-27,1,0.0009699028093865551,0.0010658795486233883,-0.0031585896348618123,0.008487356985793393,0.9914800214046522
2017-03-01,1,0.0005985625580483267,0.0006324290808788812,-0.0031585896348618123,0.004575593297150841,0.9920036757718812
2017-03-03,1,0.00023352217265335722,0.0002585331224603745,-0.0031585896348618123,0.004575593297150841,0.9919848438858597
2017-03-07,1,0.00021923403397209126,0.00025190038288425473,-0.002703735502179101,0.008311764618740653,0.9917472587344798
2017-03-09,1,0.0006795175007082582,0.0007213485222716451,-0.002703735502179101,0.009505320960005198,0.9915309649538325
2017-03-13,1,0.0012536549474754968,0.0013462178340637966,-0.0036305360347709545,0.003419587476152551,0.993163468065197
2017-03-15,1,0.0019469305568971113,0.0021354048062962247,-0.004019376024803988,0.0023106343068617346,0.9938758332554173
2017-03-17,1,0.001487813227747901,0.0016172496943210389,-0.0037188619371180233,0.003419587476152551,0.9934054997208697
2017-03-21,1,0.00040603978149158105,0.00045853821520331175,-0.0033184874567412713,0.005879323973804286,0.9937800072466884
2017-03-23,1,5.763785665040857e-05,0.00017153985786132192,-0.0032768958825669854,0.005642262979512392,0.9945178670995859
2017-03-27,1,0.0005377688259336239,0.0005813065131319004,-0.0032768958825669854,0.0075813610526304295,0.9941557405697067
2017-03-29,0,-0.0001051623948480166,1.7958947501713258e-05,-0.0028718599814574544,0.0075813610526304295,0.9944718637546943
2017-03-31,-1,-0.00024061756296748246,-6.473783438526714e-05,-0.002662473477941521,0.0075813610526304295,0.994762869008744
2017-04-04,1,0.0007959215969773606,0.0008115148899635607,-0.0028718599814574544,0.006237761600807572,0.994876628986354
2017-04-06,1,0.0014161609683302674,0.0015509889342802648,-0.0032768958825669854,0.0034500579271847134,0.9951278646675891
2017-04-10,1,0.0012000899883826944,0.0013193297402560307,-0.0028718599814574544,0.003906312212873073,0.9955022805425878
2017-04-12,1,0.0012155410821463343,0.0013595258183409175,-0.0032768958825669854,0.003906312212873073,0.9953121884877578
2017-04-17,1,0.0016033554472111747,0.0017945760402928515,-0.0032768958825669854,0.005385199217200138,0.9958386389555114
2017-04-19,1,0.002039624941424658,0.002303412839876508,-0.0034955779548166057,0.003758076591556935,0.9952690766360662
2017-04-21,1,0.001912257753927851,0.0021460433919970037,-0.0023612171197280995,0.005385199217200138,0.9951341435917326
2017-04-25,1,0.0021379613871620783,0.002410761061858082,-0.0023560939168676045,0.0041528569506622485,0.995287170968171
2017-04-27,1,0.0017136025387421124,0.0018731993605700544,-0.0023560939168676045,0.005605431606914067,0.9939045377758756
2017-05-01,1,0.0016579107778751905,0.0017971566851182742,-0.0023560939168676045,0.006519720431086633,0.9935557499679865
2017-05-03,1,0.001892382487883675,0.0021189276770863094,-0.0016452802239116347,0.008306785003155692,0.9934967604782742
2017-05-05,1,0.0018662737015948836,0.002087060774103422,-0.0016452802239116347,0.008306785003155692,0.9936043150619607
2017-05-09,1,0.0017868911348353671,0.0019887607969897017,-0.0024214596137009147,0.008306785003155692,0.9931551477561896
2017-05-11,1,0.00134362322404591,0.0014730064196496562,-0.00198333460994108,0.008306785003155692,0.9927197683791976
2017-05-15,1,0.0018117831803525215,0.002017088501567504,-0.00198333460994108,0.009035261744851326,0.9925943694037392
2017-05-17,1,0.0009510012933534766,0.0010363113241537033,-0.0014791307543876927,0.009035261744851326,0.9929482752961455
2017-05-19,1,0.0012292476758090356,0.0013148629756186319,-0.00198333460994108,0.008446041344378735,0.9931687938042383
2017-05-23,1,0.0009746284352217998,0.0010027721000898716,-0.0024214596137009147,0.008446041344378735,0.99296446106673
2017-05-25,1,0.002000234589589651,0.0021510014986070008,-0.0024214596137009147,0.00789154928485284,0.9944741779578783
2017-05-30,1,0.002167070056000239,0.002346648437632384,-0.002865542362723128,0.00789154928485284,0.9942314768930068
2017-06-01,1,0.0019155965122611954,0.0019892554785388254,-0.0035440288836471423,0.007696924108907297,0.9937389923657846
2017-06-05,1,0.0019305400501724215,0.002022747235082133,-0.0035440288836471423,0.007696924108907297,0.9937316258642103
2017-06-07,1,0.0018618996853828665,0.0019916171358159013,-0.0037741305044013502,0.00789154928485284,0.9935347437793824
2017-06-09,1,0.001295188335921022,0.0013287948329285403,-0.002865542362723128,0.008006030135291387,0.9937595387504686
2017-06-13,1,0.0017422393845176283,0.001818322449989232,-0.002865542362723128,0.00789154928485284,0.9941371499045092
2017-06-15,1,0.0023778269629352706,0.002566319581929301,-0.0037741305044013502,0.0074645815060764235,0.9941365957699118
2017-06-19,1,0.0025404855258124933,0.0027598561532463984,-0.0037741305044013502,0.006909174234078623,0.9946890527956508
2017-06-21,1,0.0020685199353524856,0.0022048415637068134,-0.0037954924194772617,0.0074645815060764235,0.9939260640874803
2017-06-23,1,0.0018901522296413996,0.0019681628806438316,-0.0037954924194772617,0.006909174234078623,0.9941367380953546
2017-06-27,1,0.0013703185249410526,0.001375024368991232,-0.0005807608999327317,0.007503104674428024,0.994251177870948
2017-06-29,1,0.0013208354239558934,0.0013487970638222206,-0.0012217956261080356,0.006909174234078623,0.9946631683351879
2017-07-03,1,0.001196389707840226,0.0012502905328483536,-0.0012217956261080356,0.006909174234078623,0.994771236779759
2017-07-06,1,0.0015425482629329084,0.0015717601066531492,-0.0012217956261080356,0.006520733359159102,0.9947253363829774
2017-07-10,1,0.0019350046363530082,0.002012492550273058,-0.005004229231861161,0.005461616456906048,0.9945865127125733
2017-07-12,1,0.0017193556903300853,0.0017667707308912008,-0.007469685465959031,0.0031014420573423447,0.992426748200532
2017-07-14,1,0.0015398714939064031,0.0015562496424009475,-0.01026297772143609,0.002290126190197365,0.9915981641475399
2017-07-18,1,0.0012446374624082593,0.0012805728592088905,-0.01026297772143609,0.0031774607063187886,0.9911548025808946
2017-07-20,1,0.0014103125418007303,0.0014209864949151633,-0.006585820680874731,0.00604435466450749,0.9911234749886512
2017-07-24,1,0.0013882468995334413,0.0014005288713594272,-0.007558097870183584,0.0031774607063187886,0.990603638251551
2017-07-26,1,0.0013203092307374803,0.0013576296433936395,-0.007558097870183584,0.0027936004361687086,0.9905961610961254
2017-07-28,1,0.0007274875918236708,0.0008415129024695522,-0.006452495578256977,0.0027936004361687086,0.9914291164981442
2017-08-01,1,0.0007479248998043605,0.0008480522790382062,-0.006479337240342159,0.0016631276983963814,0.9912073006881336
2017-08-03,1,0.0015631985859246248,0.0015783799569732617,-0.0063682654588802625,0.0029651808935067204,0.9907387944689932
2017-08-07,1,0.0018266334332636075,0.0019332010687778405,-0.0063682654588802625,0.0029651808935067204,0.9910122706675077
2017-08-09,1,0.0009723459486399443,0.0009935473536868175,-0.004897200786157674,0.00810224132614953,0.9929159432888023
2017-08-11,-1,-0.0007009592040582978,-0.00043829943624325404,-0.004638243541386735,0.009562567641056199,0.9929753913920365
2017-08-15,-1,-0.0007760313174840763,-0.000498186551243071,-0.0024622640507295872,0.009562567641056199,0.9932768875138636
2017-08-17,1,0.00040969046049296943,0.0005539112590793958,-0.005129027902769508,0.005718761457751416,0.9930328867435605
2017-08-21,-1,-0.0004913540232548358,-0.00022455017105103966,-0.0024622640507295872,0.008540350684831412,0.992671119893823
2017-08-23,-1,-0.000834758372197744,-0.0005098396203613269,-0.0024891599116998787,0.008540350684831412,0.9922127043906154
2017-08-25,-1,-0.0008795090353562266,-0.0005565430687007587,-0.004078770603714671,0.008540350684831412,0.9917794329824327
2017-08-29,-1,-0.0008660933329386703,-0.0005732885237704279,-0.004078770603714671,0.008540350684831412,0.9916682026621781
2017-08-31,-1,-0.000410218612444379,-0.00015392900149800107,-0.004078770603714671,0.008318780846459182,0.9924090657838902
2017-09-05,-1,-0.000855597606899136,-0.0005326001182235853,-0.0022757730715055654,0.008318780846459182,0.9924933970987669
2017-09-07,1,0.0003142000132812506,0.00047807571393823655,-0.0043696174691244625,0.006938719522427026,0.992953119736614
2017-09-11,1,0.001309360447276937,0.0013393022030814797,-0.0043696174691244625,0.0065143628892781885,0.993285182149699
2017-09-13,1,0.0012257935298126,0.0012633561525112193,-0.0043696174691244625,0.0065143628892781885,0.9935508297897204
2017-09-15,1,3.786140976661163e-05,0.0002097798682088878,-0.0030262679832320856,0.0065143628892781885,0.994995891884792
2017-09-19,1,0.0007931412884418944,0.0008701438802336106,-0.0034463606987961788,0.003760391080672808,0.9949161574032204
2017-09-21,1,0.0006190549629869935,0.0007167077558284506,-0.0030262679832320856,0.003760391080672808,0.9953873915148309
2017-09-25,1,0.0003938124103829557,0.0005405891321282608,-0.0030262679832320856,0.003760391080672808,0.9949081959576309
2017-09-27,0,-4.673714178567417e-05,0.00016187353698019402,-0.0030262679832320856,0.005988796535276951,0.9942714808125097
2017-09-29,1,0.00031810824555096335,0.0004839296009463684,-0.0030262679832320856,0.00537567323540114,0.9942752818019067
2017-10-03,0,-8.524506338363001e-05,0.00015250998059466764,-0.003477779774023807,0.005979856832186736,0.9936702143013378
