JNU-Tangyin/eata/results/Batch4_SP500/Batch4_SP500-ENS.csv
Date,Action,Predicted_Q25,Predicted_Q75,Actual_Q25,Actual_Q75,RL_Reward
2010-12-14,0,0.0,0.007851374623053518,-0.008365984758466498,0.009403462506252019,0.9920530581506463
2010-12-16,0,0.0,0.0,-0.007561833541227823,0.009108268610490775,0.9905370414849654
2010-12-20,0,0.0,0.0,-0.005584333902497736,0.009403462506252019,0.9901747886692728
2010-12-22,0,0.0,0.0,-0.00985604706428585,0.009223828821180752,0.9887895257297165
2010-12-27,1,0.0,0.007066421378971075,-0.00985604706428585,0.010322824816740506,0.9901224630396688
2010-12-29,1,0.003444820893495219,0.003715135630340853,-0.012006132598589106,0.012741223971956128,0.9859402732942502
2010-12-31,0,0.0,0.0,-0.015672545163216568,0.015254760571036466,0.9842585003886398
2011-01-04,0,0.0,0.0,-0.015672545163216568,0.015254760571036466,0.9833777745921796
2011-01-06,0,0.0,0.0,-0.012683436897803515,0.015254760571036466,0.9834349915717667
2011-01-10,0,0.0,0.0,-0.012683436897803515,0.016103742278235796,0.982594770252728
2011-01-12,0,0.0,0.0,-0.015164946693433419,0.021960478652010097,0.9805983242887637
2011-01-14,0,0.0,0.0,-0.015164946693433419,0.028528213494199643,0.9786388650098947
2011-01-19,0,-2.5748917900978016e-06,0.0002655320730623852,-0.015164946693433419,0.028528213494199643,0.9782184626276874
2011-01-21,-1,-0.0015943759521182177,-0.0011368329158312955,-0.005617623148510334,0.028528213494199643,0.9793943518794108
2011-01-25,0,-4.157751041417696e-05,0.00018724890988207018,-0.018583014484924845,0.021960478652010097,0.9787193535150636
2011-01-27,1,0.00011729735791346225,0.0002889377054053864,-0.015164946693433419,0.01691122975524301,0.9804359068878739
2011-01-31,-1,-0.00041394007767394433,-0.0001452423724210846,-0.01604350311749847,0.013839278682290885,0.9801383630399763
2011-02-02,-1,-0.0006168786227892611,-0.000331336707351194,-0.005617623148510334,0.013839278682290885,0.9808735689408965
2011-02-04,1,0.00011750342812679479,0.0003377348663936617,-0.010899792325233037,0.013839278682290885,0.9814825765122723
2011-02-08,1,0.0008689138238308392,0.0010326120492427362,-0.010899792325233037,0.01326448198098926,0.9823428179171575
2011-02-10,1,0.001467831157325814,0.0014946214058384933,-0.012624852538440211,0.011815887647605161,0.9840017476784371
2011-02-14,1,0.0019001631988819101,0.0019245940897236742,-0.017772974504038648,0.011454032082498627,0.9844783928239452
2011-02-16,1,0.0010261466091409362,0.0010939668630954322,-0.011476282787413096,0.011454032082498627,0.9857492659082869
2011-02-18,1,0.0005542061427198559,0.0007022460286261847,-0.011476282787413096,0.012700705754335045,0.9836003375104451
2011-02-23,0,0.0,0.0,-0.008939589641447919,0.012700705754335045,0.9859876449184405
2011-02-25,0,0.0,0.0,-0.008939589641447919,0.01301554109036622,0.9854176604887721
2011-03-01,0,-0.0001845785422650377,0.00012327880391669135,-0.008939589641447919,0.01823889449990947,0.9853933793892208
2011-03-03,1,0.0009394441106842703,0.0011068246150157822,-0.008939589641447919,0.01823889449990947,0.9856435230488596
2011-03-07,1,7.760645439202631e-05,0.00037014316411083676,-0.008939589641447919,0.01823889449990947,0.9840994456024902
2011-03-09,1,0.0007974526426854303,0.0010107265617654323,-0.008939589641447919,0.016893618460568048,0.9843912668283836
2011-03-11,0,-0.00018804543243191338,0.00014673122756078607,-0.008939589641447919,0.016893618460568048,0.9844378509610301
2011-03-15,-1,-0.0016672833188701407,-0.0011458998635188466,-0.010087793152677806,0.016893618460568048,0.9829199068255284
2011-03-17,0,0.0,0.0,-0.010087793152677806,0.011754357165673194,0.9836938075134593
2011-03-21,0,0.0,0.0,-0.014992031239279535,0.00860777047417987,0.9852430558867018
2011-03-23,0,-0.0001923764128045804,0.0001647585570283929,-0.014992031239279535,0.010833733661891134,0.9846187276102201
2011-03-25,1,9.960617602696072e-05,0.00045390372380955783,-0.014992031239279535,0.01045595798837236,0.9852331871363589
2011-03-29,0,0.0,0.0,-0.010022740655378313,0.013788567752945834,0.9850202824398209
2011-03-31,0,0.0,0.0,-0.011875972170227535,0.010427656050874323,0.9863406731385737
2011-04-04,0,0.0,0.0,-0.01810906213704318,0.010427656050874323,0.9855254291104706
2011-04-06,0,0.0,0.0,-0.01810906213704318,0.003584532953071794,0.9854671327492636
2011-04-08,0,0.0,0.0,-0.015992394646523737,0.011114894635257635,0.9853938964685499
2011-04-12,-1,-0.001578363523799114,-0.0011703056764874873,-0.011096045329707342,0.011114894635257635,0.9871838846919244
2011-04-14,0,0.0,0.0,-0.014299890995429285,0.013788567752945834,0.9853290590839558
2011-04-18,0,0.0,0.0,-0.015805993596521274,0.013788567752945834,0.9845377640975155
2011-04-20,0,0.0,0.0,-0.015805993596521274,0.013788567752945834,0.9842655174900596
2011-04-25,0,0.0,0.0,-0.01738946532310051,0.011114894635257635,0.983292189408511
2011-04-27,0,0.0,0.0,-0.01738946532310051,0.009518666639992696,0.9847979353998088
2011-04-29,0,0.0,0.0,-0.01738946532310051,0.010075515076392485,0.9844065583465696
2011-05-03,0,0.0,0.0,-0.016438558449058723,0.01015536246475143,0.9835255576472395
2011-05-05,0,0.0,0.0,-0.01738946532310051,0.010950763627158614,0.9827686777292599
2011-05-09,0,0.0,0.0,-0.01738946532310051,0.009500688819107435,0.9831898113314531
2011-05-11,0,0.0,0.0,-0.01851068274763673,0.00925541526866706,0.9828939691913932
2011-05-13,0,0.0,0.0,-0.01738946532310051,0.008827949126567118,0.9837124270200923
2011-05-17,0,0.0,0.0,-0.01738946532310051,0.00925541526866706,0.9831084796591109
2011-05-19,-1,-0.001091292550650447,-0.0009035281750405982,-0.01738946532310051,0.00925541526866706,0.9838793773969937
2011-05-23,-1,-0.0027810801756079076,-0.0023678488187122,-0.013315338436958686,0.010262284020472773,0.9838835520106278
2011-05-25,0,0.0,0.0,-0.013315338436958686,0.010262284020472773,0.9838351412228689
2011-05-27,-1,-0.002031793789022604,-0.0016965957786678346,-0.013315338436958686,0.009055187058929541,0.9841883516849274
2011-06-01,0,0.0,0.0,-0.011824838018388562,0.009678156251848183,0.9851923476760641
2011-06-03,0,0.0,0.0,-0.01152454361919068,0.013347168762190522,0.9850881147474678
2011-06-07,0,0.0,0.0,-0.011170739869187152,0.013347168762190522,0.9856367294454431
2011-06-09,-1,-0.00402258282265259,-0.003518036222304786,-0.011170739869187152,0.017200017283866855,0.9852784065102949
2011-06-13,-1,-0.005440596097221353,-0.004743461820054952,-0.011104359551214181,0.017200017283866855,0.98448668237827
2011-06-15,0,0.0,0.0,-0.007411533372697224,0.021307276588272646,0.9845183407265946
2011-06-17,-1,-0.005285812752967936,-0.004613864730554367,-0.007439931618703094,0.021307276588272646,0.982590512425922
2011-06-21,-1,-0.0038616820277787667,-0.003359811962248872,-0.009703118824464332,0.02056565627596403,0.9834634716283019
2011-06-23,-1,-0.003715725056107848,-0.0032383848104593086,-0.009703118824464332,0.02056565627596403,0.9838917854899185
2011-06-27,-1,-0.003861119106412286,-0.0033690149358293164,-0.010428831466949312,0.02056565627596403,0.9838037036392742
2011-06-29,-1,-0.0016589920592362342,-0.001461525494892204,-0.014909120164871415,0.017135535341636924,0.9835601734208838
2011-07-01,1,0.0007920904612857886,0.0009799527942192447,-0.01962508273431877,0.0025313460443773758,0.9828118635731443
2011-07-06,-1,-3.1465381814167825e-05,-1.3286861862749823e-05,-0.026335223603968477,0.0025313460443773758,0.9803096363765275
2011-07-08,0,0.0,0.0,-0.030726315440901486,-0.0019033516615670483,0.9753059665007889
2011-07-12,0,0.0,0.0,-0.03260646138610217,0.0025313460443773758,0.97409800148109
2011-07-14,0,0.0,0.0,-0.0416385820465132,-0.007399381121815875,0.9697174972030144
2011-07-18,0,0.0,0.0,-0.0416385820465132,-0.0019033516615670483,0.9678860918755631
2011-07-20,1,0.00010681420397170622,0.00011825489780441941,-0.0416385820465132,-0.0019033516615670483,0.9677723130251935
2011-07-22,-1,-0.0005984037421075855,-0.00048229850949718536,-0.04597941522408311,-0.009954857148090426,0.964310356397754
2011-07-26,-1,-0.0010276386113691,-0.0009314874863850325,-0.04597941522408311,-0.005452337251347689,0.962047839118348
2011-07-28,-1,-0.003686406105601554,-0.0032637755496265257,-0.04597941522408311,0.007285117751512854,0.9642137578242652
2011-08-01,-1,-0.004762844053795165,-0.004284794039552913,-0.04597941522408311,0.02020894817851898,0.9625253187456171
2011-08-03,-1,-0.006980658987765785,-0.006187315918576716,-0.04339595233424981,0.02020894817851898,0.9652465144723091
2011-08-05,-1,-0.01182749751165775,-0.010416980456824956,-0.035127769692081506,0.02020894817851898,0.9682525522479768
2011-08-09,-1,-0.010687732758243033,-0.00945720237854191,-0.033773008316481695,0.03363279627140872,0.9682813670125788
2011-08-11,-1,-0.012157896016848881,-0.010876693159394398,-0.027781754599243993,0.03363279627140872,0.9723348243670409
2011-08-15,-1,-0.00878359975220458,-0.007891770397910582,-0.027781754599243993,0.013418488401203639,0.9759204046146084
2011-08-17,-1,-0.008674235985328262,-0.00786835668889004,-0.02572638229581834,0.03112371377849034,0.9732477749489338
2011-08-19,-1,-0.01092083219849454,-0.009909498535873926,-0.012751122584759536,0.03112371377849034,0.9753267274920022
2011-08-23,-1,-0.0063290783629973745,-0.005958402632703655,-0.024042733236331576,0.018155105674256062,0.9770682821947564
2011-08-25,-1,-0.007127208022924527,-0.006613551501714362,-0.028722061138021393,0.03112371377849034,0.974495642253444
2011-08-29,-1,-0.0029907680944895264,-0.002936197456697321,-0.028722061138021393,0.017522107813148984,0.9766773565554673
2011-08-31,-1,-0.003586945893047548,-0.003512856467226263,-0.028722061138021393,0.031190988305210075,0.973800313504506
2011-09-02,-1,-0.006820092809959455,-0.006263916464666315,-0.02908964312097357,0.031190988305210075,0.9698071627569416
2011-09-07,-1,-0.0067283443728063256,-0.006187924032584156,-0.02908964312097357,0.031190988305210075,0.9679474719967354
2011-09-09,-1,-0.008580953459752488,-0.007800720189053529,-0.025989113426397214,0.033813623715535396,0.9665436485340819
2011-09-13,-1,-0.00658027343653851,-0.006089028788593905,-0.025989113426397214,0.0361437710899655,0.9653102681574713
2011-09-15,-1,-0.0028324604963363533,-0.0028267643211433643,-0.025989113426397214,0.033813623715535396,0.9677271968204098
2011-09-19,-1,-0.002651163738619725,-0.002514221351756756,-0.025989113426397214,0.033813623715535396,0.9671700709038343
2011-09-21,-1,-0.005506088610018958,-0.0052854544517816765,-0.024776600336033253,0.033813623715535396,0.9682075469518099
2011-09-23,-1,-0.006307250061419018,-0.005887525048314961,-0.024626086517557638,0.022070534413904934,0.9704330055991324
2011-09-27,-1,-0.004501629887019222,-0.004296031021775958,-0.024626086517557638,0.019678377438156192,0.9706862050535557
2011-09-29,-1,-0.0037152110715748506,-0.003708786133289045,-0.023887030742314,0.027991898295301763,0.9653798885952077
2011-10-03,-1,-0.011214087200199532,-0.010364769393490023,-0.017395259623594585,0.027991898295301763,0.9669313784548519
2011-10-05,-1,-0.0071459937722279585,-0.006796794452867962,-0.023887030742314,0.027991898295301763,0.9693923991828705
2011-10-07,-1,-0.006654973919651761,-0.006315493281167695,-0.02441842079623402,0.02838886447987385,0.9692700616952458
2011-10-11,-1,-0.0036808176259326268,-0.003615692639769393,-0.02441842079623402,0.023929737384492195,0.9710141464832831
2011-10-13,0,0.0,0.0,-0.024626086517557638,0.0287857758706433,0.9651525703305487
2011-10-17,0,0.0,0.0,-0.02457232760421002,0.0287857758706433,0.9659813455306396
2011-10-19,0,0.0,0.0,-0.022998317920944,0.03647317266805408,0.965230033615437
2011-10-21,0,0.0,0.0,-0.022998317920944,0.03647317266805408,0.9650543630927132
2011-10-25,0,0.0,0.0,-0.02617877101067872,0.03647317266805408,0.9643579137096356
2011-10-27,1,0.0013458213121152719,0.0017465490071880278,-0.03218302708437278,0.009218437040362105,0.9687028089505383
2011-10-31,1,0.0009786666734789944,0.0015387584494715618,-0.02617877101067872,0.026889114374398577,0.9690566964481128
2011-11-02,1,0.001537230729271385,0.002119214202080976,-0.022998317920944,0.026889114374398577,0.9700602771924225
2011-11-04,1,0.002131389342410961,0.0028034590877547808,-0.017646463351161934,0.026889114374398577,0.9704786570393532
2011-11-08,0,0.0,0.0,-0.017646463351161934,0.019682339255252992,0.97142905037494
2011-11-10,0,0.0,0.0,-0.017646463351161934,0.019682339255252992,0.9743613517846453
2011-11-14,0,0.0,0.0,-0.024248251365855043,0.019682339255252992,0.9716571880293828
2011-11-16,1,0.003557774334877929,0.0044504157578097,-0.030598017862424203,0.009889449640206077,0.9712793515717527
2011-11-18,1,0.0033139412306490905,0.00425562192488775,-0.0287609151230094,0.015459264896973761,0.9717015923811914
2011-11-22,1,0.003129741456500579,0.004129610752923313,-0.017128401437382538,0.02555417526750496,0.9716450957042122
2011-11-25,1,0.0017334348813543882,0.002545664541103193,-0.007676490672971685,0.02587232161244252,0.9736304098050734
2011-11-29,1,0.0029335190220413786,0.003926832848200872,-0.011482959699837722,0.019697866832108224,0.9742984182690082
2011-12-01,1,0.004188314580951087,0.005291536050968964,-0.011482959699837722,0.019697866832108224,0.9750811304525846
2011-12-05,1,0.006765065654864216,0.008315089329716925,-0.011855681036245581,0.019697866832108224,0.9760980135284121
2011-12-07,1,0.006893996595435704,0.008432298212941534,-0.011855681036245581,0.019697866832108224,0.9760434394790509
2011-12-09,1,0.008623355307011669,0.010429092304228359,-0.00437247229102277,0.019697866832108224,0.9795474099112362
2011-12-13,1,0.0063239386799240445,0.007833489301963297,-0.0026620015656887044,0.019697866832108224,0.9826499394941822
2011-12-15,1,0.005524018715916771,0.006885945180667493,-0.0026620015656887044,0.019697866832108224,0.9835483052756461
2011-12-19,1,0.0043105493339858775,0.005414682140239645,-0.002252234049968147,0.019697866832108224,0.9848101604877172
2011-12-21,1,0.006086149141093081,0.007363172301251346,-0.002252234049968147,0.016909841899477723,0.9871084510867204
2011-12-23,1,0.0058798387849526585,0.007044424057796785,-0.002252234049968147,0.017142136348334145,0.9866940184545706
2011-12-28,1,0.002929014881776394,0.003480473079183725,-0.002252234049968147,0.01640547109324135,0.9878477614751593
2011-12-30,1,0.0040783028983737485,0.004795572272047946,-0.002609150263822711,0.015322163813955415,0.9884851149199628
2012-01-04,1,0.002861650783531032,0.0031369748916102824,-0.002108276432568639,0.015322163813955415,0.9889097840119442
2012-01-06,1,0.003446104807805821,0.003912967656837814,-0.0005165407317440339,0.01640547109324135,0.9883391977779961
2012-01-10,1,0.004295787616821773,0.004825886664940759,-0.0005165407317440339,0.017372154320273683,0.9885895942834834
2012-01-12,1,0.0030766646810045277,0.003289983859537806,-0.0005165407317440339,0.019810601866360796,0.98660599489782
2012-01-17,1,0.0032706034539568478,0.0036378130588207128,0.001062723596598798,0.020716947305589675,0.9870408092154108
2012-01-19,1,0.0031340505260773113,0.0034155765884687616,-0.0005165407317440339,0.020716947305589675,0.9869090035929746
2012-01-23,1,0.004117887305498358,0.004646915782786687,-0.003277219855272823,0.020716947305589675,0.9868550496556466
2012-01-25,1,0.004903595313657088,0.005506801866349937,-0.0069901960076104875,0.020011103670911516,0.9872961262663826
2012-01-27,1,0.0035283072593988427,0.003839800738513477,-0.0069901960076104875,0.020011103670911516,0.9874515261816621
2012-01-31,0,0.0,0.0,-0.0069901960076104875,0.020011103670911516,0.9873233794635705
2012-02-02,0,0.0,0.0,-0.0069901960076104875,0.014337467483524335,0.9886334243007991
2012-02-06,0,0.0,0.0,-0.0069901960076104875,0.011858406988885397,0.989191562350559
2012-02-08,0,0.0,0.0,-0.0069901960076104875,0.011423740189382867,0.9899527511054554
2012-02-10,0,0.0,0.0,-0.0069901960076104875,0.010479385122114672,0.9918750458069157
2012-02-14,0,0.0,0.0,-0.0069901960076104875,0.009098545161123147,0.9922264060870648
2012-02-16,0,0.0,0.0,-0.007214154089597353,0.009098545161123147,0.9919284353055643
2012-02-21,0,0.0,0.0,-0.008234599345367914,0.01054281745111034,0.990752889387618
2012-02-23,0,0.0,0.0,-0.008234599345367914,0.01054281745111034,0.9897858177562012
2012-02-27,0,0.0,0.0,-0.006912505872702198,0.012021771893645512,0.9889778712399797
2012-02-29,0,0.0,0.0,-0.006912505872702198,0.012021771893645512,0.9882577972206364
2012-03-02,0,0.0,0.0,-0.006912505872702198,0.012021771893645512,0.9885606844656573
2012-03-06,0,0.0,0.0,-0.006912505872702198,0.013663696569745346,0.9875216023333773
2012-03-08,1,0.0037846562333989095,0.004275001546320888,-0.009830960810603499,0.012021771893645512,0.9870633778775507
2012-03-12,1,0.003716554890888001,0.004174113811260779,-0.01735404557788969,0.012021771893645512,0.9844809402737441
2012-03-14,1,0.003649168663036481,0.004033578255827903,-0.01735404557788969,0.012021771893645512,0.9847090079305935
2012-03-16,1,0.0036912781083243674,0.004063326483600797,-0.01735404557788969,0.011129774547076077,0.985125005306573
2012-03-20,1,0.0040871743775771265,0.004549867246142948,-0.012898488220766374,0.011129774547076077,0.9853765684463864
2012-03-22,1,0.005149381358197817,0.0059864125980959165,-0.011616199195861314,0.01128375478807155,0.9855782975692835
2012-03-26,1,0.004550938703532683,0.005164729548878425,-0.013155180906370668,0.010960436151591296,0.9850318812879667
2012-03-28,1,0.004199056731544063,0.004768653687024639,-0.011616199195861314,0.011816434810528423,0.9861859897726648
2012-03-30,1,0.00434798047191867,0.004971941686970738,-0.011616199195861314,0.011816434810528423,0.9864601409197825
2012-04-03,1,0.004585602706144625,0.00523040394812716,-0.011616199195861314,0.011411637013961601,0.9875624775235176
2012-04-05,1,0.0038096167844455502,0.004340394275726209,-0.013041794877159448,0.011411637013961601,0.9860869311077918
2012-04-10,1,0.0017785300917510815,0.001994674430395952,-0.0053871733654703635,0.011411637013961601,0.9886536743973312
2012-04-12,1,0.0024669440939832274,0.0027806611075467213,-0.008273299811837569,0.011411637013961601,0.9869489539115327
2012-04-16,1,0.0018290888389531391,0.0019867752999142094,-0.013041794877159448,0.011411637013961601,0.9860243679390372
2012-04-18,1,0.0014431007797332171,0.0015008680771114872,-0.013041794877159448,0.010365359248153606,0.9864197878331242
2012-04-20,0,-0.00013912122299644507,0.00011620777854419288,-0.01701624223786694,0.008647772880421373,0.9857801677136966
2012-04-24,-1,-0.0005856051666086776,-0.0002720775564203907,-0.012246560404701675,0.008647772880421373,0.9862831471947969
2012-04-26,1,0.000546511939428299,0.0007019215950177377,-0.012246560404701675,0.005711326607281734,0.9866835773193606
2012-04-30,1,0.0014200214946334263,0.0014322104308790936,-0.014921452646756931,0.004153614492429891,0.9843984491571952
2012-05-02,0,0.0,0.0,-0.014921452646756931,0.004153614492429891,0.9819816723699339
2012-05-04,0,0.0,0.0,-0.01280411641617765,0.004153614492429891,0.9823575570335111
2012-05-08,0,0.0,0.0,-0.01280411641617765,0.01883468403015994,0.9799224905588144
2012-05-10,0,0.0,0.0,-0.012680536783649714,0.008474622597316225,0.9819913510957072
2012-05-14,-1,-0.006209501491938656,-0.004967020526315279,-0.011179214723956573,0.013813990880505316,0.983509956440338
2012-05-16,-1,-0.004852101572079906,-0.003932441446582184,-0.012680536783649714,0.013813990880505316,0.982172756568302
2012-05-18,-1,-0.005671734333531089,-0.004687777363968228,-0.01111648619075892,0.013813990880505316,0.982859497649674
2012-05-22,-1,-0.005644763084145161,-0.004634740477081336,-0.01111648619075892,0.015948882375869257,0.9811465530266517
2012-05-24,-1,-0.005366558119420707,-0.004421957349700413,-0.012680536783649714,0.015948882375869257,0.9790827156859255
2012-05-29,-1,-0.003885815202036047,-0.003148145776163317,-0.012680536783649714,0.011547386909835925,0.9803854036302697
2012-05-31,-1,-0.00295577317259217,-0.002313505534861874,-0.011517901833148072,0.012801344764492288,0.9814439053097782
2012-06-04,-1,-0.003763360143857368,-0.0030947030075303035,-0.007748192014970579,0.018308609770243806,0.9801328932922844
2012-06-06,-1,-0.0018542157849983768,-0.0014160110398173597,-0.008458791685520595,0.012801344764492288,0.9817488163779675
2012-06-08,-1,-0.003116489191148851,-0.0024711960784299034,-0.010379854330301476,0.012801344764492288,0.9811704498507721
2012-06-12,-1,-0.002688162405270874,-0.0021220671282121467,-0.014056399965884061,0.012333962707960775,0.9805066149209299
2012-06-14,-1,-0.0036736930064652697,-0.002984419118976492,-0.014056399965884061,0.017101920185218607,0.9794745297516662
2012-06-18,-1,-0.002786454206023455,-0.0022738577688395326,-0.014056399965884061,0.024380924990295975,0.9773238805030634
2012-06-20,-1,-0.001370396515681293,-0.00100838928607853,-0.01832679445588723,0.023585184987468793,0.9778533439134617
2012-06-22,-1,-0.002844098691855948,-0.0022786747478467278,-0.01584223208613281,0.023585184987468793,0.9798987878166399
2012-06-26,-1,-0.0033513041738516447,-0.0027924145757893255,-0.01584223208613281,0.023585184987468793,0.9797916620313621
2012-06-28,-1,-0.0013342823279037688,-0.0010206543640776228,-0.01584223208613281,0.023140413405252296,0.9799721338873832
2012-07-02,1,0.0014184079876252795,0.0015278081396777668,-0.01584223208613281,0.01682047230078494,0.9818034607108317
2012-07-05,1,0.0024316577642606225,0.002753138060021491,-0.01832679445588723,0.013690363812245136,0.9811073514129276
2012-07-09,0,0.0,0.0,-0.01584223208613281,0.01682047230078494,0.9803777037812359
2012-07-11,0,0.0,0.0,-0.012289224997157388,0.02094538216191111,0.9813813963023886
2012-07-13,0,0.0,0.0,-0.0067665638865573394,0.02116133130288949,0.9805780084233734
2012-07-17,0,0.0,0.0,-0.012289224997157388,0.016160778266664007,0.9821010139739164
2012-07-19,0,0.0,0.0,-0.0067665638865573394,0.010884886233428134,0.9835061365142094
2012-07-23,0,0.0,0.0,-0.003910061077728269,0.010884886233428134,0.984195549908324
2012-07-25,0,0.0,0.0,-0.0030447169415033326,0.010884886233428134,0.9856722402481385
2012-07-27,0,0.0,0.0,-0.003910061077728269,0.005364608334466301,0.986823480999056
2012-07-31,0,0.0,0.0,-0.00146336840605552,0.007470944561009561,0.9866341815114034
2012-08-02,1,0.00044627460193101776,0.0005579447014821817,-0.00146336840605552,0.005823371566628365,0.9881946599954199
2012-08-06,1,0.0026661052573295468,0.0030971815189464917,-0.00146336840605552,0.005823371566628365,0.9882746204025697
2012-08-08,0,0.0,0.0,-0.004442829776604888,0.005823371566628365,0.9864953111670113
2012-08-10,0,0.0,0.0,-0.008228563269242518,0.0038304923699678337,0.9892330938936356
2012-08-14,0,0.0,0.0,-0.004570838563092735,0.004980170152484681,0.989866231938372
2012-08-16,0,0.0,0.0,-0.008228563269242518,0.003389027263889746,0.9899100407583992
2012-08-20,0,0.0,0.0,-0.010945438876840009,0.003389027263889746,0.9888542431545254
2012-08-22,0,0.0,0.0,-0.011609477550336152,0.003565475175318353,0.9883256361379167
2012-08-24,0,0.0,0.0,-0.013588946412072344,0.003565475175318353,0.9873439941129657
2012-08-28,1,0.0035564903242323908,0.004039890718126571,-0.013588946412072344,0.003389027263889746,0.9861832805426396
2012-08-30,1,0.001958715658162973,0.0021259249101438695,-0.01270349121764697,0.003565475175318353,0.9865319275971416
2012-09-04,1,0.004709087984057193,0.005286031280212202,-0.01270349121764697,0.004185118568536238,0.9874197627489829
2012-09-06,1,0.0035547876408131415,0.004002359978497702,-0.01270349121764697,0.0034523183913640655,0.9895393119212033
2012-09-10,1,0.0032373109450265797,0.003633172918136064,-0.01270349121764697,0.004185118568536238,0.9896597020016967
2012-09-12,1,0.003015022929967727,0.0033919455169255817,-0.015033196039244823,0.0025123622007351,0.9862696088273816
2012-09-14,1,0.002569209360957499,0.0028852347162851375,-0.01554630616722129,0.0034495022712455374,0.9861625944816973
2012-09-18,1,0.002193328492287457,0.0025116148474253978,-0.015033196039244823,0.0043789929611862686,0.9868828993966027
2012-09-20,1,0.0022152561753720655,0.0025414684762868297,-0.013522515564689447,0.006316798101788046,0.9873171745365368
2012-09-24,1,0.00111219746903093,0.0013233110374794381,-0.013184907760037798,0.006316798101788046,0.987904395524415
2012-09-26,-1,-0.000301520117622882,-0.00021187932293319933,-0.013184907760037798,0.006522040169609186,0.9878222427576329
2012-09-28,-1,-0.0001650622546512841,-0.00011355747535851126,-0.01091670840184825,0.006522040169609186,0.9879033799810757
2012-10-02,1,0.00011704070429126369,0.00017564584953039424,-0.01091670840184825,0.007250434502707502,0.9859001895011855
2012-10-04,-1,-0.0007555731688986932,-0.0005641137321991508,-0.009049090115516925,0.011679423883094366,0.9852751132142437
2012-10-08,-1,-0.001529751383593519,-0.0011784391751805934,-0.018304896538002997,0.011679423883094366,0.983538633492057
2012-10-10,-1,-0.005117117964601696,-0.004270581014377652,-0.008173181827782212,0.018014813573952973,0.9853649751319484
2012-10-12,-1,-0.005302108889399946,-0.004414394258601215,-0.008173181827782212,0.018014813573952973,0.9849436151731449
2012-10-16,-1,-0.004961230284899507,-0.004165469130928093,-0.014121291335088633,0.01150577757243819,0.9853723209817989
2012-10-18,-1,-0.004032102766886929,-0.0033909704798638757,-0.014121291335088633,0.01863752589558157,0.9840822247905284
2012-10-22,-1,-0.004100600386923105,-0.003538915581229682,-0.009452666699530793,0.021128624994102396,0.983216979417702
2012-10-24,-1,-0.0052541215669998365,-0.0044742580943767565,-0.011449167850103881,0.021128624994102396,0.9833619759735219
2012-10-26,-1,-0.0029933523342693356,-0.0025628574173330266,-0.011449167850103881,0.021803985900135336,0.9832273681950533
2012-11-01,-1,-0.001184927981192019,-0.0009967148596326091,-0.011449167850103881,0.016219894103712235,0.9852627735840792
2012-11-05,-1,-0.0007245584050650347,-0.0005929778646651511,-0.014121291335088633,0.008483316686335243,0.9857439987945357
2012-11-07,-1,-0.0032130967891953795,-0.0027021869018092034,-0.00856605462987599,0.008483316686335243,0.9881388324195646
2012-11-09,-1,-0.002845904391154229,-0.002425461605572676,-0.00856605462987599,0.016111775478623115,0.9872202313870846
2012-11-13,-1,-0.0035015741773337583,-0.003097097676294825,-0.005018253702370185,0.016111775478623115,0.9884828839029876
2012-11-15,-1,-0.005118790215837577,-0.004464020534802912,-0.0035837820594910074,0.016111775478623115,0.9883784861071226
2012-11-19,0,0.0,0.0,-0.001072303696152698,0.016111775478623115,0.9904061894734134
2012-11-21,0,0.0,0.0,-0.001072303696152698,0.013493493677231443,0.9909216434494229
2012-11-26,0,0.0,0.0,-0.0022015345024133845,0.013493493677231443,0.9913647066476918
2012-11-28,0,0.0,0.0,-0.0026591566015571077,0.008219366308887682,0.9921186443466249
2012-11-30,1,0.15306792630269678,0.15306792630269678,-0.0026591566015571077,0.008219366308887682,0.8702134154825947
2012-12-04,-1,-0.0021922087002880933,-0.001821260359922031,-0.0022015345024133845,0.013925799438670509,0.9900806130079638
2012-12-06,-1,-0.0022290314426006716,-0.0018380235116709214,-0.0030592979402998192,0.013925799438670509,0.9901173912791693
2012-12-10,1,0.0003851166656472139,0.0004297764098208834,-0.0030592979402998192,0.008219366308887682,0.9910080319680152
2012-12-12,0,0.0,0.0,-0.005085586251308869,0.008219366308887682,0.9906928091934829
2012-12-14,0,0.0,0.0,-0.005688634185030423,0.014263551899110055,0.9887617285081698
2012-12-18,0,0.0,0.0,-0.005688634185030423,0.013221436506141014,0.989505776940146
2012-12-20,0,0.0,0.0,-0.005688634185030423,0.008668823724757755,0.9901453266985717
2012-12-24,0,0.0,0.0,-0.005688634185030423,0.012523541138094256,0.9897634178368647
2012-12-27,0,0.0,0.0,-0.005603382675594,0.012523541138094256,0.989747855958028
2012-12-31,1,0.0010717486746285943,0.0011963039096022016,-0.005617899216839653,0.011864251517269747,0.989787903129402
2013-01-03,1,0.0013761775416614914,0.0016473417273748766,-0.005062007928578613,0.011864251517269747,0.9911549755463828
2013-01-07,1,0.0029955203143618723,0.0034631982382381955,-0.005062007928578613,0.011864251517269747,0.9905543586639648
2013-01-09,1,0.003356892369756753,0.0038314287937097243,-0.005719366519989558,0.010508291887904636,0.9903192176011472
2013-01-11,1,0.003163545244445073,0.0036455921275872615,-0.005736429907611461,0.010508291887904636,0.9906125286952226
2013-01-15,1,0.004352134299359352,0.0049848819300332215,-0.004350613405187977,0.011864251517269747,0.991849431343749
2013-01-17,1,0.004413962129563007,0.0050360567538406936,-0.004616913474027666,0.010508291887904636,0.9918449349931353
2013-01-22,1,0.004121969059766724,0.004686223436128952,-0.006264110503544244,0.011864251517269747,0.9907874302343057
2013-01-24,1,0.004598366780723341,0.005240237565722037,-0.00947230040862499,0.010538235565322816,0.9899563975939009
2013-01-28,1,0.004183597176139657,0.004750391622360328,-0.013747515328365795,0.010538235565322816,0.9882961827119326
2013-01-30,1,0.0052609735258210884,0.006141400697288019,-0.00947230040862499,0.010681592222750804,0.9890161799777583
2013-02-01,1,0.005590543134111276,0.006478024280739031,-0.013189396251511727,0.010082454210405411,0.9883878288659061
2013-02-05,1,0.005120031200242724,0.005918377287545651,-0.00947230040862499,0.01260050826735055,0.9888973690327815
2013-02-07,1,0.004870653900630347,0.0056384662076931075,-0.0053012196247081665,0.013758013830482774,0.9894010181788112
2013-02-11,1,0.004423977577638526,0.005113501712039134,-0.0014516395984365577,0.013758013830482774,0.9897151534572968
2013-02-13,1,0.004774752518794587,0.005461996180267522,-0.0014516395984365577,0.014943772517980927,0.9888641368530721
2013-02-15,1,0.0045162549498776895,0.005126243885352178,-0.0036121808284349938,0.014943772517980927,0.9884437289469015
2013-02-20,1,0.0040324315936664515,0.004491727004332581,0.00022401900317041014,0.014943772517980927,0.9889125972172247
2013-02-22,1,0.003053504062253197,0.003361675607537579,-0.0021122166573902456,0.014943772517980927,0.9885047912422352
2013-02-26,1,0.0019788891182931506,0.0021434219883881473,0.0018653337592347628,0.015482914221880556,0.989245902747155
2013-02-28,1,0.0031929013182981133,0.0035590412029369053,-0.00138466147222075,0.014943772517980927,0.9898720674577569
2013-03-04,1,0.002671596580315035,0.0029431543245123076,-0.006716837075267473,0.014943772517980927,0.989589968919571
2013-03-06,1,0.0033148898159279534,0.0036458598927328317,-0.006716837075267473,0.010645625501091079,0.9905033726403825
2013-03-08,1,0.0023776046098242004,0.0024094523460809407,-0.006716837075267473,0.009200626090401452,0.9907368414777981
2013-03-12,0,0.0,0.0,-0.006716837075267473,0.010645625501091079,0.9896818583126947
2013-03-14,0,0.0,0.0,-0.006716837075267473,0.0068752084400478305,0.9914764891405069
2013-03-18,1,0.0015913731021962563,0.0016903874560397006,-0.006716837075267473,0.010080270720589066,0.9904105643925575
2013-03-20,1,0.0030809610545246583,0.0031740911245008926,-0.008582586529886164,0.0037425477967911723,0.9890047440512861
2013-03-22,0,0.0,0.0,-0.00707525048577687,0.010612171052840645,0.9895779486396891
2013-03-26,1,0.0028682004994858862,0.002950489263425931,-0.00707525048577687,0.01008699265776728,0.9894849768416185
2013-03-28,1,0.0036540725003516936,0.003964713457151282,-0.007285925290061719,0.01008699265776728,0.9890666960836079
2013-04-02,1,0.0032455154605536747,0.0035132738726329376,-0.003673094423114058,0.010526537366339624,0.9891995808543246
2013-04-04,0,0.0,0.0,-0.007444209673187632,0.010984247753333226,0.9853582218618028
2013-04-08,0,0.0,0.0,-0.007444209673187632,0.012155556688337048,0.9843961683874909
2013-04-10,0,0.0,0.0,-0.003603319322473545,0.014617793172659549,0.983920307551826
2013-04-12,0,0.0,0.0,-0.008913868383821289,0.015396162791012382,0.9827614535510648
2013-04-16,0,0.0,0.0,-0.007992681451809407,0.015396162791012382,0.983657035562423
2013-04-18,0,0.0,0.0,0.004886644700995482,0.015843978014932203,0.9846191352209821
2013-04-22,0,0.0,0.0,-0.0024826221462990556,0.015843978014932203,0.9848804374242092
2013-04-24,0,0.0,0.0,-0.0076355578126842665,0.015843978014932203,0.9844007254061644
2013-04-26,1,0.0011179896216687978,0.0013733218175733383,-0.0057535749942260244,0.015843978014932203,0.985741897522865
2013-04-30,0,0.0,0.0,-0.0057535749942260244,0.015843978014932203,0.9855277848585018
2013-05-02,0,0.0,0.0,-0.004446188871714507,0.015048052056145941,0.9889340442015234
2013-05-06,0,0.0,0.0,-0.0057535749942260244,0.014767064913966156,0.9893961245708962
2013-05-08,0,0.0,0.0,-0.0076355578126842665,0.010556656968758779,0.9900635694634382
2013-05-10,0,0.0,0.0,-0.0057535749942260244,0.010556656968758779,0.9903855167574704
2013-05-14,0,0.0,0.0,-0.006077012597161483,0.008307484239088444,0.9906021583527123
2013-05-16,0,0.0,0.0,-0.006285815090785643,0.006522442796358554,0.9909951120936972
2013-05-20,0,0.0,0.0,-0.006285815090785643,0.006522442796358554,0.9908664649706956
2013-05-22,1,0.0010380676533765496,0.0011991084803761485,-0.008871894315431178,0.006522442796358554,0.990472310865015
2013-05-24,1,0.0015666772091630682,0.0016113826251925967,-0.010564083485416828,0.006522442796358554,0.9894392162398832
2013-05-29,1,0.0020929515414222157,0.002116907799897358,-0.010564083485416828,0.006040906742224065,0.9897434378648223
2013-05-31,0,0.0,0.0,-0.010564083485416828,0.008307484239088444,0.9885155387335843
2013-06-04,0,0.0,0.0,-0.010564083485416828,0.010355000518405839,0.9874553319401931
2013-06-06,0,0.0,0.0,-0.00821571922392864,0.013275510205516495,0.9875145954978609
2013-06-10,0,0.0,0.0,-0.00821571922392864,0.012271212689730542,0.9877544013122889
2013-06-12,0,0.0,0.0,-0.007213340698415566,0.013580430298735588,0.9874360134491221
2013-06-14,0,0.0,0.0,-0.00556459751254976,0.013580430298735588,0.987700505200247
2013-06-18,1,0.002620772058831297,0.0028483680564720597,-0.00678230220054937,0.012271212689730542,0.9883678484110195
2013-06-20,1,0.0015832532714073974,0.0016517399453581491,-0.003801712402554349,0.013580430298735588,0.9896427508133538
2013-06-24,1,0.00039287452879806906,0.000490765782281074,-0.003801712402554349,0.013580430298735588,0.9904826020251948
2013-06-26,1,0.0011407715128310158,0.0011642372529760761,-0.005199269777709133,0.013580430298735588,0.9907843852056362
2013-06-28,1,0.0012683741332774013,0.0012795854575798132,-0.005067433081053126,0.008759305635351645,0.9917484968851921
2013-07-02,1,0.0018579353827889494,0.001933646472871562,-0.004127828459562534,0.008530569608607217,0.9929063786544294
2013-07-05,1,0.0011306312581709404,0.0012023158847169284,-0.004127828459562534,0.009051441433498236,0.9929448336397493
2013-07-09,1,0.001778738749986787,0.0018256274923512893,-0.005067433081053126,0.0076606538611159875,0.9922614484832799
2013-07-11,1,0.0016510147789997546,0.0017392200598850284,-0.0052648528734385225,0.0076606538611159875,0.9912047666423301
2013-07-15,1,0.0021847789030436035,0.0022805576589257958,-0.005912566797507278,0.009051441433498236,0.9899789547072808
2013-07-17,1,0.0015877037828138678,0.0015958421490162458,-0.006542221950703394,0.009051441433498236,0.9896139400976763
2013-07-19,1,0.0013437034196568747,0.0014442217691325835,-0.009227297782576296,0.004635065406074071,0.9896358241490532
2013-07-23,1,0.0013556881508245122,0.0014103144120415029,-0.009247514575387715,0.009051441433498236,0.9885966138193827
2013-07-25,1,0.00039392907818093536,0.0005960253322777819,-0.0098240408748464,0.012808630736513902,0.9877040017010602
2013-07-29,1,0.0007004476210576689,0.0008217774786428559,-0.00991967966865746,0.012808630736513902,0.9875400982912628
2013-07-31,1,0.0009758133440412603,0.0010671923153943445,-0.01155404391959431,0.010198883494040216,0.9864714892128863
2013-08-02,1,0.0018343452692534486,0.0018518220131769408,-0.014450581065801344,0.006962110949687716,0.9854383133357714
2013-08-06,1,0.00150410058063418,0.0015364577241473382,-0.01155404391959431,0.019053702962978133,0.985556531099896
2013-08-08,1,0.0017933665740433949,0.001854807025463638,-0.010716149535541274,0.006962110949687716,0.987128561074974
2013-08-12,1,0.002069250196429078,0.002186763705773046,-0.010716149535541274,0.013196402668813932,0.9865044148038904
2013-08-14,1,0.000891012875071051,0.000968565548622972,-0.010033784921968669,0.013196402668813932,0.9867930470740943
2013-08-16,1,0.00014551334553838214,0.00025891908002443253,-0.009625551625791652,0.013196402668813932,0.9870271745554863
2013-08-20,1,0.001139828944573037,0.0011446979528470385,-0.009625551625791652,0.013196402668813932,0.9863187322350304
2013-08-22,1,0.0010992432200602337,0.0011446412506244258,-0.0012936294026316521,0.016474867899490667,0.9862746222131216
2013-08-26,1,0.00039338550572564555,0.0005278137798680963,-0.0013650010729061904,0.016474867899490667,0.9853708940915233
2013-08-28,-1,-0.0006642250224341849,-0.00041035456020192644,0.0003037661920563309,0.0183505328425959,0.9854792395465124
2013-08-30,-1,-0.0006540258523973619,-0.000419447347462239,0.00019978989642872608,0.016930011005202736,0.9868713066563379
2013-09-04,1,0.00034596794236096425,0.0004737548218777176,-0.004243682719138403,0.014638645390134205,0.9874815892716028
2013-09-06,-1,-0.0007484345709038171,-0.0004454075919511411,-0.004243682719138403,0.014638645390134205,0.9868786018615409
2013-09-10,0,-0.00010403093869200517,0.0002123471064623706,-0.008358649477077018,0.01111679028826062,0.9883562930153243
2013-09-12,0,-9.484808524325703e-05,0.00016524442211729646,-0.0075769478823346165,0.016545717628325386,0.9863022774706388
2013-09-16,1,0.0006317666789377493,0.0007713814074991531,-0.0075769478823346165,0.01712858026873851,0.9859379415309679
2013-09-18,1,0.002318527124963379,0.0023561620510424313,-0.008479419635959353,0.01619564816716399,0.987759587084562
2013-09-20,1,0.0036154600199370082,0.0038688894916066078,-0.008479419635959353,0.014885415357404888,0.9882111794349433
2013-09-24,1,0.0028856680136868504,0.00300773021539576,-0.0075769478823346165,0.014885415357404888,0.9890077484224998
2013-09-26,1,0.0035018043700336143,0.0037350574834335137,-0.0075769478823346165,0.014201901120214504,0.9897238993473049
2013-09-30,1,0.003618643349102632,0.003928856888622729,-0.0048256997116410735,0.014201901120214504,0.9901064869522215
2013-10-02,1,0.0036741225457204347,0.003998289045311639,-0.002120125601830813,0.012412470171537349,0.9905315498793794
2013-10-04,1,0.003434935460667315,0.0037913076069227775,-0.004639613966537118,0.012412470171537349,0.9897548696468614
2013-10-08,1,0.002441921662893611,0.002620628476435061,-0.002120125601830813,0.014885415357404888,0.9901211461713936
2013-10-10,1,0.004506669868058676,0.0049947482602586985,-0.004165385326058253,0.009668105084597686,0.9916886651298613
2013-10-14,1,0.004603289811544084,0.005021565837882344,-0.004165385326058253,0.010687391692551495,0.9913488403743521
2013-10-16,1,0.004125607395678186,0.004467888852118665,-0.002120125601830813,0.012210791261144707,0.991716051955971
2013-10-18,1,0.004476432385230336,0.004921429343832202,-0.0037140155226049066,0.006687600937886017,0.9922629654997742
2013-10-22,1,0.0042631427186133,0.004688564895941656,-0.0037140155226049066,0.006687600937886017,0.9920894217524616
2013-10-24,1,0.003985648486541,0.004359946925625656,-0.0031006472243891438,0.010406298014829472,0.9923052938586011
2013-10-28,1,0.0038167587007711607,0.004158923079137091,-0.0031006472243891438,0.010790592574922323,0.9922688382021938
2013-10-30,1,0.004109477381542315,0.004505072582225716,-0.0031006472243891438,0.010790592574922323,0.992196094082242
2013-11-01,1,0.0028642251737618766,0.0030512984088048325,-0.002722260573363033,0.010790592574922323,0.9927644940799988
2013-11-05,1,0.0030649310447322725,0.0032551858394435627,-0.002722260573363033,0.010790592574922323,0.9925158680875381
2013-11-07,1,0.0031735290101846825,0.0034298022695417128,-0.0025936501352867704,0.010790592574922323,0.9924521890161035
2013-11-11,1,0.0032401857009274927,0.003398585393977878,-0.002722260573363033,0.010622076620887409,0.9932798720923516
2013-11-13,1,0.003145087187255844,0.0032150699317767444,-0.0029323398533794417,0.008009090281639807,0.992029772543892
2013-11-15,1,0.002926519348196702,0.002985397962651908,-0.002722260573363033,0.009334899568808463,0.9919930621556673
2013-11-19,1,0.0026953771179303717,0.002741070690422007,-0.002733231000555196,0.010622076620887409,0.9913694566448776
2013-11-21,1,0.0033398092557588256,0.0035031254782548304,-0.0041063473486442105,0.010738544858208295,0.9900982254846646
2013-11-25,1,0.003615532676716296,0.003828076253425741,-0.005630250975719215,0.009334899568808463,0.9899521494721071
2013-11-27,1,0.004272597996763112,0.0045823172908777176,-0.006666977027582297,0.007931723823502301,0.9900130192516073
2013-12-02,1,0.0036178853710446875,0.0038472382207904014,-0.005342697988343633,0.007931723823502301,0.9910215201165561
2013-12-04,1,0.003372242043309679,0.0035664375566464355,-0.005342697988343633,0.007768435861788171,0.9912447595056013
2013-12-06,1,0.0031699716635180198,0.0033119256771238026,-0.006666977027582297,0.0053190989978196875,0.9913448712736788
2013-12-10,1,0.0032967913335790744,0.0034983178985921893,-0.00755123190386237,0.0053190989978196875,0.9910374544590034
2013-12-12,1,0.001878844749432077,0.0018914535050793607,-0.00755123190386237,0.006576543922822714,0.9916784903560235
2013-12-16,1,0.0017090259157163082,0.0017576397418575134,-0.00755123190386237,0.007768435861788171,0.9900379135092117
2013-12-18,1,0.001659913845811686,0.0017431464632809983,-0.006688572941735621,0.006576543922822714,0.9909887269548215
2013-12-20,1,0.0018149794720488715,0.0018590259931560707,-0.005342697988343633,0.006576543922822714,0.9923083831136117
2013-12-24,1,0.0021632497054619414,0.0021889026812195646,-0.008019815732670499,0.004976250120657759,0.990183383531668
2013-12-27,1,0.0011991688940087807,0.0013350963147139858,-0.010739923719746714,0.0067387726489017055,0.9892463731118075
2013-12-31,1,0.0009962128182965952,0.0011557845905299556,-0.015352961104934539,0.008255122040025145,0.9873379949835417
2014-01-03,1,0.000677632505128522,0.0008580043118713958,-0.015960305709693697,0.0067387726489017055,0.9863598936773905
2014-01-07,0,-0.00010001427448368962,0.00021635718167320266,-0.015960305709693697,0.009452446162725519,0.9862277727146299
2014-01-09,-1,-0.0009164245436468488,-0.0004930322433383148,-0.015960305709693697,0.013232314190992817,0.9821211750689339
2014-01-13,-1,-0.0013251922433223588,-0.0008685703772126087,-0.010876735642758472,0.013232314190992817,0.9827248664131536
2014-01-15,1,0.00016348501123579972,0.0004396923323047386,-0.01286836658447168,0.00435295489908139,0.9839894249864217
2014-01-17,-1,-0.0003626529918070657,-2.955934020691534e-06,-0.01286836658447168,0.00435295489908139,0.9837640555283327
2014-01-22,-1,-0.0008525551424950007,-0.0003831176769308149,-0.016591749475189786,0.0056881519267335656,0.9828009501385189
2014-01-24,-1,-0.0029632404367032745,-0.0022321835196897765,-0.012855464081442333,0.0064104441206161,0.9850014160552766
2014-01-28,-1,-0.002706279075563236,-0.002043203539941141,-0.012855464081442333,0.00643140021549167,0.9840626550410643
2014-01-30,-1,-0.00310650645073208,-0.002372102707560473,-0.00996165926817829,0.013418372665988073,0.9847765863466286
2014-02-03,-1,-0.0036260198727493397,-0.0029135660702856586,-0.00996165926817829,0.01355129903616657,0.9839915194265376
2014-02-05,-1,-0.0036164021744608857,-0.002884100557380167,-0.00996165926817829,0.013418372665988073,0.9839042574973043
2014-02-07,-1,-0.0009798764394713592,-0.0005656120855648103,-0.00996165926817829,0.01093025207849675,0.9879695004464999
2014-02-11,-1,-0.0005712204211485748,-0.00029007554110413176,-0.008392062324976685,0.01093025207849675,0.9880509504974575
2014-02-13,-1,-0.00032034142536813994,-0.000119963653576887,-0.00929423619652752,0.01093025207849675,0.9873187689811821
2014-02-18,-1,-0.0009913216024337729,-0.0007021068361556974,-0.00929423619652752,0.01093025207849675,0.9870166920038309
2014-02-20,-1,-0.0008656473603165428,-0.000610536804350919,-0.007208531705999808,0.008667693734457964,0.9884481547768371
2014-02-24,-1,-0.0015438861699195792,-0.0011935271268683693,-0.007208531705999808,0.01093025207849675,0.9876459775043259
2014-02-26,-1,-0.0012392335635740825,-0.0009270681389749766,-0.00864337255389854,0.008667693734457964,0.9882791939108924
2014-02-28,-1,-0.0006473935570489009,-0.00039174944456827785,-0.013039753341168064,0.007814086745191625,0.9881659487950187
2014-03-04,-1,-0.000731631010780723,-0.00041867096564539123,-0.00864337255389854,0.007814086745191625,0.9898812542838943
2014-03-06,1,0.0005356575732840402,0.0006233425068502775,-0.010944397982289229,0.007627319796285944,0.989835399377662
2014-03-10,1,0.001038990766244417,0.001039714599033593,-0.014380182160445574,0.006914018730807392,0.9878296663813037
2014-03-12,1,0.0005862641711780394,0.0006541636224310867,-0.014380182160445574,0.007627319796285944,0.9879389808562618
2014-03-14,1,8.216614695908257e-05,0.00016097900550646646,-0.014725608085337903,0.007627319796285944,0.9872665697509946
2014-03-18,1,0.0005159241098269889,0.0005446278897700282,-0.014725608085337903,0.007063702686712033,0.9868105469150242
2014-03-20,1,0.00014608818298218745,0.00021927993712643593,-0.014725608085337903,0.009708696090284963,0.9860399430276025
2014-03-24,0,-5.7569098550147254e-05,4.1942465005290945e-05,-0.0135261942987098,0.009647629714955018,0.9868681757077628
2014-03-26,-1,-0.0012146436472758816,-0.0009959699060312847,-0.011068164309815104,0.009647629714955018,0.9882157718508261
2014-03-28,-1,-0.001683775997231986,-0.0013624347365877173,-0.006243927526655817,0.009647629714955018,0.9888992927020732
2014-04-01,-1,-0.0008969056299889102,-0.0006868828657779783,-0.010665264856270774,0.008886921197755623,0.9888885062238447
2014-04-03,-1,-0.0015258700032534365,-0.0012266404089518318,-0.00794399538357751,0.009647629714955018,0.9883843831888539
2014-04-07,-1,-0.002640427007348589,-0.0022654091182692762,-0.00741883283080325,0.009647629714955018,0.9891153673074268
2014-04-09,-1,-0.0021048223233726387,-0.0018175309213942937,-0.00741883283080325,0.01011466890485028,0.9871447088689621
2014-04-11,-1,-0.0038407692855347,-0.0033500532110136375,-0.006328082365753743,0.011589360468213489,0.9871673137100051
2014-04-15,-1,-0.003078011773969642,-0.0026701866344397782,-0.0072565851471120876,0.01011466890485028,0.9871129033911527
2014-04-17,-1,-0.0017352526728595876,-0.001509941601519758,-0.00921206124739783,0.01011466890485028,0.9863226722619656
2014-04-22,-1,-0.0007438937843388945,-0.0006580550236416491,-0.01022396685124558,0.009213608057276498,0.9858783616999945
2014-04-24,-1,-0.00034239052434083126,-0.00034176103894510956,-0.01022396685124558,0.009872727945274589,0.9853520375374372
2014-04-28,-1,-0.00046796760831328214,-0.00042415456834121593,-0.01022396685124558,0.014443371398109452,0.984220896622154
2014-04-30,-1,-0.0006624274685286673,-0.0005886968690377844,-0.00921206124739783,0.01659386753750565,0.9839838155988786
2014-05-02,-1,-0.00018308603520786115,-0.00018087533949958536,-0.010455854209712434,0.01659386753750565,0.9843031522741498
2014-05-06,-1,-0.0012584035485208981,-0.0011346555038029762,-0.0070942031196926745,0.01659386753750565,0.985544592814857
2014-05-08,-1,-0.00045893555096624024,-0.0003754760635996183,-0.0070942031196926745,0.01659386753750565,0.9868064362085113
2014-05-12,1,0.00041784187806844284,0.00045571296560072686,-0.005218517446616525,0.011294719472102156,0.9881551596496182
2014-05-14,-1,-0.0007230665783558189,-0.000636957546861407,-0.005905650591222305,0.011294719472102156,0.9883835658011249
2014-05-16,-1,-0.0009678779659887534,-0.0008655859633912392,-0.005905650591222305,0.008948855517816736,0.98983332499881
2014-05-20,-1,-0.0018250998014475808,-0.001628645895772886,-0.0026320317883733015,0.008948855517816736,0.9902509765817425
2014-05-22,-1,-0.0013131448781302539,-0.001175702385174763,-0.0026320317883733015,0.008343943851869907,0.9906232371685927
2014-05-27,1,0.0001280941020050357,0.00016404341106379834,-0.009457229015177353,0.006766420210174917,0.9919460351361478
2014-05-29,1,0.0008016490330433374,0.0009119875704321932,-0.009457229015177353,0.0038325002344702444,0.9930132943487398
2014-06-02,1,0.00031476118574840466,0.00035274397243225325,-0.00465520918026234,0.0038325002344702444,0.9934664234100503
2014-06-04,1,0.00019917888309364617,0.00021134473219364705,-0.009457229015177353,0.0054226661132884,0.9925485689020016
2014-06-06,1,0.000822497728814569,0.0008942079219572621,-0.01034913275381473,0.0054226661132884,0.9922571759641597
2014-06-10,1,0.0020415545150684147,0.0023653468805114475,-0.01034913275381473,0.002900076764076467,0.9924930719140067
2014-06-12,1,0.0011365519467605196,0.001338859031664253,-0.01034913275381473,0.004216669136732252,0.9926979057454045
2014-06-16,1,0.00113411867939887,0.0013589630436943918,-0.01066309776218375,0.005942728218253991,0.9923230603221792
2014-06-18,1,0.00039614437703314485,0.00042194477974282385,-0.010846349948195244,0.00347542979125038,0.9916492844377027
2014-06-20,1,0.0005981703793980038,0.0006465041425126889,-0.011802189039839369,0.0018256754922844818,0.9912404043802885
2014-06-24,-1,-0.00016553388932706575,-0.00012065331325657283,-0.011465582350122239,0.0018256754922844818,0.9925416522449549
2014-06-26,-1,-0.0011400961944571866,-0.0009088560827421421,-0.011465582350122239,0.0018256754922844818,0.9927670814958518
2014-06-30,-1,-0.0009059760124812462,-0.0007219342053933709,-0.011465582350122239,0.000633903496021056,0.9926481168139079
2014-07-02,1,0.0008171985062514429,0.0010080328159381361,-0.014250240885917536,0.00038682218192878903,0.9924110848135895
2014-07-07,1,0.00031121657097725664,0.0004060515320797994,-0.007781972830695713,0.0008685995730729865,0.9936415076869285
2014-07-09,1,0.00019947304601181632,0.00026502118527456386,-0.00934335636401554,0.00038682218192878903,0.9933457192419703
2014-07-11,-1,-9.569671561336724e-05,-9.211498728233387e-05,-0.00934335636401554,0.00038682218192878903,0.9890240777234446
2014-07-15,-1,-0.0006268773200915595,-0.0005611937568498615,-0.006236554602668768,0.0008996898917064729,0.9891352115368554
2014-07-17,-1,-0.0018375777836604967,-0.001604926817040958,-0.002530526551157571,0.001791165905134177,0.989458839002733
2014-07-21,-1,-0.0020134353159301493,-0.0017866525463318896,-0.0014183630965467129,0.006255053299502738,0.9887430932334007
2014-07-23,-1,-0.0014054071527736436,-0.0012968511963341815,-0.001573197120891834,0.0077140574596161,0.9886702848615202
2014-07-25,-1,-0.0008215237896274094,-0.0008179661381200263,-0.001573197120891834,0.009511346182736505,0.9881946127632559
2014-07-29,-1,-0.0008332867056956607,-0.0008048441477676003,-0.001573197120891834,0.009511346182736505,0.988226509124004
2014-07-31,-1,-0.0010915542432474445,-0.001078778173167555,-0.0016394437892098875,0.009511346182736505,0.9887701123232707
2014-08-04,-1,-0.0005117771595440758,-0.00042816249622905795,-0.0016394437892098875,0.0077140574596161,0.989236805255958
2014-08-06,-1,-0.0015413171153515102,-0.0014388708978687317,-0.0019605056271935644,0.0077140574596161,0.9889101960082756
2014-08-08,-1,-0.0027797174697538323,-0.0025722458204406836,-0.0016394437892098875,0.0077140574596161,0.9930856377594867
2014-08-12,-1,-0.0022389726746261437,-0.002082807417109379,-0.0021870165964593498,0.006240869130565918,0.9937615144544171
2014-08-14,-1,-0.0017322555577607267,-0.001636143422254269,-0.0021870165964593498,0.0053718470424902465,0.9942381426561041
2014-08-18,-1,-0.0016235081094957118,-0.0014666340911649596,-0.002509858003091738,0.0030507622153114647,0.9952052188102304
2014-08-20,-1,-0.0011728811764555327,-0.0010846468442317746,-0.002509858003091738,0.00382917506927611,0.9947703461550076
2014-08-22,-1,-0.00029058600283736035,-0.00023356693171864692,-0.005839356387555074,0.0030507622153114647,0.9942586724361805
2014-08-26,-1,-0.0004705521130166048,-0.0004619553933231119,-0.00715003803794286,0.003756329890401786,0.9936722051905071
2014-08-28,-1,-0.001722136394891576,-0.0014938720446727358,-0.010205802090819746,0.003756329890401786,0.9927673620805436
2014-09-02,-1,-0.001339557057749131,-0.0011692533436000936,-0.01071624674771287,0.0017167499135259362,0.9920110143312659
2014-09-04,-1,-0.00302089414281708,-0.0025630769816583346,-0.011191463640170714,0.003978559161438645,0.9902854739943431
2014-09-08,-1,-0.0017913977508233368,-0.0015224685974095536,-0.011191463640170714,0.003978559161438645,0.9898841642198695
2014-09-10,-1,-0.00218810599356772,-0.0019221416367558248,-0.011191463640170714,0.006924085696527931,0.9888814526430857
2014-09-12,-1,-0.0016722478266114654,-0.001502230032409256,-0.01724008945653989,0.006924085696527931,0.9868301387179955
2014-09-16,-1,-0.0018200416548615084,-0.0016293457738074239,-0.022920381741433165,0.007298123518089679,0.98528917252849
2014-09-18,-1,-0.0009764221968431174,-0.0008998574106266106,-0.022920381741433165,0.008974465067799689,0.9838069725322718
2014-09-22,-1,-0.001913236145901994,-0.0017249402776011928,-0.022920381741433165,0.00982533735751698,0.9837843072156269
2014-09-24,-1,-0.0017658762150163352,-0.0016102733233457807,-0.022920381741433165,0.01240582836569492,0.9831061015813126
2014-09-26,-1,-0.003674620324306756,-0.0032345468786224027,-0.01724008945653989,0.015407535472234578,0.9828903389713879
2014-09-30,-1,-0.0033996871623732964,-0.003087691782646662,-0.012474387120799206,0.017012456854266913,0.9812698278612927
2014-10-02,-1,-0.004072165670921713,-0.0037234870206418126,-0.009499279673104983,0.017012456854266913,0.9826503551858777
2014-10-06,-1,-0.004642234406877518,-0.004147547227617988,-0.006901192669133638,0.019743360429379825,0.981611210658835
2014-10-08,-1,-0.0047016864460328375,-0.004198402797532114,-0.006901192669133638,0.019743360429379825,0.9824258609520174
2014-10-10,-1,-0.007553325066383697,-0.0066632522319483595,-0.005389435308871874,0.019743360429379825,0.9820746533873174
2014-10-14,-1,-0.007592419223982275,-0.006738023578122291,-0.0031769050423085094,0.019743360429379825,0.983263909198855
2014-10-16,-1,-0.004527401230023371,-0.004110924819026564,-0.004183419458273197,0.01166512287096234,0.9870390045494681
2014-10-20,-1,-0.0029081866201152388,-0.0027440751491545354,-0.004183419458273197,0.007761931378574098,0.9886001735962656
2014-10-22,-1,-0.002515506885956557,-0.002372101408999538,-0.0028197963459872894,0.0072246129571161295,0.9897019284986183
2014-10-24,-1,-0.0011107480048846235,-0.001076858301647441,-0.0028197963459872894,0.0072246129571161295,0.9906310198460117
2014-10-28,1,0.0013637160522959105,0.0017741790025299815,-0.0028197963459872894,0.005904565795847393,0.9926048943395498
2014-10-30,1,0.001563732386502607,0.0020427966175360366,-0.0028197963459872894,0.0025008057506909855,0.9929613844846802
2014-11-03,1,0.0019433966338638523,0.002415160378573588,-0.0028197963459872894,0.0009802635403611203,0.9938808279702888
2014-11-05,1,0.001625351287847753,0.00204728200754043,-0.0028197963459872894,0.0009802635403611203,0.9933643117582336
2014-11-07,1,0.001309139831014464,0.0017103054704889727,-0.002449844626443044,0.0011167988327781954,0.9944418175142216
2014-11-11,1,0.001176253334335478,0.0015775177605939772,-0.00469879289510242,0.0025008057506909855,0.9926991063091367
2014-11-13,1,0.0007632528160452473,0.0010670543907639468,-0.007730975358711446,0.0025008057506909855,0.9912485235111713
2014-11-17,1,0.0010002601612727085,0.0013371177552483,-0.00985998278631707,0.006222328455698293,0.9902085695842621
2014-11-19,1,0.0014339002262338733,0.001836678457031226,-0.00985998278631707,0.008288447020243776,0.9882899423834548
2014-11-21,1,0.0017894562563899063,0.0022383167037255676,-0.00985998278631707,0.008918298572783747,0.9882365190966366
2014-11-25,1,0.001827538681675855,0.002273183135073827,-0.00985998278631707,0.008918298572783747,0.9879150664700292
2014-11-28,1,0.0016848579585698378,0.002117151634875019,-0.008615774593843979,0.008918298572783747,0.9883903019324968
2014-12-02,1,0.001373929348556586,0.0017747975389733178,-0.003967580940598708,0.008918298572783747,0.989002885442008
2014-12-04,1,0.0013251537748093945,0.001694564596665218,-0.008654862751989323,0.008073750641036744,0.9894045657738177
2014-12-08,1,0.0007574708238472097,0.0010038116392179185,-0.012899073894815982,0.008356041685851303,0.9881086604341819
2014-12-10,1,0.0005170539908071774,0.0007062854758353835,-0.005306204398034282,0.008356041685851303,0.9887985328728002
2014-12-12,-1,-0.0006900467655553632,-0.0006599903755793908,-0.005278238272483206,0.00962206508004154,0.9884962228652813
2014-12-16,-1,-0.0006095065555003112,-0.0005623874273421987,-0.013351076188613567,0.00962206508004154,0.9875475535132381
2014-12-18,1,0.0010344464829462607,0.0012798668511984162,-0.013351076188613567,0.008308339476789342,0.9894230942393163
2014-12-22,1,0.0012806633021337215,0.0015318554213998884,-0.013351076188613567,0.008308339476789342,0.9888670378700699
2014-12-24,1,0.001970967777312523,0.002348342804319903,-0.013351076188613567,0.00657165899615476,0.9887706376616385
2014-12-29,1,0.0017451064224080536,0.0020639587092245327,-0.013351076188613567,0.00657165899615476,0.9879500462020956
2014-12-31,1,0.0009460483517697738,0.0010713893952846716,-0.015901661300872443,0.009347201460807435,0.9866341528031094
2015-01-05,1,0.00021503188347674637,0.00026751909626607695,-0.010906706501798322,0.017110817802716335,0.9855806460090412
2015-01-07,-1,-6.98497230309648e-05,-3.535992092265076e-05,-0.012622719038226694,0.017110817802716335,0.9859769459568617
2015-01-09,1,0.000969584995687283,0.001186567928783884,-0.012622719038226694,0.011713401342113426,0.9867980961167399
2015-01-13,1,0.0012871818209530285,0.0015579254564609447,-0.009633533085959793,0.007034377009497791,0.9885094948614718
2015-01-15,1,9.766285538715638e-06,0.0001376070505577214,-0.005630018309481873,0.013731994653571685,0.9892161939596222
2015-01-20,1,0.0003499684899804089,0.0005245337850880844,-0.004431883411643135,0.013731994653571685,0.9896929828943949
2015-01-22,1,0.0012156030877982372,0.0014970370073455529,-0.004431883411643135,0.01329144596931155,0.9900315701587953
2015-01-26,1,0.0013791569277116355,0.0016954799320818953,-0.00178533232434325,0.01329144596931155,0.9901100498993273
2015-01-28,1,0.0004891075040690835,0.0006616835885045573,0.0018146042371503098,0.01329144596931155,0.9904028295987913
2015-01-30,1,0.0007877639854829305,0.0010396666612553225,0.0018146042371503098,0.01329144596931155,0.9912829236616967
2015-02-03,1,0.0023646639502536903,0.0027724640986995907,-3.648101356112734e-05,0.0064642707876834335,0.993909355438124
2015-02-05,1,0.001339933496189947,0.0016140112742220086,-3.648101356112734e-05,0.0064642707876834335,0.9944533044356669
2015-02-09,1,0.0017389928803234942,0.002059221659812746,-0.000644047304055217,0.006403553771655998,0.993491890328705
2015-02-11,1,0.0022015608913456973,0.0026133648390597656,-0.000644047304055217,0.009197214885144866,0.9927980287066202
2015-02-13,1,0.002567131069467981,0.002978314968361347,-0.0010270310499427154,0.005779998903316128,0.9929408974708925
2015-02-18,1,0.002757700551346553,0.003191409869664086,-0.0010270310499427154,0.006403553771655998,0.992118331066556
2015-02-20,1,0.002965312124322469,0.003363909057619256,-0.0030066831906847445,0.0057535691472218285,0.9920774136889549
2015-02-24,1,0.0026496027756053864,0.0029526598741927393,-0.00662496338292634,0.0047242001284255025,0.9917760627198933
2015-02-26,1,0.002048306909890214,0.0022055067308756524,-0.007299128963904603,0.005879471550526071,0.989534915269807
2015-03-02,1,0.0026188835140486645,0.002850448749767534,-0.007299128963904603,0.005879471550526071,0.9895765789851287
2015-03-04,1,0.001851848672657878,0.0019686361969179127,-0.007381819012516627,0.00621820054164992,0.9890271929155328
2015-03-06,1,0.00036351810804453985,0.000533029180934121,-0.007381819012516627,0.007121922140824016,0.988852985524124
2015-03-10,-1,-0.0009754453683995308,-0.0006128622750978449,-0.004037453225109644,0.007121922140824016,0.9893671541620411
2015-03-12,1,0.0007442982703799846,0.0008293630492265149,-0.004037453225109644,0.007121922140824016,0.9901420552751837
2015-03-16,1,0.00017862769495299489,0.0003064504870817566,-0.0005362619162519132,0.007322354818933114,0.9906078204983905
2015-03-18,1,0.0013258267520680055,0.001351671422040108,-0.003660850417133068,0.007322354818933114,0.9910768466922795
2015-03-20,1,0.0014671131700699231,0.0015633755156629146,-0.003660850417133068,0.006875767768443672,0.9915015528031322
2015-03-24,1,0.001993576172115875,0.0022544903886992677,-0.0005362619162519132,0.006875767768443672,0.9920621450487833
2015-03-26,1,0.0010806563896610742,0.001201237803630473,-0.0005362619162519132,0.006790148993052856,0.9934017552667235
2015-03-30,1,0.0021504523249778955,0.0024511247729604043,-0.0005362619162519132,0.006613694633061915,0.9945664990509016
2015-04-01,1,0.00160408946453565,0.001813589523940635,-0.0029399547922661392,0.006613694633061915,0.9944534208378987
2015-04-06,1,0.0013625963814669704,0.0015057282074586393,-0.002967328643037688,0.006253929774124534,0.9942838926917061
2015-04-08,1,0.0012739631818476107,0.001386307063808033,-0.0035541403920618607,0.005672998852481811,0.9940736979902114
2015-04-10,1,0.001599817998570057,0.001744398669963533,-0.0035541403920618607,0.005493121316600448,0.9936840256892616
2015-04-14,1,0.0018594740938548961,0.002040916390264407,-0.0054286452004168595,0.005493121316600448,0.993321363926896
2015-04-16,1,0.002048588182590274,0.002265787652149614,-0.003561499928273134,0.005493121316600448,0.9937818574863767
2015-04-20,1,0.002030195014141443,0.002255211485712877,-0.003691260954343117,0.005493121316600448,0.993655492716001
2015-04-22,1,0.002219072532397353,0.0024670632060671705,-0.006185427455741782,0.005493121316600448,0.9932800808915223
2015-04-24,1,0.0019057533452250391,0.0020951840168051427,-0.006397649937558402,0.004852903574893295,0.9934057203071631
2015-04-28,1,0.0020033518671881143,0.0021778472449942216,-0.00685664089397831,0.004354238216388794,0.9918387328517695
2015-04-30,1,0.0013373760458181175,0.0014261641115804044,-0.006979856725914785,0.004354238216388794,0.9913600307185381
2015-05-04,1,0.0011677193874173343,0.001221230260312848,-0.006979856725914785,0.004414038205049907,0.9915750292272678
2015-05-06,1,0.0008613780762695945,0.0008668878259873379,-0.00685664089397831,0.005258571358712065,0.9909976771703508
2015-05-08,1,0.0007702629848380741,0.0008359112288180764,-0.00685664089397831,0.006181676194170499,0.9915186859428685
2015-05-12,1,0.0005562197652523404,0.0006541661046545787,-0.006760075583260616,0.008878356249248147,0.99025275166615
2015-05-14,1,0.0015123460176718973,0.0016056168518116427,-0.00685664089397831,0.00685858306989577,0.9898957599095259
2015-05-18,1,0.0012692445058478973,0.0013499229071678748,-0.006907152292905734,0.008878356249248147,0.988522761125152
2015-05-20,1,0.0012515830399867168,0.0013423376980349032,-0.006834821793191057,0.008878356249248147,0.9886766455868512
2015-05-22,1,0.0010616418440837858,0.0011241051782234506,-0.007055822604472153,0.008878356249248147,0.9884320670420829
2015-05-27,1,0.0013152823959236583,0.0014070973392529336,-0.006809632353782756,0.008878356249248147,0.9897223253292134
2015-05-29,-1,-0.00031382471560845296,-0.00016404767459975492,-0.005229559484179187,0.008878356249248147,0.9902031118796852
2015-06-02,-1,-0.0005769947699441133,-0.0003742271767160578,-0.006809632353782756,0.008878356249248147,0.9895170786391007
2015-06-04,0,-9.849743712800525e-06,0.00010410067746289414,-0.007170322198530265,0.007734694372792407,0.9899793147823502
2015-06-08,1,0.00048180247458522033,0.0005401753596175601,-0.007909822600883833,0.006661811059215008,0.9901372884668036
2015-06-10,1,0.0009935920427073535,0.001062645950077992,-0.009517548363642882,0.00570152812757929,0.9907157846850578
2015-06-12,1,0.0004372395401950041,0.0005648932676442029,-0.007909822600883833,0.006661811059215008,0.9906428784148019
2015-06-16,1,0.00098692649502464,0.001016262517771144,-0.007909822600883833,0.005981955237280727,0.9913648427893902
2015-06-18,1,0.0008977432999633916,0.0009440394336219258,-0.009517548363642882,0.002205877256182138,0.9903879874979779
2015-06-22,1,0.0002675264891610256,0.00043199182462935835,-0.011489852277107351,0.0003607304855397607,0.9904688470524552
2015-06-24,1,0.00019189220969562158,0.0003802422171505944,-0.012769696797220589,-0.000723033617295503,0.9900092348605164
2015-06-26,1,0.0008448877824497642,0.0008747302534460424,-0.016981051046461818,-0.000723033617295503,0.9888627333602131
2015-06-30,-1,-0.0005756316970631795,-0.0003266878352360343,-0.012769696797220589,0.00023332244410033853,0.9902334352637937
2015-07-02,-1,-0.0006702564086593173,-0.0004260192327767673,-0.012769696797220589,0.0010101675464893422,0.9907489581724074
2015-07-07,-1,-0.0009834243304534369,-0.0007051618185333801,-0.012769696797220589,0.0010101675464893422,0.9904216464265289
2015-07-09,-1,-0.0015430604390131192,-0.0012424742022668883,-0.012769696797220589,0.002939057242414741,0.9868876735567655
2015-07-13,-1,-0.0006704051902205421,-0.00046015547517306795,-0.016981051046461818,0.0010101675464893422,0.9855468196759137
2015-07-15,-1,-0.0010188702280240411,-0.0008088532749149547,-0.012769696797220589,0.0010101675464893422,0.9862848363562912
2015-07-17,-1,-0.0018053943005224022,-0.0015201881152718784,-0.010897877631671667,0.0010101675464893422,0.9870323517814683
2015-07-21,-1,-0.0024112722101629477,-0.002060370136142935,-0.009632475964888395,0.002939057242414741,0.9872445943934237
2015-07-23,-1,-0.0028556421259099346,-0.002488462602609344,-0.009066244445071966,0.002939057242414741,0.9877410310643036
2015-07-27,-1,-0.0043999626392447495,-0.003829364726720548,-0.009632475964888395,0.002939057242414741,0.9854609302376796
2015-07-29,-1,-0.003290359745834656,-0.0028487808212107574,-0.009632475964888395,0.002939057242414741,0.9848130499053825
2015-07-31,-1,-0.0035204593023335975,-0.003021922127066018,-0.009632475964888395,0.003148953425617415,0.9836526467003875
2015-08-04,-1,-0.003580641730171366,-0.0031224077256999973,-0.013275914625561862,0.005838681481170349,0.9814277629905228
2015-08-06,-1,-0.006654431903053584,-0.005809671433818853,-0.00858420200737641,0.006924174750704097,0.9851253390191488
2015-08-10,-1,-0.005804965114019976,-0.005113084900070959,-0.00858420200737641,0.006924174750704097,0.985471391936634
2015-08-12,-1,-0.006120966267070585,-0.005388854015653633,-0.00941663373790539,0.009779941580289341,0.9845975036070929
2015-08-14,-1,-0.006664522194379086,-0.005863934929701478,-0.012216427868198192,0.012014204564098381,0.9829436370918005
2015-08-18,-1,-0.006438843692683232,-0.005632430261995844,-0.012216427868198192,0.017653810452609057,0.9814032397880434
2015-08-20,-1,-0.006277322923140184,-0.005530189890637836,-0.01738593347162468,0.017653810452609057,0.9805107431133611
2015-08-24,-1,-0.008492854977240883,-0.007474509191726771,-0.013555699080307761,0.017653810452609057,0.9823183523503881
2015-08-26,-1,-0.007343263563729121,-0.006473717078087934,-0.013555699080307761,0.017362786569838973,0.9831146232979995
2015-08-28,-1,-0.0062859265390807825,-0.005553482724528942,-0.013555699080307761,0.015388199061659086,0.9842114430948827
2015-09-01,-1,-0.0064629768432986085,-0.005738952809997503,-0.011135440059526908,0.015388199061659086,0.9844457033628248
2015-09-03,-1,-0.005803161872138269,-0.005180915361920202,-0.011135440059526908,0.017362786569838973,0.9825671286136629
2015-09-08,-1,-0.005405472200100617,-0.0048525476301920865,-0.010407179250983955,0.01939840214535299,0.9778733898045172
2015-09-10,-1,-0.005530551828128433,-0.004973832080030945,-0.007897472095761261,0.02131728859113044,0.9767370528311339
2015-09-14,-1,-0.005410706060175826,-0.004895853173530156,-0.010853602988353812,0.02131728859113044,0.9777808380258567
2015-09-16,-1,-0.0033773055605360513,-0.0031026936989293403,-0.011561424256839072,0.016033457696167208,0.9800706733144141
2015-09-18,-1,-0.004463708475327223,-0.00409703494341252,-0.007897472095761261,0.020135977185867834,0.9794371758883744
2015-09-22,-1,-0.005770662408736093,-0.005224678421132815,-0.005738886036051051,0.020135977185867834,0.9795462843375148
2015-09-24,-1,-0.004997420694606127,-0.00455518539073776,-0.005738886036051051,0.020135977185867834,0.9794337375902349
2015-09-28,-1,-0.004641104173546545,-0.004237624477422373,-0.00795313390915093,0.020135977185867834,0.9791214553953925
2015-09-30,-1,-0.0023065916067789628,-0.002223377139433822,-0.010716159423590351,0.01913541608165791,0.9789819870006289
2015-10-02,0,-9.97073865341121e-07,0.00021713991891627183,-0.011590779532598926,0.01776461214927613,0.9805905914817719
2015-10-06,1,0.004726819150091426,0.005589538321149692,-0.01274003482181239,0.015260057862456626,0.9824663282013149
2015-10-08,1,0.005071111070324152,0.005963346107588741,-0.01274003482181239,0.015260057862456626,0.9826526388564736
2015-10-12,1,0.004039150676807903,0.004788679735929325,-0.01084344383824028,0.015260057862456626,0.9836635747157011
2015-10-14,1,0.0034967624876259557,0.0041687220611695075,-0.013540768938113467,0.015260057862456626,0.983146411858773
2015-10-16,1,0.005046833802821022,0.0059487224926522315,-0.02250279205528587,0.005192031193372016,0.9814463207619618
2015-10-20,1,0.004107591753945143,0.004819745233412645,-0.02250279205528587,0.0069111120478774915,0.9824293153989705
2015-10-22,1,0.0046854135519138855,0.005483017450115143,-0.02250279205528587,0.003608919270491595,0.9822339633607696
2015-10-26,1,0.004124214866639738,0.00487254264473904,-0.014830659305694133,0.003475881661625525,0.9833744482799193
2015-10-28,1,0.003930760418241249,0.004687370900256074,-0.012356484923694178,0.003475881661625525,0.9850466161121095
2015-10-30,1,0.0036291052314485544,0.00444622792880846,-0.010690520938409592,0.003475881661625525,0.9863921972964239
2015-11-03,1,0.004566841410946371,0.005482276076366217,-0.010690520938409592,0.003475881661625525,0.9889690989092264
2015-11-05,1,0.00563697933560207,0.00671179181773128,-0.010690520938409592,0.0017094381161727088,0.9878053284115781
2015-11-09,1,0.005767261402054205,0.0068715986256362134,-0.010616573248303177,0.00012581269497448038,0.9873547449030335
2015-11-11,1,0.004824286832683792,0.005805553460616467,-0.010616573248303177,0.00012581269497448038,0.9881639216359112
2015-11-13,1,0.003761121527499071,0.004617935972315797,-0.009336153678983857,0.0017094381161727088,0.9902794068443244
2015-11-17,1,0.003947180341127187,0.0048110886498193665,-0.009336153678983857,0.0017356710498394965,0.9898323502296378
2015-11-19,1,0.00333070118931842,0.0040850301559659415,-0.009300415391119598,0.0017356710498394965,0.9898141638323626
2015-11-23,1,0.003229810449559486,0.003964423943324526,-0.009300415391119598,0.006580522163036369,0.9896464447714152
2015-11-25,1,0.003347424491991353,0.004086543109907949,-0.009300415391119598,0.002409363139116994,0.9902492888535109
2015-11-30,1,0.0025842252393672013,0.0031700636401078702,-0.009385162389789002,0.0024175792561870525,0.9907037399020338
2015-12-02,1,0.002922504408382517,0.0036141337950781794,-0.009385162389789002,0.0014042456046246044,0.9904306365145188
2015-12-04,1,0.0031159069822848553,0.003793593719919871,-0.009593974379193362,0.00140118889451356,0.9899354480425654
2015-12-08,1,0.002222879425894312,0.002735417751844177,-0.009513649216521484,0.00140118889451356,0.9907472699259599
2015-12-10,1,0.0010852142619717435,0.001417207700449164,-0.009385162389789002,0.00140118889451356,0.9928806399915283
2015-12-14,1,0.0008355545512752046,0.0010913902380350578,-0.009385162389789002,0.00140118889451356,0.9924010064748343
2015-12-16,1,0.0008568459042266341,0.00106805797165516,-0.009513649216521484,0.001046897632415613,0.9920339547928553
2015-12-18,1,0.00036907248480785756,0.0005318288880591902,-0.009513649216521484,0.0014042456046246044,0.9924288630870398
2015-12-22,1,0.0011098315330684923,0.0013815224788556065,-0.009748745782218526,0.0014039276002035797,0.9918963797039977
2015-12-24,1,0.0008940959236510208,0.0011022009422840973,-0.010895035389985666,0.0017653022819292975,0.9871358608650398
2015-12-29,-1,-0.0010328346550943584,-0.0008414405848774361,-0.011091834270508204,0.001402582899813942,0.9876521565575789
2015-12-31,-1,-0.0016885460693182096,-0.0014138902711762678,-0.009891689216003991,0.003172119593714859,0.9880116474136669
2016-01-05,-1,-0.002685949018044278,-0.0022781245470409987,-0.009891689216003991,0.003172119593714859,0.9873798727817276
2016-01-07,-1,-0.003384346239920304,-0.0028664283673024184,-0.01272875709626264,0.003172119593714859,0.9861914276303605
2016-01-11,-1,-0.003363994501871058,-0.002861206065925415,-0.01894853230841765,0.003172119593714859,0.9854404177453262
2016-01-13,-1,-0.003962030093490921,-0.003371318243993416,-0.012463095943797168,0.003172119593714859,0.9863297243978091
2016-01-15,-1,-0.006689717757072475,-0.00562980508360514,-0.012463095943797168,0.005104084628929137,0.9825748078532383
2016-01-20,-1,-0.0055690757777503985,-0.004673926131280606,-0.01894853230841765,0.005104084628929137,0.9820142510989879
2016-01-22,-1,-0.005808585492105828,-0.004937371673627688,-0.012463095943797168,0.008656569838629568,0.9807891525883898
2016-01-26,-1,-0.009128371834153232,-0.007826701949000585,-0.010188937910932852,0.008656569838629568,0.9820661358432449
2016-01-28,-1,-0.00947391118816229,-0.008148053366969495,-0.007762854086926523,0.013380966969186177,0.9807366027343732
2016-02-01,-1,-0.008865191236317838,-0.0076363966626935694,-0.007762854086926523,0.016724765389889817,0.9797269502286938
2016-02-03,-1,-0.010530521404861971,-0.00910870960997762,-0.0029162745802176716,0.023640264176017507,0.9772426955980427
2016-02-05,-1,-0.01208263431192064,-0.010477438209656544,0.0005402115005832889,0.023640264176017507,0.9748524627675025
2016-02-09,-1,-0.011326214547783467,-0.009905654994590589,-0.0017628339915039233,0.023640264176017507,0.9748017302348988
2016-02-11,-1,-0.012453499011066831,-0.010824339637871607,-0.0017628339915039233,0.02849964982015752,0.9726965272074879
2016-02-16,-1,-0.010046544676462058,-0.008636956094015944,-0.004706382810449487,0.02002260071845432,0.9783573772234084
2016-02-18,-1,-0.010577581202521762,-0.009122204230605467,-0.003986731841481157,0.023046564915451182,0.9762472049192216
2016-02-22,-1,-0.008543474529835997,-0.007346020495666043,-0.0015756151359713325,0.021420533579489726,0.9783932360015839
2016-02-24,-1,-0.00548861946296862,-0.004731871562319287,-0.0047578197004892134,0.02108038182665673,0.9809793083129019
2016-02-26,-1,-0.0035784966596040246,-0.0031519350430787765,-0.0049371326528995195,0.02108038182665673,0.9825254098897185
2016-03-01,1,0.0007424847997752032,0.0011248131173989741,-0.0049371326528995195,0.019910256154384673,0.9838768512753556
2016-03-03,1,0.0028304992900530213,0.0035465792580962547,-0.0049371326528995195,0.01941077436187782,0.9853102048962613
2016-03-07,1,0.0037746629670317353,0.004560297369134155,-0.010244844440460381,0.003968266012941091,0.9843603563525649
2016-03-09,1,0.0018352187502828643,0.0023366025583345757,-0.0059261021057034615,0.004722527583647461,0.9873584534875642
2016-03-11,1,0.0035170562788451026,0.004324929186136563,-0.009220536939447544,0.002409743363054,0.9869152823572988
2016-03-15,1,0.0026791665257648585,0.0033608810946800485,-0.005682868741041822,0.004780902431590518,0.9860851300814116
2016-03-17,1,0.0052055853559926975,0.006254834086223477,-0.005682868741041822,0.002409743363054,0.98653555889376
2016-03-21,1,0.00542455165164603,0.006458964009889592,-0.005682868741041822,0.002409743363054,0.9861037740674014
2016-03-23,1,0.003559111001959932,0.0043188408692561905,-0.005263722164652542,0.002409743363054,0.9895490394294232
2016-03-28,1,0.002792997940819891,0.0033779270172285586,-0.0069058706409625276,0.0031834632164080548,0.9879482794987198
2016-03-30,1,0.003619888300448886,0.004385865051924334,-0.0069058706409625276,0.0031834632164080548,0.9867709776815943
2016-04-01,1,0.004351160588192484,0.005270329318017764,-0.009220536939447544,0.007010928629608493,0.9848964546458433
2016-04-05,1,0.003173866727481637,0.003940947823649631,-0.0069058706409625276,0.007010928629608493,0.9860128519420186
2016-04-07,1,0.0025979343572301665,0.0032288159563369245,-0.00797963718011507,0.019565751102730507,0.9848420729640177
2016-04-11,1,0.0012849346145258997,0.0016627134421982968,-0.00797963718011507,0.019565751102730507,0.9846577316204017
2016-04-13,1,0.004052391299749154,0.0048155534569763745,-0.00797963718011507,0.016243644722226044,0.9864526857837984
2016-04-15,1,0.00352283982466356,0.004189842455118245,-0.01308719340943708,0.016243644722226044,0.9848466109919549
2016-04-19,1,0.004191039874593978,0.004938226385472934,-0.015483703391224207,0.016243644722226044,0.9840710256239982
2016-04-21,1,0.004133984334206206,0.004883196456061554,-0.01753501802441169,0.01910307255991322,0.9825588776505996
2016-04-25,1,0.004379158312447672,0.005135647919976147,-0.015483703391224207,0.01910307255991322,0.9839400432304121
2016-04-27,1,0.004820396363743885,0.00561804064927382,-0.015483703391224207,0.016243644722226044,0.9848518054782776
2016-04-29,1,0.0051559351892875235,0.006026306067876604,-0.01308719340943708,0.013087316853363989,0.9863069637258663
2016-05-03,1,0.00388937195169838,0.0045578210774453645,-0.007745025471159361,0.017028516956758628,0.9852414495491209
2016-05-05,1,0.004109149622854347,0.004747280576577738,-0.002184492972908676,0.013087316853363989,0.987028359511093
2016-05-09,1,0.0039386941377044585,0.004556461135464456,-0.0007277735197799347,0.014563707622281435,0.9868625139198126
2016-05-11,1,0.004435530941713266,0.005143531396451863,-0.0043307524120535425,0.014563707622281435,0.9861909857202177
2016-05-13,1,0.002817859793831013,0.00326662534390818,-0.005597112719368276,0.014563707622281435,0.9860444306549385
2016-05-17,1,0.003337805397275818,0.003893797396340477,-0.005597112719368276,0.009483115857602895,0.9868500118799586
2016-05-19,1,0.0036045232931428395,0.004196942379270734,-0.00488612919176287,0.008129311288858344,0.9882930438048462
2016-05-23,1,0.004296613960590218,0.004961542324229772,-0.009106399099075017,0.007273679073333219,0.9886714840442787
2016-05-25,1,0.004496722150073822,0.005152831526676178,-0.009106399099075017,0.007273679073333219,0.9876341575761951
2016-05-27,1,0.00384434682191003,0.004361073219597986,-0.012127916451348902,0.007273679073333219,0.9816344961962381
2016-06-01,1,0.006082749799564239,0.0068704025041079935,-0.012127916451348902,0.006906389384344611,0.98241775826886
2016-06-03,1,0.005955017457720953,0.0067131128902758585,-0.012127916451348902,0.01099293188589667,0.9806604848720923
2016-06-07,1,0.006723176848064066,0.007553365227479226,-0.014231596119908107,0.01099293188589667,0.9796618068369491
2016-06-09,1,0.005825727910915949,0.0064994913378339046,-0.014231596119908107,0.020442337670682202,0.9797051381736079
2016-06-13,1,0.005093781364563789,0.005702650295254316,-0.012366500283319318,0.020442337670682202,0.98095386608149
2016-06-15,1,0.003785802492390307,0.004164111702808203,-0.010866447946832402,0.020442337670682202,0.9811947728874846
2016-06-17,1,0.0023299654031581785,0.0023664520014528103,-0.010866447946832402,0.020442337670682202,0.9813056542399244
2016-06-21,1,0.0013900238576380014,0.001499192408811455,-0.006487788158091525,0.020442337670682202,0.9817371512725944
2016-06-23,1,0.0023442064200336152,0.002361509292031007,-0.009169056375808463,0.020442337670682202,0.9816674824418572
2016-06-27,-1,-0.003386847055728508,-0.0026463599919976212,-0.006026515639427954,0.020442337670682202,0.9858555188747307
2016-06-29,-1,-0.0037264050895821385,-0.0028677862012762086,-0.009185389488063925,0.01730561216416099,0.9865741525565238
2016-07-01,-1,-0.002472583706094919,-0.0017328910758797902,-0.009185389488063925,0.010559914257408265,0.9889956091039217
2016-07-06,-1,-0.002649074603255017,-0.0018661105168578294,-0.009185389488063925,0.010397367317926995,0.9892343934697282
2016-07-08,-1,-0.001209938492809151,-0.000718693373726609,-0.008713228227896712,0.013385754646227585,0.9886737256066401
2016-07-12,-1,-0.0009522930085927961,-0.00044435022543089274,-0.008713228227896712,0.009133836909146261,0.9902269502356619
2016-07-14,-1,-0.00042215927554128973,-4.636606370651375e-05,-0.0073139360113169075,0.010129966018579791,0.9870753560924111
2016-07-18,1,0.0004925523373138507,0.0006809688599909583,-0.0073139360113169075,0.010227721508951609,0.9866745903814552
2016-07-20,1,0.000694419132323791,0.0008554340282404687,-0.0073139360113169075,0.010227721508951609,0.9865855665081203
2016-07-22,1,0.0017279315511954817,0.001736706073161973,-0.004729124766881475,0.007039010045307772,0.9877560879794974
2016-07-26,1,0.001563355803736777,0.0016216830594080424,-0.0039013511461544227,0.008478033243191373,0.9881542678775194
2016-07-28,1,0.001368455661860269,0.0014686143054857975,-0.0031671259884329178,0.010227721508951609,0.9885393086464166
2016-08-01,1,0.0003412456875743395,0.0004676487091836291,-0.0033555628596327156,0.010227721508951609,0.9872409649098587
2016-08-03,1,0.00034438569228439485,0.0004328699581099949,-0.0031671259884329178,0.009791592380886449,0.9884388117559895
2016-08-05,1,0.0012659132179694943,0.0012954685965788,-0.0031671259884329178,0.008024404033187552,0.9900325127959065
2016-08-09,1,0.0020301308301826793,0.002218086250656686,-0.0033555628596327156,0.008478033243191373,0.9887282061988587
2016-08-11,1,0.004742111086426206,0.005305233194616511,-0.003791651773456328,0.008024404033187552,0.9904071704204254
2016-08-15,1,0.0035012428807829404,0.003800653374174408,-0.005267256416707985,0.008024404033187552,0.9892338962147552
2016-08-17,1,0.003278703268654749,0.00353068390163681,-0.006798539310425554,0.009038421632362863,0.9887351446652629
2016-08-19,1,0.003270691727552572,0.0035187822023141167,-0.006978088487206824,0.009038421632362863,0.9882624216742427
2016-08-23,1,0.003201887524272757,0.0034391583225398315,-0.009944713186489037,0.011545321660058326,0.9876899871995163
2016-08-25,1,0.002916359400668052,0.0030363354859953688,-0.012493901207338506,0.011545321660058326,0.9863738082829557
2016-08-29,1,0.0014404155833351775,0.001524904223809524,-0.009944713186489037,0.011545321660058326,0.9877554917837714
2016-08-31,1,0.0010566782848687745,0.001228709568076628,-0.009944713186489037,0.012166002187585732,0.9873511635950589
2016-09-02,1,0.0024395473864753632,0.002547382190461264,-0.009944713186489037,0.013548735836214788,0.9865749347006786
2016-09-07,1,0.0018581267949793674,0.001869762285665087,-0.008694862081961047,0.014152596167150793,0.9871720061842183
2016-09-09,1,0.0007144768464964254,0.0008076101030790567,-0.008151652940516032,0.014152596167150793,0.9880232011259517
2016-09-13,1,0.00033307433850279675,0.0004840148901859769,-0.008151652940516032,0.014152596167150793,0.9872310217125725
2016-09-15,1,0.0008472709036207184,0.0009226653761948184,-0.00871476369383735,0.013548735836214788,0.9873644588514985
2016-09-19,1,0.0007240153995885501,0.0007894919809776151,-0.009946993819408476,0.013548735836214788,0.9871224899326042
2016-09-21,1,0.0006994160796304954,0.000770872568840509,-0.008695622292934194,0.008867440777973903,0.9880809613538178
2016-09-23,-1,-0.000247883169059337,-1.3777291362830212e-05,-0.008695622292934194,0.008470105437691836,0.9886890761217353
2016-09-27,1,3.0425337861506724e-06,0.00017193514456506252,-0.011077655326475295,0.012746614388219368,0.9873459099096581
2016-09-29,0,-9.578817667841742e-05,0.00010720300705319022,-0.011077655326475295,0.007087809511271048,0.9879864200647062
2016-10-03,1,0.00011220949962560212,0.00028401419973977693,-0.011077655326475295,0.007949086427599918,0.9881328238093207
2016-10-05,0,-9.861086946635238e-05,0.0001621718723182514,-0.015433864512612663,0.005764224735741906,0.9877074689595444
2016-10-07,-1,-0.0009406541324469338,-0.0005831904854232742,-0.011077655326475295,0.007658949627989752,0.9883589156452801
2016-10-11,-1,-0.0016068960462171716,-0.0011822368010045879,-0.00944681144605667,0.007658949627989752,0.9897419772097025
2016-10-13,-1,-0.0016722273911091887,-0.001277183441113166,-0.003364850373495848,0.010798118886607932,0.9855179806805219
2016-10-17,-1,-0.0015960023784088177,-0.0012444775584779565,-0.0009146727646162712,0.01456354654612865,0.9824151902856378
2016-10-19,-1,-0.0017231181596192458,-0.0013569999490347252,-0.005359659454898523,0.01456354654612865,0.9822552327782629
2016-10-21,0,-8.27818995320058e-06,2.4851264500327602e-05,-0.002740293987181372,0.015315817096212526,0.9832602270688746
2016-10-25,-1,-0.0008492708466902963,-0.0007145178610823701,-0.0018126279939615886,0.015315817096212526,0.9843778601145091
2016-10-27,-1,-0.0005587097267391174,-0.0005056354796798179,-0.0007269631806488595,0.015315817096212526,0.9848532913971138
2016-10-31,-1,-0.0001898134054508452,-0.00015614952392866907,-0.0018126279939615886,0.015315817096212526,0.9855135778729353
2016-11-02,-1,-0.001518126087607157,-0.0012854441736479794,-0.0018126279939615886,0.015315817096212526,0.9857115298337634
2016-11-04,-1,-0.0013784653892043469,-0.0011351656788353408,-0.002123208707385782,0.01798475032045078,0.9845782682527012
2016-11-08,-1,-0.0006714168509686551,-0.0005146238627724879,-0.002123208707385782,0.01811964362991708,0.9849019072147386
2016-11-10,1,0.0021502791023959708,0.00232439610115223,-0.002123208707385782,0.013718809927645622,0.9889293078081722
2016-11-14,1,0.004614898594003653,0.005158095652362788,-0.0032763113305304343,0.007457902514742393,0.9907259031797558
2016-11-16,1,0.0017394999258400973,0.0018029667185270896,-0.0035768983756323406,0.007457902514742393,0.9902157332805388
2016-11-18,1,0.00257325386209443,0.002639376194518393,-0.007045092962085178,0.007457902514742393,0.9888926929288129
2016-11-22,1,0.0032344723925715876,0.0034703655265020087,-0.007045092962085178,0.006210014996497813,0.9891297185911682
2016-11-25,1,0.0030201317003524476,0.0032405953935633956,-0.0096958655047596,0.006210014996497813,0.9884746023755276
2016-11-29,1,0.002946879488252141,0.0031519039528867332,-0.01161421179841006,0.006210014996497813,0.9879089814848291
2016-12-01,1,0.0027885261357332813,0.003014727350965132,-0.0096958655047596,0.004882754960772457,0.9885400387595035
2016-12-05,1,0.0034685116000142966,0.0037688173017457155,-0.007550332669478546,0.005499375124743331,0.989447552291787
2016-12-07,1,0.00380758707364171,0.004158835883755396,-0.01161421179841006,0.005499375124743331,0.9888750578057041
2016-12-09,1,0.003671753871439155,0.004018566080312692,-0.013330065292115776,0.005499375124743331,0.9869665373689079
2016-12-13,1,0.003564295325890099,0.0039282623064602175,-0.01161421179841006,0.005499375124743331,0.9873386146254349
2016-12-15,1,0.0018343447657116563,0.0019173527459050562,-0.01161421179841006,0.008124055542385213,0.9869469098324142
2016-12-19,1,0.0021283208198956314,0.0022008596893299762,-0.013330065292115776,0.005499375124743331,0.9879205039459902
2016-12-21,1,0.001885257316130449,0.0019292523684263938,-0.013330065292115776,0.006521151004086793,0.9875002254367623
2016-12-23,1,0.0009303488182971942,0.0010295302392283475,-0.010312260105035206,0.011189383180415596,0.9857959161605253
2016-12-28,1,0.0012874308869802288,0.0012987413779495108,-0.011151640365365988,0.011189383180415596,0.9854278900999859
2016-12-30,1,0.0008254563209551337,0.0008945467291669093,-0.012174932030098385,0.011189383180415596,0.9849728385094328
2017-01-04,1,0.0033845777571610723,0.003812939303490525,-0.012174932030098385,0.008354226158147057,0.9852949254589533
2017-01-06,1,0.002345546457921387,0.002599102820109855,-0.011538866540665325,0.008354226158147057,0.9853787128641558
2017-01-10,1,0.002629059117797614,0.002919432347953992,-0.010452163910161221,0.0055156595985062905,0.9873224503597191
2017-01-12,1,0.0024766135542229014,0.002747468847464976,-0.010452163910161221,0.0055156595985062905,0.9874596065912564
2017-01-17,1,0.0014306215522656644,0.001555390752340329,-0.009134454007234432,0.0055156595985062905,0.9894656478128618
2017-01-19,1,0.0013988685678330516,0.0015583069385865897,-0.00758061544338462,0.0055156595985062905,0.9902438760076032
2017-01-23,1,0.0010040193595566263,0.0010457483816594497,-0.00758061544338462,0.005175595393138032,0.9907540825803584
2017-01-25,1,0.0025442007174202074,0.002805039122328723,-0.010452163910161221,0.0028822063414648234,0.9911286106965042
2017-01-27,1,0.001916453214918242,0.0021042460473808516,-0.00911481972292695,0.00350880165934883,0.9911203514074358
2017-01-31,1,0.0012791552196924623,0.0013722173026400782,-0.00911481972292695,0.005175595393138032,0.9896989034881268
2017-02-02,1,0.000290528165044151,0.00038442827637044197,-0.010412750173303472,0.0072578544155446865,0.9892935354520265
2017-02-06,1,0.0002790671885687253,0.00038864287741715295,-0.010412750173303472,0.00380941440091834,0.9896328106339394
2017-02-08,1,0.0006964539026060371,0.0007265510364136926,-0.011849560599810162,0.00380941440091834,0.9888882366139119
2017-02-10,-1,-0.0004116575042457043,-0.00022172417703912128,-0.011849560599810162,0.00380941440091834,0.9893299407739485
2017-02-14,1,0.0005082287490179472,0.0005834573411781024,-0.011849560599810162,0.003588994626702198,0.9894049929561053
2017-02-16,0,-6.984846333639113e-05,9.583621123722847e-05,-0.011849560599810162,0.00738417376995787,0.9889013770080849
2017-02-21,1,0.00017098180972683653,0.00029820491513968934,-0.013856949495054196,0.00738417376995787,0.9872707209963915
2017-02-23,-1,-0.0011165275696510917,-0.000829677469928059,-0.011849560599810162,0.008084144981663623,0.9884659676612161
2017-02-27,-1,-0.00021363346880596678,-3.917104508546998e-05,-0.011849560599810162,0.0076917420691242225,0.9893931765826577
2017-03-01,1,0.0008483399561927294,0.0008562832844962673,-0.009408427427107978,0.0076917420691242225,0.9909875784573144
2017-03-03,-1,-0.00022232052781225064,-3.716341208608953e-05,-0.006104630999296841,0.0076917420691242225,0.9912715804693506
2017-03-07,-1,-0.0015561862940730506,-0.0011840000679626663,-0.002922086854361264,0.008015449955283561,0.9910670215109922
2017-03-09,-1,-0.00256209987890376,-0.0020490996413101356,-0.002922086854361264,0.008015449955283561,0.9903551251780602
2017-03-13,-1,-0.0025788332836836794,-0.0020502561139684357,-0.0037247945050961828,0.008015449955283561,0.9906124682263463
2017-03-15,-1,-0.00283890199886736,-0.0022684807116174393,-0.0051552398414289454,0.007934878634504434,0.9905613064187287
2017-03-17,-1,-0.0023324379655068747,-0.0018334568896274644,-0.01027213566377025,0.007934878634504434,0.9902868328362338
2017-03-21,-1,-0.00417459612084886,-0.003409071372440705,-0.002416452640419896,0.007934878634504434,0.990496109538147
2017-03-23,-1,-0.0038937132318757274,-0.0031393715273130575,-0.004187636780240938,0.007934878634504434,0.9907575513434227
2017-03-27,-1,-0.003062807833611395,-0.002439134036476655,-0.004187636780240938,0.011524939514957309,0.9889585388433904
2017-03-29,-1,-0.003476499299405209,-0.002761069654784444,-0.004187636780240938,0.011151291516951184,0.9891456651982926
2017-03-31,-1,-0.0031485526326954978,-0.00249300365635527,-0.007732804858012254,0.009336416885418877,0.9895890683882218
2017-04-04,-1,-0.0030468469905118294,-0.002424605798794047,-0.007185007653650432,0.007935409178726194,0.9905009234468908
2017-04-06,-1,-0.0017525901787493253,-0.001418709773347297,-0.004187636780240938,0.011151291516951184,0.9906976237971792
2017-04-10,-1,-0.0003978931068224573,-0.0003460165019722512,-0.007185007653650432,0.011151291516951184,0.9906623314607811
2017-04-12,-1,-0.0011035209580968473,-0.0009363618649914651,-0.0038356385957470035,0.011151291516951184,0.9907097450549558
2017-04-17,-1,-0.00031153508133192914,-0.0002659876753532868,-0.0038356385957470035,0.00841142921952769,0.9914375059793359
2017-04-19,1,3.3790630926667234e-05,4.479096558932761e-05,-0.007185007653650432,0.00841142921952769,0.9897619035242701
2017-04-21,1,0.00015426057910434171,0.00017706281184957012,-0.004210104475789107,0.0063883500011276935,0.9904135968239874
2017-04-25,1,0.0020596366814159446,0.00233928389866984,-0.004210104475789107,0.006005136098398926,0.9918061489116126
2017-04-27,1,0.0021423139659504475,0.0024086568583654086,-0.004210104475789107,0.006005136098398926,0.9918984044561305
2017-05-01,1,0.0022779286011680457,0.0026126752033301805,-0.00392792756696562,0.006005136098398926,0.9920372664009506
2017-05-03,1,0.002295634469440196,0.002669689768242681,-0.00392792756696562,0.0063883500011276935,0.9870814094183878
2017-05-05,1,0.0032413063289356532,0.0037558420564383936,-0.0071317564742764865,0.0063883500011276935,0.9850253110524043
2017-05-09,1,0.002448326630483226,0.0028320338527739854,-0.007252765250355689,0.0063883500011276935,0.9848402921063659
2017-05-11,1,0.0019067849324853722,0.002139029786324044,-0.007252765250355689,0.008998470979327617,0.983289468935525
2017-05-15,1,0.0020624891102294794,0.0023578275914063816,-0.005567639118189872,0.008998470979327617,0.9839077989115284
2017-05-17,1,0.000672362841189508,0.000787705562824689,-0.006430624219799886,0.008998470979327617,0.9850080977340565
2017-05-19,1,0.000511910205007448,0.000572202366036035,-0.006458580260563857,0.009431738301314737,0.9843946767439568
2017-05-23,1,0.0014682504297912117,0.001631252114886956,-0.007973110332129628,0.008749428695545174,0.9840369619656494
2017-05-25,1,0.0016244534723112588,0.0018020541500444786,-0.007973110332129628,0.006621518637568904,0.9839060709546766
2017-05-30,1,0.0020431407538854403,0.0023351347869824276,-0.007973110332129628,0.004136471088320405,0.9837415870208225
2017-06-01,-1,-0.0010906635413457687,-0.0009619241606930295,-0.007973110332129628,0.004136471088320405,0.9893811959314361
2017-06-05,-1,-0.0011318748840857542,-0.0010035399124613182,-0.006867739213037934,0.004136471088320405,0.990945736933857
2017-06-07,-1,-0.0017847157423377018,-0.001569951321132513,-0.007962959685063794,0.004136471088320405,0.9908979594980794
2017-06-09,-1,-0.00045763559031981334,-0.00035910797994964156,-0.009532862355485082,3.4551790286480044e-05,0.9922022905907022
2017-06-13,-1,-0.000895914757527903,-0.0007218082079548417,-0.009532862355485082,3.4551790286480044e-05,0.9923911564377419
2017-06-15,-1,-0.0012995831773215819,-0.0010911798980825446,-0.009532862355485082,0.001633574754770697,0.9927439980238626
2017-06-19,1,7.230722097181213e-05,0.000136483200955242,-0.009532862355485082,0.0007599926154080522,0.9927356365694082
2017-06-21,-1,-0.0017463541499176014,-0.0015460639756882761,-0.007318170488452827,0.002256601180880226,0.9934172033021249
2017-06-23,-1,-0.002356165178083808,-0.0020540806583559776,-0.007318170488452827,0.002256601180880226,0.9933190883652049
2017-06-27,-1,-0.0027592469290623955,-0.0024036003994984357,-0.009532862355485082,0.00490888153182161,0.9917474198794023
2017-06-29,-1,-0.002650395621750918,-0.0023273208995741087,-0.007318170488452827,0.004949079386782299,0.9921608302733949
2017-07-03,-1,-0.0017817936190108984,-0.0015533274844285261,-0.007318170488452827,0.005259693298773401,0.9926489185684062
2017-07-06,-1,-0.002752421896257136,-0.0023989748449310035,-0.004658915233194933,0.005259693298773401,0.9930368924045557
2017-07-10,-1,-0.002651240930811283,-0.0023484450793260416,-0.00274384177993928,0.006043320934316536,0.992692104258223
2017-07-12,-1,-0.0023954024771959286,-0.0021239413814497588,-0.005497087223014884,0.006043320934316536,0.992679627938814
2017-07-14,-1,-0.00204608377061436,-0.0018329933411708953,-0.007773034291452426,0.006043320934316536,0.9871807357878121
2017-07-18,-1,-0.003023052611072893,-0.0026293444354207546,-0.011245599826535295,0.006342972256740918,0.98575889645579
2017-07-20,-1,-0.00246823134307686,-0.002170170965488269,-0.007409054074269432,0.006043320934316536,0.9867697438280664
2017-07-24,-1,-0.002256414963788401,-0.0020346197914028795,-0.011627433521649046,0.006043320934316536,0.9861503959645821
2017-07-26,-1,-0.0024869435194514646,-0.0022355286272219372,-0.009574382547278082,0.006043320934316536,0.9866328921467661
2017-07-28,-1,-0.002531709943824989,-0.002226248053507878,-0.009574382547278082,0.006342972256740918,0.9868579848665997
2017-08-01,-1,-0.002405691959457092,-0.0020764267369572276,-0.009574382547278082,0.0027442639362958653,0.9873206760182708
2017-08-03,-1,-0.002222910415851904,-0.0019252943033921028,-0.009574382547278082,0.0064008886324042275,0.9866739099164736
2017-08-07,-1,-0.00168811089573859,-0.0014575537890792712,-0.009574382547278082,0.0064008886324042275,0.9861546712746511
2017-08-09,-1,-0.0019957801005786617,-0.0017632131563911646,-0.007416628538292488,0.006840807681571561,0.9861890964953284
2017-08-11,-1,-0.008081015789887758,-0.007064423718723782,-0.004982112710975383,0.009035240550119096,0.9884536351266042
2017-08-15,-1,-0.007522938121911672,-0.006604604005075853,-0.004358438621797029,0.008779675822497716,0.9892326792978178
2017-08-17,-1,-0.007478364370092772,-0.006595755024506031,-0.0028093414969448034,0.008779675822497716,0.98832607586898
2017-08-21,-1,-0.00766664969417407,-0.006809150051606981,-0.0015930801946857183,0.008779675822497716,0.9879457331387871
2017-08-23,-1,-0.006178106833728659,-0.0055224356294837585,-0.00214703742635081,0.006840807681571561,0.9901425006836373
2017-08-25,-1,-0.005905873702583371,-0.005277536454068183,-0.0015201078001636117,0.008079869154854702,0.9898656792215161
2017-08-29,-1,-0.005782709508868625,-0.005154468188539329,-0.0015201078001636117,0.010735726814938035,0.9898665901635763
2017-08-31,-1,-0.005028846702178558,-0.0044894736945490735,-0.002455865709171579,0.010532748600253883,0.9906706043007547
2017-09-05,-1,-0.004498178476687676,-0.00400803677881427,-0.0021338198341224585,0.007501693323376279,0.991787951720759
2017-09-07,-1,-0.0040842709295532045,-0.003668227742015183,-0.0021338198341224585,0.006975877100761373,0.9922746734245036
2017-09-11,-1,-0.0025054491921100495,-0.002294394804856517,-0.0021338198341224585,0.0037076218262716877,0.9945998248171267
2017-09-13,-1,-0.001749231691588979,-0.0016404656273021326,-0.0021338198341224585,0.0028290357331029066,0.9952951167178504
2017-09-15,0,-5.2908897658396456e-05,0.00018710574563126118,-0.002635130116052843,0.001899754595614306,0.995616132379566
2017-09-19,0,-5.233224134462732e-05,0.00022314695333607796,-0.002635130116052843,0.0028290357331029066,0.9958977589395901
2017-09-21,0,-1.0901825094580993e-05,0.00025746028827904706,-0.003658954277077964,0.00285850125945429,0.9952612460978726
2017-09-25,1,0.0004787457550615758,0.0007979932949281572,-0.004009699042996067,0.001899754595614306,0.9955339995930538
2017-09-27,1,0.0013572515273062116,0.001853060557288192,-0.004077167160373832,0.001899754595614306,0.9943162990872316
2017-09-29,1,0.0014906531535278577,0.0019770610737283936,-0.004819509216678388,0.001899754595614306,0.9936672592521313
2017-10-03,1,0.0017202781866772834,0.0022545389532640132,-0.005170232567352452,0.001899754595614306,0.9931725190974486
2017-10-05,1,0.001445158014254875,0.0019418692703556467,-0.005170232567352452,0.00285850125945429,0.9912598207096812
2017-10-09,1,0.0007222020893258239,0.001027762946188394,-0.006482212100746893,0.00285850125945429,0.9904202799906062
2017-10-11,1,0.0010921088169379089,0.001462602754948371,-0.007464757242993468,0.003126016637651248,0.9897297309476631
2017-10-13,1,0.0015379347506800558,0.0020464616879509907,-0.008177913927640616,0.005903338957689916,0.9875150680252736
2017-10-17,1,0.0018249404514424346,0.002395653215485121,-0.009270893281007886,0.005903338957689916,0.9870069449181387
2017-10-19,1,0.002429427962511864,0.003080035924116894,-0.009270893281007886,0.004207871359433194,0.9870866970212522
2017-10-23,1,0.000710198821093717,0.0009646792932794335,-0.009270893281007886,0.008016144013645496,0.9871200997334061
2017-10-25,1,0.0013396227159921926,0.0016743339522625584,-0.007880973213845231,0.007218224976942144,0.9881477568274011
2017-10-27,1,0.0015446825263500073,0.001878956697474029,-0.007158618229003674,0.004689603135327573,0.9890304165659016
2017-10-31,1,0.0021534920620176817,0.0026681909083515927,-0.007158618229003674,0.007218224976942144,0.9882194053614991
2017-11-02,1,0.0028812895423911775,0.0034936697583964524,-0.006941463812328544,0.004689603135327573,0.9899826167766144
2017-11-06,1,0.00172776617859963,0.0021531860293649424,-0.006941463812328544,0.007218224976942144,0.9898641195793643
2017-11-08,1,0.001664533127178911,0.0020920723654567173,-0.006941463812328544,0.007218224976942144,0.9896488285821
2017-11-10,1,0.0005169946873449195,0.00072076198349108,-0.005034124983754319,0.004689603135327573,0.9923817387888639
2017-11-14,1,3.749153016885577e-05,0.0001683154727193894,-0.004342258334317012,0.005435083515062009,0.9926248946447026
2017-11-16,1,0.00013134857962458183,0.0002594764609988479,-0.0044260872577860585,0.005527759261762186,0.992199488562605
