JNU-Tangyin/eata/results/Batch4_SP500/Batch4_SP500-GD.csv
Date,Action,Predicted_Q25,Predicted_Q75,Actual_Q25,Actual_Q75,RL_Reward
2010-12-14,0,0.0,0.0,-0.0021598546683233404,0.004641023747437405,0.9948354378393818
2010-12-16,0,0.0,0.0,-0.0014443456112743372,0.005026107957423347,0.9950487471912486
2010-12-20,1,0.0019527999797957745,0.002211189381994926,-0.0009166793295727507,0.005916295209049165,0.9954678106745656
2010-12-22,0,0.0,0.0,-0.0011596778137515648,0.007115496461239464,0.9944318601455294
2010-12-27,0,0.0,0.0,-0.0016161373246319076,0.007886093223610778,0.9937037140915559
2010-12-29,1,0.0006880246752783723,0.0008018806305661961,-0.0009511555572257379,0.00869171893766173,0.9928219007264847
2010-12-31,1,0.002942471541514344,0.00337181912237235,-0.0017353364268905265,0.00921787720043575,0.991473737239093
2011-01-04,1,0.0015086549399485312,0.0016090041695190544,-0.0009345568924851617,0.00921787720043575,0.9915282620951863
2011-01-06,1,0.001789394882858493,0.0019120851725741746,-0.0017353364268905265,0.00869171893766173,0.991704866813697
2011-01-10,1,0.0021264567708361654,0.0023564000484333153,-0.0009345568924851617,0.01076099897871116,0.9915332345853797
2011-01-12,1,0.0013566630437930457,0.001358590012476763,-0.0014067868226651618,0.01076099897871116,0.9909713241021091
2011-01-14,1,0.0008776234495886425,0.0010032532053435947,-0.0037441397959495073,0.01076099897871116,0.9911149458345921
2011-01-19,0,0.0,0.0,-0.005774110390060401,0.01076099897871116,0.9904975741513266
2011-01-21,1,0.00038212317208596955,0.0005006238072247141,-0.0037441397959495073,0.010569888875322333,0.9908571998666891
2011-01-25,0,0.0,0.0,-0.007379754944624752,0.009937204496248752,0.9901081005006321
2011-01-27,0,0.0,0.0,-0.007379754944624752,0.008999855800085055,0.990905539079191
2011-01-31,1,0.0009387124788440271,0.0009904028603472787,-0.007379754944624752,0.008453441752721067,0.9923482038625306
2011-02-02,1,0.0014306885919292142,0.0014721827011746407,-0.007379754944624752,0.008999855800085055,0.9910304000748131
2011-02-04,1,0.0012673893630927588,0.0013109071078667906,-0.008687337640388643,0.008999855800085055,0.9899385145555929
2011-02-08,1,0.001495419088110875,0.0015530279911175231,-0.008687337640388643,0.0063013679461343605,0.990368346193839
2011-02-10,1,0.0022474841182004,0.0023784031811034424,-0.010426645203809228,0.008999855800085055,0.9893822947662805
2011-02-14,1,0.0017407671705859994,0.0017786115860486044,-0.010426645203809228,0.008999855800085055,0.9888097468445775
2011-02-16,1,0.0017606556001869148,0.001815163149581731,-0.01199806758996454,0.0063013679461343605,0.9888066776989867
2011-02-18,1,0.001822340946164216,0.001866830262911753,-0.01199806758996454,0.006445931385796234,0.9883153940740982
2011-02-23,1,0.0006770062012363988,0.0007882028596740221,-0.00930853119702591,0.006445931385796234,0.989943955735815
2011-02-25,1,0.0003544357241611543,0.0005319663158759727,-0.00930853119702591,0.006292344547658464,0.9898607069258833
2011-03-01,0,-3.141448248025736e-05,0.00015329513496728096,-0.008556353536514155,0.006292344547658464,0.9899905191118211
2011-03-03,1,0.0007489698238908006,0.0008547475403136193,-0.008556353536514155,0.006101137667698332,0.99117638698812
2011-03-07,0,0.0,0.0,-0.007820035892203743,0.007559595808825263,0.9893330039113902
2011-03-09,0,0.0,0.0,-0.007820035892203743,0.007559595808825263,0.9894091957433464
2011-03-11,0,0.0,0.0,-0.006298066586148312,0.006101137667698332,0.9905286850342357
2011-03-15,0,0.0,0.0,-0.006298066586148312,0.006101137667698332,0.9903175507035191
2011-03-17,0,0.0,0.0,-0.006298066586148312,0.006101137667698332,0.990179486350546
2011-03-21,-1,-0.000545492561258136,-0.00021912423890542703,-0.00823554947750043,0.004827667292244289,0.9904714467437569
2011-03-23,1,0.0010562672838145902,0.001081356950690635,-0.00823554947750043,0.006250138524473024,0.9895617304984875
2011-03-25,1,0.0010809809958398913,0.001105841678000838,-0.00823554947750043,0.004827667292244289,0.9899136369422084
2011-03-29,1,0.0005116052547729586,0.0005423418536821586,-0.006952883938952668,0.006140783197684821,0.9902213062509564
2011-03-31,1,0.000905107618006714,0.0009526453492367962,-0.010463566680934063,0.006140783197684821,0.9891070224743541
2011-04-04,-1,-0.0001547413104773718,-5.571868594073104e-05,-0.006952883938952668,0.007644214493743947,0.991239885055201
2011-04-06,0,-6.339119638456892e-05,6.34581881173995e-05,-0.008605697737971613,0.006140783197684821,0.9917705421665115
2011-04-08,-1,-0.0005521342714737434,-0.00035029212775730017,-0.008605697737971613,0.007644214493743947,0.9916317671311723
2011-04-12,-1,-0.0015726210633852276,-0.001224824018504177,-0.0024621256223853376,0.007644214493743947,0.9922664451898616
2011-04-14,-1,-0.0018065338253283015,-0.0014567053488710087,-0.0015564207303074232,0.007644214493743947,0.9926351270768384
2011-04-18,-1,-0.0021820358566203013,-0.0017847291807528663,-0.0016806582132282743,0.007644214493743947,0.9930748078421945
2011-04-20,-1,-0.0014655454300553754,-0.001163162742699243,-0.0016806582132282743,0.006834782721754611,0.9942047743553303
2011-04-25,-1,-0.001892453555736192,-0.0015116063395177696,-0.006429688893582106,0.006834782721754611,0.9926214189428203
2011-04-27,-1,-0.0012274484421199213,-0.0009574589983957457,-0.006641087620720597,0.004217796735756862,0.992734769465945
2011-04-29,-1,-0.0011885062478863098,-0.0009167595048556785,-0.005980567747437422,0.004217796735756862,0.9934255914899113
2011-05-03,-1,-0.0007958503538151348,-0.0005950425915959903,-0.006641087620720597,0.0021487907941585087,0.9907724246921327
2011-05-05,-1,-0.0009375855810557428,-0.0007391803445839591,-0.007114432817544316,0.0021487907941585087,0.9904362747649512
2011-05-09,-1,-0.0005553618806763067,-0.0004087181143450538,-0.007114432817544316,0.0010565343192031967,0.9908368746242512
2011-05-11,0,0.0,0.0,-0.007114432817544316,0.001022021327229277,0.990558038607357
2011-05-13,0,0.0,0.0,-0.010346076391143348,0.0013128700365762913,0.989922490244208
2011-05-17,-1,-0.0006873317007786038,-0.000560906522995117,-0.007492865282735132,0.004374217891943419,0.9898296296684821
2011-05-19,-1,-0.0004097394468972943,-0.0003205485766771445,-0.007492865282735132,0.00555865399645371,0.9895772346923323
2011-05-23,-1,-0.003275222956687348,-0.00277263592160252,-0.005449319212210547,0.00671624379375523,0.9896952849289229
2011-05-25,-1,-0.0038263218785390147,-0.003263302698983476,-0.004832301298773608,0.00671624379375523,0.9895656900219093
2011-05-27,-1,-0.003604438173037951,-0.0030449246168535726,-0.005537018811582591,0.00671624379375523,0.9895375517783647
2011-06-01,-1,-0.002776611896835174,-0.0023483369797790577,-0.004082853564509084,0.0061898604871969565,0.9926462876682473
2011-06-03,-1,-0.0036839301727818563,-0.0031429766277529425,-0.000550147673509884,0.008456607506311584,0.9911833043608768
2011-06-07,0,0.0,0.0,-0.0036235531470315296,0.008456607506311584,0.9922492876424583
2011-06-09,0,0.0,0.0,-0.004271256177492443,0.009365034625530377,0.9912424527994254
2011-06-13,0,0.0,0.0,-0.006794734704397533,0.009365034625530377,0.9911025469205712
2011-06-15,0,0.0,0.0,-0.008852328322531158,0.008456607506311584,0.9908652681614969
2011-06-17,0,0.0,0.0,-0.012083382588080085,0.008456607506311584,0.9901097263271463
2011-06-21,0,0.0,0.0,-0.012083382588080085,0.006605586524075895,0.9909484138538004
2011-06-23,0,0.0,0.0,-0.012083382588080085,0.007172288874601819,0.989612325905342
2011-06-27,0,0.0,0.0,-0.012083382588080085,0.006605586524075895,0.9898658825962635
2011-06-29,1,0.00027615075025741584,0.00033562755252461907,-0.012523190621059539,0.005399236287582613,0.9884096065078662
2011-07-01,1,0.0006488667566625064,0.0007755337050859858,-0.012523190621059539,0.0013431432828299975,0.9887271004291047
2011-07-06,0,0.0,0.0,-0.01279912057074716,0.0013431432828299975,0.9886057745224286
2011-07-08,0,0.0,0.0,-0.013154664457683178,0.0013431432828299975,0.9869210688292789
2011-07-12,0,0.0,0.0,-0.015018400956355064,0.005146722933784154,0.9839833324354472
2011-07-14,1,5.5322078543324334e-05,0.00013479714091191273,-0.015612978837250446,0.006008961909494954,0.9793685654984775
2011-07-18,-1,-0.0020212363378518125,-0.0018342333894599027,-0.014616009592231565,0.009899303863276698,0.9794151128352305
2011-07-20,-1,-0.0013783021051539737,-0.0012850488411012676,-0.014616009592231565,0.009141763801881319,0.979212746576178
2011-07-22,-1,-0.0010051835813713354,-0.0009315075613652054,-0.02100601739547741,0.005146722933784154,0.9773724425005659
2011-07-26,-1,-0.00034588668234469914,-0.0002480288854884718,-0.02100601739547741,0.014351130796418666,0.976214091527263
2011-07-28,-1,-0.0027245202686846134,-0.002471062212695212,-0.01729433552743702,0.020100419360743894,0.9764837389994655
2011-08-01,-1,-0.002141097812972866,-0.002007990418177289,-0.01729433552743702,0.023140871036903054,0.9744864638103619
2011-08-03,-1,-0.0034262533028621574,-0.003123816589748211,-0.013887107790047086,0.023140871036903054,0.9743228504565987
2011-08-05,-1,-0.004725871977409505,-0.004238935411119413,-0.01556843707112259,0.023140871036903054,0.9751111308477903
2011-08-09,-1,-0.006258310445004729,-0.005573284511884033,-0.013612105939437675,0.02162712194662808,0.9776419707343729
2011-08-11,-1,-0.0058051507962877304,-0.005237446531207401,-0.015341294719664517,0.01839302041554728,0.9820240857202318
2011-08-15,-1,-0.0042968070457459085,-0.003930210515887884,-0.015341294719664517,0.015541960286936081,0.9830623944409823
2011-08-17,-1,-0.0045821460783189855,-0.0041999732873994125,-0.015341294719664517,0.01839302041554728,0.9812434642893324
2011-08-19,0,0.0,0.0,-0.01169995140527888,0.01839302041554728,0.9843888135738109
2011-08-23,-1,-0.0037963134174627683,-0.00347351537968217,-0.015341294719664517,0.015541960286936081,0.9840694898913624
2011-08-25,-1,-0.004585118915278623,-0.004119684347552281,-0.015341294719664517,0.014790759439623172,0.9849220339400956
2011-08-29,-1,-0.0021277673446178733,-0.0019886032925237026,-0.015341294719664517,0.014790759439623172,0.9851242957725065
2011-08-31,-1,-0.0013764417404168359,-0.0013232837020028657,-0.015341294719664517,0.013349339387082888,0.9846668243425064
2011-09-02,-1,-0.0034419713420175847,-0.0031139866778209756,-0.016974883748275982,0.013349339387082888,0.9853136783738207
2011-09-07,-1,-0.0035040692056515885,-0.0031401379785348255,-0.016974883748275982,0.013349339387082888,0.9846054347582927
2011-09-09,-1,-0.005052576899368076,-0.0044977184115995595,-0.011373665663941771,0.015218909740623711,0.9841051818666843
2011-09-13,-1,-0.004282981592641168,-0.0038627531445283676,-0.011373665663941771,0.017844873839744726,0.9825945737365084
2011-09-15,-1,-0.002740904195084607,-0.0025001788746295676,-0.012162838463310795,0.01670220178815513,0.9834299168733439
2011-09-19,-1,-0.002984541584876296,-0.002734269420105216,-0.015409648198779612,0.01670220178815513,0.9829449323033788
2011-09-21,-1,-0.004519075464412604,-0.004099317205995984,-0.012162838463310795,0.018058757335761896,0.9830451337826178
2011-09-23,-1,-0.004658245483295313,-0.004266736265228844,-0.005271003688738696,0.02244754484989693,0.9815649764180239
2011-09-27,-1,-0.0030214717021164314,-0.0028145978519561895,-0.007067281462870961,0.018058757335761896,0.9840328167590885
2011-09-29,-1,-0.0025517297508079557,-0.0024280859865355043,-0.007067281462870961,0.02258176993633568,0.9831108557863726
2011-10-03,-1,-0.003735674537226447,-0.0034835286192427895,-0.003841313764365489,0.02258176993633568,0.9837258454624158
2011-10-05,-1,-0.002201651494139342,-0.0021246205563833376,-0.007067281462870961,0.018058757335761896,0.9836885334215734
2011-10-07,-1,-0.0011311253280658752,-0.0010924468011495113,-0.007067281462870961,0.019417386537611055,0.9839658898332374
2011-10-11,1,0.00011183360577405449,0.0003314640268432652,-0.007067281462870961,0.015093511383934482,0.9846939985700478
2011-10-13,-1,-0.00014047669228727346,-1.850828679632045e-05,-0.00870111674369935,0.012486699716999068,0.9840478557488896
2011-10-17,-1,-0.000637749374622295,-0.0006000585781700898,-0.005787854542848678,0.01759481263737324,0.9829112072566611
2011-10-19,1,0.0003608330487289979,0.0005509724705371823,-0.008353786622464948,0.012486699716999068,0.983365783670505
2011-10-21,1,0.0019445025520089087,0.002366462130525295,-0.015912141954561462,0.010763982818801478,0.9841189783536608
2011-10-25,1,0.0016948716016785773,0.002054563478599324,-0.015912141954561462,0.010763982818801478,0.983583989831239
2011-10-27,1,0.0019344243208651189,0.002329169712981828,-0.015912141954561462,0.009143314663082342,0.98326300961122
2011-10-31,1,0.0012889401935559886,0.0015929858028409494,-0.012720861943358957,0.010763982818801478,0.9819593395776504
2011-11-02,1,0.0002057025049058155,0.0003467917384498046,-0.0076943353295327865,0.012486699716999068,0.9823122540838148
2011-11-04,1,0.001212445252206775,0.001519043494020772,-0.01181233137648123,0.010763982818801478,0.9833046765270272
2011-11-08,1,0.0021863191281656287,0.0026440464561910005,-0.01181233137648123,0.008240491337250157,0.9842222583512196
2011-11-10,0,0.0,0.0,-0.01181233137648123,0.009143314663082342,0.9841172658816225
2011-11-14,1,0.002691329634245326,0.0032491213766490394,-0.012720861943358957,0.008240491337250157,0.9850272000961198
2011-11-16,1,0.0027129154861923457,0.0032845085399371052,-0.01181233137648123,0.007015612250250204,0.9857980542090411
2011-11-18,1,0.002448668114686466,0.003003939252815914,-0.011713991620081889,0.007015612250250204,0.9864360409047714
2011-11-22,1,0.0028248558484902505,0.0034748476339704053,-0.00890287543265205,0.007015612250250204,0.9854511799040636
2011-11-25,1,0.001702278827390527,0.0021851744485019142,-0.005417092209912389,0.008580826198829512,0.9874342704900223
2011-11-29,1,0.0030732065598423858,0.00374365909914673,-0.008266821880521316,0.004159884252226752,0.9889766044761598
2011-12-01,1,0.003941689922559382,0.004692959124312314,-0.008266821880521316,0.0032306495675144434,0.9889932675905229
2011-12-05,1,0.0032817648587900256,0.0039085650087053985,-0.007707603174308006,0.006080061682246097,0.9893044298964846
2011-12-07,1,0.0029160766788420634,0.0034506255685327458,-0.008266821880521316,0.006080061682246097,0.9891049222633963
2011-12-09,1,0.002840293258146518,0.003378789313692611,-0.007707603174308006,0.011995577320431872,0.9896367494626567
2011-12-13,1,0.002388836059105548,0.002887922819550271,-0.0023265519462720152,0.012772547343956298,0.9906485368720118
2011-12-15,1,0.002273413912293451,0.002748597670495923,-0.00238302565656436,0.012772547343956298,0.9902086314120974
2011-12-19,0,0.0,0.0,0.0010922304252513012,0.012772547343956298,0.9894538244768785
2011-12-21,0,0.0,0.0,0.00012535010675360139,0.012061567192847742,0.9906965757858547
2011-12-23,0,0.0,0.0,-0.004988556651394819,0.011328454147309892,0.991458823605538
2011-12-28,0,0.0,0.0,-0.004988556651394819,0.011328454147309892,0.9912189644365469
2011-12-30,0,0.0,0.0,-0.004988556651394819,0.008951251346845634,0.991484870738945
2012-01-04,0,0.0,0.0,-0.004988556651394819,0.00802384807881475,0.9923371150062471
2012-01-06,1,0.000860087949275566,0.0009292591060652465,-0.0018269390817384546,0.009567806096803303,0.9922807070585302
2012-01-10,1,0.004703764245382094,0.005268507313620774,-0.0018269390817384546,0.00802384807881475,0.993458459038797
2012-01-12,1,0.0034004281277029646,0.0035924174538138156,-0.006122487290287259,0.0050385469132692914,0.993071738119889
2012-01-17,1,0.004246400282633372,0.004631933814097669,-0.006122487290287259,0.003717285932440947,0.9930049265653217
2012-01-19,1,0.004653299786363412,0.0051054057190812905,-0.006122487290287259,0.003717285932440947,0.992717821835755
2012-01-23,1,0.00528350166854801,0.005940321176668303,-0.0033142724232586365,0.0043708880142000915,0.993044104546243
2012-01-25,1,0.005400393648127668,0.006110502611558684,-0.0038610482863098926,0.0043708880142000915,0.9927269782852112
2012-01-27,0,0.0,0.0,-0.001816005013086312,0.005594459234037014,0.9935629144068191
2012-01-31,0,0.0,0.0,-6.921077120488126e-05,0.006583265961875998,0.9938953369207754
2012-02-02,1,0.0018124450794410997,0.0018146361078916601,-0.002880164867166828,0.005594459234037014,0.9942769710756518
2012-02-06,1,0.001355751521157636,0.0013934125098852492,-0.0039036416955606475,0.0036621228396937202,0.9937477570486175
2012-02-08,1,0.001808131028948398,0.0019574823493857716,-0.0039036416955606475,0.0053728416703761215,0.9932547530566549
2012-02-10,1,0.0010269026652129536,0.001044512088498209,-0.0027188564054663436,0.0053728416703761215,0.9939584972024124
2012-02-14,1,6.92142467271146e-05,0.00021520039612733132,-0.002347047861677427,0.005867369638377057,0.9932129764060986
2012-02-16,-1,-0.0003378526875970597,-0.00012050027046094471,-0.0033553558177673156,0.005867369638377057,0.9930553058019146
2012-02-21,1,0.0002849045323887783,0.00038679815666107506,-0.0039036416955606475,0.003998001758856945,0.9930815575780516
2012-02-23,0,-5.888793818090409e-05,9.356271730341138e-05,-0.0033553558177673156,0.003998001758856945,0.9936659458650442
2012-02-27,0,-0.00021195966612407577,5.537110222976808e-06,-0.0033553558177673156,0.005918413270893319,0.9938911967106145
2012-02-29,1,0.00029754816613278257,0.00041506640164474607,-0.004290241583698229,0.0038737964534862807,0.9937289074359356
2012-03-02,1,0.0003556687516688558,0.0004332329510586918,-0.005114689341664195,0.006068219866752954,0.9933181908950675
2012-03-06,1,0.0001281299201765657,0.00020609738137032917,-0.005114689341664195,0.00792062963931436,0.9934589639509904
2012-03-08,1,0.0004576010848481402,0.0004989124297003506,-0.006106489713663146,0.00429626424552307,0.9932472023996414
2012-03-12,1,7.87124141958233e-05,0.00018328302871824465,-0.0070145794656160405,0.00429626424552307,0.9919486613442539
2012-03-14,1,0.0007072798179025052,0.0007153444652549748,-0.0070145794656160405,0.0035798969885534374,0.9923368698257755
2012-03-16,1,0.0009882947305684898,0.0010692770742847385,-0.009376550045387438,0.004514054785745599,0.9919545997005471
2012-03-20,1,0.0007797704985437681,0.0008289730207535867,-0.007621507839258739,0.005318223184236846,0.9917755593545787
2012-03-22,1,0.0007651548007924314,0.0008150861440084379,-0.009485200643237792,0.00792062963931436,0.9908904886584512
2012-03-26,1,0.0008460457407182937,0.000883779997250493,-0.009485200643237792,0.005903229580687884,0.9910015008389891
2012-03-28,1,0.00016727857341009548,0.0002675128064060872,-0.011254927689783072,0.005903229580687884,0.9896269449850333
2012-03-30,1,0.0004751099704757693,0.0005150778829903402,-0.011254927689783072,0.005460449943148767,0.989878906118569
2012-04-03,1,0.0006459218505794188,0.0006521645019132695,-0.009485200643237792,0.005262107584386178,0.9904748549861769
2012-04-05,-1,-0.0002735226107091828,-0.00013098674981542468,-0.009485200643237792,0.005262107584386178,0.990729013433292
2012-04-10,-1,-0.0007244083052479803,-0.000563643261203672,-0.007155311931981966,0.005916437865756656,0.9919507413217032
2012-04-12,0,0.0,0.0,-0.007890195610546363,0.005916437865756656,0.991252976323921
2012-04-16,-1,-0.0009689434111914673,-0.0007683760540024033,-0.007155311931981966,0.005916437865756656,0.9919731239471257
2012-04-18,0,0.0,0.0,-0.008196859743714532,0.004247979205025969,0.9917506081659313
2012-04-20,0,0.0,0.0,-0.008196859743714532,0.0025374616997443575,0.9913717240988386
2012-04-24,-1,-0.001102382669448339,-0.0008599301416962005,-0.008196859743714532,0.0025374616997443575,0.9916057615043546
2012-04-26,-1,-0.001783528707645607,-0.001510010900722754,-0.008196859743714532,0.0025848006927721885,0.9925255276861725
2012-04-30,-1,-0.0018416904031194105,-0.0015346214685991622,-0.008196859743714532,0.0037979693222229805,0.992082154089547
2012-05-02,-1,-0.0012909570845681412,-0.0010637845681933746,-0.008209887096513066,0.002333656188914348,0.9922441013811706
2012-05-04,-1,-0.00210723811141788,-0.0017808003179882047,-0.009477305242577458,0.002333656188914348,0.9915741746585935
2012-05-08,-1,-0.00231173369400173,-0.001907421912325593,-0.009477305242577458,0.002333656188914348,0.9906501496535408
2012-05-10,0,0.0,0.0,-0.008209887096513066,0.0030622718062597427,0.9908904876296746
2012-05-14,-1,-0.0027228610065514,-0.0022829232677149145,-0.008209887096513066,0.004294169139265381,0.9906230576592664
2012-05-16,0,0.0,0.0,-0.008555482104792617,0.005886663751793133,0.9904480748959845
2012-05-18,0,0.0,0.0,-0.005766628602455569,0.006636471236096195,0.9911274829659997
2012-05-22,0,0.0,0.0,-0.008131440277957203,0.006248879358547845,0.99139373139749
2012-05-24,0,0.0,0.0,-0.008131440277957203,0.006248879358547845,0.9913944579749612
2012-05-29,0,0.0,0.0,-0.008707534621803549,0.005886663751793133,0.9911705008940784
2012-05-31,1,0.00010909062557194288,0.00010913284880792865,-0.008707534621803549,0.006248879358547845,0.9906687908238071
2012-06-04,0,0.0,0.0,-0.004262313615054617,0.007027497544494188,0.9900029572966457
2012-06-06,0,0.0,0.0,-0.004262313615054617,0.006248879358547845,0.9911834254566245
2012-06-08,0,0.0,0.0,-0.005817312774792547,0.006248879358547845,0.9906385071432641
2012-06-12,-1,-0.0017613578500583176,-0.001663474046441981,-0.0085954125151162,0.0029088480608883654,0.9904466262704947
2012-06-14,-1,-0.001863241846681055,-0.001738055630372581,-0.00812395936163973,0.0029088480608883654,0.9900092976917142
2012-06-18,-1,-0.0015343743044284853,-0.0014313173230347173,-0.0085954125151162,0.0029088480608883654,0.9896333880467043
2012-06-20,-1,-0.0017404821026888928,-0.0016051576454492612,-0.008435879081787796,0.004703076759001455,0.9892347938211564
2012-06-22,-1,-0.0030612354059426556,-0.002743023403029311,-0.01030903126633643,0.004703076759001455,0.9890130337603774
2012-06-26,-1,-0.003262069766005185,-0.0029406079882444425,-0.01030903126633643,0.004703076759001455,0.9885181598264119
2012-06-28,-1,-0.0018895533645449899,-0.0017594655954945506,-0.01030903126633643,0.01124148590361553,0.987947724975848
2012-07-02,-1,-0.00045327390133798105,-0.00040073497171194943,-0.01030903126633643,0.004703076759001455,0.9899333038751489
2012-07-05,-1,-0.0004509500734250038,-0.00042629542434579476,-0.013256112240086331,0.004703076759001455,0.9890155108601973
2012-07-09,-1,-0.001177279559745776,-0.0011029077832926852,-0.01030903126633643,0.01124148590361553,0.9890512844002605
2012-07-11,-1,-0.0014335965999637474,-0.0013466264745730485,-0.009261990017045474,0.014539076133999957,0.9889597409921012
2012-07-13,-1,-0.0007123291774519223,-0.0006947793559944888,-0.009261990017045474,0.01124148590361553,0.9897565772393135
2012-07-17,-1,-0.0008584024057950871,-0.0008529178686645804,-0.007899569849713068,0.008957433917457255,0.9903342134529665
2012-07-19,1,0.00020105673465175557,0.00038121812335148865,-0.007899569849713068,0.008957433917457255,0.9901303750384769
2012-07-23,-1,-0.0005272141463591011,-0.00042940827818976185,-0.005766875824249644,0.008957433917457255,0.9910427865611472
2012-07-25,-1,-0.0015332698868752445,-0.0015061346960417773,-0.00353646671281702,0.008957433917457255,0.9916706910775127
2012-07-27,-1,-0.000759046823296008,-0.0007430062834987052,-0.004241096323683282,0.006684811346387917,0.9925365842868134
2012-07-31,-1,-0.0005323389723668724,-0.0004411535545563352,-0.0043679815475188375,0.006684811346387917,0.9924252211125318
2012-08-02,-1,-0.0011763793517498278,-0.0011740366609325878,-0.00353646671281702,0.006684811346387917,0.992796627827249
2012-08-06,0,-5.996823066654509e-05,0.00013025707999379365,-0.004608953180129103,0.006456684571065761,0.9934294726636711
2012-08-08,1,0.00033416078321628915,0.0005656158043549891,-0.004608953180129103,0.006456684571065761,0.9927392380666185
2012-08-10,1,0.0003577228380846841,0.0005978264069188993,-0.004608953180129103,0.006684811346387917,0.9922539373944099
2012-08-14,1,0.0005167459105025987,0.000776503799428254,-0.00562280707879535,0.006456684571065761,0.9924573108049113
2012-08-16,1,0.0014358807486604655,0.0018462690775141752,-0.00562280707879535,0.006172762975245951,0.9932362090654381
2012-08-20,1,0.001834531750701813,0.0022857178990301494,-0.00562280707879535,0.004358694569768521,0.9933591489749188
2012-08-22,1,0.0019687088182720296,0.0024514445064778858,-0.00562280707879535,0.003130434291094837,0.9932887826211714
2012-08-24,1,0.001982022543217706,0.002463200892945886,-0.003875283576699625,0.0030130439919293806,0.9938970125603194
2012-08-28,1,0.0014552074521605486,0.0018296601728048653,-0.0026614449095669866,0.0030130439919293806,0.9944454285600475
2012-08-30,1,0.000945237644502036,0.001193207797482032,-0.0026614449095669866,0.0030130439919293806,0.9944222078045816
2012-09-04,1,0.0006670369244731974,0.0008850177917138725,-0.0022879196504564997,0.0034431834303577076,0.9941685999112687
2012-09-06,1,0.0015870191874917089,0.0019190579001468317,-0.0026614449095669866,0.0034431834303577076,0.994614368805423
2012-09-10,1,0.0015057079467572286,0.0018433981375763021,-0.0026614449095669866,0.0034431834303577076,0.9946785384707327
2012-09-12,1,0.0014305015492272902,0.0017590305256160526,-0.0038725837521397044,0.0034431834303577076,0.9940694983935237
2012-09-14,1,0.002003611648072793,0.0024208459646911486,-0.0038725837521397044,0.0038485451768278034,0.9938732833058523
2012-09-18,1,0.0013217234618106753,0.0015605188094423423,-0.0038725837521397044,0.005712357935941147,0.9935385729469187
2012-09-20,1,0.0012704729429557514,0.001518074509230513,-0.0029679037933767294,0.006707730979314213,0.9931033541494896
2012-09-24,1,0.0015360313763315315,0.0018403197087154472,-0.005755568411800841,0.006707730979314213,0.9922100520203541
2012-09-26,1,0.0013304500572177142,0.0015736845035002613,-0.008713375051084148,0.007219282519341062,0.9903711805479484
2012-09-28,1,0.0013465865208279215,0.0016062941947000433,-0.008713375051084148,0.007219282519341062,0.9903979620023851
2012-10-02,1,0.0017125739235878336,0.0019954267650817686,-0.008713375051084148,0.008654055415032596,0.9900887232909076
2012-10-04,1,0.0014755285725329501,0.0017172752724733927,-0.007952921459875303,0.008654055415032596,0.9900429412757872
2012-10-08,1,0.0009556216462451295,0.0010949012213015787,-0.007952921459875303,0.011721395971796725,0.9884782872587333
2012-10-10,-1,-0.00029548267576335544,-0.00021941503668486157,-0.006992533705278087,0.011721395971796725,0.9876367935336628
2012-10-12,1,0.0005583571879718392,0.0006200775544008548,-0.007221708947225864,0.011721395971796725,0.9877671487904728
2012-10-16,1,0.0007331540015804081,0.0007807501827303333,-0.010089963269547177,0.007731629352580906,0.9871869874734525
2012-10-18,0,0.0,0.0,-0.010089963269547177,0.004221328256293101,0.9869637899638953
2012-10-22,0,0.0,0.0,-0.007221708947225864,0.009998826772391077,0.9873918736926586
2012-10-24,1,0.0008166833322480123,0.0008330988123185606,-0.006470735994124685,0.009998826772391077,0.9879481211998457
2012-10-26,1,0.0006921590892674538,0.0007527038380121551,-0.006470735994124685,0.01135343867694322,0.9877713036668576
2012-11-01,1,0.0016134423717332905,0.0017873230052000426,-0.006470735994124685,0.01006286943513764,0.9883464817758311
2012-11-05,1,0.0009863334255428965,0.0010823560630463251,-0.005688195404796696,0.011449338524179242,0.9881977051756333
2012-11-07,1,0.00024268320287195504,0.00025285706411229674,-0.004479670802754521,0.010030793388136417,0.9903768919800442
2012-11-09,-1,-0.0006973688465635366,-0.0005941756900190687,-0.003065854709749458,0.011449338524179242,0.9910923201257069
2012-11-13,-1,-0.001134331482109448,-0.0009768392144554954,-0.001778644049101765,0.011449338524179242,0.9909178989139155
2012-11-15,-1,-0.00228789848686989,-0.0019641291174187607,-0.0025504867040257555,0.011449338524179242,0.9908573894079357
2012-11-19,-1,-0.0015867212450355376,-0.0013072117927011551,-0.0025504867040257555,0.011449338524179242,0.9914035718444647
2012-11-21,-1,-0.0010414684996780284,-0.0008636163672937593,-0.0018256125588838037,0.011449338524179242,0.991095649986333
2012-11-26,0,0.0,0.0,-0.0018256125588838037,0.01105341846303293,0.991580334880709
2012-11-28,0,0.0,0.0,-0.003565975791625863,0.010645135607654108,0.9919050605207972
2012-11-30,1,0.0011392157986983838,0.0012314103953660598,-0.006517302703579364,0.010645135607654108,0.9908861793471174
2012-12-04,1,8.608783472096234e-05,0.0001274890665122757,-0.003565975791625863,0.010645135607654108,0.9903549568227767
2012-12-06,1,0.0004951835141528475,0.000531467442826493,-0.005953623197540099,0.010978056406843888,0.9900557812271821
2012-12-10,1,0.001208977352914095,0.0013318083154367061,-0.006517302703579364,0.010645135607654108,0.9900808098982623
2012-12-12,1,0.0018437983153960665,0.002091283568090717,-0.008800193284776759,0.010978056406843888,0.9894606528594223
2012-12-14,1,0.00048311268520375447,0.00048559526258134416,-0.005953623197540099,0.010978056406843888,0.9898388171156196
2012-12-18,0,0.0,0.0,-0.007405112783558912,0.010978056406843888,0.9894430208732354
2012-12-20,0,0.0,0.0,-0.007405112783558912,0.005727964757776951,0.9900575198347451
2012-12-24,1,0.0008087057569631189,0.0008379669499259245,-0.007405112783558912,0.010627891549430817,0.9897238336444972
2012-12-27,1,0.00026018807474913663,0.000337130466619259,-0.011122595135069687,0.010627891549430817,0.9892287932130431
2012-12-31,1,0.0008033852724909525,0.0008047494632910247,-0.011122595135069687,0.006013817945118597,0.9898515341152452
2013-01-03,1,0.001719419924622766,0.0018699163107688136,-0.011462711708243369,0.004008477783836302,0.9892025602391364
2013-01-07,1,0.001708335641652577,0.0018381612610758437,-0.012056032844251208,0.004008477783836302,0.9886260101479705
2013-01-09,1,0.001049948559692098,0.0010953305186647924,-0.011462711708243369,0.007865575428996126,0.9888549927730097
2013-01-11,1,0.0013884306445340227,0.001527876857773457,-0.011122595135069687,0.005283728405568253,0.98989247488747
2013-01-15,1,0.00151835421256217,0.0016919054307556198,-0.011122595135069687,0.005283728405568253,0.9897279273400974
2013-01-17,1,0.0017933875955285442,0.0020002873337441936,-0.010975858013957954,0.003171164195211089,0.9909753323479029
2013-01-22,1,0.0013949645272600588,0.0015460679645229892,-0.010975858013957954,0.005283728405568253,0.990694057691029
2013-01-24,1,0.0011840480736378621,0.0012888176519453031,-0.009125119854629464,0.005283728405568253,0.9910860789527032
2013-01-28,1,0.0006451724872150485,0.0006624506229040848,-0.008750776297959126,0.004360370813170554,0.9914065118234382
2013-01-30,-1,-0.0004673406554744364,-0.00032927506121239596,-0.006866447525934403,0.007865575428996126,0.9909592556111965
2013-02-01,-1,-0.0008699439919769526,-0.0007521718580530347,-0.006814618862286935,0.007865575428996126,0.9920753823258742
2013-02-05,-1,-0.0016824221639682414,-0.0014457323380282381,-0.0042146595168678375,0.008008002768682871,0.9928484637803312
2013-02-07,-1,-0.0008060037817879363,-0.0006616935459257584,-0.0042146595168678375,0.004823481091620998,0.9933127862744284
2013-02-11,-1,-0.000636855888825403,-0.0005382872694744288,-0.005795855178911856,0.005288848659244011,0.9930024591702766
2013-02-13,-1,-0.0010159333709044201,-0.0008665162737761356,-0.005795855178911856,0.009419977759277786,0.9921109350443439
2013-02-15,0,0.0,0.0,-0.005795855178911856,0.009419977759277786,0.9920989868648419
2013-02-20,0,0.0,0.0,-0.004058003273635645,0.005288848659244011,0.992585405107361
2013-02-22,-1,-0.00038534495747550755,-0.0003122502083281524,-0.005869675483560045,0.00439111029896285,0.9924058468800778
2013-02-26,0,0.0,0.0,-0.004058003273635645,0.006704118523190719,0.9923100722650169
2013-02-28,0,0.0,0.0,-0.0032429248563092183,0.00439111029896285,0.993732227488896
2013-03-04,0,0.0,0.0,-0.0037699900769905576,0.00439111029896285,0.9919269526360709
2013-03-06,0,0.0,0.0,-0.005869675483560045,0.00439111029896285,0.9908734841571121
2013-03-08,0,0.0,0.0,-0.006645942935344394,0.00439111029896285,0.990056140275939
2013-03-12,0,0.0,0.0,-0.006645942935344394,0.00425133083255501,0.9902553842559645
2013-03-14,1,0.0007836754280678108,0.0008636220035629764,-0.007733884742122207,0.00425133083255501,0.989832465455491
2013-03-18,1,0.0012450436763398601,0.001432312040388241,-0.010234469917567324,0.00416583932315458,0.9884607098346122
2013-03-20,1,0.000709533830883981,0.000773790493787766,-0.010723553958047732,0.00416583932315458,0.9868336382623196
2013-03-22,1,0.0008137477299639907,0.0009342645870451144,-0.010234469917567324,0.005482848791198635,0.9865356537809231
2013-03-26,1,0.0009807847018698658,0.001084139579044859,-0.010234469917567324,0.012075505899266911,0.9833516022523917
2013-03-28,1,0.0015428778973224653,0.0017879907265825204,-0.010234469917567324,0.016665601508883368,0.9822600042198368
2013-04-02,-1,-0.00039380408232144424,-0.0003498843409762394,-0.0075260782900468046,0.016665601508883368,0.9840829219417396
2013-04-04,-1,-0.0004772540299951309,-0.00038294666550567466,-0.006692776735415083,0.012075505899266911,0.985033249799851
2013-04-08,-1,-0.0005560818556400377,-0.00039012915132594816,-0.004001825240833657,0.01060627520500785,0.9861715696402582
2013-04-10,-1,-0.0006478841992000566,-0.00044957586128522437,-0.004001825240833657,0.01060627520500785,0.9863156240322386
2013-04-12,-1,-0.0007269762394812056,-0.00047554015396778404,-0.002607293326954122,0.009578461921383875,0.9877400860797745
2013-04-16,-1,-0.0012916237968869193,-0.0010259076748574637,-0.002607293326954122,0.01060627520500785,0.9881356973241694
2013-04-18,-1,-0.0024489327347209234,-0.0020557098971593414,-0.0022989528796367106,0.01060627520500785,0.9890613831618936
2013-04-22,-1,-0.0021839827316933328,-0.0018339997999057478,-0.001061874235815722,0.01060627520500785,0.9885816699104684
2013-04-24,1,0.0013797962412254346,0.0014816007948181063,-0.002607293326954122,0.009232315688308502,0.9924111022425487
2013-04-26,1,0.0016280873589715344,0.0017727601172946924,-0.0033590603987400645,0.006789167955330087,0.9932356666076567
2013-04-30,1,0.0019650883784248126,0.00215343731682218,-0.004808472981256619,0.006198254592856632,0.9931405074323941
2013-05-02,1,0.0020430562350194016,0.0022450910158785635,-0.006151212231426759,0.006198254592856632,0.9924058790759178
2013-05-06,1,0.0026157089399443854,0.0029385411014313124,-0.006151212231426759,0.006009018217971434,0.9923860949647908
2013-05-08,1,0.00266412189831344,0.002994548270183136,-0.006301174991510699,0.0062852315759860476,0.9914731210096971
2013-05-10,1,0.0023087384934133088,0.002549439585178353,-0.006660036853156361,0.00778384233618368,0.9907344876573378
2013-05-14,1,0.0031995856817061243,0.0036071401298430365,-0.006356191763333882,0.0062852315759860476,0.9914738675114005
2013-05-16,1,0.0029802177560979597,0.0033885512214262056,-0.006356191763333882,0.0062852315759860476,0.9916496679092746
2013-05-20,1,0.003707399319405979,0.004179587471262857,-0.006356191763333882,0.006021331383582645,0.9925816811189301
2013-05-22,1,0.002986998647278743,0.0033498212505514557,-0.006356191763333882,0.006021331383582645,0.9917723142354657
2013-05-24,1,0.0030633512919541117,0.0034537482993181904,-0.005619516121714467,0.006021331383582645,0.9921289282343003
2013-05-29,1,0.0034519507168756895,0.003935741230104756,-0.005619516121714467,0.006021331383582645,0.9916423396607481
2013-05-31,1,0.0031979141986610013,0.003656243010076314,-0.0047851477767244,0.006021331383582645,0.9922965803139568
2013-06-04,1,0.0029732014941742635,0.0033616140057988316,-0.005619516121714467,0.006667638625947497,0.9918286308501212
2013-06-06,1,0.003187702377506556,0.0035972196426978815,-0.004545768016039653,0.006667638625947497,0.9923751640354551
2013-06-10,1,0.0032061586941719844,0.0036171666968688914,-0.003283548282609919,0.005152930605506024,0.9934131572685485
2013-06-12,1,0.003192012597601576,0.00361570418491746,-0.0014068362264224262,0.008827465392238682,0.9926802116155441
2013-06-14,1,0.002713232979413499,0.003052181032088915,-0.0004913690830623745,0.009453168514643107,0.9925700588049914
2013-06-18,1,0.003035851674654797,0.0034105346289924317,-0.0018032720863080437,0.009453168514643107,0.9921914175461379
2013-06-20,1,0.0016540386681061724,0.0018230275222117216,-0.0004913690830623745,0.009648114741284318,0.9931850896184642
2013-06-24,1,0.0014932518964384074,0.001595379029748046,-0.001226370075993685,0.009648114741284318,0.9929149458544361
2013-06-26,1,0.0012627054045560922,0.001266662495651909,-0.001226370075993685,0.009648114741284318,0.9928633002202469
2013-06-28,1,0.0010296469928143023,0.0010896254326991082,-0.001226370075993685,0.009331171132821028,0.9929634483626323
2013-07-02,1,0.0012140854637766973,0.001215120545622495,-0.001226370075993685,0.009331171132821028,0.9934524448473475
2013-07-05,1,0.0015580405973322077,0.0015953644892459636,-0.001226370075993685,0.009331171132821028,0.993191280681033
2013-07-09,1,0.001397886930307413,0.0014032424758582903,-0.0021042734986925936,0.009331171132821028,0.9929494066630172
2013-07-11,1,0.0022766551882988,0.0023876534815294634,-0.002685739297857574,0.007905481006193737,0.9940797271106113
2013-07-15,1,0.0025320272415975797,0.0026745259447397297,-0.003630541061105698,0.007515859840545686,0.9935550516560127
2013-07-17,1,0.0022456455264396697,0.0023627937486458907,-0.003630541061105698,0.007515859840545686,0.993694752149727
2013-07-19,1,0.002481170917967836,0.002608165707419244,-0.0037457299850774985,0.003447177810995609,0.9931213165579397
2013-07-23,1,0.0023605375242387464,0.0024965550213936383,-0.0037457299850774985,0.005018058870287129,0.9933730462002766
2013-07-25,1,0.002561193815318087,0.002688302790407291,-0.004182475747213599,0.003205256563143181,0.9933814860414253
2013-07-29,1,0.0022022364896991625,0.0022909737440169045,-0.004086811444348803,0.003205256563143181,0.9938105346124443
2013-07-31,1,0.002392977698329819,0.002531295875720401,-0.004468702287889505,0.0023849283241252207,0.9932276599019069
2013-08-02,1,0.0029216818554499667,0.0031170430867323053,-0.004468702287889505,0.0015478437576951012,0.9932261457578682
2013-08-06,1,0.0027917900446354877,0.0029894664711495626,-0.004468702287889505,0.003205256563143181,0.9929688038851417
2013-08-08,1,0.0024931250337365666,0.002642802135741187,-0.004802205505793325,0.003205256563143181,0.9930419830650311
2013-08-12,1,0.0018604261252378519,0.001919413392925518,-0.004468702287889505,0.007789419983488087,0.9930972540909823
2013-08-14,1,0.0013545587597063049,0.0013793104512780166,-0.004054510607392848,0.007789419983488087,0.9934786674383231
2013-08-16,1,0.0008183180163518579,0.0008894880968026096,-0.003317385208774884,0.008499337238472595,0.9938030927842301
2013-08-20,1,0.0008252317182854284,0.0008974301003854751,-0.003317385208774884,0.008967697376730626,0.9934093230662888
2013-08-22,0,-0.0002780603413586024,1.1444104469443615e-05,-0.003317385208774884,0.008499337238472595,0.9930320449667144
2013-08-26,-1,-0.0004157116036719638,-0.00012195938826500515,-0.0028187228655904236,0.008499337238472595,0.9931283122267275
2013-08-28,-1,-0.0007526353287755243,-0.0004531693204433844,-0.0023012800187206207,0.008499337238472595,0.9933829559204812
2013-08-30,-1,-0.0006861371046536614,-0.0003970848992033393,-0.0023012800187206207,0.007789419983488087,0.9935795255885232
2013-09-04,1,0.00013584551893673592,0.0003050875498808959,-0.0028187228655904236,0.006458339853728809,0.9937393710826865
2013-09-06,-1,-0.0008817305006058093,-0.0005298382607262716,-0.0028187228655904236,0.006458339853728809,0.9929886655959548
2013-09-10,-1,-0.0010045525045213567,-0.0005704050715054857,-0.004510628451705377,0.003712687401599745,0.9935162674655603
2013-09-12,-1,-0.0012308145854847026,-0.0007690834268523049,-0.008270733250280583,0.005781917787424303,0.991502866993671
2013-09-16,1,0.0006918525536946786,0.0008102578115998073,-0.008270733250280583,0.0032707944225657828,0.9920135995350592
2013-09-18,1,0.0014144422345569764,0.0014151353863710442,-0.009274152207550807,0.0032707944225657828,0.9914867511452043
2013-09-20,1,0.0009123408355435165,0.0009642604496166385,-0.008270733250280583,0.004456238850322418,0.9921623720571713
2013-09-24,1,0.0007680701257585102,0.0008310655504203028,-0.008270733250280583,0.004456238850322418,0.99209951291701
2013-09-26,1,0.0009695801783084997,0.0010027994837481515,-0.009274152207550807,0.005018057221646999,0.9908566142809848
2013-09-30,1,0.0005416285603963961,0.0006273717755234062,-0.008823577671260525,0.008415002248833316,0.9904446688587398
2013-10-02,1,0.0004396699737593977,0.0005364199856066967,-0.008823577671260525,0.005018057221646999,0.9906235054866396
2013-10-04,0,-0.00010939197771336716,3.636013781372656e-05,-0.00721368910201034,0.006516923332030379,0.9911332041837004
2013-10-08,-1,-0.000788769138651954,-0.0005476459271755523,-0.005121529268085842,0.006516923332030379,0.9917742472011569
2013-10-10,1,0.0008468882568581068,0.0008510575226377334,-0.005121529268085842,0.006137991452943763,0.9933794341161224
2013-10-14,1,0.0005496310182766366,0.0006100046893137475,-0.005121529268085842,0.006137991452943763,0.9933337371675117
2013-10-16,1,0.0002775209891826647,0.0003751349787000225,-0.004655565223680932,0.004956815600082719,0.9938422315045167
2013-10-18,1,0.00053595189962128,0.0006057068775893622,-0.004655565223680932,0.006137991452943763,0.9934208027347491
2013-10-22,1,0.00017559185394175938,0.00030363539257403563,-0.0018642941797925002,0.006570881432240414,0.9931404845502141
2013-10-24,-1,-0.00036369715630569534,-0.0001707745068016233,-0.0011312869069997887,0.006570881432240414,0.9936913571530908
2013-10-28,0,-0.00010921260797697825,4.247488172772271e-05,-0.0011312869069997887,0.006570881432240414,0.9939075898299685
2013-10-30,-1,-0.0005168094318782992,-0.0003302112468790133,-0.00045881936670196725,0.006570881432240414,0.9943369433692226
2013-11-01,-1,-0.0004456066938492246,-0.0002552605484591788,-0.002786733605863745,0.006570881432240414,0.9942723162328101
2013-11-05,-1,-0.0006905701651568757,-0.00045975979571496225,-0.005060759778743802,0.006570881432240414,0.9933921398582696
2013-11-07,-1,-0.0007105302923683847,-0.0004928329141020239,-0.004862168848059895,0.007177180163217979,0.9931924628955412
2013-11-11,-1,-0.0014201586423131878,-0.0010576467456362777,-0.004862168848059895,0.007177180163217979,0.9933249704030919
2013-11-13,-1,-0.0015506386014578506,-0.0011732280643627134,-0.004875379914470825,0.007177180163217979,0.993201002615886
2013-11-15,-1,-0.0006197485667822027,-0.00037824139507400603,-0.004875379914470825,0.005946000812197664,0.9935717099472496
2013-11-19,-1,-0.0001942754134336721,-6.458832036371968e-06,-0.004875379914470825,0.0061175618533467835,0.992772984152115
2013-11-21,1,0.00010878861173536252,0.00027317061437412535,-0.005478033985540466,0.0061175618533467835,0.9928613059965927
2013-11-25,1,0.0005456289875720307,0.000633928326815571,-0.005253020922034699,0.005872468477429874,0.9932328796015886
2013-11-27,1,0.000733429196565247,0.0007947905290490553,-0.005253020922034699,0.0065768849187191804,0.9928898832246241
2013-12-02,1,0.0008639704368376671,0.0008715454923830738,-0.0028113839969881155,0.0065768849187191804,0.9933104429289857
2013-12-04,1,0.00032902637817952085,0.0003626990294020792,-0.0022246857880851246,0.0065768849187191804,0.9937479525500816
2013-12-06,1,0.0006171536735006276,0.0006334907284522189,-0.0022421494607438365,0.0065768849187191804,0.9942318228807079
2013-12-10,1,0.0007739980623658418,0.00080874277093062,-0.002265066762550512,0.0065768849187191804,0.9939355819936321
2013-12-12,1,0.00035754230366878795,0.0003862876400742413,-0.001532610681139534,0.0065768849187191804,0.9942266526692385
2013-12-16,1,0.0010831112530643554,0.0011864560532490018,-0.002265066762550512,0.006664446550507922,0.9941766650661709
2013-12-18,1,0.0018332007896993679,0.0020131179380169905,-0.002265066762550512,0.005621182653894885,0.9951666082069248
2013-12-20,1,0.001753126695910829,0.0019263464797147206,-0.001999436297158327,0.005621182653894885,0.993692493184413
2013-12-24,1,0.002269821826108722,0.0025603585954164392,-0.0022295621170384736,0.006155541192902222,0.9914789934155834
2013-12-27,1,0.0026132087058639885,0.0029420535880689,-0.0022295621170384736,0.006244392982118783,0.9910593751980089
2013-12-31,1,0.002619365118509027,0.0029377254451895267,-0.003180533641091222,0.008851648057625939,0.9897741622693393
2014-01-03,1,0.0019586359260489144,0.0021562943753989936,-0.003180533641091222,0.008851648057625939,0.9887039415477058
2014-01-07,1,0.0017628942577665812,0.0019258131821852024,-0.004309027844238669,0.01057118561290299,0.9882727999509474
2014-01-09,1,0.0013269210243834887,0.0013946292527361075,-0.0024546515359387434,0.01538143586584018,0.9863597467138339
2014-01-13,1,0.0011666551017541131,0.0012199621027964144,-0.004898279616834627,0.01538143586584018,0.9854601623009726
2014-01-15,1,0.0013007498583557132,0.0013753310523651654,-0.0034971292549813393,0.01538143586584018,0.9859838026358816
2014-01-17,1,0.0011145813051176806,0.0011532484367144547,-0.0033419118541040526,0.01727812619470266,0.984807304800347
2014-01-22,1,0.0020091454488451455,0.002130967499424347,-0.009554909180807467,0.01727812619470266,0.9855857918373326
2014-01-24,1,0.0015557642171458094,0.001617523896924657,-0.004094616488788504,0.01538143586584018,0.9871678114259654
2014-01-28,1,0.002435132134811592,0.0026431227428368623,-0.0053854656397452445,0.012952983181610679,0.9877819791607549
2014-01-30,1,0.00220731978163368,0.0023693768235343022,-0.0032145341107161136,0.012215823542488895,0.988728675983569
2014-02-03,1,0.0018903531225044165,0.002050713210489967,-0.0023585584093962974,0.013849401277935238,0.9892401815968574
2014-02-05,1,0.0018712547852273098,0.002021232961684281,-0.0029599680753824736,0.01377722777083888,0.9895088426460218
2014-02-07,1,0.003699329687728522,0.004115390178434916,-0.0037416851556719348,0.009037451615898327,0.9914099479514598
2014-02-11,1,0.0034535450543533995,0.0038608851257913115,-0.0037416851556719348,0.009037451615898327,0.9917205674830752
2014-02-13,1,0.003232404043446325,0.0035782081636235538,-0.005198687937919192,0.009037451615898327,0.9907503896571287
2014-02-18,1,0.003972047342283428,0.004402183648562931,-0.005198687937919192,0.008878416744115937,0.9912802243589971
2014-02-20,1,0.0041750847295903264,0.00463076460403593,-0.007165859529311963,0.007633806363809194,0.9916933401725733
2014-02-24,1,0.004173352100284508,0.004603234939828408,-0.007165859529311963,0.005665678681566809,0.9916672243050774
2014-02-26,1,0.0037625338891971987,0.004129077784244793,-0.007758063991800115,0.007633806363809194,0.9915997545349222
2014-02-28,1,0.00365768887568045,0.003964789760400523,-0.007758063991800115,0.00771832707560582,0.9911623562959407
2014-03-04,1,0.004097743847495482,0.004432206272664143,-0.007758063991800115,0.007044990927443583,0.9914870675922144
2014-03-06,1,0.004020719690049646,0.004389198171358247,-0.007645321554453873,0.007555136108893411,0.9921894720494653
2014-03-10,1,0.003631427252282604,0.003944294792219491,-0.007645321554453873,0.007555136108893411,0.9913013774439526
2014-03-12,1,0.0030570524498341415,0.0032774103329411557,-0.007645321554453873,0.008642405979368592,0.990867664236876
2014-03-14,1,0.002537585511360454,0.002696335785603344,-0.007645321554453873,0.008642405979368592,0.9903398720027884
2014-03-18,1,0.0028140720945611392,0.0029953030056129332,-0.007645321554453873,0.008869262255085907,0.9901413131085959
2014-03-20,1,0.0016653158538931282,0.001665745072059738,-0.00613531261864365,0.010361496476272363,0.9905518286223642
2014-03-24,1,0.0013167474247743156,0.0013536538667542064,-0.007407436423761003,0.010361496476272363,0.9903344536579324
2014-03-26,1,0.0008091343667060678,0.0009390333236292754,-0.007707364154027063,0.011621698117524476,0.9891182976728936
2014-03-28,1,0.0010911489372933815,0.0011812944989942529,-0.011595325902122389,0.009191354748983195,0.9884336699072771
2014-04-01,1,0.0014922266900499665,0.0015439845147862297,-0.011595325902122389,0.009107413265150405,0.98839517358244
2014-04-03,1,0.0015445482885366817,0.0016054134020876457,-0.011595325902122389,0.011068105340754825,0.9882431084544547
2014-04-07,1,0.00024536167180798016,0.0004577208601116809,-0.010679101759172784,0.011068105340754825,0.9892370439150666
2014-04-09,1,0.00010631394836897192,0.0003437476056048748,-0.007707364154027063,0.008848925819687044,0.9904487089717668
2014-04-11,-1,-0.0007864816647962837,-0.00047124274578443895,-0.0005584735189571592,0.011068105340754825,0.9902459973665158
2014-04-15,0,-0.00010441622388270423,0.00011616686437813104,-0.0024386654450009333,0.008848925819687044,0.9908535492828225
2014-04-17,1,0.0008311404592656434,0.0009243039778365693,-0.006697383002830451,0.00790315038863871,0.9912831474771242
2014-04-22,1,0.0003996067083262345,0.0005367335483501777,-0.006697383002830451,0.008824005950578955,0.9906097602295794
2014-04-24,1,0.001158480823232691,0.001201554273972916,-0.0024386654450009333,0.008824005950578955,0.9921151043471498
2014-04-28,-1,-0.00035861610252327456,-0.00011163856658285122,0.0015441709406661896,0.008824005950578955,0.9924909458655891
2014-04-30,-1,-0.0002924342990998669,-1.2146626249435219e-05,0.0015441709406661896,0.008477727859672756,0.9928074673578084
2014-05-02,1,0.0003189772481015734,0.0005108382191848396,-0.00041261853805041543,0.007721806140238237,0.9936223454849961
2014-05-06,1,0.00024148975645416396,0.0004553709559911406,-6.698548486553941e-05,0.007505747934699809,0.9939210466585457
2014-05-08,0,-0.00012365238295211297,0.0001531264470044409,-0.00012407469372297325,0.008362446346135243,0.9928453380833178
2014-05-12,1,0.0008328974291901005,0.0009851830888399171,-0.000583886164622717,0.0051882639761848,0.9941843918234035
2014-05-14,1,0.001135336004727727,0.0012090755213221738,-0.0010694790942128922,0.0051882639761848,0.99360112597101
2014-05-16,1,0.0004801761112446645,0.0006405317673776017,-0.000583886164622717,0.006166887080438102,0.9940333801617776
2014-05-20,1,0.00017267022541466305,0.0003683572870918948,-0.0005819524299131908,0.004835593814842787,0.9949979726832258
2014-05-22,1,0.0008604279513670025,0.0009596767856155292,-0.0008408471296866104,0.0044601327744362975,0.9954784134387816
2014-05-27,1,0.0012004842831946092,0.0012578045419324728,-0.0023239672437179557,0.0033794351542371626,0.9946430614626958
2014-05-29,1,0.0012743942135657656,0.0013468681757458885,-0.0025560491621948907,0.002996520058788286,0.9948673076702491
2014-06-02,1,0.0011407410377278196,0.0012275404152270902,-0.004755328887036674,0.003618826016990347,0.9943902243574994
2014-06-04,1,0.0009758555494589708,0.0010923841064496892,-0.007047316091900775,0.003618826016990347,0.9940262672169425
2014-06-06,1,0.0014225367233147018,0.0014991075329625328,-0.007047316091900775,0.003618826016990347,0.9946243953086199
2014-06-10,1,0.0012759068459458696,0.0013692709004996728,-0.00791845362342851,0.004459415472617325,0.9940823755243398
2014-06-12,1,0.00020158757808183938,0.00042924323249084303,-0.004755328887036674,0.004510104774083133,0.9948338388175877
2014-06-16,1,0.0011508956409322694,0.0011935132462171576,-0.004755328887036674,0.004510104774083133,0.9944220915707964
2014-06-18,1,0.0008146540539502333,0.0009334273085329573,-0.007102858354281915,0.004459415472617325,0.9941020734438166
2014-06-20,1,0.001039578859014097,0.0010941790606306225,-0.007102858354281915,0.004915292240399351,0.9935349649940506
2014-06-24,0,-9.797947380016717e-05,0.00010066917105307075,-0.0021173494753686946,0.006304887883025299,0.9940164052470539
2014-06-26,-1,-0.0006771349381449643,-0.00036213644072294326,-0.0024450788760809463,0.006437528771689403,0.9939052018173682
2014-06-30,-1,-0.0009804012241695684,-0.0006223444180685034,-0.003461187645626384,0.006437528771689403,0.99379329033149
2014-07-02,-1,-0.0002473345795240832,-6.897900666897255e-05,-0.003461187645626384,0.006437528771689403,0.9931099825013211
2014-07-07,-1,-0.0005659980052572283,-0.0003238163933031782,-0.003461187645626384,0.006437528771689403,0.9931306514719034
2014-07-09,-1,-0.0006456700334835133,-0.0003988437799128374,-0.005962819829349597,0.006079568000145863,0.9928869016989528
2014-07-11,1,0.0004564829770730166,0.0005156597473414607,-0.005962819829349597,0.006079568000145863,0.9919714378790674
2014-07-15,1,0.0008271113572606722,0.0008288905678197636,-0.005962819829349597,0.00573380452866559,0.9917695018764064
2014-07-17,1,0.0004093602471637751,0.00044272370631386407,-0.005181428045422274,0.006079568000145863,0.9916996599799407
2014-07-21,1,0.0009574026983619718,0.000971647341288152,-0.005181428045422274,0.005778018158220291,0.9917369641031326
2014-07-23,1,0.0019241110215233424,0.0020952576816365247,-0.005181428045422274,0.005778018158220291,0.9917534400446005
2014-07-25,1,0.002527180186684826,0.0028416110007183524,-0.005181428045422274,0.005326284391244329,0.9920102207827641
2014-07-29,1,0.0015690717863861908,0.001727719969968445,-0.0017427017053902654,0.005326284391244329,0.9929574517577178
2014-07-31,1,0.0005002586292780851,0.0005076224721289581,-0.003176907499057263,0.005326284391244329,0.9933925139903317
2014-08-04,1,0.0003283867760273785,0.0003782285840387981,-0.0036686341357631096,0.0053074632468155586,0.9933935122592282
2014-08-06,-1,-0.0011076250595870476,-0.0008559486342833849,-0.002165108437756776,0.007652446914203752,0.9932567386866974
2014-08-08,1,0.00012827145542990414,0.00020354132207283656,-0.0013112211247179528,0.005728574633601196,0.9944108815812253
2014-08-12,-1,-0.0004648655918654958,-0.0002764947149558186,-0.00040419138316747304,0.00680766597293498,0.9941301222894426
2014-08-14,0,-7.792451980751403e-05,8.212306148255475e-05,-0.0017633833358078267,0.005402749965726356,0.9947094467544902
2014-08-18,1,0.0005146492841768571,0.0006068163835469271,-0.0017633833358078267,0.005402749965726356,0.9951132290113242
2014-08-20,1,0.0013379825708480226,0.001359268936001639,-0.0017633833358078267,0.0049553630486946915,0.9955787990949169
2014-08-22,1,0.0016721086477194493,0.001772058098530421,-0.0022047557158853897,0.0049553630486946915,0.9950193435928714
2014-08-26,1,0.0019099374302692447,0.002061137897788534,-0.0036686341357631096,0.006284577643213388,0.994093091241307
2014-08-28,1,0.0007919148623518942,0.0008494593834226228,-0.0025775405182053945,0.007325704374425071,0.9926496787206811
2014-09-02,1,0.00043746820675624835,0.0005292970027995941,-0.002165171632939044,0.007325704374425071,0.9926564208428623
2014-09-04,1,0.00022934130093751968,0.0004053764910991845,-0.007470480008888121,0.006284577643213388,0.9915682824023618
2014-09-08,1,0.0006988699774666859,0.0007894615437501553,-0.007470480008888121,0.007325704374425071,0.9910417252067321
2014-09-10,1,0.0014847567635121808,0.0015220541777780476,-0.012163575758479244,0.007325704374425071,0.9895257706760608
2014-09-12,1,0.000822060213945767,0.0008927739876940776,-0.013927296094278997,0.007325704374425071,0.9892488414639814
2014-09-16,1,0.0015276554735585467,0.0015826867190767016,-0.0156389841256638,0.004881194301298075,0.9881856602432403
2014-09-18,1,0.0012177733262605688,0.0012666092987874478,-0.0156389841256638,0.0017049237413779218,0.9882930989196852
2014-09-22,1,0.0010304085248702653,0.0010680466193497698,-0.0156389841256638,0.004672607425968386,0.9876464017466299
2014-09-24,1,0.0009319543813308458,0.0009704475623589608,-0.013927296094278997,0.015597632895603834,0.9869477227168352
2014-09-26,1,0.0011187355922782566,0.001120803633013657,-0.0073332032337967215,0.017312413788634518,0.9864488948785801
2014-09-30,1,0.0008043988293167213,0.0008454975442399973,-0.0073332032337967215,0.019745779538742035,0.9853919074086344
2014-10-02,-1,-0.00040050421052234726,-0.0002661669300254859,-0.0025985516474344448,0.019745779538742035,0.9866280024563051
2014-10-06,0,-9.898150407378086e-05,7.374122207299172e-06,-0.0014025714482242234,0.019745779538742035,0.9870037802125566
2014-10-08,-1,-0.0003962062999245317,-0.00023328511037585284,-0.0010991034620236506,0.017312413788634518,0.9881129564730655
2014-10-10,-1,-0.0012338912332761653,-0.0009616650078417204,-0.0010991034620236506,0.017312413788634518,0.9879695729784016
2014-10-14,-1,-0.001766170504958967,-0.0014629892179821421,-0.0004891585730532565,0.017312413788634518,0.9884242821003161
2014-10-16,-1,-0.0017759367014154627,-0.0014938542922518891,0.0025564321611307238,0.017312413788634518,0.9879417864516986
2014-10-20,-1,-0.0002803243666344999,-0.000198842327022484,-0.00030221323145552067,0.014256592548928238,0.9901761584948405
2014-10-22,1,0.001225511036414444,0.0013310581537931399,-0.0005373275811422155,0.01128105968611371,0.9917048717869101
2014-10-24,1,0.002925029769892346,0.0032569497865672517,-0.0005373275811422155,0.00867413452456473,0.9941077105787176
2014-10-28,1,0.004310225329368286,0.004866339875085536,-0.0013067790577443398,0.007803399460305151,0.9948663700087442
2014-10-30,1,0.0046105161192638335,0.005200278630164911,-0.0008462648660716383,0.006297118747456848,0.99521345511806
2014-11-03,1,0.004412262509955134,0.004925769585906004,-0.0021363295706795945,0.005767937011793184,0.9949203715344256
2014-11-05,1,0.004920089393523888,0.0055066240388489925,-0.0021363295706795945,0.005074951676765343,0.9945826227814518
2014-11-07,1,0.0043388398394248375,0.004848958828623863,-0.001412325207159419,0.005074951676765343,0.995517835779322
2014-11-11,1,0.0044544107738017594,0.004970500276748137,-0.0017751014624478353,0.0038355594450485745,0.9937516036067858
2014-11-13,1,0.004073251143289086,0.0044798080375232,-0.0024221599288607267,0.0038355594450485745,0.9922480768166092
2014-11-17,1,0.0036976433568189225,0.004052493870514677,-0.0024221599288607267,0.005763443704439654,0.992119806476649
2014-11-19,1,0.0037265026658633337,0.0040686146379583146,-0.0017751014624478353,0.005829972863265498,0.9921159452559957
2014-11-21,1,0.0036051916024582185,0.0039030727493692104,-0.0017751014624478353,0.005890374088112371,0.9917456654289593
2014-11-25,1,0.0034072057193593437,0.003673505463818495,-0.001412325207159419,0.005890374088112371,0.9918390223016598
2014-11-28,1,0.0033495129299147717,0.003594066298556768,-0.0025650217479046603,0.005890374088112371,0.9915024099973329
2014-12-02,1,0.0030303770280990096,0.003246081647319478,-0.005667515442071747,0.005890374088112371,0.9909341424151364
2014-12-04,1,0.00302008551816476,0.003239569068770193,-0.008819732867014733,0.0058768880794166905,0.9900133392436449
2014-12-08,1,0.0025892291052164243,0.002715905903595256,-0.008819732867014733,0.0058768880794166905,0.9900031315996768
2014-12-10,1,0.0017911337900742808,0.0018459351777189695,-0.005667515442071747,0.006044599658626538,0.9905878814979006
2014-12-12,1,0.0010795270544200256,0.0010846442469217448,-0.005667515442071747,0.0058768880794166905,0.9922817751215225
2014-12-16,1,0.0007106102279109686,0.0007567659807194605,-0.004146663441268804,0.004270279218346427,0.9929830871221925
2014-12-18,1,0.0011452488608706879,0.0011772043432972108,-0.005580952312731075,0.0028866176992642023,0.9932148668738564
2014-12-22,1,0.0009004814735124448,0.001006824139592683,-0.005580952312731075,0.004210837167971174,0.9928294032299763
2014-12-24,1,0.0007826599623187863,0.0009018461225617843,-0.007133452715269802,0.004210837167971174,0.9924727803514559
2014-12-29,0,-0.0002152916475060807,6.22442132817585e-05,-0.007469745608950258,0.004210837167971174,0.9916634331725983
2014-12-31,-1,-0.0008284160192755489,-0.0005098825984367459,-0.008003668121054424,0.004210837167971174,0.9916575796448747
2015-01-05,-1,-0.001603998276370388,-0.001189450124167135,-0.007210056220928243,0.006813966576785225,0.9908093328193454
2015-01-07,-1,-0.0014993562767645146,-0.0011231810132129167,-0.007210056220928243,0.006813966576785225,0.9908390362501769
2015-01-09,-1,-0.00019943288424113012,-1.4710090591510665e-06,-0.008003668121054424,0.0046929331291674006,0.991132149219016
2015-01-13,-1,-0.0002495652225552884,-8.050043045951336e-05,-0.007514168216057086,0.006572264086600951,0.9907505533577131
2015-01-15,-1,-0.00034016074128688327,-0.0001620116719875422,-0.007514168216057086,0.007365294155345823,0.9905125942355227
2015-01-20,-1,-0.0002722522345216616,-0.00010593261017916158,-0.007386048596789511,0.006057688804678135,0.9909438031449819
2015-01-22,1,0.0002485435074655756,0.00037318104274189904,-0.007386048596789511,0.00631020688342336,0.9908144061359485
2015-01-26,-1,-0.0003650193003783708,-0.00015183261730433153,-0.006879507758032723,0.00631020688342336,0.9907955634999517
2015-01-28,-1,-0.0011295219001693241,-0.0008525098118593749,-0.006879507758032723,0.00631020688342336,0.9912628047606126
2015-01-30,-1,-0.0019345246133060112,-0.0015762619220004174,-0.004762947998360296,0.00697548742108695,0.9916167851684929
2015-02-03,0,-0.00010215787120403206,2.1616070807055983e-05,-0.006314517135063262,0.004846528958319064,0.9926911016313206
2015-02-05,-1,-0.00047480248965894184,-0.0002893550804702929,-0.006879507758032723,0.004846528958319064,0.9922031784754752
2015-02-09,-1,-0.0008238853865032725,-0.0006147673048401036,-0.006879507758032723,0.00631020688342336,0.9916067424807277
2015-02-11,-1,-0.0005590121990125217,-0.0004017347625152911,-0.006317961466190288,0.00631020688342336,0.9917023760389779
2015-02-13,-1,-0.0007454822992479684,-0.0005472394617810402,-0.007884760161498564,0.006434975431087303,0.9906751380667976
2015-02-18,-1,-0.0007423869759669948,-0.0005280711090807315,-0.007884760161498564,0.007964038716286943,0.9900853209897198
2015-02-20,1,0.00020485676736930634,0.0003035547617325531,-0.007884760161498564,0.004067369255388987,0.9908231940746615
2015-02-24,-1,-0.00017913920150359417,-2.3458081255095607e-05,-0.0073850631403558804,0.004440660037632556,0.9909894040526839
2015-02-26,-1,-0.0018709768341581704,-0.0014356681637608451,-0.0073304100104469505,0.006154906609786218,0.9912542891727779
2015-03-02,-1,-0.0016870683940404972,-0.001287824099725908,-0.0073304100104469505,0.0067691522619943816,0.9905811509808982
2015-03-04,-1,-0.0026889150400640077,-0.0021765981037026004,-0.010756182224115748,0.0067691522619943816,0.9906235775459592
2015-03-06,-1,-0.0035889768731144373,-0.0029410520195072335,-0.0073304100104469505,0.009943885771285783,0.9904892959353472
2015-03-10,-1,-0.004663797243464724,-0.003851138953058961,-0.006184143676766622,0.006906262360368731,0.9916831555797114
2015-03-12,-1,-0.004676607396140706,-0.0038470819060968573,-0.006184143676766622,0.004433791557871651,0.9918110693882951
2015-03-16,-1,-0.0038772057083638354,-0.003184028315242956,-0.006764658303161974,0.003841414320005807,0.9928737757872933
2015-03-18,-1,-0.0026214452422484947,-0.002153197623191422,-0.0067252239233717035,0.003841414320005807,0.993519802538102
2015-03-20,-1,-0.0018984319298416099,-0.0015911061373985896,-0.008953650750262195,0.004031568956957531,0.9923908229781909
2015-03-24,-1,-0.0013381732932270353,-0.0011468009473746652,-0.008953650750262195,0.004181106236592408,0.9924656219803667
2015-03-26,-1,-0.0011929944906788126,-0.0010400753637433203,-0.007201325312775563,0.004181106236592408,0.9924490605820071
2015-03-30,-1,-0.0002315777871345205,-0.0002081326804460123,-0.007201325312775563,0.004031568956957531,0.9932924510023481
2015-04-01,-1,-0.0007018282314568204,-0.0006481199565967066,-0.004721632065126593,0.004181106236592408,0.9923027056250234
2015-04-06,-1,-0.0005310142077662797,-0.00047932388522020837,-0.004721632065126593,0.004181106236592408,0.9918174401223471
2015-04-08,-1,-0.00040747348046856087,-0.0003837339176305852,-0.007201325312775563,0.004181106236592408,0.9910735721383256
2015-04-10,-1,-6.511649111916138e-05,-2.826144738933366e-05,-0.007201325312775563,0.00609837824933283,0.9898583815781942
2015-04-14,-1,-0.0007196908328783262,-0.0006703214661624994,-0.005926998633113729,0.00609837824933283,0.9901632151587844
2015-04-16,-1,-0.00045889348583999837,-0.00045576302738271923,-0.005926998633113729,0.010794621750199709,0.9896919783277195
2015-04-20,-1,-0.0002293916280162992,-0.00018571217154960426,-0.005697809369844652,0.00609837824933283,0.9907829552774658
2015-04-22,-1,-7.419665102351372e-05,-7.420578732608257e-06,-0.005697809369844652,0.00609837824933283,0.9909275632991783
2015-04-24,1,0.0001505401252161924,0.00025849876690659695,-0.005697809369844652,0.0052945242560216745,0.9909631421661884
2015-04-28,0,-3.299093609602789e-05,3.959190394107727e-05,-0.006599638888746658,0.00838305977026624,0.989720610254077
2015-04-30,1,0.0008715392230760369,0.0010725397011748714,-0.005697809369844652,0.0052945242560216745,0.991738346241688
2015-05-04,1,0.001554482476771073,0.0018475127406973452,-0.005697809369844652,0.0030887181944381555,0.9924879587318036
2015-05-06,1,0.0006131109787942085,0.0007385018843743095,-0.005697809369844652,0.0030887181944381555,0.9932466385985881
2015-05-08,1,0.0010365832071202905,0.0011748692950839395,-0.005997024241710592,0.0013417161690590627,0.9940535874071579
2015-05-12,1,0.0004624752755830365,0.0005117341566690563,-0.003677606389024116,0.002467161653632249,0.9939764272671793
2015-05-14,1,0.0011153322410308096,0.0012917138330893136,-0.0028076358592052054,0.002467161653632249,0.9944275342014235
2015-05-18,1,0.0011432045508448347,0.0013417588174112123,-0.001674785637852279,0.0031257647670647473,0.9943540049788264
2015-05-20,1,0.0011061661956820745,0.0013020305271741236,-0.0014995904359493997,0.007060289143191255,0.9937710147241764
2015-05-22,1,0.0009532395387257358,0.0011184326398051016,-0.0014995904359493997,0.005892189708683656,0.9941112360380305
2015-05-27,1,0.0008178493978706466,0.0009285238351451571,-0.001151825881028056,0.0031257647670647473,0.995538088026854
2015-05-29,1,0.0005006848095484235,0.0005435585547198926,-0.0005098769683403196,0.005892189708683656,0.9946509380951994
2015-06-02,1,0.0005040680208587741,0.0005420918501446051,-0.0025956825285362527,0.005892189708683656,0.9933279443529829
2015-06-04,1,0.0005743995613289667,0.0006668465239141782,-0.001144603440843571,0.0086066216595998,0.9934675937653975
2015-06-08,1,0.000319267043864248,0.0003636269604165908,-0.00042276013463864534,0.0086066216595998,0.9936732889366456
2015-06-10,1,0.0009116534765947163,0.0010327042546725345,-0.001144603440843571,0.0086066216595998,0.9938415938051891
2015-06-12,1,0.0010253347669086782,0.0011650276050914434,-0.00042276013463864534,0.009228029871863514,0.9934570692941301
2015-06-16,1,0.0015381216169278336,0.001781320461054252,-0.0003691645870204027,0.009228029871863514,0.9937290246533836
2015-06-18,1,0.0018790964537412306,0.0021526714679948214,-0.0003691645870204027,0.005832765369365143,0.9941247441988689
2015-06-22,1,0.0013928943790104658,0.0015575303678358869,-0.0003691645870204027,0.005832765369365143,0.9935315910886926
2015-06-24,1,0.0010072693225593647,0.0010794075434980785,-0.003997659469937644,0.005832765369365143,0.9929143366612387
2015-06-26,1,0.0016014476592265867,0.0018202654259889808,-0.003997659469937644,0.0030814899806667663,0.9930165408095671
2015-06-30,1,0.0008475130402803276,0.000962715965861169,-0.001827326040645743,0.008723365805936079,0.9919998590647613
2015-07-02,1,0.0008554578585891228,0.0009499915573295476,-0.003997659469937644,0.005832765369365143,0.9920221682621745
2015-07-07,1,0.0009523326256621171,0.0010612191915730118,-0.003997659469937644,0.005832765369365143,0.9919244634223161
2015-07-09,1,0.001004319762082935,0.0011235225477570572,-0.0025252033076072406,0.0055091359279601584,0.9925109671797875
2015-07-13,1,0.001506320437412444,0.0017024263759008906,-0.0025252033076072406,0.0055091359279601584,0.9925771156973727
2015-07-15,1,0.001967658013069523,0.0022642549970480347,-0.003997659469937644,0.0035300670986351153,0.9919862898094568
2015-07-17,1,0.00211159903230669,0.0024191832393027106,-0.003997659469937644,0.0035300670986351153,0.9919662845227845
2015-07-21,1,0.0014204436303647398,0.0016093628431187452,-0.0025252033076072406,0.006918099066320417,0.9927678603493684
2015-07-23,1,0.001159061353209251,0.0013161823758828571,-0.0026665946848230494,0.006918099066320417,0.9918798314378501
2015-07-27,1,0.00040525370424291816,0.0004127997731081571,-0.004539651118905181,0.006918099066320417,0.989924394686146
2015-07-29,1,0.0014057953888931209,0.0015346782885857359,-0.008076523063382782,0.003823592476065114,0.9898419976140024
2015-07-31,1,0.0010062084313508743,0.0010567262946969732,-0.005543896975128448,0.006918099066320417,0.9897782576810511
2015-08-04,1,0.0009871993624914566,0.0010408361980567926,-0.014817231167342768,0.006918099066320417,0.9879582380205768
2015-08-06,1,0.001117597526698127,0.0012018807265705258,-0.014817231167342768,0.007274606823893222,0.986932469000247
2015-08-10,1,0.0014830436986310509,0.0016282459567696357,-0.01598678555988957,0.007274606823893222,0.9857212761819603
2015-08-12,1,0.001116360105309956,0.0012005608319560332,-0.01598678555988957,0.007274606823893222,0.9850253766061648
2015-08-14,1,0.0012352179265306728,0.0013280779227479956,-0.01598678555988957,0.007876012082481447,0.9844784863984982
2015-08-18,1,0.0013201972013515296,0.0014140302225662347,-0.01598678555988957,0.007857588464852792,0.9844844893574417
2015-08-20,1,0.0008279938637255873,0.0008860209462132961,-0.015759612456689085,0.007857588464852792,0.9851061839477067
2015-08-24,-1,-0.0011339140743200555,-0.0009213051584503556,-0.013470603485948678,0.007857588464852792,0.987407435726761
2015-08-26,-1,-0.0003426512501410334,-0.0002369373734064626,-0.012825494781950513,0.007857588464852792,0.9886138550422168
2015-08-28,-1,-0.00035767895118323276,-0.00024374265414467828,-0.013860454950130944,0.007080745948700985,0.9880392645020817
2015-09-01,-1,-0.0014323978182494393,-0.0011976958452431723,-0.012432135446513984,0.008157656475003735,0.9889462128481004
2015-09-03,-1,-0.0009086085081735609,-0.0007067937533126009,-0.012432135446513984,0.007182689813207976,0.9900958557931986
2015-09-08,-1,-0.0007865222837045613,-0.0005955355184633279,-0.012432135446513984,0.007182689813207976,0.9890333593149757
2015-09-10,-1,-0.0015833506537287474,-0.0012976747097761558,-0.00900291872728305,0.008157656475003735,0.9895501363787532
2015-09-14,-1,-0.0016180418198257671,-0.0013297522518686915,-0.005154072636810598,0.007182689813207976,0.9896187647302707
2015-09-16,-1,-0.0013617731239675326,-0.0011072384732884583,-0.01294607664538873,0.006816194660922518,0.9888723141915023
2015-09-18,-1,-0.002005972961032318,-0.0016689106345712625,-0.010669718130075985,0.00791714785005313,0.988677095549202
2015-09-22,-1,-0.0018867065661676615,-0.0015992057426896422,-0.005154072636810598,0.00791714785005313,0.9893039067666989
2015-09-24,-1,-0.0013415586512567153,-0.0011515047424560353,-0.0032661715047885387,0.011490163695575118,0.9883514192274466
2015-09-28,-1,-0.002496845312130513,-0.0021405836390481327,-0.0011907705279955339,0.011490163695575118,0.9884981225087554
2015-09-30,-1,-0.0013338613855480494,-0.001155825527268254,-0.0011907705279955339,0.011490163695575118,0.9891507256702748
2015-10-02,-1,-0.001319807626843319,-0.0011216060934079114,-0.003724788696211706,0.011490163695575118,0.9891271983241596
2015-10-06,-1,-0.0007998826349832381,-0.0006770710762910953,-0.003724788696211706,0.00800693722285285,0.9916022085857448
2015-10-08,-1,-0.0006235301368337617,-0.0005144733587289539,-0.003724788696211706,0.006846124451855758,0.9921699591272681
2015-10-12,-1,-0.00031914516713556153,-0.0002413767070406974,-0.008181729746525966,0.003925118957495257,0.9919488591369614
2015-10-14,-1,-0.0012610075386163887,-0.0010693989171705923,-0.004625655421710064,0.003925118957495257,0.9930902733294852
2015-10-16,-1,-0.0006966382032003475,-0.000579567296342742,-0.008067631966532266,0.0011285566530297353,0.9930433884040695
2015-10-20,-1,-0.0008639969810148342,-0.0007225951508069306,-0.008067631966532266,0.0030143338148730797,0.992162549619784
2015-10-22,1,0.00043795158804829816,0.000453886526804904,-0.008067631966532266,0.002735497286530955,0.9931295108482779
2015-10-26,1,0.0003718300748469331,0.0003842305246807606,-0.008067631966532266,0.0017821434229061922,0.9931190083570196
2015-10-28,1,0.0007394841644646762,0.0007631920300394675,-0.008067631966532266,0.0012232210999011364,0.9934100309331693
2015-10-30,1,0.0006001797525564549,0.0006420051538133131,-0.006645607423056143,0.003432993692248285,0.9938711046444256
2015-11-03,1,0.00035315238546369983,0.0003666522745945208,-0.006645607423056143,0.005955434241779302,0.9933066201605775
2015-11-05,1,0.00042485832254563594,0.0004599015764725627,-0.008067631966532266,0.006262599786654932,0.9916157413037909
2015-11-09,1,0.00017390365856499292,0.00020724929963032162,-0.006595130011603173,0.006262599786654932,0.9919425134404178
2015-11-11,-1,-7.896044771399967e-05,-7.272020306229278e-05,-0.007916199732173355,0.006262599786654932,0.9915959247999897
2015-11-13,-1,-0.0006304503234824313,-0.0005618281647645348,-0.006595130011603173,0.006821791326259961,0.9913149286664523
2015-11-17,-1,-9.481969091267632e-05,-9.142935484835255e-05,-0.007778706811826591,0.006821791326259961,0.991382886253702
2015-11-19,-1,-0.00011901486675708524,-6.996245510179676e-05,-0.010520954796619578,0.006262599786654932,0.9911859560345181
2015-11-23,-1,-8.361029092968255e-05,-5.371622800061174e-05,-0.010520954796619578,0.008286270151075123,0.9904204473138424
2015-11-25,1,9.162603722701092e-05,9.641313830395238e-05,-0.010520954796619578,0.008286270151075123,0.9907842558851543
2015-11-30,1,0.0003484808085656693,0.0003789748177983685,-0.010520954796619578,0.008286270151075123,0.9907880527498751
2015-12-02,1,0.0003723957107924895,0.0004338207057306273,-0.010520954796619578,0.00647816052973682,0.9908320826253076
2015-12-04,1,0.00020709882486350943,0.0002594708271001211,-0.009667262497029268,0.004484940828021455,0.9920245901473379
2015-12-08,1,1.0006094094063011e-05,5.38711647025168e-05,-0.010520954796619578,0.004484940828021455,0.9906141110703345
2015-12-10,-1,-0.0006508174886241954,-0.0005892341173288011,-0.01019843949779937,0.006141938181958896,0.9908185808711278
2015-12-14,-1,-0.0009825322559963861,-0.0008678349841492348,-0.01019843949779937,0.006141938181958896,0.99039083413339
2015-12-16,-1,-0.0011734566062092575,-0.0010118130322285556,-0.010520954796619578,0.004484940828021455,0.9902495442451776
2015-12-18,-1,-0.0007873065569571299,-0.0007506802095951946,-0.010985550836730858,0.006141938181958896,0.9893411324901014
2015-12-22,-1,-0.00012472666779108344,-8.671605737257063e-05,-0.010985550836730858,0.004484940828021455,0.9895793403904092
2015-12-24,-1,-0.00012885533638777024,-9.312297352174092e-05,-0.01373425646604351,0.006141938181958896,0.9878287809832235
2015-12-29,1,8.058249828377643e-05,0.00015344502698399514,-0.01373425646604351,0.008621880634355785,0.9874019674713008
2015-12-31,-1,-0.00019758319938751782,-0.00013098693713458563,-0.011076306143573123,0.009613278026502452,0.9864769924225272
2016-01-05,-1,-0.0004117048652417166,-0.00038781002335906456,-0.011076306143573123,0.009613278026502452,0.9869886504878677
2016-01-07,-1,-0.001461900839750039,-0.0013756706205111195,-0.005621849299710074,0.01118950290124852,0.9878938735808304
2016-01-11,-1,-0.001014291090910701,-0.0010020378829871655,-0.009874048975371226,0.01118950290124852,0.9879511936995425
2016-01-13,-1,-0.0018657924878463248,-0.0017138410921224557,-0.009874048975371226,0.01118950290124852,0.9875178608515948
2016-01-15,-1,-0.0035449275197713855,-0.0031204338915268824,-0.0041590586660624086,0.01185600637291147,0.9868178080276595
2016-01-20,-1,-0.0034608423054761387,-0.0030839339884492977,-0.0015193534445612378,0.012512126100592831,0.9869388735427737
2016-01-22,-1,-0.0027239874927551897,-0.002442327084011787,-0.0015193534445612378,0.01185600637291147,0.9876034555932073
2016-01-26,-1,-0.0031028152835399525,-0.002721584396379966,-0.0033341277419372457,0.010577518499980114,0.9889961430570172
2016-01-28,-1,-0.002118343024531897,-0.0019034900006193582,-0.0021402555778502275,0.010577518499980114,0.9891520235304382
2016-02-01,-1,-0.0007123306982862568,-0.0006755460015559462,-0.005295627492061455,0.010577518499980114,0.9906337227965845
2016-02-03,-1,-0.0010794805890767226,-0.000961633320745935,-0.005725615922881103,0.010577518499980114,0.9897787075251726
2016-02-05,-1,-0.0009429132129372993,-0.0008416533277537955,-0.005725615922881103,0.01009519522132354,0.9896396830837952
2016-02-09,-1,-0.0012267075933147015,-0.0011070108109686452,-0.005725615922881103,0.01009519522132354,0.9897327526810877
2016-02-11,-1,-0.0023942971012399185,-0.002112176488987496,-0.005295627492061455,0.01247874892220875,0.9900420676283048
2016-02-16,-1,-0.0017829856671522943,-0.0015597052318351407,-0.006308587934796836,0.010687127081654991,0.9908238822628795
2016-02-18,-1,-0.0007937660326721694,-0.0006930963594095525,-0.006308587934796836,0.006452527581119619,0.9918495399674075
2016-02-22,-1,-0.0008742255990656475,-0.0007274072884026938,-0.006308587934796836,0.006417975665432751,0.9917914331372006
2016-02-24,-1,-0.0008356187754893099,-0.0007244964574976047,-0.006815787592147324,0.006417975665432751,0.9917231326596161
2016-02-26,-1,-0.0002107991409720789,-0.00018559741785814126,-0.006898257586735806,0.006417975665432751,0.9899077380199047
2016-03-01,1,0.00024251894160873946,0.00029480870342617384,-0.006898257586735806,0.005926299737751624,0.9904927240538409
2016-03-03,-1,-0.00010168077336988769,-7.928909128767129e-05,-0.006815787592147324,0.007525251940747402,0.9909615207577436
2016-03-07,-1,-0.0005874193339679832,-0.0005711147660972912,-0.006541625757518372,0.007525251940747402,0.9916378597225689
2016-03-09,-1,-0.001185169948442613,-0.001057286076283742,-0.005323495626729215,0.007525251940747402,0.9917641680666601
2016-03-11,0,-1.5827296248789927e-05,2.2666056402228336e-05,-0.006541625757518372,0.006890290812398908,0.9921256628942746
2016-03-15,-1,-0.0005297217135138269,-0.0005007491737129893,-0.0049202743554268265,0.007525251940747402,0.9919841103665025
2016-03-17,1,0.00036750915107254176,0.0005253732722918667,-0.005105766094764605,0.008283214278685804,0.9916764540043949
2016-03-21,1,0.0006751967257547397,0.0008882796665531577,-0.005079579143135585,0.008283214278685804,0.9918275256123105
2016-03-23,1,0.0009389936721712144,0.0012227932854545188,-0.003277536889617476,0.008283214278685804,0.9920395367137125
2016-03-28,1,0.00010280917510615585,0.0002553640564580208,-0.003277536889617476,0.007528346388808917,0.9940099474662497
2016-03-30,1,0.0002540092703568667,0.0004141181230234498,-0.003277536889617476,0.009707181738221913,0.9920663127353662
2016-04-01,1,0.00046808080375834076,0.0006593657285661942,-0.005079579143135585,0.009707181738221913,0.9915100284072403
2016-04-05,0,-6.51994579731678e-05,2.4577566213283798e-05,-0.0030124605963429774,0.0097364696753328,0.991297019821312
2016-04-07,1,2.2425523695000413e-05,0.00011472380665673561,-0.004796313496335257,0.0097364696753328,0.9912049977397113
2016-04-11,-1,-9.977802816451382e-05,-5.42489150336166e-05,-0.0035909443095307526,0.009293210773134903,0.991479817238525
2016-04-13,1,0.000708843128263219,0.0008906467697405023,-0.004687195875586914,0.009293210773134903,0.9914555116278684
2016-04-15,1,0.001106415559825652,0.0013702847080593978,-0.004687195875586914,0.008870738178488938,0.9918767764068055
2016-04-19,1,0.0014810150519658078,0.0017891017519336618,-0.004687195875586914,0.007720933473508752,0.9920085553055346
2016-04-21,1,0.0017937273531295542,0.0021516857421044052,-0.00502875332639686,0.007375023117054141,0.9917151635725592
2016-04-25,1,0.00176292433958445,0.0021322523445161715,-0.00502875332639686,0.007559932702187798,0.9910902591573992
2016-04-27,1,0.0030489703780476754,0.0035768284068393025,-0.00502875332639686,0.005814976717319037,0.9929336503251677
2016-04-29,1,0.0022782229465476114,0.002686028574033066,-0.004816295089428903,0.005814976717319037,0.9941589332640927
2016-05-03,1,0.0024530107354669636,0.0028628341806242134,-0.00502875332639686,0.005104549873973137,0.9936385154609129
2016-05-05,1,0.002197146321260615,0.002548720516165078,-0.00502875332639686,0.0030586118819234173,0.9936269209844809
2016-05-09,1,0.0022393466309695116,0.0025859822987402232,-0.00502875332639686,0.0030586118819234173,0.9939831912558943
2016-05-11,1,0.0025907066346307003,0.0029868173403496505,-0.004816295089428903,0.0031520716715395876,0.9949911368520902
2016-05-13,1,0.002119200061399352,0.0024162117952434363,-0.004816295089428903,0.0031520716715395876,0.9943519277570537
2016-05-17,1,0.002530599510667854,0.00291878311480853,-0.004816295089428903,0.0031520716715395876,0.9945519563850773
2016-05-19,1,0.00221954578734461,0.0025640262464207203,-0.003754420908981247,0.0031520716715395876,0.9947506770517279
2016-05-23,1,0.001987572973492652,0.002305923308503994,-0.003754420908981247,0.0031520716715395876,0.9947811852945398
2016-05-25,1,0.0017540895538109861,0.002005158634365429,-0.004712882585136092,0.0031520716715395876,0.9944838852587471
2016-05-27,1,0.0016120790664397875,0.0018339954804427374,-0.00897042710487726,0.0031520716715395876,0.9920757749349866
2016-06-01,1,0.0006609440931715986,0.0006902394428706626,-0.006500011499992655,0.004940393890313401,0.9920395810614699
2016-06-03,1,0.0004484855148798876,0.00045125478070306085,-0.004712882585136092,0.006743475627381966,0.9904997328995441
2016-06-07,1,0.0002662215323049229,0.0003098577825062307,-0.006810839932643623,0.008023048472391079,0.989211045530084
2016-06-09,0,-4.6111491788974066e-05,7.493820871877542e-05,-0.009112425242068803,0.011174030386784843,0.9884908907710642
2016-06-13,-1,-0.001058851165649191,-0.0007904872721615878,-0.006276561473603434,0.011174030386784843,0.9890028835327467
2016-06-15,-1,-0.0006323071236301056,-0.0004354383406052257,-0.006276561473603434,0.011174030386784843,0.9890429606533166
2016-06-17,-1,-0.00086468531269577,-0.0006467907096310977,-0.007897913249261715,0.011174030386784843,0.9888651754437022
2016-06-21,-1,-0.000653157964575604,-0.0004745727101076089,-0.005253333177022186,0.011174030386784843,0.9888057211051895
2016-06-23,1,0.00010231906417610007,0.00013645911841777154,-0.007897913249261715,0.011174030386784843,0.9886250425647537
2016-06-27,-1,-0.0014694160771041526,-0.0012529716723072948,-0.0010850657082975717,0.011174030386784843,0.990121189734854
2016-06-29,-1,-0.0007747229867533067,-0.0006449755035657623,-0.0010850657082975717,0.011246236757460178,0.9904734780087929
2016-07-01,1,0.0002010108089458012,0.00024131893190900702,-0.0018949509113328265,0.009110281626160503,0.9920645846356828
2016-07-06,-1,-0.0007171472701777659,-0.0005206641525885036,-0.0028988538439116713,0.00692311437746931,0.993048400902218
2016-07-08,-1,-0.00020283154369888019,-0.00010070673268394416,-0.0028188400982034605,0.00692311437746931,0.9935295878320671
2016-07-12,1,0.0004946530285239023,0.0005176052435099508,-0.003056824845592219,0.00692311437746931,0.9935303247828213
2016-07-14,1,0.0008441378437533418,0.0009322796903508774,-0.003056824845592219,0.009015623295437515,0.9928513308560735
2016-07-18,1,0.0003023549334555089,0.00030662533725259275,-0.0017622801650644328,0.01092109055344195,0.992724973702064
2016-07-20,1,0.0012153798801730733,0.0013557927071900517,-0.0028188400982034605,0.007355974791788457,0.9935717839384767
2016-07-22,1,0.0011591064033272703,0.0013050313281284317,-0.0028188400982034605,0.006701115562424943,0.9941502828182156
2016-07-26,1,0.0009663603396834533,0.0010520214045561852,-0.0028188400982034605,0.005383705401563079,0.9942444399361821
2016-07-28,1,0.0009946316387292565,0.0010371295468888067,-0.0028188400982034605,0.003264435218004706,0.9949233538813731
2016-08-01,1,0.0012423003158250185,0.0013069515348880633,-0.0031151482683865594,0.003264435218004706,0.994917043702059
2016-08-03,1,0.0013280759726684297,0.001448239768039742,-0.002415658317044093,0.003264435218004706,0.9951409059976933
2016-08-05,1,0.0011901378446234373,0.0012587952503211029,-0.0018332107066209857,0.003823409279800287,0.9954304228473307
2016-08-09,1,0.0011249329180377191,0.0011924085271162134,-0.0018332107066209857,0.004387590175421275,0.9951052523712075
2016-08-11,1,0.0016587596712273735,0.0018005005978422464,-0.0038069280255693203,0.003823409279800287,0.9948378974866433
2016-08-15,1,0.00190568983861726,0.002069227495771768,-0.005107650856287308,0.003823409279800287,0.9943252643376833
2016-08-17,1,0.0012962269702885942,0.0013240541067942417,-0.004756152077567844,0.004387590175421275,0.9939476902238987
2016-08-19,1,0.0011303434850382784,0.0011458360437853784,-0.005635820309569474,0.00558510398301319,0.9933735614634739
2016-08-23,1,0.0010088095035251303,0.0010130089999234578,-0.005635820309569474,0.006801248630324971,0.9930640549968673
2016-08-25,1,0.0007219371848090906,0.0007702990630538702,-0.006886390872817511,0.00816922246229132,0.9922931930532122
2016-08-29,1,0.0006678148224042746,0.0007186204170771381,-0.005529766822903473,0.00841498967451112,0.9926252688756882
2016-08-31,1,0.0004680841925802227,0.0005405317071869576,-0.005529766822903473,0.00841498967451112,0.9925407642711037
2016-09-02,1,0.0009716873616789981,0.0009842891525326553,-0.005529766822903473,0.00841498967451112,0.9925447187580884
2016-09-07,1,0.0007723575934789049,0.0007837083159237667,-0.005529766822903473,0.00841498967451112,0.9929065654046096
2016-09-09,1,0.00025139054381343785,0.00030469236386156714,-0.005529766822903473,0.00841498967451112,0.9935658822141883
2016-09-13,1,0.00042417319318796575,0.00044763745527428466,-0.005529766822903473,0.005567231022460028,0.9934366215778295
2016-09-15,1,0.0005375251149531003,0.0005618580357810031,-0.0038702435577776927,0.005209192287013625,0.994025050022384
2016-09-19,1,0.001221529864875203,0.0013635781973751046,-0.0035958025163174002,0.003224460747530208,0.9945264370675456
2016-09-21,1,0.0009966560732186734,0.0010708228149247164,-0.003692206541242803,0.003224460747530208,0.9944322959398122
2016-09-23,1,0.0012511373464347796,0.0013769958287150965,-0.0038098075715077267,0.0026883740385518886,0.9947736018325518
2016-09-27,1,0.0014088170709363984,0.0015514667174953104,-0.0038098075715077267,0.003224460747530208,0.9945257532497113
2016-09-29,1,0.0013960354874137698,0.001544968853228185,-0.005932557331725111,0.0026883740385518886,0.9939406922228708
2016-10-03,1,0.0013832732361669224,0.0015502688938610573,-0.005932557331725111,0.0037324955559388607,0.9936872086634543
2016-10-05,1,0.0011204949952114307,0.0012442283780597528,-0.00520203711857721,0.0037324955559388607,0.9936863436766603
2016-10-07,1,0.000993228621604656,0.0011053265941102753,-0.00502281364824214,0.0036886410906521293,0.9940286315568637
2016-10-11,1,0.0002473857020264088,0.0002501831135573504,-0.004770782559430413,0.007792793941134075,0.99396574342563
2016-10-13,1,0.0003277721940308286,0.00033659453769514027,-0.004770782559430413,0.009122345041948976,0.9904297577262147
2016-10-17,1,0.00026626111376898095,0.00027851334369167265,-0.0038098075715077267,0.009410228938013038,0.9897663851342309
2016-10-19,1,0.0004144262129443762,0.0004199051027702853,-0.00502281364824214,0.009276555516666712,0.9890807445498249
2016-10-21,-1,-0.00010740367725275467,-3.251828601712073e-05,-0.00502281364824214,0.009276555516666712,0.9891563279354042
2016-10-25,1,0.00015017215198697968,0.00021134988545956973,-0.00502281364824214,0.01050831193875497,0.9889161434181707
2016-10-27,-1,-0.00032337469173164486,-0.00021354739744889267,-0.0016165176651436665,0.01050831193875497,0.9890864388939486
2016-10-31,-1,-0.00014445401213870537,-6.283639726198628e-05,-0.0013162673266266783,0.011210162524945368,0.98893568842971
2016-11-02,-1,-0.0008085633580910787,-0.0006171454803428114,0.001944726345726074,0.011210162524945368,0.9885792112331391
2016-11-04,-1,-0.0007344061316753698,-0.0005585810502349508,0.001944726345726074,0.01240580245833665,0.9881325455231871
2016-11-08,-1,-0.00013702676947536033,-1.5423410630615317e-05,0.00073228685014803,0.011210162524945368,0.9895404014410352
2016-11-10,1,0.002263750045844051,0.0024406072027298416,-0.000946184131536632,0.010025404182707056,0.9925731540903135
2016-11-14,1,0.002755243464523424,0.0029953986887899992,-0.0015518564646818226,0.00920418863913054,0.992833013810086
2016-11-16,1,0.001052383440675159,0.001133982354277887,-0.000946184131536632,0.00920418863913054,0.993648274843748
2016-11-18,1,0.0013772107162698932,0.0013971199849444945,0.00073228685014803,0.00920418863913054,0.9940630479155216
2016-11-22,1,0.002494865726550317,0.002694587294385915,-0.001231811340820511,0.004202664560318648,0.9945585895140565
2016-11-25,1,0.0024291262730087213,0.0025969434379981954,-0.001231811340820511,0.0037370191006600205,0.9948131390711815
2016-11-29,1,0.0028626458544548324,0.0030852050707712016,-0.0034082678500277587,0.0033624309500969404,0.9943987110922896
2016-12-01,1,0.0029868476511675443,0.00323188242326754,-0.0034082678500277587,0.0026725317177197097,0.9941587476079063
2016-12-05,1,0.0032375130055485694,0.003520873381691812,-0.0034082678500277587,0.0026725317177197097,0.9939187006834989
2016-12-07,1,0.002821927822483649,0.0030225404026011597,-0.0034082678500277587,0.003465436471337943,0.9942179018770635
2016-12-09,1,0.002467410372875774,0.0026624250089868147,-0.0034082678500277587,0.003315053761338586,0.9955646338378953
2016-12-13,1,0.0020110284313848243,0.002130788817520897,-0.003199013011654239,0.003465436471337943,0.9959594659213606
2016-12-15,1,0.001866259593522094,0.0019707206818019496,-0.0033372901932575633,0.0037121495928077028,0.9953328516210111
2016-12-19,1,0.0021028622250382286,0.002261074896859027,-0.0033372901932575633,0.004050763766244111,0.9948747912096839
2016-12-21,1,0.002075191340789409,0.0022473076860881095,-0.0033372901932575633,0.004050763766244111,0.9949678221181667
2016-12-23,1,0.0019986832604368,0.002138504193391986,-0.0043397317972884136,0.00357001802653264,0.9943384149462905
2016-12-28,1,0.0015821773176267313,0.0016748724596345834,-0.00312343844680393,0.007560843420163263,0.9926519943494689
2016-12-30,1,0.001506797161257971,0.0015647651852330757,-0.006321643549322816,0.007560843420163263,0.9916600413362716
2017-01-04,1,0.0022175143647637356,0.00239989579004012,-0.006321643549322816,0.00489294080392325,0.9920024203238335
2017-01-06,1,0.002693607298835514,0.0029592726977686894,-0.006321643549322816,0.004959703783568892,0.9913921048602613
2017-01-10,1,0.0022941691639578087,0.0024952703363585347,-0.004248182703280541,0.004959703783568892,0.9918476906720676
2017-01-12,1,0.002101206572300276,0.002262924758530652,-0.004248182703280541,0.008299075890300957,0.9916074460819582
2017-01-17,1,0.0018290674047463091,0.0019446227735832914,-0.003177646221252583,0.010020042679880685,0.9920211465079035
2017-01-19,1,0.002083013555748611,0.002233058473325976,-0.003177646221252583,0.0055226497221133024,0.9923069238002818
2017-01-23,1,0.0018195901772293604,0.001930874610048908,-0.001078457417924709,0.0055226497221133024,0.9926805836500706
2017-01-25,1,0.0012407262655748652,0.0012612407930392988,-0.001078457417924709,0.0055226497221133024,0.992815393127959
2017-01-27,1,0.003118669667477152,0.003400987673539052,-0.001078457417924709,0.004059543327163611,0.9949712583034731
2017-01-31,1,0.002112667200418323,0.0022463953374729077,-0.0003958068848976601,0.004811162336999634,0.9955274331609628
2017-02-02,1,0.0014031689917315968,0.0014102182368811414,-0.001078457417924709,0.004811162336999634,0.9948992762531661
2017-02-06,1,0.0017920210080386253,0.0018362575147446792,-0.00103738229546162,0.004745872919626305,0.9954493602913832
2017-02-08,1,0.00179875820758005,0.00185599419487117,-0.0030270678275535253,0.004745872919626305,0.9951379273304712
2017-02-10,1,0.0018460166283835017,0.0019003208602115516,-0.0009322933266147953,0.004059543327163611,0.995648521865191
2017-02-14,1,0.0022316622583182046,0.0023428421527867055,-0.0037472349372130384,0.004059543327163611,0.9953256491763108
2017-02-16,1,0.002463603475305438,0.0025998245963590448,-0.005375544190058986,0.004745872919626305,0.9945702046924291
2017-02-21,1,0.0025529598572295933,0.002713605907766008,-0.0067730439572002,0.004745872919626305,0.9931974626104186
2017-02-23,1,0.0021793451502966216,0.0022842455441721625,-0.005938245089794994,0.005317570579304572,0.9935190148458009
2017-02-27,1,0.002273558042311186,0.0023667507823071188,-0.00713317515827752,0.004035286436886569,0.9925375130117106
2017-03-01,1,0.0022665455604058307,0.002337857475842452,-0.00713317515827752,0.004035286436886569,0.9925349269476478
2017-03-03,1,0.0014004080930742628,0.001459472845769892,-0.0070983683797149165,0.004035286436886569,0.9930113698370165
2017-03-07,1,0.0009707355214924447,0.0011309103434330144,-0.0070983683797149165,0.003106695916294212,0.9933194278805865
2017-03-09,1,0.0006410615505642699,0.0008288435583103665,-0.008639336334064468,0.003106695916294212,0.993151309873371
2017-03-13,1,0.0005097498352783597,0.0007279884415345615,-0.008639336334064468,0.0033691819207794195,0.9928693958511094
2017-03-15,1,0.0003849607805404135,0.0006156778111508123,-0.008767560049931789,0.0031226789141469515,0.9931380451380819
2017-03-17,1,0.00022074329492801509,0.0004970375897726634,-0.008767560049931789,0.0031226789141469515,0.9934924175337745
2017-03-21,-1,-0.0006633106879988281,-0.0003023474748781677,-0.008087916281782265,0.0031226789141469515,0.9941854557517863
2017-03-23,-1,-0.0011780540580054637,-0.0007113123606434003,-0.008087916281782265,0.0031226789141469515,0.9940352811179385
2017-03-27,-1,-0.002203199526804658,-0.001623448258561443,-0.001102241315788797,0.004961725572927496,0.9933007821971831
2017-03-29,-1,-0.0020691527836573334,-0.0014808565883954509,-0.000585112676789014,0.004961725572927496,0.9936743575973559
2017-03-31,-1,-0.0025811309965300846,-0.0019255599128336826,-0.00234122887962382,0.004961725572927496,0.9937380619445533
2017-04-04,-1,-0.002090329290580899,-0.001538603439033343,-0.00234122887962382,0.005304990679977905,0.993788286091801
2017-04-06,-1,-0.0007398290001759964,-0.00047833069527457046,-8.01501626048756e-05,0.007022477341393493,0.9942279462753623
2017-04-10,0,-6.285414404448933e-06,0.00012693337536889176,0.0008344950057318947,0.005304990679977905,0.9949127943143459
2017-04-12,-1,-0.0011109624758547868,-0.0007932689633928417,0.0008344950057318947,0.005304990679977905,0.9943950522702759
2017-04-17,-1,-0.0005755164910567212,-0.0003253260456637562,-9.901239509688446e-05,0.004419942021122802,0.9951467195558723
2017-04-19,-1,-0.00044897274472133555,-0.0002527021491163262,-0.00010137100082366281,0.004419942021122802,0.9948091188514381
2017-04-21,0,-3.675711327693975e-05,9.391908154468532e-05,-0.00010137100082366281,0.005304990679977905,0.9942926804290603
2017-04-25,1,0.001196486289996427,0.0012468849665704675,-0.00010137100082366281,0.005397126685979409,0.9949504841174255
2017-04-27,1,0.0015754470564578698,0.001687685526760527,-0.00010137100082366281,0.004960044902668265,0.9951217252809115
2017-05-01,1,0.0013286374220530684,0.0014332631116935799,0.0005659440882525795,0.005592638168616258,0.9953412075702978
2017-05-03,1,0.0014186922483024238,0.0015299736086305468,0.0001383598742550901,0.005823742833030152,0.99509807758949
2017-05-05,1,0.0013120088146255286,0.0013644043591373794,-0.001377047825635796,0.005745795682081053,0.9945241172189314
2017-05-09,1,0.0011967421983318225,0.0012100524425668708,-0.002470084062064362,0.005745795682081053,0.9936531181900389
2017-05-11,1,0.0006531323234330645,0.0007116143696288335,-0.001377047825635796,0.005745795682081053,0.9940420311494039
2017-05-15,1,0.0006112074553414092,0.0006733997171231194,-0.0017508914368281033,0.005904495891259076,0.9934939761077968
2017-05-17,-1,-0.0003359216585820579,-0.0001525497448084817,-0.0009229719299793777,0.005904495891259076,0.9937573681772166
2017-05-19,1,0.0005715860820368948,0.0006400657583653277,-0.0009229719299793777,0.005904495891259076,0.9944262289681923
2017-05-23,1,0.0008270985285959047,0.0008959609364022841,-0.0016597592368784205,0.005592638168616258,0.9950767229927852
2017-05-25,1,0.0009529360447255973,0.0010187766786090534,-0.0033182182957922357,0.004333642758039834,0.9947209741779244
2017-05-30,1,0.0013833756710748425,0.0013961292606937455,-0.005414022310302882,0.003762588904036637,0.9942838203708878
2017-06-01,1,0.0015335225780498609,0.0015860489397431193,-0.005870802741791872,0.003762588904036637,0.9933221651035194
2017-06-05,1,0.0010052961577671862,0.0010408171665484737,-0.005414022310302882,0.0043509167485653545,0.993621089782843
2017-06-07,1,0.0002786100156531441,0.00040109062765734775,-0.005414022310302882,0.005503897017695764,0.993825705565475
2017-06-09,1,0.00016066360796608667,0.0003086180646928677,-0.005414022310302882,0.006309680002312827,0.9934628529917646
2017-06-13,1,0.0004983912058282806,0.0005896622475260265,-0.00561478853793195,0.005841651928561802,0.9936590590607091
2017-06-15,1,0.0005550299981683695,0.0006504109458836017,-0.00561478853793195,0.005841651928561802,0.9934825561343278
2017-06-19,1,0.0006204215191766879,0.0007376946329977485,-0.00561478853793195,0.005841651928561802,0.9934608280779978
2017-06-21,1,0.0015045703578044761,0.001620080495370549,-0.00561478853793195,0.005841651928561802,0.9933828212098205
2017-06-23,1,0.00043131481752572303,0.0005004603840124279,-0.005156659434441879,0.006100893643461072,0.9935651158024938
2017-06-27,-1,-0.000309666235679209,-0.0001379903327417005,-0.0052081142984741185,0.006100893643461072,0.9916214220803525
2017-06-29,-1,-0.00039070056955896353,-0.00025049573970057693,-0.004835430642793868,0.006100893643461072,0.9917792182316104
2017-07-03,1,2.2582706900808392e-05,0.00011919444735035293,-0.0052081142984741185,0.005557574988150739,0.9920509934460469
2017-07-06,0,-5.0837550796102116e-05,4.516771173198507e-05,-0.004835430642793868,0.006425107529811851,0.9920308478477489
2017-07-10,1,0.0005741738149800259,0.0005759956484199209,-0.004835430642793868,0.006100893643461072,0.9922814450341392
2017-07-12,1,0.0006386914907609956,0.0006640534711826614,-0.004835430642793868,0.006425107529811851,0.9917704340920857
2017-07-14,1,0.0006612752173284931,0.0006960480599477376,-0.005437122514955988,0.006425107529811851,0.9914326034296345
2017-07-18,1,0.0005237948544376731,0.0005254657966798685,-0.004830679431250488,0.0068062285789765664,0.9911643915532306
2017-07-20,1,0.000791786921678214,0.0008482834854443466,-0.0070473347208906455,0.0068062285789765664,0.9905144037955964
2017-07-24,1,0.0012836780497015783,0.0014228643080332237,-0.0070473347208906455,0.0058391886462789405,0.9908724062103991
2017-07-26,-1,-0.000704317215653116,-0.0005697465177540815,-0.00499806970729736,0.0068062285789765664,0.9922736247303159
2017-07-28,1,5.2432104968795485e-05,8.33629997450199e-05,-0.0048716281614038,0.0058391886462789405,0.9934254998546393
2017-08-01,-1,-0.00035431251668751067,-0.00026480828332267533,-0.0045149910177154,0.0068062285789765664,0.9928162934791696
2017-08-03,1,0.0002267261083977332,0.00023959586516873304,-0.0045149910177154,0.005414639194297898,0.9934095021348562
2017-08-07,1,0.0004801061201055604,0.0004982118160085589,-0.006438709295372661,0.0042067077757282625,0.9931182960210745
2017-08-09,1,0.0005647516791997089,0.0006079754358764295,-0.006438709295372661,0.0020779730561629323,0.9936623681923032
2017-08-11,-1,-0.00048078507642736337,-0.0003560119109061451,-0.006033654234618734,0.004562837049911952,0.9937229271135098
2017-08-15,-1,-0.00016268430562931755,-8.09653460894495e-05,-0.006655484264377637,0.0038562228336921738,0.9936822497254753
2017-08-17,-1,-0.0009339180908692731,-0.0007249211423807119,-0.006422279685306488,0.003793735206916659,0.9942321723299631
2017-08-21,-1,-0.0005570465022393207,-0.00041569281180135715,-0.006422279685306488,0.004321597738364354,0.9932125379852532
2017-08-23,-1,-0.0005702574240151056,-0.00041512975183358083,-0.006033654234618734,0.004902431731183097,0.993521941884982
2017-08-25,-1,-0.000708786902591677,-0.000539639480745238,-0.006033654234618734,0.004902431731183097,0.9934719529780572
2017-08-29,-1,-0.0006002167312103005,-0.0004297611203114012,-0.0035592029281854417,0.004902431731183097,0.9940358341005406
2017-08-31,-1,-0.0004681260089202603,-0.00032194642524178366,-0.006422279685306488,0.004902431731183097,0.9936458006967172
2017-09-05,-1,-0.001140388969288589,-0.0009017912442686347,-0.001787400561313394,0.007113628035866296,0.9928148167472052
2017-09-07,-1,-0.0012216374354750985,-0.0009940675627582779,0.0013072966696457652,0.007537383057582783,0.9925429856250897
2017-09-11,-1,-0.0008347630094513437,-0.0006398019362407984,-0.001787400561313394,0.007113628035866296,0.9932032619045322
2017-09-13,-1,-0.0013728309606608423,-0.0011242185816122917,0.0006112758239591072,0.007113628035866296,0.9934592180618471
2017-09-15,-1,-0.0007098353490290833,-0.0005739908887989338,-0.0015746805726329625,0.007113628035866296,0.9938457315751946
2017-09-19,1,0.00030974830056709117,0.00031233998943333433,-0.001990770150771018,0.0060209005374524515,0.994875245282765
