JNU-Tangyin/eata/results/Batch4_SP500/Batch4_SP500-MAA.csv
Date,Action,Predicted_Q25,Predicted_Q75,Actual_Q25,Actual_Q75,RL_Reward
2010-12-14,0,0.0,0.0,-0.003761096124441904,0.004890494575657662,0.9937501931721887
2010-12-16,0,0.0,0.0,-0.0020278410557836237,0.004890494575657662,0.9944184738713053
2010-12-20,0,0.0,0.0,-0.003761096124441904,0.004890494575657662,0.993574413819274
2010-12-22,0,0.0,0.0,-0.003761096124441904,0.0035007399826917085,0.9938862237366495
2010-12-27,1,0.0017206636080233685,0.0018777149493479075,-0.0020278410557836237,0.005429531805155199,0.9933637725256348
2010-12-29,1,0.0013694312314836805,0.0014366214653477286,-0.0023252774215721155,0.00548230380532427,0.9931918436224477
2010-12-31,1,0.0009863417367655162,0.0009991278604316299,-0.0023252774215721155,0.00670899301224152,0.9926566599070524
2011-01-04,-1,-0.000732290927168836,-0.0004772696208695167,-0.0023252774215721155,0.00548230380532427,0.9940034328984537
2011-01-06,-1,-0.0007752370303130157,-0.0005028266949945334,-0.005007476482011334,0.0038325578822875662,0.9930601491627623
2011-01-10,-1,-0.0005206737429665576,-0.00033467900726137623,-0.004316423969278624,0.006901469474544812,0.9928091464741263
2011-01-12,-1,-0.0014658308234229036,-0.0011072195628401744,-0.004316423969278624,0.006901469474544812,0.9925203732916522
2011-01-14,-1,-0.0016991216305709048,-0.0013022768330045603,-0.004475744720617033,0.006901469474544812,0.9921965384009749
2011-01-19,-1,-0.0017347213455009773,-0.0013769663564308342,-0.004385720146790001,0.005817518809569612,0.993083020387621
2011-01-21,-1,-0.0016424409333452223,-0.0012995022730223178,-0.004385720146790001,0.008433414059134132,0.992711121982538
2011-01-25,1,0.00016884565190989723,0.0002242599397476635,-0.004475744720617033,0.003661207662402833,0.9933764761277173
2011-01-27,0,0.0,0.0,-0.004402114813075394,0.003661207662402833,0.9929667915517683
2011-01-31,0,0.0,0.0,-0.004402114813075394,0.003661207662402833,0.9912145220296046
2011-02-02,0,0.0,0.0,-0.004402114813075394,0.005180209625232943,0.9910539126024205
2011-02-04,0,0.0,0.0,-0.0057491746721966205,0.005180209625232943,0.9910672292777287
2011-02-08,0,0.0,0.0,-0.0057491746721966205,0.006521486506124127,0.9904240019976538
2011-02-10,0,0.0,0.0,-0.00945344296184332,0.009750472642047156,0.9895472352636279
2011-02-14,0,0.0,0.0,-0.00945344296184332,0.009750472642047156,0.9894165698919261
2011-02-16,0,0.0,0.0,-0.01036358464851806,0.01155255426146546,0.9882133138549263
2011-02-18,0,0.0,0.0,-0.01036358464851806,0.012294254735352944,0.9879543887748842
2011-02-23,0,0.0,0.0,-0.011071826727183636,0.012294254735352944,0.9878623738401928
2011-02-25,0,0.0,0.0,-0.011071826727183636,0.01155255426146546,0.9881400266224444
2011-03-01,-1,-0.0005049697731083473,-0.000497533618099306,-0.00978411494916127,0.01000690811369079,0.9906777635646814
2011-03-03,0,0.0,0.0,-0.007314341051577481,0.012294254735352944,0.9900054076775985
2011-03-07,0,0.0,0.0,-0.004507363773050083,0.012294254735352944,0.9907743225749105
2011-03-09,-1,-0.00027778859774279564,-0.00021452013316684143,-0.005420763435671136,0.01000690811369079,0.9915915881736089
2011-03-11,0,0.0,0.0,-0.005420763435671136,0.00765045372882568,0.9918285092747914
2011-03-15,0,0.0,0.0,-0.004275104853845076,0.00765045372882568,0.992149870483239
2011-03-17,0,0.0,0.0,-0.004275104853845076,0.0075750984952065266,0.9925732364003547
2011-03-21,0,0.0,0.0,-0.005091196005339573,0.006260280412805524,0.9926536720514054
2011-03-23,-1,-0.0013741998242370517,-0.001153493002590859,-0.0036994602886189034,0.0077816297540217565,0.991934397127534
2011-03-25,-1,-0.00030732207689039196,-0.0002461351764525513,-0.0036994602886189034,0.006582620041137236,0.9924647624463425
2011-03-29,-1,-0.0001353973009260151,-9.652842482743043e-05,-0.0036994602886189034,0.008796263578426972,0.9918832632159534
2011-03-31,1,0.0012930782862954336,0.0014944543538859714,-0.0036994602886189034,0.007421862091829695,0.9933132550365509
2011-04-04,1,0.0008627856501047465,0.0009260586290575021,-0.004515659197379156,0.007421862091829695,0.9932418092831579
2011-04-06,1,0.0006531552858085573,0.000706706911597519,-0.003210631862529385,0.007421862091829695,0.9935442211678377
2011-04-08,-1,-0.00030755434605932077,-0.0002169429935093203,-0.001045102046961643,0.008023673610712986,0.9934054518523799
2011-04-12,-1,-0.00020613701551511042,-0.00012700934475480668,-0.003210631862529385,0.008796263578426972,0.9920217425340847
2011-04-14,1,3.3618222878837526e-05,6.476142004159485e-05,-0.00459810911613193,0.008023673610712986,0.992494988176333
2011-04-18,-1,-0.00042626141316052233,-0.0003270226747989999,-0.003210631862529385,0.008023673610712986,0.9930394976809854
2011-04-20,1,0.0006453250699068754,0.00068498552654591,-0.003210631862529385,0.008023673610712986,0.9937276706180724
2011-04-25,1,0.0011040643865374172,0.001221395843963551,-0.005398824996509259,0.008023673610712986,0.9929757705932045
2011-04-27,1,0.00214491131482725,0.002444531665373056,-0.005398824996509259,0.0038669861771129014,0.9932102447281274
2011-04-29,1,0.002143457996575128,0.002430760641623718,-0.005398824996509259,0.003903774237669952,0.9928097244123578
2011-05-03,1,0.0017501697898511272,0.001971048172342331,-0.006171733937417413,0.008511952033232757,0.9908732335486727
2011-05-05,1,0.0021188456236899606,0.002418247552725684,-0.006171733937417413,0.010271912344282324,0.9903036548517455
2011-05-09,1,0.0017132158044303974,0.001920990974590564,-0.008533518981659997,0.010358205872016017,0.9901628879844202
2011-05-11,1,0.001485697094733676,0.0016545559389439016,-0.006092283222251811,0.008511952033232757,0.9914488326461653
2011-05-13,1,0.0010527325766930104,0.0011771887840944738,-0.005136693600190047,0.008511952033232757,0.9909775864289491
2011-05-17,1,0.0011553493794580053,0.0013135211395018877,-0.00984061900655372,0.010358205872016017,0.9898669262815989
2011-05-19,1,0.0019062479735430285,0.0022026082576774597,-0.00984061900655372,0.011087440824041759,0.9894939853241581
2011-05-23,1,0.001156960093947989,0.001353960399589983,-0.0023798890929796882,0.011087440824041759,0.9900910031246785
2011-05-25,1,0.0013597363833768679,0.001560849714861954,-0.010411696745583109,0.011087440824041759,0.9882545575127978
2011-05-27,1,0.0015300845371226733,0.0016999460000494816,-0.010411696745583109,0.009636309252103126,0.9888570443485475
2011-06-01,1,0.0010226848552638622,0.0011316522332334286,-0.005136693600190047,0.009431858633571174,0.9904110610017371
2011-06-03,1,0.0014350562225936688,0.001575196085021022,-0.005136693600190047,0.009431858633571174,0.9900214179568234
2011-06-07,1,0.0012047132772018603,0.00130488838117345,-0.0023798890929796882,0.009431858633571174,0.9901076328192218
2011-06-09,1,0.0010582661836704053,0.0011462910706569634,0.003686023355314528,0.010260074434914853,0.989708701255383
2011-06-13,1,0.00020005414469318774,0.0002445557706406477,0.003796909391780299,0.010260074434914853,0.9896349502196456
2011-06-15,1,0.0002876159638648139,0.00031720355432736115,-0.0012926551383232788,0.009431858633571174,0.9901063637006966
2011-06-17,1,0.0013906640442174227,0.001564391943260868,-0.0012926551383232788,0.009431858633571174,0.9909634215310736
2011-06-21,1,0.001700195048863146,0.0019121474704879092,-0.0012926551383232788,0.010260074434914853,0.9907246788907874
2011-06-23,1,0.0004710370251365586,0.0005403564935299052,0.0014817659050748938,0.010551401057452267,0.9916555238073929
2011-06-27,1,0.0006486818912671315,0.000715207484714008,-5.449304726012536e-05,0.010551401057452267,0.9914735496909659
2011-06-29,1,0.0008257791062554691,0.0008590346238823132,-0.004410954673721157,0.010551401057452267,0.9909985418407518
2011-07-01,1,0.0017008655785008685,0.0018685890150856458,-0.004410954673721157,0.007990782084088812,0.9918640841025349
2011-07-06,1,0.0020150822052120276,0.002207105512727972,-0.009794205830939998,0.006575423132530091,0.9905547243295616
2011-07-08,1,0.0024508215393463,0.002675349704724692,-0.012439749856349212,0.005339363425526759,0.9864281797405406
2011-07-12,1,0.0012162523477346461,0.0012363197813881534,-0.017629828991506655,0.005339363425526759,0.9789221629762024
2011-07-14,1,0.0013013683499655195,0.001387036061248771,-0.017629828991506655,0.007434522929988258,0.977570724889119
2011-07-18,0,0.0,0.0,-0.017629828991506655,0.010284416304214603,0.9765286867784339
2011-07-20,0,0.0,0.0,-0.017629828991506655,0.007847402660832786,0.9767066631219284
2011-07-22,0,0.0,0.0,-0.021133536883100868,0.006678207730033551,0.9756284609393708
2011-07-26,0,0.0,0.0,-0.021133536883100868,0.008015470704350483,0.9744345273224669
2011-07-28,0,0.0,0.0,-0.021835137920762367,0.012675593364711371,0.9730581777731873
2011-08-01,0,0.0,0.0,-0.021835137920762367,0.02085553773294766,0.9709622766474624
2011-08-03,0,0.0,0.0,-0.014788114267479606,0.02085553773294766,0.9718881954483103
2011-08-05,0,0.0,0.0,-0.012604461786352765,0.02085553773294766,0.9740228268123297
2011-08-09,-1,-0.0035187748756717015,-0.002963280477300566,-0.010211506626916682,0.02085553773294766,0.9806140436328573
2011-08-11,-1,-0.0018606140968423614,-0.0015268503465705758,-0.012604461786352765,0.0174919572566592,0.981474996739107
2011-08-15,-1,-0.0008506505959172668,-0.0006053131437444057,-0.012604461786352765,0.014825478486372851,0.9823929646540199
2011-08-17,-1,-0.0007236451362495976,-0.000517327178151633,-0.012291174053377957,0.014825478486372851,0.9829743766972887
2011-08-19,-1,-0.0021491634050849195,-0.0017749524264956199,-0.008889108853096985,0.014825478486372851,0.9826428424844987
2011-08-23,0,0.0,0.0,-0.02098768556265895,0.013071254637094715,0.9815715021444943
2011-08-25,0,0.0,0.0,-0.019319156867234635,0.013071254637094715,0.9824534909298029
2011-08-29,0,0.0,0.0,-0.019319156867234635,0.008242548889289098,0.9840348039734358
2011-08-31,0,0.0,0.0,-0.02241476396715309,0.008242548889289098,0.981811253706105
2011-09-02,0,-0.000653795573485282,0.0,-0.024292007680034675,0.008242548889289098,0.9803758675550129
2011-09-07,0,-4.767356706988088e-06,0.00011810797004917927,-0.024292007680034675,0.008242548889289098,0.9786863197724781
2011-09-09,-1,-0.0016664405565450175,-0.0013400055401060775,-0.024421793951782116,0.012171156344860453,0.9772203593527788
2011-09-13,-1,-0.0003625594749225193,-0.0002330353853291505,-0.034308160208274804,0.012851415133847353,0.9739842143733268
2011-09-15,0,-5.5851487984152236e-05,2.1950043323991494e-05,-0.034308160208274804,0.012851415133847353,0.9736460439211205
2011-09-19,0,0.0,0.0,-0.028176427803724854,0.017537123102265698,0.9730308853557746
2011-09-21,0,0.0,0.0,-0.022377883150265464,0.020613918475124622,0.9744563332602806
2011-09-23,0,0.0,0.0,-0.022377883150265464,0.020613918475124622,0.9756128044217748
2011-09-27,0,0.0,0.0,-0.022377883150265464,0.020613918475124622,0.9750861815441343
2011-09-29,0,0.0,0.0,-0.01945285897479233,0.022882423323389484,0.975483685671999
2011-10-03,0,0.0,0.0,-0.012930250617130084,0.022882423323389484,0.9791664996404954
2011-10-05,0,0.0,0.0,-0.012930250617130084,0.022617334684795175,0.9796508607988356
2011-10-07,0,0.0,0.0,-0.010125348863483357,0.018714545914391343,0.9821353352554464
2011-10-11,0,0.0,0.0,-0.007459248511132096,0.01433246478713238,0.9860578690289021
2011-10-13,0,0.0,0.0,-0.010125348863483357,0.01433246478713238,0.9841500548603414
2011-10-17,-1,-0.007541495817436494,-0.006827724257082474,-0.010125348863483357,0.01433246478713238,0.9831646097756522
2011-10-19,-1,-0.00692901470383295,-0.006348155189635687,-0.007623642904448822,0.012816972655602006,0.984892943503492
2011-10-21,-1,-0.005966642919055145,-0.00541391932034108,-0.010125348863483357,0.012816972655602006,0.9851202894684795
2011-10-25,-1,-0.0057765079288523355,-0.005327468643070555,-0.011867587438406142,0.0087058707849911,0.984916981691598
2011-10-27,-1,-0.0036999877307746717,-0.0034974925049772836,-0.019743773622329278,0.005745866932086409,0.986981827305881
2011-10-31,-1,-0.0036098600629674666,-0.0034308498280009097,-0.019743773622329278,0.006958407379059027,0.9861520354010146
2011-11-02,-1,-0.004477948818585462,-0.004184529286731386,-0.011867587438406142,0.006958407379059027,0.9873556129775664
2011-11-04,-1,-0.004192995527882536,-0.0039385154396240915,-0.009982766848217212,0.008694217447690977,0.9869557389429097
2011-11-08,-1,-0.003501249652580177,-0.0033707674435171572,-0.013002117977559978,0.012621132145420435,0.9861297648026268
2011-11-10,-1,-0.0036928882918758035,-0.0035639753459804804,-0.013002117977559978,0.012032006128148816,0.9864839739838132
2011-11-14,-1,-0.004392786697289506,-0.004113119917463006,-0.01132209964441984,0.008794372479485606,0.9873934769820488
2011-11-16,-1,-0.004141938015192038,-0.003918405172222485,-0.01132209964441984,0.013025315688321291,0.9849822397053916
2011-11-18,-1,-0.004151654839652585,-0.003949708230511316,-0.009481761625604157,0.013025315688321291,0.9853062876355673
2011-11-22,-1,-0.004346944820367814,-0.004177597994729753,-0.006650751153275869,0.014796551758333207,0.9842193050582273
2011-11-25,-1,-0.004828212312874046,-0.004643105417858886,-0.004348124017800738,0.014796551758333207,0.984546055398489
2011-11-29,-1,-0.003801307590262622,-0.003762501722730603,-0.005120748702513275,0.013549041117730276,0.9852801597588958
2011-12-01,-1,-0.0029031543544402257,-0.0028097606408128742,-0.0060595537123127995,0.012032006128148816,0.986575064856674
2011-12-05,-1,-0.002327368541261249,-0.002172090256236484,-0.009341779754410362,0.00889497683386107,0.9868952631315542
2011-12-07,-1,-0.0015501910639029361,-0.0012603390680208386,-0.0060595537123127995,0.00889497683386107,0.987562957275716
2011-12-09,-1,-0.0014029978225561133,-0.0010389968699714197,-0.0060595537123127995,0.0078128596791643,0.9886306377470778
2011-12-13,-1,-0.0009014563083887277,-0.0004292082617072988,-0.007636059021461898,0.007373150810446856,0.9879307945095367
2011-12-15,1,0.0004060509603441634,0.0010649612246186506,-0.007636059021461898,0.006917846924113023,0.98986028653725
2011-12-19,1,0.00027933298585915514,0.00087502631203532,-0.005752018116774504,0.006917846924113023,0.9896290185927535
2011-12-21,1,0.0018036450846707574,0.0026220161954888578,-0.005752018116774504,0.006917846924113023,0.9908120766247024
2011-12-23,1,0.0014519908697246762,0.002142702623042888,-0.005752018116774504,0.008610921232893674,0.9902507807139963
2011-12-28,-1,-0.0009045362410098402,-0.0007872669136263591,-0.005135414258316651,0.013420500248654614,0.9893337397654556
2011-12-30,1,0.00028990560696836275,0.0006547106114707726,-0.0056321511791719465,0.013420500248654614,0.9897320800050756
2012-01-04,1,0.0005742586663933212,0.0010538230717915063,-0.0056321511791719465,0.013420500248654614,0.9899369010177526
2012-01-06,1,0.0015260175844487428,0.0021899957700174688,-0.0056321511791719465,0.011421103975967054,0.9906663054405485
2012-01-10,1,0.0010733095608432975,0.001688452783096637,-0.004693260150234125,0.011421103975967054,0.9917299136283317
2012-01-12,-1,-0.0005776283264999067,-0.00024197365283749753,-0.00011636958657353864,0.011421103975967054,0.9929225822116342
2012-01-17,1,0.0003284305812166113,0.0008581038600556561,-0.0018231600580436646,0.011421103975967054,0.9925925744163524
2012-01-19,0,0.0,0.0,-0.004578679562637343,0.011030168175333645,0.9923647556453783
2012-01-23,0,0.0,0.0,-0.005247426826681491,0.004881391874196922,0.992988177601274
2012-01-25,0,0.0,0.0,-0.006589454773300802,0.004881391874196922,0.992530479041857
2012-01-27,0,0.0,0.0,-0.006589454773300802,0.004587493758008046,0.9931973773835805
2012-01-31,0,0.0,0.0,-0.006635216793918975,0.004559830684573907,0.992872761266285
2012-02-02,0,0.0,0.0,-0.006635216793918975,0.004559830684573907,0.9931018222776312
2012-02-06,1,0.0034366656172307637,0.004055659809181915,-0.006635216793918975,0.004855727881914207,0.9919252860623944
2012-02-08,1,0.0048949766987945115,0.005940670027499339,-0.006635216793918975,0.003609789006065657,0.9910710733134143
2012-02-10,1,0.004378939743408404,0.005273968389017287,-0.006635216793918975,0.005999019746900662,0.9907149574549698
2012-02-14,1,0.0013074481474837497,0.0015051790124558195,-0.004869882178976106,0.007256044592968901,0.992276883274135
2012-02-16,1,0.001368718611389252,0.0015672276583772755,-0.004084551911145296,0.005999019746900662,0.9928889906058022
2012-02-21,1,0.0013720338512642153,0.0016000737502969097,-0.004084551911145296,0.007256044592968901,0.9925909281879504
2012-02-23,1,0.0012920177641305823,0.0014702159746932328,-0.004373286646808206,0.005999019746900662,0.992535141045715
2012-02-27,1,0.0001619803309585436,0.00024880566540847555,-0.004373286646808206,0.007712839415826337,0.9919247619404163
2012-02-29,1,5.544804774675207e-05,0.00011047726066273558,-0.003962068795104358,0.007712839415826337,0.9925973000955164
2012-03-02,0,-6.055381302793342e-05,9.969155029190601e-06,-0.003001779069301342,0.011212231183004372,0.9921248000432485
2012-03-06,1,0.000461738812904499,0.0004771682565958669,-0.0026326462661594293,0.010433699764160425,0.9924775392414045
2012-03-08,1,0.0002677487560391658,0.0002908912376539105,-0.0023704264661760966,0.010433699764160425,0.9926406215725987
2012-03-12,0,0.0,0.0,-0.0041474863805189225,0.007712839415826337,0.9920228982700503
2012-03-14,0,0.0,0.0,-0.0041474863805189225,0.007062360557715633,0.9922195403968537
2012-03-16,1,0.000816773864099575,0.0008683545179818777,-0.0028573109542155417,0.008482263189828313,0.991570124329299
2012-03-20,1,0.0010708998327277383,0.0011601833229298595,-0.0037305149774494732,0.007062360557715633,0.9921130398709146
2012-03-22,1,0.0012899019542142104,0.0014810194193235879,-0.0020350978627179553,0.008211698932872052,0.9926921470580902
2012-03-26,1,0.001675261358985285,0.0019092325683170751,-0.0022791530905140077,0.008211698932872052,0.9923705214220165
2012-03-28,1,0.0016267566497647798,0.001835513003751425,-0.003720616813985787,0.011570850063236781,0.991493419144015
2012-03-30,0,0.0,0.0,-0.005304676950590514,0.008211698932872052,0.9920464759160698
2012-04-03,0,0.0,0.0,-0.005304676950590514,0.007592657638158895,0.9919361386433355
2012-04-05,0,0.0,0.0,-0.008119043709781254,0.007592657638158895,0.9914537185561335
2012-04-10,1,0.0009981729329535088,0.0011989856456179502,-0.002803873748227688,0.009024009138273108,0.9927065086285017
2012-04-12,1,0.0010669881351455892,0.0012627837827416163,-0.002803873748227688,0.009024009138273108,0.9927254037995914
2012-04-16,1,0.0010448878161151975,0.0011918898015289055,-0.005304676950590514,0.008110978223325582,0.992585487390684
2012-04-18,1,0.00038263229296635836,0.0004224122578386572,-0.005920865493248691,0.008110978223325582,0.9922704964803826
2012-04-20,-1,-0.0002676816153856142,-0.0001637994270025131,-0.008039741165843124,0.007590582555071801,0.991268063028954
2012-04-24,0,-8.53433511118033e-05,5.0328683573902e-06,-0.006398384996365259,0.007590582555071801,0.991512867926232
2012-04-26,1,0.0002470670627303152,0.00029118953518515847,-0.005403937351165787,0.007364662847902273,0.9924499871985623
2012-04-30,1,0.0005148287473796113,0.0005165612952854734,-0.006155455825259072,0.007590582555071801,0.991744432660659
2012-05-02,1,0.0009696500761506163,0.0010468744457852411,-0.007220381909295407,0.007590582555071801,0.990866100707697
2012-05-04,1,1.9216771271825093e-05,9.556310159714382e-05,-0.009558723757639814,0.007590582555071801,0.9899570032851202
2012-05-08,1,7.452852303492855e-05,0.0001701214805003934,-0.009558723757639814,0.008946280329672589,0.988951837655658
2012-05-10,1,0.0009994764265729306,0.0010959195838479573,-0.014426078491740072,0.009407599277277953,0.9881706942321857
2012-05-14,1,0.0006986114348582172,0.0007421845808110436,-0.01480070736233809,0.011978120385635158,0.9877509266983059
2012-05-16,1,0.0009243152563151269,0.0010391746991558362,-0.01480070736233809,0.012666206825166615,0.9877318957940978
2012-05-18,-1,-0.0004498086679440037,-0.0004020011492970813,-0.00886862797334398,0.012666206825166615,0.9886247843603793
2012-05-22,1,9.857908084654363e-05,0.00010491513500374692,-0.00886862797334398,0.011978120385635158,0.9893007966317516
2012-05-24,0,0.0,0.0,-0.01480070736233809,0.011978120385635158,0.988018742864674
2012-05-29,0,0.0,0.0,-0.01480070736233809,0.010684342065110979,0.9886079093976828
2012-05-31,0,0.0,0.0,-0.010937022414742844,0.0108005865704589,0.9893424751044241
2012-06-04,0,0.0,0.0,-0.005610944224296769,0.012666206825166615,0.9894725679468266
2012-06-06,-1,-0.000280914777711884,-0.00017864516691688988,-0.006048213746908863,0.010429913233996118,0.9904925737674284
2012-06-08,-1,-0.0009668295066227868,-0.0007475094933817075,-0.005324780843702161,0.010429913233996118,0.9913083581469542
2012-06-12,-1,-0.0014240799281852435,-0.0010835709573896054,-0.006048213746908863,0.007453919509847423,0.9919002254887461
2012-06-14,-1,-0.0002237124820768738,-6.993337450504953e-05,-0.006048213746908863,0.010429913233996118,0.9911427373365805
2012-06-18,0,-1.7918354062586555e-05,8.549423596945386e-05,-0.005324780843702161,0.010429913233996118,0.9916111461462722
2012-06-20,1,8.832815206943337e-05,0.00013855739914425992,-0.006755365773082617,0.010429913233996118,0.9913674605903393
2012-06-22,-1,-0.0012274086930271501,-0.0010166765791068233,-0.003581889132514702,0.010429913233996118,0.992212487627379
2012-06-26,-1,-0.0006930147439461833,-0.0005500290957677575,-0.003581889132514702,0.00828190905427623,0.9922718211095636
2012-06-28,1,1.2337089535377987e-05,7.453500383435547e-05,-0.005977163640470428,0.006640895025741748,0.9926060112989272
2012-07-02,0,0.0,0.0,-0.005977163640470428,0.004817926244379507,0.993853991128442
2012-07-05,0,0.0,0.0,-0.0038170585736519483,0.004267318569283347,0.9943039029593661
2012-07-09,1,0.00032176728598382086,0.0003988326630304208,-0.005362064298186986,0.00287276428076407,0.994176912426423
2012-07-11,0,0.0,0.0,-0.005362064298186986,0.00287276428076407,0.9940669485961122
2012-07-13,0,0.0,0.0,-0.005362064298186986,0.0005074142849477577,0.995490253957138
2012-07-17,0,0.0,0.0,-0.005362064298186986,-0.00032601016297246783,0.9955480622771804
2012-07-19,1,0.00014611137326972466,0.00021668007456916957,-0.0036260213712298916,0.0006336099794515108,0.9956955506454854
2012-07-23,-1,-0.0004823056657542339,-0.0002959342931364963,-0.002958280005832481,0.002155793750367125,0.9957791155568131
2012-07-25,-1,-0.00017118411976059582,-1.8375420810405726e-05,-0.002958280005832481,0.0008206257276906336,0.9961851912721736
2012-07-27,0,-9.32519302454978e-05,3.160123903049665e-05,-0.002958280005832481,0.0008206257276906336,0.9962695128439892
2012-07-31,-1,-0.00023282094050994614,-8.884465175345668e-05,-0.002638597154512855,0.0024738799247722293,0.9958078252433994
2012-08-02,1,2.7494127549756298e-05,0.00010652721965928832,-0.0036260213712298916,0.0024738799247722293,0.9955419943853674
2012-08-06,-1,-0.000328006666284066,-0.00021312566581171624,-0.0026342330377857144,0.0024738799247722293,0.9956454990451167
2012-08-08,-1,-0.0012925662716743256,-0.0010647590079389357,-0.001948268157907398,0.0024738799247722293,0.9964579027058214
2012-08-10,-1,-0.0011328671788337248,-0.0009412807362644474,-0.002197585017132479,0.003025202876050831,0.9959818674086989
2012-08-14,-1,-0.001780862412273768,-0.0014731073104525324,-0.003373892241518224,0.005032999171429925,0.9953161203085035
2012-08-16,-1,-0.000863452034252057,-0.0007052373219366338,-0.003373892241518224,0.005179110830629783,0.9951317808873236
2012-08-20,-1,-0.0005261418700339685,-0.00040323173294237253,-0.004800800729736233,0.005032999171429925,0.9951060909609691
2012-08-22,1,5.988400558787984e-05,7.307358129097248e-05,-0.00635244019088017,0.005032999171429925,0.9941442028936337
2012-08-24,1,0.00022181866444184978,0.0002502734575879575,-0.00635244019088017,0.0030278131481318795,0.9944704301130979
2012-08-28,1,0.0007159356391729253,0.000813730731221385,-0.007334542053406433,0.00044617237923821385,0.9941135241579786
2012-08-30,-1,-0.0006340160439617464,-0.0004749328395304465,-0.0064216523660941775,0.0015818085516491759,0.994629612975791
2012-09-04,-1,-0.0003685767131372266,-0.0002703678502204997,-0.007860917830714933,0.0030278131481318795,0.9934560994121266
2012-09-06,-1,-0.0002688931168984489,-0.0002076622574393405,-0.007860917830714933,0.0030278131481318795,0.9931000825778011
2012-09-10,-1,-0.0007592871948702959,-0.0006258053185441315,-0.0064216523660941775,0.0017283829929896294,0.9937277571802929
2012-09-12,-1,-0.0006494722657328374,-0.0005470364500455722,-0.006301378794446956,0.0019292832415030241,0.9936225214198832
2012-09-14,1,0.00034962399406717105,0.0003857243947314547,-0.010362952569936551,-0.0008686157211475784,0.9929429053194829
2012-09-18,-1,-0.00022898536327229686,-0.00019834621766901176,-0.0082209298240508,0.0019292832415030241,0.993169201236147
2012-09-20,-1,-0.0009509014161670473,-0.0008406191393459416,-0.005214967515385602,0.006385654817665085,0.9932824243729761
2012-09-24,-1,-0.0005752300587776992,-0.0005427767420630924,-0.006605782272850261,0.006385654817665085,0.9928505709677572
2012-09-26,-1,-0.0014548441552151015,-0.0012939358969058013,-0.005313344252782529,0.006385654817665085,0.9933951161898529
2012-09-28,-1,-0.0009030479107563615,-0.0008277747163097946,-0.006605782272850261,0.006385654817665085,0.993276554384741
2012-10-02,-1,-0.0008289641199297627,-0.0007832574617406045,-0.005313344252782529,0.006385654817665085,0.9935461834380694
2012-10-04,-1,-0.0015133947587376768,-0.0013760967340890455,-0.006183360841059996,0.006385654817665085,0.993441833539901
2012-10-08,-1,-0.0016152869289071054,-0.0014401830512519348,-0.007545417281200953,0.007518489716590205,0.9926690343017304
2012-10-10,-1,-0.0023525437164600522,-0.0020241772978814073,-0.009232712458810487,0.006537413944502489,0.9924609118480964
2012-10-12,-1,-0.002855288209290014,-0.002519216154937481,-0.007545417281200953,0.006537413944502489,0.9932919532833443
2012-10-16,-1,-0.00197476181453351,-0.0017426226651726458,-0.008794305428855474,0.0009327795999854537,0.9933105829445975
2012-10-18,-1,-0.0008950361881719421,-0.0008142512175428425,-0.008794305428855474,0.0009327795999854537,0.9934947421003842
2012-10-22,-1,-0.0015828631310220221,-0.0014006236539028027,-0.00757993021739475,0.001906360569233053,0.9935250554831628
2012-10-24,-1,-0.0027946429629629563,-0.0023965831092695898,-0.00757993021739475,0.003848741909561445,0.9932971699603191
2012-10-26,-1,-0.0022105634731658676,-0.001967059428481072,-0.006559963574715435,0.005726432802897269,0.9926888737589782
2012-11-01,-1,-0.0013952159778828806,-0.0012313100998343825,-0.006559963574715435,0.003848741909561445,0.993499714905289
2012-11-05,-1,-0.0021241271398246575,-0.0018650277040241068,-0.006077525386463824,0.005726432802897269,0.9934836815673816
2012-11-07,-1,-0.0017746055948483317,-0.0015916483833829018,-0.004737388135567506,0.003848741909561445,0.9941188749404817
2012-11-09,-1,-0.002769393802428496,-0.0024657655331661883,-0.002649450135536238,0.003848741909561445,0.9945767376922833
2012-11-13,-1,-0.003072825174688995,-0.002722149688290959,-0.0011534725712905106,0.005726432802897269,0.9938587854357125
2012-11-15,-1,-0.004681739187575822,-0.004078191523365079,-0.0011534725712905106,0.005726432802897269,0.9934530577748211
2012-11-19,-1,-0.0036471686505845395,-0.003197720426940136,-0.0011534725712905106,0.005726432802897269,0.9942734873717449
2012-11-21,0,0.0,0.0,-0.0011534725712905106,0.007893868605437985,0.9955404804385387
2012-11-26,0,0.0,0.0,-0.0014852170095266714,0.00518587981941376,0.9957225369213811
2012-11-28,0,0.0,0.0,-0.0014852170095266714,0.0033064764508486154,0.996339813962945
2012-11-30,0,0.0,0.0,-0.0014852170095266714,0.004771210837989622,0.9960723627747263
2012-12-04,-1,-0.0012609824367619026,-0.0011823077044962145,-0.0014852170095266714,0.0051140820484245056,0.9956650869102794
2012-12-06,-1,-0.0002720574054595294,-0.00014729543055949976,-0.0014852170095266714,0.0051140820484245056,0.9958969276962656
2012-12-10,-1,-0.00023897754754033542,-0.00010264964682216062,-0.0014987836774838729,0.0051140820484245056,0.9958429633535841
2012-12-12,-1,-0.00012842584279768813,-1.1550586452074548e-05,-0.0022968649156651097,0.004367509082668233,0.9958397080632787
2012-12-14,-1,-0.0001341939866355505,-2.8036191546850593e-05,-0.0014987836774838729,0.005189913944479377,0.9953844813779179
2012-12-18,1,0.0006354684660300916,0.0008759492237444498,-0.0022968649156651097,0.004939277319070623,0.9959245138337052
2012-12-20,1,0.0011498387347351983,0.0014594106667135654,-0.001934822935648964,0.004367509082668233,0.9965909715219164
2012-12-24,1,0.001347912476148668,0.0016807920381644128,-0.0023472050346984743,0.004939277319070623,0.9962105938154077
2012-12-27,1,0.0013026971538543505,0.0016252146179619028,-0.0023472050346984743,0.004939277319070623,0.9961057621783572
2012-12-31,1,0.001237712969871056,0.0015311441254714435,-0.0023472050346984743,0.004939277319070623,0.9957355057691851
2013-01-03,1,0.0012033258986017966,0.001438812885042673,-0.002706271226961467,0.004348176367734911,0.9953096840112367
2013-01-07,1,0.001410125096041783,0.001664180327338836,-0.0035094932006255386,0.003076973097437199,0.994740346104702
2013-01-09,1,0.0012938154919173495,0.0015265826744825517,-0.0035094932006255386,0.004361950405195171,0.9947843324916262
2013-01-11,0,0.0,0.0,-0.002706271226961467,0.0070505208980685494,0.9941025058340269
2013-01-15,0,0.0,0.0,-0.002706271226961467,0.004752659437305318,0.9947411865574153
2013-01-17,1,0.0017948346280385664,0.0021554433303882137,-0.002002369628068698,0.004863857184104959,0.9948235041024586
2013-01-22,1,0.0018484435991834006,0.0022178920569437847,-0.0014305092166352548,0.0070505208980685494,0.9943458356228955
2013-01-24,1,0.0024495817827890187,0.0029313840023885004,-0.00026434931288194516,0.006321113846961942,0.9947379451840124
2013-01-28,1,0.0021503009448177266,0.0025780104965356003,0.00011129973298251703,0.006321113846961942,0.9945977422679088
2013-01-30,1,0.002029172573188385,0.002435898064626205,0.00011129973298251703,0.006006413431709514,0.9951508516618176
2013-02-01,1,0.0018808254068290549,0.0022619492066695062,0.00011129973298251703,0.006006413431709514,0.9950891867124334
2013-02-05,0,0.0,0.0,-0.00039540117011102827,0.006006413431709514,0.9946395395925686
2013-02-07,0,0.0,0.0,-0.001958975859484265,0.006006413431709514,0.9944629192266551
2013-02-11,0,0.0,0.0,-0.0030961799378364935,0.004527893008510149,0.9953017972830052
2013-02-13,-1,-0.00023118682062147163,-0.00019601905197155626,-0.0030961799378364935,0.005466583228595105,0.9941080293115648
2013-02-15,1,0.0025661817590146457,0.0029655293644387185,-0.0030961799378364935,0.006296720153715044,0.994020210847414
2013-02-20,0,0.0,0.0,-0.005529403316918889,0.006006413431709514,0.9936945324410831
2013-02-22,0,0.0,0.0,-0.006433420048205443,0.005466583228595105,0.9933934361619559
2013-02-26,1,0.0002936412322683341,0.00033595845702741,-0.005529403316918889,0.006067630237330662,0.9937143841353798
2013-02-28,0,0.0,0.0,-0.005529403316918889,0.0056041633396777145,0.9939622199258993
2013-03-04,0,0.0,0.0,-0.004675704439940919,0.003928780684709813,0.994505868727626
2013-03-06,0,0.0,0.0,-0.004242988986979103,0.005656794640570024,0.9941226206123448
2013-03-08,0,0.0,0.0,-0.0030369427885229144,0.006779993606722462,0.9938384721566127
2013-03-12,0,0.0,0.0,-0.0030369427885229144,0.006779993606722462,0.9934962746673529
2013-03-14,0,0.0,0.0,-0.0045360197896934466,0.004724080430213534,0.9942554416496119
2013-03-18,0,0.0,0.0,-0.006433420048205443,0.003617875947924316,0.993874297356793
2013-03-20,1,0.0019850715537937805,0.002229469086056763,-0.005377566519313629,0.003617875947924316,0.9935215194903564
2013-03-22,1,0.0013868621939165525,0.00154196453574174,-0.0019960181847929036,0.0044782530884530354,0.9941069345639836
2013-03-26,1,0.001338196237164288,0.0014637721365030002,-0.0024315664224600153,0.003617875947924316,0.9941983883427327
2013-03-28,1,0.001227152725750482,0.0013923522327922095,-0.0034983295179865635,0.003617875947924316,0.9938803224828169
2013-04-02,1,0.0011865228041727394,0.0013183642973684376,-0.0034983295179865635,0.0044782530884530354,0.9935128492830768
2013-04-04,1,0.0013912344299039099,0.001534547233386828,-0.005790656896809941,0.0044782530884530354,0.9935834539922399
2013-04-08,1,0.001434259270050252,0.0015499251245684647,-0.005790656896809941,0.005889826864566033,0.9928192320631574
2013-04-10,1,0.0010253374065975827,0.0010651476593078286,-0.003091096577385476,0.006376727210625087,0.9932795057178254
2013-04-12,1,0.0004170479077721713,0.0005253503313101811,-0.002221705272567224,0.006376727210625087,0.9936852967049126
2013-04-16,1,0.00019646155155325277,0.0003124437204659528,-0.0018563451539293076,0.006376727210625087,0.9941365223974027
2013-04-18,-1,-0.00037679419433129906,-0.00018473155906258186,-0.00010898322142653005,0.006376727210625087,0.9943706565635284
2013-04-22,-1,-0.0001707991765909217,-1.4200191486202132e-05,0.0005281391197386703,0.006484626766528764,0.9942508802395482
2013-04-24,0,-5.936540781553603e-05,7.133376373916217e-05,-7.559992927931998e-05,0.006484626766528764,0.9937797373647701
2013-04-26,-1,-0.0009180424825504504,-0.0006928038973932398,0.0005281391197386703,0.006484626766528764,0.9928271708745363
2013-04-30,-1,-0.0009652267895851413,-0.0007702023846229438,-0.002555398463276734,0.006376727210625087,0.9918264738366633
2013-05-02,-1,-0.0010860454742227463,-0.0008815351718793275,-0.010985745222798948,0.0059653930496993855,0.9913121472756146
2013-05-06,-1,-0.0003933348538342262,-0.0002870324279266508,-0.013454063846897938,0.005454627663190437,0.9905051195014133
2013-05-08,1,0.000192935098418594,0.00022480936291669883,-0.013454063846897938,0.00478627597294805,0.9907049638852855
2013-05-10,1,0.000303095526804738,0.00032821667568063074,-0.014183159881628991,0.00469521271241125,0.9898243600395388
2013-05-14,1,0.0009156225701117983,0.0009758177791154603,-0.014183159881628991,0.0028877832462433106,0.9893005470154811
2013-05-16,1,0.0014111157377213746,0.001540587204204579,-0.014183159881628991,0.0019782789728228765,0.9883256611317097
2013-05-20,1,0.0017220095396738536,0.0018911850334241464,-0.014183159881628991,0.0006942433472568752,0.9881825038337998
2013-05-22,1,0.0008600371641046677,0.0009090085732126594,-0.01792285850996738,0.0006942433472568752,0.9863482406258622
2013-05-24,1,0.0004330031846275941,0.00044401670928350285,-0.016170476961566448,0.004328151785217635,0.9863538686973208
2013-05-29,-1,-0.00035503287266315005,-0.00024629329986564313,-0.013180341869754008,0.009733568602962405,0.9857493312661584
2013-05-31,-1,-0.001181638403884449,-0.0009902096508709315,-0.008613057559451602,0.015875370749178528,0.9856010710038712
2013-06-04,-1,-0.001258093623634592,-0.0010525039420405222,-0.006259770020792159,0.011080274480399981,0.987227008864863
2013-06-06,-1,-0.0015678137237803264,-0.0013134569473907851,-0.011109661732731323,0.011080274480399981,0.9865626766804431
2013-06-10,-1,-0.00207818900674611,-0.0017929729381131133,-0.00794302326637924,0.015875370749178528,0.9861447062246824
2013-06-12,-1,-0.002737754810621127,-0.002356851636314876,-0.0069507387745679486,0.015875370749178528,0.9858918549725311
2013-06-14,-1,-0.0025686463833597033,-0.0022105387970407318,-0.007448720377228024,0.011080274480399981,0.9865664759499934
2013-06-18,-1,-0.0020766589150505274,-0.0017865368925134833,-0.007448720377228024,0.011080274480399981,0.9864906184089802
2013-06-20,-1,-0.0038262221358491243,-0.003326584074856714,-0.0021253497757234255,0.014721561837073122,0.9877468528868173
2013-06-24,-1,-0.003226949134513219,-0.0027919397009126927,-0.002663297275933076,0.010713530354206652,0.9890658243404871
2013-06-26,-1,-0.000998713395461346,-0.0008224365519713132,-0.0060866855519614484,0.006864301513209376,0.9914276739856043
2013-06-28,-1,-0.00030889352724293884,-0.00018895753112659747,-0.0060866855519614484,0.005754177403648987,0.9925995605864869
2013-07-02,-1,-0.0002384133466807138,-0.00013631156416700946,-0.007326428933390608,0.004325999355319098,0.9928350498104916
2013-07-05,-1,-0.0010638812269055157,-0.0009118110746266172,-0.007326428933390608,0.004325999355319098,0.9924337492214023
2013-07-09,-1,-0.00030075479175956636,-0.000248785777878934,-0.00950782255887691,0.004325999355319098,0.9922690629858801
2013-07-11,-1,-0.00024153876960532705,-0.0002054393283834783,-0.009958640172663579,0.003976114279183567,0.9923977810769529
2013-07-15,-1,-0.00019127281948442984,-0.00018725596395092602,-0.011890557890490316,0.004547594098950291,0.9915159096172592
2013-07-17,1,0.000277187925754992,0.0003654509661445186,-0.012874854333914573,0.0029608598247163696,0.9910823941764085
2013-07-19,1,0.0006886993208225511,0.0008093075590969306,-0.01451684398231141,0.0018769736420423838,0.990001740340384
2013-07-23,1,0.0009436093025119547,0.0011048683635033396,-0.01451684398231141,0.0018769736420423838,0.9888406453699594
2013-07-25,1,0.00019431478997242407,0.00024825759969824917,-0.013448541168891784,0.002868694635155094,0.9899629254067825
2013-07-29,1,0.00013236769086321366,0.00016430298685337277,-0.013448541168891784,0.0036996187104997406,0.9895833100760636
2013-07-31,-1,-0.0004773126855984584,-0.0004171785905344765,-0.013860456271124597,0.004164920795798121,0.9893651967476401
2013-08-02,-1,-0.001766364930878231,-0.0015435724763135327,-0.013430550339400995,0.004164920795798121,0.9909867876097761
2013-08-06,-1,-0.0016814675512522197,-0.001516468194284193,-0.012081786835482722,0.004164920795798121,0.9915693784459153
2013-08-08,-1,-0.0012778584427409906,-0.0011855398758373835,-0.013430550339400995,0.004344192887083763,0.9906344245873598
2013-08-12,-1,-0.0015693643787267407,-0.0014252803505710645,-0.010864654175248976,0.004344192887083763,0.991042923152708
2013-08-14,-1,-0.002664285310988586,-0.0023689564687935346,-0.006210140636890004,0.004344192887083763,0.9916579514320578
2013-08-16,-1,-0.0037095550059910685,-0.003304217745992337,-0.004181026451292363,0.004344192887083763,0.9923500337816732
2013-08-20,-1,-0.0029224266452207246,-0.0026120080665017337,-0.004936365180414718,0.004344192887083763,0.9923557460843255
2013-08-22,-1,-0.0024225704816074377,-0.0021743210873695867,-0.005601812669205868,0.0053666437624778785,0.9913419984246915
2013-08-26,-1,-0.0020964413920053666,-0.0019152864204157755,-0.010424576939834163,0.004344192887083763,0.9908193290745317
2013-08-28,-1,-0.0022025979179027587,-0.00204833412958192,-0.008159169518780162,0.007346348685553942,0.9904491890492428
2013-08-30,-1,-0.0024281731905288254,-0.002230051846084231,-0.010153755170825188,0.007959621043373064,0.9897056264179054
2013-09-04,-1,-0.0028461473012897187,-0.0025847262769812915,-0.008257800891047844,0.015293191093372273,0.989128805557722
2013-09-06,-1,-0.0028524316085779605,-0.0025533530485012724,-0.008257800891047844,0.007959621043373064,0.989153769842515
2013-09-10,-1,-0.0028276712690470393,-0.002523421212971093,-0.010611881677925976,0.006858670220226562,0.9891990621522851
2013-09-12,-1,-0.0023563591642961853,-0.002116077487052427,-0.010611881677925976,0.011338150108904268,0.9883697693126232
2013-09-16,-1,-0.0024026885360544873,-0.0021496816560767434,-0.010611881677925976,0.01350024698247657,0.9878503923117479
2013-09-18,-1,-0.0019784591613955568,-0.0017566089262373626,-0.010611881677925976,0.01350024698247657,0.9880570248399689
2013-09-20,-1,-0.001567229699360229,-0.0014080585879376964,-0.008335822639346872,0.014318817375286959,0.988173717168405
2013-09-24,-1,-0.0025638116627341506,-0.0022946783527281484,-0.00445356410665277,0.014318817375286959,0.988038819426456
2013-09-26,-1,-0.00018788743433658785,-0.00016798292594047228,-0.006882513297440119,0.012525139205556065,0.9889966493871252
2013-09-30,0,-6.36566946310463e-05,4.579616010015456e-06,-0.005446637491025204,0.014318817375286959,0.9884429591001842
2013-10-02,1,0.0007357629440259737,0.0009253641338561139,-0.005446637491025204,0.012525139205556065,0.989614377886787
2013-10-04,0,-3.596325350971769e-05,9.285276721266475e-05,-0.005446637491025204,0.012525139205556065,0.9906865813092449
2013-10-08,-1,-0.00023287956069440352,-4.339913116881524e-05,-0.005446637491025204,0.012525139205556065,0.9905396835408955
2013-10-10,1,0.0006751037473680567,0.0010204202134520893,-0.006781951371482773,0.007906320954236153,0.9900254385179441
2013-10-14,1,0.001244054066098092,0.0015618608276370045,-0.007329527978714378,0.004259639999447129,0.9897891058116536
2013-10-16,1,0.0016094978122384296,0.001955201958842724,-0.006780599712696623,0.0024010539715485116,0.9909711211936666
2013-10-18,1,0.0021422028825728292,0.0024799665375965724,-0.006780599712696623,0.002480639362646898,0.9911661477901483
2013-10-22,1,0.0025017527178052322,0.0028232632476796558,-0.006780599712696623,0.0011553848777247553,0.9912592747325
2013-10-24,1,0.0018934683400711747,0.002164732552317911,-0.006780599712696623,0.0016042030328284884,0.9914584416949219
2013-10-28,1,0.002447399478416863,0.0027866387322199233,-0.008107270853712639,0.0007325138305973834,0.9916058866658848
2013-10-30,1,0.0018087922026642043,0.0020137188679860978,-0.009965903723293985,0.0016042030328284884,0.9913174858749233
2013-11-01,1,0.0009136702585823245,0.0009552267088355903,-0.011171386161832966,0.0016042030328284884,0.9916731984222851
2013-11-05,1,0.0001020145580796609,0.00014308677385133745,-0.009965903723293985,0.0035298338899875724,0.9922083467702303
2013-11-07,-1,-0.000868143986502813,-0.0007215983326995626,-0.007400144002557073,0.0041760795721897765,0.992875082043153
2013-11-11,-1,-0.002962180659984363,-0.0024822815149911507,-0.002710769545969765,0.005754047394911921,0.9926712828996298
2013-11-13,-1,-0.0022102591558019243,-0.0018709790994776135,-0.008477185024233499,0.005754047394911921,0.9917344761130907
2013-11-15,-1,-0.00010610410518309798,-8.721439846430591e-05,-0.008477185024233499,0.0038523218891060415,0.9924074744284113
2013-11-19,1,0.00046690711722657065,0.0006136943126287013,-0.008477185024233499,0.00514845362097429,0.9920547481022598
2013-11-21,1,8.710783609249114e-05,0.00019142677158779124,-0.008477185024233499,0.005768777549199239,0.9918187427480504
2013-11-25,-1,-0.0009426011324501931,-0.0008662235951330388,-0.00503369427614012,0.006873183853193684,0.9918802499676412
2013-11-27,-1,-0.00018569277790611246,-0.00010823851742489186,-0.00299898506736823,0.006670448482395938,0.9927163762443452
2013-12-02,-1,-0.0005887339193173049,-0.0005623014573779252,-0.00299898506736823,0.006670448482395938,0.992672323154719
2013-12-04,1,0.00022892120244785193,0.00035625761607235585,-0.00299898506736823,0.006670448482395938,0.9930870218124036
2013-12-06,1,0.0008030239602178119,0.0010374025758196144,-0.002642036632671962,0.005610195199456492,0.9938648647017934
2013-12-10,1,0.0015547845131900157,0.0019232338102392087,-0.002642036632671962,0.005189475771771632,0.9939609117350166
2013-12-12,1,0.00034684244056674225,0.0005696624883839405,-0.0018745388001783578,0.005610195199456492,0.9942600652641745
2013-12-16,1,5.977952066850927e-05,0.00018842704684906506,-0.0013761676722314875,0.006670448482395938,0.9939361371913781
2013-12-18,1,0.0005660460257921097,0.0007688459234766754,-0.0013761676722314875,0.006670448482395938,0.9942350705193442
2013-12-20,1,0.00020413018931143064,0.0003392206439171997,-0.0009300787417352842,0.006670448482395938,0.9948872268404395
2013-12-24,0,-4.631741958386606e-07,3.450702026781259e-05,-0.0013761676722314875,0.0064060684548084,0.994780709455341
2013-12-27,1,4.345942407641768e-05,7.354200623932426e-05,-0.0013761676722314875,0.006503647733493317,0.9944475930939913
2013-12-31,-1,-0.0002056492731823076,-0.00018871111541085366,-0.0013761676722314875,0.007495068959544779,0.9932459887144561
2014-01-03,1,0.0004474951988973092,0.0005431958945334304,-0.0028016440954435604,0.007495068959544779,0.9927601897346356
2014-01-07,1,0.00010586795144700086,0.00011527484918214638,-0.0028016440954435604,0.008774898455320427,0.9917495917479326
2014-01-09,-1,-0.0008690693423543514,-0.0006963662777887419,-0.001467253914035823,0.010616465950313817,0.9901299990709305
2014-01-13,-1,-0.00047800715319345637,-0.00038443279799698363,0.00051588355212653,0.009857460922006709,0.9910998280435963
2014-01-15,-1,-6.498118845548381e-05,-2.5333193478375814e-05,4.489071880471906e-05,0.009857460922006709,0.9916750023942643
2014-01-17,1,0.00026919746772730637,0.000270185880295299,4.489071880471906e-05,0.009857460922006709,0.9918808464283293
2014-01-22,1,0.00033404678147175624,0.00034895521917884935,-0.00018434385465193977,0.009857460922006709,0.9922235404387408
2014-01-24,-1,-7.531391470409933e-05,-1.863604372276406e-06,-0.0008125384627801379,0.009857460922006709,0.9921307431455948
2014-01-28,-1,-0.0001437917968246721,-4.705197695057669e-05,-0.0008125384627801379,0.010616465950313817,0.9919432222403642
2014-01-30,1,0.0006024355648363847,0.0006051835265292573,-0.0008125384627801379,0.00800146005925704,0.9929059847992807
2014-02-03,1,0.0006571609049080094,0.0006954504666828247,-0.00018434385465193977,0.007284766309286785,0.9937181657205898
2014-02-05,1,0.0013714176165420104,0.0015034739397342969,-0.002798561771160661,0.007114459023580773,0.9941422397645642
2014-02-07,1,0.0024023132242169693,0.0026690660484663094,-0.004790308263920906,0.0046754760793577,0.9943339109793239
2014-02-11,1,0.003076485921841478,0.0034725726326462407,-0.004790308263920906,0.004600971323289802,0.9942569791201361
2014-02-13,1,0.002999698393813238,0.0033769042798407023,-0.004790308263920906,0.004600971323289802,0.994310478244627
2014-02-18,1,0.0026233397979947217,0.0028877567101121674,-0.004790308263920906,0.0038342824785853337,0.9943846438772505
2014-02-20,1,0.0029676921482794942,0.003307003720426325,-0.006232013497134071,0.004948228422315244,0.9929071783370685
2014-02-24,1,0.0025550120518061615,0.0028261292900702084,-0.006232013497134071,0.004948228422315244,0.9932809052690886
2014-02-26,1,0.0031060835203581966,0.00350439371343364,-0.0069213639301557005,0.004948228422315244,0.9926059486683477
2014-02-28,1,0.0019699128947148455,0.0021471497056277447,-0.006232013497134071,0.00614564737427468,0.9929053250665278
2014-03-04,1,0.002385601792155044,0.0026142846417604544,-0.006232013497134071,0.004948228422315244,0.9926426375883847
2014-03-06,1,0.001963594529294615,0.002170021131529687,-0.001987686169188058,0.004948228422315244,0.9934055817271739
2014-03-10,1,0.00140074381154241,0.001547914132739716,-0.0007052257389899428,0.004948228422315244,0.9940869199628906
2014-03-12,1,0.0019906332172387694,0.0022375636497448067,-0.0012177647878680805,0.005701301411108547,0.9938735230592801
2014-03-14,1,0.0025493293722354997,0.002945934377113107,-0.0027285767804509325,0.005701301411108547,0.9924786274114644
2014-03-18,1,0.003110040379766208,0.003610870010427786,-0.0027285767804509325,0.00985724162315254,0.9922109779456372
2014-03-20,1,0.002254116686736734,0.0026154961707612074,-0.0027285767804509325,0.005640645891677492,0.9934962121306249
2014-03-24,1,0.0024583300574303095,0.0028821003803529343,-0.002038483986428516,0.006282925566545447,0.9935706446160613
2014-03-26,1,0.002039463522897705,0.002397982390496555,-0.002038483986428516,0.0051817646948634265,0.9946912940213781
2014-03-28,1,0.0020343255074616465,0.002361553791430929,-0.002038483986428516,0.0051817646948634265,0.9947947099960722
2014-04-01,1,0.0019338494893358046,0.0021947450828986134,-0.0028750724656201035,0.004799566343123605,0.9951747185204268
2014-04-03,1,0.0016422319229574033,0.0018222569697217206,-0.0028750724656201035,0.0051817646948634265,0.9947627549705029
2014-04-07,1,0.001408772782269562,0.001514678533790646,-0.0028750724656201035,0.0057175121074248235,0.9945904013610318
2014-04-09,1,0.0016062280155454503,0.001733891343862957,-0.002597979078848087,0.0057175121074248235,0.9943467229281662
2014-04-11,1,0.0009601428564129516,0.001035088726467502,-0.0010111739840789123,0.0057175121074248235,0.9953577484271972
2014-04-15,1,0.0013059288127011412,0.0014195312406730743,-0.0017033636611508422,0.0053261813897533,0.9951393845928054
2014-04-17,1,0.0008514689413088037,0.0008708826929165096,-0.0010111739840789123,0.0057175121074248235,0.9947271833398728
2014-04-22,1,0.0008754229864329699,0.0008899664228098019,-0.0010111739840789123,0.0057175121074248235,0.9949448766400762
2014-04-24,1,0.0008600437830960368,0.0008693336449166277,-0.0017033636611508422,0.005651750880184721,0.9941980643004414
2014-04-28,1,0.000750507878194262,0.0008011118211248068,-0.0017033636611508422,0.005651750880184721,0.9941648618902205
2014-04-30,1,0.0011274216715314038,0.0011653691155429089,-0.0017033636611508422,0.005651750880184721,0.9941662842577944
2014-05-02,1,0.0013331271944816816,0.0014096747210665403,-0.0008338581875078344,0.005651750880184721,0.9942721264026684
2014-05-06,1,0.001670351140829956,0.001811000646126982,-0.0008338581875078344,0.005057930669605726,0.9946355897021119
2014-05-08,1,0.0012916309253549808,0.0013044116093779983,-0.0009093567490861094,0.005057930669605726,0.9943564393915276
2014-05-12,1,0.0013546623269252752,0.001373747594895675,-0.005213259023841737,0.004940161703639636,0.9938051423379354
2014-05-14,1,0.0007790972186250303,0.0008504276559010997,-0.005081895176191135,0.004940161703639636,0.994131298959972
2014-05-16,1,0.0008846106677318365,0.0009599590309146786,-0.005450580950479972,0.004726370236133957,0.9941688121890813
2014-05-20,1,0.0009933150633455673,0.001045349922100021,-0.005450580950479972,0.004726370236133957,0.9940348116937225
2014-05-22,0,-0.00010091385367921326,7.647739995060945e-05,-0.005081895176191135,0.004940161703639636,0.9945430494648011
2014-05-27,1,0.00024242433381976765,0.0003935756638446968,-0.005081895176191135,0.00461282198247393,0.9951230262409625
2014-05-29,1,0.00033759675019178446,0.00044857167421917017,-0.0037572852999229944,0.004738256523559593,0.9951661028694919
2014-06-02,1,0.0008153553565323273,0.0008776286475716638,-0.0037572852999229944,0.00461282198247393,0.995001486821731
2014-06-04,1,0.0006122507774687527,0.0007110693945186874,-0.0037572852999229944,0.00461282198247393,0.9948496690451815
2014-06-06,1,0.0002002346054387151,0.00036893721174067725,-0.0037572852999229944,0.004354012668205348,0.9953283847613876
2014-06-10,-1,-0.0003777486421895819,-0.0001586391477216355,-0.0018780926186893572,0.004354012668205348,0.9958677797099863
2014-06-12,-1,-0.0007179361656852745,-0.00047414932625592103,-0.0015881927913538251,0.004354012668205348,0.9958073274491477
2014-06-16,-1,-0.0007647620120147742,-0.0005290724503238427,-0.001417259694784957,0.004732251553893879,0.9956405245295907
2014-06-18,-1,-0.0007090612212196322,-0.00046033482621817153,-0.001417259694784957,0.004732251553893879,0.9959891319520287
2014-06-20,-1,-0.00024347644541206526,-4.764499162653458e-05,-0.0015881927913538251,0.004326200752142489,0.9962004088308399
2014-06-24,0,-0.00016636887988553744,2.130176295220233e-05,-0.0014799968014834186,0.0046488158057053025,0.9958967058602854
2014-06-26,-1,-0.0003781826516225603,-0.00016048644025346763,-0.0018780926186893572,0.004648393611715635,0.995800989551485
2014-06-30,1,0.00038914525323497685,0.0004780625748571697,-0.0013496975272385397,0.004648393611715635,0.9962595519260715
2014-07-02,1,0.0011179191635979453,0.001164919811702592,-0.0014089103846560422,0.004905510879183589,0.9930971393283556
2014-07-07,1,0.001153008435955435,0.0012327587115820858,-0.0006783533244523564,0.005300111664173136,0.9929807667918427
2014-07-09,1,0.0011274201910446919,0.0012128917611936652,-0.0014089103846560422,0.005300111664173136,0.992552735416838
2014-07-11,1,0.0009110203028719998,0.0009803219839124126,-0.0012288198893774375,0.005300111664173136,0.9929425136902067
2014-07-15,1,0.0014043181227323266,0.0015423154162534348,-0.0018797380842439928,0.004571864565056252,0.9930872779573635
2014-07-17,1,0.0012516084383995757,0.0013542300468357017,-0.0028683619360627194,0.004905510879183589,0.9923453267169079
2014-07-21,1,0.001306065593575601,0.001434008491752955,-0.0018797380842439928,0.005300111664173136,0.9922264192189637
2014-07-23,1,0.0013093118879239443,0.00141497868975415,-0.0018797380842439928,0.004905510879183589,0.9923954920972926
2014-07-25,1,0.0016981499599975896,0.0018949834605257601,-0.002328090450226905,0.004016588925885535,0.9920956457932464
2014-07-29,1,0.001541070014567202,0.0016811751466245255,-0.002328090450226905,0.0029228129647373403,0.9923656603690714
2014-07-31,-1,-0.001098187109869978,-0.0008837205463976511,-0.001461523606606437,0.002364690085514002,0.995562710978555
2014-08-04,-1,-0.00024381303118836873,-0.0001450290132679715,-0.001461523606606437,0.002364690085514002,0.9962602184879272
2014-08-06,-1,-0.0006337710870025553,-0.0004970287912380137,-0.001461523606606437,0.0028512973058987838,0.9960926409601737
2014-08-08,-1,-0.0006087447898976014,-0.0004762932902988258,-0.0009677464335678021,0.0035312443138236413,0.9954088024863031
2014-08-12,-1,-0.0012764744530139533,-0.0010332058625946803,-0.002089966467867954,0.0035312443138236413,0.9942403242201716
2014-08-14,-1,-0.0009766043501404644,-0.0007723406919352119,-0.0023929051905805356,0.0028512973058987838,0.9934505562304806
2014-08-18,-1,-0.0007524167040397695,-0.0005436524687399579,-0.005486874792933153,0.0028512973058987838,0.9933610143139668
2014-08-20,-1,-0.0004991219115883315,-0.00033240787278567083,-0.007316320321833368,0.0018954550892062588,0.9927498930811506
2014-08-22,-1,-0.0005888519975493908,-0.00043318876734226193,-0.0077905538411506305,0.0018954550892062588,0.9926475365153595
2014-08-26,-1,-0.0004452687154621083,-0.000314748524517009,-0.007980098877356132,0.0004111111250518071,0.9921642670209135
2014-08-28,-1,-0.00043177574789487306,-0.00030877341711294643,-0.007980098877356132,0.0020982655389016926,0.9915026693360555
2014-09-02,-1,-0.00015034029570394047,-7.613574564542571e-05,-0.007980098877356132,0.0008690669435101896,0.9912657736065177
2014-09-04,-1,-0.0010382343397146198,-0.0008086453358335636,-0.007980098877356132,0.0013173394005493511,0.9915368729938925
2014-09-08,-1,-0.00026184763197658435,-0.00014340836960583463,-0.007980098877356132,0.0007600319102908972,0.9918326608632528
2014-09-10,-1,-0.001539149339018048,-0.0012671058433357302,-0.007595796851473574,0.002150766767340399,0.9920181517578065
2014-09-12,-1,-0.0030533583701074394,-0.0026245585799023006,-0.007505002936094367,0.002150766767340399,0.993445436943244
2014-09-16,-1,-0.00280858928490272,-0.002410592404962487,-0.006897690857343064,0.002370647460448354,0.9930944999971013
2014-09-18,-1,-0.003488928481145849,-0.0030429452440181286,-0.00608476512999578,0.002370647460448354,0.9936342440243077
2014-09-22,-1,-0.0037430830465300952,-0.0032707822657377056,-0.0049804927926957185,0.005866127073312008,0.9928418797405673
2014-09-24,-1,-0.003911802609896355,-0.0034201606943811552,-0.0041338186465918894,0.00857554572043306,0.9924221540735619
2014-09-26,-1,-0.0031312779440086187,-0.0027493554491414694,-0.004616032055544004,0.00857554572043306,0.9928094300493716
2014-09-30,-1,-0.0032651992386105054,-0.002900993618277713,-0.0025391672879861347,0.00904514242294583,0.9921755227154367
2014-10-02,-1,-0.002593961459972224,-0.0023266500285180694,-0.0041338186465918894,0.00904514242294583,0.9928143622663583
2014-10-06,-1,-0.002644005809811647,-0.0023326453866701234,-0.0041338186465918894,0.010165299632793551,0.9918305812864819
2014-10-08,-1,-0.0017385571232450196,-0.0015647601374451786,-0.0041338186465918894,0.00904514242294583,0.9933006147533424
2014-10-10,-1,-0.002057431684536085,-0.001854646911244277,-0.0025391672879861347,0.00904514242294583,0.993271553322144
2014-10-14,-1,-0.001631495007499263,-0.0014353023556409599,-0.0025391672879861347,0.00904514242294583,0.9937499160372198
2014-10-16,-1,-0.001466996774139092,-0.0013167890040506512,-0.0025762506298868428,0.010165299632793551,0.992778489863985
2014-10-20,-1,-0.0007464139574917126,-0.0006778897136619715,-0.004700847989345297,0.010165299632793551,0.9928549656865875
2014-10-22,-1,-0.000150498350265208,-0.00011954194773200698,-0.004903891451018825,0.010579508429871699,0.9921115392336114
2014-10-24,1,6.556736538689399e-05,0.00013003675942939888,-0.004700847989345297,0.010216925231862652,0.99240019629897
2014-10-28,1,0.00033734605023585826,0.0004290616870798641,-0.004700847989345297,0.008428673594233212,0.9925529097360605
2014-10-30,1,3.961200705675062e-05,6.442825140016391e-05,-0.002558822468833332,0.008428673594233212,0.9923905773093888
2014-11-03,1,0.00073460948693167,0.0008350275213185244,-0.005924740473849622,0.0068485160959395105,0.9927804418002228
2014-11-05,1,0.00045941289113962647,0.0005169693584856463,-0.0048573099251236675,0.0068485160959395105,0.9926832742043984
2014-11-07,1,0.00024877100238019484,0.000294922344324807,-0.004786886965548827,0.008428673594233212,0.992176248729215
2014-11-11,1,0.0009198094072002004,0.001081041829933326,-0.004786886965548827,0.007907935211310536,0.992602493483464
2014-11-13,1,0.0007744787835284134,0.0009167789177496281,-0.004004650538845282,0.00769046873737547,0.9929911197999867
2014-11-17,1,0.0008020761536653381,0.0009573035004481212,-0.004004650538845282,0.0068485160959395105,0.9932803468935094
2014-11-19,1,0.0012878871765836916,0.0015177803876656327,-0.0028690690472067126,0.0068485160959395105,0.9934234005339908
2014-11-21,1,0.001656711472018521,0.001938140632611972,-0.0028690690472067126,0.006878881783363699,0.9930068525802203
2014-11-25,1,0.0019172748502755519,0.0022216175135269297,-0.002893543475734347,0.006878881783363699,0.9930265462375439
2014-11-28,1,0.0022972041436547554,0.002657342992744419,-0.002893543475734347,0.005586665249069514,0.9930162718109686
2014-12-02,1,0.00162056886272713,0.0018752233181324207,-0.00308944439091069,0.005586665249069514,0.9927517351694733
2014-12-04,1,0.0018775053489709951,0.0021976886569460225,-0.0032146211218687516,0.007999032273583104,0.9919912148405604
2014-12-08,1,0.0018911990256069806,0.0022256515706478557,-0.0028208322168212932,0.009598184683295386,0.9917745796271954
2014-12-10,1,0.002115491089131746,0.0024734504608406324,-0.0028208322168212932,0.008945785261490188,0.9921366190947938
2014-12-12,1,0.002145459341404558,0.0025423993390423635,-0.0028208322168212932,0.013678950334141385,0.9909879965929488
2014-12-16,1,0.0017696406973137064,0.002109399255148329,-0.0013796694400217341,0.013678950334141385,0.9912699110030252
2014-12-18,1,0.002821056484094417,0.0033248577317960513,-0.0028208322168212932,0.010550115541710547,0.9914354714171703
2014-12-22,0,0.0,0.0,-0.0028208322168212932,0.010431381537940132,0.9910096034145123
2014-12-24,1,0.0026066354696605808,0.0029961269713546365,-0.001444969745080515,0.010431381537940132,0.9917178460802473
2014-12-29,1,0.0025298992798003777,0.002891008538960403,-0.0032146211218687516,0.010431381537940132,0.9912168887423299
2014-12-31,1,0.0016662946520650157,0.0019088764482147838,-0.0051598089486382635,0.010431381537940132,0.9906334569919711
2015-01-05,1,0.002142126512220181,0.002440622736035934,-0.005131322787200415,0.009427200405094743,0.9915253517554575
2015-01-07,1,0.0032991306930191173,0.0037650916238919302,-0.009909799777234756,0.006836939814878576,0.9912690016263971
2015-01-09,1,0.0038233372320897246,0.004383848438535832,-0.012400920844035714,0.005616725371453796,0.9885358364591952
2015-01-13,1,0.00421732812533662,0.004838883591004528,-0.012400920844035714,0.0035208188335627316,0.989586570584827
2015-01-15,1,0.004264564867012818,0.004868524596612211,-0.012400920844035714,0.0035208188335627316,0.98906535309116
2015-01-20,1,0.0041069731333363176,0.004693966914919137,-0.009970011971891037,0.0035208188335627316,0.989398375470848
2015-01-22,1,0.004687315318981099,0.005349859658004553,-0.0127166674506754,0.0019055370736976805,0.9880948893709346
2015-01-26,1,0.004953451987693678,0.005656785247922328,-0.014396188290247924,0.0002816596688454466,0.9867714101989238
2015-01-28,1,0.00438418328519663,0.004996175926424369,-0.015673656397902073,0.0019055370736976805,0.9868398540138901
2015-01-30,1,0.0033608571417001226,0.0038691927282723288,-0.014396188290247924,0.004812659261504962,0.9888638579613886
2015-02-03,1,0.00265401553565717,0.0029976306951924516,-0.014396188290247924,0.004812659261504962,0.9891184962992139
2015-02-05,1,0.001101695570295953,0.001145066006820056,-0.01501528964910412,0.004812659261504962,0.9889697587123482
2015-02-09,-1,-0.0007176138104194417,-0.0005269159400857322,-0.0055329142121279965,0.007388983219898448,0.9909171291923298
2015-02-11,-1,-0.0014179424734096166,-0.00110122660445608,-0.003620312761565321,0.009215222914570402,0.9895395331335516
2015-02-13,-1,-0.0016694772419332826,-0.0012967705600707945,-0.0008480547120698069,0.009215222914570402,0.9893162498586547
2015-02-18,-1,-0.001456466972666639,-0.0010712063284036564,-0.0008480547120698069,0.010764627100195647,0.9887566990451465
2015-02-20,-1,-0.001517372001416029,-0.001145251582539932,-0.0008480547120698069,0.011725433627610093,0.9886461935174209
2015-02-24,-1,-0.002670641391819973,-0.002130201710661578,-0.002474381503104553,0.011725433627610093,0.988441178802978
2015-02-26,-1,-0.003247363254620137,-0.0026581320508998144,-0.0026891811200659586,0.011725433627610093,0.9886344925185642
2015-03-02,-1,-0.0024740983429076806,-0.0019805421802556048,-0.0026891811200659586,0.014363203026362905,0.9890911982042198
2015-03-04,-1,-0.0023612726305955395,-0.001900697117178389,-0.003828282788855351,0.014363203026362905,0.9889180291318976
2015-03-06,-1,-0.0038564428574545655,-0.0031882202565021696,-0.0026891811200659586,0.014363203026362905,0.9888811987188343
2015-03-10,-1,-0.002944365954326294,-0.0024135857403487387,-0.003828282788855351,0.014363203026362905,0.9888334725499109
2015-03-12,-1,-0.0023100076176415384,-0.0018468119917226281,-0.005884073498044719,0.011533484835475519,0.9893004600279288
2015-03-16,-1,-0.0011898649850590843,-0.0008997610960426992,-0.008557742544291444,0.009049242451348161,0.9893864164094801
2015-03-18,1,0.00010101243990507449,0.00022735965819368413,-0.011243817174115777,0.008434300080181385,0.9897900283502898
2015-03-20,1,0.0009396877769255801,0.0009654589712212157,-0.011243817174115777,0.008218794403836393,0.9907731866365322
2015-03-24,1,0.0002801276602526651,0.0003668546075156553,-0.008686272693389322,0.008434300080181385,0.9909627174033577
2015-03-26,-1,-0.0007605971554191204,-0.0005447802434710947,-0.005870058021927712,0.008434300080181385,0.991346438584914
2015-03-30,1,0.00039329242099180603,0.0004303320480397709,-0.005870058021927712,0.008218794403836393,0.9920036679314406
2015-04-01,0,-4.316634272975872e-05,6.67644911475221e-05,-0.011739309176579343,0.008218794403836393,0.991050331676664
2015-04-06,1,0.00037995735893512765,0.00046773076412089966,-0.011739309176579343,0.008246452884891939,0.9903868170767172
2015-04-08,1,0.00020948638718896418,0.0002905504362164198,-0.011739309176579343,0.006838553604832237,0.9901485390905538
2015-04-10,-1,-0.0011462614559538038,-0.000890770344056632,-0.006119078599957165,0.009100238352559771,0.9903127998835216
2015-04-14,-1,-0.001533241589944684,-0.0012379493901645642,-0.006228980155127098,0.009100238352559771,0.9900779846813823
2015-04-16,-1,-0.0016472992720122613,-0.0013344112760733467,-0.006502922341633545,0.010655336764065724,0.9894327226507577
2015-04-20,-1,-0.0014268694613653377,-0.001164972115631518,-0.006502922341633545,0.011354152105915187,0.9889669022965538
2015-04-22,-1,-0.000505868294709494,-0.0003673483674480839,-0.006502922341633545,0.010655336764065724,0.9899682488339018
2015-04-24,-1,-0.00023444689502147162,-0.00014518660722596726,-0.004561932749121721,0.010655336764065724,0.9903116090902867
2015-04-28,-1,-0.0006646717573481619,-0.0004915708802351676,-0.010982014437324073,0.010812259487614535,0.9893947122940437
2015-04-30,-1,-0.0018705945003697814,-0.0015565767541832359,-0.0032468412142418425,0.010812259487614535,0.9894913773203371
2015-05-04,-1,-0.0005655642276795758,-0.00040902788826514835,-0.010729750702711115,0.010812259487614535,0.9902025411564799
2015-05-06,-1,-0.001444206586662655,-0.0011990121862808455,-0.010729750702711115,0.010812259487614535,0.9903387035148979
2015-05-08,-1,-0.00035700843972509967,-0.00023895949963495267,-0.010729750702711115,0.003148894799510198,0.9913987213881917
2015-05-12,-1,-0.001525911335036907,-0.0012443174902811295,-0.010361184276052891,0.004013403448463106,0.9917058165652435
2015-05-14,-1,-0.0008966795523625425,-0.0007544260992535894,-0.0085989988375421,0.00400358447435428,0.9929106623936786
2015-05-18,1,7.486603449381637e-05,9.445414237982668e-05,-0.009030859488192381,0.00400358447435428,0.9928192921690778
2015-05-20,1,4.591676131537515e-05,5.611347901968178e-05,-0.009030859488192381,0.006257260256626362,0.9920783321082817
2015-05-22,1,0.00018918576500061643,0.0002304987563688791,-0.009030859488192381,0.006257260256626362,0.9918936700762969
2015-05-27,-1,-0.00019419446686320138,-0.00013923722218656866,-0.008191143649030522,0.00389684706889795,0.9925276393371413
2015-05-29,-1,-0.0003124044706003076,-0.0002766236866992473,-0.008191143649030522,0.006257260256626362,0.9924057994240064
2015-06-02,1,0.0001603718165936583,0.0002412493626739083,-0.008166065156034972,0.0031706919666107313,0.9930191686495625
2015-06-04,-1,-0.0001608819787837314,-0.00011299850872945736,-0.007897710981309305,0.0063798851646435,0.9924498202976789
2015-06-08,0,-4.9125288745291445e-05,1.900561913186909e-05,-0.0069894549759208936,0.007101556066764772,0.9922630558488806
2015-06-10,1,3.059367062433816e-05,0.00013837770727286296,-0.006727708285178572,0.00753888877790176,0.9924372153765548
2015-06-12,1,0.000392694767535995,0.0005445280242974704,-0.007062644536580854,0.00753888877790176,0.992170405176708
2015-06-16,1,0.0007493155312440628,0.000996446457442308,-0.006727708285178572,0.00753888877790176,0.9926523922302313
2015-06-18,1,0.001444524083947538,0.0017981557296983662,-0.006727708285178572,0.00753888877790176,0.9929431627112184
2015-06-22,1,0.0011324484956508004,0.001425623333037251,-0.006587855683129393,0.008238647719887492,0.9930947788496512
2015-06-24,1,0.00032429255215659183,0.0004466617498856868,-0.006612252203349381,0.008238647719887492,0.9927285964587469
2015-06-26,1,0.0003824448985509559,0.0005151926057144712,-0.00251598425839754,0.007475752383893382,0.9934918721406738
2015-06-30,-1,-0.0004942210366623736,-0.0004661977649722414,-0.0011606776083339324,0.007475752383893382,0.9937363087433816
2015-07-02,-1,-0.0003227772882169744,-0.000230071923085952,-0.0011606776083339324,0.007475752383893382,0.9930297973082451
2015-07-07,1,0.00010590115544298779,0.00015226326970543038,-0.002084962573403617,0.007475752383893382,0.9928082155395144
2015-07-09,1,0.000149171664729571,0.00018685684656488533,-0.002084962573403617,0.00872007797191782,0.9925268629279618
2015-07-13,1,0.00015281331387727526,0.00016621466006666734,-0.0011606776083339324,0.00872007797191782,0.9927664842455697
2015-07-15,1,0.00021072075753613307,0.00022952464700504133,-0.0011606776083339324,0.00872007797191782,0.9927220474046726
2015-07-17,1,0.0001243501244490994,0.00018747712868599865,-0.0011606776083339324,0.008745536922262077,0.9925682501169855
2015-07-21,1,5.530328410591781e-05,0.0001605259090573671,-0.0011606776083339324,0.010507977962550817,0.9921342368590458
2015-07-23,-1,-0.00012182938784957586,-2.694583866341395e-05,-0.002084962573403617,0.010507977962550817,0.9918283663497233
2015-07-27,-1,-0.0003135516038226258,-0.00022045168587525523,-0.008759136733369335,0.010507977962550817,0.9887804946019746
2015-07-29,-1,-0.001049531557837804,-0.0007625224038085078,-0.009116874963118981,0.01143727728899867,0.9872708643901832
2015-07-31,1,0.0009526751511699357,0.0009894268317410823,-0.009116874963118981,0.010507977962550817,0.9882804654465258
2015-08-04,1,0.0013711405715813767,0.0014688632726062687,-0.010583954864735326,0.008718352146947713,0.9872164451508153
2015-08-06,1,0.0017185708702834497,0.00190336553764862,-0.010583954864735326,0.007534199570404987,0.9877014914092012
2015-08-10,1,0.0025287326490111397,0.002881644661978245,-0.01413564011296405,0.006828482749729653,0.9867958933414219
2015-08-12,1,0.0025545631054581476,0.0030966520136315634,-0.01413564011296405,0.007538582108276104,0.9862569694027126
2015-08-14,1,0.0033096294104484024,0.0037709401661299158,-0.01413564011296405,0.007538582108276104,0.9857915926660091
2015-08-18,1,0.0035294970513913984,0.003971305965859789,-0.01413564011296405,0.008699176818599923,0.9854805029631785
2015-08-20,1,0.003051638315360795,0.003452916483705709,-0.01413564011296405,0.011565429689569407,0.9861782805265256
2015-08-24,1,0.0011567333581328084,0.0012900413230471088,-0.012536478520026083,0.011565429689569407,0.9880006070723272
2015-08-26,1,0.00134826558435579,0.0015503540307346161,-0.012536478520026083,0.011565429689569407,0.9881351797703998
2015-08-28,1,0.002214495538836069,0.0025155353769822793,-0.014338014810306629,0.008699176818599923,0.9886132040043107
2015-09-01,1,0.0007039363517077043,0.0007198471308117318,-0.0049340062717159764,0.012000030383166514,0.9888339006643896
2015-09-03,1,0.0007367319425184483,0.0007488535799808477,-0.004126875315902931,0.014773350926603729,0.988040427053734
2015-09-08,1,5.277199056485829e-05,0.00013191497213655245,-0.004126875315902931,0.014773350926603729,0.9883185635743499
2015-09-10,-1,-0.00015665471212648646,-5.470265501973903e-05,0.000163194519665529,0.014773350926603729,0.9885732729495801
2015-09-14,1,0.0010006877534502105,0.0010730171782245227,-0.0002824397293290325,0.012000030383166514,0.9899919403009639
2015-09-16,1,0.0019283174788415098,0.0021201194050268304,-0.01262675273193945,0.011023533751893314,0.9897840590422224
2015-09-18,1,0.002476058447137943,0.0027327320782198467,-0.01262675273193945,0.011023533751893314,0.9892788450595487
2015-09-22,1,0.0017205046374985397,0.0017984021369770225,-0.004043186092298208,0.012534837331349673,0.9893025762072613
2015-09-24,1,0.002321596475539966,0.0025488713155190352,-0.0028036109273883595,0.011023533751893314,0.990461800119477
2015-09-28,1,0.0013509980374412883,0.0014007950616414197,-0.00011480324033546913,0.011023533751893314,0.9912095873055093
2015-09-30,1,0.0027861956969005485,0.0030832024263377066,-0.002300701460407669,0.007331622581586152,0.9919851862032242
2015-10-02,1,0.0036940131186315,0.004046607035569598,-0.007505398315536525,0.005229277090100656,0.9901698248916709
2015-10-06,1,0.0027782810883727645,0.0030333242361584695,-0.007505398315536525,0.007331622581586152,0.9899072072458249
2015-10-08,1,0.003389095433260116,0.003747077664440688,-0.007505398315536525,0.0044388132349293995,0.9897011100151193
2015-10-12,1,0.0032562442217729253,0.0035980700987477514,-0.00984179023296438,0.0044388132349293995,0.987712617467896
2015-10-14,1,0.002243018384378251,0.0024483889491237203,-0.006838001923873502,0.009527128024645266,0.9890255281164108
2015-10-16,1,0.0030071895497899744,0.0033115726489231175,-0.006838001923873502,0.007547321065730082,0.9897086320542245
2015-10-20,1,0.003474209808895324,0.0038146809688843833,-0.006838001923873502,0.009527128024645266,0.9895305288008149
2015-10-22,1,0.003315234038516497,0.003621310865255537,-0.00497257752828867,0.009527128024645266,0.989953458631186
2015-10-26,1,0.0028352112082070994,0.003027602180323937,-0.00497257752828867,0.009875777627500023,0.9895499069429861
2015-10-28,1,0.002182572954967484,0.002255393885983461,-0.00497257752828867,0.01021082371338266,0.9891460700720094
2015-10-30,1,0.0019673075789202956,0.0019947047367980374,-0.00497257752828867,0.009875777627500023,0.9908380839068377
2015-11-03,1,0.0022147507681867526,0.0022848800174949395,-0.00497257752828867,0.009875777627500023,0.9909846555141587
2015-11-05,1,0.0018481583904616692,0.0018599781346352482,-0.007459081073191987,0.01021082371338266,0.9889782000716303
2015-11-09,1,0.0008634387603115713,0.00095245157212336,-0.004691690246621759,0.01021082371338266,0.9903070032543203
2015-11-11,1,0.001303818075938334,0.0013643413157232247,-0.006112767110240787,0.01021082371338266,0.9907675180140942
2015-11-13,1,0.0007574108621263343,0.0009069078095323734,-0.006112767110240787,0.011063001986297505,0.9902191483995796
2015-11-17,1,0.0017372321717014914,0.0017839480605942903,-0.006112767110240787,0.011063001986297505,0.9907001813990114
2015-11-19,1,0.0015921289180017483,0.0016992639146319504,-0.007079550323485669,0.011063001986297505,0.9902057474991984
2015-11-23,1,0.0024645337458717533,0.0025340209297694573,-0.007079550323485669,0.00902446854657554,0.9907051061010627
2015-11-25,1,0.0026199005789907786,0.0027340435657136498,-0.006112767110240787,0.007411144854139692,0.9916219607122154
2015-11-30,1,0.002372397959269609,0.0024447944370033616,-0.00555709507394835,0.007286931560440584,0.9920048745468506
2015-12-02,1,0.0019190372394960532,0.0019348316460958545,-0.0060651236128123715,0.0066236979076582355,0.9922942316470271
2015-12-04,1,0.002074133541686689,0.00208371887948339,-0.0060651236128123715,0.0066236979076582355,0.9934772801020785
2015-12-08,1,0.001649584455958952,0.0016740300466279692,-0.00566382860828474,0.0066236979076582355,0.993643377258791
2015-12-10,1,0.0014422587158069125,0.0014768324019794193,-0.00566382860828474,0.0066236979076582355,0.9935296408977367
2015-12-14,1,0.0017677110596027142,0.0017976978415249405,-0.006412538422735569,0.004890572909132614,0.9935561873486722
2015-12-16,1,0.002305128535428807,0.002325975225340392,-0.006412538422735569,0.0037322512923873264,0.9938354467910665
2015-12-18,1,0.0012635100172856458,0.0013913352048505567,-0.006412538422735569,0.00511399413945292,0.993559157656702
2015-12-22,1,0.0028967739327204547,0.003033074121034399,-0.006412538422735569,0.00684918190958319,0.9924334529459181
2015-12-24,1,0.002793569808014002,0.0029257313680717883,-0.006412538422735569,0.008744657075580637,0.9910192499798326
2015-12-29,1,0.003105966498063774,0.00328379872229024,-0.007017973080997678,0.008744657075580637,0.9895934617616385
2015-12-31,1,0.002257093639986994,0.0023545985763940855,-0.005490382704557135,0.010924051662257612,0.9899003601528263
2016-01-05,1,0.0024065815789139286,0.002527234961387597,-0.005490382704557135,0.008744657075580637,0.9899512591643632
2016-01-07,1,0.0023372756761619734,0.002507732343221259,-0.012059378827709136,0.008744657075580637,0.9864441277925614
2016-01-11,1,0.0025356355115262307,0.0027632587957533957,-0.012059378827709136,0.008744657075580637,0.9860487888971766
2016-01-13,1,0.001448249226174161,0.0014900970766606957,-0.015422084351293254,0.010924051662257612,0.9857737792676403
2016-01-15,1,0.000531432710501344,0.0006793514023267668,-0.015422084351293254,0.011660763542306133,0.9845623047845742
2016-01-20,-1,-0.0002751134540195698,-2.7708370910743945e-05,-0.011900394915412341,0.01429686574556582,0.9841620614677071
2016-01-22,1,0.0013615440453907312,0.0013679883238124583,-0.011900394915412341,0.01289617768270847,0.9846511762375317
2016-01-26,1,0.0018603557891490293,0.001882681838281365,-0.011900394915412341,0.008531286891166522,0.9851693024168856
2016-01-28,1,0.0005231596910831211,0.0006984284763581765,-0.010271277684836627,0.011850737334775954,0.9860523075289156
2016-02-01,1,0.0006399247401595658,0.0008396109945871241,-0.011900394915412341,0.011850737334775954,0.9839690627302797
2016-02-03,-1,-0.0003919173468023478,-6.235561151545562e-05,-0.010271277684836627,0.011850737334775954,0.9841932317430385
2016-02-05,-1,-0.0025647381656692956,-0.002025842756315473,-0.007966668725117493,0.011850737334775954,0.9869663544805549
2016-02-09,-1,-0.002221741339193762,-0.001771591264192606,-0.006220577406791704,0.011850737334775954,0.9874538389362005
2016-02-11,-1,-0.0017810255450450153,-0.0014119388956591518,-0.004689841451151934,0.012537465477670904,0.987971425412313
2016-02-16,-1,-0.0005580589938322698,-0.00031002699420034274,-0.004689841451151934,0.011359712458304236,0.9895028860106466
2016-02-18,1,0.0010796356905591992,0.0011401535153047772,-0.004689841451151934,0.012537465477670904,0.9897068931157886
2016-02-22,1,0.0011680546689303824,0.001258126495862984,-0.006220577406791704,0.011359712458304236,0.9894914767989105
2016-02-24,1,0.000977114837640919,0.001030111287058311,-0.004460884966574194,0.011359712458304236,0.9900928741232266
2016-02-26,1,0.001666556125522155,0.001756016406524447,-0.004460884966574194,0.01120084216269694,0.9901995516836706
2016-03-01,1,0.0018190964315042827,0.0018895246597063246,-0.001612301663410939,0.01120084216269694,0.992485504258287
2016-03-03,1,0.001978037158295729,0.0020894048201415276,-0.0004150016544260832,0.01120084216269694,0.992751805017911
2016-03-07,1,0.001750890796563126,0.0018327593626566129,-0.0011890033448898778,0.01120084216269694,0.9927613933372853
2016-03-09,1,0.0009912009577667713,0.001064951370098687,-0.0028638692239876255,0.01120084216269694,0.9922184314404358
2016-03-11,1,0.0019462603932627245,0.002039286762793182,-0.0037610307327478215,0.008683070885507068,0.992097955824939
2016-03-15,1,0.0027606864281034885,0.0030146813608418806,-0.004572078095487358,0.007357047121286435,0.9913155696638609
2016-03-17,1,0.0038967636302243112,0.004301246258156945,-0.005237639724391136,0.005872470012834278,0.9902198103648522
2016-03-21,1,0.003111007933031464,0.0033981733289095806,-0.004572078095487358,0.007357047121286435,0.9911807885762894
2016-03-23,1,0.002578803255854939,0.0027740890328842773,-0.008381865252832268,0.007357047121286435,0.9897199470897384
2016-03-28,1,0.0021885230476811493,0.0023304159438321845,-0.0068961253611127885,0.007924907244168342,0.9899516532441828
2016-03-30,1,0.0029739224450033154,0.0032332134664067322,-0.010221832784580078,0.007357047121286435,0.9903170392648898
2016-04-01,1,0.0031418234063776912,0.0034119323844312233,-0.010221832784580078,0.006036023801533178,0.9897070871427182
2016-04-05,1,0.0019482501895894486,0.001970145692147743,-0.010221832784580078,0.007924907244168342,0.9894492542824468
2016-04-07,1,0.0021945003322848917,0.00228345602986609,-0.010221832784580078,0.008386709936163726,0.9885607133714045
2016-04-11,1,0.0017547960659457474,0.0017639947704243821,-0.008832400281425604,0.010038292152114851,0.9887401516249197
2016-04-13,1,0.001431328495619892,0.0014556679625644749,-0.008832400281425604,0.010038292152114851,0.9890774926237491
2016-04-15,1,0.0011549163578394516,0.0011694058719387901,-0.0028991273805582785,0.00948947579876352,0.9905596659681853
2016-04-19,1,0.0016792605694363797,0.0017815494732724272,-0.008832400281425604,0.00981824818935315,0.9895557611158908
2016-04-21,1,0.00017298376239455036,0.00025244825331901903,-0.005816272478669822,0.00981824818935315,0.9899495760475173
2016-04-25,1,0.000761857390254138,0.00077834541265836,-0.006550714063306493,0.00984261852942875,0.9900562164251822
2016-04-27,1,0.00037286587627187256,0.000437548220694283,-0.0050655767259100625,0.01236846710622373,0.9894193209259409
2016-04-29,-1,-0.00014603568695651617,-2.7295694489781644e-05,-0.0036429074132912974,0.014078709569840314,0.9889846332954302
2016-05-03,1,0.0002406109011942254,0.0003351197412420114,-0.0036429074132912974,0.01236846710622373,0.9895264428259952
2016-05-05,1,0.00127074844067145,0.0012839721639921887,-0.006442268969562003,0.009159237448205267,0.9897881126495942
2016-05-09,1,0.0022278133555944466,0.002410463685992406,-0.010133182205955053,0.00854574294921311,0.9893507564093749
2016-05-11,1,0.001754775596821194,0.001920057209999506,-0.006442268969562003,0.00854574294921311,0.9904029247516284
2016-05-13,1,0.0020257682902128852,0.002185619323282762,-0.006442268969562003,0.006977564034255852,0.9898474018829752
2016-05-17,1,0.001545148611469723,0.0016487555657068603,-0.0050655767259100625,0.006985687480947718,0.9908523161224072
2016-05-19,1,0.0008007400014572643,0.000815110531014617,-0.003788365253969443,0.008289372401758447,0.9914890225556295
2016-05-23,1,0.0011183185777445847,0.001204999890536868,-0.0033008461541845415,0.006687609018773579,0.9919597994313678
2016-05-25,1,0.0012678387874145167,0.0013286165873753332,-0.003012289251039066,0.004211103901421285,0.9929786227670099
2016-05-27,1,0.001606720792419741,0.0017141994839459502,-0.003788365253969443,0.004211103901421285,0.9923466595919468
2016-06-01,1,0.0016136901780884163,0.0016976766156080426,-0.003788365253969443,0.006656219445727619,0.9917783908491715
2016-06-03,1,0.0004246054462642047,0.0005001473324817828,-0.0021726798450292365,0.009167035431490122,0.9921278607507052
2016-06-07,-1,-0.000938676934190997,-0.0006721106346547897,-0.0008736672025339764,0.011032185678155943,0.9916977266255858
2016-06-09,-1,-0.0006521799047288138,-0.0004441563268700676,-0.002955587440200113,0.011032185678155943,0.9913253523426149
2016-06-13,-1,-0.0003098743426546141,-0.00012013459958411341,-0.0021726798450292365,0.009167035431490122,0.9923419552477086
2016-06-15,1,0.0005234444589401955,0.0005831801034682134,-0.004493044026379664,0.008178621516339225,0.9921016253489746
2016-06-17,1,0.0012779962138132358,0.0013870256352232332,-0.004493044026379664,0.006843547022482537,0.9923472484302168
2016-06-21,1,0.0005654568272894106,0.0006147620669077099,-0.004493044026379664,0.008838121746027688,0.9919849910764074
2016-06-23,1,0.0011661999421323653,0.0012214022501208471,-0.004493044026379664,0.009307567041029727,0.9915823389890784
2016-06-27,1,0.0009752452902812164,0.0009830881804515164,-0.004493044026379664,0.008838121746027688,0.9924714227262621
2016-06-29,0,-0.0001452524206760899,0.00011904103594375965,-0.0051213806000908624,0.006704071684757934,0.9928912501522456
2016-07-01,1,0.00026925471431198046,0.0005088828884450898,-0.0051213806000908624,0.004045157104402743,0.9924887752675146
2016-07-06,1,0.0008537032783141402,0.0010432031778513928,-0.007710151760125211,-0.0005638757278158568,0.9918499775830311
2016-07-08,1,0.0008256117894520032,0.0009531301609583308,-0.006464405027089575,0.0012873147843973217,0.992366693163291
2016-07-12,1,0.0017033486600827852,0.0017307479466068196,-0.006464405027089575,0.0004106748891738298,0.9921056175837154
2016-07-14,1,0.0009494187634414658,0.0009883930898126644,-0.006464405027089575,0.0004106748891738298,0.992821172376903
2016-07-18,0,-0.00018748805917636116,2.149680094846128e-05,-0.007692938855032884,0.0016518514593749573,0.9910683432234421
2016-07-20,1,0.000396982959018096,0.0005851604540740165,-0.012205683376913072,0.0016518514593749573,0.989241263031119
2016-07-22,1,0.0009831898402875808,0.0010856030957037044,-0.012205683376913072,0.0012706835893966466,0.9890755888376428
2016-07-26,1,0.0004239580720139395,0.000590903225228025,-0.012205683376913072,0.0012706835893966466,0.9896866515937098
2016-07-28,-1,-0.0006528758261078713,-0.00034767083994251215,-0.011911669757232443,0.0031382675351105008,0.989699418137717
2016-08-01,1,0.0001801321322098204,0.00038888901924834013,-0.011911669757232443,0.0031382675351105008,0.9900000040917526
2016-08-03,-1,-0.0006865842329042308,-0.0004023358375034239,-0.006741751532850693,0.0031382675351105008,0.9911077741529957
2016-08-05,-1,-0.00031366601776714354,-0.00010447729852182137,-0.006741751532850693,0.006918420437906449,0.9903995807753162
2016-08-09,1,0.0006919953049421496,0.0006946754397261375,-0.006741751532850693,0.006918420437906449,0.9899790909268347
2016-08-11,-1,-0.0005944002944785183,-0.00041716748690894825,-0.006741751532850693,0.006918420437906449,0.9894429867300408
2016-08-15,-1,-0.0019066308192554672,-0.0015692785060675953,-0.006741751532850693,0.007303179634805533,0.9903512422026474
2016-08-17,-1,-0.002556769771509546,-0.0021459492961653087,-0.005826219917682012,0.007303179634805533,0.991817986904806
2016-08-19,-1,-0.0021824854072084697,-0.0018596742243177618,-0.0054087223187500675,0.009239107783727402,0.991293309952065
2016-08-23,-1,-0.001957861731894773,-0.0016786247874604166,-0.0054087223187500675,0.009239107783727402,0.9909205003250053
2016-08-25,-1,-0.0020520413970387995,-0.001749030790289307,-0.005085891639374954,0.009239107783727402,0.9913024615299868
2016-08-29,-1,-0.0019986671950264177,-0.0017024174411651824,-0.005085891639374954,0.010805150107754215,0.9906328443510926
2016-08-31,-1,-0.002340090840302364,-0.0019983200517138372,-0.005085891639374954,0.011005393817204378,0.9892821956971742
2016-09-02,-1,-0.0019010253125064918,-0.0015698487677950654,-0.014828587181809318,0.011005393817204378,0.9885920363519274
2016-09-07,-1,-0.0023349141620955306,-0.0019351264154341427,-0.017356080529568284,0.011005393817204378,0.9867934496253751
2016-09-09,-1,-0.003543976909220539,-0.0030539621139813915,-0.015492675554690673,0.011005393817204378,0.9873510905367239
2016-09-13,-1,-0.004703459236376695,-0.004004658104512116,-0.014828587181809318,0.011005393817204378,0.9880255174296851
2016-09-15,-1,-0.004095287047532501,-0.003529107314503045,-0.014828587181809318,0.012442943283288235,0.9867655683063706
2016-09-19,-1,-0.0034333100428968963,-0.002906662748372672,-0.014828587181809318,0.012442943283288235,0.9867042271097836
2016-09-21,-1,-0.003467009222116813,-0.0029564701756453274,-0.014828587181809318,0.012457050889795077,0.9862526754331812
2016-09-23,-1,-0.0023294794799285294,-0.0019928740798888967,-0.014828587181809318,0.012457050889795077,0.9863546706393929
2016-09-27,-1,-0.001564783889753047,-0.0013596959907877478,-0.013633581560846843,0.012442943283288235,0.9871816243251114
2016-09-29,-1,-0.0012796807199961708,-0.0011912654640700486,-0.013866139611609127,0.008859091922221672,0.987382973694121
2016-10-03,-1,-0.002795058220583055,-0.002446246202651897,-0.009020347593170712,0.012442943283288235,0.9876024801101926
2016-10-05,-1,-0.004057792406682072,-0.0035951957165866796,-0.005890545954829816,0.012442943283288235,0.9887752594116667
2016-10-07,-1,-0.004824599255448859,-0.004243390759820158,0.00028155205346238645,0.012442943283288235,0.9877141902091141
2016-10-11,-1,-0.005180929693400777,-0.00452798352206992,0.00037050017695945485,0.012770951956053024,0.9877173820859056
2016-10-13,-1,-0.003390658145338373,-0.0029602244914038933,-0.0033682676420761265,0.008746722514870077,0.9892444181918219
2016-10-17,-1,-0.0019882713808890328,-0.0017575633429869051,-0.0033682676420761265,0.008392599886045862,0.9900238667115869
2016-10-19,-1,-0.0017811005625442754,-0.0016297945754154193,-0.0033682676420761265,0.008332323591206923,0.9891534489029469
2016-10-21,-1,-0.0006516900409102034,-0.0006112070264218372,-0.008760971944229071,0.006346153506182846,0.9890283876670077
2016-10-25,-1,-0.0009402166831479744,-0.0008112848225771347,-0.008760971944229071,0.010393613019014288,0.9883302827063773
2016-10-27,-1,-0.002681802731592432,-0.0023275901727974925,-0.006069625064334977,0.010393613019014288,0.9888863238599266
2016-10-31,-1,-0.001436370087314219,-0.0012328424217257828,-0.006069625064334977,0.010393613019014288,0.9894820214729358
2016-11-02,-1,-0.0013480387739477464,-0.0012312617169394319,-0.014112968915678151,0.010393613019014288,0.987457377868522
2016-11-04,-1,-0.00020343285617981132,-0.00017718757019667664,-0.014112968915678151,0.008647627671324518,0.9879388659361428
2016-11-08,1,0.00022686250381159545,0.0003207774533903349,-0.014112968915678151,0.00755251135218576,0.9882171221374852
2016-11-10,-1,-0.0012733725588598027,-0.001188262193664416,-0.005645997289889402,0.010393613019014288,0.987562065385106
2016-11-14,-1,-0.0005066487580397334,-0.0004965640510163455,-0.005645997289889402,0.010734931817822306,0.9870932397731178
2016-11-16,-1,-0.001784687494321428,-0.0016728220838063998,-0.005645997289889402,0.009870707273645996,0.987845806196567
2016-11-18,-1,-0.0019008710025380288,-0.0018268605894166644,-0.0014901282836056436,0.012228410315137658,0.9877025447522436
2016-11-22,-1,-0.0006311800173941067,-0.0004982277067317164,-0.004494331461429583,0.009870707273645996,0.9875993085725151
2016-11-25,1,0.0004139676918362477,0.0007348067595541475,-0.004494331461429583,0.011412769341620586,0.9878487668227948
2016-11-29,1,0.0012882722984938473,0.0016980580538599212,-0.0047131018966440315,0.009695058021265131,0.988698302346417
2016-12-01,0,-6.6020436073714e-05,0.00018033016221267008,3.174866056255112e-05,0.011412769341620586,0.9897548979579985
2016-12-05,1,0.0002445817537723089,0.0004394643142270709,3.174866056255112e-05,0.011412769341620586,0.9896156247507368
2016-12-07,-1,-0.00032935065933139857,-0.00018301964493249465,-0.000942676046877541,0.011412769341620586,0.9897226595516544
2016-12-09,1,0.0025516432029077645,0.0030551600077633675,-0.002134663966908166,0.009154070926999363,0.9924102851022071
2016-12-13,1,0.003353147764087321,0.004018761662335142,-0.004956351368875776,0.00856704407352703,0.9915302418608751
2016-12-15,1,0.0036344428448617074,0.004278258395639681,-0.004956351368875776,0.009668091616324228,0.9910372513491107
2016-12-19,1,0.0039242596237861836,0.004561028810314283,-0.006123683935063835,0.00856704407352703,0.9903925541138667
2016-12-21,1,0.0028736174153229646,0.003453890620278285,-0.004956351368875776,0.00856704407352703,0.9921348227362925
2016-12-23,1,0.00305604346255716,0.0035777745753048686,-0.004956351368875776,0.007643927847436714,0.9922074323891764
2016-12-28,1,0.003209877759268615,0.0037551009860667325,-0.006123683935063835,0.007325111852262963,0.9919837094428939
2016-12-30,1,0.003709054031679492,0.004354082888440889,-0.007024283080726725,0.0027875438983429855,0.9916583904302908
2017-01-04,1,0.0036878571454689864,0.004251188347958862,-0.009861288046432912,0.0027875438983429855,0.9897715381509512
2017-01-06,0,0.0,0.0,-0.009861288046432912,0.004058386559061759,0.9908743518935695
2017-01-10,0,0.0,0.0,-0.009861288046432912,0.004373815992726001,0.9908179789570405
2017-01-12,0,0.0,0.0,-0.005878897739205217,0.004330646114936597,0.9922815761087442
2017-01-17,0,0.0,0.0,-0.004174565315258232,0.003738274666209723,0.9933727464180617
2017-01-19,1,0.0015639915382956217,0.0017087945241315398,-0.00237483149708461,0.00445373959502518,0.9934964973780536
2017-01-23,0,0.0,0.0,-0.00237483149708461,0.00445373959502518,0.9930091044289521
2017-01-25,0,0.0,0.0,-0.0026418929901793863,0.00445373959502518,0.9926968136719931
2017-01-27,0,0.0,0.0,-0.0017220441415788778,0.006289985171675994,0.9927563510108284
2017-01-31,0,0.0,0.0,-0.0015763931898630972,0.006289985171675994,0.9932269230543416
2017-02-02,0,0.0,0.0,-0.0017220441415788778,0.005176304748667706,0.9951658850932209
2017-02-06,0,0.0,0.0,-0.002206962692625926,0.005176304748667706,0.9952179001420955
2017-02-08,0,0.0,0.0,-0.003010961995470507,0.005176304748667706,0.9943200491646983
2017-02-10,0,0.0,0.0,-0.004064449301653707,0.005188330328653568,0.9939101493561682
2017-02-14,0,0.0,0.0,-0.004064449301653707,0.007184403549882425,0.9924633767245088
2017-02-16,0,0.0,0.0,-0.003010961995470507,0.00632606191163358,0.9930684400095854
2017-02-21,0,0.0,0.0,-0.0041195653248078615,0.00571909851875675,0.9932979333302024
2017-02-23,0,0.0,0.0,-0.0041195653248078615,0.00571909851875675,0.9936207080484788
2017-02-27,0,0.0,0.0,-0.006408500246684621,0.0022728512714366165,0.9938148818179522
2017-03-01,1,0.0021550408344647265,0.0021646786257055513,-0.006408500246684621,0.00571909851875675,0.9927357085607476
2017-03-03,1,0.0008884920554753399,0.0010716133935210186,-0.0041195653248078615,0.00571909851875675,0.9938364747761803
2017-03-07,1,0.000434017947306926,0.0006826581305553858,-0.003360575355617323,0.006289169403470676,0.9938125868552766
2017-03-09,1,5.766946768718379e-05,0.0002754022826767958,-0.0006407640293835351,0.006289169403470676,0.9950440906708057
2017-03-13,1,0.0002075013281692457,0.00037261373656694057,-0.0006407640293835351,0.006655957719466402,0.9950398740108927
2017-03-15,1,0.0018779544155741097,0.0019247744118383813,-0.0016505766086552008,0.00269955301981643,0.995699311818282
2017-03-17,1,0.0021562532863311948,0.0022505601882989805,-0.003360575355617323,0.0028744629419161284,0.995129463409591
2017-03-21,1,0.0018699087061965988,0.0019286217109071137,-0.0030889267327318557,0.0028852046048633614,0.9954125392724191
2017-03-23,1,0.0013155470143118098,0.0013846174159483807,-0.003392829905191857,0.0017588248236401233,0.995642567586128
2017-03-27,1,0.0015470246509265385,0.001561624550506781,-0.0025515608143330823,0.0017588248236401233,0.9960187289132807
2017-03-29,1,0.0016722719575460762,0.001690614908768511,-0.004725174078166835,0.0016963179957906701,0.9946771489099051
2017-03-31,1,0.0017785313369138968,0.0018669199774128619,-0.004725174078166835,0.002335141626280581,0.9943138946531392
2017-04-04,0,0.0,0.0,-0.005570462611287524,0.0017588248236401233,0.9940909022015
2017-04-06,1,0.0012864766962970434,0.0013338123518226491,-0.005570462611287524,0.004496863985959847,0.993461056834787
2017-04-10,1,0.0013260041910943493,0.0013466009801812527,-0.006432244656804557,0.002335141626280581,0.9934792036925566
2017-04-12,1,0.00012858282305092648,0.0003514055895666124,-0.0053528945711955635,0.002335141626280581,0.9941520384618784
2017-04-17,-1,-0.0006948976570829357,-0.00032535821378934667,-0.004725174078166835,0.002335141626280581,0.9942506657427393
2017-04-19,-1,-0.0005296237978772965,-0.00020222548977656468,-0.004574353128147028,0.004496863985959847,0.9940364596785035
2017-04-21,-1,-0.000646137931645489,-0.00031316494118416923,-0.004574353128147028,0.005701274999664956,0.9938683219703643
2017-04-25,0,-2.7823992920459565e-05,0.0001792828518321671,-0.004574353128147028,0.005701274999664956,0.9939144948825415
2017-04-27,0,0.0,0.0,-0.0015903454521515685,0.005701274999664956,0.9951629199468327
2017-05-01,0,0.0,0.0,-0.001727908775219136,0.004555962169549407,0.9957681177468196
2017-05-03,0,0.0,0.0,-0.0006534403734884769,0.005701274999664956,0.995787570777966
2017-05-05,0,0.0,0.0,-0.0006534403734884769,0.00582406839572917,0.994973656174378
2017-05-09,0,0.0,0.0,0.00022290153540622712,0.006846466987911045,0.9945220166018668
2017-05-11,0,0.0,0.0,0.00017704709438370457,0.006846466987911045,0.9942503367616264
2017-05-15,0,0.0,0.0,0.0005749143622941369,0.00655636376475832,0.9944406590947099
2017-05-17,0,0.0,0.0,0.0009759069835578835,0.007509156093017052,0.9941430029462989
2017-05-19,-1,-0.00045266679706253317,-0.00026478568780888886,0.0005749143622941369,0.007509156093017052,0.9941339727713624
2017-05-23,0,0.0,0.0,0.0014901969692072492,0.007509156093017052,0.994041165193094
2017-05-25,0,0.0,0.0,-0.0008677329719399719,0.007509156093017052,0.993922941451802
2017-05-30,0,0.0,0.0,-0.002207276792440318,0.007509156093017052,0.9930119990078742
2017-06-01,0,0.0,0.0,-0.004605505102119744,0.006761651413037181,0.9930532313784598
2017-06-05,1,0.002020885148403799,0.002167772992936536,-0.004605505102119744,0.005058731826722615,0.9942020201999009
2017-06-07,0,0.0,0.0,-0.0053534793106416075,0.0034180384452940763,0.9933736861678575
2017-06-09,1,0.0023866528085603775,0.002568954641734649,-0.005637076988845087,0.0034180384452940763,0.9920570705470227
2017-06-13,0,0.0,0.0,-0.006607484130934906,0.0026365211465169828,0.9922962829017069
2017-06-15,0,0.0,0.0,-0.006607484130934906,0.0024435813542847086,0.9927555513511744
2017-06-19,0,0.0,0.0,-0.006607484130934906,0.002535584353152663,0.9923359431937131
2017-06-21,0,0.0,0.0,-0.006607484130934906,0.0027488036051923534,0.992353833381541
2017-06-23,0,0.0,0.0,-0.005637076988845087,0.004057696201413147,0.992270188445451
2017-06-27,1,0.0010556592508241037,0.0010874002244426664,-0.005637076988845087,0.005380303435982937,0.9925543962232746
2017-06-29,1,0.000430475311943508,0.0004751636394700465,-0.003739822837996948,0.007006066834838422,0.992523769051777
2017-07-03,1,0.00043125804051920486,0.0004817609641698875,-0.003739822837996948,0.007006066834838422,0.9926207926424717
2017-07-06,-1,-0.0012139741828170619,-0.0009881808174778853,-0.002017407091026741,0.007006066834838422,0.9943108038701794
2017-07-10,-1,-0.0014030674334523303,-0.0011594395105453635,-0.0017327313843026348,0.006520957183123831,0.9952781951140635
2017-07-12,-1,-0.0017655220821083586,-0.001495646154143404,-0.0011091220527974961,0.006786886833226945,0.9950866767805735
2017-07-14,-1,-0.0012300920816106925,-0.0010486244327939577,-0.002017407091026741,0.006590320327860332,0.9953320771417067
2017-07-18,-1,-0.0007990525363472878,-0.0006958344587513371,-0.0017327313843026348,0.0072141562690479265,0.9944425309611027
2017-07-20,-1,-0.00039691063594373126,-0.0003648226486849159,-0.0017327313843026348,0.0072141562690479265,0.9946549774528144
2017-07-24,1,6.2935301195097e-05,8.382229405502882e-05,-0.002258749139919816,0.0072141562690479265,0.9941464220341475
2017-07-26,-1,-0.00024764229541603697,-0.00019263096656827304,-0.002258749139919816,0.006870855778211856,0.994283188572668
2017-07-28,1,0.0002540734015589774,0.0002586500247549605,-0.003608977141525681,0.004242856503860412,0.9947183316403135
2017-08-01,-1,-0.0004017204025762921,-0.0002617646732359321,-0.00459526660873414,0.004158850898208306,0.9945210437980303
2017-08-03,-1,-0.0005527433903499711,-0.00038851861520364597,-0.00459526660873414,0.006870855778211856,0.9941530591964947
2017-08-07,1,0.0002665553595148155,0.0002685109821930439,-0.00459526660873414,0.006870855778211856,0.993898570458037
2017-08-09,1,0.0007943967584361256,0.0008765254344293942,-0.00459526660873414,0.0063609102127823395,0.9938865381353706
2017-08-11,1,0.00013769099795433244,0.0001587881525722407,-0.003608977141525681,0.008074433150186845,0.9936403911529826
2017-08-15,1,0.0013399398756479784,0.0014947481347111226,-0.0051823793686863115,0.0063609102127823395,0.9934495454743589
2017-08-17,1,0.0009039268458946895,0.0009786594712140988,-0.0051823793686863115,0.0073499827714653574,0.9930982532447287
2017-08-21,1,0.0012953265447863019,0.0014400014666541173,-0.005172648448569113,0.006910352031895058,0.9938491757412813
2017-08-23,1,0.0012412487642525843,0.0013688848433066514,-0.004078624034312419,0.006441779962873738,0.9941183311087491
2017-08-25,1,0.00113688352554021,0.0012668893423484087,-0.004078624034312419,0.006441779962873738,0.9942277032819794
2017-08-29,1,0.0006019520649890515,0.0006664344227290133,-0.00267821095022157,0.006441779962873738,0.9944542758299063
2017-08-31,1,0.0008873265155203814,0.0009842233631470868,-0.00267821095022157,0.006441779962873738,0.994434504136435
2017-09-05,1,0.0006892020002292925,0.0007354633551031088,-0.00267821095022157,0.006441779962873738,0.9945332926644088
2017-09-07,1,0.0007865881111426055,0.0008368040244285063,-0.00267821095022157,0.006686520873693959,0.994462071925791
2017-09-11,1,0.00141784616879079,0.0015393507083666363,-0.0032146665462995027,0.003591538684031284,0.9949027593008551
2017-09-13,1,0.00010651042178638526,0.00015744716350251018,-0.0013522782936789895,0.003591538684031284,0.9962336158902363
2017-09-15,1,0.000923298297665686,0.0009773192694150833,-0.0015483092899546847,0.002683673816326188,0.9969624339409343
2017-09-19,0,-8.474949002467303e-05,7.99948923221913e-05,-0.0025117785120226683,0.002683673816326188,0.9966111513596614
2017-09-21,1,0.0001466306857551319,0.0002369424717983804,-0.003192729227244895,0.002683673816326188,0.9957887565157773
2017-09-25,-1,-0.00045540484983473814,-0.0002646029294463276,-0.0036737538347055036,0.002683673816326188,0.9957243835209189
2017-09-27,-1,-0.0004971183690207742,-0.0003354190122394348,-0.003192729227244895,0.002683673816326188,0.9961454534659516
2017-09-29,-1,-0.0005900834714189046,-0.00038383966173770323,-0.0036737538347055036,0.002683673816326188,0.9940625278795729
2017-10-03,-1,-0.0005829292503643929,-0.0003765269481740025,-0.0036737538347055036,0.0035242992320027684,0.9933198974343947
2017-10-05,0,-0.00013686587640997927,1.38188878570474e-05,-0.004586913348955486,0.002817612486345453,0.9929762644100778
2017-10-09,-1,-0.00020403866232129923,-4.27768999735788e-05,-0.004586913348955486,0.004503703337139194,0.9923014124397551
2017-10-11,1,8.261707991227303e-05,0.00019818746683643806,-0.004586913348955486,0.007250511677239105,0.9918607888317786
2017-10-13,0,-3.728259261274894e-05,9.261956147176188e-05,-0.004586913348955486,0.007250511677239105,0.991917227026072
2017-10-17,-1,-0.0007028221319683232,-0.0005097472114189032,-0.004586913348955486,0.007250511677239105,0.9913967016908972
2017-10-19,-1,-0.0016428850677503203,-0.001343351147990998,-0.002952371436406138,0.007649972165170977,0.9908675811157802
2017-10-23,-1,-0.0016561492213327976,-0.0013821586787258113,-0.00368643607845972,0.007649972165170977,0.990434493058808
2017-10-25,-1,-0.0009464335865657593,-0.000817063197150338,-0.005260888392366816,0.00839453682532966,0.9896451749779286
2017-10-27,-1,-0.0017066017817715965,-0.0015124910772465437,-0.005260888392366816,0.0077211854757155765,0.9915246247312438
2017-10-31,-1,-0.0007726744996640002,-0.0006971024074171196,-0.006410919345689125,0.007250511677239105,0.9922912761103706
2017-11-02,-1,-0.0005267125527834342,-0.0005012874481186507,-0.004877019985029549,0.00593973068031769,0.9927671999066983
