JNU-Tangyin/eata/results/Batch4_SP500/Batch4_SP500-ROST.csv
Date,Action,Predicted_Q25,Predicted_Q75,Actual_Q25,Actual_Q75,RL_Reward
2010-12-14,0,0.0,0.0,-0.004010626540486325,0.005409326919956773,0.9925406682308345
2010-12-16,0,0.0,0.0,-0.0034360111672900174,0.005091256161776314,0.9932430187795032
2010-12-20,0,0.0,0.0,-0.0015324645291081257,0.005409326919956773,0.9934123525261088
2010-12-22,0,0.0,0.0,-0.0023241163608357807,0.005091256161776314,0.9935329367922802
2010-12-27,0,0.0,0.0,-0.0013601986893602455,0.0074480241976697704,0.9928107435379293
2010-12-29,0,0.0,0.0,-0.0013601986893602455,0.0074480241976697704,0.9923766690579954
2010-12-31,0,0.0,0.0,-0.0026068688710591034,0.0074480241976697704,0.9917831511549182
2011-01-04,0,0.0,0.0,-0.0026068688710591034,0.007107856894854969,0.9927033026485388
2011-01-06,0,-2.2631677650272655e-05,0.00010073372927771562,-0.0026068688710591034,0.007321142227254764,0.9902404417677139
2011-01-10,0,0.0,0.0,-0.00403247992781291,0.007321142227254764,0.9899002717890423
2011-01-12,0,0.0,0.0,-0.00403247992781291,0.00841495754124005,0.9891419321098679
2011-01-14,1,3.193382405824705e-05,5.20156318517263e-05,-0.004373391595841392,0.010079129692467877,0.9880966719247027
2011-01-19,-1,-0.00073974872457343,-0.00024391112834638677,-0.004373391595841392,0.00841495754124005,0.9886288627681639
2011-01-21,-1,-0.0008905053855795065,-0.0003742742609847607,-0.004373391595841392,0.009436797481194761,0.9884297383846464
2011-01-25,0,-2.8008669332138265e-05,0.0003651471864040486,-0.006382645679186267,0.0076967594646933585,0.9883364645736069
2011-01-27,1,0.0011046222327826282,0.0013093599927614685,-0.006382645679186267,0.01002670492115518,0.9879495518240565
2011-01-31,-1,-0.0010398682582960451,-0.0005367839854892979,-0.006382645679186267,0.01002670492115518,0.9886569318960917
2011-02-02,-1,-0.0014582573361007951,-0.0009123341577884857,-0.00577434071172429,0.01002670492115518,0.9886704350930887
2011-02-04,1,0.0027043833752875193,0.0027100606428561123,-0.0065552651331824575,0.007588669235304514,0.9913630119258986
2011-02-08,1,0.0024975747211014388,0.0025249771224513705,-0.00649926505228824,0.00873957429843783,0.9915438650496524
2011-02-10,1,0.003018003166943713,0.0030680668460667786,-0.007018094148699064,0.00873957429843783,0.9915078623771266
2011-02-14,1,0.0026805004997634023,0.0026876015943535295,-0.007717594592368496,0.007588669235304514,0.9912544506120515
2011-02-16,1,0.0032822071201576942,0.003431262267250378,-0.00906943122312221,0.00873957429843783,0.9907034743329618
2011-02-18,1,0.0032323004472234484,0.0033483882060638724,-0.00996971656395401,0.007588669235304514,0.9900130881514393
2011-02-23,1,0.0011182136958097569,0.001336482827980583,-0.009247380484870888,0.00873957429843783,0.9905481514896864
2011-02-25,1,0.0015692193401519849,0.0017561542771179464,-0.009247380484870888,0.007788555861121324,0.990540796798
2011-03-01,1,0.0009445433170432787,0.0012234072868432372,-0.009247380484870888,0.007788555861121324,0.9910982853599618
2011-03-03,1,0.0018815194075659635,0.0020031404580356407,-0.009247380484870888,0.009354394943325567,0.9898161053586123
2011-03-07,1,0.0005254945244072015,0.0007993343233002483,-0.008858674278063507,0.009354394943325567,0.9910166423733734
2011-03-09,1,0.00045787287408826564,0.0007599656810034849,-0.008858674278063507,0.009988116036043115,0.9903521625350059
2011-03-11,1,0.000966248898945332,0.0011726642589176507,-0.008858674278063507,0.007727855184732105,0.9906223449466806
2011-03-15,-1,-0.0006068097550270652,-0.00021062375261834856,-0.008310925203867291,0.009255084820553134,0.9917818599031748
2011-03-17,-1,-0.0007295773270236522,-0.00032683841578212366,-0.008310925203867291,0.007679591043037322,0.9920549647919144
2011-03-21,-1,-0.0014119770494470788,-0.00095656937629967,-0.0070070434611759005,0.007679591043037322,0.9921595667833578
2011-03-23,0,0.0,0.0,-0.004823569451208461,0.007679591043037322,0.9916828983374881
2011-03-25,-1,-0.00015874592792145187,-4.4100161023116866e-05,-0.004823569451208461,0.006160030930483021,0.99241083391084
2011-03-29,0,0.0,0.0,-0.004823569451208461,0.006384049679716772,0.9921638501501073
2011-03-31,0,0.0,0.0,-0.004288060092323577,0.006384049679716772,0.9927076265781487
2011-04-04,0,0.0,0.0,-0.004288060092323577,0.006384049679716772,0.9929296162771868
2011-04-06,0,0.0,0.0,-0.004009401691400326,0.006384049679716772,0.9906202702691466
2011-04-08,0,0.0,0.0,-0.00305393042665937,0.006384049679716772,0.9909734426364586
2011-04-12,1,0.0005991360179522668,0.0006568219798346217,-0.00305393042665937,0.008508434256097725,0.9900425131735763
2011-04-14,0,-1.0627844806444369e-05,4.635706405483345e-05,-0.0024923808966607684,0.014650493414861826,0.9896680139569046
2011-04-18,0,0.0,0.0,-0.00305393042665937,0.014650493414861826,0.9893010958538688
2011-04-20,1,0.0023464203900064365,0.002484113932855201,-0.004066107125031693,0.011595087487361681,0.9898227615434987
2011-04-25,1,0.0019018919466727065,0.002026351698261038,-0.004489401220327452,0.011595087487361681,0.9896632689741669
2011-04-27,1,0.0023084664563688033,0.002510054481159378,-0.004644137402647166,0.014650493414861826,0.9884955805468463
2011-04-29,1,0.002265745286461974,0.0024200577168427165,-0.005140988186135736,0.013457149748549052,0.9884778760424429
2011-05-03,1,0.0017458231672706065,0.0018080799062646282,-0.006885370147444893,0.013457149748549052,0.9879974207525629
2011-05-05,1,0.00489118146203134,0.005393699173942824,-0.009459215311177615,0.011197306265257424,0.9895434350504132
2011-05-09,1,0.003916314288570161,0.0041981157278257195,-0.010124855684556502,0.011197306265257424,0.9893050971649949
2011-05-11,1,0.005279148725923122,0.005765291091855099,-0.010124855684556502,0.003225025814027239,0.9888963027493856
2011-05-13,1,0.00529430348960177,0.005716373911357479,-0.011076303405327462,0.002929339281916477,0.9882488534165765
2011-05-17,0,0.0,0.0,-0.012567962858179961,0.003225025814027239,0.9908962338932815
2011-05-19,1,0.0017028274979017067,0.0017945282059699326,-0.010552595925346984,0.002929339281916477,0.9912404775334526
2011-05-23,0,0.0,0.0,-0.010552595925346984,0.003837409674512658,0.9899443558430113
2011-05-25,0,0.0,0.0,-0.008850560577321571,0.003837409674512658,0.9908607944888366
2011-05-27,0,0.0,0.0,-0.012998628989061413,0.003837409674512658,0.9905028504059427
2011-06-01,0,0.0,0.0,-0.012148540447230691,0.0050078665046582056,0.9894672059134855
2011-06-03,0,0.0,0.0,-0.008772542764721794,0.01005708526414111,0.9892643819189394
2011-06-07,1,0.0023957812663389765,0.0023964669043229254,-0.006878637122872875,0.01005708526414111,0.9900277601437938
2011-06-09,0,-0.0001184411562444223,0.00011952737971092202,-0.007980527052546038,0.01005708526414111,0.9897498337873271
2011-06-13,-1,-0.0006005324158649026,-0.0003247660197755922,-0.007980527052546038,0.01005708526414111,0.9900111218106655
2011-06-15,-1,-0.0011333255199029713,-0.0007945575700993334,-0.007348900659094307,0.01005708526414111,0.9903824846094633
2011-06-17,-1,-0.0011248097829373097,-0.0008118894253388329,-0.006926370466336524,0.01005708526414111,0.9904888027200076
2011-06-21,1,0.0004340174734568451,0.000544891103488394,-0.007212318663224124,0.007017588831506326,0.9914916179419343
2011-06-23,1,4.952047208515173e-05,0.00025323125199776253,-0.007212318663224124,0.007017588831506326,0.9915862992013452
2011-06-27,-1,-0.0006728062943805681,-0.00036589361852490464,-0.007212318663224124,0.0070588938376192015,0.991548755402035
2011-06-29,0,0.0,0.0,-0.007212318663224124,0.0070588938376192015,0.991279784684823
2011-07-01,0,0.0,0.0,-0.007212318663224124,0.004993172911267548,0.9918794681010636
2011-07-06,0,0.0,0.0,-0.010629066776443796,0.006930737094319853,0.9891297823983225
2011-07-08,0,0.0,0.0,-0.012630087607620584,0.006930737094319853,0.9882528625700379
2011-07-12,-1,-0.000289363696264115,-0.00026339475580780915,-0.013898690803811495,0.007255000341711631,0.9856848491281032
2011-07-14,-1,-0.00038204752424480886,-0.00033636461374692147,-0.019909574621372585,0.008384245517784038,0.9827931312021986
2011-07-18,-1,-0.0013138711491752853,-0.001126231605024576,-0.019909574621372585,0.009091964380665165,0.9824161961978266
2011-07-20,0,0.0,0.0,-0.019909574621372585,0.01093079014690296,0.9816519787748564
2011-07-22,1,0.00018656966412306452,0.00025753222974109246,-0.019909574621372585,0.01093079014690296,0.9810500356556261
2011-07-26,1,0.00010974316957984657,0.0001695263582101786,-0.017935554882630496,0.012542287025398793,0.980084814513815
2011-07-28,-1,-0.0010457088224578347,-0.0008094106607373886,-0.017935554882630496,0.012542287025398793,0.98049748117741
2011-08-01,-1,-0.0009260566795461961,-0.000709488843889468,-0.017935554882630496,0.019756435470358852,0.9785080156307375
2011-08-03,-1,-0.0008922731850408358,-0.0006873764264137376,-0.014103808016008428,0.014476755008079607,0.9805733442841083
2011-08-05,-1,-0.0027766518942808453,-0.002303850887648065,-0.015811855688608177,0.014476755008079607,0.9801819713529832
2011-08-09,0,0.0,0.0,-0.013939915701406834,0.01564305336006397,0.9825011741146312
2011-08-11,-1,-0.004370367790455962,-0.003678152410655133,-0.011948385235396689,0.012569131799135767,0.9846154800280311
2011-08-15,-1,-0.0039081969007127145,-0.003273383683756411,-0.011948385235396689,0.017423211561210482,0.9834521986988513
2011-08-17,-1,-0.0036854122988861284,-0.003107133472422699,-0.011444219267903623,0.022677965396533172,0.9832952303266946
2011-08-19,-1,-0.004593979728825194,-0.003909055998318502,-0.0023443734126460357,0.022677965396533172,0.9820433583399885
2011-08-23,-1,-0.002479649883995112,-0.002063386103461364,-0.00931700917161777,0.021695544382183983,0.9848328089794902
2011-08-25,-1,-0.0034327198132716357,-0.002907829065201777,-0.00931700917161777,0.021695544382183983,0.9845929518802534
2011-08-29,-1,-0.0014281784479952056,-0.0011468842466890476,-0.00931700917161777,0.01623970259988615,0.9867600139411478
2011-08-31,-1,-0.0013837400426325829,-0.0010747549966155642,-0.013077862292706447,0.01623970259988615,0.9863915144082043
2011-09-02,-1,-0.00276765818986263,-0.002308212559222249,-0.011754754850784517,0.01623970259988615,0.9863831930323749
2011-09-07,-1,-0.0020042032258552394,-0.0016160492763884393,-0.011754754850784517,0.014929425629368939,0.9866483942584175
2011-09-09,-1,-0.0029143123233114185,-0.002414967379702305,-0.006762347284885283,0.01623970259988615,0.9846592019107704
2011-09-13,-1,-0.0009196431892532085,-0.0006955124114697802,-0.006762347284885283,0.015886412740600066,0.9853631357120736
2011-09-15,1,9.145209419818517e-06,0.00012893058177853596,-0.013077862292706447,0.014811662342940244,0.9859077871482903
2011-09-19,1,0.001127548112009389,0.0011509645122994368,-0.01512554122394448,0.014811662342940244,0.9854504933811054
2011-09-21,1,0.0005165408655768858,0.000552558729810537,-0.013077862292706447,0.01528219905324841,0.9854335484648579
2011-09-23,1,0.00020645111662077794,0.00029034380118222054,-0.006762347284885283,0.016042233711499838,0.9855378854232651
2011-09-27,0,0.0,0.0,-0.005697581353423468,0.01528219905324841,0.986093989306508
2011-09-29,1,0.0009966936889085048,0.0011532921485188918,-0.002471746903757718,0.016527529883393923,0.9855102551123448
2011-10-03,1,0.0007028470144576271,0.00088534414374095,-0.002471746903757718,0.016527529883393923,0.9864950937980613
2011-10-05,1,0.0018836747155075995,0.002262526970176224,-0.005384563340842105,0.016527529883393923,0.9870972779935155
2011-10-07,1,0.0031030742230921398,0.003602177352603532,-0.005384563340842105,0.016527529883393923,0.9878218838196897
2011-10-11,1,0.00423809848983784,0.004880744791315138,-0.005384563340842105,0.009717546683029212,0.9888072473895121
2011-10-13,1,0.0033688523643647245,0.0038828548919246,-0.005384563340842105,0.015763451817537032,0.9873916902799
2011-10-17,0,0.0,0.0,-0.005384563340842105,0.015763451817537032,0.9872628106682697
2011-10-19,0,0.0,0.0,-0.008242031225510272,0.011517244649746414,0.9867520207266249
2011-10-21,0,0.0,0.0,-0.009401727108316875,0.008302144293765672,0.9871574297456376
2011-10-25,1,0.004190641415449759,0.004619643903658955,-0.009401727108316875,0.009499897062272788,0.986436338383681
2011-10-27,1,0.00400869680036158,0.004385058590243947,-0.009401727108316875,0.00820997315882526,0.9877921478969643
2011-10-31,0,0.0,0.0,-0.008960572709133748,0.011517244649746414,0.986817965602377
2011-11-02,0,0.0,0.0,-0.008960572709133748,0.01738050857624109,0.9855196728129588
2011-11-04,0,0.0,0.0,-0.008960572709133748,0.011517244649746414,0.9865289783975459
2011-11-08,0,0.0,0.0,-0.008960572709133748,0.011517244649746414,0.9867990208983912
2011-11-10,0,0.0,0.0,-0.008456446041260873,0.010771816858147076,0.9885338297517774
2011-11-14,0,0.0,0.0,-0.0069075658080609715,0.009747729080553083,0.989547228873209
2011-11-16,1,0.002471056696906847,0.002769671687261418,-0.005919082235670011,0.009490336600092474,0.9905180775546841
2011-11-18,1,0.001966498599853956,0.002206305545882397,-0.004090448733114393,0.01048182165084979,0.9905132660118142
2011-11-22,1,0.0024364598153471836,0.002787404577170735,-0.0034847743931254917,0.012974094569037194,0.9893968713247284
2011-11-25,1,0.002178178754253308,0.0024820590092831,-0.0032199929548390777,0.012974094569037194,0.9894987595871169
2011-11-29,1,0.0031318835463628996,0.003535773730005072,-0.0034847743931254917,0.012305374681063458,0.9900337247785389
2011-12-01,1,0.003812388872759558,0.0042791594549652775,-0.0042564533145259716,0.010346019628443993,0.9904067493045455
2011-12-05,1,0.0033098685262248984,0.0036797124992950297,-0.005391322226619682,0.008276026226126294,0.9903942091884018
2011-12-07,1,0.0031687991056785097,0.0035078854767976184,-0.005391322226619682,0.012305374681063458,0.9880494176702012
2011-12-09,1,0.0033133201905555763,0.003662525825443009,-0.005391322226619682,0.008276026226126294,0.9883422240221765
2011-12-13,1,0.0029679438624780046,0.003290375665416358,-0.003615437492072833,0.009699209084306278,0.9886025465129505
2011-12-15,1,0.00276789389001752,0.0030447155279011333,-0.003615437492072833,0.010520374195737798,0.9884414470370366
2011-12-19,1,0.0020801462749779442,0.0022307786592807486,-0.0037303832294710054,0.00914947626333299,0.989063844838899
2011-12-21,1,0.0030322752265266643,0.0033013373172699695,-0.0037303832294710054,0.008086301775402151,0.9905389230541942
2011-12-23,1,0.003333122534957311,0.0036473930585134255,-0.0037303832294710054,0.007769731942651298,0.9910206607252374
2011-12-28,1,0.0021832380378349592,0.0022484835845718257,-0.005534963354076456,0.007171614471732141,0.9905687262215899
2011-12-30,1,0.0009121576721366717,0.0010538863708711376,-0.005534963354076456,0.007171614471732141,0.9911733595720436
2012-01-04,1,0.0012475559011242724,0.0013676330138309711,-0.004215948941356134,0.007769731942651298,0.9913503548444916
2012-01-06,1,0.003070196127432181,0.0031764011094945403,-0.007017496837750352,0.007769731942651298,0.9933808495945952
2012-01-10,1,0.0021658799441944742,0.0022000185672261304,-0.006510304336932613,0.007884284868472003,0.9931143224577245
2012-01-12,1,0.0022247091471660958,0.00231987622000446,-0.006510304336932613,0.007146107884614953,0.9936266087068456
2012-01-17,0,0.0,0.0,-0.006510304336932613,0.006226355691280114,0.99385054760428
2012-01-19,0,0.0,0.0,-0.006670783168715968,0.006854091088094639,0.9933836117214583
2012-01-23,1,0.0031869172686435875,0.0033092370163384606,-0.006670783168715968,0.006204243754967464,0.99364064147656
2012-01-25,0,0.0,0.0,-0.006670783168715968,0.005343124554209138,0.9930540767906326
2012-01-27,0,0.0,0.0,-0.0017661896080497538,0.005970154740460863,0.9939027321306114
2012-01-31,0,0.0,0.0,-0.0017661896080497538,0.007140906096786964,0.9936919134028503
2012-02-02,0,0.0,0.0,-0.004754650487286239,0.007478476728514076,0.9929590882676903
2012-02-06,0,0.0,0.0,-0.00391134044815147,0.007478476728514076,0.9928055612318591
2012-02-08,0,0.0,0.0,-0.0014878005539989683,0.007081021969820559,0.9931769521147064
2012-02-10,0,0.0,0.0,-0.0014878005539989683,0.009863327730996234,0.9923659203394138
2012-02-14,0,0.0,0.0,-0.00391134044815147,0.009863327730996234,0.9917893679341551
2012-02-16,0,0.0,0.0,-0.004097338342764406,0.009863327730996234,0.9920803471708514
2012-02-21,0,0.0,0.0,-0.004097338342764406,0.011213061527123576,0.9914682081209245
2012-02-23,1,0.0005631991473672496,0.0009578703017372068,-0.0037030108006311205,0.010058330568421097,0.992282784004057
2012-02-27,1,0.00032620749560656427,0.0008181543941288712,-0.0037030108006311205,0.011213061527123576,0.9910944386840073
2012-02-29,1,0.0009746995970784551,0.0013214429235768946,-0.0028708862376666065,0.011213061527123576,0.991401378895261
2012-03-02,1,0.0018801830497582645,0.002017147032526436,-0.0037030108006311205,0.010058330568421097,0.9913976679609396
2012-03-06,1,0.00314838660632665,0.0032451982994986892,-0.0029328855358709185,0.008290606128438075,0.9921455171258362
2012-03-08,1,0.002336739783077334,0.002419725719386513,-0.0029328855358709185,0.010058330568421097,0.9911508202649983
2012-03-12,0,0.0,0.0,-0.007488865100598933,0.006354766014807016,0.990043354556503
2012-03-14,0,0.0,0.0,-0.0054012178069596534,0.011127773515143576,0.9890844455644004
2012-03-16,0,0.0,0.0,-0.0023193216981153273,0.011127773515143576,0.9896202683068527
2012-03-20,0,0.0,0.0,-0.0023193216981153273,0.009938544342971563,0.9897531113328322
2012-03-22,0,0.0,0.0,-0.0034059246694370746,0.00875908584441788,0.9899243657389595
2012-03-26,0,0.0,0.0,-0.00651403012960038,0.007577119089539244,0.9908623782158177
2012-03-28,0,0.0,0.0,-0.00651403012960038,0.010850560533310568,0.9898267761777313
2012-03-30,0,0.0,0.0,-0.00571420806618593,0.01230039547999216,0.9894482141830352
2012-04-03,0,0.0,0.0,-0.00571420806618593,0.015903856538655434,0.9880676910676379
2012-04-05,0,0.0,0.0,-0.00651403012960038,0.01551031605379225,0.9882169513047246
2012-04-10,0,0.0,0.0,-0.00571420806618593,0.01551031605379225,0.9892289559945264
2012-04-12,1,0.002245713144224535,0.002258637210844127,-0.00571420806618593,0.010850560533310568,0.9903633600747531
2012-04-16,1,0.0013051450543649003,0.0014996057975005025,-0.00651403012960038,0.010850560533310568,0.9894076927865398
2012-04-18,0,0.0,0.0,-0.00651403012960038,0.012333537199040578,0.9888877446950638
2012-04-20,0,0.0,0.0,-0.00766684801516075,0.012333537199040578,0.9880684295107397
2012-04-24,0,0.0,0.0,-0.006725821073399674,0.015211464346898268,0.9876621333218194
2012-04-26,0,0.0,0.0,-0.006725821073399674,0.013074306086715566,0.9882531068963895
2012-04-30,0,0.0,0.0,-0.003705205089879323,0.011030177784995442,0.9892352374846819
2012-05-02,0,0.0,0.0,-0.005460872969351462,0.010244677654102648,0.9902383553213918
2012-05-04,0,0.0,0.0,-0.005460872969351462,0.010244677654102648,0.9897572369931837
2012-05-08,1,0.0007805047900733261,0.0009502281437272343,-0.003705205089879323,0.010646461531060998,0.9898535477878962
2012-05-10,1,0.0009092254350966408,0.0010826645695781033,-0.005460872969351462,0.011255024223077913,0.9885613262620648
2012-05-14,0,-0.0003312067366178207,5.19288499347965e-06,-0.005460872969351462,0.013074306086715566,0.9877970260554025
2012-05-16,1,0.0013791019603607028,0.0014548220064462744,-0.007752275180510444,0.013074306086715566,0.9877675596681379
2012-05-18,1,1.0752208048830166e-05,0.00023534768918320736,-0.005460872969351462,0.0174584677443433,0.9868973321006317
2012-05-22,1,0.0005694180486226796,0.0007307521138048415,-0.005824801873917494,0.0174584677443433,0.9875218929613876
2012-05-24,1,0.0006718124187242006,0.0008729248883331477,-0.007752275180510444,0.0174584677443433,0.9871859294190362
2012-05-29,1,0.0007348373863485459,0.0009336413279487085,-0.011679713117179927,0.0174584677443433,0.9861532303094013
2012-05-31,1,0.0018615313215837985,0.0019296106652022741,-0.013866985626075641,0.0174584677443433,0.9834448051376964
2012-06-04,1,0.00045839047042669665,0.00056978872340732,-0.012518729000757785,0.0174584677443433,0.9838530622290281
2012-06-06,1,0.0018017314113999007,0.001880435318538068,-0.012518729000757785,0.0174584677443433,0.9814561179884773
2012-06-08,1,0.002220396459934147,0.0023532812988271215,-0.011679713117179927,0.01388829198947289,0.9828934610784297
2012-06-12,1,0.0020981566983116853,0.0021852667101566977,-0.008294938430416867,0.012643872038311089,0.9840787565310806
2012-06-14,1,0.0023555932818275878,0.0024969934972419836,-0.005936749998091426,0.012643872038311089,0.9847724850616361
2012-06-18,1,0.0038034489571340943,0.00415453880131209,-0.005936749998091426,0.010883514763511248,0.9859705759177473
2012-06-20,1,0.0024943691393942433,0.002600019353330294,-0.007711599040708446,0.010883514763511248,0.985979658774997
2012-06-22,1,0.0016845487383485285,0.0017038471698567323,-0.008165958816696479,0.010883514763511248,0.9859205202600254
2012-06-26,1,0.001224327047648076,0.0013017479020164201,-0.007272622020021283,0.008947579435851234,0.9868863228298922
2012-06-28,-1,-0.0014269846655943722,-0.0010447751882969169,-0.004310026574193945,0.010663213376376726,0.9899349234177987
2012-07-02,-1,-0.00030484556232982017,-6.047876534306658e-05,-0.007013630469860348,0.005405410627398148,0.9906539621788771
2012-07-05,1,0.0017216036456737505,0.001723016780318721,-0.005518920572447057,0.003922501695036551,0.993424206686044
2012-07-09,1,0.0011902463133764355,0.0012625412568025038,-0.005518920572447057,0.005405410627398148,0.9923542691328602
2012-07-11,1,0.000631255340971982,0.0007903869611371984,-0.005518920572447057,0.005405410627398148,0.9924268169784634
2012-07-13,1,0.0014331564208293827,0.0014876165619013763,-0.007382705673781514,0.0038550843891430645,0.992359578697243
2012-07-17,1,0.0017906321206620525,0.0017966251927423367,-0.007382705673781514,0.003033519605815583,0.9923439851807098
2012-07-19,1,0.0011356576831538638,0.0012118342698553071,-0.007211632458361143,0.0038550843891430645,0.9924399204363079
2012-07-23,1,0.00012115627177669737,0.00032428468264416677,-0.0045447568803876175,0.00503208164165415,0.99303379165377
2012-07-25,0,-2.0772206857948587e-05,0.00018899832635623838,-0.0027884422347860165,0.00503208164165415,0.9934139068363065
2012-07-27,1,0.0004407089735807768,0.0005752923679386812,-0.0045447568803876175,0.00503208164165415,0.9931252281279214
2012-07-31,0,-1.1026189838714002e-05,0.00016068746411057762,-0.0035691278252029984,0.00503208164165415,0.993520918328817
2012-08-02,1,0.0002652450198334532,0.0003684435212365616,-0.0035691278252029984,0.0063557115192377145,0.9931571766372432
2012-08-06,1,0.0009329883292576957,0.0009702016534271011,-0.003199898289291316,0.004569767620014498,0.9943624544833616
2012-08-08,1,0.0007210523746601885,0.0008132355676291184,-0.004298547459289706,0.0063557115192377145,0.9930947425277279
2012-08-10,1,0.00016141909258400735,0.00029363957652316243,-0.004504413327949101,0.0063557115192377145,0.9922862399787526
2012-08-14,1,0.0003249976088351832,0.00043647280671930847,-0.008151894348937386,0.0060044974200727285,0.9919825731305899
2012-08-16,1,0.0010376259573560416,0.0010479298147408368,-0.008151894348937386,0.0060044974200727285,0.9917027842979416
2012-08-20,1,0.0017439332574468221,0.0018622238433733621,-0.009375899478299346,0.0045084567174075545,0.990638715137748
2012-08-22,1,0.0012246084221629646,0.0012320800730807784,-0.009375899478299346,0.0060044974200727285,0.9897913939750604
2012-08-24,1,0.0013059482036382668,0.0013156429515362351,-0.011649178130020081,0.0045084567174075545,0.9896661044733135
2012-08-28,1,0.0013877840645129015,0.0014319028765603953,-0.01638206328515636,0.0045084567174075545,0.9890752631090192
2012-08-30,0,0.0,0.0,-0.01638206328515636,0.0031119505576090926,0.9897632446382579
2012-09-04,0,0.0,0.0,-0.01638206328515636,0.003684697406813928,0.9887865604371517
2012-09-06,1,0.0003611236769042517,0.0005026078951430001,-0.01638206328515636,0.003684697406813928,0.9888386556256413
2012-09-10,-1,-0.0007965929695083969,-0.0005529471208191301,-0.010745036968684913,0.007429177141043883,0.9895944302839901
2012-09-12,-1,-0.001203820416012716,-0.0008922122859670302,-0.013669639801150855,0.007379516145231304,0.9889862164854194
2012-09-14,-1,-0.0007584044757051971,-0.0004706613743661901,-0.017043391809358915,0.003073278789899544,0.9881624393639794
2012-09-18,0,0.0,0.0,-0.013669639801150855,0.009358146290018576,0.9884654843280696
2012-09-20,0,0.0,0.0,-0.017043391809358915,0.009358146290018576,0.9879432273353502
2012-09-24,0,0.0,0.0,-0.017555244512867198,0.009358146290018576,0.9870184135666273
2012-09-26,0,0.0,0.0,-0.014216605754563636,0.01079474851970083,0.9867674053547345
2012-09-28,0,0.0,0.0,-0.014216605754563636,0.01079474851970083,0.9866016318233886
2012-10-02,0,0.0,0.0,-0.019236062156767035,0.009358146290018576,0.9848530910432315
2012-10-04,0,0.0,0.0,-0.01425652553822513,0.009358146290018576,0.9852816722267793
2012-10-08,-1,-0.002906797617419704,-0.00244549288584374,-0.019093534909486794,0.0069311259080090445,0.9858314359019665
2012-10-10,-1,-0.004069348876834987,-0.003397144278966217,-0.013614484148885546,0.0055662267659644365,0.9869991405651638
2012-10-12,-1,-0.004975726492573326,-0.0042506097166529816,-0.010819589878205006,0.009692914401110494,0.9870794932044108
2012-10-16,-1,-0.003688942853955729,-0.003169190701361015,-0.014138463224587398,0.0014822980324703725,0.9866717570066781
2012-10-18,-1,-0.0037575508800455504,-0.003221226016657801,-0.012601470906886842,0.0014822980324703725,0.9860122657060393
2012-10-22,-1,-0.005153662155534637,-0.004460675026548426,-0.010994249570105624,0.004558963363996124,0.9873075063932621
2012-10-24,-1,-0.005304292719687221,-0.004554794478996601,-0.010994249570105624,0.005099633210495011,0.9868713449517916
2012-10-26,-1,-0.004557599147007473,-0.003975094913380592,-0.010994249570105624,0.006596024059057215,0.9862807284032827
2012-11-01,-1,-0.005914213844608241,-0.0051996226764670014,-0.009005262182502877,0.006596024059057215,0.988777927887428
2012-11-05,-1,-0.005035872484862642,-0.004430385794361526,-0.012458028611927557,0.005099633210495011,0.9889852705929217
2012-11-07,-1,-0.00627482485307045,-0.005553207726080541,-0.01097495390130914,0.005099633210495011,0.9893766806795418
2012-11-09,-1,-0.0056716458000833,-0.005119970333654541,-0.009493188529776856,0.005106262096582697,0.9891584778826485
2012-11-13,-1,-0.0045128982469203405,-0.00406985648134169,-0.010978686887624104,0.004882912073618962,0.9908466499043159
2012-11-15,-1,-0.005745433993993627,-0.005132420859783017,-0.009006506511274532,0.004882912073618962,0.9914524580005356
2012-11-19,-1,-0.004965442473102519,-0.0044451656311191926,-0.006890631326620513,0.004882912073618962,0.9922679684406625
2012-11-21,-1,-0.004893645592512287,-0.004418180505614915,-0.010012886674242022,0.003993309112757205,0.9921883856116644
2012-11-26,-1,-0.004411743742284195,-0.0038973138120737805,-0.010012886674242022,0.0009236412909435145,0.9928484889798955
2012-11-28,-1,-0.002490201844759876,-0.0023313485491627383,-0.010717739792364627,-0.0008121463651358978,0.9913670230798383
2012-11-30,-1,-0.003299432682295143,-0.003037809449519643,-0.010717739792364627,0.0022103372858649785,0.9908595027458504
2012-12-04,-1,-0.004126663939954927,-0.003714766057899643,-0.007226091380943009,0.007997960284221712,0.987447865504074
2012-12-06,0,0.0,0.0,-0.010012886674242022,0.007997960284221712,0.9861774749196568
2012-12-10,-1,-0.0015418128644602075,-0.0014391429737908967,-0.010717739792364627,0.007997960284221712,0.9862376729145109
2012-12-12,-1,-0.004702296810843183,-0.004336832077324861,-0.01173119774075029,0.008417336138051392,0.9861795627444342
2012-12-14,-1,-0.005002982070941384,-0.004531051763561381,-0.010238621597484869,0.013013803464495504,0.9850417116869171
2012-12-18,0,0.0,0.0,-0.010238621597484869,0.012264301689089867,0.9856078431835307
2012-12-20,0,0.0,0.0,-0.006771496137163687,0.012264301689089867,0.9860561427344625
2012-12-24,0,0.0,0.0,-0.006771496137163687,0.012698270291448434,0.9849367087558811
2012-12-27,0,0.0,0.0,-0.006771496137163687,0.011413162529571037,0.9862107067886765
2012-12-31,0,0.0,0.0,-0.008745338093005173,0.00872448715981387,0.9859686571511778
2013-01-03,0,0.0,0.0,-0.008745338093005173,0.007250164082634467,0.989807083700277
2013-01-07,0,0.0,0.0,-0.008745338093005173,0.00872448715981387,0.989283462741242
2013-01-09,0,0.0,0.0,-0.007615708993264584,0.011413162529571037,0.9886111437105743
2013-01-11,0,0.0,0.0,-0.006095976945223667,0.01231224580184769,0.9887930967698126
2013-01-15,-1,-0.029685957432239313,-0.011752067050423226,-0.005245415097721981,0.011413162529571037,0.9776523294256646
2013-01-17,1,0.001934783016934044,0.0025069183140364014,-0.005337979138398308,0.00872448715981387,0.9903994583124627
2013-01-22,0,0.0,0.0,-0.007893401115293562,0.004780588061867923,0.9903508792004798
2013-01-24,0,0.0,0.0,-0.009358087440725062,0.0020688700231327023,0.9910855921293746
2013-01-28,0,0.0,0.0,-0.009699650186648819,0.0020688700231327023,0.9901241366401068
2013-01-30,0,0.0,0.0,-0.007893401115293562,0.007366509515142344,0.9897094775097524
2013-02-01,0,0.0,0.0,-0.007893401115293562,0.00892603281714686,0.9893198319975554
2013-02-05,0,0.0,0.0,-0.006321921822927558,0.007685587851994866,0.9901934107014568
2013-02-07,0,0.0,0.0,-0.006321921822927558,0.007685587851994866,0.9870534455641379
2013-02-11,0,0.0,0.0,-0.006321921822927558,0.007366509515142344,0.9875753114737837
2013-02-13,0,0.0,0.0,-0.008566129418665148,0.007685587851994866,0.9868692361994035
2013-02-15,0,0.0,0.0,-0.007103996713787723,0.007685587851994866,0.9867316377879913
2013-02-20,0,0.0,0.0,-0.006963353861832747,0.008479900297475185,0.9866199736412301
2013-02-22,1,0.0013681477686706242,0.0017547651863589592,-0.005196604795091998,0.01291304738363262,0.9856633503623621
2013-02-26,1,0.00012037977596568992,0.0003636925379172886,-0.0032194179288243412,0.01291304738363262,0.9865140896427121
2013-02-28,1,0.0026005954643672723,0.0032139121664079015,-0.0032194179288243412,0.011068080918400645,0.9879711482292789
2013-03-04,1,0.0032611306949587547,0.003950082483027879,-0.005492949388247213,0.01044684433426713,0.9873622979382246
2013-03-06,1,0.003233529832331261,0.0039559118711256685,-0.005492949388247213,0.011068080918400645,0.9868940181518303
2013-03-08,1,0.0010290964690222624,0.0013889740990808207,-0.005492949388247213,0.01044684433426713,0.9904871197770436
2013-03-12,1,9.629443387392704e-05,0.000284732771336638,-0.004953246501364214,0.0105097587085661,0.9900406859383949
2013-03-14,1,0.0011081215929788796,0.0014535591676247764,-0.0032194179288243412,0.013010589147160233,0.9878371836012765
2013-03-18,1,0.0008043309932220257,0.0011567284905505144,-0.003908309970788251,0.013010589147160233,0.986577857980011
2013-03-20,0,0.0,0.0,-0.007170019538878042,0.012089912185833118,0.9863517260592054
2013-03-22,0,0.0,0.0,-0.007170019538878042,0.010466496210613256,0.9885763150842108
2013-03-26,0,0.0,0.0,-0.007170019538878042,0.01070431655851865,0.9884351055044851
2013-03-28,0,0.0,0.0,-0.007170019538878042,0.011226950889739164,0.9882581837332075
2013-04-02,0,0.0,0.0,-0.0015731500651967158,0.011226950889739164,0.9885274494410226
2013-04-04,0,0.0,0.0,-0.0057132889760424,0.01070431655851865,0.9882801999227159
2013-04-08,0,0.0,0.0,-0.005710799015007177,0.011226950889739164,0.987741135121173
2013-04-10,0,0.0,0.0,-0.006075550914717003,0.012089912185833118,0.987251357857829
2013-04-12,-1,-0.006654598292776211,-0.006215353633462799,-0.006439037551798459,0.009688082350326198,0.9891981453866783
2013-04-16,1,0.0037964481451610004,0.004184891124670255,-0.006439037551798459,0.009688082350326198,0.9908872315958396
2013-04-18,0,0.0,0.0,-0.005685113288782008,0.009688082350326198,0.9905971698759304
2013-04-22,0,0.0,0.0,-0.0063278572380014685,0.010985230495465199,0.9900929201415151
2013-04-24,0,0.0,0.0,-0.0072768094882124735,0.01120978396782887,0.9891910870935691
2013-04-26,0,-0.00010998878148657802,0.00010593699615394692,-0.0072768094882124735,0.011126912218780653,0.9897933044763647
2013-04-30,1,0.003061580644108343,0.003356677222930341,-0.009124625186415868,0.011126912218780653,0.9889872185171339
2013-05-02,0,0.0,0.0,-0.0072768094882124735,0.011126912218780653,0.9897288002719419
2013-05-06,0,0.0,0.0,-0.007088495085763833,0.008449411084073587,0.9903957224707614
2013-05-08,1,0.0005014478802319311,0.0007007974945676038,-0.00808110798451591,0.007381433640910151,0.9908741483532114
2013-05-10,0,0.0,0.0,-0.00808110798451591,0.008449411084073587,0.9902789988500538
2013-05-14,0,0.0,0.0,-0.00808110798451591,0.007381433640910151,0.9905885034204419
2013-05-16,0,0.0,0.0,-0.007210752927801866,0.008449411084073587,0.9901742686779642
2013-05-20,0,0.0,0.0,-0.007133618839150216,0.00863305704932103,0.9902352886395632
2013-05-22,0,0.0,0.0,-0.00821647924467506,0.006347199802032907,0.9903002029707698
2013-05-24,0,0.0,0.0,-0.008702164249847587,0.006019946298112118,0.9902617342671578
2013-05-29,1,0.0010266652638177506,0.0013299156251926898,-0.0075080191896851915,0.006636365515824681,0.9905330466051158
2013-05-31,0,0.0,0.0,-0.0075080191896851915,0.007846636500923777,0.9906368827598327
2013-06-04,0,0.0,0.0,-0.0075080191896851915,0.008675024681291162,0.9906476174385428
2013-06-06,0,0.0,0.0,-0.005536805004124019,0.009618655710025082,0.9908086797118318
2013-06-10,0,0.0,0.0,-0.005536805004124019,0.008675024681291162,0.9914912218994124
2013-06-12,0,0.0,0.0,-0.002525927478588698,0.008675024681291162,0.9918603753634507
2013-06-14,0,0.0,0.0,-0.0033526410940186687,0.008340751653112136,0.9932145663630372
2013-06-18,1,0.0018098297509619612,0.0020149862571108342,-0.003498794106597807,0.006801070566554134,0.9934025399895229
2013-06-20,1,0.0008557197548436573,0.000896427832821949,-0.0018965637562917894,0.007859451760610156,0.9946098944814328
2013-06-24,1,0.0004970619627947608,0.0005227634234379649,-0.0018965637562917894,0.008340751653112136,0.9944433866258976
2013-06-26,1,0.00033578542686904685,0.0003677356459653529,-0.0025185882707899547,0.00814759020223382,0.9942276407099548
2013-06-28,1,0.0008303415689618891,0.0008611490022904035,-0.0025185882707899547,0.00781633308451981,0.9949559766900556
2013-07-02,0,0.0,0.0,-0.0025185882707899547,0.00624038522835168,0.9951418033672007
2013-07-05,0,0.0,0.0,-0.0030946378830186594,0.00624038522835168,0.9942929321942306
2013-07-09,0,0.0,0.0,-0.004305841989090799,0.005390895906539245,0.9937669379194334
2013-07-11,1,0.00016362293032350127,0.00036454356476164484,-0.005704750068784024,0.003957136880671128,0.993581981184592
2013-07-15,0,0.0,0.0,-0.004492281398046581,0.005390895906539245,0.9933345991545361
2013-07-17,0,0.0,0.0,-0.004492281398046581,0.005390895906539245,0.9928198892295691
2013-07-19,0,0.0,0.0,-0.00632790314772266,0.003957136880671128,0.9919710110745902
2013-07-23,0,0.0,0.0,-0.004492281398046581,0.005082188266910473,0.9908290042090329
2013-07-25,0,0.0,0.0,-0.002477932475135603,0.005082188266910473,0.9907056902122742
2013-07-29,1,0.000620012901260733,0.000764124763669338,-0.005789143814429905,0.0075129471633634,0.9893858343441617
2013-07-31,0,0.0,0.0,-0.011798980709198577,0.0075129471633634,0.9885652816328975
2013-08-02,0,0.0,0.0,-0.011798980709198577,0.004424892917966581,0.9895986093500281
2013-08-06,0,0.0,0.0,-0.008726562616189277,0.011254620545399757,0.989115087867796
2013-08-08,-1,-0.0011719403764914552,-0.0009103491193673265,-0.008726562616189277,0.011254620545399757,0.9889563635841503
2013-08-12,-1,-0.001257184287039356,-0.0009862215689827904,-0.008726562616189277,0.011775342599260916,0.9886474227143957
2013-08-14,-1,-0.0004676492068326933,-0.0003685150541453149,-0.005032691177444962,0.011788099751231625,0.9889856273344217
2013-08-16,-1,-0.001057423927787186,-0.0009010216277667041,-0.003370805480060424,0.011788099751231625,0.9894600705449417
2013-08-20,-1,-0.0001939239782597272,-0.00015205556189171283,-0.003370805480060424,0.011788099751231625,0.9907821573607244
2013-08-22,0,0.0,0.0,-0.005032691177444962,0.011293967972868215,0.9910633481914669
2013-08-26,1,0.0019186086084042717,0.001944057900365269,-0.003370805480060424,0.010734023847397864,0.9926829463783774
2013-08-28,-1,-0.0008912461841893955,-0.0007155335032171721,-0.001409439607944431,0.010734023847397864,0.9927030203811654
2013-08-30,-1,-0.0006744232060124128,-0.00048625341725023075,0.0007336783630473249,0.010734023847397864,0.9928358937585715
2013-09-04,1,0.0010496955560315734,0.0011569662770093726,0.0007336783630473249,0.009118966838932352,0.9941510938875858
2013-09-06,1,0.0007170033670320204,0.0007543399970142863,0.0007336783630473249,0.009118966838932352,0.9940629395638693
2013-09-10,1,0.0007978078470077524,0.0008066592517593751,-0.003370805480060424,0.005441067351916775,0.9933478247151037
2013-09-12,1,0.0009803348991606702,0.0010248711130204525,-0.0026710238213238616,0.005441067351916775,0.9933054796262907
2013-09-16,1,0.0012245679335857135,0.0013141519231280206,-0.0012576643921337655,0.004627905243487957,0.9937807144218406
2013-09-18,1,0.0019465654110318404,0.002166824327428268,-0.0035679972606051415,0.004627905243487957,0.9934810489439677
2013-09-20,1,0.0018063030782622688,0.002028437101358392,-0.002051414390325645,0.006009190164400257,0.9936247944314968
2013-09-24,1,0.0014229817654278336,0.001558259062859399,-0.002051414390325645,0.006009190164400257,0.9934969623408838
2013-09-26,1,0.001746506972231983,0.0019340040156301409,-0.0031447127883237483,0.006009190164400257,0.9931106636563181
2013-09-30,1,0.0020129266950435383,0.002255229749865079,-0.0031447127883237483,0.007644195534445388,0.992980643834592
2013-10-02,1,0.002292518471151672,0.0025614139231158314,-0.0031447127883237483,0.007644195534445388,0.99323210037696
2013-10-04,1,0.0019644304719273276,0.0021840767068438617,-0.002051414390325645,0.007644195534445388,0.9937836324015964
2013-10-08,1,0.0009943682970446903,0.0010636778877870247,0.0013728938913947827,0.007644195534445388,0.9944655036556551
2013-10-10,1,0.0013055123890684723,0.0014179727557551143,0.0010728846069188826,0.005934711385908076,0.9949043414409561
2013-10-14,1,0.001438544446184645,0.0015683389369381998,0.0010728846069188826,0.007644195534445388,0.9943920750453675
2013-10-16,1,0.001762374087046451,0.0019470491913316417,0.0023623453110110087,0.007644195534445388,0.9950470399590441
2013-10-18,1,0.0017731026427906117,0.0019355296515840932,0.002634398743729823,0.0077461333095812605,0.9947227272011894
2013-10-22,1,0.0016284090814476441,0.0017469342920822006,0.0017940445849542086,0.0077461333095812605,0.9941317755850113
2013-10-24,1,0.001781837052707973,0.0019237623381893896,0.0017940445849542086,0.006979398080928071,0.9942422313985526
2013-10-28,1,0.001308223566192019,0.001386726477302742,-0.00245529237043611,0.005633455772312407,0.9913288023293564
2013-10-30,1,0.0017386460933205995,0.0018873451126010274,-0.00245529237043611,0.005633455772312407,0.9912131852174041
2013-11-01,1,0.0015613839081615008,0.0016540716495462215,-0.004966397817101133,0.005633455772312407,0.9898535425574383
2013-11-05,1,0.0018143964256076331,0.0019555723662784043,-0.009710701780354459,0.005633455772312407,0.9886784881618522
2013-11-07,1,0.0015114995579450538,0.0016210546811604894,-0.008194076875529158,0.005633455772312407,0.9887915083830484
2013-11-11,1,0.0014669755144658052,0.0015260752308502126,-0.008194076875529158,0.0037222749542790623,0.9890292143933533
2013-11-13,1,0.001778039365047198,0.0018663682221981357,-0.010332431023554018,0.0015587670222219669,0.9888024447017812
2013-11-15,1,0.0021723758152731353,0.002313047881319401,-0.010332431023554018,0.0015587670222219669,0.9882097819024367
2013-11-19,1,0.0020244257273590036,0.0021631229839617497,-0.009869376774937964,0.0035933571736881144,0.9875251223893604
2013-11-21,1,0.001809863491945915,0.0019269175751844363,-0.008039725459323806,0.004837455185076209,0.9879636077767756
2013-11-25,1,0.0003871606017770401,0.0004418243445583033,-0.006382653798944631,0.004837455185076209,0.9913802027800942
2013-11-27,1,0.0007531481619888771,0.0007623432908012396,-0.008039725459323806,0.0041738810875394765,0.9911768978642881
2013-12-02,1,0.0001318024922975003,0.00020097243015253943,-0.006382653798944631,0.00788461784301755,0.9919324097448967
2013-12-04,-1,-0.0007847755084687133,-0.0005967507390390662,-0.005757009490381444,0.00788461784301755,0.9928679244388549
2013-12-06,-1,-0.001199341743291663,-0.0009490531820469667,-0.005571333211693717,0.00788461784301755,0.9928403025028535
2013-12-10,-1,-0.0013319048837496868,-0.0010785030917881435,-0.0028953225441056708,0.008488466601727836,0.992433031851201
2013-12-12,-1,-0.00166014418345284,-0.0013698616939640377,-0.0028953225441056708,0.008488466601727836,0.9923349515266398
2013-12-16,-1,-0.0009416097526451798,-0.000737109680625657,-0.005613939536591504,0.0071198808891829776,0.9937550414928589
2013-12-18,-1,-0.00076168014147259,-0.000573471938587224,-0.006607808476431914,0.0023291629249214975,0.9942623432410963
2013-12-20,-1,-0.0005130458909721094,-0.0003596362098615921,-0.009504576540945681,0.0006076720880511547,0.9932591859209187
2013-12-24,-1,-0.0002758642586229826,-0.00017085935985082734,-0.009744067762434134,0.0002019832728573414,0.9922421162333246
2013-12-27,-1,-0.0007141649698944423,-0.00053365498834008,-0.009588644386185376,0.0002019832728573414,0.9925734528140119
2013-12-31,-1,-0.000529448064423868,-0.000353544201777529,-0.009588644386185376,-0.0007116683408865132,0.9930217224420024
2014-01-03,-1,-0.0006897296691567258,-0.0005062306165459933,-0.010006686613731972,-0.0008955832284556631,0.9921513991748191
2014-01-07,-1,-0.0012518536527764909,-0.000978193685613654,-0.010006686613731972,-0.0005517446627074494,0.992239287725929
2014-01-09,-1,-0.001583867140200886,-0.0012211147619446468,-0.010006686613731972,0.00018036016995795083,0.9906705826055316
2014-01-13,-1,-0.0015976027979739615,-0.0012812935722777772,-0.009588644386185376,0.0016495471302033575,0.9911023324370075
2014-01-15,-1,-0.0015191533107954689,-0.0012387962213109946,-0.009588644386185376,0.00477195541491315,0.9907413198612941
2014-01-17,-1,-0.002005934902481683,-0.0016771142300627357,-0.010006686613731972,0.00477195541491315,0.9908844660542583
2014-01-22,-1,-0.0033094160421663684,-0.002798932130114621,-0.007504754810153832,0.00477195541491315,0.9918497184839506
2014-01-24,-1,-0.004117382572719747,-0.003500119661246401,-0.0038174039607047866,0.005857878585956527,0.990729658391363
2014-01-28,-1,-0.003849053088268009,-0.0032970080210952633,-0.003046365766257893,0.006492923039554404,0.989430157390674
2014-01-30,-1,-0.003923098007769464,-0.0033531747547029707,-0.003046365766257893,0.007976931462316721,0.9887808044185681
2014-02-03,-1,-0.004510692911175102,-0.0038987628722189217,-0.003046365766257893,0.007976931462316721,0.9894013282127033
2014-02-05,-1,-0.004186396243192077,-0.0036243031852977664,-0.0038174039607047866,0.007244411415979663,0.9900416923267178
2014-02-07,-1,-0.0025409538182571507,-0.00218254719601294,-0.0038174039607047866,0.006248749690775385,0.9924234357758359
2014-02-11,-1,-0.0020661091782856367,-0.001793139750935314,-0.003547689062175789,0.006248749690775385,0.9926505010340201
2014-02-13,-1,-0.002155404669396949,-0.001859751683438754,-0.0028238645751946893,0.005532237378498643,0.992815766664322
2014-02-18,-1,-0.0027783769909270235,-0.0024103294865758067,-0.0028238645751946893,0.007244411415979663,0.9917933964384398
2014-02-20,-1,-0.0029140266670241847,-0.002547621637203973,-0.0028238645751946893,0.007244411415979663,0.9915217212576279
2014-02-24,-1,-0.0019180613172450314,-0.0016795670223017306,-0.0018350554449556434,0.005532237378498643,0.9927795665611686
2014-02-26,-1,-0.00037668412897323266,-0.0003462908070419325,-0.006539048021259778,0.004323240093810534,0.9935982962887672
2014-02-28,1,1.379778628587071e-05,1.808749582769867e-05,-0.006539048021259778,0.004211553800204291,0.9937679558538253
2014-03-04,-1,-0.0007236268800141358,-0.0005952116331416431,-0.006539048021259778,0.004323240093810534,0.9929404384331271
2014-03-06,-1,-0.0008247105970227658,-0.0007047723837805655,-0.0027447123653311376,0.0045683941811965,0.9928662893230442
2014-03-10,-1,-0.0003513159839049214,-0.00030091391149155664,-0.007526802941366106,0.0045683941811965,0.9916086669064995
2014-03-12,-1,-9.007079092906359e-05,-8.876655518722868e-05,-0.007526802941366106,0.0058957313531464665,0.990991400052991
2014-03-14,1,0.00016140685868959315,0.0002089949318144518,-0.011401780857117853,0.005346627587314809,0.9896489431676702
2014-03-18,1,0.0005334836458105802,0.0006413036275637812,-0.00893956382505312,0.003485842956644107,0.9909060614437202
2014-03-20,1,0.0004814900950828669,0.0005991364828928922,-0.00841180925255404,0.0038082288431161952,0.9909249402058616
2014-03-24,1,0.0009360116229483389,0.0011367599183067538,-0.00841180925255404,0.00329346604015419,0.991114113989792
2014-03-26,1,0.0002982916118219305,0.00044411705144961394,-0.007467705758908422,0.00329346604015419,0.9921957812531641
2014-03-28,1,0.0008827827179315364,0.0011207238598792927,-0.008274863104049407,0.00329346604015419,0.9917568822071104
2014-04-01,1,0.0013190495684100895,0.001617403094860679,-0.008274863104049407,0.00329346604015419,0.992322151222981
2014-04-03,1,0.0014494289238946945,0.001749520971686208,-0.008274863104049407,0.00329346604015419,0.9922968255312761
2014-04-07,1,0.0006813596626282529,0.0009243209262598914,-0.0063778452907583775,0.00329346604015419,0.993853696083155
2014-04-09,1,0.0014240766284517765,0.0018066390316921485,-0.0063778452907583775,0.00329346604015419,0.9935058195096212
2014-04-11,1,0.0008015868086589485,0.0011455224496196522,-0.00484122570815672,0.0037738522150264847,0.9951149615669845
2014-04-15,1,0.0008434082821384353,0.0011810418648993115,-0.0058659290986556,0.0037738522150264847,0.9947903985044458
2014-04-17,1,0.0007131189778278031,0.0010055661923069822,-0.0063778452907583775,0.004838346244289141,0.9940370082229258
2014-04-22,-1,-0.0001488268318699679,-3.9004755716553065e-05,-0.007081154856201161,0.004838346244289141,0.9923533366423474
2014-04-24,0,-5.765027959770075e-05,9.782224358352473e-05,-0.0063778452907583775,0.006801194772264794,0.9920914999603269
2014-04-28,-1,-0.0005666362269757962,-0.0005334793773647112,-0.0063778452907583775,0.006801194772264794,0.9919307878016471
2014-04-30,-1,-0.0012703045043003327,-0.0011630694919188582,-0.006457895353616431,0.006801194772264794,0.9917278215129047
2014-05-02,-1,-0.0011985202787470723,-0.0010860596661526303,-0.006457895353616431,0.008077206893264953,0.9915906318378316
2014-05-06,-1,-0.0018485996561119528,-0.0016426456019110885,-0.005282070477096592,0.008077206893264953,0.9915795671951884
2014-05-08,-1,-0.0012017603074173779,-0.0010475390318011352,-0.005282070477096592,0.006241379545561708,0.9923322583985384
2014-05-12,-1,-7.729351161717661e-05,-3.430951078197596e-05,-0.007488057340416936,0.005614376464368714,0.9918243988046298
2014-05-14,-1,-0.0001750604055768528,-0.00011617144528088181,-0.008128621371931353,0.005614376464368714,0.9916451639914294
2014-05-16,1,0.0003950081697707377,0.000553314975171311,-0.005905596950103553,0.0052013948634424476,0.992458785901354
2014-05-20,-1,-0.0009380774359755656,-0.0009244016520331205,-0.004405662802569123,0.005614376464368714,0.9932161429631151
2014-05-22,-1,-0.00030269722153614695,-0.00023778752813912352,-0.004605299112785205,0.0052013948634424476,0.9937652170974796
2014-05-27,1,0.00025324339514908305,0.0004349751669829818,-0.004605299112785205,0.004521554512531414,0.9938489698486273
2014-05-29,-1,-0.0001258483074103949,-9.530255351943798e-06,-0.004921108188874929,0.004521554512531414,0.9940625856911846
2014-06-02,1,0.0001554379862556734,0.00029399865456318535,-0.004921108188874929,0.004502480762478371,0.9942154956579907
2014-06-04,1,0.0006600491695534642,0.0008980445692735575,-0.004921108188874929,0.005034182965178537,0.9940281189483231
2014-06-06,1,0.000631456447632709,0.0008257141435578302,-0.005518765140633104,0.004502480762478371,0.9937291182926732
2014-06-10,-1,-0.0002763768013124124,-0.00021619701238621884,-0.004508549223179911,0.005034182965178537,0.9938871097526008
2014-06-12,-1,-0.0012169534515278969,-0.001119524971405149,-0.005228515471817222,0.005034182965178537,0.9930358014859522
2014-06-16,-1,-0.0018029160702436268,-0.0015752239608755577,-0.006840868614943797,0.004743692634912772,0.9927137420501185
2014-06-18,-1,-0.0015417150798982386,-0.001302004142120605,-0.008841956010807554,0.003584136946601021,0.9913679961641462
2014-06-20,-1,-0.00167392312390914,-0.001417460357556081,-0.009090230454307777,0.004743692634912772,0.9903773513242035
2014-06-24,-1,-0.002364572850713138,-0.0020329095077614057,-0.008123271639228642,0.005235698332961808,0.9908714476598061
2014-06-26,-1,-0.0036089061027641395,-0.0030704926835374625,-0.008123271639228642,0.006020549487013482,0.9904095145389311
2014-06-30,-1,-0.0033888723500380253,-0.0028874919605463914,-0.008123271639228642,0.0064835886413242075,0.9902451438385009
2014-07-02,-1,-0.0016221972254076835,-0.001423492756714296,-0.008123271639228642,0.00672270713329489,0.9903176305586058
2014-07-07,-1,-0.0017120487181780711,-0.0015092025018640562,-0.006377221124246393,0.00672270713329489,0.990311020144931
2014-07-09,-1,-0.0009410545651453434,-0.000830859537814842,-0.006377221124246393,0.00497478999688241,0.9909110996272309
2014-07-11,-1,-0.002615135348506272,-0.0022736729886094057,-0.003813219466790338,0.00672270713329489,0.9902675956094719
2014-07-15,-1,-0.0031291269421183376,-0.00270950621921113,-0.0046333391954377695,0.00672270713329489,0.990624000729536
2014-07-17,-1,-0.004363840966788997,-0.0038518546481338496,-0.0046333391954377695,0.008291073638993425,0.9916431838581808
2014-07-21,-1,-0.002956246111213567,-0.0026818088198601953,-0.0046333391954377695,0.008291073638993425,0.9920710526720087
2014-07-23,-1,-0.0021976964461378457,-0.0020455128078499286,-0.0046333391954377695,0.010175841966078888,0.9899623610941454
2014-07-25,-1,-0.001801284368799459,-0.0016884151981473934,-0.004933813736197628,0.011550259499473444,0.9865914558909231
2014-07-29,-1,-0.0013914155499793095,-0.0013003880728682032,-0.005894822637930399,0.011550259499473444,0.9863963809655044
2014-07-31,-1,-0.0008225748217181448,-0.0008152560107191488,-0.005116190236042457,0.010717477893080453,0.9867136985419239
2014-08-04,-1,-0.0004861067937514753,-0.0004451353964578035,-0.005116190236042457,0.010717477893080453,0.986819920818152
2014-08-06,-1,-0.0002988808599611451,-0.00022207391124910223,-0.005116190236042457,0.010717477893080453,0.9865289897090749
2014-08-08,1,0.0007586981667572104,0.0009902611455554749,-0.006680338082678726,0.010165010666816266,0.9882833833099324
2014-08-12,1,0.0004061598949413275,0.0005813929119783756,-0.007433641164735884,0.010165010666816266,0.988108014393726
2014-08-14,1,0.0006492921887363123,0.0008732742558348666,-0.0050285210442899166,0.008556181798332025,0.9888348134335238
2014-08-18,1,0.0005035495347051624,0.0006593869844974357,-0.0031554787855325823,0.007423541113958126,0.9894824024151899
2014-08-20,1,0.0021111479146443774,0.002502336464472847,-0.0031554787855325823,0.005275396462214212,0.9918584222827553
2014-08-22,1,0.0041765575868038295,0.004861398147334942,-0.0031554787855325823,0.004525652171789005,0.9942070465859217
2014-08-26,1,0.0042500895863237355,0.004956091417116257,-0.0031554787855325823,0.004525652171789005,0.9935738343303427
2014-08-28,1,0.003868382150788478,0.004456002739911841,-0.004587336398285945,0.004525652171789005,0.9928978565078586
2014-09-02,1,0.004082696639739315,0.004711058474057958,-0.0060320504908617945,0.0029146608139669567,0.9921598344972133
2014-09-04,1,0.003863660300542468,0.004403209762994695,-0.007313966696396293,0.0023859299665772984,0.9916344590340714
2014-09-08,1,0.0036210032197615265,0.004127322792372878,-0.007378535036526886,0.0035940355798659927,0.9910707516066761
2014-09-10,1,0.0032129391410315707,0.0036588291989537876,-0.007378535036526886,0.008137308669865555,0.9909169935420505
2014-09-12,1,0.0031218754952020283,0.00355459822418471,-0.007378535036526886,0.012026455716210105,0.9903341820210261
2014-09-16,1,0.002997230241992188,0.0033941302483166866,-0.007982958374589467,0.013289332370410446,0.9898136582087785
2014-09-18,1,0.0029413014260407403,0.003323083566906121,-0.008660620915263099,0.013289332370410446,0.9889907746577566
2014-09-22,1,0.0024208961527364256,0.0027255573553551815,-0.007982958374589467,0.015394993489838606,0.9892048073715513
2014-09-24,1,0.0028867346907826127,0.0032570122634297174,-0.007982958374589467,0.01511363306145375,0.9896835796442774
2014-09-26,1,0.002753629272984632,0.0030835358848560457,-0.007378535036526886,0.013226723316734008,0.9906132059646083
2014-09-30,1,0.002796835087360081,0.0031647888287230416,-0.0047424866129251834,0.013226723316734008,0.9908063719928685
2014-10-02,1,0.00294315638454086,0.0033426517059263073,-0.003579478095112742,0.013226723316734008,0.9911397579439265
2014-10-06,1,0.002748826737915191,0.003102350513548963,-0.0032174718304160232,0.010273446883690156,0.9922173736816396
2014-10-08,1,0.0030204914577743203,0.0034199191736955306,-0.0032174718304160232,0.008891406690552377,0.9929102030359241
2014-10-10,1,0.0028760177559086185,0.003188083106864821,-0.003264712041733503,0.008891406690552377,0.9929406458537285
2014-10-14,1,0.003109797397238425,0.003474653260672107,-0.003264712041733503,0.008891406690552377,0.9932626642132247
2014-10-16,1,0.0025522923349991667,0.0028455995683492083,-0.0028617528148247515,0.009742984347624542,0.993554875768152
2014-10-20,1,0.002927434755504981,0.0032514310698347824,-0.003264712041733503,0.008891406690552377,0.9933456765598347
2014-10-22,1,0.0032893480825579107,0.003671085273305138,-0.003264712041733503,0.008891406690552377,0.993626694276047
2014-10-24,1,0.0038843950985578777,0.004341912720944141,-0.003264712041733503,0.010579287679122511,0.9900520488354088
2014-10-28,1,0.0030380051972681774,0.003399671083738439,-0.0029618059358973285,0.010579287679122511,0.9902031439270076
2014-10-30,1,0.002775808960514508,0.0030666777219810347,-0.002811504855916213,0.010883893282530326,0.9899046874074747
2014-11-03,1,0.0025753461074336913,0.002813325577880439,-0.003337833422266331,0.010883893282530326,0.9893431357310561
2014-11-05,1,0.00232373217961023,0.0025260097147761836,-0.002811504855916213,0.010883893282530326,0.9898064060372633
2014-11-07,1,0.0026057849465383888,0.0028663883536060447,-0.003172138000273949,0.010579287679122511,0.990068571459979
2014-11-11,1,0.002582340557713178,0.0028293303881815617,-0.0038983338147818925,0.0073594588192540025,0.990068032128347
2014-11-13,1,0.0023040662607676857,0.002485244860780199,-0.0038983338147818925,0.00744197355625273,0.9897833951053788
2014-11-17,1,0.0016156547685479597,0.0016842403884282592,-0.0038983338147818925,0.011315095240501458,0.9888059506410849
2014-11-19,1,0.0017558148415581923,0.0018359066673837375,-0.0038983338147818925,0.013642104272853497,0.9880734022924977
2014-11-21,1,0.0038178868635570587,0.004183208574582579,-0.0042886066560586895,0.01072604168381801,0.9899078064089086
2014-11-25,1,0.0036227428099043324,0.003941234236507933,-0.005527566586119633,0.01072604168381801,0.9897017136244189
2014-11-28,1,0.004259072108042867,0.004677409232704615,-0.005527566586119633,0.007804290238174213,0.9900868051469723
2014-12-02,1,0.003297521692659079,0.003533244647024373,-0.0042886066560586895,0.007804290238174213,0.9909231876854745
2014-12-04,1,0.00313299412771149,0.0033243621593958975,-0.005375277440252838,0.007804290238174213,0.9904881902360162
2014-12-08,1,0.001834981795567243,0.0018804085226665182,-0.004315547427117514,0.01072604168381801,0.9904530040060878
2014-12-10,1,0.0014124394849564933,0.0015074763205352884,-0.0033876077987953493,0.014013323079029184,0.9895598629171867
2014-12-12,1,0.0015528374340823565,0.0016392858062579917,-0.005824417788883867,0.009987562304672825,0.98972546001328
2014-12-16,1,0.001170760080393012,0.001303736915618997,-0.007352631134834997,0.007804290238174213,0.9895214496214911
2014-12-18,1,0.0018391251777762235,0.0019005041303074167,-0.010524850010613877,0.00740049678781749,0.9893107358443051
2014-12-22,1,0.0018185541731711254,0.00188400957037061,-0.007352631134834997,0.00740049678781749,0.9902381061177796
2014-12-24,1,0.0014896883645501495,0.0015982479441969703,-0.006747575326599133,0.00740049678781749,0.9902886553928798
2014-12-29,1,0.0015377508810933767,0.0016411061639862792,-0.009618640193162907,0.006090929331439651,0.9899009540954062
2014-12-31,1,0.0017025712201013707,0.0017564253818687396,-0.010524850010613877,0.006090929331439651,0.9889468361897394
2015-01-05,1,0.0010151748076097002,0.001174992426468604,-0.010524850010613877,0.008281984845728308,0.9880559433834298
2015-01-07,1,0.0013046301791845196,0.00143668280825144,-0.010524850010613877,0.006090929331439651,0.9889399290302827
2015-01-09,1,0.0009475230764525674,0.0011182241966266706,-0.009618640193162907,0.004741056598391446,0.9901953203457765
2015-01-13,1,0.0013301021541944776,0.00139693059463943,-0.0076897334487049385,0.004741056598391446,0.9903219644312437
2015-01-15,1,0.0011772707366969463,0.0012013841166620396,-0.004206240707169386,0.006338833930272452,0.9917753988398217
2015-01-20,1,0.0011820794154893581,0.0012122698398426127,-0.002109171404440754,0.006178026231058892,0.9928892177973871
2015-01-22,1,0.0019359821365702412,0.0020132094588286207,-0.002109171404440754,0.006178026231058892,0.9936759232728555
2015-01-26,1,0.0021294288061191905,0.0022359589248538963,-0.004206240707169386,0.007126893858700269,0.9931145665268585
2015-01-28,1,0.0017222309559053219,0.0017897890494632718,-0.0006274825715893297,0.007126893858700269,0.9938273536162948
2015-01-30,1,0.0006745395946930462,0.0007334187186308163,0.0012765923419186223,0.007948072079354404,0.9912630728092955
2015-02-03,1,0.0011395397534439708,0.001165405840745,-0.002109171404440754,0.007126893858700269,0.992384042895578
2015-02-05,1,0.001004560162686541,0.0010551617599446938,-0.003837587556740002,0.007126893858700269,0.9919980406872785
2015-02-09,1,0.0007675176277718958,0.0008442528984533217,-0.004046051043529163,0.007948072079354404,0.991486198790088
2015-02-11,1,0.0006578154991640366,0.0007499797165639407,-0.0022078199916525662,0.009072104664494648,0.9915463127647346
2015-02-13,1,0.000603526988182705,0.000726555848481882,-0.002688503497947341,0.00807780446107578,0.991703427503725
2015-02-18,1,0.0007537056653267467,0.0008443651563199497,-0.004283916445619668,0.00807780446107578,0.9915616048874087
2015-02-20,1,0.0009369535701041797,0.001009350291226341,-0.004283916445619668,0.007997810643207764,0.9914107069659956
2015-02-24,1,0.0006552861574079421,0.0007733229896672749,-0.004283916445619668,0.006968681561807853,0.9916392487236653
2015-02-26,1,0.000735291647285412,0.0008470371175331815,-0.00507968728285453,0.006968681561807853,0.9906474183758424
2015-03-02,1,0.002209199794058164,0.002272689427503061,-0.00507968728285453,0.006968681561807853,0.992889670516697
2015-03-04,1,0.0018721428343965209,0.0018952900863771658,-0.005340446401028871,0.006968681561807853,0.9925415177751901
2015-03-06,1,0.0016585698393382564,0.001665085889935673,-0.00517958639130457,0.006968681561807853,0.9928817350758724
2015-03-10,1,0.0016239969411017728,0.0016282063686151474,-0.0067426748901127315,0.006968681561807853,0.9925297338120456
2015-03-12,1,0.0014363940446329056,0.0014833599114498965,-0.0067426748901127315,0.004288256095031978,0.9926983762078101
2015-03-16,1,0.0016482674295085955,0.0016532781943660042,-0.0067426748901127315,0.004288256095031978,0.9925776956112222
2015-03-18,1,0.0012826633253330802,0.0013150238807407586,-0.005691775393522262,0.004288256095031978,0.9930281872530181
2015-03-20,1,0.00161375369768588,0.001632861044827925,-0.010089207705767515,0.0027003706207494914,0.9911622941696799
2015-03-24,1,0.0012031451980847024,0.001246340220769122,-0.005730714717975826,0.0043658874391304435,0.9912888541483339
2015-03-26,1,0.00039439073716063554,0.0005281196212694201,-0.0036310598045986076,0.006094634484407742,0.9925451917326046
2015-03-30,1,0.0007375186208690676,0.0008344503802870767,-0.004764887222341975,0.0035425754072143205,0.9920591026916223
2015-04-01,1,2.8300288874504053e-05,0.0002247187728257157,-0.006962341664105481,0.0035425754072143205,0.9916582944241624
2015-04-06,0,-7.336368509854485e-05,0.00013090750317329316,-0.006962341664105481,0.006094634484407742,0.9901398715484088
2015-04-08,0,-0.00015537914026653903,5.495706339224112e-05,-0.006583650794681337,0.005971787582386369,0.9905740358321712
2015-04-10,-1,-0.0003582480075271896,-0.0001297959769036614,-0.006583650794681337,0.00668735880479479,0.9898399648379641
2015-04-14,-1,-0.0006976853003571997,-0.0004041718953663886,-0.006583650794681337,0.005971787582386369,0.9901456040616194
2015-04-16,-1,-0.0008236778452999395,-0.0005228390468836834,-0.008304074120153208,0.005971787582386369,0.9891699786924258
2015-04-20,1,2.1364627439952215e-05,0.00014359791785367406,-0.007512765142874308,0.00774142624718384,0.9898501940097738
2015-04-22,1,0.0003444691541985599,0.0004371991876603226,-0.008304074120153208,0.006257675793511312,0.9892628393224665
2015-04-24,1,0.0007784559098248436,0.0007920501291784602,-0.011166580383162998,0.006257675793511312,0.9869969292715574
2015-04-28,-1,-0.0003691731622076515,-0.00018601640906237165,-0.010377635541829053,0.00748695868919934,0.9872460400109729
2015-04-30,-1,-0.0012827865551114405,-0.001003934283997668,-0.007512765142874308,0.00748695868919934,0.9883582030514362
2015-05-04,-1,-0.0007706652429089506,-0.00053389679232077,-0.007512765142874308,0.006257675793511312,0.9896242890613508
2015-05-06,-1,-0.001130315654475242,-0.0008308218364450209,-0.005982222682143651,0.007180122579937235,0.9895703424560978
2015-05-08,-1,-0.0005466346094039955,-0.00032992503075704785,-0.005982222682143651,0.006146023140935774,0.9904225869366793
2015-05-12,-1,-0.0009701685632741958,-0.0006894435117903546,-0.004477410450091241,0.006146023140935774,0.9905341220259954
2015-05-14,-1,-0.0014011540859136615,-0.001115533336837274,-0.002903783109021558,0.006146023140935774,0.9912610476411273
2015-05-18,-1,-0.00036187160845133667,-0.0002059543059838948,-0.002903783109021558,0.005110165644321891,0.9921605459642753
2015-05-20,-1,-0.0010329516348218438,-0.0007870653279749681,-0.0026889769050386057,0.005501590179713108,0.9923320568080595
2015-05-22,-1,-0.0021344133807166005,-0.0017806096937274622,-0.0026889769050386057,0.005510928227560749,0.994057279866948
2015-05-27,-1,-0.0022961513441766505,-0.0019252875242040447,-0.0026889769050386057,0.004896396207190798,0.9945789526016222
2015-05-29,-1,-0.002394599345402381,-0.0020020146356191197,-0.002785208164962407,0.005510928227560749,0.9941283222832211
2015-06-02,-1,-0.0018423315587419364,-0.00154983208516476,-0.003192476888792961,0.005510928227560749,0.9928700252740498
2015-06-04,-1,-0.0016821729395934746,-0.0013992124208443081,-0.002785208164962407,0.005510928227560749,0.9928087973500311
2015-06-08,-1,-0.0018382230990054347,-0.0015325221220348773,-0.0020073399615303015,0.009694930015084395,0.991452503383167
2015-06-10,-1,-0.002626380084742276,-0.002162480275837914,-0.0038253359876138354,0.009694930015084395,0.9910129021459702
2015-06-12,-1,-0.002740775266916948,-0.00227691201139419,-0.0020073399615303015,0.010887671597181448,0.9890966801943434
2015-06-16,-1,-0.0018550947247317536,-0.0015346281790519383,-0.0023660845834116355,0.010887671597181448,0.99014343664899
2015-06-18,-1,-0.0010786065097574652,-0.0008624797706646296,-0.0038253359876138354,0.010887671597181448,0.9901720052260637
2015-06-22,-1,-0.0013855753429116032,-0.0011046938835273072,-0.0030212235521580254,0.010887671597181448,0.9899263128396106
2015-06-24,-1,-0.0020155075577124072,-0.0016265504392347916,-0.0030212235521580254,0.010887671597181448,0.9896960139214249
2015-06-26,-1,-0.0013956348314377448,-0.001123585411052343,-0.004666037856866631,0.010887671597181448,0.9899739255213823
2015-06-30,-1,-0.0024405096821126723,-0.0020511672314353193,-0.0025188972366521982,0.01157560578690095,0.9905690908211446
2015-07-02,-1,-0.0020839602250110447,-0.0017294806572511832,-0.0025188972366521982,0.010887671597181448,0.9910835541869634
2015-07-07,-1,-0.00127130621958779,-0.0010132609765478606,-0.002779462761348734,0.00863751845234859,0.9924310690654246
2015-07-09,-1,-0.0012183217063848075,-0.0009869053449403384,-0.002779462761348734,0.010718055924525422,0.9921687935242008
2015-07-13,1,0.00016417757557681147,0.0002268774887609352,-0.003951127873759317,0.00863751845234859,0.9931864057735511
2015-07-15,1,0.0002578733047434453,0.0002918598186467043,-0.004552848128439806,0.00863751845234859,0.9929729651125212
2015-07-17,1,0.00018366771772957628,0.0002254568850149465,-0.003951127873759317,0.007815752148540885,0.9940964370111496
2015-07-21,1,0.0006165353361588216,0.0006413253397835531,-0.003951127873759317,0.008873205874162616,0.9921330407024993
2015-07-23,1,0.0019828953717665747,0.0023175100738786767,-0.004552848128439806,0.008743476295579354,0.9916712119358925
2015-07-27,1,0.0014607061769060575,0.0017153263274499292,-0.005642917086496069,0.008743476295579354,0.9862627443238181
2015-07-29,1,0.0015860858914577055,0.0018357243978672608,-0.008392651720987817,0.008743476295579354,0.984152377423033
2015-07-31,1,0.0018335821410751388,0.0021239285164894465,-0.008392651720987817,0.011851384222643735,0.9834917342009328
2015-08-04,1,0.002085192578500608,0.0024339781475732772,-0.014959207460771137,0.011851384222643735,0.981566750766632
2015-08-06,1,0.002308720910585042,0.00269406061552556,-0.014959207460771137,0.012957228681064128,0.9813008984598366
2015-08-10,1,0.0022256898516659135,0.0025808191028876986,-0.014959207460771137,0.014721786548591537,0.9810123946087275
2015-08-12,1,0.002361634376777562,0.0027631993054627302,-0.014959207460771137,0.014721786548591537,0.9805584709289343
2015-08-14,1,0.0023475190747685834,0.002733645307355068,-0.014959207460771137,0.014721786548591537,0.9798802494645548
2015-08-18,1,0.003431271044677115,0.003907713554969744,-0.014959207460771137,0.007336995265640062,0.9814713469572987
2015-08-20,1,0.0029780848430938965,0.003427378323734058,-0.017583922514397672,0.010705221607754629,0.9809868287882385
2015-08-24,-1,-0.0013109916619049307,-0.0011807837357831505,-0.010884772340904913,0.010705221607754629,0.9866987512540704
2015-08-26,-1,-0.0007911574030788521,-0.0007225134328449258,-0.00850647733237952,0.007336995265640062,0.9892435573548607
2015-08-28,-1,-0.00041656449529111283,-0.0003935576909046266,-0.010884772340904913,0.006555362886218681,0.9884610946707321
2015-09-01,-1,-0.0018049590156183413,-0.0016133742856716744,-0.0053194576484781285,0.007336995265640062,0.9889440348093476
2015-09-03,-1,-0.0009538919497270463,-0.0008690122918098479,-0.00850647733237952,0.007336995265640062,0.988837654874338
2015-09-08,-1,-8.127596233509495e-05,-6.614744312978638e-05,-0.010884772340904913,0.007162862205475331,0.9884152283991327
2015-09-10,-1,-0.0002226729720476458,-0.0002021742918013641,-0.010884772340904913,0.00887564329893141,0.9878676766486933
2015-09-14,-1,-0.00015577474016697238,-0.0001395395697482739,-0.005989901505643945,0.01095286821233547,0.9871616725078023
2015-09-16,1,0.00013361109788207645,0.00019750337134976203,-0.014241672273265178,0.01095286821233547,0.985650599730397
2015-09-18,-1,-0.0007110726716946414,-0.0006291021834548483,-0.011034635793798337,0.01750682134872438,0.9856840659825862
2015-09-22,-1,-0.0014400433914854693,-0.0012250099965792887,-0.006506728395565313,0.01750682134872438,0.9862047108445292
2015-09-24,-1,-0.0009469185595882114,-0.0008301827516915136,-0.005530067061765558,0.01750682134872438,0.9857383103336724
2015-09-28,-1,-0.0019512339594884242,-0.0017166830665785366,-0.005530067061765558,0.01750682134872438,0.9856712599788643
2015-09-30,-1,-0.0009005494828546977,-0.0008125287812029702,-0.012646532696226785,0.01750682134872438,0.985346428813416
2015-10-02,-1,-0.0007531287888462632,-0.0006759179220233709,-0.005739942231829654,0.017183633322309665,0.9863121787522138
2015-10-06,-1,-0.0020077921563547863,-0.001740440497065174,-0.0032278702402998476,0.01750682134872438,0.9866458263279169
2015-10-08,-1,-0.00039291681496492995,-0.0003643774833294776,-0.0032278702402998476,0.017183633322309665,0.9883049569794696
2015-10-12,1,0.00036895547573462023,0.00041242020018329907,-0.01442592097125821,0.010263078793643427,0.9874952714216513
2015-10-14,-1,-0.0017147637128947873,-0.0014490460745620135,-0.005739942231829654,0.016804932461650178,0.9873600757836187
2015-10-16,-1,-0.0006540642004624729,-0.000499888476067519,-0.015152768667890972,0.005315445499780355,0.9855189386247777
2015-10-20,-1,-0.0005897427926923318,-0.0004516925428849563,-0.015152768667890972,0.01302205699984109,0.9839758015354717
2015-10-22,-1,-0.0001510951480890217,-6.835309375765786e-05,-0.015152768667890972,0.008928035481982614,0.9845475620737956
2015-10-26,-1,-0.00058421680577576,-0.0004726549962079827,-0.009545285675388496,0.01302205699984109,0.9809671266684064
2015-10-28,-1,-0.0004162509504059054,-0.0003192389826630229,-0.0056669907081001855,0.01302205699984109,0.9811182376766354
2015-10-30,-1,-0.0002985283649689916,-0.00021718556872298402,-0.00942343122961722,0.01302205699984109,0.9810252673387592
2015-11-03,1,0.00012029225836462928,0.00016374498319725973,-0.00942343122961722,0.01302205699984109,0.9807191560155125
2015-11-05,1,0.00016068599180541984,0.0001851580683257325,-0.013975395127968873,0.017711672251370734,0.9784984929887557
2015-11-09,-1,-0.0007741071036509912,-0.0006641703554187621,-0.006820804022521758,0.017711672251370734,0.9797739729576389
2015-11-11,-1,-0.0010217355007733906,-0.0008867005964324926,-0.006727357202885413,0.014388640673076304,0.9814244824531679
2015-11-13,-1,-0.0030014343287814715,-0.002631018379277524,-0.005123885237014753,0.017093835868891252,0.9831858909789006
2015-11-17,-1,-0.0020654851122712163,-0.001810518963137668,-0.006118193484801802,0.015755576000879824,0.9842265463468695
2015-11-19,-1,-0.0026508827433314674,-0.0022870387734488335,-0.008781165546421409,0.015755576000879824,0.9829556120210923
2015-11-23,1,0.00029566583707332507,0.000297731370599295,-0.008781165546421409,0.015755576000879824,0.9870280802291256
2015-11-25,1,0.0012574723403014523,0.0014155678710126114,-0.008781165546421409,0.013126679058983345,0.9884946265147515
2015-11-30,1,0.0008431915844185674,0.0009379598600322584,-0.006727357202885413,0.013126679058983345,0.9888092656120933
2015-12-02,1,0.0019525372821198148,0.0022490275924845773,-0.008781165546421409,0.010649878405179218,0.9889044553322314
2015-12-04,1,0.0022297108116691505,0.0025600745225359805,-0.007343064897384234,0.01018583976975839,0.9907066065079333
2015-12-08,1,0.002341310661366008,0.0026841614022416315,-0.008781165546421409,0.009496999462454015,0.9904725383450197
2015-12-10,1,0.002321168695088599,0.002676227292544429,-0.011563121344011254,0.009581801934973285,0.989059082061086
2015-12-14,1,0.0024101756141678746,0.0027766350744418376,-0.01401114174345715,0.009581801934973285,0.986601419475698
2015-12-16,1,0.0024107960688752473,0.0027539541795921557,-0.01401114174345715,0.009581801934973285,0.9865763921558262
2015-12-18,1,0.0016631798753421272,0.0019247222506883974,-0.008214126783087868,0.009581801934973285,0.9880005297596409
2015-12-22,1,0.002298948018353656,0.0026530381510462306,-0.008214126783087868,0.009581801934973285,0.9872426198933754
2015-12-24,1,0.002290178433051349,0.0026427904446808576,-0.009712066520910332,0.01018583976975839,0.9863590612085479
2015-12-29,1,0.002614755949374604,0.003019371752884787,-0.010056385280753508,0.009655502649160805,0.9861433259190857
2015-12-31,1,0.0022031560266268808,0.0025581525184882725,-0.009712066520910332,0.010823031135776675,0.9851154092628156
2016-01-05,1,0.0025331697862702937,0.00292605065998026,-0.010056385280753508,0.010071591872616532,0.9840418210816188
2016-01-07,1,0.0021747174234611217,0.002524920137167659,-0.010405594591298355,0.010071591872616532,0.9833417646485039
2016-01-11,1,0.002367846395515848,0.0028219331532919594,-0.010056385280753508,0.012363819653438756,0.9842400052155195
2016-01-13,1,0.001930144947282067,0.0022927565972762926,-0.010405594591298355,0.009683306592538275,0.985992764472477
2016-01-15,1,0.00021362980812741583,0.00026022347959533807,-0.010405594591298355,0.015556373731815093,0.985000405374851
2016-01-20,1,0.0002792101500973084,0.0003052981512861072,-0.010405594591298355,0.015556373731815093,0.9853461816510631
2016-01-22,1,0.00126512951814668,0.0013772060012900733,-0.010405594591298355,0.0133137469091027,0.9863055794258417
2016-01-26,1,0.0007400677056737474,0.0007565644805075729,-0.010405594591298355,0.01421317844225667,0.9865695012771198
2016-01-28,1,0.0007758369698381755,0.000788002367912755,-0.006217819982407179,0.01421317844225667,0.9867444803733677
2016-02-01,1,0.0022611101118742566,0.002504253666046044,-0.011602577217235599,0.01421317844225667,0.9866331182310603
2016-02-03,1,0.0014820937484421933,0.0016194027561450286,-0.006217819982407179,0.017820480048601567,0.9871634219655028
2016-02-05,1,0.000493411290249116,0.0005000515620751841,-0.004451155439234305,0.017820480048601567,0.9883040913384534
2016-02-09,1,0.0010469936171719355,0.0011190289017240247,-0.005263013073410921,0.01421317844225667,0.9885708119412701
2016-02-11,-1,-0.00016197536639884369,-6.453223522726417e-05,-0.003060883760128358,0.01421317844225667,0.9891554131230472
2016-02-16,1,0.0009388572206057829,0.0009641347703937332,-0.003060883760128358,0.011628369853915695,0.9912743534750539
2016-02-18,1,0.0007403592007714543,0.0007462671741348509,-0.002430386491590807,0.011628369853915695,0.9911236232330378
2016-02-22,1,0.00045281911952538994,0.0005332035435396467,-0.003060883760128358,0.011628369853915695,0.9905517963897595
2016-02-24,1,0.0010422854451679411,0.001055200100488581,-0.004642615546362182,0.008464479245381538,0.9911282178923403
2016-02-26,1,0.0009848322251612982,0.0009951886176558305,-0.005837393394794552,0.008464479245381538,0.9907891501426864
2016-03-01,1,0.0005010959385171616,0.0005796086777948449,-0.00328185098756836,0.00785133803904486,0.9924553279903188
2016-03-03,1,0.0014860559784055304,0.0015632257468338668,-0.005837393394794552,0.00785133803904486,0.9928671526871558
2016-03-07,1,0.0016191653305360075,0.0017545049666818633,-0.005864630831856905,0.00785133803904486,0.9925693369871241
2016-03-09,1,0.0005009589158440413,0.0005671911371314806,-0.005864630831856905,0.009059043400265745,0.9914579446266616
2016-03-11,1,0.0014936828235091431,0.0015980752723547872,-0.0077792434250097756,0.005121357477978839,0.9918479844430083
2016-03-15,1,0.0014588007060177682,0.0015547753425451166,-0.0077792434250097756,0.00785133803904486,0.9914266366340272
2016-03-17,1,0.0016669752556953495,0.0018068610346395893,-0.0077792434250097756,0.006987651506086259,0.991659751482529
2016-03-21,1,0.001190066676073306,0.0012312177234299114,-0.005864630831856905,0.006987651506086259,0.9921704493164426
2016-03-23,1,0.001081472290435429,0.0011174333780431655,-0.005001318726924465,0.006987651506086259,0.9921602370904532
2016-03-28,1,0.0007968364880498468,0.0007971560884231293,-0.005001318726924465,0.006987651506086259,0.9922225301229489
2016-03-30,1,0.0012663282599061519,0.001357443507741184,-0.005001318726924465,0.009727086554736602,0.9917662793049432
2016-04-01,1,0.0012504379524354223,0.0013295200344979091,-0.008901053169497006,0.007210332557576544,0.9914196231493271
2016-04-05,1,0.0001203073986251039,0.00024144335738738367,-0.005899473950255069,0.009727086554736602,0.9914267681463215
2016-04-07,-1,-0.000688798781272648,-0.0004604663357770921,-0.005899473950255069,0.007210332557576544,0.992268735849525
2016-04-11,-1,-0.0026136295675153803,-0.002024582270603762,-0.00437472890200623,0.01054228892842765,0.9910769771704585
2016-04-13,-1,-0.001785237014624261,-0.0013341987121799344,-0.01017736287008092,0.01054228892842765,0.9891076525409247
2016-04-15,-1,-0.001999834455367422,-0.0015176613657751554,-0.010609818900721293,0.010598987347904954,0.9880266920506627
2016-04-19,0,-0.00014495978537952352,2.2352313650249008e-05,-0.011924680179761492,0.010598987347904954,0.9862652732328264
2016-04-21,1,0.0002440706485639451,0.00031444378097239447,-0.011924680179761492,0.010953757199004786,0.9851778191782632
2016-04-25,-1,-0.0002829229555557089,-0.00014452914955434136,-0.0134152659829272,0.010953757199004786,0.983278849629997
2016-04-27,1,0.0007944119964230892,0.0008258280152176285,-0.0134152659829272,0.012521236626880348,0.9832158378503241
2016-04-29,1,0.00019140285019794421,0.00021793290350604673,-0.01123154097359626,0.012521236626880348,0.9840457203291324
2016-05-03,1,0.0005093697898383193,0.0005290609244943292,-0.01123154097359626,0.010953757199004786,0.9843995908416601
2016-05-05,-1,-0.00010845918261749254,-4.229916947851614e-05,-0.010531066141623698,0.010953757199004786,0.9847984603231387
2016-05-09,1,0.0008170506883431773,0.0008703466554213113,-0.0118757121101983,0.00958484945021729,0.9846772756905202
2016-05-11,-1,-0.0010807363607846748,-0.0009193431684706853,-0.01002670055738329,0.012556332700723784,0.9869158487160277
2016-05-13,-1,-0.0018394719878701222,-0.0015340327653824164,-0.009953290257121822,0.01020140363742704,0.9877347116398638
2016-05-17,-1,-0.001265128545782861,-0.0010642330544537479,-0.005299799256435467,0.00818438528145107,0.9892077249049576
2016-05-19,-1,-0.0006898453473307784,-0.00055608962189824,-0.004891217799312163,0.007482602037332982,0.9902452228185964
2016-05-23,-1,-0.0022257153615432125,-0.0019306581679264612,-0.0022312778393373785,0.00818438528145107,0.9919012509840487
2016-05-25,-1,-0.00196368016882656,-0.0016695489385744058,-0.006874811573600679,0.007482602037332982,0.9926572718980092
2016-05-27,-1,-0.001378803919858456,-0.0011774422191918694,-0.006874811573600679,0.006732120351499853,0.9925354854990592
2016-06-01,-1,-0.0020732460283080685,-0.001764124984938165,-0.004133756755616463,0.007822420920209332,0.9917562774745092
2016-06-03,-1,-0.002585152674801995,-0.0021846480246943134,-0.003979637369758347,0.008678481631193807,0.991415917076061
2016-06-07,-1,-0.00263778876315027,-0.0022220874023454757,-0.0020853773644844776,0.007822420920209332,0.9922466373806086
2016-06-09,-1,-0.0021209650938496206,-0.0017628731805941515,-0.003492754222979148,0.007822420920209332,0.9920134838246464
2016-06-13,-1,-0.002639167475711538,-0.002214740518907551,-0.002893576751066959,0.007822420920209332,0.9922786656470951
2016-06-15,-1,-0.0014841933824345254,-0.0012517372749008744,-0.002893576751066959,0.007664685780202374,0.9931486810464369
2016-06-17,-1,-0.0014646901806619089,-0.0012400360900257788,-0.002364452065738817,0.008521679874730062,0.9924828510599008
2016-06-21,-1,-0.0012617923464183704,-0.0010491072554673188,-0.002364452065738817,0.007664685780202374,0.992791855848177
2016-06-23,-1,-0.0007000588508612134,-0.0006340054857945122,-0.0006798849570434232,0.008521679874730062,0.9928477940675086
2016-06-27,-1,-0.0008035455032375338,-0.000682009566936657,-0.0006798849570434232,0.012763655138306247,0.9918123544708575
2016-06-29,-1,-0.0008387052803395202,-0.0006651542704057653,-0.001822813199003774,0.012763655138306247,0.9923866232216564
2016-07-01,-1,-0.0001625460207212654,-0.00010032948496657907,-0.001822813199003774,0.00928062257577791,0.9930055210513998
2016-07-06,-1,-0.0006448022810832596,-0.0004701993008220536,-0.002364452065738817,0.011076501805873348,0.9921565294217214
2016-07-08,1,0.0007986429891484707,0.0008657995459796862,-0.001822813199003774,0.008751243156682928,0.9935378485846166
2016-07-12,1,0.0005662460876906419,0.0005952662392991102,-0.0022751459108239216,0.008751243156682928,0.9928748765217463
2016-07-14,1,0.0007436890021155285,0.0008116991477569364,-0.0022751459108239216,0.011076501805873348,0.9922073464357097
2016-07-18,1,0.0013416096550833612,0.0015114539839382666,-0.0022751459108239216,0.011076501805873348,0.9922345733271208
2016-07-20,1,0.001451392876537041,0.001635183506585662,-0.004406801695380949,0.011076501805873348,0.9910451376174957
2016-07-22,1,0.0016330050957161606,0.0018377251751887807,-0.004406801695380949,0.011386533755032242,0.9897954232885463
2016-07-26,1,0.00280421269257004,0.0032067817124025203,-0.006466872478715735,0.008441917769288165,0.9905927159489728
2016-07-28,1,0.002410806841072204,0.002750461922857008,-0.006816128693844496,0.008441917769288165,0.9904187327160505
2016-08-01,1,0.002230922648901981,0.0025180077643763904,-0.006816128693844496,0.0075400014263587575,0.990523052349848
2016-08-03,1,0.002384779118444761,0.0027280845137898167,-0.006816128693844496,0.006128434081417423,0.9908354046608425
2016-08-05,1,0.0025960300815128347,0.0029697940729074843,-0.006816128693844496,0.005945576500526422,0.9907816496682278
2016-08-09,1,0.002186112802207929,0.002514288010457645,-0.003450214510481297,0.005945576500526422,0.9918268029892782
2016-08-11,1,0.002668388813570358,0.0030571678505451005,-0.006816128693844496,0.0030896976261624845,0.9904150490148818
2016-08-15,1,0.0030746562744645278,0.0035076049146481126,-0.00758924199527191,0.0030896976261624845,0.9898832289321055
2016-08-17,1,0.002468751863610799,0.00280268667361563,-0.006816128693844496,0.0030896976261624845,0.9911389614668609
2016-08-19,1,0.0037172825503087293,0.004233739781913241,-0.006816128693844496,0.00215626859617228,0.9918006179668792
2016-08-23,1,0.0033819566951454405,0.003858703712259797,-0.003450214510481297,0.005727336144950308,0.9926922148228321
2016-08-25,1,0.0027950099567164415,0.003171227571668581,-0.002261766708770617,0.006306349342733196,0.9934903167140042
2016-08-29,1,0.0022916010464420606,0.002565828803633733,-0.0012790724546086329,0.007667655861417636,0.9931551357434965
2016-08-31,1,0.001712014509909765,0.001887221375444613,-0.0015027367275033628,0.007667655861417636,0.9929728404341829
2016-09-02,1,0.00204445040848686,0.002285913533727319,-0.0015027367275033628,0.009736454858510346,0.9924203337218803
2016-09-07,1,0.0020103639140622584,0.0022439765305708797,-0.0015027367275033628,0.009736454858510346,0.9923821220968497
2016-09-09,1,0.001200594108996569,0.0013410270256558998,-0.001295503392474578,0.009736454858510346,0.9937317029279156
2016-09-13,1,0.0012422418285886658,0.0013780928950929165,-0.001295503392474578,0.007667655861417636,0.994385007849868
2016-09-15,1,0.0014355565909085887,0.0015876143605911507,-0.001389664560920534,0.007667655861417636,0.9939123000918785
2016-09-19,1,0.001894582386944991,0.0021377546379100017,-0.0018580644232129937,0.006306349342733196,0.9938803081539597
2016-09-21,1,0.0017920595644295313,0.0019803999481936324,-0.003286251208254283,0.0036618099535450457,0.9933481099787383
2016-09-23,1,0.0022059264240088523,0.0024592547016552054,-0.003286251208254283,0.0005475716655521376,0.9934513676625265
2016-09-27,1,0.0018807484828039945,0.0020677709494125347,-0.003267704412691271,-1.4949138041860707e-06,0.9940958303202163
2016-09-29,1,0.0017376485610827697,0.0019472207018047007,-0.003267704412691271,0.0005475716655521376,0.9939726934679549
2016-10-03,1,0.0012227893311446095,0.0012604063101346412,-0.003267704412691271,0.0005475716655521376,0.9948369472555563
2016-10-05,1,0.0011415719128167311,0.001162598644257351,-0.004120113667886735,-0.00011825802188845743,0.9945752598284758
2016-10-07,1,0.000835577303512284,0.000838569065332405,-0.004850716639752494,0.00019728234129932345,0.994267428225307
2016-10-11,1,0.0009161647475509687,0.0009312310510288005,-0.004120113667886735,0.0025071998984175837,0.9936493234324081
2016-10-13,1,0.0003835651642556811,0.0005681328184657748,-0.004120113667886735,0.0025071998984175837,0.9945452012177777
2016-10-17,1,0.00032889962920910963,0.0004936581961674648,-0.003267704412691271,0.004159175867192081,0.994577024036931
2016-10-19,-1,-0.00026221113780323436,-3.793067154613731e-05,-0.001496804146321667,0.004596273203471963,0.9944460905405365
2016-10-21,-1,-0.000768888772071686,-0.0004365197834108501,-0.001496804146321667,0.0061151661056188964,0.9912108531566582
2016-10-25,-1,-0.0011564692723616357,-0.0007863875432794986,-0.0007287642474474228,0.007795004256415294,0.9904423518225662
2016-10-27,-1,-0.0017748421327398514,-0.001334849124562129,-0.0007287642474474228,0.007795004256415294,0.9909596899359479
2016-10-31,-1,-0.0014107603796006168,-0.0010403947355690478,-0.001530174896149505,0.007795004256415294,0.990818991435404
2016-11-02,-1,-0.0021402575015897147,-0.0016545230171819288,-0.00305109709296171,0.007795004256415294,0.9902265949559534
2016-11-04,-1,-0.002406061054236408,-0.0019105021853330314,-0.00305109709296171,0.007795004256415294,0.9907416819177167
2016-11-08,-1,-0.0017330041479873704,-0.0013077028924811055,-0.00305109709296171,0.007795004256415294,0.991306969212665
2016-11-10,-1,-0.0014339667649636077,-0.0010582905952893286,-0.0031096072264559568,0.007795004256415294,0.9914890958165303
2016-11-14,-1,-0.001693146307123973,-0.0012605438529828994,-0.0031885251955457304,0.012418164683897458,0.9910753653322957
2016-11-16,-1,-0.0014305099071951664,-0.0010482720046460952,-0.0031885251955457304,0.006637040299518766,0.9914971978171153
2016-11-18,1,0.0010493173555859263,0.001113465843970683,-0.004602058015429835,0.003428125918142337,0.9915830051963292
2016-11-22,1,0.0015213782406359349,0.001525611841411231,-0.006763849044870348,0.001996589115326791,0.9917614722524901
2016-11-25,1,0.0015059721174895272,0.0015141438388572275,-0.008615343177935593,0.0006287625383219225,0.9913463415797105
2016-11-29,1,0.0015363961248409331,0.0015877412828126233,-0.008498514718987538,0.0003682418730626996,0.9913843008724224
2016-12-01,1,0.0006834421083706038,0.0007522279908344196,-0.008498514718987538,0.0003682418730626996,0.9920624693602997
2016-12-05,1,0.0004301165972498271,0.0005305696221497097,-0.008498514718987538,0.0008565706602457183,0.9917301063271805
2016-12-07,1,0.0011493287418681065,0.0011593813113158255,-0.009936962640248364,0.00018743015242458805,0.9910341579936757
2016-12-09,1,0.0008027375918630423,0.0008286356197926049,-0.009936962640248364,0.000982940860509772,0.9907998981999857
2016-12-13,1,0.0012083353444131265,0.0012454719643219805,-0.009936962640248364,0.0005972752283918468,0.9911556699588178
2016-12-15,1,0.0011902623134910665,0.001285969568747452,-0.0070583618525973755,0.00231741590686883,0.9917527132431332
2016-12-19,1,0.0014548562892956075,0.0015606379938828733,-0.0070583618525973755,0.000986616560725826,0.9930917758240103
2016-12-21,1,0.0012226556750657737,0.0013020244966083106,-0.009936962640248364,0.0009907348843111148,0.9928629559795328
2016-12-23,1,0.0006279590165854509,0.0006362935395694281,-0.006684128775221742,0.00231741590686883,0.9929849176299944
2016-12-28,1,0.00039994803287806736,0.0004237015020671992,-0.005816781783879269,0.00231741590686883,0.9930033775139021
2016-12-30,-1,-0.0005241619773662591,-0.00036136200177879375,-0.00419133858803813,0.003405600344954215,0.9931927684138391
2017-01-04,1,0.0002922987743205981,0.0003325197217805867,-0.00419133858803813,0.00231741590686883,0.9935056072635251
2017-01-06,0,-6.385155599033848e-06,3.444030072549853e-05,-0.003520064354295458,0.00493278657964756,0.9939366686672252
2017-01-10,1,0.00041248859343588043,0.0004313167322908523,-0.003520064354295458,0.00493278657964756,0.9940659604076735
2017-01-12,1,0.0010834970747416604,0.00123256681088485,-0.003520064354295458,0.006167969010348468,0.9935474849921616
2017-01-17,1,0.0011085684779214506,0.0012356074407793305,-0.00364726070644,0.007815336665671073,0.9928073737748322
2017-01-19,1,0.00021911642053716552,0.0002373986160783896,-0.00364726070644,0.007815336665671073,0.9930735564993608
2017-01-23,-1,-0.00042582414431992173,-0.00032179934668126155,-0.003520064354295458,0.007815336665671073,0.9932563239788558
2017-01-25,-1,-0.00030668010159762163,-0.00018985833126090092,-0.00364726070644,0.006167969010348468,0.9930039634728874
2017-01-27,-1,-0.0005633339646641022,-0.0004281518498326916,-0.0006436189602867016,0.007815336665671073,0.9922044332498334
2017-01-31,-1,-0.0001225338279652017,-4.0579807243792135e-05,-0.004792952609834261,0.006167969010348468,0.9913151293019659
2017-02-02,-1,-0.001227686746226869,-0.0009528558551798149,-0.008576274900554109,0.007815336665671073,0.9900638487025949
2017-02-06,-1,-0.000770831380875848,-0.0005574451900159264,-0.008576274900554109,0.007815336665671073,0.9901718631233601
2017-02-08,1,0.000191691354515564,0.0002720314670864843,-0.008576274900554109,0.00553739463220971,0.9911528794385499
2017-02-10,1,0.0009006358163974803,0.0009191463136350156,-0.008576274900554109,0.004349137795921632,0.9916726927922063
2017-02-14,1,0.0010030653345684238,0.0010589185709743876,-0.00795834877408241,0.004349137795921632,0.9923598223922196
2017-02-16,1,0.0009668173302685653,0.0010444403844056516,-0.0045199500902902805,0.004718409519436077,0.9925813481428268
2017-02-21,1,0.0011821660635831777,0.0012903870534720157,-0.008777764547691712,0.004718409519436077,0.9913957511094067
2017-02-23,1,0.00019022818011178778,0.00024197404701269565,-0.008367596642127896,0.004922464713204001,0.9917650696342425
2017-02-27,1,0.0011603244413147097,0.0012546671922129744,-0.009151717934097867,0.004922464713204001,0.9918231468100697
2017-03-01,0,-3.0400532404554342e-05,2.0545642282152906e-05,-0.008082999902884462,0.004959637956255666,0.993183549107221
2017-03-03,0,-2.1729681784890596e-06,5.3047511232064896e-05,-0.008082999902884462,0.004959637956255666,0.9935112580690172
2017-03-07,-1,-0.00036330837505719695,-0.0002488580213913618,-0.010405469990313075,0.004959637956255666,0.992520774967089
2017-03-09,-1,-0.00016248657769880423,-9.988359543953174e-05,-0.010633763970178074,0.005118902946631399,0.9910445439364217
2017-03-13,-1,-0.00018553428293383508,-0.0001068382981539493,-0.010633763970178074,0.005615913765098352,0.990690965538681
2017-03-15,-1,-0.00028788598492817487,-0.00016458917868936905,-0.010633763970178074,0.006467180453831816,0.9907120371829665
2017-03-17,-1,-0.000292759514511925,-0.00016761430403299893,-0.010633763970178074,0.006467180453831816,0.9906581457603606
2017-03-21,-1,-0.001549684040882605,-0.0012677028667559846,-0.009174966273621629,0.006467180453831816,0.9916025929645197
2017-03-23,-1,-0.0018869590171041338,-0.0015410597428003722,-0.008856040333546,0.006467180453831816,0.9913948621130934
2017-03-27,-1,-0.002134374255478962,-0.00176372003911764,-0.006334405172768123,0.006467180453831816,0.9918471088378031
2017-03-29,-1,-0.0019362675060392521,-0.001574104165860368,-0.006334405172768123,0.006467180453831816,0.9918232061158068
2017-03-31,-1,-0.0023662381886767475,-0.0019323209090757465,-0.008258521658550563,0.005399061000035246,0.9918540194302145
2017-04-04,-1,-0.003277019607386674,-0.002774273997123139,-0.004992038440873553,0.006491761161365488,0.9920000359207806
2017-04-06,-1,-0.003267707187548507,-0.002777184649246182,-0.004992038440873553,0.00646488407960481,0.9930648234486816
2017-04-10,-1,-0.0030982103294576136,-0.0026383143405002895,-0.003303547851119272,0.00646488407960481,0.9930113671680358
2017-04-12,-1,-0.002824589052658531,-0.0024055582319396467,-0.005633410602801032,0.006750257086824871,0.992338120038775
2017-04-17,-1,-0.0016208093430951343,-0.0014610066104208514,-0.008367037594566657,0.006750257086824871,0.9910818305333419
2017-04-19,-1,-0.0009826863532924031,-0.0009278104983885139,-0.009666492402004373,0.006750257086824871,0.990951957713419
2017-04-21,-1,-0.00017267064864465902,-0.00012338598775821978,-0.009666492402004373,0.006750257086824871,0.9906743252865478
2017-04-25,-1,-0.00031388320482880316,-0.00029798801620024596,-0.009666492402004373,0.006750257086824871,0.9904767914506671
2017-04-27,-1,-0.0001823674397407055,-0.00018136775412920186,-0.009666492402004373,0.007149335911870821,0.9901970235785906
2017-05-01,-1,-0.0010644245544440992,-0.0009554589610834165,-0.007673624862993566,0.008472718961560672,0.9908590552533483
2017-05-03,-1,-7.378789506813229e-05,-3.102676231191807e-05,-0.007673624862993566,0.007857257021415048,0.9910751339494829
2017-05-05,-1,-0.0004459974531766319,-0.00042497398299036807,-0.006992811595841494,0.007857257021415048,0.9912604048883318
2017-05-09,1,5.651071422808126e-05,0.00012041847718485203,-0.008589738079167016,0.005205839484333123,0.9903705004015235
2017-05-11,-1,-0.0001727622938061853,-0.0001679116647306821,-0.008665875935816338,0.005205839484333123,0.990463038843889
2017-05-15,-1,-0.0014184012610656642,-0.0013129754786649502,-0.006663353191522421,0.005205839484333123,0.9924059153677715
2017-05-17,-1,-0.0019803493688854666,-0.0018024950518921766,-0.006663353191522421,0.005205839484333123,0.9922498159627794
2017-05-19,-1,-0.0017164380240321697,-0.0015476101510477638,-0.006663353191522421,0.005205839484333123,0.9924295545085957
2017-05-23,-1,-0.00202981563463875,-0.0018113241550017493,-0.012946195046836258,0.005205839484333123,0.9900540285769125
2017-05-25,-1,-0.0016518614499762812,-0.0014527398846451416,-0.013771599471706565,0.00470392085446948,0.9899204792461166
2017-05-30,-1,-0.0009932248548847732,-0.0009007877325921988,-0.013771599471706565,0.00470392085446948,0.9897293091782436
2017-06-01,-1,-0.0012600069571046487,-0.0011004528653911758,-0.013771599471706565,0.00470392085446948,0.9888813071733652
2017-06-05,-1,-0.0008894159034462416,-0.0008178986221854712,-0.013771599471706565,0.007338872006663352,0.9882697976873666
2017-06-07,-1,-0.0016605464259901379,-0.001496452799998358,-0.01426127060718339,0.007338872006663352,0.9882449975398471
2017-06-09,-1,-0.001449304704525969,-0.0013279934988352359,-0.01480532331580177,0.0061089338850644605,0.988163050196163
2017-06-13,-1,-0.0016976991466403648,-0.0015164698461105006,-0.01480532331580177,0.0061089338850644605,0.9880672924615261
2017-06-15,-1,-0.002740890682832243,-0.0024152581931310988,-0.01426127060718339,0.006506706181598109,0.9883854020713569
2017-06-19,-1,-0.002448114441673974,-0.0021853798019815613,-0.01426127060718339,0.005849933767923942,0.9891064219749922
2017-06-21,-1,-0.005081901602391909,-0.004497588341418163,-0.008329059783276194,0.005849933767923942,0.9910802692177841
2017-06-23,-1,-0.005033816368168338,-0.004484014145062923,-0.008329059783276194,0.0055799908303727185,0.9912114194533633
2017-06-27,-1,-0.0048128974560665855,-0.0042805179311122266,-0.008329059783276194,0.0055799908303727185,0.9906303401679527
2017-06-29,-1,-0.0038547545621474854,-0.0034603251791174698,-0.007579959091809793,0.0055799908303727185,0.9909375858436931
2017-07-03,-1,-0.0025109803997688785,-0.0023168588646858322,-0.007579959091809793,0.005135433687383327,0.9910935311258923
2017-07-06,-1,-0.00325736792895537,-0.003014001360900299,-0.006493199719494946,0.005135433687383327,0.991668471864724
2017-07-10,-1,-0.004045625055154377,-0.0037137135815054297,-0.006493199719494946,0.0055799908303727185,0.9913154415347262
2017-07-12,-1,-0.00436029899657993,-0.003987010632797825,-0.004957022047682326,0.006736083775148815,0.990481211412161
2017-07-14,-1,-0.0034122739967706417,-0.0031721659331786314,-0.006493199719494946,0.008497467864280447,0.9899049152097891
2017-07-18,-1,-0.003916861206569283,-0.003597226376639029,-0.009680196996423876,0.008497467864280447,0.9882627529013818
2017-07-20,-1,-0.002694442277102687,-0.0025573103087341356,-0.014066883705739195,0.010506828630109958,0.9867737107961564
2017-07-24,-1,-0.0024096482208492537,-0.0021983194845263568,-0.009680196996423876,0.014912158534529997,0.9827976165115854
2017-07-26,-1,-0.0018180674492576656,-0.0016829585867398987,-0.009680196996423876,0.011535775253773969,0.9831097633060679
2017-07-28,-1,-0.0013798718963380294,-0.0012974095606203525,-0.01101419160110554,0.011535775253773969,0.983027305295943
2017-08-01,-1,-0.001045491035266462,-0.001004186456373181,-0.01101419160110554,0.011535775253773969,0.983312782692027
2017-08-03,-1,-0.0011466620562831896,-0.0011018714619229204,-0.008679521285099738,0.011535775253773969,0.9838147852977909
2017-08-07,-1,-0.0007176677563750828,-0.0006975207351971693,-0.008348843402785081,0.009729202943342334,0.984519197192092
2017-08-09,-1,-0.0003812700978394381,-0.00030946971333293,-0.010046072138554307,0.00872029958000288,0.9845144977578607
2017-08-11,-1,-0.0007199951152143192,-0.0007186100031632451,-0.008348843402785081,0.00872029958000288,0.9855948449731627
2017-08-15,-1,-0.0016325654883825576,-0.0015313138494133234,-0.0057091813480693795,0.0123519028287417,0.9858305195995194
2017-08-17,-1,-0.0014576418140849687,-0.001374872328499065,-0.0057091813480693795,0.01111790219009102,0.9872840173511392
2017-08-21,1,0.0006392183236218465,0.0008388087920948178,-0.004819030879759154,0.00872029958000288,0.9926054263173115
2017-08-23,1,0.0007991159953318918,0.0010191059350263263,-0.004720359788211753,0.006203645095182132,0.9931058008218714
2017-08-25,1,0.0006368084133807385,0.0007945300301501574,-0.0039284801693444124,0.006203645095182132,0.9928433905963708
2017-08-29,1,0.0004048017578294298,0.0005276298586978112,-0.0003743610524867679,0.0123519028287417,0.9919493869626472
2017-08-31,1,0.00037972213540917295,0.0005021112320924149,-0.0005384712115505221,0.0123519028287417,0.9919403278520488
2017-09-05,1,0.0006306181702562851,0.0007918821694432514,-0.0005384712115505221,0.0123519028287417,0.9922082281297873
2017-09-07,1,0.0004596084804780482,0.0005918498973147765,-0.0003743610524867679,0.0123519028287417,0.992369394355452
2017-09-11,1,0.0008046025716783653,0.0009924329096090067,-0.00040047052726912636,0.008314043864694245,0.9922940834754196
2017-09-13,1,0.001684552439470152,0.002010379621325987,-0.0036024001771427037,0.005095220482968862,0.9934675532012083
2017-09-15,1,0.001508602075929295,0.0018116703112582965,-0.0036024001771427037,0.005095220482968862,0.9929442381389915
2017-09-19,1,0.0018036100860845136,0.0021610883565600187,-0.0036024001771427037,0.0050088279859681235,0.9926945309625643
2017-09-21,1,0.001511810872762413,0.001804676685069218,-0.003382594900453911,0.0050088279859681235,0.9930213810763259
2017-09-25,1,0.002290733797252434,0.0027058504135553905,-0.003382594900453911,0.0050088279859681235,0.9939520908660363
2017-09-27,1,0.0028027254817746604,0.0032777258173781218,-0.0037801868944268317,0.003700400225289352,0.9944278535655663
2017-09-29,1,0.002768616401747475,0.0032467594789671547,-0.005077432527796286,0.004681754809490794,0.9942837351894411
2017-10-03,1,0.002848507234823097,0.003336782122684629,-0.00642383787120015,0.004681754809490794,0.9937610781660481
2017-10-05,1,0.0023409697800055966,0.0027063269097312055,-0.00642383787120015,0.002260147566871699,0.9934441940226715
2017-10-09,1,0.0021750048441570298,0.0025044421592685185,-0.004921246298583627,0.0012503228534258683,0.9939726969915536
2017-10-11,1,0.0021487137975899394,0.002487489178067348,-0.004247188175634927,0.002260147566871699,0.9935965085553856
2017-10-13,1,0.0017483909685780442,0.0020316502709398355,-0.003388661400478402,0.007585176882604068,0.9938282382769675
2017-10-17,1,0.0019544044260777853,0.002283009151334776,-0.006395402175420978,0.007585176882604068,0.9930116360098424
2017-10-19,1,0.002051576860918413,0.0024001810616053583,-0.006395402175420978,0.01034052272317487,0.992376688332647
2017-10-23,1,0.002001125709606883,0.0023351277553146886,-0.006395402175420978,0.01034052272317487,0.9879686280006571
2017-10-25,1,0.001829203292640395,0.002134689775659462,-0.005385494785860258,0.01034052272317487,0.98803816677523
2017-10-27,1,0.0016351070324044327,0.0018958057695842865,-0.005385494785860258,0.01034052272317487,0.987875934437329
2017-10-31,1,0.0015346912447614719,0.0017797092397250636,-0.003953135890259182,0.014575914837242477,0.9853594609190507
2017-11-02,1,0.0018849169875659409,0.002180949734996903,-0.004232173664512205,0.012398757326232605,0.9857269872974241
2017-11-06,1,0.0016336988073979873,0.0018759974149706008,-0.005513245319293744,0.017144192445264272,0.9839884329402743
2017-11-08,1,0.0015052066537506517,0.0017250254443834884,-0.004232173664512205,0.017144192445264272,0.9847968740547133
2017-11-10,1,0.0012281797162575132,0.0013492778156263478,-0.004232173664512205,0.00926540973233716,0.9858760068104249
2017-11-14,1,0.0007623039621709638,0.0008101619530839128,-0.003226074179051867,0.009675565230921807,0.9863692360389493
2017-11-16,1,0.0010194462347349064,0.0011022350788646898,-0.004099224661266526,0.00691869585273972,0.9859877816758257
2017-11-20,1,0.0026369638215031615,0.002941856860891698,-0.004099224661266526,0.008655494198710506,0.989279380894508
2017-11-22,1,0.0026126941716872383,0.002924291465841706,-0.003226074179051867,0.012882473862219735,0.989147218728567
2017-11-27,1,0.001973257117228849,0.0021660355092496877,-0.002014563978583889,0.012882473862219735,0.9896743054259248
2017-11-29,1,0.0025304478408229576,0.0027697347592175628,-0.002877187762658705,0.0068252926195811504,0.9922012905724705
