JNU-Tangyin/eata/results/Batch4_SP500/Batch4_SP500-WDC.csv
Date,Action,Predicted_Q25,Predicted_Q75,Actual_Q25,Actual_Q75,RL_Reward
2010-12-14,0,0.0,0.0,-0.005649038699226858,0.00680185815628517,0.9930516707352292
2010-12-16,1,0.005194606719647406,0.005798904972575099,-0.005649038699226858,0.007167042054620339,0.9918075721575684
2010-12-20,1,0.0035473621558592665,0.00375823381881638,-0.005829845236115878,0.0078108654028031434,0.9903175084204633
2010-12-22,1,0.004302438217468176,0.004618979768253685,-0.0065983263843464295,0.00680185815628517,0.9881821027367926
2010-12-27,1,0.003930852259634364,0.004179496193185099,-0.0065983263843464295,0.007167042054620339,0.9870207789371718
2010-12-29,1,0.0025792200357050354,0.0026074840570971375,-0.0065983263843464295,0.012721439226462492,0.9844590311546263
2010-12-31,1,0.0005024297847587861,0.0009466646866801386,-0.00826940881737295,0.012721439226462492,0.9839667184659453
2011-01-04,-1,-0.001494522475082111,-0.0007875360681171969,-0.0065983263843464295,0.01648128038245105,0.9826392774404596
2011-01-06,-1,-0.0013200657354043677,-0.0006702368828768888,-0.00826940881737295,0.01648128038245105,0.9823887061599891
2011-01-10,-1,-0.00261065139742707,-0.0017520092031933368,-0.00826940881737295,0.01648128038245105,0.9822626584268587
2011-01-12,-1,-0.002531850924999864,-0.0017006761595520972,-0.012507212178047143,0.01648128038245105,0.9818624940529156
2011-01-14,0,0.0,0.0,-0.016434193439493018,0.01387911158541109,0.9816065979796775
2011-01-19,0,0.0,0.0,-0.014876479912360196,0.008609912291798631,0.9824171822088057
2011-01-21,0,0.0,0.0,-0.012827734112053589,0.008609912291798631,0.9838539115115921
2011-01-25,0,0.0,0.0,-0.016434193439493018,0.006537505560277543,0.9818302950581012
2011-01-27,0,0.0,0.0,-0.016434193439493018,0.004290755438537407,0.9845499695956136
2011-01-31,-1,-0.003187362555318345,-0.002627016951939301,-0.01767814906385578,0.004290755438537407,0.9840520215927557
2011-02-02,-1,-0.000744204904263387,-0.0004458383184505327,-0.01767814906385578,0.004290755438537407,0.9851872208264227
2011-02-04,1,0.0005821354106676042,0.0006825657456621906,-0.01767814906385578,0.004435833395631258,0.980196250558494
2011-02-08,0,0.0,0.0,-0.01992985023388331,0.007862022816865856,0.9772754055756538
2011-02-10,0,0.0,0.0,-0.021227295574815112,0.007862022816865856,0.9771660406848248
2011-02-14,0,0.0,0.0,-0.02011045406585806,0.004380760021301194,0.9775162055347242
2011-02-16,0,0.0,0.0,-0.022485913489387818,0.01197039260266845,0.9764828107699696
2011-02-18,-1,-0.0026303986538795867,-0.002052968949777188,-0.022485913489387818,0.014916931970709885,0.9766230981142896
2011-02-23,0,0.0,0.0,-0.01840689357547015,0.014916931970709885,0.9792949385315575
2011-02-25,0,0.0,0.0,-0.01840689357547015,0.02131242383565693,0.9760972215455279
2011-03-01,-1,-0.0036987933885030515,-0.0028538091645064177,-0.00950146204460038,0.02131242383565693,0.9781043268046393
2011-03-03,0,0.0,0.0,-0.011235270512390757,0.01929457826107246,0.9784765298464336
2011-03-07,0,0.0,0.0,-0.012859019456931008,0.01929457826107246,0.9815793973038598
2011-03-09,-1,-0.001931202961735692,-0.001498897464095799,-0.009403772522452856,0.017415891290931865,0.983765927509221
2011-03-11,-1,-0.0016679389749868782,-0.0013298974954515975,-0.007635422830631198,0.01929457826107246,0.9838631894626112
2011-03-15,-1,-0.003676399375390069,-0.003029398085723078,-0.007635422830631198,0.01929457826107246,0.983628403512662
2011-03-17,0,0.0,0.0,-0.007635422830631198,0.01820759539332501,0.984920929081381
2011-03-21,-1,-0.0025772561431317703,-0.0022058084139193594,-0.007635422830631198,0.01820759539332501,0.985268270919977
2011-03-23,0,-5.33877601408627e-05,4.2112184624941386e-06,-0.007635422830631198,0.022258445601086488,0.9835249130509031
2011-03-25,1,0.0021770974749245947,0.0024178796401573537,-0.009403772522452856,0.01820759539332501,0.9861292662869884
2011-03-29,1,0.0021727258235705363,0.0024379863184152725,-0.011500310898664323,0.01820759539332501,0.9852315702063337
2011-03-31,1,0.002782800741738112,0.003206910130285146,-0.011347965545888686,0.017809725253678448,0.9857908964144649
2011-04-04,1,0.0023042143289146956,0.0026404458401335634,-0.011347965545888686,0.015206428240512562,0.986213562997424
2011-04-06,1,0.0014828116822227706,0.0016518271969019021,-0.013072089636429267,0.010778582163408382,0.9860386285874784
2011-04-08,1,0.0014032765265214542,0.001490107806549687,-0.013072089636429267,0.009871067653730095,0.9867664623929527
2011-04-12,1,0.0005392008276246963,0.0005917941494185678,-0.012016075306226184,0.011791604821298663,0.9861691162692978
2011-04-14,1,0.0026713526254836875,0.003057822669265903,-0.012499664318727866,0.009871067653730095,0.9861837181088041
2011-04-18,1,0.002028344020742154,0.0022398300567156868,-0.015620577048661568,0.009871067653730095,0.9850388466392364
2011-04-20,1,0.003509020717038622,0.003956651556473451,-0.015620577048661568,0.009056617361901269,0.9854581623446749
2011-04-25,1,0.0030212031446094226,0.0033886667771429466,-0.013204340416419155,0.002419573949090775,0.9862542916547051
2011-04-27,0,0.0,0.0,-0.012060158899556146,0.0009622403136382103,0.9888643982911065
2011-04-29,0,0.0,0.0,-0.012060158899556146,0.0006157999493094471,0.9895921946377555
2011-05-03,0,0.0,0.0,-0.012060158899556146,0.0020290363695940295,0.9879979475667231
2011-05-05,1,0.001775015413217294,0.0020761501005283622,-0.008974598131213377,0.0020290363695940295,0.9880805858661481
2011-05-09,1,0.0014777197391869672,0.0016790987204341123,-0.012060158899556146,0.0006157999493094471,0.9875248440969945
2011-05-11,1,0.001030921897991631,0.0011021793713499536,-0.013156529753719491,-0.00015754914996732387,0.9885580703460237
2011-05-13,1,0.00033922129881433657,0.00034974440574923253,-0.011362563472358764,0.00019804953535128257,0.9892795443792686
2011-05-17,0,-2.4462122410326447e-05,4.92252889203995e-06,-0.011362563472358764,0.0020290363695940295,0.9867707709873168
2011-05-19,-1,-8.2117316302575e-05,-4.27642015586842e-05,-0.011754258228830819,0.0019206132289921918,0.9868638506953901
2011-05-23,-1,-0.0006872259316651253,-0.00056744532462251,-0.011754258228830819,0.0027430880407748057,0.9856989685723117
2011-05-25,-1,-0.0005314812204231846,-0.00045004236960516445,-0.011754258228830819,0.003979564041481649,0.9822796100230379
2011-05-27,-1,-0.0009558209822022668,-0.0008083164114069748,-0.015325365311463926,0.003979564041481649,0.9799394354859403
2011-06-01,-1,-0.0014448590113072422,-0.0012271066299144105,-0.011754258228830819,0.00839900848406687,0.98160164521555
2011-06-03,-1,-0.0017205775263851469,-0.0014535556938239332,-0.011754258228830819,0.010296030664060006,0.9808082066172389
2011-06-07,-1,-0.002369775840277868,-0.002040095016479355,-0.008693059570870994,0.013539559962894816,0.980423964200609
2011-06-09,-1,-0.0022438956798356523,-0.0019562798193698606,-0.007160722074807783,0.017381521663756738,0.979446148806764
2011-06-13,-1,-0.002722515636294309,-0.0023555257510076196,-0.007160722074807783,0.017381521663756738,0.9785995073297423
2011-06-15,-1,-0.003000646378779992,-0.0025380820292035793,-0.006149568242033159,0.013539559962894816,0.9821190589898986
2011-06-17,-1,-0.0028771806830087425,-0.002471377601503232,-0.006149568242033159,0.013539559962894816,0.9823867083301757
2011-06-21,-1,-0.00016390403166635742,-0.0001453462474958325,-0.006149568242033159,0.013539559962894816,0.9831200811383678
2011-06-23,1,0.0019158942106453007,0.0021790012404650323,-0.006415671845181096,0.013539559962894816,0.9797147836683175
2011-06-27,1,0.0005934200619771018,0.0008066802962995135,-0.007474699154816999,0.013539559962894816,0.9801636281503167
2011-06-29,1,0.0008639725441222325,0.0010598589821429803,-0.012701486541031455,0.010088467476654654,0.9799645372875223
2011-07-01,1,0.0013851184708711388,0.0016606676160166435,-0.01689063789657627,0.007586513600735205,0.9794808730139261
2011-07-06,1,0.0014485506584672246,0.0016875047866574625,-0.025122948687934347,0.007586513600735205,0.9772890587235132
2011-07-08,1,0.0016889609860425469,0.0019352749365563722,-0.026833722988967086,0.006005642713178014,0.9746859056196442
2011-07-12,1,0.0004886956304405739,0.0005328446567639072,-0.026833722988967086,0.007586513600735205,0.9726779483019072
2011-07-14,1,0.0004452858043794679,0.0004790436132196664,-0.032453233599618075,0.009779237606742215,0.9692242296866096
2011-07-18,-1,-0.0008654977027218289,-0.0006518093087633267,-0.032453233599618075,0.01473593726326671,0.9688569735046042
2011-07-20,1,0.0001778099810553669,0.0002595317115764126,-0.03557251440259557,0.008731294507805767,0.9681437898699556
2011-07-22,-1,-0.0003584024672892149,-0.00010069198250308863,-0.04163667798567272,0.003928606465833406,0.9700968687799619
2011-07-26,-1,-0.0017723247848973726,-0.0013927866314664317,-0.04163667798567272,0.008731294507805767,0.9703059626171554
2011-07-28,-1,-0.0015216652605894395,-0.0012658129086418515,-0.04163667798567272,0.011548653633623123,0.9704370016180947
2011-08-01,-1,-0.0018091122567540584,-0.0015428155403821712,-0.04163667798567272,0.024741922499769746,0.9690850238707829
2011-08-03,-1,-0.0031399004607845673,-0.002680710770831745,-0.03557251440259557,0.024741922499769746,0.9710593179031262
2011-08-05,-1,-0.005835509041340043,-0.005041390508402151,-0.03557251440259557,0.024741922499769746,0.971579127037651
2011-08-09,-1,-0.005818465780282928,-0.005017453085029512,-0.028623401032171147,0.024741922499769746,0.973430412349161
2011-08-11,-1,-0.005439223430522345,-0.0047085283186517665,-0.016468384383994412,0.01955461234101556,0.9770126830153969
2011-08-15,-1,-0.00454661547954073,-0.003925201094999595,-0.016468384383994412,0.015006957643774719,0.9775387377371334
2011-08-17,-1,-0.004050592526398923,-0.003628830011104492,-0.00742571487680309,0.016566765420397728,0.9774660439872324
2011-08-19,-1,-0.007953100757734954,-0.007055192864068865,-0.005123194624829673,0.016566765420397728,0.9800287176600941
2011-08-23,-1,-0.006050209223704723,-0.005384423988823313,-0.013976154959242112,0.015689034943431136,0.9815242646432247
2011-08-25,-1,-0.006247167519161635,-0.0055713416897203326,-0.02439478732688437,0.016566765420397728,0.9787582120812568
2011-08-29,-1,-0.004166010182246914,-0.003761377257055035,-0.02439478732688437,0.015689034943431136,0.9787355164612244
2011-08-31,-1,-0.0031539223362640222,-0.0029165977697291497,-0.026650600272627993,0.014426278233101313,0.9778890854831789
2011-09-02,-1,-0.0056178111938040625,-0.005078149303525567,-0.02806753954190298,0.014426278233101313,0.9772929980561956
2011-09-07,-1,-0.003756723832014741,-0.003466192094037559,-0.02806753954190298,0.015689034943431136,0.974700824428962
2011-09-09,-1,-0.0035278914856519965,-0.0032880959897744135,-0.02806753954190298,0.016723468927887966,0.9733810141209802
2011-09-13,-1,-0.0015945039123898593,-0.0015091873066705177,-0.02806753954190298,0.022676318529080208,0.9712421151551129
2011-09-15,-1,-0.0004667396168969466,-0.0002265504224058701,-0.03387862880370559,0.03228384124364266,0.968893069441921
2011-09-19,-1,-0.0011963879653705647,-0.001071580130898038,-0.038220799634345264,0.03228384124364266,0.9662280132404335
2011-09-21,-1,-0.0027779075229674216,-0.002705410981794417,-0.03972234204467608,0.03228384124364266,0.9631673565547336
2011-09-23,-1,-0.004308957188150362,-0.004009608311717928,-0.038220799634345264,0.03469725317147768,0.9636811438165153
2011-09-27,-1,-0.0027400912937596126,-0.0026079279657205265,-0.038220799634345264,0.03469725317147768,0.9630545184233651
2011-09-29,-1,-0.003790938893426246,-0.0035657802256513042,-0.034031675649842635,0.037633841396500514,0.9614658313327021
2011-10-03,-1,-0.006308238679469649,-0.005820185738953324,-0.020781919258061603,0.037633841396500514,0.9636699170273446
2011-10-05,-1,-0.0024701733867463923,-0.00239160034702344,-0.020781919258061603,0.03469725317147768,0.9668912604150757
2011-10-07,-1,-0.0032087297215524346,-0.003006675718957465,-0.01921127227694277,0.037633841396500514,0.9660510840824724
2011-10-11,-1,-0.00029464058051171583,-0.00012987872207954258,-0.01921127227694277,0.03299711428587526,0.9687248837154823
2011-10-13,-1,-0.00038260656468685556,-0.00025550525552962426,-0.01921127227694277,0.027355805368757632,0.9693940712920965
2011-10-17,-1,-0.003549633928182431,-0.00329478796933355,-0.01731104047017155,0.03097026633014305,0.9717090004411721
2011-10-19,-1,-0.005286589932013508,-0.004826094642092847,-0.01731104047017155,0.034481465674366225,0.9718766656423615
2011-10-21,-1,-0.002932192964584364,-0.0027344087991103888,-0.01921127227694277,0.031204918213696854,0.9706157133350186
2011-10-25,-1,-0.0025409512604796843,-0.0023864105950856442,-0.01731104047017155,0.03064423487724936,0.9736732617810121
2011-10-27,-1,-0.0013001518863129992,-0.0012538584148799362,-0.01868590640693126,0.010622012230007027,0.9756977691019806
2011-10-31,-1,-0.002552061851931348,-0.0023456553868801584,-0.013786435908152386,0.031204918213696854,0.9723453584073066
2011-11-02,-1,-0.0013142762999770535,-0.0012474072039876359,-0.013786435908152386,0.03307928486265773,0.9707679638356563
2011-11-04,-1,-0.0003699814796467965,-0.000292801277782635,-0.011048532625937212,0.03307928486265773,0.9691235586983122
2011-11-08,-1,-0.0005589221842139917,-0.0005324509756699964,-0.011048532625937212,0.03307928486265773,0.9690272397802182
2011-11-10,-1,-0.001568549222948618,-0.0015520577752637377,-0.010361520860056074,0.03307928486265773,0.9704933231649534
2011-11-14,1,0.00023090485454911212,0.0005989828444589534,-0.012876287109512611,0.032101190503976654,0.971072973247803
2011-11-16,1,0.0002929275905514979,0.0005341044265589068,-0.012876287109512611,0.027938569524616073,0.9755898657351916
2011-11-18,0,-0.00012964983956561833,0.00011731202537978297,-0.010891620810633112,0.020336891178423445,0.9788903142195872
2011-11-22,1,5.312335234194509e-05,0.0003649605321190954,-0.011129075442477395,0.029160873267789565,0.9769905792843786
2011-11-25,0,0.0,0.0,-0.010089453640322755,0.029160873267789565,0.9771493025068797
2011-11-29,0,0.0,0.0,-0.013953890753333035,0.01470272587235479,0.9797727674319249
2011-12-01,1,0.004978346203459926,0.005880849209075482,-0.013953890753333035,0.01168009091968712,0.9823594795474953
2011-12-05,1,0.010833722103574207,0.012642819927898792,-0.013953890753333035,0.009986754676495698,0.9834407948706924
2011-12-07,1,0.008265784357493752,0.009706436215273883,-0.013953890753333035,0.01168009091968712,0.9838127367067916
2011-12-09,1,0.009853747369034544,0.011596746713726161,-0.013953890753333035,0.01051025645019187,0.9840186023429642
2011-12-13,1,0.009746874497291776,0.01159192727289322,-0.007392965818930804,0.01168009091968712,0.9862466006783678
2011-12-15,1,0.008460968587793733,0.010044201463137375,-0.008351088785967747,0.01168009091968712,0.986159624910398
2011-12-19,1,0.007813913936774232,0.009237902518721057,-0.006837929009845647,0.013917303124008722,0.986697040677664
2011-12-21,1,0.006950516386588938,0.008173722794867045,-0.005432162720510173,0.013917303124008722,0.9883856478563008
2011-12-23,1,0.008194272214638176,0.009544316689410297,-0.005432162720510173,0.01554744165309949,0.9858537672240582
2011-12-28,1,0.0022055264450138168,0.0025060679982577424,-0.004884862116462336,0.01554744165309949,0.9864747844569064
2011-12-30,1,0.0025270130916508187,0.0029225802666528,-0.005432162720510173,0.01554744165309949,0.9861457245444454
2012-01-04,1,0.002817280006551131,0.003276258635921936,-0.006837929009845647,0.018073948671089135,0.9838034551585632
2012-01-06,1,0.0049944661678755515,0.0057994445249160455,-0.006837929009845647,0.01554744165309949,0.9856671157034316
2012-01-10,1,0.003815716951830608,0.004350095343446725,-0.0057515370428558215,0.018073948671089135,0.9854383266727497
2012-01-12,1,0.0024620667500727927,0.0026373068902291893,-0.010844842110283937,0.018073948671089135,0.984401121071037
2012-01-17,1,0.002408913408668166,0.0026728736783556513,-0.010385068771519004,0.021186666576306617,0.9840651018938374
2012-01-19,1,0.0029711557480462543,0.003285124298084581,-0.010844842110283937,0.023521362860607277,0.9811714448630996
2012-01-23,1,0.004739346818508145,0.005387797223761342,-0.010844842110283937,0.023521362860607277,0.9810893116304278
2012-01-25,1,0.006503818115123702,0.007401193326686154,-0.012597672691622083,0.008821903044124287,0.9822933610902829
2012-01-27,1,0.0045762431999095965,0.005047560950230073,-0.014223690832735123,0.008821903044124287,0.982511367998981
2012-01-31,1,0.004335465127843637,0.004837230069024204,-0.012717743431382688,0.017130314497746896,0.9831196403520019
2012-02-02,1,0.004912494764872352,0.005480027378259257,-0.014893011198241353,0.015292936160094545,0.9838519488485368
2012-02-06,1,0.0062011193975543884,0.006975835797165366,-0.016089905534917667,0.006901697818422238,0.9817139574331047
2012-02-08,1,0.007189084612574789,0.008138386215956032,-0.016089905534917667,0.015292936160094545,0.9806951988037956
2012-02-10,1,0.005634072128735951,0.006329190853562644,-0.016952226748651218,0.016021979395880785,0.9808202124405263
2012-02-14,1,0.004981675676118273,0.005440322907927525,-0.016952226748651218,0.015292936160094545,0.9814010933060947
2012-02-16,1,0.0037730361437439096,0.00409171239222304,-0.016952226748651218,0.013643565239065751,0.9835542623523456
2012-02-21,1,0.005240661932591675,0.005788147845202754,-0.016952226748651218,0.015292936160094545,0.9827957272706143
2012-02-23,1,0.004017306417618555,0.0043067011133147756,-0.01604827999985044,0.016021979395880785,0.9808805449819844
2012-02-27,1,0.0014790660123117619,0.001673571767249962,-0.01363692050327704,0.016021979395880785,0.9818703633081376
2012-02-29,1,0.0030199945693442074,0.003205664677841283,-0.01363692050327704,0.016021979395880785,0.9821196281045225
2012-03-02,1,0.0020265830810837493,0.0020450215029850175,-0.013403173784907229,0.014206954698752602,0.9828187881769995
2012-03-06,1,0.0018534230537773895,0.0019666029303137466,-0.008360345247066197,0.014206954698752602,0.9842763825476675
2012-03-08,1,0.003201497889125384,0.0034555866505145702,-0.013403173784907229,0.010241656092143128,0.9837497823669099
2012-03-12,1,0.0021254806021967533,0.0021306417608224623,-0.013403173784907229,0.009142917706699175,0.9843541246111622
2012-03-14,1,0.0006112902566352271,0.0008084651076525112,-0.009995181462177828,0.009142917706699175,0.9848260087979718
2012-03-16,1,0.0003707268251346045,0.0005058975682936334,-0.006718210296499651,0.010241656092143128,0.9857201256263
2012-03-20,1,0.0013377889142858232,0.0014472078126601955,-0.006718210296499651,0.010241656092143128,0.9841512451820381
2012-03-22,1,0.0030009312605266745,0.003272031428216094,-0.007224347806156397,0.009723517808780644,0.9859741893187286
2012-03-26,1,0.002005234773834807,0.002068912842517803,-0.007224347806156397,0.0033096849660241745,0.9864195804769631
2012-03-28,1,0.0025877228936394252,0.002765249664139003,-0.007112578786113971,0.012946403272777704,0.9841067714019577
2012-03-30,1,0.0010142111377779567,0.001130293340688076,-0.007112578786113971,0.016134764115269103,0.9796044513908758
2012-04-03,1,0.0009775894174495914,0.0011058130293689842,-0.005355209355411487,0.02248999650869557,0.978534804893174
2012-04-05,-1,-0.0007611974590976177,-0.00036642748381453065,-0.005546927808786769,0.02248999650869557,0.9789392441237389
2012-04-10,0,0.0,0.0,-0.0022216998872603075,0.02248999650869557,0.9801810768180531
2012-04-12,0,0.0,0.0,-0.0022216998872603075,0.02108450959418678,0.9795193754878114
2012-04-16,0,0.0,0.0,-0.009176024093604896,0.02108450959418678,0.979445106570005
2012-04-18,0,0.0,0.0,-0.009585900293877962,0.02000479986437223,0.9803749626912657
2012-04-20,0,0.0,0.0,-0.01605724308125644,0.02000479986437223,0.9765884220862151
2012-04-24,0,0.0,0.0,-0.032191962185348394,0.02108450959418678,0.9729367582138998
2012-04-26,1,0.0023035625706282104,0.0025165124410242296,-0.032191962185348394,0.014121966688445958,0.9744802809533685
2012-04-30,0,0.0,0.0,-0.03075742265098391,0.011483841122353464,0.9788914217859741
2012-05-02,0,0.0,0.0,-0.03075742265098391,0.0022995771749172935,0.9783900010606806
2012-05-04,0,0.0,0.0,-0.031121180057578933,0.0022995771749172935,0.9780670747483822
2012-05-08,0,0.0,0.0,-0.031121180057578933,0.003560663584677633,0.9767511655144583
2012-05-10,0,0.0,0.0,-0.031121180057578933,0.0008143050328464019,0.977863326051152
2012-05-14,0,0.0,0.0,-0.031121180057578933,0.0008143050328464019,0.9777589106842735
2012-05-16,0,0.0,0.0,-0.02885423925286787,-0.0026580342784453966,0.9788533995201923
2012-05-18,-1,-0.0028800483131259614,-0.0023490317440354735,-0.020204423586492132,0.003560663584677633,0.9841624239893212
2012-05-22,-1,-0.0038422604019385993,-0.003153232008348149,-0.013473375746115462,0.0032893617730189737,0.9875000539967566
2012-05-24,0,0.0,0.0,-0.020204423586492132,0.010418646526317306,0.9841844287621458
2012-05-29,-1,-0.0069248634285283646,-0.0057848768556896055,-0.020170238846867816,0.007721735594869623,0.9855724378112097
2012-05-31,0,0.0,0.0,-0.009793762817272296,0.010419496570352757,0.9845060190893258
2012-06-04,0,0.0,0.0,-0.009474527837478024,0.011752725390161619,0.9829779956287534
2012-06-06,-1,-0.009254507307322085,-0.008113005276900348,-0.011825649691465347,0.011752725390161619,0.9817485027046573
2012-06-08,-1,-0.008896985019853683,-0.007768581528561405,-0.011825649691465347,0.012483253496613987,0.981006594271336
2012-06-12,-1,-0.00681620625464621,-0.005819657244002923,-0.01124584917030284,0.015473930317289646,0.9809168496768834
2012-06-14,0,0.0,0.0,-0.01124584917030284,0.015473930317289646,0.9813667256441062
2012-06-18,-1,-0.009505987407226663,-0.008296294598080088,-0.01124584917030284,0.012232844410993635,0.979322629734896
2012-06-20,0,0.0,0.0,-0.017114040811899645,0.015527894158404916,0.9791653809589033
2012-06-22,0,0.0,0.0,-0.016840818085524005,0.015527894158404916,0.9808138117513001
2012-06-26,0,0.0,0.0,-0.015832521201167987,0.0178391068305985,0.9805736864951894
2012-06-28,-1,-0.006691428621374666,-0.005920089290831689,-0.011212533075062427,0.017922359800526765,0.9760706482797236
2012-07-02,-1,-0.004772497871457743,-0.004272090206394576,-0.009752137632627045,0.01646876392858787,0.9796503173181216
2012-07-05,-1,-0.004249339630902897,-0.003768090601150822,-0.009089901524071718,0.015527894158404916,0.9810827687256705
2012-07-09,-1,-0.002917847237599841,-0.0026189811194952273,-0.009089901524071718,0.015555645148381004,0.9810611837149096
2012-07-11,-1,-0.002050072028578366,-0.0019106741581115152,-0.0057715847188244355,0.013270488608755713,0.9818094709750373
2012-07-13,-1,-0.0019570973699801967,-0.0018208195470291117,-0.001250175150274742,0.022102562448963282,0.9798198103178597
2012-07-17,-1,-0.0013750793241422167,-0.0012795078629750714,-0.007615322557868035,0.022102562448963282,0.9800912951096933
2012-07-19,-1,-0.001291168997341588,-0.001171860807541099,0.0001710064259710653,0.022102562448963282,0.9816234722591585
2012-07-23,-1,-0.000814642989581518,-0.0007607305139293259,0.00027662132799283873,0.022102562448963282,0.9828282968623423
2012-07-25,0,0.0,0.0,-0.003534175154672517,0.017991533742931397,0.9841407521028898
2012-07-27,0,0.0,0.0,-0.004492018093517335,0.01213507055228465,0.9885273700909529
2012-07-31,-1,-0.0038814584350953998,-0.0038713089483787136,-0.004342599982161615,0.01213507055228465,0.9876217623765858
2012-08-02,0,0.0,0.0,-0.004342599982161615,0.008656547695558806,0.9882696446493952
2012-08-06,0,0.0,0.0,-0.006629603643704509,0.008615245165307678,0.9890056124075692
2012-08-08,0,0.0,0.0,-0.006793154392355994,0.008615245165307678,0.9876898249455539
2012-08-10,0,0.0,0.0,-0.01214738408771029,0.003716297097029743,0.9879347501622177
2012-08-14,0,0.0,0.0,-0.014983485643913677,0.003716297097029743,0.9864978809068284
2012-08-16,1,0.008494355896014787,0.009989393496811627,-0.016739689721769008,0.003504222321685734,0.9809917501034596
2012-08-20,1,0.008545267646376892,0.01004778850078587,-0.019398986829594487,0.003504222321685734,0.9790637019601982
2012-08-22,1,0.004395002727425464,0.0050836787639070725,-0.019398986829594487,0.003504222321685734,0.9819469698800123
2012-08-24,1,0.003966308315915067,0.004609952075924416,-0.016739689721769008,0.0057393989098923695,0.9820684504135515
2012-08-28,1,0.00323785388808843,0.003720817989661642,-0.02022602974862049,0.0029890005000519026,0.9808306774390334
2012-08-30,1,0.0018442722951889537,0.0020836448381454102,-0.0190375345560398,0.015247765585685547,0.9809735937333554
2012-09-04,1,0.002615709339835034,0.0030167879886381643,-0.0190375345560398,0.007264484674358199,0.9806257166256404
2012-09-06,1,0.0036987105884213793,0.004232803944149516,-0.0190375345560398,0.003576827105934587,0.9809116580304796
2012-09-10,1,0.00253397887742534,0.0030173509153174774,-0.01636877609746914,0.009502789170255672,0.9834940741672514
2012-09-12,1,0.002313349480258432,0.002715605381421712,-0.02161889475412383,0.0032869481398781755,0.9829201858770683
2012-09-14,1,0.0024335056589846384,0.002866781854893255,-0.017181447747859895,0.0024959643829177715,0.9848309227939529
2012-09-18,1,0.0026047330832347105,0.003169444707298321,-0.015621033907107361,0.006839958933318048,0.9859095628746811
2012-09-20,1,0.0019147926292949478,0.0023038017141920573,-0.016572510767363276,0.006839958933318048,0.9854223764577752
2012-09-24,1,0.0033107447896548294,0.003961354848733847,-0.018894933166858308,0.006839958933318048,0.9849938072920565
2012-09-26,1,0.00142357366656367,0.001734768583874587,-0.019144808912589746,0.006839958933318048,0.9852546698969347
2012-09-28,1,0.0017314112955129674,0.0021099261396954534,-0.018894933166858308,0.006839958933318048,0.9860982164328531
2012-10-02,1,0.002048281258200388,0.002526898950284351,-0.018894933166858308,0.009502789170255672,0.9853425929463373
2012-10-04,1,0.0019359298853970557,0.0023697958568825884,-0.018894933166858308,0.009466505114433248,0.9857910858689234
2012-10-08,1,0.0015738448242179925,0.0018963336301973427,-0.019144808912589746,0.01053742336817397,0.9819752594464416
2012-10-10,-1,-0.001321042670645913,-0.0011375749902813792,-0.01639517470693904,0.01053742336817397,0.983874447864894
2012-10-12,-1,-0.0006119867943894152,-0.0005464167574614081,-0.014485012787850672,0.01053742336817397,0.9842603713792504
2012-10-16,-1,-0.0012482133150943425,-0.0010579123961145134,-0.018894933166858308,0.008369117020292648,0.9844494022885529
2012-10-18,-1,-0.002372140515777669,-0.0020238460309322977,-0.014485012787850672,0.01163729180133291,0.9836992270863466
2012-10-22,-1,-0.0026847306017096528,-0.0022516124106207393,-0.014638309588003925,0.010706891232216652,0.98351304249914
2012-10-24,-1,-0.004578673267007845,-0.003880791410350848,-0.008739276839395804,0.019347756618463156,0.9827452170226713
2012-10-26,-1,-0.0038382384239612523,-0.0032706265604741168,-0.01546661456326753,0.014238946791406776,0.9819374831268513
2012-11-01,-1,-0.0023265392985853547,-0.0019352206774318728,-0.016527532087651384,0.010706891232216652,0.9834322962271665
2012-11-05,-1,-0.0027284272115486634,-0.002281030407342141,-0.016527532087651384,0.009416614099816341,0.9837251561623516
2012-11-07,-1,-0.003699851978186984,-0.0031043688294183913,-0.013384774993905776,0.014238946791406776,0.9826158232252737
2012-11-09,-1,-0.0036900568389729473,-0.003098365553915699,-0.011515131306431808,0.020551904319608405,0.98153002612659
2012-11-13,-1,-0.003752111548318257,-0.0031594431603820246,-0.009507634573364353,0.020551904319608405,0.9815431087555044
2012-11-15,0,0.0,0.0,-0.007622118569598016,0.020551904319608405,0.9832648762216466
2012-11-19,0,0.0,0.0,-0.007622118569598016,0.020551904319608405,0.9825798915425257
2012-11-21,0,0.0,0.0,-0.002876908804222052,0.022780070631914145,0.981172424357716
2012-11-26,0,0.0,0.0,-0.006874858439629635,0.022780070631914145,0.9827565724992179
2012-11-28,0,0.0,0.0,-0.001406420800089736,0.022780070631914145,0.9850255229674888
2012-11-30,-1,-0.004933741853165697,-0.0042357824475432685,-0.001406420800089736,0.023686532540022755,0.9818857292303116
2012-12-04,-1,-0.004664141877751221,-0.003980152920338298,-0.002908346360813554,0.023686532540022755,0.9811755228535383
2012-12-06,-1,-0.001640696669556336,-0.0013158938639154158,-0.004103810195593753,0.022420208110012406,0.9873445645811517
2012-12-10,-1,-0.0007669572242244468,-0.0005600911874288019,-0.006874858439629635,0.022593833972962087,0.9861271184180248
2012-12-12,-1,-0.0011865702503451058,-0.0009479956065871219,-0.0034597380477063254,0.022593833972962087,0.9861590899871596
2012-12-14,-1,-0.0012303704914260914,-0.0010024361573054616,-0.0034597380477063254,0.022593833972962087,0.9851084200058223
2012-12-18,0,0.0,0.0,-0.0034597380477063254,0.017867861572588538,0.9870038341922934
2012-12-20,0,0.0,0.0,-0.004720166029176917,0.011954081380468776,0.9868933430523831
2012-12-24,0,0.0,0.0,-0.004587902926750265,0.01556507128154622,0.9862554716067115
2012-12-27,0,0.0,0.0,-0.004587902926750265,0.01556507128154622,0.9857429637126554
2012-12-31,0,0.0,0.0,-0.004587902926750265,0.015484428094925784,0.9843495725848713
2013-01-03,0,0.0,0.0,-0.004280472231373117,0.01255950080204705,0.985510341841841
2013-01-07,0,0.0,0.0,-0.0052010379770011505,0.01255950080204705,0.9850245676355296
2013-01-09,0,0.0,0.0,-0.0052010379770011505,0.01255950080204705,0.9863608285513801
2013-01-11,0,0.0,0.0,-0.0052010379770011505,0.015484428094925784,0.9859392191291848
2013-01-15,0,0.0,0.0,-0.006624187434332225,0.01255950080204705,0.9860131585620929
2013-01-17,1,0.0057496823870871756,0.006710052423369832,-0.006624187434332225,0.01255950080204705,0.9868567796117421
2013-01-22,1,0.007351788900213881,0.00848912176629659,-0.006624187434332225,0.009916793990607306,0.9867905309876209
2013-01-24,1,0.0073971482641847965,0.008539740672558829,-0.008179736038066678,0.0068861733289661275,0.9863219634127953
2013-01-28,1,0.0071861105922215954,0.008240379281609573,-0.00841448360734194,0.00637768843926209,0.9843816345577385
2013-01-30,1,0.006245625282643514,0.007187909760616471,-0.008179736038066678,0.00637768843926209,0.987077118687803
2013-02-01,1,0.006630650442463824,0.00768292078142849,-0.008179736038066678,0.011679379879361544,0.9863061774008828
2013-02-05,1,0.005481303544952328,0.006262684149379626,-0.007791324531147852,0.013459121236415437,0.9869916712431909
2013-02-07,1,0.006288280477215049,0.007188295469816539,-0.007920119120151987,0.010060810104017333,0.9867398263497034
2013-02-11,1,0.006398360439015528,0.007300294994382611,-0.007920119120151987,0.010060810104017333,0.9858352875467995
2013-02-13,1,0.005598764443341177,0.00631910371055922,-0.005300351701404131,0.010060810104017333,0.9865799864891837
2013-02-15,1,0.005353609109448142,0.006025431022556423,-0.011071852639024821,0.010060810104017333,0.9855148351933758
2013-02-20,1,0.004348607361318553,0.004922947438689746,-0.011071852639024821,0.01014275386470029,0.986771921733312
2013-02-22,1,0.0033412557857682335,0.0037145205754844494,-0.011071852639024821,0.01014275386470029,0.9858434703328003
2013-02-26,1,0.0035376014857892465,0.003934561571439109,-0.009019410800151704,0.01014275386470029,0.9865984835090226
2013-02-28,1,0.003660031313400476,0.004045133207242935,-0.009019410800151704,0.01014275386470029,0.9863440747033351
2013-03-04,1,0.0038751179161489726,0.004279542177369103,-0.009019410800151704,0.009537401610416971,0.9871954154428882
2013-03-06,1,0.004287201858579382,0.004749760108292504,-0.009019410800151704,0.00859268359058028,0.9874742905826193
2013-03-08,1,0.0026731443383515613,0.002821099648779889,-0.009019410800151704,0.008880744652464979,0.9879825507153497
2013-03-12,1,0.004184070217478159,0.004509888470283665,-0.009019410800151704,0.009860798136209914,0.9875371420824781
2013-03-14,1,0.0039024397768385303,0.00419201218873325,-0.011071852639024821,0.009860798136209914,0.9866403939770187
2013-03-18,1,0.0026246133132634235,0.002692938320440639,-0.009988979788801852,0.012190230373301105,0.9862589191020567
2013-03-20,1,0.0021388551760976524,0.0021494395599090488,-0.01638270573072426,0.012190230373301105,0.9845786668456475
2013-03-22,1,0.00017591948394332885,0.0005424638477470741,-0.01011180963870567,0.014606697646231704,0.9849701912166137
2013-03-26,1,0.0006324894485308064,0.0009479758958586727,-0.008763399291911157,0.014606697646231704,0.983677400974715
2013-03-28,1,0.0022674172351834815,0.0023446155779635945,-0.008763399291911157,0.013290216337016932,0.984308337714508
2013-04-02,1,0.0017549821223430521,0.001903446032048597,-0.008642291761310216,0.015932701041267185,0.9831159449073139
2013-04-04,1,0.0017268978491009048,0.0019045780657777826,-0.010364952853249973,0.018112551225370317,0.9815807992667414
2013-04-08,1,0.000755637396924676,0.0010670868623143938,-0.006960398836348478,0.0182193481141061,0.9817468942100471
2013-04-10,1,0.0022204710585336206,0.002395448640518539,-0.006960398836348478,0.015932701041267185,0.9840454207440784
2013-04-12,1,0.0004464287743052664,0.0008790900377212431,-0.006960398836348478,0.015932701041267185,0.9829636587711604
2013-04-16,1,0.0005202508674718872,0.0009006934873580662,-0.006960398836348478,0.01596830000417911,0.98329888540854
2013-04-18,-1,-0.002310937233253889,-0.0015556623637939943,-0.0058498958908381835,0.01596830000417911,0.9843955103838619
2013-04-22,-1,-0.0008694205655894957,-0.00034389255594687116,-0.006960398836348478,0.0182193481141061,0.9841543903674305
2013-04-24,-1,-0.0008337486244480983,-0.00020397561575355395,-0.006424116254818103,0.018201510265871954,0.9858682188072349
2013-04-26,-1,-0.0013882244930934554,-0.0006510144205506604,-0.006123330303107224,0.021380334761024397,0.9850327739333925
2013-04-30,0,-0.0005220703674095556,0.00011947761479215967,-0.006123330303107224,0.018201510265871954,0.9859982184669973
2013-05-02,1,0.002140788901938623,0.00231022794739288,-0.005794551580470695,0.014667159158247036,0.9881434093470853
2013-05-06,1,0.0032341757130972264,0.0032455613564607144,-0.006309083508566416,0.013732268966108279,0.9885284711509128
2013-05-08,1,0.0028797903304069727,0.0029534597763426927,-0.00770826724073576,0.014559464834365645,0.9877133168207514
2013-05-10,1,0.002029412152127404,0.0022222714395223812,-0.006309083508566416,0.014559464834365645,0.9891792912033454
2013-05-14,1,0.0030700860827250504,0.0030735931379592073,-0.006309083508566416,0.010201655363892339,0.9899115766890979
2013-05-16,1,0.0036522980101077965,0.0038352632136640485,-0.005924152111552622,0.010201655363892339,0.9901717343377098
2013-05-20,1,0.003333448135476891,0.0034406351232390874,-0.005430938552760386,0.009755054132416471,0.9915482753705042
2013-05-22,1,0.003642231693434279,0.0037841480052784263,-0.006309083508566416,0.0079325986091293,0.9900672650082328
2013-05-24,1,0.004475470197540396,0.004733594068432352,-0.009654126165702175,0.007273143453191185,0.9886710583334176
2013-05-29,1,0.0050754903844117925,0.005415764699557778,-0.009654126165702175,0.007273143453191185,0.9878400160949627
2013-05-31,1,0.004361082107980707,0.0045885627843710725,-0.009654126165702175,0.008391020176122003,0.9868191131499785
2013-06-04,1,0.004478956874907064,0.004742753091488873,-0.009654126165702175,0.011130318833394583,0.9868045479881601
2013-06-06,1,0.004395185324603925,0.004640752925569801,-0.008788148862865266,0.011130318833394583,0.9871177759285693
2013-06-10,1,0.004775616023566868,0.005093942583884649,-0.008788148862865266,0.012796893409850605,0.9864184342073002
2013-06-12,1,0.0041893809461605895,0.004431008206254288,-0.006551052258003488,0.015159252353765406,0.9864796319981669
2013-06-14,1,0.004626009777442018,0.005010031942803431,-0.004458711493897846,0.015159252353765406,0.9866913911427078
2013-06-18,1,0.004853800848703213,0.0052738607161002616,-0.005962633380651095,0.015159252353765406,0.9865824192563327
2013-06-20,1,0.0032566739274554096,0.0034891085628516966,-0.0004248154467292616,0.015574883212375958,0.9883877601228154
2013-06-24,1,0.0006172831470626693,0.0008054513291833263,0.001545903065446594,0.015574883212375958,0.9882385601542655
2013-06-26,1,0.0016115389369127443,0.0016842368818656807,-0.0034484955891096094,0.015159252353765406,0.9870249628817327
2013-06-28,1,0.0020500429315006585,0.002086753731683797,-0.0034484955891096094,0.013156723877118023,0.9881420909664778
2013-07-02,1,0.00274653763739672,0.0028244580329083568,-0.004599383580059862,0.013156723877118023,0.9863618189167894
2013-07-05,1,0.0034876716465627434,0.00369763770195043,-0.006573690848622159,0.013156723877118023,0.9849152069779479
2013-07-09,1,0.0040463193448949785,0.004318115727580155,-0.006870643231983063,0.010424654857984387,0.984869990780807
2013-07-11,1,0.0041095912139864875,0.00437559936443032,-0.011438805046315531,0.010424654857984387,0.9827694739085221
2013-07-15,1,0.003511381958003534,0.0036093693857023037,-0.011438805046315531,0.010367081342445746,0.9826524246162028
2013-07-17,1,0.0030312891418099743,0.003042336876208961,-0.011438805046315531,0.010367081342445746,0.9833150325345263
2013-07-19,1,0.003133205797461032,0.0031467087505621175,-0.015441245711978446,0.005705383050863289,0.9808935645403053
2013-07-23,1,0.0022906054858074097,0.0023674851212701765,-0.013315129796727212,0.010367081342445746,0.9820187532327954
2013-07-25,0,-0.00018122549134651157,0.00017410390137977062,-0.011438805046315531,0.012848920237626783,0.9841064891593052
2013-07-29,-1,-0.0005277849378493087,-0.00015561512034161775,-0.011438805046315531,0.012848920237626783,0.9830137334916527
2013-07-31,0,-0.0003541254372859896,5.214114481509927e-05,-0.014589875768823113,0.012848920237626783,0.9821732606220057
2013-08-02,1,0.00074578997985141,0.0009492745630651532,-0.015150656638295042,0.012848920237626783,0.9821824437999194
2013-08-06,1,0.0003926103265401435,0.0006171746318709524,-0.015150656638295042,0.017531816134520088,0.9806154977875022
2013-08-08,1,0.0008299404681735605,0.0010537255565303038,-0.01259857830656555,0.014659661828828115,0.9834098527609056
2013-08-12,1,0.0012098155917963714,0.0014145762350624633,-0.01259857830656555,0.014659661828828115,0.9836916275784607
2013-08-14,1,0.0003453731166734883,0.0007177720794064363,-0.020869174748155358,0.014659661828828115,0.9825836789977588
2013-08-16,-1,-0.0018616893584025385,-0.0012495551068717763,-0.007051122849978045,0.014659661828828115,0.9847513120646018
2013-08-20,-1,-0.0012612282634190193,-0.0007738168648315283,-0.010332494298371037,0.014659661828828115,0.9849893755405309
2013-08-22,0,-0.00039607341651826003,8.387213033976201e-06,-0.011380974871963195,0.010328660973324012,0.9861338318572798
2013-08-26,-1,-0.0017521939894508316,-0.0012058847939726781,-0.007585465539231541,0.012063176937215491,0.9864825002041935
2013-08-28,-1,-0.003615324797372796,-0.002821897037448515,-0.007585465539231541,0.010811671170582422,0.9873232777377773
2013-08-30,-1,-0.0029323741958588675,-0.002306736400859303,-0.004446650502666763,0.010328660973324012,0.9894706455626997
2013-09-04,-1,-0.0018045804779936814,-0.0012761663971953801,-0.004446650502666763,0.008379371932805926,0.9911897011630544
2013-09-06,-1,-0.0021315395377943637,-0.0015428395952029991,-0.006141675921947294,0.010134659244760758,0.9904506636549637
2013-09-10,-1,-0.0029887993606145004,-0.0021971589084582074,-0.0100224814482911,0.008379371932805926,0.9904399007326666
2013-09-12,-1,-0.0036561949595915904,-0.002824210776529268,-0.007250778420386689,0.010134659244760758,0.9891926027822492
2013-09-16,-1,-0.0024612931272406735,-0.0018615392015578038,-0.007250778420386689,0.01212611185399288,0.9872165932886847
2013-09-18,-1,-0.002948081117609632,-0.0022971652922353304,-0.006933335709613672,0.013947604839778588,0.9866875739333661
2013-09-20,-1,-0.0026963874422908877,-0.0021331253016712024,-0.006141675921947294,0.016912169564188916,0.9853586109288587
2013-09-24,-1,-0.001785840204948866,-0.0013653547702027675,-0.00458739422643702,0.015089117193052781,0.9864458959395203
2013-09-26,-1,-0.0021600049946232927,-0.0017331584846640732,-0.00458739422643702,0.015089117193052781,0.9867110420256971
2013-09-30,-1,-0.001855449029046267,-0.001489658178669223,-0.00458739422643702,0.016912169564188916,0.9854541853123225
2013-10-02,-1,-0.001567372647384565,-0.0012136576501614457,-0.00458739422643702,0.016912169564188916,0.9858786239945692
2013-10-04,-1,-0.0011604704850416102,-0.0008714732312258219,-0.005181211439379259,0.016912169564188916,0.984388894890629
2013-10-08,-1,-0.002256018509372464,-0.0018314048790015636,-0.003090799375604843,0.018346777217753442,0.9830483569392303
2013-10-10,-1,-0.0009430792016179024,-0.0006809364083754212,-0.004169736724596484,0.016912169564188916,0.9845874905595364
2013-10-14,1,0.0010941020628520148,0.001095497429092521,-0.004169736724596484,0.015089117193052781,0.9863134896161139
2013-10-16,1,0.0016657005614661186,0.0017986974038683053,-0.0018395259515806791,0.010085370218531394,0.9871930009053294
2013-10-18,1,0.0030931996985953582,0.0034522505794944668,-0.003054009456825694,0.007739614688534744,0.9865772532362207
2013-10-22,1,0.003034567526222905,0.0033658868120623273,-0.009617365890560574,0.006837374617553239,0.9854210983257621
2013-10-24,1,0.002206585718750008,0.0024273650505527568,-0.005154598359192202,0.008983199313852485,0.9864921061118621
2013-10-28,1,0.003054336405098406,0.003395659754817276,-0.005382722548963621,0.006837374617553239,0.9878361191004527
2013-10-30,1,0.003469807987811457,0.003883332368739019,-0.005382722548963621,0.008983199313852485,0.9872025630025072
2013-11-01,1,0.0017026350407246416,0.0018559606566256063,-0.005382722548963621,0.008983199313852485,0.9885913152928063
2013-11-05,1,0.002189440840840027,0.002401139870487189,-0.004031155811861494,0.008983199313852485,0.9895606265407432
2013-11-07,1,0.0018170706102019134,0.0019998796542223625,-0.004031155811861494,0.013469213892891296,0.9885579725821045
2013-11-11,1,0.0014382177490666662,0.0014718687887963764,-0.004031155811861494,0.008983199313852485,0.9891181390894395
2013-11-13,1,0.0006676850805597539,0.0008185350879736553,-0.005382722548963621,0.012271007199581331,0.9880453048441454
2013-11-15,1,0.0025515159716234174,0.002692784908739897,-0.005382722548963621,0.012271007199581331,0.9890829331752367
2013-11-19,1,0.0019245895451491068,0.0020163462594212666,-0.0021103206205442594,0.014171901696864959,0.9886641977898031
2013-11-21,1,0.0026025083676645623,0.0028112602897166893,-0.0021103206205442594,0.014171901696864959,0.9890388195819763
2013-11-25,1,0.002746371745784554,0.003008919688195257,-0.0009838599170258386,0.014171901696864959,0.9891170682659037
2013-11-27,1,0.003641271332574694,0.004068188379739948,-0.0018278854615542761,0.008541857141580386,0.9894806016466361
2013-12-02,1,0.0033287157711679068,0.0037294471093019923,-0.0009838599170258386,0.01021634676981862,0.9902104141067487
2013-12-04,1,0.00438443935641352,0.004954215882823819,-0.0018278854615542761,0.007766964348470737,0.9903975446052015
2013-12-06,1,0.0049034299369759855,0.005546424485485169,-0.0018278854615542761,0.007766964348470737,0.9903778133658613
2013-12-10,1,0.005310387704083439,0.006035830770333091,-0.0035179019887269293,0.008979317503894458,0.9894941680125379
2013-12-12,1,0.004246324378260213,0.004771144778245862,-0.0035179019887269293,0.007660993285800059,0.9902566378174402
2013-12-16,1,0.004620907064103381,0.005063778063011317,-0.0035179019887269293,0.008979317503894458,0.989651472921134
2013-12-18,1,0.004154106057406194,0.004487412679554079,-0.0018784831371855644,0.007660993285800059,0.9908903495935477
2013-12-20,1,0.0045032563590762815,0.004931588161406016,-0.0035179019887269293,0.007660993285800059,0.9903684659431352
2013-12-24,1,0.004518158659012594,0.004959714906361187,-0.009069918228408488,0.007660993285800059,0.9887163649706563
2013-12-27,1,0.004153608337419011,0.004518173490683665,-0.01038309205535059,0.007660993285800059,0.9878447860159015
2013-12-31,1,0.005152771898552733,0.005719281549564787,-0.01038309205535059,0.009143897243405606,0.9863635048057766
2014-01-03,1,0.004834847873538653,0.005388896770718155,-0.01038309205535059,0.009143897243405606,0.9850329651868414
2014-01-07,1,0.005713670751927082,0.006381483286658451,-0.01038309205535059,0.006987539334966552,0.9856036646400446
2014-01-09,1,0.003924904050073269,0.004230898622062998,-0.00931290546812628,0.008018262195853627,0.986757930632606
2014-01-13,1,0.0037081682869980477,0.003993210125412202,-0.008918004245436331,0.008018262195853627,0.9873327318960184
2014-01-15,1,0.005605428838487729,0.006199677821726417,-0.008918004245436331,0.007071414194506029,0.9881316062264099
2014-01-17,1,0.00446965816008277,0.004828005067146186,-0.008918004245436331,0.007071414194506029,0.9884215366194765
2014-01-22,1,0.003292412638342217,0.0034191808515856097,-0.00940338591455476,0.007840670698349485,0.9886109040141398
2014-01-24,1,0.0016557616581107746,0.0017527666262206407,-0.005831862287466748,0.009422775157438668,0.9897707415193011
2014-01-28,1,0.0017263695170290593,0.0017449700024038605,-0.005414529621789674,0.01100147109043733,0.9895638637472722
2014-01-30,1,0.002843607864219491,0.002961980434691023,-0.009111912691010212,0.007840670698349485,0.9898999726771708
2014-02-03,1,0.0013672092584990445,0.0014203451776581754,-0.0054758022035722494,0.009953142759572112,0.9913279132323889
2014-02-05,1,0.0003991101295645732,0.0006206720471325631,-0.0059189421095948245,0.009953142759572112,0.9906413415873128
2014-02-07,1,0.0011331282429876603,0.0012708317906590287,-0.009264794457650178,0.009889819633956907,0.9897961193693318
2014-02-11,1,0.0005522436110382114,0.00079179821956249,-0.009801487013117725,0.010271045503675294,0.9882964411886321
2014-02-13,1,0.0008030358474334285,0.0010410070017735625,-0.009801487013117725,0.009889819633956907,0.9887948147506668
2014-02-18,1,0.0006067297446452314,0.0008429418072015353,-0.009801487013117725,0.010271045503675294,0.9883946017651678
2014-02-20,0,-0.00012341327411894212,0.0002433985173778755,-0.009264794457650178,0.010699999196952545,0.9878331436143439
2014-02-24,1,0.0004709249610183795,0.0007715265377583486,-0.009264794457650178,0.010271045503675294,0.9884801290897838
2014-02-26,1,0.0008148223736634657,0.0010586608720618024,-0.007824535093852055,0.010271045503675294,0.9884056222781198
2014-02-28,0,-0.000379123663582667,1.9178795773618345e-06,-0.00535669030363412,0.010271045503675294,0.9892744950400638
2014-03-04,-1,-0.0007982481316524158,-0.00029987619326074457,-0.00535669030363412,0.01202759640248265,0.9880186028339312
2014-03-06,-1,-0.0010899471204862384,-0.0006129049916717766,-0.00535669030363412,0.01202759640248265,0.988314233500386
2014-03-10,-1,-0.000842162029399386,-0.00047167133369235424,-0.006145999408575356,0.01202759640248265,0.9882521825638234
2014-03-12,-1,-0.0014013309632343745,-0.0009594177790928633,-0.00535669030363412,0.014245106996454357,0.9888094811853622
2014-03-14,-1,-0.0004575465911660976,-0.00018873868829483804,-0.006145999408575356,0.014245106996454357,0.9878463008072974
2014-03-18,0,-2.5070463292938168e-05,0.00019794538653118612,-0.007222201169591622,0.016234459276046907,0.9869316727915819
2014-03-20,1,0.00015739055157164825,0.0003989890800710895,-0.007222201169591622,0.011487217459018224,0.9875285017840434
2014-03-24,1,0.0002034176338780592,0.00041089129331548424,-0.006146361604875798,0.013817503313423,0.9874807549836053
2014-03-26,1,0.0005939763398980643,0.0007427581360878357,-0.00790365787930868,0.010959105072741651,0.9875391071987601
2014-03-28,-1,-0.0005241574646835674,-0.00016241038900116048,-0.010170241217536471,0.010959105072741651,0.9867288142412122
2014-04-01,1,0.0013986551152482245,0.0015159960958736843,-0.010170241217536471,0.007535396609716933,0.9881926277529524
2014-04-03,1,0.00045227929867544623,0.0007022878589273839,-0.012614292432198443,0.008942386978305584,0.9850598463614405
2014-04-07,-1,-0.0007585433968271846,-0.00039830107830949777,-0.00801904594376982,0.008942386978305584,0.9867307402000347
2014-04-09,1,7.653760013635088e-05,0.0003273581020619852,-0.011274448793056856,0.007535396609716933,0.9868756013207128
2014-04-11,-1,-0.00047171257150135893,-0.00023431089132720437,-0.011274448793056856,0.007535396609716933,0.9872761912682907
2014-04-15,-1,-0.0008543585446051925,-0.0005099698944445326,-0.008446834591948397,0.007535396609716933,0.9872802785539481
2014-04-17,0,-3.5534665780424758e-06,0.00021389267726455133,-0.008446834591948397,0.006455309357538057,0.9878299844916174
2014-04-22,0,-0.000130975023260431,0.00011669273976845326,-0.013726183297865936,0.006114851119832038,0.9874019363824151
2014-04-24,-1,-0.0006673593327550659,-0.0003894616827014542,-0.008377546554311424,0.006114851119832038,0.9885260302759544
2014-04-28,-1,-0.0018398026124069257,-0.0014028080020930124,-0.0033561754310230487,0.007164471568060881,0.9871337145869289
2014-04-30,-1,-0.0011489612296673268,-0.0008312176415826711,-0.0036334814140087128,0.006455309357538057,0.9876595027975055
2014-05-02,-1,-0.0025896420848780105,-0.002130437023984554,-0.002251188985511326,0.006455309357538057,0.9907791507426772
2014-05-06,-1,-0.0023320461596510285,-0.0019153576809781685,-0.002251188985511326,0.00742931052672518,0.9904844619740233
2014-05-08,-1,-0.003067487040177049,-0.002543135020483224,-0.002150824085403403,0.009754564312140349,0.9889302949082898
2014-05-12,-1,-0.002768529799979569,-0.002345105996853775,-0.002251188985511326,0.009754564312140349,0.9898821066691126
2014-05-14,-1,-0.001313052114394956,-0.001064050913597223,-0.003298052268888491,0.00742931052672518,0.9916974257240295
2014-05-16,-1,-0.0010365394140530396,-0.0008287532060787685,-0.005977836391190372,0.009754564312140349,0.9905016003458315
2014-05-20,-1,-0.002068640378823772,-0.0017371511976644076,-0.002251188985511326,0.010609186252586077,0.9904531821592528
2014-05-22,-1,-0.002167571895445518,-0.0018251045328272777,-0.003298052268888491,0.010609186252586077,0.9895265769240047
2014-05-27,0,-6.123260207751657e-05,1.06010402622542e-05,-0.006022957308280378,0.00750889154599274,0.9914314269014585
2014-05-29,-1,-0.0006721537062810873,-0.0005158257421078653,-0.006022957308280378,0.008548402539767354,0.9908294753572291
2014-06-02,1,0.0001729389535929885,0.00017501730518698915,-0.006635057667049802,0.009800124881378396,0.9904886522288091
2014-06-04,1,0.0004885152235726528,0.0004932713286841035,-0.006635057667049802,0.011885148836489027,0.9894480200824041
2014-06-06,1,0.0012954020652444186,0.001397763235327632,-0.007471025413270048,0.009800124881378396,0.990373249471452
2014-06-10,1,0.001627288404565606,0.0018725413664552387,-0.007471025413270048,0.009800124881378396,0.9904174483021134
2014-06-12,1,0.0011783034265928447,0.0013568469259194096,-0.006635057667049802,0.012469791688762399,0.9894343217318964
2014-06-16,1,0.0015348418609687367,0.0017387801344778153,-0.0020915128466180866,0.011186307035632129,0.9908395250419276
2014-06-18,1,0.0014444134979948588,0.0015694028579422144,-0.006941475585408789,0.012469791688762399,0.988704552757858
2014-06-20,1,0.0005819497689965056,0.0005974020553764232,-0.004857147147111544,0.01365174894854398,0.9886090851684858
2014-06-24,1,0.000928423251821252,0.001038384309613782,-0.004640288359091192,0.01365174894854398,0.9884888894669699
2014-06-26,1,0.0005490587814622676,0.0005760606645085108,-0.004640288359091192,0.012164935641166027,0.9889318298666423
2014-06-30,1,0.000495560706894132,0.000533591421429543,-0.0028880501515000916,0.013658511411155344,0.9890627606810444
2014-07-02,1,0.0020897500211947834,0.002294382581387064,-0.004640288359091192,0.011500787280682961,0.9901970920858096
2014-07-07,1,0.0018239346487363905,0.001982255126089712,-0.0028880501515000916,0.012164935641166027,0.990006197510233
2014-07-09,1,0.0015993796867290575,0.0017675392790299643,-0.0028880501515000916,0.012164935641166027,0.9905580135730232
2014-07-11,1,0.0026153160645833316,0.002893638632109879,-0.0032953704650069,0.007915614266581794,0.9917510621294164
2014-07-15,1,0.0026162861640455894,0.0029021737018485186,-0.004344365347331412,0.00593109700929191,0.9908011675779043
2014-07-17,1,0.0027433534314814257,0.0030812272953742495,-0.0037461921770435063,0.0053143683436381465,0.9930736981881639
2014-07-21,1,0.003057904708269604,0.003449667748722458,-0.0031029847983899063,0.0038537789240030416,0.9937703568486349
2014-07-23,1,0.0026096576081827546,0.002887624138588611,-0.0031029847983899063,0.0028855681373750686,0.9941826005940528
2014-07-25,1,0.0027755943566707807,0.0031040118271135793,-0.0031029847983899063,0.0038537789240030416,0.9944533587255925
2014-07-29,1,0.002727984661583585,0.003003897576370043,-0.0031029847983899063,0.0038537789240030416,0.994763868559613
2014-07-31,1,0.0020869057187329855,0.002246162263627398,-0.0031029847983899063,0.00422565808897434,0.9949916613641242
2014-08-04,1,0.0023600082887946126,0.002538962938595513,-0.0037672083474804318,0.0033816266296598546,0.9948708178323549
2014-08-06,1,0.002133203658800943,0.0022890326843200796,-0.004223137463272635,0.0033816266296598546,0.9945217666361528
2014-08-08,1,0.002048984937001179,0.002217275661050965,-0.005124932820107579,0.0033816266296598546,0.9945728148464065
2014-08-12,1,0.001788413775275457,0.0019561716994982766,-0.005035698509626579,0.0033816266296598546,0.9952044667730262
2014-08-14,1,0.0018590045653387951,0.002020307868049159,-0.005035698509626579,0.0026878152272572474,0.9954626840943585
2014-08-18,1,0.0020540821539872197,0.002257438829490529,-0.005963427390368,0.0033816266296598546,0.9940207321512825
2014-08-20,1,0.001804050996110764,0.0019732644047832882,-0.005035698509626579,0.004851254844671403,0.9935743030893798
2014-08-22,1,0.002622966081246827,0.002979164626490243,-0.005963427390368,0.002685912101132582,0.9924988305701165
2014-08-26,1,0.0027728352440139067,0.0031405940523735855,-0.006614572756384127,0.002685912101132582,0.9915849243428284
2014-08-28,1,0.0019414993443735078,0.0021286538407391063,-0.008274898507083678,0.002685912101132582,0.9909991765268281
2014-09-02,1,0.0021191111751644384,0.0023632776465912844,-0.00848486496397985,0.002685912101132582,0.9907830002810755
2014-09-04,1,0.00120021602920949,0.0012623411482403928,-0.0106559947380527,0.005612303323425712,0.9901376781286365
2014-09-08,1,0.0011936481459305919,0.0012728082559055572,-0.0106559947380527,0.005612303323425712,0.9900066333590284
2014-09-10,1,0.001252653924963015,0.0013659847020712304,-0.011021349134075396,0.007007785377308992,0.9884558854583685
2014-09-12,1,0.001288346760812519,0.0014160761854725911,-0.01649902806561045,0.007007785377308992,0.9858062550221162
2014-09-16,1,0.0004679908915570916,0.0004919088355047374,-0.01649902806561045,0.006982001513064598,0.9848104073379913
2014-09-18,1,0.0004280720916836152,0.0005012169978873421,-0.01649902806561045,0.00561289717145606,0.985140378414862
2014-09-22,0,-9.201595213000963e-05,3.564613360975072e-05,-0.01649902806561045,0.01118774498648106,0.9847156491222873
2014-09-24,-1,-0.001167081179353399,-0.0008201504005070292,-0.017152503022150604,0.01118774498648106,0.9838409380162486
2014-09-26,-1,-0.001554772099517339,-0.00117148551896971,-0.014895749319641237,0.011558324435079117,0.9840835220481604
2014-09-30,-1,-0.0019427821632190833,-0.0014890273305573699,-0.014895749319641237,0.01248733153371436,0.9842684103092937
2014-10-02,-1,-0.0032253277756312516,-0.0025900711055163684,-0.010394800588295693,0.014070120817965923,0.9841661010426279
2014-10-06,-1,-0.0028746480065927763,-0.002331575688285889,-0.010394800588295693,0.017138534585930888,0.9816087440014378
2014-10-08,-1,-0.002489996413211344,-0.002000135731952313,-0.007824899719123063,0.014738901120721693,0.9825980189763752
2014-10-10,-1,-0.004967394565388062,-0.0041492825506226445,-0.007065145910211873,0.014738901120721693,0.9829693214267522
2014-10-14,-1,-0.00689973572146151,-0.005850137234295118,-0.0064644646338431686,0.014738901120721693,0.9839932203018003
2014-10-16,-1,-0.00607570833113032,-0.005198067102230223,-0.002868714406045904,0.014738901120721693,0.9839467753215179
2014-10-20,-1,-0.005236029225371101,-0.00445083229430769,-0.002868714406045904,0.014086020304224935,0.9852107908387762
2014-10-22,-1,-0.004551873811666772,-0.0038547324949851805,-0.0024981204901221845,0.014086020304224935,0.9866761568799133
2014-10-24,-1,-0.0033132969035034807,-0.0027875363929639667,-0.0024981204901221845,0.015043541445234291,0.9876050904920795
2014-10-28,-1,-0.0020612524413590756,-0.001739167089946655,-0.0024981204901221845,0.014254161880610603,0.9883853890624592
2014-10-30,-1,-0.0015992937516072078,-0.0013049237553194458,-0.0022673958471385626,0.011017144586858237,0.9896255467395277
2014-11-03,1,8.87393595848163e-05,0.00021056838416001105,-0.004089136265862788,0.007793820660256389,0.9918998474093993
2014-11-05,1,0.0005858617172392492,0.0006231762949201247,-0.0022673958471385626,0.006199984779415493,0.9924337552166126
2014-11-07,-1,-0.00044297300105533967,-0.0003124469853388142,-0.0008321496797699273,0.007793820660256389,0.9934180163432887
2014-11-11,-1,-0.001217192506933513,-0.0009599206370684533,-0.0008321496797699273,0.01020583969830408,0.9919277215453058
2014-11-13,-1,-0.0011575802067042172,-0.000889045332002767,-0.0019134512911074663,0.01020583969830408,0.9910549894312775
2014-11-17,-1,-0.0006551738945805637,-0.0004693669692745568,-0.004089136265862788,0.01020583969830408,0.9911378279087633
2014-11-19,-1,-0.00013798743638114666,-1.3729390097441739e-05,-0.0025976314027332625,0.011071096872690166,0.9886655644097587
2014-11-21,1,0.0012191320941684338,0.0013363501317539199,-0.0025976314027332625,0.011071096872690166,0.989028159337928
2014-11-25,1,0.0014154365552961144,0.001551669227466476,-0.00421570036532225,0.010854073052839515,0.9890050224771774
2014-11-28,1,0.0012609922993342408,0.0013413957064010793,-0.002954920145176347,0.008919324128478904,0.9894861312944292
2014-12-02,1,0.0016230999586124032,0.0018245011659976489,-0.005580155108636664,0.008919324128478904,0.989164947002513
2014-12-04,1,0.0020446734662606164,0.0023188938194208288,-0.006987288361728072,0.008919324128478904,0.9884285783844189
2014-12-08,1,0.002456947246548844,0.0027729874631475106,-0.008589996285592013,0.009047353878940224,0.9871450188063731
2014-12-10,1,0.0032645712531653675,0.0037028950442439218,-0.008589996285592013,0.013900391760185697,0.9870020724137892
2014-12-12,1,0.002724030478360053,0.003099653802181377,-0.008589996285592013,0.013900391760185697,0.9870125188283493
2014-12-16,1,0.0022477521159592513,0.0025527074086317035,-0.009736802777547425,0.013900391760185697,0.98556352106494
2014-12-18,1,0.005150895633057181,0.005867426693102339,-0.009736802777547425,0.006016341046747257,0.9869814591461779
2014-12-22,1,0.005460892894792498,0.006193319815704292,-0.01273034853764771,0.0007985067515207636,0.9861185329666413
2014-12-24,1,0.005296720960860672,0.006049252060109985,-0.013499609414860655,0.003474397773473531,0.9845895854695315
2014-12-29,1,0.004352160101163876,0.004963908405907438,-0.014984256154880273,0.009524216072254548,0.9828401681134129
2014-12-31,1,0.0032935313685917627,0.003749432969034787,-0.018273210829868467,0.01299513174471555,0.9821484097621621
2015-01-05,1,0.002495963793693894,0.002812778997994192,-0.018273210829868467,0.01525096195320656,0.9819126778059681
2015-01-07,1,0.002397122437667012,0.0027126590257335707,-0.013657849805510379,0.016130223323973666,0.9821492207168354
2015-01-09,1,0.00345033095124024,0.0039097491073441775,-0.013657849805510379,0.01225945096945123,0.9824854555746478
2015-01-13,1,0.0025269566383556022,0.0028503070947317657,-0.008944426436294462,0.014806335683646473,0.9828420918823589
2015-01-15,1,0.001368876704110994,0.001549577072570128,-0.007049019143047926,0.014806335683646473,0.9844987598710893
2015-01-20,1,0.0019630874412762352,0.0022367662289066847,-0.007754230683127874,0.01564674178073772,0.9839521939652978
2015-01-22,1,0.0016185614898486201,0.001847373848602338,-0.007049019143047926,0.01564674178073772,0.9837895559820632
2015-01-26,1,0.0004139658961875169,0.00048155328327012097,-0.007049019143047926,0.01564674178073772,0.9849663105852101
2015-01-28,-1,-5.623902004790271e-05,-4.52333874348901e-05,-0.007049019143047926,0.013643581740929488,0.9856986890856838
2015-01-30,-1,-0.0010013275582645721,-0.0008719695130474102,-0.004220248030888577,0.015025121039225287,0.9869564783992143
2015-02-03,1,5.4587373668791836e-05,6.964768645408034e-05,-0.007049019143047926,0.013643581740929488,0.9873690337131323
2015-02-05,1,0.0010259490521430097,0.0011355272501363453,-0.007754230683127874,0.011753655117362309,0.9876512167986056
2015-02-09,1,0.00022823865462775052,0.0002544869628084313,-0.010625397749539956,0.011753655117362309,0.9868844773938446
2015-02-11,1,0.0014397604916627903,0.0015937635773589339,-0.016089941892305965,0.00837194453822938,0.9872736626667842
2015-02-13,1,0.0015594105469056447,0.0017001805898493125,-0.016089941892305965,0.008377781030405108,0.9865955002257316
2015-02-18,1,0.0018393462531613963,0.002017339618144211,-0.0168380615073929,0.008377781030405108,0.986504355015644
2015-02-20,1,0.0021627175237808934,0.0023595620670988984,-0.0168380615073929,0.010596594661844757,0.9861777299405248
2015-02-24,1,0.001426312239954988,0.0015207917098817145,-0.016332513514477887,0.010596594661844757,0.9861669667882371
2015-02-26,1,0.00046904937474323365,0.0005430734233554511,-0.016332513514477887,0.007731288619967372,0.9860393861182878
2015-03-02,1,0.000689643053049421,0.0007480039504894375,-0.016332513514477887,0.003328674376308609,0.9863537207649642
2015-03-04,-1,-0.0003289658125751444,-0.00016546846931637097,-0.016332513514477887,0.007731288619967372,0.9864603521746913
2015-03-06,-1,-0.0024442830333831463,-0.0019448454272946456,-0.01534143487332019,0.007876832729955836,0.9874935196512974
2015-03-10,-1,-0.004611785049887046,-0.0037752693707906473,-0.014198100272414863,0.0100022027056548,0.988416444541001
2015-03-12,-1,-0.005080778001833078,-0.004181374723558201,-0.011242968428476111,0.010664058153531908,0.987982366919498
2015-03-16,-1,-0.0048635201132529796,-0.0040243706510626025,-0.009877833553960215,0.010274302000611003,0.988581000765982
2015-03-18,-1,-0.004676720046985787,-0.0038861470704382338,-0.009877833553960215,0.010274302000611003,0.9879692380620929
2015-03-20,-1,-0.0034395755483672165,-0.002830617686448869,-0.009877833553960215,0.011085117030230665,0.987559700471415
2015-03-24,-1,-0.00406506559680781,-0.00340400494232828,-0.009877833553960215,0.011085117030230665,0.9870875744078181
2015-03-26,-1,-0.00509993253298003,-0.004353525718180836,-0.004346856586597149,0.011085117030230665,0.9881753096428799
2015-03-30,-1,-0.0042521149483663,-0.0036957451227966113,-0.006019795365729797,0.011085117030230665,0.9885535968149052
2015-04-01,-1,-0.0042759665228621615,-0.00372770154293907,-0.006019795365729797,0.011518494346979559,0.9882612108520714
2015-04-06,-1,-0.00470277877780306,-0.004047541157829105,-0.006019795365729797,0.016315048713524634,0.9877224330322647
2015-04-08,-1,-0.00456275629095778,-0.003912193270801457,-0.010637736623558079,0.016315048713524634,0.9867189932185565
2015-04-10,-1,-0.003675040059092702,-0.0031424652952373694,-0.010637736623558079,0.016315048713524634,0.9869396352051525
2015-04-14,-1,-0.0034143190530361383,-0.0029245624548044783,-0.010637736623558079,0.016315048713524634,0.987279459391018
2015-04-16,-1,-0.0024987516491330845,-0.002139415875132231,-0.008918771796344638,0.016315048713524634,0.9878756543083512
2015-04-20,-1,-0.0008210166959166075,-0.0006872868201819307,-0.008918771796344638,0.0031158682281792445,0.9895173498229737
2015-04-22,-1,-0.0010518161425910086,-0.0009062430294064922,-0.008918771796344638,0.0018710479367185552,0.9893106277416154
2015-04-24,-1,-0.0010932172208186267,-0.0009536172391789164,-0.008918771796344638,0.0026430586360232235,0.9892344765781784
2015-04-28,-1,-0.001806652748856288,-0.001576002224692041,-0.010922109189170111,0.006460146756270182,0.9883017600806109
2015-04-30,-1,-0.0015496942648809374,-0.00136644019351003,-0.0106742075585224,0.006460146756270182,0.9868965046873392
2015-05-04,-1,-0.0006651888839641874,-0.0006066449883225334,-0.0106742075585224,0.0026430586360232235,0.9877666563963593
2015-05-06,-1,-0.0016590860937305569,-0.0015179599335539405,-0.007627353741858656,0.0063903175327340665,0.9880234662370855
2015-05-08,-1,-0.0012950477083455854,-0.0011776919950488153,-0.0106742075585224,0.0026430586360232235,0.987702512650091
2015-05-12,-1,-0.00162054703503998,-0.00145101158599846,-0.0106742075585224,0.0063903175327340665,0.9868341254916286
2015-05-14,1,0.0004732208793847858,0.0006835030395096397,-0.01622406912786682,0.005618729297518048,0.986555638388004
2015-05-18,1,0.0006882455511539357,0.0009604011232733484,-0.01622406912786682,0.005618729297518048,0.9858582209822057
2015-05-20,-1,-0.00018625312559768708,-4.19982086301628e-05,-0.013997809999282292,0.009554384731857072,0.9869454828966961
2015-05-22,1,5.2641933576535495e-05,0.0002323655428120952,-0.015198785020793108,0.009554384731857072,0.9860914982551583
2015-05-27,-1,-0.0003585361935655883,-0.0002605348054820608,-0.015198785020793108,0.007076194892039441,0.9857437452604795
2015-05-29,1,0.00040411583922650136,0.0005817363033397723,-0.015875787436022634,0.004853234949184675,0.9870784239098673
2015-06-02,1,0.0002530530141955294,0.0004019992803789794,-0.021199078726655225,0.004853234949184675,0.983806252964611
2015-06-04,1,0.00047922035003406416,0.0007283855945352081,-0.01816140493829055,0.007076194892039441,0.9842542370295233
2015-06-08,-1,-0.0006154436470102353,-0.0005522193099363988,-0.015875787436022634,0.007076194892039441,0.9852583849096349
2015-06-10,-1,-0.0008354261167084647,-0.000801658571872561,-0.017818403539241894,0.004853234949184675,0.9849711581755652
2015-06-12,-1,-0.0006187281415997192,-0.0005953041204834167,-0.017818403539241894,0.004853234949184675,0.9855548811249901
2015-06-16,-1,-0.001339955751147918,-0.0012631078230937235,-0.017818403539241894,0.00675713740896766,0.9859502674988242
2015-06-18,-1,-0.00154412785451108,-0.0013882987700370819,-0.017818403539241894,0.004751578294233957,0.9865876034769456
2015-06-22,-1,-0.002302176845378659,-0.0020457348904887786,-0.017818403539241894,0.004019206596553805,0.9872236667921294
2015-06-24,-1,-0.004386393214638852,-0.003844569534700283,-0.014100880743597388,0.004019206596553805,0.9888685847496014
2015-06-26,-1,-0.004827382978848068,-0.004301686266879151,-0.01053954167904538,0.004019206596553805,0.9897736102328031
2015-06-30,-1,-0.006406431562059888,-0.005762841752891169,-0.007975924965362325,0.00802497109382368,0.9905898665316692
2015-07-02,-1,-0.0044162608547001075,-0.003973631237835692,-0.007975924965362325,0.005136469466705299,0.9879961658765712
2015-07-07,-1,-0.003934447682190785,-0.0036035715411669882,-0.007975924965362325,0.005136469466705299,0.9879469728665564
2015-07-09,-1,-0.0043400560784569945,-0.003991221110836026,-0.0061699730164205165,0.005136469466705299,0.9885230641163193
2015-07-13,-1,-0.003650357027801623,-0.003409644857900189,-0.007200182626939581,0.005249629634147293,0.9879958862769983
2015-07-15,-1,-0.0025558927291388367,-0.002480753926167289,-0.007941254726304877,0.003655009046338852,0.9879732912735176
2015-07-17,-1,-0.00250776653199008,-0.002415814454621635,-0.008111642390816694,0.005816681245764965,0.9868885379160665
2015-07-21,-1,-0.0025788817638357064,-0.0024665723568501356,-0.008111642390816694,0.011798953816215471,0.9866127662280464
2015-07-23,-1,-0.0023762470885828045,-0.002317352852676997,-0.011726400857204671,0.011798953816215471,0.9850069464176296
2015-07-27,-1,-0.0031573452336985308,-0.0029691274714604516,-0.01753475111686524,0.011798953816215471,0.984282677400551
2015-07-29,-1,-0.0023887221919871135,-0.002254267158541447,-0.01914120192654266,0.005516533378969801,0.9824711335455252
2015-07-31,-1,-0.00018663882832676778,-9.084315645338303e-05,-0.01914120192654266,0.005516533378969801,0.9849442013972466
2015-08-04,-1,-0.0006672163055917708,-0.000647359314524152,-0.01914120192654266,0.009124922770329698,0.9846654115178188
2015-08-06,-1,-0.0006475561590141253,-0.0006304479292606547,-0.01914120192654266,0.009376148901409271,0.9842474313173789
2015-08-10,-1,-0.00036600925868500976,-0.00031471789556248496,-0.019612343326106275,0.009376148901409271,0.9820674633513723
2015-08-12,-1,-0.00042858235226002404,-0.0003429550722103055,-0.01914120192654266,0.009376148901409271,0.9815742387759487
2015-08-14,-1,-0.0007889951110599922,-0.000782206107298501,-0.018619075599793526,0.00844988765624685,0.9825974799217978
2015-08-18,-1,-0.00105033534482094,-0.0009713972678016511,-0.018619075599793526,0.008098944107914792,0.9830801546178997
2015-08-20,-1,-0.002125146985563244,-0.0019146022556935152,-0.018104142895253854,0.008098944107914792,0.9821035630736871
2015-08-24,-1,-0.0030852998115055963,-0.00275992282790504,-0.018104142895253854,0.008098944107914792,0.9807113952896607
2015-08-26,-1,-0.002304153898596866,-0.0020873304345595226,-0.014967927762875685,0.005903935138929834,0.9836761670239786
2015-08-28,-1,-0.0011875011997918477,-0.0011146830076283283,-0.018104142895253854,0.005155761227886864,0.9834064501888384
2015-09-01,-1,-0.0010501100858618946,-0.0010270158228396218,-0.014967927762875685,0.005903935138929834,0.9789568684759237
2015-09-03,-1,-0.00041632794453118425,-0.0003639726130697171,-0.018376135728987244,0.005155761227886864,0.9779050627845207
2015-09-08,1,0.000495390503118029,0.0007009805687186574,-0.014967927762875685,0.006579811594158071,0.9790733118515054
2015-09-10,1,0.0003506938624888334,0.0005928786142652145,-0.009810948120610058,0.012137611233765234,0.979434760852044
2015-09-14,1,0.00017406673815922717,0.00038132829781891493,-0.01189000582027675,0.012137611233765234,0.9789208827723841
2015-09-16,1,0.0003851448430096039,0.0006180861590271698,-0.01326541484683959,0.012137611233765234,0.9781374627490161
2015-09-18,-1,-0.001153808314654902,-0.001145135801719703,-0.015367417581796949,0.012137611233765234,0.9791276985298736
2015-09-22,-1,-0.002178744890834862,-0.0020675038371736863,-0.015367417581796949,0.013156963823708765,0.9781470935895908
2015-09-24,-1,-0.002089647507592626,-0.0020338752577473873,-0.01997213824083347,0.013156963823708765,0.9755248479927608
2015-09-28,-1,-0.003758102150320249,-0.0034540905089998804,-0.01997213824083347,0.013156963823708765,0.9759962444087931
2015-09-30,-1,-0.00029166082496820975,-0.00014303445797273515,-0.01997213824083347,0.009602231348381556,0.9809101128688299
2015-10-02,-1,-0.0002002060364148646,-4.2152471889193356e-05,-0.01997213824083347,0.008728772713499793,0.9818794767380636
2015-10-06,1,0.0013215061237368167,0.0017229404884715213,-0.01997213824083347,0.008728772713499793,0.982634034488852
2015-10-08,1,0.0020128896991522846,0.0025025566232598274,-0.01997213824083347,0.004635039272115308,0.9828908923885867
2015-10-12,1,0.0016309519025155532,0.0020276420794047003,-0.01997213824083347,0.0015529552806547383,0.9829092054497748
2015-10-14,1,0.0012979491302348373,0.0016644341472245089,-0.021758247212592653,0.0015529552806547383,0.9811662875146795
2015-10-16,1,0.00022295085680934816,0.00043771679729702364,-0.02339734388818421,0.0015529552806547383,0.9819675144467926
2015-10-20,-1,-0.0005895907526399637,-0.0004204562564211191,-0.019319690976383364,0.004635039272115308,0.9842786533625257
2015-10-22,-1,-0.0020852210705916705,-0.002064620112223314,-0.016273781026030547,0.006450734485190395,0.9843093869211563
2015-10-26,-1,-0.003200980232511455,-0.0030411064023757738,-0.014912110915153775,0.006450734485190395,0.9857944558146967
2015-10-28,-1,-0.003218739860852286,-0.0030257015199466625,-0.014912110915153775,0.008780552015041332,0.9858129652127338
2015-10-30,-1,-0.00303959186346958,-0.0028916140877886603,-0.011512119180269004,0.01038219998131023,0.9858057427879994
2015-11-03,-1,-0.0021211454167004845,-0.0020819816190516985,-0.016273781026030547,0.008991724893555812,0.9848446818384163
2015-11-05,-1,-0.0025088558530533623,-0.002405773056882157,-0.016273781026030547,0.013626394726489185,0.9835049363097937
2015-11-09,-1,-0.0024835477143228092,-0.0024125666066946334,-0.016244402153657304,0.013626394726489185,0.9830421898958359
2015-11-11,-1,-0.0040740749885386975,-0.003816613274450188,-0.008841464666029971,0.013626394726489185,0.9844477520820923
2015-11-13,-1,-0.00546519699270864,-0.004993953961825605,-0.01698880237806441,0.013626394726489185,0.9830957022288714
2015-11-17,-1,-0.004750960083073084,-0.004321326543802106,-0.01698880237806441,0.01203419903528799,0.9837496932656985
2015-11-19,-1,-0.005925226146503509,-0.005266704059009223,-0.01698880237806441,0.01021015198418865,0.9855083486415117
2015-11-23,-1,-0.0054960348861809085,-0.004937516420237519,-0.01698880237806441,0.010754233228150535,0.9844021826830804
2015-11-25,-1,-0.005351510360638121,-0.004799909759868144,-0.01698880237806441,0.011991901406407934,0.9834528267838863
2015-11-30,-1,-0.0053101222162836755,-0.004727300913826554,-0.01698880237806441,0.013182875451806443,0.9832590431313492
2015-12-02,-1,-0.004994488965805121,-0.00446060662981665,-0.016560698009825774,0.011151224576616705,0.9847813106375641
2015-12-04,-1,-0.003612037101154028,-0.0032634566637954002,-0.016560698009825774,0.010094859801116587,0.9864706732637494
2015-12-08,-1,-0.0036695750406939365,-0.003326025714361965,-0.01662843550398846,0.007404297197119359,0.986313025617284
2015-12-10,-1,-0.0038075973252450802,-0.0034500817134452124,-0.020605814162443125,0.007010023315418995,0.9834600385025914
2015-12-14,-1,-0.005775473351403921,-0.00518324759791276,-0.0183383949253426,0.007010023315418995,0.9841279843599309
2015-12-16,-1,-0.005164529038711432,-0.004625938213340053,-0.023108637600354927,0.004005558289396519,0.9836318499507399
2015-12-18,-1,-0.005242916251185806,-0.004742650286136124,-0.0183383949253426,0.004005558289396519,0.9838134114294843
2015-12-22,-1,-0.003113732503327282,-0.0030307274753924845,-0.026811480631072807,0.001825603622401415,0.9812505933134692
2015-12-24,-1,-0.002283648793865415,-0.002279173347695337,-0.04050444989438542,-0.0031056782631239,0.9766737398559882
2015-12-29,-1,-0.0021490059575053904,-0.0021180689005941295,-0.04050444989438542,-0.0031056782631239,0.9739756327641335
2015-12-31,-1,-0.0022135048851668307,-0.0021573149827735067,-0.04050444989438542,0.008979950925107333,0.9710709247905138
2016-01-05,-1,-0.0021982884311660977,-0.002166547620013768,-0.04115728011098005,0.0199570747522358,0.9681850578695627
2016-01-07,-1,-0.0032904604879805998,-0.003190083262157603,-0.04296039060724227,0.023304544369620123,0.9659310129303379
2016-01-11,-1,-0.00596915894125335,-0.00560087030763385,-0.04227507496343583,0.023304544369620123,0.9649698440653661
2016-01-13,-1,-0.008279088409802394,-0.00758295209308021,-0.04092884156304456,0.023304544369620123,0.9668573968012125
2016-01-15,-1,-0.010699766276817018,-0.00967978854236554,-0.04062114279685733,0.024698844114988953,0.9648483074666208
2016-01-20,-1,-0.01075076824189564,-0.00978397688223758,-0.04062114279685733,0.02538211692009141,0.9625518408753491
2016-01-22,-1,-0.01016176613903985,-0.009346080113102567,-0.03794437681478638,0.029749648446594945,0.9626451035168275
2016-01-26,-1,-0.008482615858525996,-0.007844796343905808,-0.03794437681478638,0.026125988440798956,0.9640628683332786
2016-01-28,-1,-0.007191905622199865,-0.006755498028931576,-0.01521729114378748,0.02538211692009141,0.9676613179389056
2016-02-01,-1,-0.0035118054850984213,-0.003441263735863925,-0.016471483576806212,0.024862138692085162,0.9695915130567465
2016-02-03,-1,-0.004279975249819922,-0.004217032706078288,-0.006948145579236112,0.026944705946673343,0.9697444770394039
2016-02-05,-1,-0.005419939830865576,-0.0052307636348213156,-0.00405610480306567,0.026944705946673343,0.971744237587412
2016-02-09,-1,-0.009250682002100179,-0.008655548734482458,-0.0025128333785153947,0.026944705946673343,0.9704998095061419
2016-02-11,-1,-0.009963926390696758,-0.009196531403225683,0.0006270912057583141,0.027252812412762478,0.9675697013117833
2016-02-16,-1,-0.00787161304271657,-0.007278789596143562,-0.006948145579236112,0.026944705946673343,0.9695068680538113
2016-02-18,-1,-0.006166369603305408,-0.005775973943214526,-0.006948145579236112,0.026944705946673343,0.9715274773405098
2016-02-22,-1,-0.005272442070319485,-0.004927836949940492,-0.004164193842514123,0.026944705946673343,0.9704095367232674
2016-02-24,-1,-0.00419339302341944,-0.0041523805900225315,-0.004164193842514123,0.027252812412762478,0.9710397060887109
2016-02-26,-1,-0.0036162221585809293,-0.0034780091095563473,-0.009230582910797317,0.027252812412762478,0.9711380965188094
2016-03-01,0,-0.00042768986829129995,0.0002510919542517381,-0.017706829048929694,0.025352203039905118,0.9731935475582715
2016-03-03,1,0.0025428866077933836,0.003697244438177775,-0.018631271966136915,0.022110005128679198,0.9745762259858309
2016-03-07,1,0.004032229961516892,0.00539792380066621,-0.036689997692433106,0.013934054252200363,0.9727784961366973
2016-03-09,1,0.002408169988421147,0.0035297775107415545,-0.03312375957024796,0.011893162071566068,0.9750900776692987
2016-03-11,1,0.0038859728772810517,0.005137135289277345,-0.03312375957024796,0.011893162071566068,0.9755752100096632
2016-03-15,1,0.0002450227678028752,0.0008984632756000154,-0.012623465245493801,0.014746310004584096,0.9790966599961451
2016-03-17,0,-0.0002478010090619094,0.0002061468237027843,-0.03206999465780784,0.014746310004584096,0.9750347495861439
2016-03-21,1,0.001719020996781423,0.002363933196778292,-0.03206999465780784,0.013344813874953836,0.9771515893942055
2016-03-23,1,0.0017778708782845917,0.002457716935316825,-0.018111660593946508,0.013344813874953836,0.9793935603243867
2016-03-28,1,0.0014519036674574472,0.0020792097267643495,-0.018111660593946508,0.013344813874953836,0.9795505728196365
2016-03-30,1,0.0008711710149051919,0.0014855180030488087,-0.008883994263692716,0.020117479653715232,0.9790883894063044
2016-04-01,1,0.0013878708868768803,0.0020667101364823543,-0.013447746694938204,0.014746310004584096,0.9759851548009749
2016-04-05,0,-0.0003817522916279312,2.2326182097961523e-05,-0.013447746694938204,0.014746310004584096,0.9766412630716679
2016-04-07,-1,-0.0017615444471545327,-0.001648345888624748,-0.013447746694938204,0.01472153089726681,0.9763999868591389
2016-04-11,-1,-0.0013902220319489652,-0.0012891435562769114,-0.024866555322841818,0.008697484290581585,0.9765365300729714
2016-04-13,0,-3.039899578696488e-05,0.00033634239859551716,-0.032970902732933224,0.008697484290581585,0.974035850029857
2016-04-15,-1,-0.003058132942550343,-0.0030313514238132708,-0.023241471946899527,0.008697484290581585,0.9766612435077534
2016-04-19,-1,-0.0021769316780743493,-0.002101140702564058,-0.023241471946899527,0.012285362122133275,0.9759884908672806
2016-04-21,0,-0.00015972688742723717,0.0002086677619032493,-0.023241471946899527,0.012285362122133275,0.9762480164271885
2016-04-25,1,0.0003637382501065333,0.0008375314994083028,-0.023241471946899527,0.028519518465536072,0.9743849020339169
2016-04-27,1,0.002769899396845407,0.003580982181504846,-0.023241471946899527,0.03155391600381921,0.9730299328922124
2016-04-29,1,0.00033667023694836876,0.0009034609066435372,-0.013395842913820876,0.03155391600381921,0.9771432782558729
2016-05-03,-1,-0.0006578766656078784,-0.00022240259080398995,-0.008824033660507054,0.03349354449387032,0.975878615372727
2016-05-05,-1,-0.0014564938688517086,-0.0011294018388870882,-0.008824033660507054,0.03349354449387032,0.9762934740501931
2016-05-09,-1,-0.00321486323489672,-0.0032010536612310076,0.0021661269720734525,0.034793670186483196,0.9744251919633862
2016-05-11,-1,-0.002442652565600272,-0.0022871479920587167,-0.0041676352463861175,0.03349354449387032,0.9775129434905836
2016-05-13,-1,-0.0038980657547544833,-0.0038183145633088095,-0.0041676352463861175,0.03349354449387032,0.9765843420501332
2016-05-17,-1,-0.0018962049048496124,-0.0016760365184810978,-0.004675544780661008,0.0318734285803521,0.9792570995182446
2016-05-19,1,0.0004327412412641191,0.0010292595063778663,-0.004675544780661008,0.025319006478563888,0.9822137923756236
2016-05-23,1,0.0025429632457911423,0.003426110705839476,-0.004675544780661008,0.024181785327471443,0.9834616448251817
2016-05-25,1,0.0054967124902946685,0.006746540558881997,-0.009897807160748739,0.02227501894303425,0.9846525633291634
2016-05-27,1,0.0060679306970415105,0.007378957023301759,-0.012276994070562085,0.02227501894303425,0.9766780787560412
2016-06-01,1,0.007372460922349009,0.008785766263893529,-0.012276994070562085,0.02303608808774711,0.9753055869100853
2016-06-03,1,0.005976768426499207,0.007034341210469687,-0.013303856552822691,0.028293529445115782,0.9744155448362922
2016-06-07,1,0.0063623617600890294,0.007368485788080044,-0.01806885630066375,0.02303608808774711,0.973169843949909
2016-06-09,1,0.0043698599345826095,0.005003501913865883,-0.013303856552822691,0.03419922365298613,0.9720681867156731
2016-06-13,1,0.002525866368021416,0.0028532990357035505,-0.004923103836544997,0.035695483754746,0.971926150224816
2016-06-15,1,0.002026451851878092,0.0022418166241206933,-0.006409375983905641,0.035695483754746,0.9715436027538724
2016-06-17,1,0.002356504816157297,0.0026424513565323268,-0.006409375983905641,0.035695483754746,0.9713188212954277
2016-06-21,1,0.0038319185492250857,0.004325353677438364,-0.012159357791832123,0.035695483754746,0.9721169786828987
2016-06-23,1,0.006174112040996081,0.0071129997160476015,-0.007928249447337058,0.03419922365298613,0.9743640298764888
2016-06-27,1,0.0009707494970678449,0.001178870761341793,-0.004430743689112726,0.03419922365298613,0.9794610020836286
2016-06-29,1,0.0026246390311218584,0.0029697765633653877,-0.005144877540379128,0.020428580588575856,0.9830768695685724
2016-07-01,1,0.0008638495587617841,0.0009691528429723237,-0.0057613040867376475,0.015027449017811733,0.9788083956754239
2016-07-06,0,-8.709122109928458e-05,0.0001416778313272826,-0.006069449417457759,0.013444629340801928,0.9800338668231479
2016-07-08,1,0.003394765640906929,0.003706472368086881,-0.007403073783936123,0.009949743182176937,0.9819081255668789
2016-07-12,1,0.0052690759340259085,0.00588687704510845,-0.007403073783936123,0.005875071435899557,0.9828308673899782
2016-07-14,1,0.005832979780335985,0.006584436509593516,-0.012452180443314568,0.009949743182176937,0.9802450454203818
2016-07-18,1,0.005210202800161925,0.0057825461445512125,-0.012452180443314568,0.013444629340801928,0.9793845667627596
2016-07-20,1,0.00483534069972412,0.0053468362606127065,-0.013574353683943084,0.010807270673599984,0.9792782293696338
2016-07-22,1,0.005747783084699528,0.0064680202247149945,-0.013574353683943084,0.016819978120473332,0.9785034959885391
2016-07-26,1,0.0072652265472349774,0.00828320324539799,-0.013574353683943084,0.011346636931446526,0.979119380735223
2016-07-28,1,0.0075431335196559,0.008646029006701727,-0.022339114554539345,0.016819978120473332,0.9776731479329374
2016-08-01,1,0.002515119978562911,0.002852353298895252,-0.010083184254817643,0.016819978120473332,0.9845317923337437
2016-08-03,1,0.002470871091406957,0.0028976086720551375,-0.00931494516724968,0.016819978120473332,0.9855200644404368
2016-08-05,1,0.0014173377477138325,0.001538425172441159,-0.007906953555446157,0.014694205616877965,0.986066771040297
2016-08-09,1,0.0013875639902665646,0.0015170496522564356,-0.007906953555446157,0.016819978120473332,0.9810643500899903
2016-08-11,1,0.0016161865518593268,0.0019089462647867996,-0.007906953555446157,0.014835905969411438,0.9824049388572182
2016-08-15,1,0.0027820512569284197,0.003210926174044071,-0.007906953555446157,0.013975374569059083,0.9839391308545181
2016-08-17,1,0.0017962369092674973,0.0020689770345389004,-0.00731686573095062,0.014835905969411438,0.9835617272158418
2016-08-19,1,0.002336402756987923,0.0026045885284189463,-0.00731686573095062,0.013975374569059083,0.983650764101288
2016-08-23,1,0.002355752891982076,0.0026420301214622535,-0.006045858694725912,0.01619518661949715,0.98281223369011
2016-08-25,1,0.001382850291708072,0.0014383892488812498,-0.004293689750786079,0.013975374569059083,0.984513296360342
2016-08-29,1,0.0013436794136406046,0.0013511543658615204,-0.004293689750786079,0.02068546386382966,0.9826500863373432
2016-08-31,1,0.0012886652170512498,0.0013238238833751304,-0.004293689750786079,0.02068546386382966,0.9822968935072943
2016-09-02,1,0.0015748435795094086,0.0016651750690761871,-0.002833674704411907,0.02068546386382966,0.9830618821868369
2016-09-07,1,0.0032558749147676798,0.0033660281701867033,-0.0031272059183160457,0.01529461651784408,0.9879292427685863
2016-09-09,1,0.002264725896285776,0.0022700898183785766,-0.0031272059183160457,0.01529461651784408,0.9881554028781316
2016-09-13,1,0.003249297652794481,0.003472068055638574,-0.004293689750786079,0.012837776229734948,0.9863355178577844
2016-09-15,1,0.003562801882494638,0.00381476984906817,-0.004293689750786079,0.010212294696643575,0.9864037896289883
2016-09-19,1,0.005084947251084572,0.005647778717346403,-0.009579862083716686,0.009542556184520098,0.9856978201548205
2016-09-21,1,0.0041110230894282375,0.004336414106462254,-0.009579862083716686,0.009542556184520098,0.9864775162617919
2016-09-23,1,0.0029633996807991755,0.00297352063849132,-0.014497732395468168,0.009542556184520098,0.9860838704283279
2016-09-27,1,0.0035911225138424616,0.00359405913762809,-0.014497732395468168,0.007122402809386954,0.9879228024817723
2016-09-29,1,0.0021311547338189983,0.002390744217736139,-0.009636509191991167,0.009542556184520098,0.9840876481648078
2016-10-03,1,0.001778143201191136,0.0020921026485631908,-0.013420344409675797,0.009542556184520098,0.9832867333139588
2016-10-05,1,0.0006308254229542109,0.0011616560151674342,-0.020160678837128857,0.008873598403795329,0.9812828649556458
2016-10-07,1,0.0004428113725904407,0.0009486255340944306,-0.016095569749104244,0.00575793502104516,0.982555400713177
2016-10-11,0,-0.0004118515334559723,0.00012408044135430243,-0.013420344409675797,0.00575793502104516,0.9827803036193647
2016-10-13,-1,-0.0005897121181410081,-0.00011105713127386387,-0.011601864784762998,0.00575793502104516,0.9832151312352347
2016-10-17,-1,-0.00043523148093458145,-0.00011186889478967464,-0.00820128854734779,0.0113218401144838,0.9826986879499515
2016-10-19,0,-3.1135024422120094e-05,0.00022000945743623967,-0.008115634179275813,0.008864206371036121,0.9834144681475231
2016-10-21,1,0.0006026481224499056,0.0006889358253939583,-0.008115634179275813,0.01653054546050771,0.981932003357174
2016-10-25,1,0.0008578169337922643,0.000914757947604147,-0.008115634179275813,0.01653054546050771,0.9821651648566597
2016-10-27,1,0.004775054412206986,0.005298071689879884,-0.008115634179275813,0.0052068015122325294,0.9857864701085383
2016-10-31,1,0.0033951089017491406,0.003666237579972839,-0.004038284990817629,0.009262524617259658,0.9871266732836381
2016-11-02,1,0.0005781911039565349,0.0007425506597446318,-0.002592151591107867,0.0102742007649794,0.9875338287187133
2016-11-04,1,0.00019613808105730572,0.0004175655026947317,-0.004038284990817629,0.012229833551725428,0.9853641663778121
2016-11-08,1,0.0015718064840086177,0.0016381742897175133,-0.002592151591107867,0.018908327869178225,0.9829851971627561
2016-11-10,1,0.0019139151469203647,0.0019802425298617397,-0.004238957017279021,0.018908327869178225,0.9826105292397179
2016-11-14,1,0.003994636130783856,0.004397956132637771,-0.008999755304420761,0.017919602407882183,0.9827934902701709
2016-11-16,1,0.0006304181014630957,0.0009665814386937593,-0.011129044632096024,0.017919602407882183,0.9817846681488629
2016-11-18,1,0.0029136944992281116,0.0029787756365660346,-0.010531348878915481,0.016238983456943107,0.9828429613345782
2016-11-22,1,0.003129234410253122,0.0032492436315272786,-0.010531348878915481,0.016238983456943107,0.9827687929308998
2016-11-25,1,0.0025213695771323817,0.0025272311552623945,-0.010531348878915481,0.016238983456943107,0.982571547856297
2016-11-29,1,0.004455365944439222,0.004856488123414148,-0.011317166862681088,0.016238983456943107,0.9822708253445396
2016-12-01,1,0.004674211477334742,0.005197100099037202,-0.010880872870577237,0.014901170227519458,0.9832553790299464
2016-12-05,1,0.004673435075064873,0.005183918385051044,-0.010531348878915481,0.016381689532466125,0.984236907436121
2016-12-07,1,0.008463191325421063,0.009478793390392828,-0.010531348878915481,0.011542644195631148,0.9875463151897987
2016-12-09,1,0.00731880733492217,0.008159657398304706,-0.010531348878915481,0.014506814779348528,0.9879741828319344
2016-12-13,1,0.0073107884300545045,0.008160565520092668,-0.009962284087320392,0.011542644195631148,0.9892914879966889
2016-12-15,1,0.007443425727931205,0.008354733388654244,-0.007710141920145345,0.010052651873929935,0.9900868073996916
2016-12-19,1,0.007375343391776789,0.0082650421804463,-0.007710141920145345,0.010052651873929935,0.9893063590681672
2016-12-21,1,0.005140586277695807,0.005430104434737056,-0.007710141920145345,0.013549362132126623,0.9890945052193292
2016-12-23,1,0.004806508426258947,0.004958901666529664,-0.007710141920145345,0.017247688026601548,0.9853309952975156
2016-12-28,1,0.003770471323902365,0.0038230579249141443,-0.007710141920145345,0.017247688026601548,0.9849534489056848
2016-12-30,1,0.0024947681034098827,0.002618031266922511,-0.0027504350803084867,0.017247688026601548,0.9855322160998099
2017-01-04,1,0.0026992118421145564,0.0028711061861706735,-0.004616714851075626,0.013384316866862695,0.9865940613167938
2017-01-06,1,0.0030319043913598475,0.0030964065671938495,-0.004616714851075626,0.013384316866862695,0.9864711505498407
2017-01-10,1,0.00219218709388263,0.002420398347032359,-0.004616714851075626,0.00989453762723314,0.9868986468398961
2017-01-12,1,0.002521021536042333,0.002645184104069368,-0.004616714851075626,0.012783470471016186,0.986672017537912
2017-01-17,1,0.0023979630654659147,0.002553305390063097,-0.007571972585003553,0.013384316866862695,0.9850782635891058
2017-01-19,1,0.0018294251735459972,0.0020620161227851985,-0.005713483505671376,0.012783470471016186,0.9868727359452735
2017-01-23,1,0.0021270036748133833,0.0023161024726830056,-0.007571972585003553,0.007974432207412565,0.9865143955594968
2017-01-25,1,0.004980337621121164,0.005105100584858402,-0.007571972585003553,0.001447933694455168,0.9890172038581871
2017-01-27,1,0.004360199607646269,0.004392389379812478,-0.006093025000953463,0.001447933694455168,0.9900700811246663
2017-01-31,1,0.006020101579641243,0.0064787332302012925,-0.006093025000953463,0.0037709050687840095,0.9888294533752675
2017-02-02,1,0.00471782701826899,0.004925046366521175,-0.006515873406537933,0.010833327614427322,0.98813736828273
2017-02-06,1,0.004360137630253647,0.0045381569074220965,-0.009016246795450608,0.010833327614427322,0.9879831169305686
2017-02-08,1,0.003383381921356403,0.0034587669593862565,-0.009016246795450608,0.010833327614427322,0.9878680020572962
2017-02-10,1,0.00357864208439881,0.0037154042131878695,-0.006691602400231581,0.010036133032546265,0.9882710374137164
2017-02-14,1,0.0032548654404023995,0.0033936696663631177,-0.005361450446182837,0.010036133032546265,0.9896932879899808
2017-02-16,1,0.0026869464915407616,0.0027298453065437048,-0.004853276204190768,0.010036133032546265,0.9899512452352722
2017-02-21,1,0.002791370715109511,0.002942783554234407,-0.005769268613175435,0.010036133032546265,0.9883154152635157
2017-02-23,1,0.0022973649975926267,0.0023467901623087707,-0.004881552875901279,0.014235252932036906,0.9870676189181645
2017-02-27,1,0.0028293758771927753,0.00296147963289198,-0.004881552875901279,0.014235252932036906,0.9867831732369554
2017-03-01,1,0.0035798895091211508,0.003813005111281128,-0.004881552875901279,0.014235252932036906,0.9865886706372574
2017-03-03,1,0.0028229115977622577,0.002925711084846537,-0.004881552875901279,0.014309653826358478,0.9863940102283044
2017-03-07,1,0.001485934118843928,0.0016187574194657527,-0.004599414973389324,0.014309653826358478,0.9861606207550202
2017-03-09,-1,-0.0005906301361394029,-0.00015969435800213309,-0.0034958275639409525,0.01680972981357039,0.9864601883879982
2017-03-13,-1,-0.0011119800516677767,-0.0005377885831889422,-0.003769832126532294,0.01680972981357039,0.98653889634596
2017-03-15,-1,-0.0008812224549133692,-0.00032970283648296674,-0.004615689308571173,0.01680972981357039,0.9855526042372575
2017-03-17,-1,-0.001489379942865032,-0.0008311112712473694,-0.0050076849207711036,0.01680972981357039,0.9851398998806429
2017-03-21,-1,-0.0034721472440428333,-0.002590533376661669,-0.004615689308571173,0.01680972981357039,0.9861838343501859
2017-03-23,1,5.655101080556755e-05,0.00032893507913275485,-0.005651983242532191,0.01543693204723106,0.9869918272542693
2017-03-27,1,0.00042705612355379825,0.0006982794389371457,-0.005651983242532191,0.01543693204723106,0.986353575638618
2017-03-29,1,0.00010331310181660772,0.0004980653551919028,-0.009965263625179533,0.01349560657583096,0.986193335191996
2017-03-31,1,6.5325761474382e-05,0.0004629890274269724,-0.010155458181388397,0.01349560657583096,0.98565923522587
2017-04-04,1,0.0006378711932559234,0.0009245356282962766,-0.010155458181388397,0.01543693204723106,0.985033976004541
2017-04-06,1,0.0005272124180070928,0.0008500741526497959,-0.010155458181388397,0.015580639617740654,0.9851669314771386
2017-04-10,1,0.0012695500204077622,0.0014428168736533853,-0.012341479693832095,0.015580639617740654,0.9848143778925014
2017-04-12,1,0.0006918586195645409,0.0009415693613157338,-0.009615594731254005,0.014096247482235582,0.9863155276225061
2017-04-17,1,0.0007476146928428212,0.0009592349025841629,-0.009615594731254005,0.014096247482235582,0.986648516887678
2017-04-19,0,-8.908696078766638e-06,0.00029451801458662,-0.009615594731254005,0.014096247482235582,0.9854737298801479
2017-04-21,0,-8.973697993824913e-05,0.00022478201990700343,-0.007530236439023752,0.012956398992193804,0.9863703925646313
2017-04-25,1,0.0013111152807444182,0.001442123277264723,-0.007530236439023752,0.011082865203286461,0.9876165774920558
2017-04-27,1,0.0002694466308389594,0.0005512838001360059,-0.005352166111057321,0.011640647092285555,0.9885236612044983
2017-05-01,1,0.0007737999283484854,0.0009824191736748614,-0.004704677707196608,0.011387819966831423,0.9901111328407673
2017-05-03,1,0.002837206622820151,0.003035082123213639,-0.005352166111057321,0.011387819966831423,0.9897898794221186
2017-05-05,1,0.002776625866462939,0.0029203717757688564,-0.007530236439023752,0.008828028227723802,0.9892073966907474
2017-05-09,1,0.002034854910495671,0.0020731373670195836,-0.0017716443391244839,0.008828028227723802,0.9902207551541361
2017-05-11,1,0.002022436140529836,0.0020503381560488584,-0.005352166111057321,0.010862787262321047,0.9872208964547247
2017-05-15,1,0.0017927206801775337,0.0018097011654697919,-0.0017716443391244839,0.012645530137977992,0.9856756591782353
2017-05-17,1,0.0003323160738624764,0.0005104932797855453,-0.004990552393252184,0.012645530137977992,0.986196617146809
2017-05-19,1,0.0010053614520080828,0.0010878871508549627,-0.004990552393252184,0.014473455376963248,0.9859888476673189
2017-05-23,1,0.0009524222566826248,0.0010746046831996352,-0.004990552393252184,0.014912636469480989,0.9849555640823716
2017-05-25,1,0.0007814237906531421,0.0009682858632946688,-0.006327843596132006,0.014912636469480989,0.9840657149620494
2017-05-30,1,0.0020630902664948037,0.002077371965057595,-0.008611865779743712,0.013337538355949865,0.9838904572141186
2017-06-01,1,0.001855445647004952,0.0018802730154904963,-0.008611865779743712,0.01345216312086044,0.9834065952773413
2017-06-05,1,0.0008706775165825486,0.0010103765148176866,-0.011947527160322855,0.01345216312086044,0.9813771257740658
2017-06-07,1,0.0007745831823579864,0.0009384117150622682,-0.011947527160322855,0.014210565411215235,0.980896709126286
2017-06-09,-1,-0.0008025817158324956,-0.00046877775300884167,-0.008611865779743712,0.01803909829476255,0.9826974204494824
2017-06-13,1,0.0007151536669470811,0.0008895815650058887,-0.008611865779743712,0.02134619061255353,0.9821388469672002
2017-06-15,-1,-0.00039514415207293817,-0.00011170690359652653,-0.008611865779743712,0.02134619061255353,0.9822129272107709
2017-06-19,1,0.0020024889733163452,0.0021929254768996978,-0.008611865779743712,0.02134619061255353,0.9828226878321185
2017-06-21,1,0.0026715370340992034,0.002932472033708043,-0.008611865779743712,0.018208033133640694,0.9843853913616321
2017-06-23,1,0.0034042075622911956,0.003761531814061061,-0.007649259732521102,0.014266877024174616,0.9858829478760911
2017-06-27,1,0.002551125728660812,0.002777673468727918,-0.008618682872010024,0.014266877024174616,0.9859197759500589
2017-06-29,1,0.0023023297696304515,0.0024790768668246626,-0.00974670857386344,0.010424120564274204,0.9835095014897219
2017-07-03,-1,-0.0008199929005007789,-0.0005757563572472567,-0.00462374673135372,0.010424120564274204,0.9868581690080359
2017-07-06,-1,-0.0005369704491097594,-0.0003265014382786231,-0.008618682872010024,0.0072264576145399245,0.9868501044983948
2017-07-10,1,0.0003649861241198706,0.0005008254653399581,-0.00974670857386344,0.0030731964043745697,0.9865364046068096
2017-07-12,1,0.0019364442836690492,0.001970183047750959,-0.00974670857386344,0.001880938979127565,0.9882246906518002
2017-07-14,1,0.0015257408941961536,0.0015765010704120027,-0.00974670857386344,0.001880938979127565,0.9884302051126739
2017-07-18,1,0.0010801263231647383,0.0012003345490671168,-0.00974670857386344,0.004829559907116506,0.9865270526572232
2017-07-20,1,0.001514957317822384,0.0015569445167339377,-0.012345659221340847,0.005042503022430922,0.9836001237158419
2017-07-24,1,0.0017145966710748056,0.0017411311707134602,-0.012345659221340847,0.008131880182687526,0.9832764182090571
2017-07-26,1,0.0006310262037090976,0.000758937063861449,-0.012345659221340847,0.009712366297445681,0.9817862366618326
2017-07-28,-1,-0.0030303742891799714,-0.002450428956648468,-0.00292367208906624,0.012191389826696496,0.9838624333888283
2017-08-01,-1,-0.0036421030660973024,-0.0029242449681618795,-0.004579869053575779,0.012191389826696496,0.983973213108873
2017-08-03,-1,-0.003909996346554005,-0.003189314104151726,-0.004579869053575779,0.012191389826696496,0.9834744844789198
2017-08-07,-1,-0.005284754509476439,-0.00442594893189319,-0.004579869053575779,0.014471168867348207,0.9830687150552594
2017-08-09,-1,-0.005307052471168328,-0.004447078545840135,-0.006574390047874886,0.014471168867348207,0.9829348014550038
2017-08-11,-1,-0.006809747265478836,-0.005692859194091314,-0.006574390047874886,0.014471168867348207,0.9829010717510259
2017-08-15,-1,-0.0040903116898533785,-0.003368712789971241,-0.010731196364558883,0.01368729556383594,0.9841473725001043
2017-08-17,-1,-0.004193828732588428,-0.003503908956933699,-0.006574390047874886,0.01368729556383594,0.9852062733185216
2017-08-21,-1,-0.0029197273034311092,-0.00243686212072384,-0.006574390047874886,0.01368729556383594,0.985616150079109
2017-08-23,-1,-0.0007310062382932559,-0.0005325932727266915,-0.010823806949629537,0.008459245056688233,0.9865590360366121
2017-08-25,1,2.8903152215057715e-05,0.0001322410965084281,-0.010823806949629537,0.007666438020304724,0.9869252636405081
2017-08-29,1,0.00011759974377759431,0.0001917166109885512,-0.010823806949629537,0.00911844206488832,0.9858787234215846
2017-08-31,-1,-0.00047205244581114114,-0.00034174215267525847,-0.010823806949629537,0.00911844206488832,0.9857805749336109
2017-09-05,-1,-0.00019686540825027599,-8.66351618478743e-05,-0.013561591425841447,0.007666438020304724,0.9855576309086255
2017-09-07,-1,-0.0006957236803719892,-0.0005241068395886108,-0.011656508014541662,0.00911844206488832,0.9850067998801095
2017-09-11,-1,-0.0014779101958085484,-0.0011870295322216544,-0.009393638091108866,0.00911844206488832,0.9855284825599491
2017-09-13,-1,-0.002072993919906298,-0.0017171158324535269,-0.005789757126377262,0.00911844206488832,0.9867262349379855
2017-09-15,-1,-0.0001487872654606981,-8.738549937484e-05,-0.005789757126377262,0.00911844206488832,0.987089910671163
2017-09-19,1,5.2370180030748164e-05,0.00011325765426264557,-0.010403546736925008,0.00665178368181107,0.9867333551719265
2017-09-21,-1,-0.0012409801917734058,-0.0010646616403484585,-0.005789757126377262,0.00665178368181107,0.9890768721539717
2017-09-25,-1,-0.0006163261006226653,-0.0005429615493486766,-0.005789757126377262,0.01222606628417699,0.9883278298005926
2017-09-27,1,0.0007183400452835692,0.0008443727627243014,-0.00740217119199222,0.006476627371604472,0.9893349045451554
2017-09-29,-1,-0.0004996818062949342,-0.00043468504187977637,-0.00740217119199222,0.01222606628417699,0.9883519190752738
2017-10-03,-1,-0.0016537039423383346,-0.001470540474328862,-0.00740217119199222,0.01676999460495948,0.9874242378160342
2017-10-05,-1,-0.0015324592716921181,-0.0013525528392488943,-0.0069129397308396075,0.012731019032255824,0.9883515379052835
