JNU-Tangyin/eata/results/Batch4_SP500/Batch4_SP500-AMP.csv
Date,Action,Predicted_Q25,Predicted_Q75,Actual_Q25,Actual_Q75,RL_Reward
2010-12-14,0,0.0,0.0,-0.004013356882215883,0.007506206253027337,0.9910473555987869
2010-12-16,0,0.0,0.0,-0.004405302622084231,0.005855547894490474,0.9909114357586065
2010-12-20,0,0.0,0.0,-0.004013356882215883,0.005855547894490474,0.9906798924058264
2010-12-22,1,0.002829772695217462,0.0029816359116455826,-0.004321669227048713,0.004403154934288185,0.9925943465557358
2010-12-27,1,0.002346782250745505,0.0024122049314831456,-0.004321669227048713,0.006987480535660235,0.9925900476284633
2010-12-29,1,0.002167939741799249,0.002171509776177253,-0.004321669227048713,0.011055271287091134,0.9915434421651137
2010-12-31,1,0.002131658348795214,0.0021805599054606265,-0.004321669227048713,0.012850064128714842,0.989333130208171
2011-01-04,0,0.0,0.0,-0.004321669227048713,0.012850064128714842,0.9892216450720223
2011-01-06,1,0.0019632088413070216,0.001993780916672811,-0.005418429808048058,0.011055271287091134,0.9869180714903074
2011-01-10,0,0.0,0.0,-0.005418429808048058,0.012850064128714842,0.9853634714603768
2011-01-12,0,0.0,0.0,-0.005418429808048058,0.01375693155599945,0.9848397655736082
2011-01-14,0,0.0,0.0,-0.0024992354872305175,0.01849388745736675,0.983703526263644
2011-01-19,0,0.0,0.0,-0.0024992354872305175,0.01849388745736675,0.9832612315163198
2011-01-21,1,0.001543720105493775,0.0016285169579244633,-0.0012454148573801697,0.01849388745736675,0.9842120289281827
2011-01-25,1,0.002492400630883268,0.002605002051417851,-0.003077055776567806,0.01849388745736675,0.9835267179751127
2011-01-27,1,0.0031427720013436277,0.0033734368255157886,-0.003077055776567806,0.015804409322013553,0.9846676902194055
2011-01-31,1,0.0016482135366359262,0.0016484299048512793,-0.004149442617434293,0.012117461021687068,0.9862930465764932
2011-02-02,1,0.002073318628142022,0.002144905912336837,-0.004651417907803268,0.012117461021687068,0.9852647359864626
2011-02-04,1,0.0008584391171321845,0.0009321243709137937,-0.009161616546313454,0.012117461021687068,0.9875714057675928
2011-02-08,1,0.0014700852228109074,0.0014795972408864233,-0.009726878716345408,0.011522289487339034,0.987562927558877
2011-02-10,1,0.0018436745930725008,0.001938674505378154,-0.009726878716345408,0.007077912314695799,0.9880523246268442
2011-02-14,1,0.0014434346964181826,0.0015088863629292356,-0.012015560098617916,0.0043176560798149815,0.9879062059226007
2011-02-16,1,0.0019148387530608941,0.0019296224151698041,-0.012300308595012204,0.0043176560798149815,0.9870938030383181
2011-02-18,1,0.0019839795610954317,0.00200700725707356,-0.012300308595012204,0.004551542338508961,0.9862996213019428
2011-02-23,1,0.001008243139667998,0.0011237831784390198,-0.012300308595012204,0.004970124013872547,0.9864231227974708
2011-02-25,1,0.000923629922765576,0.0009951739340467267,-0.012300308595012204,0.009017469899210089,0.9857982002989253
2011-03-01,1,0.000829623209771556,0.0008597467669961552,-0.012300308595012204,0.009017469899210089,0.9862920801587577
2011-03-03,1,0.0014335368278454066,0.001462966523898857,-0.010329836630667114,0.008010760626655778,0.9883305225985403
2011-03-07,1,0.0003274470496119471,0.0004309591714845151,-0.008641267669967536,0.009017469899210089,0.9882297093396263
2011-03-09,0,0.0,0.0,-0.008543903809810146,0.008010760626655778,0.988851002425948
2011-03-11,1,0.0005663632626907205,0.0006623143753585947,-0.008441831368160678,0.009017469899210089,0.9884009857875029
2011-03-15,-1,-0.0007198985089237337,-0.0004640197702141652,-0.0063417159791335255,0.009017469899210089,0.989444817030916
2011-03-17,0,0.0,0.0,-0.006024175273594969,0.005375977395005755,0.9909561041743826
2011-03-21,-1,-0.0008108343897419841,-0.0004991092807773946,-0.006024175273594969,0.004091862936655872,0.9919238846687194
2011-03-23,0,0.0,0.0,-0.005350870002160043,0.005375977395005755,0.9923316569324999
2011-03-25,0,0.0,0.0,-0.006024175273594969,0.003517621406827974,0.9915892275201806
2011-03-29,0,0.0,0.0,-0.00710929333500555,0.0031371176271572684,0.9903698407505842
2011-03-31,0,0.0,0.0,-0.00710929333500555,0.006772008693086833,0.9897913901515599
2011-04-04,1,0.0007823989812680011,0.0009882467226029425,-0.00710929333500555,0.0027444624413793827,0.9904902781543009
2011-04-06,1,0.00027307116852725503,0.0005292833882402312,-0.006870968932524292,0.0027444624413793827,0.9902491660492933
2011-04-08,1,0.0006098522962065654,0.0008737066378989621,-0.006870968932524292,0.005261286894248592,0.9900378860608102
2011-04-12,0,-0.00015236839340079084,0.00021356866332344709,-0.006870968932524292,0.013275385149003822,0.9897122701766788
2011-04-14,0,0.0,0.0,-0.007393975152787834,0.014650283632723238,0.9886286893407303
2011-04-18,0,0.0,0.0,-0.007750762676529058,0.014650283632723238,0.9882867488303211
2011-04-20,-1,-0.001396957451976636,-0.001012649974682491,-0.007750762676529058,0.014679987740431652,0.9879661104354998
2011-04-25,0,0.0,0.0,-0.00997541045353428,0.01222296284473872,0.9875044060484774
2011-04-27,0,0.0,0.0,-0.008359305491066721,0.01222296284473872,0.988443771663551
2011-04-29,0,0.0,0.0,-0.008359305491066721,0.009380992369200895,0.9892256819597209
2011-05-03,-1,-0.00027075850818176464,-5.30707383320421e-05,-0.010303185668546096,0.01222296284473872,0.9870107011069844
2011-05-05,0,0.0,0.0,-0.00973620438701701,0.01222296284473872,0.9874255062650742
2011-05-09,0,0.0,0.0,-0.013450556711361517,0.004314264205896862,0.9874165251868771
2011-05-11,0,0.0,0.0,-0.013450556711361517,0.004314264205896862,0.9867328597161065
2011-05-13,0,0.0,0.0,-0.014327310338567305,0.0025826897711443814,0.9870442880762634
2011-05-17,0,0.0,0.0,-0.018959999061342304,0.004314264205896862,0.9858642180656666
2011-05-19,0,0.0,0.0,-0.018959999061342304,0.0031540310225444375,0.9865983440831931
2011-05-23,1,9.532066530504942e-05,0.0003556234409242276,-0.012522767067164244,0.005995927226048138,0.987784373703352
2011-05-25,-1,-0.00071429308063745,-0.00037902733322873604,-0.01501544232397279,0.005995927226048138,0.9874048886837169
2011-05-27,-1,-0.0006313674327249816,-0.00033087045584412637,-0.015106896619382273,0.008587339542092684,0.9865957775011494
2011-06-01,-1,-0.0012861921557742084,-0.000939404042631096,-0.012914060194968924,0.008587339542092684,0.9879286517794141
2011-06-03,-1,-0.0012616283119612668,-0.0009098748384095898,-0.012553251832300737,0.012187719911199053,0.9875735045871462
2011-06-07,-1,-0.0018259388296316505,-0.0014148980677899244,-0.012553251832300737,0.012724446155094,0.9871874718845244
2011-06-09,-1,-0.0010086018390875555,-0.0007046105349273075,-0.013693158725131244,0.012187719911199053,0.987840639028755
2011-06-13,-1,-0.002076210472313165,-0.0016385077024601233,-0.013693158725131244,0.012416094972631042,0.9853572267597721
2011-06-15,-1,-0.0023154392277135397,-0.0018609490888326214,-0.013693158725131244,0.012187719911199053,0.9859990278955936
2011-06-17,-1,-0.0014492783565540324,-0.0011148964977773035,-0.015979870255138997,0.012178364976070933,0.985823121477926
2011-06-21,-1,-0.000765319543173904,-0.0005369247193840551,-0.015979870255138997,0.012020754458623948,0.9857171960730052
2011-06-23,-1,-0.001368077792606271,-0.001052123242252664,-0.013693158725131244,0.012178364976070933,0.9853914389795309
2011-06-27,-1,-0.0012477046433336716,-0.000963718933985255,-0.015979870255138997,0.012178364976070933,0.9852396891276087
2011-06-29,0,0.0,0.0,-0.01704768320190989,0.012178364976070933,0.9822498647761541
2011-07-01,0,0.0,0.0,-0.018689463924911404,0.012020754458623948,0.9817129606967929
2011-07-06,-1,-0.00097824249497479,-0.000857036462453399,-0.020813159299073295,0.007458312198706412,0.9814631224848425
2011-07-08,-1,-0.00017830723890431584,-0.00011248595834980929,-0.023850523817509114,0.005156378374199062,0.9796382511017038
2011-07-12,-1,-0.0013617658529156544,-0.0012948210969551607,-0.023850523817509114,0.005156378374199062,0.9745138005766663
2011-07-14,-1,-0.0017659795823897818,-0.001653457221427132,-0.027518287048259805,0.007458312198706412,0.9686499837197016
2011-07-18,-1,-0.0032132993012056526,-0.0029082933024048435,-0.027518287048259805,0.014815019584240563,0.9685632180499401
2011-07-20,0,0.0,0.0,-0.027518287048259805,0.010290568415097096,0.9681198492417351
2011-07-22,0,0.0,0.0,-0.047198113925201006,0.0020420818106893137,0.9637968429065856
2011-07-26,0,0.0,0.0,-0.047198113925201006,0.016537757599644338,0.9608215137342292
2011-07-28,0,0.0,0.0,-0.035690372476368075,0.014136924215055344,0.9632647903544916
2011-08-01,0,0.0,0.0,-0.035690372476368075,0.025957531659669377,0.9611375473982712
2011-08-03,0,0.0,0.0,-0.029396552131678657,0.025957531659669377,0.9616514031061799
2011-08-05,0,0.0,0.0,-0.03675526558904144,0.025957531659669377,0.9613642690414063
2011-08-09,0,0.0,0.0,-0.026716765114295986,0.025957531659669377,0.9659504875142331
2011-08-11,-1,-0.006234032098268842,-0.005532385538495294,-0.02426764289092425,0.01850809914535956,0.9714738051842752
2011-08-15,-1,-0.004985671210222001,-0.004407170803253499,-0.02426764289092425,0.01769891367568785,0.971194863776491
2011-08-17,-1,-0.005380251698726779,-0.004796976939087148,-0.023503908555413434,0.022741831755749356,0.969411465591415
2011-08-19,-1,-0.009379274259528921,-0.008349720030667772,-0.0222130905824481,0.022741831755749356,0.9725170431721005
2011-08-23,-1,-0.005260138943962038,-0.004713683492561346,-0.023503908555413434,0.020732045107766307,0.9758397816608679
2011-08-25,-1,-0.004700108046413385,-0.004273998974554472,-0.026988606493903094,0.020732045107766307,0.9755589468889346
2011-08-29,-1,-0.0017283148985176894,-0.0016252407412797733,-0.026988606493903094,0.01747015621139487,0.9772326836057452
2011-08-31,-1,-0.001176462021559549,-0.001174650996537814,-0.029297796187707614,0.020732045107766307,0.9756344880808909
2011-09-02,-1,-0.004247765237513746,-0.003875091775012632,-0.029297796187707614,0.020732045107766307,0.9749411272863487
2011-09-07,-1,-0.004534674815902382,-0.004167833920006239,-0.029297796187707614,0.021687734839164134,0.9760976446940406
2011-09-09,-1,-0.005184702381149904,-0.0047518592215576375,-0.03462462135717213,0.02256868294441146,0.9739613843392665
2011-09-13,-1,-0.00486821299591924,-0.004513631206677722,-0.03462462135717213,0.02376817204037795,0.9724558066874076
2011-09-15,-1,-0.002386994318974549,-0.0023386513739267287,-0.03462462135717213,0.024091821876454048,0.9720197308150249
2011-09-19,-1,-0.0033394643603695084,-0.003247438745032693,-0.041040074502007334,0.028945555538622197,0.9697461012361065
2011-09-21,-1,-0.004218783440229242,-0.00406279326808636,-0.0408804271070479,0.03218153614954956,0.9676162663356215
2011-09-23,0,0.0,0.0,-0.03462462135717213,0.0340102511551225,0.9674000419106744
2011-09-27,0,0.0,0.0,-0.0408804271070479,0.03274954438164539,0.9651342805940291
2011-09-29,-1,-0.0026747507736909334,-0.0026465538464850564,-0.0408804271070479,0.037337255385754324,0.9616864725458202
2011-10-03,-1,-0.004506280220129899,-0.00427577119298398,-0.0338977211886228,0.037337255385754324,0.9630711595340149
2011-10-05,0,0.0,0.0,-0.0408804271070479,0.037337255385754324,0.9630071702147743
2011-10-07,0,0.0,0.0,-0.03424762144014512,0.03597525434770808,0.964601249427338
2011-10-11,0,0.0,0.0,-0.03424762144014512,0.03274954438164539,0.9653240246797797
2011-10-13,0,0.0,0.0,-0.04201387258040504,0.030793515463646122,0.9653075692806258
2011-10-17,0,0.0,0.0,-0.019453079438830793,0.031734784626630666,0.9668191316780005
2011-10-19,0,0.0,0.0,-0.017129690813521604,0.02901674709930661,0.969168970127035
2011-10-21,0,0.0,0.0,-0.027674033277452628,0.025334406624091234,0.9708080065864672
2011-10-25,0,0.0,0.0,-0.025674788184969672,0.02051424521088689,0.9733656081446185
2011-10-27,1,0.0032579775794376086,0.0037562645596999605,-0.027674033277452628,0.007755359099688466,0.9770882183957091
2011-10-31,1,0.0019350417124608626,0.0023131902360950017,-0.025674788184969672,0.01692968242050616,0.9776043539828612
2011-11-02,1,0.0012336463990823103,0.0014855136145678967,-0.015360489097599399,0.01848027887507974,0.9776057660277913
2011-11-04,1,0.0018059707695739706,0.002134362240432689,-0.013414560006958376,0.016245333066340267,0.9785502114558423
2011-11-08,1,0.0020296538305689324,0.002406401234772401,-0.013414560006958376,0.013628166968019804,0.9791736657585176
2011-11-10,1,0.00016376742800810107,0.00031869740821473226,-0.013414560006958376,0.02291230951755314,0.9782379555665218
2011-11-14,1,0.001069249908662431,0.0013427843153163066,-0.025674788184969672,0.013628166968019804,0.9782124215047575
2011-11-16,1,0.0004927159007166987,0.0006946654742708513,-0.016243212340894413,0.013628166968019804,0.9795723110056832
2011-11-18,1,0.00044041551984769125,0.000641052072855503,-0.010309041955026748,0.02291230951755314,0.9792276844016784
2011-11-22,1,0.0001916392012381524,0.00038342301798389685,-0.0050805003373764965,0.027929688787973105,0.9778296843686283
2011-11-25,0,-4.300001277129592e-05,0.0001328398851738157,-0.003527402170939121,0.027929688787973105,0.9784469976673503
2011-11-29,0,0.0,0.0,-0.009822927258747349,0.02291230951755314,0.9791892037080382
2011-12-01,0,0.0,0.0,-0.011259982071768083,0.021555668788376413,0.9811390571534501
2011-12-05,0,0.0,0.0,-0.011704978674500216,0.022985904291362075,0.9803514455201529
2011-12-07,0,0.0,0.0,-0.011704978674500216,0.015429585412234732,0.9811355639296594
2011-12-09,0,0.0,0.0,-0.011259982071768083,0.013936178893735492,0.9846157036611028
2011-12-13,0,0.0,0.0,-0.0031085595724768267,0.013936178893735492,0.9864376283861576
2011-12-15,0,0.0,0.0,-0.005195126947688074,0.013936178893735492,0.986147529715696
2011-12-19,0,0.0,0.0,-0.00465173868490115,0.01615149669881526,0.9858879128609996
2011-12-21,1,0.003475327256801444,0.004166046072680579,-0.00465173868490115,0.01615149669881526,0.9888151888989888
2011-12-23,1,0.0033943232642503554,0.004010508743024537,-0.00957946001320837,0.01615149669881526,0.9888204391241175
2011-12-28,1,0.001983444676532179,0.002325395917662554,-0.004570003927650258,0.01615149669881526,0.9889743708478422
2011-12-30,1,0.002334561701307329,0.002764718798480314,-0.004012227183038595,0.010261089457961494,0.9903471006892293
2012-01-04,0,0.0,0.0,-0.004012227183038595,0.010261089457961494,0.9872325159740689
2012-01-06,0,0.0,0.0,-0.003984306613724626,0.01615149669881526,0.984017434107001
2012-01-10,0,0.0,0.0,-0.005913512458980419,0.013915830360432343,0.9839946491321718
2012-01-12,0,0.0,0.0,-0.007824395022122486,0.013915830360432343,0.9837428761955956
2012-01-17,0,0.0,0.0,-0.005913512458980419,0.016173963688218135,0.9833921123194089
2012-01-19,0,0.0,0.0,-0.007528773754274956,0.013379550953224711,0.9841535198540595
2012-01-23,0,0.0,0.0,-0.007528773754274956,0.013230715541421887,0.984123964819244
2012-01-25,0,0.0,0.0,-0.006488284076519935,0.013230715541421887,0.9837546879702619
2012-01-27,1,0.003154146087128999,0.003469876650920743,-0.006199970931632013,0.013230715541421887,0.9850714281407443
2012-01-31,0,0.0,0.0,-0.006199970931632013,0.013230715541421887,0.9849672050018264
2012-02-02,0,0.0,0.0,-0.005953827379776339,0.01203329836610182,0.9893554221040279
2012-02-06,1,0.0006424569810157215,0.0007805209803499486,-0.006199970931632013,0.00822957753732129,0.9916163383963427
2012-02-08,0,0.0,0.0,-0.006199970931632013,0.008469574364920436,0.9914512831904313
2012-02-10,0,0.0,0.0,-0.005953827379776339,0.012299183324957587,0.9911242709021097
2012-02-14,1,0.0009490160653516207,0.001149325964204565,-0.006199970931632013,0.012299183324957587,0.9897758710325524
2012-02-16,1,0.0007935393326886523,0.0009199136647131932,-0.005953827379776339,0.012299183324957587,0.9895938038793203
2012-02-21,1,0.0006534055822747379,0.0007758244571464911,-0.00596345018351777,0.008469574364920436,0.9896472361116885
2012-02-23,1,0.0012300712762003496,0.0014540381657842944,-0.006275241688855146,0.007099464326021852,0.9895878525463511
2012-02-27,1,0.0002377341836912496,0.0002952032391675268,-0.006275241688855146,0.011533307979256696,0.9885160676647095
2012-02-29,1,8.960330394918099e-06,0.000120744008606623,-0.006766752094844668,0.011533307979256696,0.9883695052558013
2012-03-02,0,0.0,0.0,-0.010610540632198342,0.01273814424301313,0.9871737181681842
2012-03-06,-1,-0.0009204561437906589,-0.000719419169789243,-0.010544135917663728,0.01273814424301313,0.98736443679723
2012-03-08,-1,-0.0011026421025563146,-0.0008289352413918438,-0.013916807420697841,0.01137176535078737,0.9873646313491709
2012-03-12,-1,-0.002155277049509946,-0.0017137270391344621,-0.014973936142237253,0.010855593986421197,0.9864583835415531
2012-03-14,-1,-0.002917435765178494,-0.002394278027188752,-0.014493263557151572,0.011229975460147264,0.9871862171339445
2012-03-16,-1,-0.0009572699505705872,-0.0007851006354843507,-0.015639275871732614,0.010855593986421197,0.98645689685594
2012-03-20,-1,-0.002354401274909667,-0.0019162837873246815,-0.016578815811165663,0.011229975460147264,0.985138657022602
2012-03-22,-1,-0.0002040135454078401,-0.0001135463662109464,-0.016535956803071544,0.011229975460147264,0.9853793690552122
2012-03-26,1,0.00013255383579239638,0.0001801039068310358,-0.016535956803071544,0.00995615680348164,0.9858846464964728
2012-03-28,1,0.0003436982948407597,0.0003626523916675128,-0.016535956803071544,0.011909925974174018,0.9847550852207979
2012-03-30,0,-1.4741812220843452e-05,3.2559956634559394e-05,-0.01429404941354773,0.011229975460147264,0.9863368963059052
2012-04-03,-1,-0.00015296031355967283,-9.22018789910283e-05,-0.01563506402983877,0.010158699362536664,0.9867725491107944
2012-04-05,-1,-0.001214289768921465,-0.0009557305205608845,-0.01527994756869103,0.010158699362536664,0.9869932324867816
2012-04-10,-1,-0.001909696598605401,-0.0016108793952748857,-0.011414683165453276,0.010158699362536664,0.9884380012003171
2012-04-12,-1,-0.0012873062352043805,-0.001010983475673586,-0.012353695471188844,0.002692176061646171,0.9888147747967149
2012-04-16,-1,-0.0014262144227393863,-0.001154310528878179,-0.012353695471188844,0.0016105598043086658,0.9897757069634608
2012-04-18,-1,-0.0020205542085412623,-0.0016685093208813166,-0.012353695471188844,0.0010282807395735562,0.9908186363644815
2012-04-20,-1,-0.0019935445410407034,-0.001606424474531395,-0.01527994756869103,0.0010282807395735562,0.9897937505610901
2012-04-24,-1,-0.0034407865639121387,-0.002871959620367787,-0.01527994756869103,0.0016105598043086658,0.9896894823966739
2012-04-26,-1,-0.0009781800018867019,-0.0007308006961648093,-0.01527994756869103,0.0010282807395735562,0.989919407214577
2012-04-30,-1,-0.0006741574692635265,-0.0004940137129346844,-0.01527994756869103,0.0010282807395735562,0.9893214881363761
2012-05-02,-1,-0.0006127109188087633,-0.0004686602510879901,-0.013975927454492765,0.0004950392334559065,0.9896183389608559
2012-05-04,-1,-0.001216737469879105,-0.0009962474691370593,-0.014200343455211394,0.0004950392334559065,0.9885924476307648
2012-05-08,-1,-0.002250178504178306,-0.0018331427571495458,-0.014200343455211394,0.005732241935944361,0.9862846528428653
2012-05-10,-1,-0.0027597521775735235,-0.002285586911631057,-0.01083408572112346,0.007260281952306812,0.9870395537126332
2012-05-14,-1,-0.0026938815418518793,-0.0022306820154753635,-0.01083408572112346,0.012436809042245197,0.986128741601448
2012-05-16,-1,-0.0031641032383207934,-0.0027296488461646803,-0.01083408572112346,0.013330775360281717,0.9857641601179725
2012-05-18,-1,-0.003192298888909486,-0.002742445460106657,-0.004910054054975439,0.014790004735441797,0.984879640107723
2012-05-22,-1,-0.003294386266646289,-0.0028287756196936787,-0.003789033088610833,0.014790004735441797,0.98441819978788
2012-05-24,0,0.0,0.0,-0.008209583319896373,0.017269380628629313,0.9830790718307751
2012-05-29,0,0.0,0.0,-0.012383458322405035,0.017269380628629313,0.9821737417010517
2012-05-31,-1,-0.0021726890572622403,-0.001839246911644551,-0.010675617224929403,0.018994574310414677,0.9814433855904773
2012-06-04,-1,-0.002891323579450075,-0.002492345650038634,-0.0029972149593307834,0.021855366382519597,0.9817992824728388
2012-06-06,-1,-0.0013896267944356142,-0.001161176772732862,-0.008221387746811602,0.01655156531960521,0.9842807818335069
2012-06-08,-1,-0.0017380098164654326,-0.0014534564347535265,-0.012735507467380234,0.01655156531960521,0.9838020308401632
2012-06-12,-1,-0.0009195787669241125,-0.0007987972352865998,-0.009650303424321088,0.01536506929603692,0.9851574262780388
2012-06-14,-1,-0.0010852097397248898,-0.0009433797412316995,-0.009650303424321088,0.018994574310414677,0.984670988381483
2012-06-18,-1,-0.00033805584649747956,-0.00028818563765889475,-0.010573634365088543,0.014652174119592225,0.9854875150269412
2012-06-20,-1,-0.00045767260642445374,-0.00036721524833418915,-0.010573634365088543,0.014423616604360322,0.9859208809142517
2012-06-22,-1,-0.00013621785853001975,-0.00010354779373020148,-0.01255146601408164,0.008670495677799666,0.985894294701923
2012-06-26,-1,-0.002360377185688679,-0.0019934266234334667,-0.011897871548645874,0.008410020508467146,0.9869609588723568
2012-06-28,-1,-0.00018090733319358894,-0.00016214905105057,-0.011897871548645874,0.014423616604360322,0.9828817480750125
2012-07-02,1,0.00018562779212158103,0.00025771047586403814,-0.011897871548645874,0.008410020508467146,0.9836995119110153
2012-07-05,0,0.0,0.0,-0.010573634365088543,0.006645902554650746,0.9840424893507771
2012-07-09,0,0.0,0.0,-0.010174476931178806,0.014423616604360322,0.9830632166006218
2012-07-11,0,0.0,0.0,-0.010174476931178806,0.019498820420420795,0.9819549822525818
2012-07-13,1,0.00038969735485602834,0.0005516077317722193,-0.009980555211684242,0.014423616604360322,0.9840254824513966
2012-07-17,1,0.0006261184491441299,0.0008317299628474847,-0.009807756705224425,0.007903239041019701,0.9849605568390191
2012-07-19,1,0.0008870867093107706,0.0011044927450704688,-0.009807756705224425,0.006090641569796677,0.9855344602804937
2012-07-23,-1,-0.0003473929371796081,-0.0003055718585555096,-0.0062167512537760344,0.007442495348396937,0.9875146965835622
2012-07-25,0,0.0,0.0,-0.0038333036874788106,0.007442495348396937,0.9885439749794955
2012-07-27,0,0.0,0.0,-0.005496457773340803,0.005200760334072033,0.9920160280737631
2012-07-31,0,0.0,0.0,-0.0038333036874788106,0.006070282140453807,0.9915684573064304
2012-08-02,0,0.0,0.0,-0.002369077012775539,0.006070282140453807,0.9923294486841154
2012-08-06,1,0.0019430876114247212,0.002303768045874827,-0.0026146949978049744,0.006070282140453807,0.9938041667770886
2012-08-08,1,0.0029874163569756336,0.003514388370002775,-0.003529987022971085,0.006070282140453807,0.9930449241348228
2012-08-10,0,0.0,0.0,-0.0045149910769912635,0.00656432591624827,0.992868998912431
2012-08-14,0,0.0,0.0,-0.0045149910769912635,0.007002813782033409,0.9923643532499214
2012-08-16,1,0.0034077750584766116,0.004032742450317257,-0.0045149910769912635,0.008430349298400095,0.9912298920219714
2012-08-20,0,0.0,0.0,-0.004524623765537333,0.008430349298400095,0.9904752752144615
2012-08-22,0,0.0,0.0,-0.0063030512006012965,0.008430349298400095,0.9900103473203556
2012-08-24,0,0.0,0.0,-0.005654430549892564,0.007002813782033409,0.9907994878252363
2012-08-28,0,0.0,0.0,-0.005654430549892564,0.007002813782033409,0.9905741041585135
2012-08-30,0,0.0,0.0,-0.005654430549892564,0.008430349298400095,0.9897151847313462
2012-09-04,0,0.0,0.0,-0.004864871829400721,0.008430349298400095,0.9900814629094455
2012-09-06,0,0.0,0.0,-0.004864871829400721,0.008430349298400095,0.9905943992337769
2012-09-10,0,0.0,0.0,-0.0043956217322061114,0.0058945388057857345,0.9913407971787292
2012-09-12,0,0.0,0.0,-0.0063030512006012965,0.00271835375027702,0.9912464252934984
2012-09-14,1,0.0040154557519785795,0.004544964392735195,-0.006587778467460084,0.0009241862729652947,0.9901960639787937
2012-09-18,1,0.00425490340878046,0.004861291299198706,-0.0063030512006012965,0.00271835375027702,0.9900427660819537
2012-09-20,1,0.004009425128966395,0.004577039908452499,-0.0043956217322061114,0.003307994968668835,0.9903090781088589
2012-09-24,1,0.0035632426987579967,0.004036933559875866,-0.00499811014600513,0.005115430164988714,0.9896627099420202
2012-09-26,0,0.0,0.0,-0.00499811014600513,0.005115430164988714,0.9907941590941333
2012-09-28,0,0.0,0.0,-0.00499811014600513,0.005846426902660423,0.9898537707525683
2012-10-02,0,0.0,0.0,-0.00733895792885502,0.010849030439619383,0.9882134034994086
2012-10-04,0,0.0,0.0,-0.00733895792885502,0.007562350609174901,0.9890125562085823
2012-10-08,1,0.0011771913555139878,0.0011834074473069495,-0.010633504705524212,0.007562350609174901,0.9873930624892019
2012-10-10,0,-0.00012264499125225832,8.27220948835521e-05,-0.011378412589506096,0.007562350609174901,0.987764045066557
2012-10-12,-1,-0.00038763563872260855,-0.00017872751015599866,-0.003407091510501529,0.007562350609174901,0.9880518993330939
2012-10-16,1,0.001086551146634377,0.0010982928213151963,-0.011471940015691616,0.007562350609174901,0.9885726124286275
2012-10-18,1,0.0015283780793687162,0.0015798598461523668,-0.011471940015691616,0.007562350609174901,0.9883235791850158
2012-10-22,1,0.0008104863428838368,0.0008738046488126871,-0.003173568162661101,0.006862369439573057,0.9892841818363302
2012-10-24,-1,-0.0012303419251536486,-0.0008379804828398845,-0.0020491803278688526,0.007613528240604253,0.9886312687256694
2012-10-26,1,0.0012275341391427383,0.0012309931435925373,-0.006388004387221254,0.007613528240604253,0.990406572758051
2012-11-01,0,0.0,0.0,-0.006388004387221254,0.007613528240604253,0.9907846943714266
2012-11-05,0,0.0,0.0,-0.00806388420683535,0.007399700841130514,0.9904052094152888
2012-11-07,0,0.0,0.0,-0.006343725352341234,0.00855519588293182,0.9912337858017491
2012-11-09,0,0.0,0.0,-0.006343725352341234,0.009039701278937324,0.9904744076785226
2012-11-13,0,0.0,0.0,-0.006343725352341234,0.009039701278937324,0.9904090394537234
2012-11-15,1,0.0003331001409680974,0.0005076707844298748,-0.006343725352341234,0.009039701278937324,0.9913799949688291
2012-11-19,1,0.0009595543336327563,0.0009712581906332227,-0.006343725352341234,0.009619318302986294,0.9909223100330213
2012-11-21,1,0.0012708805191001132,0.001327855726600387,-0.00806388420683535,0.009852664401628998,0.9903748328360183
2012-11-26,1,0.0014439517926650301,0.0015303118482654838,-0.008114867226887708,0.009304064099678502,0.9906840055204679
2012-11-28,1,0.001213593825360273,0.0012416244763596147,-0.008114867226887708,0.009304064099678502,0.9909223620264981
2012-11-30,1,0.000521132000521544,0.0006075772391209299,-0.0070136249337276885,0.008617389478885245,0.9914298003242535
2012-12-04,1,0.0002856104795886885,0.000392684217015578,-0.006224485885837033,0.009304064099678502,0.9899780605607658
2012-12-06,0,0.0,0.0,-0.007108886988660068,0.009304064099678502,0.9896935104232685
2012-12-10,0,0.0,0.0,-0.007108886988660068,0.007690701453613975,0.989802775922091
2012-12-12,1,0.0008259365856946096,0.0008489698453540114,-0.007108886988660068,0.009992653864171655,0.9897738542190397
2012-12-14,-1,-0.0007429582999200952,-0.00047369161734152896,-0.006493530657683811,0.009992653864171655,0.9897451261952587
2012-12-18,0,-0.0001434498584406208,0.00010541757517929938,-0.00740954466543788,0.007690701453613975,0.9903276496288876
2012-12-20,1,0.001094475319836217,0.0011222658033513133,-0.006493530657683811,0.00812391917099467,0.9905258148991715
2012-12-24,1,0.0005219292076241772,0.00058323642206906,-0.0061628967091810335,0.00812391917099467,0.9908511381949828
2012-12-27,0,0.0,0.0,-0.0061628967091810335,0.00812391917099467,0.9903220837971944
2012-12-31,0,0.0,0.0,-0.006790118687180847,0.00912749268306925,0.9901406971464519
2013-01-03,0,0.0,0.0,-0.007917635615102624,0.00912749268306925,0.9912893315779434
2013-01-07,1,0.0011230697742351699,0.0012026685310079725,-0.007917635615102624,0.00912749268306925,0.9905841967353208
2013-01-09,1,0.0007564899916963604,0.0007681220188333074,-0.007370794229337026,0.00912749268306925,0.9910588048814809
2013-01-11,1,0.001151679162208651,0.0012384404843568417,-0.007370794229337026,0.007979784264487541,0.991408539818091
2013-01-15,1,0.0008787979825588796,0.0009171282751198415,-0.007370794229337026,0.00912749268306925,0.9909018675799875
2013-01-17,1,0.0011567700116535758,0.001226622985996219,-0.004734672529447245,0.00912749268306925,0.9913071842309683
2013-01-22,1,0.0015005369638149862,0.0016302904491069877,-0.007370794229337026,0.007852897090675276,0.9911494549635481
2013-01-24,1,0.0011909891434905078,0.001253660427563025,-0.007917635615102624,0.009265400507796243,0.9904857458208443
2013-01-28,1,0.0009065732101536789,0.000927001164020785,-0.007917635615102624,0.009265400507796243,0.989743870599962
2013-01-30,1,0.0008215489995667108,0.0008309989357724017,-0.007423779538799694,0.010712423044798542,0.9891663391043777
2013-02-01,1,0.0012884050860551815,0.0013814608004492513,-0.0074081120710174295,0.010484648634965647,0.9893548862464037
2013-02-05,1,0.0008329981393727885,0.0008349582947652623,-0.004734672529447245,0.010484648634965647,0.9901999736272262
2013-02-07,1,0.0008198990713412617,0.0008389862575013353,-0.000977709548379411,0.012462970351673968,0.9897893608122406
2013-02-11,1,0.0013583889781536658,0.001512796326458556,-0.003937147891794416,0.012462970351673968,0.9900739840195223
2013-02-13,1,0.0014284751928005809,0.0015557698910703898,-0.003937147891794416,0.015584496960068259,0.9893962670483073
2013-02-15,1,0.0013038276659269776,0.0013994856821431367,-0.00261847832947427,0.012486239569342342,0.9900288116916388
2013-02-20,1,0.0009274736286580791,0.0009684782012178285,-0.0022885758186262503,0.013009906397786902,0.9901014389686241
2013-02-22,1,0.000767788790792145,0.0007756530746387621,-0.0022885758186262503,0.013009906397786902,0.9901541289521086
2013-02-26,1,0.0003002963882020411,0.0003593084064242789,-0.0022254580693983287,0.013009906397786902,0.9913136893372073
2013-02-28,1,0.0007650577767199972,0.0007808403112569118,-0.0025071136955488902,0.01177856404484829,0.9919477687065972
2013-03-04,1,0.0011506463972039626,0.0012236072531893428,-0.0025071136955488902,0.009235706065914444,0.9920839008313554
2013-03-06,1,0.0012498819172882183,0.0013200834918845265,-0.0030263694540806738,0.007817046198407151,0.9919185851686679
2013-03-08,1,0.0014854877545877822,0.001551906586640115,-0.004817601639504683,0.007817046198407151,0.9919258680900335
2013-03-12,1,0.0010000228164826735,0.0010223496963934304,-0.003827894106960623,0.009133002412372986,0.990885270955127
2013-03-14,1,0.002163834439731371,0.0023440245357310564,-0.0072431308726311604,0.007817046198407151,0.9915714825299151
2013-03-18,1,0.0019963229263674723,0.00216193689187954,-0.007650753352047821,0.008879355898673443,0.989314341229397
2013-03-20,1,0.0019554985884769845,0.002086215142179445,-0.012082911212704151,0.007817046198407151,0.9874375339516317
2013-03-22,1,0.0012861631003387225,0.0012866377506444975,-0.009161421132629978,0.008879355898673443,0.9865530668611845
2013-03-26,1,0.00184572813329107,0.001956451924252384,-0.011303898842166153,0.01113047671802839,0.9854333470456472
2013-03-28,0,0.0,0.0,-0.011303898842166153,0.013124036542110522,0.9847965832721931
2013-04-02,0,0.0,0.0,-0.00884043543616031,0.013124036542110522,0.9849920856578234
2013-04-04,0,0.0,0.0,-0.00884043543616031,0.013124036542110522,0.9847698980485142
2013-04-08,0,0.0,0.0,-0.00884043543616031,0.016968461534741592,0.9836840039005825
2013-04-10,0,0.0,0.0,-0.00884043543616031,0.012516783424993048,0.9844353187797883
2013-04-12,1,0.002039796647706934,0.0021045165189702156,-0.008429875234772125,0.016968461534741592,0.9844155800387905
2013-04-16,1,0.0010245813691202462,0.0011504880614294447,-0.006073302359430165,0.017632859463052025,0.9853522212041391
2013-04-18,-1,-0.0005790151911585368,-0.00027915079594078435,-0.004951851868937384,0.017632859463052025,0.9862673368590001
2013-04-22,1,0.0008729955291700124,0.0010043593077109336,-0.004951851868937384,0.01581739429802103,0.9878490403724615
2013-04-24,1,0.0007350867562180652,0.0008829962962743727,-0.004951851868937384,0.012133094346086195,0.9887113817449396
2013-04-26,1,0.0007904937091441407,0.0009319123605083797,-0.004789971522121638,0.010922669127814533,0.9894925724579879
2013-04-30,1,0.0016916938545737683,0.0017802062349853267,-0.004934765497292784,0.012133094346086195,0.98842676456715
2013-05-02,1,0.001320517858010995,0.001426005953034549,-0.004934765497292784,0.016887344351319562,0.9873763906419982
2013-05-06,1,0.002244972005870675,0.0022775314048840553,-0.0053592344073796015,0.014466005402174615,0.988158718435801
2013-05-08,1,0.0021092818750992146,0.002144889278655517,-0.00588634882074281,0.015510236127092068,0.986609864485122
2013-05-10,1,0.0026164302843815694,0.0026375824277082393,-0.0054007077802955715,0.015510236127092068,0.9867034449918958
2013-05-14,0,0.0,0.0,-0.007800780576248884,0.014466005402174615,0.9872918963569689
2013-05-16,0,0.0,0.0,-0.007800780576248884,0.015510236127092068,0.9865545761757314
2013-05-20,0,0.0,0.0,-0.007800780576248884,0.01468910045383306,0.9864051001034173
2013-05-22,0,0.0,0.0,-0.014483729050898998,0.01468910045383306,0.9843870414843944
2013-05-24,-1,-0.00019417919587876042,-3.103996438901755e-05,-0.018215515325905367,0.01468910045383306,0.9837290956980136
2013-05-29,1,0.002652708221749471,0.0028385983194863223,-0.018215515325905367,0.01468910045383306,0.983528279340401
2013-05-31,1,0.0022369119018697875,0.0023645958845457805,-0.014483729050898998,0.01468910045383306,0.9847113076461251
2013-06-04,1,0.0020558982240172505,0.0021237031904950913,-0.014483729050898998,0.014169782534610207,0.9853224647859842
2013-06-06,0,0.0,0.0,-0.010840714556835399,0.014357444786455783,0.9857158006867136
2013-06-10,1,0.002009526079708269,0.0020868497788293513,-0.010840714556835399,0.014133027090063211,0.9862878636947697
2013-06-12,1,0.0012214837501678469,0.0012407475488712715,-0.008895395514607836,0.01625691720027199,0.9861893648001933
2013-06-14,1,0.0015403154752222832,0.0015868875272810393,-0.005318300525557165,0.014133027090063211,0.9878328790856679
2013-06-18,1,0.001938128187106878,0.0020403101190570715,-0.008895395514607836,0.014133027090063211,0.9878745308761872
2013-06-20,1,0.00016786451722472701,0.00029052006333539965,-0.00470525959793702,0.014133027090063211,0.9893387983491512
2013-06-24,-1,-0.0005574084911011947,-0.00034463905612289723,-0.00470525959793702,0.014133027090063211,0.9893184828152874
2013-06-26,1,0.00047648110240743036,0.0005654936857492872,-0.005246804564642052,0.013121839372886274,0.9902879075126537
2013-06-28,1,0.0001216395752669312,0.0002662525358931735,-0.005246804564642052,0.012183898174754893,0.9909264599835083
2013-07-02,1,0.0003593187624533945,0.0004848016004273763,-0.005246804564642052,0.013060188656239246,0.9907457362031089
2013-07-05,0,0.0,0.0,-0.004419806299711107,0.013060188656239246,0.9910089771645842
2013-07-09,0,0.0,0.0,-0.005246804564642052,0.012183898174754893,0.9913527529638804
2013-07-11,1,0.002231104164059489,0.002336584805128619,-0.005246804564642052,0.008007140643961807,0.9923044049922438
2013-07-15,0,0.0,0.0,-0.006193385174983006,0.008007140643961807,0.9920073808350147
2013-07-17,0,0.0,0.0,-0.006155970098730447,0.011103171176455083,0.9919225557961272
2013-07-19,0,0.0,0.0,-0.006351802093214969,0.007653035761488292,0.9915420835740701
2013-07-23,1,0.0012294565902990925,0.001269744140493878,-0.006351802093214969,0.007345361676818724,0.9915406002937324
2013-07-25,1,0.0010024799127461353,0.0010271731392373306,-0.00649520645336042,0.007345361676818724,0.9913396344566544
2013-07-29,1,0.001236768758739599,0.0012652198094182598,-0.006991371746555244,0.006052715696939189,0.9914585723148918
2013-07-31,1,0.0016548825045394995,0.0017600480373766761,-0.008286577739512026,0.005750844974285596,0.9901950236202874
2013-08-02,1,0.002228297204323013,0.0023995561865112025,-0.009166138006388422,0.005750844974285596,0.9900052689988855
2013-08-06,1,0.001878405632027998,0.002050913918275533,-0.008286577739512026,0.008612757787342516,0.9904670370354093
2013-08-08,1,0.0016817603868404104,0.0018176987030262244,-0.008286577739512026,0.008612757787342516,0.9905701285156728
2013-08-12,1,0.001490836982496726,0.0016210918974965374,-0.006991371746555244,0.010760581753869005,0.9894888795828576
2013-08-14,1,0.0013041246544212115,0.0013797646482304003,-0.006991371746555244,0.009837559499860302,0.9898392382540441
2013-08-16,1,0.000904816645865348,0.0009051912638831481,-0.006347036566773409,0.010911534246120576,0.989952497890449
2013-08-20,1,0.0007561177759373884,0.000773925076560539,-0.0032752838077349257,0.010911534246120576,0.9903083773513546
2013-08-22,1,0.0008497144403119949,0.0008662379338518126,-0.005876974045731958,0.00893801301413239,0.9905488093112643
2013-08-26,1,4.0533653736705435e-05,0.000173859513282176,-0.005876974045731958,0.00893801301413239,0.9902109666445935
2013-08-28,-1,-0.0005938462501296278,-0.0003937239821986707,-0.004310334797792997,0.00893801301413239,0.9917585174485785
2013-08-30,-1,-0.00035803789097680705,-0.00022028426379350257,-0.0038288866097144748,0.007142402299417136,0.9926439195182476
2013-09-04,1,8.197925308633041e-05,0.00017487107990417963,-0.0038288866097144748,0.007142402299417136,0.9928508192730975
2013-09-06,-1,-0.0002758577086847124,-0.00011860604969727879,-0.004310334797792997,0.00925855040325437,0.9920962985683269
2013-09-10,-1,-0.0005210516626744545,-0.00026298475037127647,-0.00632748626372904,0.005225228328171122,0.9923118483045931
2013-09-12,0,-5.652036574557511e-05,8.503632345090986e-05,-0.005937972836271031,0.0072550588281232835,0.9907642536273826
2013-09-16,1,0.00021877537938695885,0.0003346513062183835,-0.005937972836271031,0.0072550588281232835,0.9913008471178262
2013-09-18,1,0.0005255123029336337,0.0005888723323110044,-0.00718348271417865,0.00771951600655922,0.9900397446389043
2013-09-20,0,-1.282500523454484e-05,0.00011402200121316192,-0.0045011713974847396,0.012689461834898044,0.9893909673137932
2013-09-24,-1,-0.0003619917518138104,-0.00017963029185680604,-0.004498657022334982,0.012689461834898044,0.9893331290228089
2013-09-26,1,0.00023642002577805253,0.00030140635121705874,-0.006562055382387706,0.012689461834898044,0.9887906445818054
2013-09-30,1,4.3110711915744576e-05,0.00013467633889830197,-0.006575692344383786,0.012689461834898044,0.9887325070809201
2013-10-02,1,0.00047076246144456187,0.0004973376083286157,-0.006575692344383786,0.014195958249516737,0.9884824096679399
2013-10-04,1,0.000889849662143031,0.0009499156721627362,-0.006575692344383786,0.011154087410101746,0.9892385683106019
2013-10-08,-1,-0.0005112860862771188,-0.000382098988504768,-0.0003978660610684065,0.011154087410101746,0.9903432669884872
2013-10-10,1,0.0010122538348708247,0.0010913169886763356,-0.0034924698974849377,0.009505806984872588,0.9914078426679134
2013-10-14,1,0.0008570912474261531,0.0008777861893391423,-0.0034924698974849377,0.010483091040231172,0.9903095853349556
2013-10-16,1,0.0013598704072150228,0.00145305906525395,-0.0034924698974849377,0.010096633076013021,0.9912962832603497
2013-10-18,1,0.002266768354100142,0.002494215581255529,-0.0034924698974849377,0.008321150122433084,0.992540399068276
2013-10-22,1,0.0019293746078665273,0.002078292230232817,-0.0021845357603296435,0.008321150122433084,0.9928091799563439
2013-10-24,1,0.0019932124538533033,0.002162998730412581,-0.0008777944717918655,0.009505763023408925,0.9931790141945808
2013-10-28,1,0.0015357511456438276,0.0016257631142097767,-0.0005422286966138028,0.009505763023408925,0.9931269771602866
2013-10-30,1,0.0019401747190140313,0.002103756180890847,-0.0005422286966138028,0.007901952022232952,0.993735384230657
2013-11-01,1,0.0015071986891724727,0.0015471811763070708,-0.0005422286966138028,0.007901952022232952,0.9936414535762099
2013-11-05,1,0.0016075131873409779,0.001693026482948471,-0.0010792154283943678,0.007901952022232952,0.9930446809432433
2013-11-07,1,0.0012733197494190478,0.0013443148265644246,-0.0010792154283943678,0.008125573517392813,0.9926795852903437
2013-11-11,1,0.0014140351581922361,0.0014178695681114988,-0.0022094147148203048,0.0074087509058323705,0.9936751434491681
2013-11-13,1,0.0012176952576521151,0.001266687601362943,-0.0022094147148203048,0.003774361689180295,0.9939157955792439
2013-11-15,1,0.0016936102014125127,0.0017511647225518148,-0.0022094147148203048,0.003774361689180295,0.9932740015718973
2013-11-19,1,0.0014914083305753911,0.0015239164356096115,-0.002898239000748559,0.0074087509058323705,0.9919413724512125
2013-11-21,1,0.0018826375029445475,0.0019690889764243675,-0.00471215237156597,0.0074087509058323705,0.9915745736887704
2013-11-25,1,0.001987832375472105,0.002098841014177849,-0.00471215237156597,0.0077692577912704544,0.9913151802137503
2013-11-27,1,0.002284670163420684,0.00246588525773568,-0.00471215237156597,0.008366971606923174,0.9911317337691559
2013-12-02,1,0.0022004115802220087,0.0023823798323708476,-0.00471215237156597,0.009380807604410554,0.9907504413208128
2013-12-04,1,0.0018057880205260158,0.0019207489138457125,-0.00471215237156597,0.009380807604410554,0.9909071606338461
2013-12-06,1,0.0021144354291447137,0.0022626523611888228,-0.0032671828076031176,0.008591898592113501,0.9919128859194459
2013-12-10,1,0.001909736494202797,0.0020290963633723767,-0.0027433985193270013,0.009247479463183859,0.991875091225104
2013-12-12,1,0.001321758538838535,0.001357774428390534,-0.0032671828076031176,0.009247479463183859,0.9917007052003154
2013-12-16,1,0.0020621502299921052,0.00220997862225643,-0.0032671828076031176,0.008838657700780336,0.9922279297817919
2013-12-18,1,0.00252228119462065,0.0027231997209792302,-0.0032778357944844437,0.008591898592113501,0.9931275593210346
2013-12-20,1,0.0024744028443653616,0.0026856977828327937,-0.0027433985193270013,0.00831381626949465,0.9936619748535388
2013-12-24,1,0.0029718492957345063,0.0032802421678122004,-0.004452103273006628,0.007153628016534332,0.9904423591767616
2013-12-27,1,0.002908141233009514,0.003161196936135297,-0.007133131376972323,0.00722860367826444,0.9891767213210797
2013-12-31,1,0.0030835804723853243,0.0033578653842978707,-0.01119390173381923,0.00722860367826444,0.98855671815816
2014-01-03,1,0.0025233400500031204,0.002705865404669056,-0.014785055907211506,0.00722860367826444,0.9868911407508723
2014-01-07,1,0.0024275673118458524,0.0026000299140333527,-0.014785055907211506,0.007369052112074225,0.9864150378906528
2014-01-09,1,0.002242653456496152,0.002375986789515232,-0.014785055907211506,0.010181915090519003,0.9853830529409255
2014-01-13,1,0.0013889906255457705,0.0013947904751267567,-0.014672913449271244,0.012634115320585962,0.9852442617211988
2014-01-15,1,0.0018530610755038853,0.0019251873848922956,-0.014672913449271244,0.012634115320585962,0.985344592975399
2014-01-17,1,0.0011608579144125513,0.001203083280208567,-0.014672913449271244,0.012634115320585962,0.9854175744257601
2014-01-22,1,0.0009933211417178193,0.0010858171172579139,-0.014672913449271244,0.012634115320585962,0.9850300172335689
2014-01-24,-1,-0.0017367959042013067,-0.0013177739766386768,-0.008646021237092792,0.013510229054113573,0.9878477317548405
2014-01-28,-1,-0.0009429108626465998,-0.0006342225711729305,-0.007668071023530501,0.012634115320585962,0.9887717044625133
2014-01-30,-1,-0.0014056304107922892,-0.001031109677016247,-0.007094575346420247,0.012718294982395868,0.9889831238810092
2014-02-03,-1,-0.0026753860715587052,-0.002209113851523838,-0.00498092206373261,0.014984138771244729,0.9891748897272515
2014-02-05,-1,-0.0026371466993179234,-0.0021639676420368904,-0.00498092206373261,0.012718294982395868,0.9897608816745539
2014-02-07,-1,-0.00029217215348491287,-0.00012233979232625648,-0.005740961359109154,0.00985173694720937,0.9908030701627752
2014-02-11,-1,-0.00034292257713538566,-0.00018079160827223333,-0.005740961359109154,0.008556187977019146,0.9917009142643531
2014-02-13,-1,-0.0008282936219870312,-0.0005719748806180241,-0.008353340386787922,0.008556187977019146,0.9909027544375685
2014-02-18,-1,-0.001026036234250232,-0.0007359105813694769,-0.008353340386787922,0.007172229789091569,0.9908999830687131
2014-02-20,-1,-0.001466629178815992,-0.0011277871253882678,-0.007322998467506054,0.010199894632925177,0.9899980187592664
2014-02-24,-1,-0.0013210634716524046,-0.0009837768905521602,-0.008353340386787922,0.007172229789091569,0.9905913537266492
2014-02-26,-1,-0.0016921972703109562,-0.001323980111582114,-0.008573866235138852,0.007172229789091569,0.9905168147098178
2014-02-28,-1,-0.0011190108261022527,-0.0008200322086962747,-0.009335375984622595,0.007172229789091569,0.9900303055403344
2014-03-04,-1,-0.001635823511189726,-0.0012034061016617799,-0.008573866235138852,0.009654162104018914,0.9903495613357197
2014-03-06,-1,-0.0009754063969966845,-0.0006797314137314681,-0.008573866235138852,0.012283127597164437,0.9901199340050948
2014-03-10,-1,-0.0006322609770997561,-0.0003870492261209466,-0.009633375065500847,0.007814121729058009,0.9887205866494948
2014-03-12,-1,-0.0006424152001948964,-0.0004101261413973127,-0.009335375984622595,0.012283127597164437,0.9883449827490641
2014-03-14,-1,-0.0011297750495087588,-0.0008910210787146131,-0.011195329219552273,0.012283127597164437,0.9861573377272367
2014-03-18,-1,-0.000790829608804623,-0.0005851286165516775,-0.011195329219552273,0.014269406764889036,0.9858069152394349
2014-03-20,0,-0.00011516852015557824,2.0241177716355356e-05,-0.011195329219552273,0.014223663498739058,0.9860565840500006
2014-03-24,-1,-0.0010275307434076822,-0.0007669143523243012,-0.011047814077233153,0.014223663498739058,0.9861709915154567
2014-03-26,-1,-0.0013924525346779727,-0.0011115635603027637,-0.008240460435734558,0.014223663498739058,0.9865293715829783
2014-03-28,-1,-0.0011368231584489663,-0.0009000865844084737,-0.008240460435734558,0.012240415430222442,0.9871151398845458
2014-04-01,0,-6.987983881725915e-05,3.241898251328849e-05,-0.008240460435734558,0.014223663498739058,0.9847254372129861
2014-04-03,-1,-0.00042017536004130423,-0.00024113680257857747,-0.008240460435734558,0.012140843631006797,0.9851906020058192
2014-04-07,-1,-0.0015732388301359103,-0.0013226830491231295,-0.003843851110222079,0.012140843631006797,0.9866757049057259
2014-04-09,-1,-0.00028266277987217144,-0.00019090161810319357,-0.003843851110222079,0.009438940127176698,0.9871996539534439
2014-04-11,-1,-0.002378762595922858,-0.0020558641801743304,-0.0017394033138678064,0.011934218400446114,0.989185564144161
2014-04-15,-1,-0.0015766692944075872,-0.0013394413913770792,-0.003843851110222079,0.009438940127176698,0.9896425512769814
2014-04-17,-1,-0.0007526966207613317,-0.000636653463289466,-0.005975964585217568,0.006464036510378472,0.989748316986289
2014-04-22,-1,-0.0005447200535196428,-0.0004560150279817574,-0.008396101021927683,0.006856082943454371,0.9891889993075041
2014-04-24,-1,-0.0007698407365503885,-0.0006681396910137537,-0.008396101021927683,0.007841327272139986,0.9885363961809857
2014-04-28,-1,-0.0013417342967335186,-0.001160695290044624,-0.0034318942487718664,0.007841327272139986,0.9890517333434506
2014-04-30,1,0.000664329034482026,0.0007135252036014729,-0.003434159556096256,0.006856082943454371,0.9922023942149988
2014-05-02,1,0.0009017732650744811,0.0010150770522560626,-0.003434159556096256,0.007841327272139986,0.9919023363010894
2014-05-06,1,0.00039021606444171643,0.00042292021851099285,-0.002151727402365288,0.007841327272139986,0.992194661183778
2014-05-08,1,0.0002284776162160459,0.00024313331768495777,-0.0019345211678542984,0.008601609407769393,0.9914657131438971
2014-05-12,1,0.001020397435202007,0.0011455593032899999,-0.0021873436308075065,0.007017252007724693,0.9922093601192699
2014-05-14,1,0.0005835205137734424,0.0006903213319451009,-0.0021873436308075065,0.007017252007724693,0.9923308962136553
2014-05-16,1,0.00039167375280006994,0.0004689638125160826,-0.0021873436308075065,0.007017252007724693,0.9933367486082832
2014-05-20,1,0.0003410514922416078,0.00042840537953547605,-0.0019345211678542984,0.010383362618013356,0.9932771663936985
2014-05-22,1,0.0010700669468475482,0.0012663117469740622,-0.0021873436308075065,0.010383362618013356,0.9937023982421009
2014-05-27,1,0.0013561758261866736,0.001605120105375513,-0.0023833740509764086,0.010383362618013356,0.993568009647328
2014-05-29,1,0.0016244660140511567,0.0018902146505274191,-0.0023833740509764086,0.007683090074100927,0.9940931637720694
2014-06-02,1,0.00197207803513542,0.0022961040327038125,-0.0023833740509764086,0.006394955135167595,0.9946144143547385
2014-06-04,1,0.002162243541941039,0.002515041743063587,-0.0028494910672761365,0.007232347802003637,0.994077606490009
2014-06-06,1,0.002292190257863979,0.0026266156945093733,-0.0033957316668754814,0.007232347802003637,0.9943409406523229
2014-06-10,1,0.0024848442294293444,0.0028757771460035026,-0.0034370782331819075,0.007232347802003637,0.9941254756781379
2014-06-12,1,0.0017759829042521646,0.0020555469097380133,-0.0033957316668754814,0.007475238430335876,0.994569437722452
2014-06-16,1,0.0020759091432346237,0.0024226793423661338,-0.0033957316668754814,0.007475238430335876,0.9945286893155695
2014-06-18,1,0.0012470347163511613,0.0013405328472952628,-0.0034370782331819075,0.005959816644398263,0.9944429647411555
2014-06-20,1,0.0016586312423241033,0.0018439823346955895,-0.003655938387457639,0.005959816644398263,0.9943906417724276
2014-06-24,1,0.0013277252808277834,0.0014560499172702511,-0.0034370782331819075,0.006325671253912578,0.9943672116814614
2014-06-26,1,0.0004482924736690875,0.0005375442287359449,-0.0034370782331819075,0.006040780187175676,0.9944985142562847
2014-06-30,1,0.0006256819705377218,0.0006815962703827477,-0.004550023397995519,0.006040780187175676,0.9941062691110224
2014-07-02,1,0.0015355231851824826,0.0017107375186649993,-0.005648474417903605,0.006040780187175676,0.9920719934412834
2014-07-07,1,0.0023021463322076526,0.002559867790325393,-0.006559562300448396,0.006040780187175676,0.9916603174604253
2014-07-09,1,0.0014320664826406762,0.0015842677841835264,-0.006559562300448396,0.006040780187175676,0.9915568155496741
2014-07-11,1,0.0015111090111493706,0.001670507018422925,-0.006766380047517481,0.006174830856850457,0.9909491865809614
2014-07-15,1,0.0013361804502464631,0.0014436577916766874,-0.006766380047517481,0.0037372563880342974,0.9912747869928884
2014-07-17,1,0.0009230619673916967,0.0009880005375370539,-0.005648474417903605,0.00730318646822246,0.991673194901782
2014-07-21,1,0.000980386984789854,0.0010726177557962137,-0.005648474417903605,0.00730318646822246,0.9918789809063481
2014-07-23,1,0.0015175579468759486,0.0016718782284117352,-0.005648474417903605,0.00730318646822246,0.9918862321130155
2014-07-25,1,0.0016360374884432489,0.0018224066622459074,-0.005648474417903605,0.00730318646822246,0.9918693965196282
2014-07-29,1,0.001067840857086475,0.0011805172927362745,-0.001583960090323308,0.008015539192634293,0.9914710427061585
2014-07-31,1,0.0006905944251848721,0.000767081759720805,-0.001583960090323308,0.00784993300487031,0.9935270744112645
2014-08-04,1,0.0008739766329093698,0.0009658875612346867,-0.0008676708358282885,0.008015539192634293,0.9935791405334459
2014-08-06,-1,-0.00010786436565260227,-2.757857934809383e-05,-0.001583960090323308,0.008015539192634293,0.9931193713705565
2014-08-08,1,0.0005130354788492801,0.0005224883248583598,-0.0009256165652350943,0.00784993300487031,0.9941822296382976
2014-08-12,1,0.0007148771710013561,0.0007869033462960817,-0.001583960090323308,0.00784993300487031,0.9934258387010437
2014-08-14,1,0.0007276304479150678,0.0007724067229058734,-0.002555015190487559,0.007250277169907418,0.9935329268984328
2014-08-18,1,0.0009268068876979779,0.0009432350119190711,-0.0037939872283753056,0.007250277169907418,0.9932961256735506
2014-08-20,1,0.001107112084354698,0.0011481163159365614,-0.0037939872283753056,0.007890327105655225,0.9927626249844237
2014-08-22,1,0.0011584651263131557,0.0012774547832732084,-0.006446146604630372,0.007890327105655225,0.9919285623519495
2014-08-26,1,0.0017631902121368935,0.0019626221911194825,-0.007153196902218593,0.007306844332421567,0.9919809905262006
2014-08-28,1,0.0006252219359495746,0.0006565694864952635,-0.007591571125932471,0.008085429800919431,0.991165767408312
2014-09-02,1,0.0016288571223222925,0.0017516826302501056,-0.007591571125932471,0.007306844332421567,0.9914643633459593
2014-09-04,-1,-0.0002247481170869329,-4.844128511829115e-05,-0.007591571125932471,0.007306844332421567,0.9912481236735237
2014-09-08,1,0.00010264717638336693,0.0002100102497188797,-0.007591571125932471,0.008085429800919431,0.9907186615139518
2014-09-10,1,0.00021798429091700788,0.0002893029262636559,-0.007591571125932471,0.008561433552714666,0.9898811681923978
2014-09-12,1,5.138752670540771e-05,0.00013851317185560182,-0.015744244409259332,0.008561433552714666,0.9877096567028864
2014-09-16,-1,-0.00024123591252818492,-9.230681501394864e-05,-0.018995556379223642,0.008485229929549386,0.987402433133564
2014-09-18,-1,-0.00021435842235077794,-1.4145504010420877e-05,-0.021497338150425472,0.0028812681572690877,0.9872236898321343
2014-09-22,1,0.00023080746070168053,0.0002923720561620342,-0.021497338150425472,0.009925251761056185,0.9866195705383084
2014-09-24,1,0.0004974054440015864,0.0005160537898052035,-0.021497338150425472,0.009925251761056185,0.9853539625305809
2014-09-26,-1,-0.00028223865527158637,-0.00014582021052146832,-0.021497338150425472,0.011068273512159282,0.9855724598972736
2014-09-30,-1,-0.00035067536427497965,-0.0002159605040915354,-0.021497338150425472,0.013560658565290732,0.9847141281918489
2014-10-02,-1,-0.0011983610943076105,-0.000979707174685292,-0.01704929871494801,0.015226851690262895,0.9844489694159043
2014-10-06,-1,-0.0009189191215852596,-0.0007112549072939075,-0.01704929871494801,0.015226851690262895,0.9844381781555785
2014-10-08,-1,-0.0018590647396117366,-0.001506754546838678,-0.0037690126328071413,0.015226851690262895,0.9849229844838797
2014-10-10,-1,-0.0036300316884352053,-0.0030623917310227252,0.0019153520886314873,0.015226851690262895,0.9857712328242949
2014-10-14,-1,-0.003957676839837762,-0.003382205809254315,0.0024016419597171846,0.015226851690262895,0.9858433422473915
2014-10-16,-1,-0.0039726377260549135,-0.0033729414818198227,0.0019891395531429906,0.015226851690262895,0.9868565901762774
2014-10-20,-1,-0.0027812014343606734,-0.00233600482108432,0.0007776229648897228,0.012932247525605952,0.9895835912147106
2014-10-22,-1,-0.0022729817275364715,-0.00191176236041821,0.0007776229648897228,0.0108374127602671,0.9913576133954043
2014-10-24,-1,-0.0016193818662617616,-0.0013641021524815424,0.0007776229648897228,0.009048487555772589,0.9924483001979109
2014-10-28,-1,-0.00024511113693400277,-0.00017311667130079727,-0.000153424805692151,0.0073817521028908765,0.9939158800236292
2014-10-30,1,0.0006237719054641597,0.0006514624406732467,-0.00094001037490279,0.006311077603764181,0.9955444098240624
2014-11-03,1,0.0007324574675772601,0.0007617698064056172,-0.0020147643491494915,0.006311077603764181,0.9952725956501767
2014-11-05,1,0.0012971045152128707,0.001376082818369291,-0.0020147643491494915,0.006094069622288361,0.9958035577614494
2014-11-07,1,0.0013919520698647215,0.0015354606803250274,-0.0020147643491494915,0.006324204911080378,0.9951930466890134
2014-11-11,1,0.001822709415567786,0.0020113758420329817,-0.003055375785447279,0.006094069622288361,0.9945169856770595
2014-11-13,1,0.0014290382798323436,0.0015740534951316865,-0.003171048620508867,0.006094069622288361,0.9924824081268605
2014-11-17,1,0.0012771697063248936,0.001410291286802708,-0.004450942425983873,0.006094069622288361,0.9917778059864563
2014-11-19,1,0.0015493850991138529,0.0017237302702134243,-0.004450942425983873,0.006324204911080378,0.9888981061311263
2014-11-21,1,0.0019782601267255397,0.0022183667279250157,-0.004450942425983873,0.006094069622288361,0.9890497695832658
2014-11-25,1,0.002197890963397401,0.0024853525251188457,-0.007716594191699802,0.00748082382399527,0.9882445472702158
2014-11-28,1,0.0019060558767188614,0.0021411926161270163,-0.007716594191699802,0.00748082382399527,0.9882775461219262
2014-12-02,1,0.0018344295973844347,0.0020742203652263543,-0.008638457119143444,0.005522366675348621,0.9881188381268058
2014-12-04,1,0.002253815640243284,0.0025465012793557864,-0.010640822628356444,0.003955997187965774,0.9863846482383697
2014-12-08,1,0.00247974763811096,0.0027702677955922673,-0.012926616783370488,0.0023339360691620533,0.9846808205116399
2014-12-10,1,0.001989456047400372,0.002222917982092151,-0.010640822628356444,0.006259140280744865,0.9846175400420947
2014-12-12,1,0.0006726704442905991,0.0007411532742983237,-0.010003177064563353,0.009094758075876048,0.986456920334421
2014-12-16,-1,-8.462855314920774e-05,-5.164948013894871e-05,-0.01126892835490972,0.009094758075876048,0.9860101784176947
2014-12-18,1,0.0018800232728641516,0.0020791928919256793,-0.01126892835490972,0.00482810189029194,0.9882601298858764
2014-12-22,1,0.0019292933526156352,0.0020973090164408655,-0.01126892835490972,0.010705903996113052,0.9866425596261901
2014-12-24,1,0.0019617603557213776,0.0021108108015089207,-0.01126892835490972,0.00958095122481924,0.9869341307527271
2014-12-29,1,0.0014215576953137275,0.0014857156950021347,-0.015118910977287597,0.00958095122481924,0.9855103611549157
2014-12-31,1,0.0006591872120721819,0.000708733774793974,-0.01723885133953893,0.011192850117511663,0.9848488264358786
2015-01-05,-1,-0.0005723397308391116,-0.00037382361520055783,-0.014371673473061283,0.015537536190086944,0.9836624379819504
2015-01-07,-1,-0.0005017884577181929,-0.0003688066418231637,-0.011019849186834282,0.01468699407133682,0.9853433022367556
2015-01-09,-1,-0.00018886820005436817,-0.00010727619090470603,-0.011019849186834282,0.01468699407133682,0.9857738048012354
2015-01-13,-1,-9.673165944038575e-05,-4.198217022937601e-05,-0.00770283449668775,0.01468699407133682,0.986049899280454
2015-01-15,-1,-0.0013228355993276369,-0.0011289491889333587,-0.0017637339210180996,0.01468699407133682,0.9867387734215941
2015-01-20,-1,-0.0001689097109629528,-0.000147333668249993,-0.005061851678171021,0.011939981337138958,0.9873875225228386
2015-01-22,1,0.0009115099826201441,0.0010176443439104063,-0.005061851678171021,0.010277179206112375,0.9893475047695826
2015-01-26,1,0.0013232009098960596,0.0015152359837132322,-0.0062652675537518635,0.010068688868820638,0.989386066339354
2015-01-28,-1,-0.00014664453035947452,-0.0001176672544727626,-0.001393618939652943,0.010068688868820638,0.9908122090569766
2015-01-30,-1,-0.0003517480829817863,-0.0003089003862578113,-0.001393618939652943,0.00956837787911691,0.99167124139881
2015-02-03,1,0.0014144136492749242,0.0015900529886436743,-0.003597982871547494,0.0047478509546082775,0.9940756798226782
2015-02-05,1,0.0012493380361108116,0.0013896807591618453,-0.003970908597817671,0.005485218918961115,0.9937398933492121
2015-02-09,1,0.0014101509364311243,0.0015153347366968649,-0.007384044732562393,0.005485218918961115,0.9927263993854478
2015-02-11,1,0.002360942205917922,0.0026733679406383297,-0.007384044732562393,0.005485218918961115,0.9917238079282158
2015-02-13,1,0.002243963294515758,0.0024968401192800986,-0.00866817901390416,0.005485218918961115,0.9908514276115666
2015-02-18,1,0.0017629895011357839,0.0019555864633887914,-0.0067492026082896575,0.005485218918961115,0.9913177069642923
2015-02-20,1,0.001625307720506053,0.0017798377292450314,-0.00866817901390416,0.006615050578057915,0.9896668885073966
2015-02-24,1,0.0010377570680840192,0.0010636701416279308,-0.00915897567599895,0.006615050578057915,0.9892277339397234
2015-02-26,1,0.000633862580975125,0.000669593435673017,-0.011138056766961377,0.006615050578057915,0.9883160961800945
2015-03-02,1,0.0006459805851042761,0.000688961565858257,-0.009569558319107505,0.006615050578057915,0.9882023356384513
2015-03-04,1,7.236262955520259e-05,0.0001697472397114603,-0.009569558319107505,0.006615050578057915,0.9885914437491378
2015-03-06,-1,-0.001384423764210562,-0.0010306567830877316,-0.008802445750305553,0.004905375747026243,0.9895099077513951
2015-03-10,-1,-0.002522708970877804,-0.0019651536901860293,-0.008802445750305553,0.0038169694534581694,0.9909671306550341
2015-03-12,-1,-0.0017467753193858612,-0.0012986490914545148,-0.009362813645246685,-0.00012222585215328988,0.9910395167409609
2015-03-16,-1,-0.001088595676636665,-0.0007581720392754255,-0.009362813645246685,0.0038169694534581694,0.990427711280984
2015-03-18,-1,-0.0012539705884223788,-0.0009011111737170878,-0.009362813645246685,0.007038334378781419,0.989938180583765
2015-03-20,-1,-0.00052392788304889,-0.00027110322131861835,-0.009362813645246685,0.006432324871079205,0.9903583807748627
2015-03-24,-1,-0.001129507995981323,-0.0008610319468734238,-0.006793199670838256,0.010055208552715689,0.9909985222831372
2015-03-26,-1,-0.00115933144421444,-0.0009309790547908227,-0.006793199670838256,0.010055208552715689,0.9900557975308012
2015-03-30,-1,-0.0007231000639239842,-0.0005760248088975874,-0.006564301786953936,0.006275016019193845,0.9905947590482661
2015-04-01,-1,-0.0006040162554329645,-0.0004936023285989511,-0.008676119993593722,0.006275016019193845,0.9897379144806346
2015-04-06,-1,-0.000756267693852991,-0.0006305984087079477,-0.008676119993593722,0.006275016019193845,0.9897172833504414
2015-04-08,-1,-0.0007154596569685014,-0.000609361167770684,-0.009519163362456352,0.006275016019193845,0.9894981544328649
2015-04-10,-1,-0.0017467398827837005,-0.0015184118924106934,-0.008489978738552076,0.010055208552715689,0.9896070359317273
2015-04-14,-1,-0.001053404300651489,-0.0008968056335693715,-0.008489978738552076,0.005966707814639702,0.9907986210052884
2015-04-16,-1,-0.0002839248372609424,-0.00022789725242676218,-0.008489978738552076,0.008972975087167899,0.9903760818747961
2015-04-20,1,0.0007629621632394951,0.0008525662632376807,-0.007594740989738374,0.007849767623210812,0.9911206244974216
2015-04-22,1,0.00017116451651907061,0.00019599306903832897,-0.007594740989738374,0.005363121773431126,0.9913830115926325
2015-04-24,-1,-0.0007055055338849624,-0.0006234151214404094,-0.005966232477398689,0.005363121773431126,0.9931783581465059
2015-04-28,1,0.0003388878789964192,0.0004020067953179534,-0.005966232477398689,0.005363121773431126,0.9931780520440585
2015-04-30,-1,-0.00011802283599010336,-0.00010150797195108659,-0.005966232477398689,0.005363121773431126,0.9931911823643372
2015-05-04,1,0.0003496431169681016,0.00044954885062831006,-0.005966232477398689,0.007849767623210812,0.9928431235107982
2015-05-06,-1,-0.001410588457365907,-0.0012653177992146378,-0.004341142435220485,0.009036568770596737,0.9923879861313374
2015-05-08,-1,-0.0004139534490725622,-0.0003308961358697557,-0.004341142435220485,0.008221669511193793,0.9930354915717975
2015-05-12,-1,-0.0020396607778637565,-0.0017333620263647583,-0.002701519115575327,0.010167462748825316,0.9917294242728597
2015-05-14,1,7.000684041504775e-05,0.00011716650365925515,-0.0038319885151057915,0.0030838100671833676,0.9930169392754622
2015-05-18,1,0.00025898627858869747,0.00033570944807333354,-0.0038319885151057915,0.0023230668658358175,0.9930877593084834
2015-05-20,1,0.0009354835692527638,0.0010988837645356097,-0.0035193086525342333,0.00560236383900609,0.9927548141385303
2015-05-22,1,0.00016268760451565385,0.0002267689740640039,-0.005350538657117568,0.009141046230110523,0.9917240363837329
2015-05-27,1,0.0002948217277768103,0.0003218777233314601,-0.005350538657117568,0.009141046230110523,0.9916129120800369
2015-05-29,-1,-0.0014141042918944132,-0.0012141480475903461,-0.0038560242415500027,0.009141046230110523,0.9921045768029793
2015-06-02,-1,-0.0010864953511783991,-0.0009287850416573606,-0.005545022693204776,0.008905262501547651,0.9906088085314751
2015-06-04,-1,-0.0011158656418772683,-0.0009610250147295621,-0.004861103875325103,0.008905262501547651,0.9910477177883876
2015-06-08,-1,-0.0009397118167445821,-0.0007896701762738357,-0.007976809486268452,0.00560236383900609,0.9910766321146548
2015-06-10,-1,-0.0008899424515004447,-0.0007126274778607223,-0.0101801592006976,0.00560236383900609,0.991430176943845
2015-06-12,-1,-0.0008365150088382574,-0.0006852579718925482,-0.008128402747058582,0.008898614060718051,0.9909045569695185
2015-06-16,-1,-0.000192996013586983,-0.0001640096600616716,-0.008128402747058582,0.008898614060718051,0.9910845525557217
2015-06-18,1,4.872807004274612e-05,5.2968084361683856e-05,-0.008128402747058582,0.009189194197805395,0.9907314681279498
2015-06-22,-1,-0.00047560870772827613,-0.00037379603401534303,-0.005623171594337304,0.006174011705156503,0.9913857975670944
2015-06-24,-1,-0.0008825054647321555,-0.0007210334488661878,-0.005425618456822515,0.006174011705156503,0.9915489534573828
2015-06-26,1,6.458793686524342e-05,9.388993458541207e-05,-0.007646388863681333,0.006174011705156503,0.9907021419020394
2015-06-30,-1,-0.000661576724476623,-0.0006028646001005997,-0.006700231255844412,0.009328278920155078,0.9913867435373817
2015-07-02,-1,-0.00041257795728480765,-0.000403901023582816,-0.006674298146626828,0.006174011705156503,0.9918542270062647
2015-07-07,-1,-0.00040293790252426715,-0.00039271465728097656,-0.005425618456822515,0.006174011705156503,0.992355283195789
2015-07-09,-1,-0.00040166470293521436,-0.0003810035706214883,-0.005425618456822515,0.004887746573965205,0.9929620339818834
2015-07-13,0,-6.808440316294459e-06,5.024288122043138e-05,-0.0055666188779261855,0.002844487506192071,0.9927824471068624
2015-07-15,1,0.00019412953060536132,0.0002906146235196993,-0.007568589536028582,0.0014725830656957687,0.991585628631465
2015-07-17,1,0.0004427026221349866,0.0005592617487080939,-0.007568589536028582,0.0014725830656957687,0.9916969520448994
2015-07-21,1,0.0004357412235804377,0.0005475190962103606,-0.009466172098647837,0.0025789461452194727,0.9910701146371658
2015-07-23,1,0.00023389593260141314,0.00031345965302174744,-0.012366120119575032,0.0025789461452194727,0.9902670356834686
2015-07-27,-1,-0.0003616130143025334,-0.0003557389586532673,-0.012903726104985271,0.0025789461452194727,0.9876627714595285
2015-07-29,1,0.0001551463450226525,0.00022470327559128558,-0.013525558129324673,-0.0004175214146014425,0.9859427958143836
2015-07-31,-1,-0.0002998024514461428,-0.0002837122619966905,-0.013525558129324673,0.0025789461452194727,0.9849239871238372
2015-08-04,1,2.6794988623718305e-05,0.00010569267805423502,-0.014546523201823062,0.0025789461452194727,0.9828594744651207
2015-08-06,0,-5.543967321642752e-05,9.912768772552097e-06,-0.014546523201823062,0.005561385065622418,0.983237073387161
2015-08-10,1,0.00036997388376772643,0.0004754982418357889,-0.014546523201823062,0.005561385065622418,0.9825810179677102
2015-08-12,1,6.713341013585243e-05,0.00014335139674499504,-0.017033444776385312,0.007013891078060568,0.9827046128557226
2015-08-14,0,-1.6283993689900214e-05,1.7977124274086296e-05,-0.017033444776385312,0.004700475645205423,0.982904907254029
2015-08-18,-1,-0.0004149765590593216,-0.0003869666608142383,-0.017033444776385312,0.006412808306839463,0.9832992990765921
2015-08-20,-1,-0.0007382481283312364,-0.000688304084755428,-0.017530639916412672,0.006412808306839463,0.9833514577327402
2015-08-24,-1,-0.0027041643674954874,-0.002408738509129804,-0.012113019716092379,0.007505853595363572,0.9862688734736584
2015-08-26,-1,-0.0017192800354918585,-0.0016623016633751525,-0.010490469432288652,0.006412808306839463,0.9888920084141236
2015-08-28,-1,-0.0010805597031789123,-0.0009841589735799011,-0.012113019716092379,0.006412808306839463,0.9880642934102026
2015-09-01,-1,-0.001788476801291882,-0.001570408962794063,-0.01003376809527939,0.009071365987664014,0.9874901269695922
2015-09-03,-1,-0.0015008244896920777,-0.0013587653445583385,-0.01003376809527939,0.009071365987664014,0.9872071619633013
2015-09-08,-1,-0.0010219452371975875,-0.0009712730308682543,-0.00948768205149816,0.009071365987664014,0.9869861028364114
2015-09-10,-1,-0.0012316485114902554,-0.0011516735545185866,-0.008091549505218058,0.009071365987664014,0.9876695521277188
2015-09-14,-1,-0.0012668816283744559,-0.0012015736402161419,-0.00948768205149816,0.009071365987664014,0.9872314009796204
2015-09-16,-1,-0.00113524629675789,-0.0010718290097732198,-0.010382866200624556,0.008411133962409332,0.9872144541549225
2015-09-18,-1,-0.0016782194899695483,-0.00154679472023649,-0.008685238675895936,0.011421346254528788,0.986612246125917
2015-09-22,-1,-0.0015063281308859942,-0.001371347998557293,-0.007884709327873534,0.009815126033075676,0.9872348219865209
2015-09-24,-1,-0.001314763092121047,-0.0012142929989189329,-0.007884709327873534,0.013878953547506324,0.9860586675808779
2015-09-28,-1,-0.0031795968349381306,-0.002847908143634613,-0.006863859109663566,0.01875140630008181,0.9873504708353102
2015-09-30,-1,-0.0010818346260977605,-0.0010314893994843226,-0.007884709327873534,0.011439276950600838,0.9876569110600776
2015-10-02,-1,-0.0012992968880143419,-0.0012083500369890173,-0.006863859109663566,0.011439276950600838,0.9881278089337904
2015-10-06,-1,-0.000782564640066298,-0.0007725049870242413,-0.005394812638660108,0.011087857557960035,0.9888365082000162
2015-10-08,-1,-0.00014650415646633543,-4.444010669917822e-05,-0.007061755499889526,0.0115163278579317,0.9880978261209609
2015-10-12,-1,-0.0007630385168514092,-0.0007584706842778878,-0.005394812638660108,0.016388160588315593,0.9872759879414017
2015-10-14,-1,-0.0008696116648253109,-0.0008506603608924238,-0.005394812638660108,0.016388160588315593,0.9877220211455885
2015-10-16,-1,-0.0001928128965820262,-0.00012688297139009348,-0.008135938392035262,0.0115163278579317,0.9881127774883924
2015-10-20,-1,-0.0004172643709193836,-0.0004169742699106576,-0.008135938392035262,0.0115163278579317,0.9880909948732348
2015-10-22,1,6.336603441982466e-05,0.00014811341791443164,-0.008135938392035262,0.0115163278579317,0.988167644153129
2015-10-26,0,-4.170057658639293e-06,6.159060508623894e-05,-0.008468391286282422,0.009036317484333346,0.9886898119640164
2015-10-28,1,0.0005047535695820762,0.0006487155609780297,-0.007943488351092537,0.005953279439521133,0.9902940736592458
2015-10-30,1,0.00076975028765201,0.00099519844986943,-0.007943488351092537,0.005953279439521133,0.9901425090864147
2015-11-03,1,0.0008317300289312885,0.001029020278811708,-0.009502233051401625,0.00542965230472168,0.989646943427895
2015-11-05,1,0.0007901399596746691,0.0009926986047233545,-0.009502233051401625,0.00542965230472168,0.988607865580084
2015-11-09,1,0.0005171547868799741,0.0006927702377807579,-0.011819617660893454,0.003881392305748992,0.9888757603756534
2015-11-11,1,0.0004585894977036508,0.0006382879366932678,-0.014081072346756221,0.003881392305748992,0.9882409302608062
2015-11-13,0,-7.33250971485738e-05,4.608857040966493e-05,-0.014081072346756221,0.003881392305748992,0.9882210811145208
2015-11-17,1,0.00025479678216954566,0.00041375851255289625,-0.014081072346756221,0.00544298006102022,0.9875788266836473
2015-11-19,1,0.00038334102484018426,0.0005306944723507986,-0.015122186636909434,0.003881392305748992,0.9867261141160689
2015-11-23,1,0.0001562832452139769,0.00028082420258561733,-0.015122186636909434,0.010248120225502273,0.9855207663746317
2015-11-25,1,0.0005122203499770084,0.000689968716144986,-0.015122186636909434,0.014241538400505922,0.985074974351453
2015-11-30,1,0.00014618299841288548,0.0002537153829440706,-0.015122186636909434,0.014241538400505922,0.9851541391306093
2015-12-02,1,0.00030687978876853684,0.0004930930805318951,-0.015122186636909434,0.010096365925300723,0.9855353098150588
2015-12-04,1,0.0012280332803175527,0.0015350047237227243,-0.01632200290724575,0.007618014127950504,0.9862985082313844
2015-12-08,1,0.0006324583807801097,0.0009186429232186245,-0.021010902270997042,0.007618014127950504,0.984768993975622
2015-12-10,0,-7.601617764630504e-06,0.00017076552353816532,-0.020929927594513512,0.007879118953200646,0.984753881236425
2015-12-14,-1,-0.0007873944905495089,-0.0007217443098619001,-0.020929927594513512,0.007879118953200646,0.9844489299004621
2015-12-16,-1,-0.00022623184918925567,-9.566128867416311e-05,-0.02262802372352398,0.007322644934473106,0.9830166394785105
2015-12-18,-1,-0.0009497253606018216,-0.0008731207859718293,-0.020929927594513512,0.007322644934473106,0.9846089547430082
2015-12-22,0,-9.83759739733507e-05,7.167530460148509e-05,-0.020929927594513512,0.005650616733580835,0.9843069100203081
2015-12-24,0,-5.012229423939662e-05,0.00013028329983661498,-0.022852011976869733,0.005650616733580835,0.98268942357225
2015-12-29,1,0.0001065027957520546,0.00030581401156090085,-0.025680404274971348,-0.001062428505848756,0.9801489172658313
2015-12-31,1,0.00010221472868838762,0.00032425422263526174,-0.03145316696715721,0.005737651675330882,0.9775748944013104
2016-01-05,-1,-0.0004088527024542824,-0.00026774931498916427,-0.03158787471651236,0.008308723767919463,0.9762916822081639
2016-01-07,-1,-0.0017001409939212948,-0.001678925231516002,-0.031372254559271014,0.008368390181482025,0.9777363108580382
2016-01-11,-1,-0.0017292289018143192,-0.0017044146395116244,-0.031372254559271014,0.008368390181482025,0.9772341334987029
2016-01-13,-1,-0.003123626582616143,-0.0028746994340931426,-0.031372254559271014,0.011462580927728627,0.9767166218505742
2016-01-15,-1,-0.003629951038814045,-0.003222112595558332,-0.031372254559271014,0.016446132205811457,0.9750170539581425
2016-01-20,-1,-0.0030475176570672778,-0.00276806090340339,-0.031372254559271014,0.023120442758726958,0.9736741122136171
2016-01-22,-1,-0.002211668377668169,-0.0020304442951051813,-0.031372254559271014,0.022426116154223116,0.9735370145704889
2016-01-26,-1,-0.0028288589242578465,-0.0025342677258293625,-0.026138358632881067,0.016392714316194077,0.9755875606013249
2016-01-28,-1,-0.004748645999168353,-0.004235860493269135,-0.020956771148362533,0.022960189089874822,0.9761139004241817
2016-02-01,-1,-0.0036614812501126965,-0.0032928083026877173,-0.020956771148362533,0.022960189089874822,0.9759834629330971
2016-02-03,-1,-0.0037647640282965234,-0.003377322918950005,-0.019101561243276385,0.022960189089874822,0.9773986897463603
2016-02-05,-1,-0.004984210874353133,-0.004444085063247805,-0.014563825476095185,0.022960189089874822,0.9782581202325794
2016-02-09,-1,-0.005100131621631617,-0.004564628880011194,-0.008708505732767755,0.022960189089874822,0.979459234010887
2016-02-11,-1,-0.006047735092565426,-0.005372229674733896,-0.007833780321734063,0.024823835240793367,0.9796663648456312
2016-02-16,-1,-0.0037869232955271425,-0.0034043992634405955,-0.008854573422822323,0.019673287810013065,0.9838817535880165
2016-02-18,-1,-0.0035716524010916007,-0.0032056749757802495,-0.008854573422822323,0.019384123415052426,0.9834195262558683
2016-02-22,-1,-0.004298834034794897,-0.0037910111107946768,-0.007882469551752253,0.01584767732417264,0.984486064492842
2016-02-24,-1,-0.0036077898563188467,-0.0032629674065450614,-0.007882469551752253,0.01584767732417264,0.9849213258157661
2016-02-26,-1,-0.00270878961747896,-0.0024616914273766543,-0.008334415678017036,0.014986650179760693,0.9859954624038878
2016-03-01,-1,-0.0017219699125019421,-0.0016167307221159398,-0.007882469551752253,0.014868162236271769,0.9884654116813466
2016-03-03,-1,-0.001086826616563133,-0.0010794089237631415,-0.008334415678017036,0.011587778379593272,0.9882310769857989
2016-03-07,-1,-0.0012906988666341855,-0.0012295031563527372,-0.008924687085450954,0.011587778379593272,0.9878435097385606
2016-03-09,-1,-0.0018383987892816264,-0.001698636134499763,-0.009713962197282145,0.014569647348404857,0.98655430404182
2016-03-11,-1,-0.0001343169948879666,-1.2273945098523133e-05,-0.009713962197282145,0.013885999311816664,0.9879578729355653
2016-03-15,-1,-0.0005295446128636527,-0.0004462928466470703,-0.008396020938414158,0.014868162236271769,0.986520929554169
2016-03-17,1,0.000405645251459736,0.0006192591279421541,-0.008396020938414158,0.013885999311816664,0.9878373379015232
2016-03-21,1,0.0008578845364813682,0.0011491690952338414,-0.008396020938414158,0.013885999311816664,0.9883874625510888
2016-03-23,1,0.0007100644102968514,0.0010026194100134305,-0.007661192374222271,0.014569647348404857,0.9882376957890948
2016-03-28,1,0.0010796921392830935,0.0014187704177867568,-0.008211112126338058,0.013885999311816664,0.98844001254389
2016-03-30,1,0.00165705941673457,0.0020996992341724844,-0.008211112126338058,0.013758122333580902,0.9886474063935485
2016-04-01,1,0.001608733420286371,0.0020479984346734254,-0.011363721453629507,0.013758122333580902,0.987075485282769
2016-04-05,1,0.0010102085446957844,0.001374247281103612,-0.008211112126338058,0.01408698323858365,0.9864353342855952
2016-04-07,1,0.0006984522374194941,0.0010177317316746523,-0.008851767081916206,0.013758122333580902,0.9868932952846576
2016-04-11,1,0.0009566886149558978,0.0012776195607313006,-0.008851767081916206,0.011761528444799206,0.9873825032147432
2016-04-13,1,0.002316468388990847,0.0028291118226513963,-0.008851767081916206,0.008967360229097198,0.9883887728096818
2016-04-15,1,0.002238572530746883,0.0027686510295598177,-0.011915845981360548,0.008967360229097198,0.9883441677178599
2016-04-19,1,0.002374300092570441,0.0029117630493767054,-0.011915845981360548,0.008967360229097198,0.987976268123767
2016-04-21,1,0.002878431640044598,0.0034935190909212007,-0.011915845981360548,0.008967360229097198,0.9871296214121922
2016-04-25,1,0.002889917763295685,0.003502463504316878,-0.011034231308465852,0.008953090535910766,0.9875863711084066
2016-04-27,1,0.003473518822994934,0.004160362220642632,-0.011034231308465852,0.01221311645151001,0.986700246706727
2016-04-29,1,0.0026672137180010188,0.00328487074507857,-0.008557895524284641,0.01409197912304275,0.9884268764462533
2016-05-03,1,0.0023445501372037067,0.0028637980790694835,-0.004640274568511414,0.011598211290714826,0.990263587084673
2016-05-05,1,0.0014696912193249308,0.0018330075422208667,-0.0032760944186712854,0.011598211290714826,0.9906156949048086
2016-05-09,1,0.001280038649984275,0.0015730976002874477,-0.0027909424373032685,0.01388889164846778,0.9899630732444622
2016-05-11,1,0.002077003361309643,0.002513756099632403,-0.004315870375083811,0.011598211290714826,0.9905686361507567
2016-05-13,1,0.001172480086751565,0.0014378382036317435,-0.007171450104299498,0.011598211290714826,0.9903612535359573
2016-05-17,1,0.002088526215643452,0.0025253366819801342,-0.008051296036220214,0.011598211290714826,0.9891806778171844
2016-05-19,1,0.00251602828610373,0.003012888722551789,-0.007171450104299498,0.007759212251047526,0.990362685998394
2016-05-23,1,0.0029622500895907437,0.003533266107842903,-0.007171450104299498,0.008385499808225106,0.9902244220973938
2016-05-25,1,0.0034693846024142824,0.00408366338621288,-0.007171450104299498,0.006116403545931184,0.9905977204561903
2016-05-27,1,0.003190063068097674,0.0037363549401311707,-0.008474404736564743,0.0051291955841993395,0.983511104311082
2016-06-01,1,0.0024564975725774258,0.0028178548781681457,-0.008474404736564743,0.0051291955841993395,0.982090966390136
2016-06-03,1,0.0020360426051415944,0.0023330400276178535,-0.007171450104299498,0.006917062309842432,0.9827166014328327
2016-06-07,1,0.0016995127139723969,0.0018926745680560467,-0.008474404736564743,0.00562654892877817,0.981694679030104
2016-06-09,1,0.001745740320624699,0.0019647432530095744,-0.008055118899136727,0.008913821272364203,0.9806508699593182
2016-06-13,1,0.001579770638882921,0.0017515331047319065,-0.001959651038704137,0.011528869495291787,0.9797883719193977
2016-06-15,1,0.0008750524362535054,0.0009918760904444217,-0.001959651038704137,0.01741990172897795,0.979692497418005
2016-06-17,1,0.0010563584990986538,0.0011578894924188826,0.0013559825392607495,0.01741990172897795,0.9797968993008419
2016-06-21,0,-7.217395506420933e-05,3.773798433906526e-05,-0.0017782182214242095,0.012506123680690416,0.979978698279379
2016-06-23,1,0.001019687844005124,0.0010685231637865404,-0.003053428474446487,0.009242941923930399,0.9811883447976325
2016-06-27,-1,-0.003260148283753154,-0.0027723250179604595,-0.0013154633221072562,0.009242941923930399,0.9869835637144163
2016-06-29,-1,-0.0025049306780417966,-0.0020747333201332984,-0.003053428474446487,0.008724282086868098,0.989083399449047
2016-07-01,-1,-0.0027594140872346604,-0.0022314867858418052,-0.005339919355464798,0.008596934314395536,0.9890749744295158
2016-07-06,-1,-0.004580937981647206,-0.003786987209426621,-0.005339919355464798,0.008724282086868098,0.9884835594271841
2016-07-08,-1,-0.002239058303090421,-0.0018331780530484367,-0.00806041326180636,0.008724282086868098,0.9894981767497437
2016-07-12,-1,-0.0011292916803199778,-0.0008638845486896105,-0.00806041326180636,0.0052400375069470324,0.99133495850926
2016-07-14,-1,-0.0009242090337192552,-0.0006800671220512844,-0.006269537578377507,0.0044655853004226705,0.9922578142549687
2016-07-18,-1,-0.0009037754961375797,-0.0006451998108586523,-0.006269537578377507,0.0034072340895077743,0.9919688476132049
2016-07-20,-1,-0.0005851411973934084,-0.00040096604375360924,-0.006269537578377507,0.004973392536666029,0.9917061449962002
2016-07-22,-1,-0.00021645841470448537,-9.747823970320121e-05,-0.006269537578377507,0.0034072340895077743,0.9921255913631671
2016-07-26,-1,-0.0002382623700951978,-0.00013575689522175226,-0.005627658153929197,0.004973392536666029,0.9921384693425281
2016-07-28,-1,-0.0004808816240387956,-0.00035409879743227593,-0.005537470120570967,0.004973392536666029,0.99261018868109
2016-08-01,-1,-0.0010292751875117824,-0.0008205768502763118,-0.003778939339985774,0.00747782365128674,0.9924815063760031
2016-08-03,-1,-0.000298693898342461,-0.00022785959185933928,-0.002346467919062758,0.00747782365128674,0.993252786511188
2016-08-05,-1,-0.00034170832389004464,-0.00022776286234837652,-0.002346467919062758,0.00747782365128674,0.9938997908134238
2016-08-09,1,6.717113387136633e-05,9.127128934297124e-05,-0.002346467919062758,0.00747782365128674,0.9940132082123327
2016-08-11,1,0.0003731757179233498,0.00038838999297660144,-0.002346467919062758,0.00747782365128674,0.9937977051855751
2016-08-15,1,5.618122363689695e-05,9.545992659194878e-05,-0.002346467919062758,0.00747782365128674,0.9926024085968769
2016-08-17,1,0.0001823850859754821,0.00019479075603993703,-0.0017503410282629613,0.008946017839961752,0.9922183304150236
2016-08-19,1,0.0003742087725060551,0.00040790886086042755,-0.002658909740782113,0.008946017839961752,0.99124783321204
2016-08-23,1,0.0003923540460167404,0.0004194802759270669,-0.004813507202276656,0.01013608235628649,0.9907506982998522
2016-08-25,-1,-0.0001338254524030781,-6.0625502977572484e-05,-0.007369962553401113,0.01013608235628649,0.9902618981993053
2016-08-29,1,1.0922791819590352e-05,8.70335066230424e-05,-0.011927090710548363,0.007962244623980616,0.9899499688795547
2016-08-31,1,0.000662894204758315,0.0006846730615675974,-0.012617351546802378,0.006891191378358093,0.9895861897540634
2016-09-02,1,0.001253883287743363,0.0014290342626145963,-0.012617351546802378,0.008603047708207169,0.9891019528624911
2016-09-07,1,0.0010170766476443312,0.0011429810872550317,-0.012617351546802378,0.011716977224704848,0.9883694877768334
2016-09-09,1,0.0006976489866733764,0.0007870843828229424,-0.013280607753866898,0.011716977224704848,0.9880415649738725
2016-09-13,1,0.0009522730634658362,0.0010950977715786384,-0.013280607753866898,0.008603047708207169,0.9890532964985806
2016-09-15,1,0.0013360470139396458,0.001529722889335414,-0.01440393089890877,0.006891191378358093,0.9890617995288341
2016-09-19,1,0.00138782223089142,0.0016191693716742755,-0.01442786261492425,0.005890969873495415,0.9888879839891375
2016-09-21,1,0.0009083874581479496,0.0010033770458458434,-0.01442786261492425,0.00766173577363131,0.9891343071690325
2016-09-23,1,0.0005719061017174387,0.0006164067659503752,-0.01442786261492425,0.00766173577363131,0.9894402756927234
2016-09-27,-1,-0.0001343532413571333,-5.988918855783922e-05,-0.009212841262444753,0.00766173577363131,0.9900052062754875
2016-09-29,-1,-0.0005164661206114802,-0.0003865206264391187,-0.009212841262444753,0.007787499367275571,0.9872931692567342
2016-10-03,1,0.0007299359009062047,0.0007810561273671509,-0.01442786261492425,0.004288422304074522,0.9874489522885876
2016-10-05,1,0.0010549433045549306,0.0011252391148436978,-0.01442786261492425,0.004059820139987767,0.9874121416696903
2016-10-07,1,0.000673860800568455,0.0007107730489384776,-0.011510598356486526,0.004288422304074522,0.9880861233561441
2016-10-11,1,0.0004744507642434401,0.0005083024945841414,-0.009740013587449019,0.005044754055219222,0.987114648424255
2016-10-13,1,0.0003849839866694025,0.00041767195076427075,-0.008208235045733358,0.008600613583049317,0.979462499416645
2016-10-17,1,0.0003134163659682204,0.0004028687138206972,-0.0076925524992215895,0.009300104683519085,0.9787928548133568
2016-10-19,1,0.0008282990351270207,0.0009885679785192475,-0.0076925524992215895,0.008828397573883756,0.9794344330254207
2016-10-21,1,0.0008223873723613212,0.000996407926914349,-0.0076925524992215895,0.008828397573883756,0.9793333094682442
2016-10-25,1,0.000481795902325876,0.000581281082162734,-0.00581666415674587,0.009259805278121636,0.9792457640229396
2016-10-27,-1,-0.0011248980730830488,-0.001046118064161318,-0.004259551868976722,0.009259805278121636,0.9828519606954287
2016-10-31,-1,-0.0020572552867617264,-0.0018565227402156663,-0.003944684142947136,0.009259805278121636,0.9831440628862791
2016-11-02,-1,-0.002864136906990245,-0.002545756530162327,-0.0036751757170024354,0.012088381806482812,0.9821324187156206
2016-11-04,-1,-0.002807466847095265,-0.0024671498696769586,-0.003918111856960886,0.012463739589992927,0.9818435364604214
2016-11-08,-1,-0.0017251903043432304,-0.0015116285748719603,-0.0036751757170024354,0.011052626527182224,0.9831353582604463
2016-11-10,1,0.003627894128955026,0.004126437365036194,-0.0036751757170024354,0.00984757356605951,0.9912583585754454
2016-11-14,1,0.005336828340324781,0.006112027696216481,-0.003944684142947136,0.007881111591116822,0.9905730337315143
2016-11-16,1,0.002717512659711952,0.002832996918496461,-0.004011421383980345,0.00984757356605951,0.989833439365288
2016-11-18,1,0.002930823701890402,0.003138567163788835,-0.006532543605370483,0.00984757356605951,0.9889425276313993
2016-11-22,1,0.0030090932113665814,0.003236947376864676,-0.007179037571452123,0.010921429488734986,0.9884582357865055
2016-11-25,1,0.0024714720401999507,0.0025692804094968923,-0.011050693327605058,0.010921429488734986,0.9881537827458896
2016-11-29,1,0.002247106036588854,0.002382352753500975,-0.010999475818757036,0.010921429488734986,0.9886369632397742
2016-12-01,1,0.0035702876379794654,0.003949447001111426,-0.010999475818757036,0.009515369091842519,0.9886610484655425
2016-12-05,1,0.0035517545133041443,0.003943311584083326,-0.008637247745110386,0.010213867231007881,0.988348893453554
2016-12-07,1,0.00410106919646604,0.004580130384125843,-0.010807238147363172,0.010213867231007881,0.9873017941009783
2016-12-09,1,0.004354661141132291,0.0048533464972145765,-0.010807238147363172,0.00847182583564365,0.9874031168100865
2016-12-13,1,0.0031561487831175484,0.0035080806335050473,-0.008637247745110386,0.00847182583564365,0.9895049362740936
2016-12-15,1,0.0033758355413003207,0.0037118001416977815,-0.008637247745110386,0.004730905827760561,0.9890286378420977
2016-12-19,1,0.0025049841474533924,0.002701239304200485,-0.005797504401081964,0.00847182583564365,0.9898703023019421
2016-12-21,1,0.0018174519298286675,0.001928587000536317,-0.005090177075902569,0.004730905827760561,0.9908902658879206
2016-12-23,1,0.002342545477598808,0.0024859762426503148,-0.00400287569651585,0.010171573478445679,0.9898878614879788
2016-12-28,1,0.0022402233525741053,0.002407353508768453,-0.005090177075902569,0.010171573478445679,0.9890146279559807
2016-12-30,1,0.0018680405411794238,0.001968970798753279,-0.0048067163275870226,0.009363884308155846,0.9892336410708863
2017-01-04,1,0.0029994233826681864,0.0032396149138810455,-0.0048067163275870226,0.008623034660139637,0.9883428731667506
2017-01-06,1,0.0023403685728993094,0.0025225454480731647,-0.00400287569651585,0.013804347215389057,0.9879937745723537
2017-01-10,1,0.0020232112071491034,0.0021661761807354857,-0.0045905286426453935,0.013804347215389057,0.9877243689885346
2017-01-12,1,0.0019327709993567357,0.002052629669904188,-0.0045905286426453935,0.016855764500031845,0.986966025679171
2017-01-17,1,0.000902024943345433,0.0009101714521923479,-0.0031965922924773026,0.016855764500031845,0.9873256392941586
2017-01-19,1,0.0011432163830475057,0.0011549859005812156,-0.0020100881835360524,0.015451461084100745,0.9879469855874186
2017-01-23,1,0.0012570297509351676,0.001310792205362199,-0.0019046446438794585,0.015451461084100745,0.9874323219212237
2017-01-25,1,0.0026103479477991784,0.0028788218636309594,-0.0019046446438794585,0.014050066373286686,0.9890355404117261
2017-01-27,1,0.0015195339274511606,0.0016396609204704614,-0.001532850214869763,0.014050066373286686,0.9898161518580304
2017-01-31,1,0.001037713878190691,0.0010830681134623822,-0.0008452856151470076,0.015451461084100745,0.9891906087064566
2017-02-02,1,0.002257822174950699,0.002434092173716016,-0.0013697452654807757,0.014050066373286686,0.9904431439134403
2017-02-06,1,0.0035277621536628913,0.0038615330080972853,-0.0016270242948879011,0.011610346149935514,0.9919241735838502
2017-02-08,1,0.004000292732798665,0.004363707756713042,-0.0013697452654807757,0.011610346149935514,0.9928077943163562
2017-02-10,1,0.0034834979276296882,0.0038083606324449703,-0.0016197720766195712,0.010167817547603021,0.9931638615530766
2017-02-14,1,0.004333704926993026,0.004780575086961782,-0.0016197720766195712,0.008599120318522297,0.993328868009734
2017-02-16,1,0.0042038970755064985,0.004601211396949646,-0.0025837054139551717,0.007597082913663959,0.9922650185588593
2017-02-21,1,0.004145809489910177,0.004499059415339677,-0.004796447138640623,0.004521300757332594,0.9903840704635897
2017-02-23,1,0.0037525440914326583,0.004017159382286577,-0.0050470533675627035,0.004521300757332594,0.9905923164861995
2017-02-27,1,0.004297819805586732,0.0046920756578957045,-0.0048619407440336875,0.0036228083048009244,0.9904595262752253
2017-03-01,1,0.005273431739168425,0.005832943007279531,-0.005802390198237752,0.0036228083048009244,0.9892111281369823
2017-03-03,1,0.004371683859916228,0.004760807511464138,-0.0048619407440336875,0.0036228083048009244,0.9903947431965069
2017-03-07,1,0.0035194707969663135,0.0037592508155965087,-0.005189173600696117,0.0036228083048009244,0.9909207684087125
2017-03-09,1,0.0032398222448564787,0.0034167413717275733,-0.0056393800126932235,0.004521300757332594,0.9901880870448513
2017-03-13,1,0.0025494747442456997,0.0025735900962222096,-0.0056393800126932235,0.00443487203158383,0.9903723051104704
2017-03-15,1,0.0027900319698636704,0.002868447899678654,-0.006989927685091737,0.001304486131214542,0.9898491223801694
2017-03-17,1,0.0018839406753806786,0.0019415401994112957,-0.006989927685091737,0.001304486131214542,0.9905902309218326
2017-03-21,1,2.2082024844823772e-05,0.0003520113415430142,-0.0056393800126932235,0.002616378883059168,0.993201470994768
2017-03-23,-1,-0.0016273233623722288,-0.0009895237196924868,-0.006989927685091737,0.004728250353812311,0.9923744503741967
2017-03-27,-1,-0.0030851070766477954,-0.002260329881575015,-0.0074438089692903855,0.012331383700410955,0.9908259697441955
2017-03-29,-1,-0.0033263837067847913,-0.0024282607286308148,-0.0077543673538628816,0.004728250353812311,0.9917948041242038
2017-03-31,-1,-0.0028223380960620526,-0.0019939585625450896,-0.0077543673538628816,0.0035950772764049357,0.9922687166644664
2017-04-04,-1,-0.0024649464506353897,-0.0016843293303630096,-0.0077543673538628816,0.0036239746698097657,0.9921436432761487
2017-04-06,1,0.0008469236447555882,0.0008940251233587166,-0.0077543673538628816,0.003151931134274435,0.991794052582201
2017-04-10,1,0.001455596075867354,0.0015261722745648102,-0.0077543673538628816,0.004501423969658882,0.9915283858811008
2017-04-12,1,0.0007725967212825053,0.0007855041090841456,-0.0077543673538628816,0.004501423969658882,0.9917724329235017
2017-04-17,1,0.0005842173831852621,0.0006362452603126783,-0.0077543673538628816,0.004501423969658882,0.991314493953832
2017-04-19,1,0.00032736617572559894,0.00040470334922332654,-0.0077543673538628816,0.006092661696328416,0.9889806320093096
2017-04-21,1,0.000678907745226047,0.0007108881882684253,-0.007206020375938151,0.007820668864628292,0.9894667473971664
2017-04-25,1,0.000821024972329355,0.0008820240205213672,-0.008208721290082491,0.006092661696328416,0.9899520173208461
2017-04-27,1,0.0005518664336003343,0.0006029529623984,-0.0077264444798588894,0.0068029209297196394,0.9901516866914061
2017-05-01,1,0.0006873033004899002,0.000747052301624793,-0.009588335481236424,0.00585737123859016,0.9900814782389041
2017-05-03,1,0.0007605749865496008,0.0007685078900664749,-0.009588335481236424,0.0071147974914135236,0.9891246443844607
2017-05-05,1,0.001030802102786618,0.0010630414381567741,-0.009588335481236424,0.0071147974914135236,0.9892640825150396
2017-05-09,1,0.00020390638960180618,0.00032882812167417245,-0.009997883428133158,0.008577588499240042,0.9888986535065638
2017-05-11,-1,-0.00048789637912173924,-0.0002889361547585614,-0.009588335481236424,0.009383490448741762,0.9878593612310215
2017-05-15,-1,-0.0008480050239745407,-0.0005590941826592013,-0.006669958864377325,0.008799874875877859,0.9890854665256249
2017-05-17,-1,-0.0022444330241876767,-0.0018083726422183652,-0.004242921894648364,0.009252761470238019,0.9910455858503752
2017-05-19,-1,-0.0018564100280352084,-0.0014439923462301455,-0.004242921894648364,0.009074051419768116,0.991109760815985
2017-05-23,-1,-0.00301413314332585,-0.0024475896191800445,-0.005190865260132043,0.009074051419768116,0.9906874042041361
2017-05-25,-1,-0.003215055519898453,-0.002623944601077577,-0.007201680535592539,0.009074051419768116,0.9907004283960792
2017-05-30,-1,-0.0030217900625097173,-0.0025125740726858713,-0.004395313611584082,0.009074051419768116,0.9906414422724326
2017-06-01,-1,-0.002441378420200562,-0.00200127965962221,-0.004395313611584082,0.009074051419768116,0.9905930463469109
2017-06-05,-1,-0.002992151077789603,-0.002470674607352413,-0.005859590634841309,0.011451298003352324,0.989299165534638
2017-06-07,-1,-0.003063033886901778,-0.0025374193633161493,-0.005859590634841309,0.011451298003352324,0.9891099847559468
2017-06-09,-1,-0.002516736890359252,-0.001990494744856539,-0.005859590634841309,0.012190713279878486,0.9896330298510067
2017-06-13,-1,-0.0021664404574717683,-0.001698174767977315,-0.007402062005180069,0.01366523950132547,0.9889425766670491
2017-06-15,-1,-0.0016325524887525038,-0.0012197766930872442,-0.007402062005180069,0.012190713279878486,0.9893445468770536
2017-06-19,-1,-0.000219468005978228,-3.353294958595638e-05,-0.007402062005180069,0.008637435191665929,0.9902638984921459
2017-06-21,-1,-0.0022213441507008573,-0.0017427271962856203,-0.0038029414990998793,0.01112469276355797,0.9905659968970864
2017-06-23,-1,-0.003440538504956057,-0.0027948231848557007,-0.0030703151781657223,0.01112469276355797,0.9903183767718595
2017-06-27,-1,-0.002330639914729104,-0.0019045773751218513,-0.0015943167841807647,0.01235277453144436,0.9883847731699235
2017-06-29,-1,-0.0006741955659273506,-0.0005237793057649186,-0.0016574543372172216,0.012217075228010714,0.9887483983282059
2017-07-03,-1,-0.00042684896198592594,-0.0002759403896037425,-0.00038969307103253064,0.01112469276355797,0.9896817472188789
2017-07-06,-1,-0.0002794955970576254,-0.00018565977188959816,-0.00038969307103253064,0.01112469276355797,0.9904505806851334
2017-07-10,1,0.0012338194254215892,0.0013835602541643606,-0.0015203279033919228,0.009696708825413502,0.9916505754698586
2017-07-12,1,0.0015108108419582288,0.0017174927250783478,-0.0015203279033919228,0.009541754069387313,0.9922042437804239
2017-07-14,1,0.002058185925501876,0.002361283805888135,-0.003065239067370369,0.009541754069387313,0.9909999877958875
2017-07-18,1,0.0019250970374350665,0.002204298934848288,-0.003065239067370369,0.010406905563652206,0.9905432397102825
2017-07-20,1,0.0025525752670599875,0.0029231683344702764,-0.00421829574539261,0.009541754069387313,0.9888977464570515
2017-07-24,1,0.0032089751816148917,0.003716661739618294,-0.006697842888872435,0.009541754069387313,0.9887192103761032
2017-07-26,1,0.004681419496775786,0.005361019476399375,-0.006697842888872435,0.007802591892751762,0.9898962350906741
2017-07-28,1,0.004427465498095701,0.005055927750136954,-0.00421829574539261,0.005556924282691243,0.9909250199711265
2017-08-01,1,0.004778496961603332,0.005458075750772702,-0.005835420601575326,0.002392157981260814,0.989989395636332
2017-08-03,1,0.004718926141308437,0.005384082140357545,-0.005835420601575326,0.0035250640570212537,0.9899131393665938
2017-08-07,1,0.004972881253822005,0.005683793798819739,-0.007066885216123737,0.0035025156618588996,0.9885942476854461
2017-08-09,1,0.0046200204812724055,0.005248654253246322,-0.009897607417725954,0.0007036818946473116,0.9877493569798499
2017-08-11,1,0.00257929573689337,0.0028444722056490887,-0.007066885216123737,0.005826189891218696,0.989397252119329
2017-08-15,1,0.002722166458812097,0.0029978476932593437,-0.007066885216123737,0.005475789530593799,0.9896453127540975
2017-08-17,1,0.001156084132032346,0.0012139307570459856,-0.003064820607587665,0.008406692711617293,0.9917345370654927
2017-08-21,1,0.0010598586901192561,0.0011351358326661108,-0.0021845682781040446,0.008406692711617293,0.9919407129234257
2017-08-23,1,0.0015326591014746143,0.0017022374489005128,-0.0016542165624890363,0.007376578426851391,0.9924554212105577
2017-08-25,1,0.001383827739823821,0.0015188920884671657,-0.0016542165624890363,0.007376578426851391,0.9923095838927971
2017-08-29,1,0.0011395091154094558,0.0012515242045163352,0.0012432809381778876,0.008651649093830992,0.9912611661622258
2017-08-31,1,0.0012761867054950085,0.0013989024476813113,0.0012432809381778876,0.008137944478396962,0.991562797167916
2017-09-05,1,0.00027812841220397537,0.00031277064970190987,0.0014762948351353298,0.007376578426851391,0.9926577913782606
2017-09-07,-1,-0.0006944720821044535,-0.0005463568420822173,0.0024302746277235624,0.007376578426851391,0.9928388711655122
2017-09-11,1,0.000291007814239887,0.00033860582297094493,0.001783093886061038,0.0063735358983152725,0.9949888740035625
2017-09-13,1,0.0007549839991502873,0.000782581785891688,0.0024302746277235624,0.005750478696958692,0.9953702952227889
2017-09-15,1,0.001612021651268556,0.0017870788483485911,0.002082368321873298,0.00516946788375704,0.9965259738936989
2017-09-19,1,0.001503142378922548,0.001621350482260642,0.001783093886061038,0.004990748090038555,0.9962612627549564
2017-09-21,1,0.001658637632334531,0.0017985245943370227,0.0014762948351353298,0.004990748090038555,0.9962898356980857
2017-09-25,1,0.0018138690634507916,0.0019733767702032673,0.000905367720891325,0.004990748090038555,0.996039195490475
2017-09-27,1,0.002776315724950582,0.003054450446608138,2.1527496770314526e-05,0.004637922833449371,0.9966861597790141
2017-09-29,1,0.0027510857778026035,0.0030218646428876784,-4.8528848023407566e-05,0.004637922833449371,0.9945166549459711
2017-10-03,1,0.0026223047704588562,0.002848409444620001,-0.0020200973376407584,0.004221339723532048,0.9931593443054263
2017-10-05,1,0.002868947037502855,0.003139863616353188,-0.0020200973376407584,0.005046330112963365,0.9922751313098288
2017-10-09,1,0.0018471066208001392,0.0018999086527908178,-0.0029343711219223414,0.005685087462779121,0.9917115676697894
2017-10-11,1,0.0022425937762694734,0.0023797266293990042,-0.006226037029055519,0.005685087462779121,0.9913222648245538
2017-10-13,1,0.0018694839298648513,0.0019052349528271544,-0.007294814479372202,0.005685087462779121,0.9903674929308164
2017-10-17,1,0.0014648265249875112,0.0014961895026138134,-0.0067407922459527736,0.005685087462779121,0.9907117544241518
2017-10-19,1,0.0009569273725868934,0.001077767596415619,-0.0067407922459527736,0.005685087462779121,0.990881763133359
2017-10-23,1,0.001489362370212122,0.0015321002090820115,-0.0067407922459527736,0.006891353745101448,0.9903040111071663
2017-10-25,1,0.0017549191620414002,0.001790713720954077,-0.0067407922459527736,0.005685087462779121,0.9908245767583871
2017-10-27,1,0.0022620234481532894,0.0022688117871446823,-0.005916877439161461,0.004921302267079746,0.9927968610852996
2017-10-31,1,0.0018139676859775036,0.001826197592948514,-0.0028622081054094483,0.006891353745101448,0.9932692131833757
2017-11-02,1,0.002545659728037542,0.0026591712697300388,-0.004876977544459106,0.005240274789862249,0.9935770954461491
2017-11-06,1,0.0025589689730524424,0.002710605044107418,-0.004876977544459106,0.005489623503837067,0.9929169014733975
2017-11-08,1,0.0025746956371210817,0.0027573312775182063,-0.002677207914326542,0.008527073189757447,0.9928654153912151
2017-11-10,1,0.001227359256613412,0.0012843215203851976,-0.0019816154193553026,0.01176368322521431,0.9929094353293777
