JNU-Tangyin/eata/results/Batch4_SP500/Batch4_SP500-ADI.csv
Date,Action,Predicted_Q25,Predicted_Q75,Actual_Q25,Actual_Q75,RL_Reward
2010-12-14,0,0.0,0.006445712430593691,-0.006273860181934456,0.006083103810612324,0.9956059194471756
2010-12-16,1,0.0029674793513963255,0.0033981756930274018,-0.00520075447481908,0.007700176336666269,0.993410642290124
2010-12-20,0,0.0,0.0,-0.006273860181934456,0.00856450527329551,0.9904476256028385
2010-12-22,0,0.0,0.0,-0.00520075447481908,0.007700176336666269,0.9912263719285807
2010-12-27,1,0.002283236012764332,0.0024025516791768816,-0.006273860181934456,0.007700176336666269,0.9905510099692927
2010-12-29,1,0.002203100994871079,0.002302762283097183,-0.00520075447481908,0.007718111615119781,0.9911178523120703
2010-12-31,1,0.001914486928575156,0.0019563865188913544,-0.00520075447481908,0.0077810308094255175,0.9900794921201992
2011-01-04,1,0.0011956016193198958,0.0012845545080076059,-0.004331154334929163,0.010024494169260323,0.9899037658814597
2011-01-06,0,0.0,0.0,-0.00520075447481908,0.014118633404679221,0.9883566720227391
2011-01-10,0,0.0,0.0,-0.00525138377090833,0.014118633404679221,0.9883187631666432
2011-01-12,0,0.0,0.0,-0.00525138377090833,0.014118633404679221,0.9883040710080071
2011-01-14,0,0.0,0.0,-0.004587731669628891,0.014118633404679221,0.9883017010872601
2011-01-19,0,0.0,0.0,-0.003954310719009786,0.01085055819441788,0.9907038690395988
2011-01-21,0,0.0,0.0,-0.003600597381591797,0.01085055819441788,0.9905398958339318
2011-01-25,0,0.0,0.0,-0.00443210542080266,0.00889116438053707,0.9896796170082671
2011-01-27,1,0.0010172949627937809,0.0029295910623037117,-0.00443210542080266,0.01085055819441788,0.9903898857967229
2011-01-31,1,0.0004137654709022349,0.0008056581222151431,-0.00443210542080266,0.00889116438053707,0.9902081291472623
2011-02-02,1,0.00017229058995169304,0.0006800036937972922,-0.00443210542080266,0.01102902199299409,0.9892221784508203
2011-02-04,1,0.0012106320264982377,0.0015117687345798012,-0.006529984925331882,0.00889116438053707,0.988983178105081
2011-02-08,0,0.0,0.0,-0.010493314895028086,0.00889116438053707,0.9875509603210431
2011-02-10,1,0.0016040150460903855,0.0017172071286131393,-0.01594139602768855,0.00889116438053707,0.9868678103779133
2011-02-14,0,0.0,0.0,-0.01594139602768855,0.005302353643750628,0.9874208763768083
2011-02-16,0,0.0,0.0,-0.01865716912546465,0.00669161524476715,0.9851598623382145
2011-02-18,1,0.0010474298964242416,0.0010847674448639067,-0.01865716912546465,0.00902737040983337,0.9846423387734614
2011-02-23,1,8.773724766340032e-05,0.00024279967943437235,-0.015030064884845526,0.011176647822080304,0.9863372944986567
2011-02-25,0,-6.0125847583325856e-05,0.0003337635824102764,-0.015030064884845526,0.011176647822080304,0.9863985379941074
2011-03-01,-1,-0.0008885144538621403,-0.0004307867166017617,-0.009775740864411785,0.012699555203387714,0.986615589100723
2011-03-03,1,0.0016350837898242224,0.0017547819852053801,-0.009775740864411785,0.008648716641768453,0.9882849379194909
2011-03-07,0,0.0,0.0,-0.007923263851151448,0.008648716641768453,0.9890178357746146
2011-03-09,0,0.0,0.0,-0.004347817522807884,0.011176647822080304,0.9895746976803662
2011-03-11,0,0.0,0.0,-0.004347817522807884,0.011176647822080304,0.9902237935206698
2011-03-15,0,0.0,0.0,-0.005906217238415914,0.011176647822080304,0.9893241906251985
2011-03-17,1,0.00363665107807681,0.003767001738284492,-0.004963372647319069,0.008648716641768453,0.9904319137162504
2011-03-21,1,0.003751290673530835,0.0038759604853868595,-0.005906217238415914,0.004686223164916165,0.9888977730458017
2011-03-23,-1,-0.0016289131334568886,-0.0012852353155775819,-0.005906217238415914,0.009734911814773105,0.9887986189616716
2011-03-25,-1,-0.0004528643513024889,-0.0002866010622510581,-0.005906217238415914,0.0044698477924023814,0.9893585431701473
2011-03-29,-1,-0.0005534668525297457,-0.0002668457783401386,-0.005906217238415914,0.009734911814773105,0.9884108524007205
2011-03-31,0,-0.00016023952145279225,2.728785309943384e-05,-0.00597129813870338,0.009734911814773105,0.9882606865024951
2011-04-04,-1,-0.0017991232820827533,-0.0013850261201952309,-0.005317812517618648,0.009734911814773105,0.9888270885979206
2011-04-06,-1,-0.001817640008020779,-0.0013288807029107012,-0.005317812517618648,0.006267535381161881,0.989805946875389
2011-04-08,-1,-0.002338302506849697,-0.0017805239605384736,-0.0048665379336184965,0.007527404335717695,0.9892912385887684
2011-04-12,-1,-0.0043097351185529065,-0.0035067938643271847,-0.002302792468663903,0.009734911814773105,0.9885168339741824
2011-04-14,-1,-0.003503856070057843,-0.0028762462011161496,-0.0024137078809540443,0.013124249909758696,0.9874985236853384
2011-04-18,-1,-0.0039893795870734276,-0.003337610502075517,-0.005317812517618648,0.009851418101365174,0.9890860551663359
2011-04-20,-1,-0.0013741503566417602,-0.0010355041429164556,-0.005726007185436213,0.008734854558440938,0.9893807742510884
2011-04-25,0,0.0,0.0,-0.007078454095910118,0.008734854558440938,0.9881607481291906
2011-04-27,0,0.0,0.0,-0.01206889402863651,0.00490129622953372,0.9885977680726709
2011-04-29,0,0.0,0.0,-0.01206889402863651,0.005895347533520469,0.9881679047261496
2011-05-03,1,0.0015105403899424562,0.0015156163110824766,-0.012619308963010733,0.00799405246406324,0.9860778734181912
2011-05-05,0,0.0,0.0,-0.014348632571060328,0.00799405246406324,0.9856092197337518
2011-05-09,0,0.0,0.0,-0.014348632571060328,0.010703424311383323,0.9855381166110588
2011-05-11,0,0.0,0.0,-0.014701313239471927,0.005785109720008083,0.9856860785602415
2011-05-13,0,0.0,0.0,-0.014309036703688539,0.0006761641566634316,0.9861205393772798
2011-05-17,0,0.0,0.0,-0.0157264883104385,0.005785109720008083,0.9850661598897518
2011-05-19,1,0.0009070627849961938,0.0010507542129663263,-0.0157264883104385,0.0006761641566634316,0.9873399548962358
2011-05-23,0,0.0,0.0,-0.014309036703688539,0.005908117942520727,0.9879598041607174
2011-05-25,1,0.00012048197795727335,0.0001402698634366664,-0.01143085416002992,0.01061771119863162,0.9880631866703109
2011-05-27,1,0.00025581188130059245,0.00026411215352694197,-0.015465613163782475,0.011024876731205842,0.9871975400253293
2011-06-01,0,0.0,0.0,-0.01143085416002992,0.011024876731205842,0.9889763314432443
2011-06-03,0,0.0,0.0,-0.0072417919687181856,0.0122042929972202,0.9878254977039891
2011-06-07,0,0.0,0.0,-0.010913685733162388,0.0122042929972202,0.9876431209637283
2011-06-09,1,0.000464002001382434,0.0005096538426760654,-0.010913685733162388,0.013982831824823586,0.9875724215839702
2011-06-13,-1,-0.0027073596094969584,-0.0023526657158617205,-0.013115373396799032,0.013982831824823586,0.9848335683120782
2011-06-15,0,0.0,0.0,-0.01084294516926062,0.013982831824823586,0.9857285204691401
2011-06-17,-1,-0.0014977423960081007,-0.0013064883063286653,-0.01084294516926062,0.013982831824823586,0.9857435759370737
2011-06-21,0,0.0,0.0,-0.01084294516926062,0.013982831824823586,0.9860393892608208
2011-06-23,0,0.0,0.0,-0.01084294516926062,0.013982831824823586,0.9859259330614535
2011-06-27,0,0.0,0.0,-0.01084294516926062,0.012253564746592097,0.9860614506485923
2011-06-29,0,0.0,0.0,-0.013115373396799032,0.01156836314116946,0.9838702290912371
2011-07-01,-1,-0.0006232242980993935,-0.0005650398895430885,-0.013115373396799032,0.0058620154292974395,0.9853048737816207
2011-07-06,1,0.0009625556510043144,0.0011224013472636379,-0.015089207457333553,0.010571139715537848,0.9833227249514249
2011-07-08,1,0.0015403378353223912,0.0018423630083799574,-0.02017144294871901,0.0030464946392847084,0.9814302234430325
2011-07-12,0,0.0,0.0,-0.012105277903035075,0.010571139715537848,0.9825381845511557
2011-07-14,0,0.0,0.0,-0.012436107539049883,0.011940878603719634,0.9816075893525513
2011-07-18,0,0.0,0.0,-0.012436107539049883,0.015657318115803266,0.9812683623074984
2011-07-20,0,0.0,0.0,-0.019045628966460185,0.01203915207410406,0.9805332555547595
2011-07-22,0,0.0,0.0,-0.023377889227634167,0.010747026320707663,0.9804364464717485
2011-07-26,-1,-0.0011090800671953115,-0.0010478833451042255,-0.023377889227634167,0.013682083561124804,0.9790495653800372
2011-07-28,-1,-0.002307610636837334,-0.002079560288413051,-0.018671856180473206,0.013682083561124804,0.9806646565964104
2011-08-01,-1,-0.00353563476732754,-0.0031722356185309377,-0.018671856180473206,0.018603517794035983,0.9791320121717441
2011-08-03,-1,-0.0036494677409837015,-0.0032198949026976485,-0.013714091362518051,0.018603517794035983,0.9812739439062497
2011-08-05,-1,-0.005551856680837035,-0.004886124120421793,-0.013714091362518051,0.018603517794035983,0.9824527315703215
2011-08-09,-1,-0.005919270238645344,-0.0052060179455487385,-0.01250083271643175,0.018603517794035983,0.9834021943526059
2011-08-11,-1,-0.005039892211868696,-0.004461535553428956,-0.013596480919597326,0.014380122047996933,0.9846362229635464
2011-08-15,-1,-0.004413750828529968,-0.00392101955582444,-0.013596480919597326,0.014919986115258075,0.9838494615295564
2011-08-17,-1,-0.004687792599636602,-0.004223527988284889,-0.01250083271643175,0.019525214430566026,0.9833905437298509
2011-08-19,-1,-0.00496899464074449,-0.004514699175508683,-0.007212444159301557,0.019525214430566026,0.9835841932661861
2011-08-23,-1,-0.002898659863036341,-0.002691592736410728,-0.01250083271643175,0.014919986115258075,0.9859151748695231
2011-08-25,-1,-0.003761201156920103,-0.003368669528552957,-0.012230727231575974,0.019525214430566026,0.984108919227266
2011-08-29,-1,-0.002042838782333316,-0.0018868993651478634,-0.012230727231575974,0.01588590090454243,0.9847845874714888
2011-08-31,-1,-0.0020731145957344566,-0.001908331282431163,-0.01358205513729418,0.01588590090454243,0.9834057880702616
2011-09-02,-1,-0.0033495434479756513,-0.0029905147377999185,-0.01358205513729418,0.01588590090454243,0.9829964902898266
2011-09-07,-1,-0.00218063871871608,-0.0020175133744455365,-0.013316758246539454,0.022817816037068072,0.9813755798590873
2011-09-09,-1,-0.0030543797243030362,-0.0027453444211558682,-0.008058345793589439,0.022817816037068072,0.9806539915192837
2011-09-13,-1,-0.0008901356275715466,-0.0008312102074081577,-0.009684158859552712,0.021767047026643352,0.9812801733747976
2011-09-15,0,-7.530770843742053e-05,0.00010504575162366783,-0.009684158859552712,0.02149874624097924,0.9815668162693133
2011-09-19,1,0.0009357134378627978,0.001293862404005983,-0.015910910111688964,0.02149874624097924,0.9804211200375671
2011-09-21,-1,-0.0003490964558325771,-0.0001604062242144879,-0.012674374104278574,0.023197485396022684,0.9797857184455787
2011-09-23,-1,-0.0007654162029183704,-0.000656928705775773,-0.011602624706275957,0.02373988411085727,0.9801715693074123
2011-09-27,0,-8.038914492794437e-05,0.00015409433177143456,-0.011602624706275957,0.02373988411085727,0.9805979087057892
2011-09-29,-1,-0.0005050845033699219,-0.000329874059098577,-0.006536202366181509,0.02631841620868617,0.9804034710262814
2011-10-03,-1,-0.0014493046966363012,-0.0013925607042358998,-0.004919294623646882,0.02631841620868617,0.9798970979062908
2011-10-05,1,0.0004222684745112769,0.0006813960757979213,-0.011602624706275957,0.02149874624097924,0.9827235631164496
2011-10-07,1,0.0008233048374811691,0.0011127504111858992,-0.011602624706275957,0.02373988411085727,0.9816540342576
2011-10-11,1,0.0023452523294978803,0.0029798120524954052,-0.015222462161593111,0.02373988411085727,0.9825227366084055
2011-10-13,1,0.002575427553381336,0.003188752946188006,-0.020887907719553334,0.02016000394348063,0.9803972624299582
2011-10-17,1,0.001495258967213017,0.0018981140339174422,-0.015222462161593111,0.02631841620868617,0.9797914051749473
2011-10-19,0,0.0,0.0,-0.01339299886631904,0.020306437539813434,0.981158573402579
2011-10-21,0,0.0,0.0,-0.01339299886631904,0.0180672859964466,0.9818692664344965
2011-10-25,0,0.0,0.0,-0.027578519031600038,0.013569845790088303,0.9805917785194358
2011-10-27,0,0.0,0.0,-0.027578519031600038,0.010981476552546868,0.9808258631101371
2011-10-31,1,0.0023757070462049577,0.0028091550511082208,-0.02503118451413125,0.012470764948287435,0.9813445944990115
2011-11-02,1,0.0015091305653156346,0.0017953546312671144,-0.016345863913061427,0.0180672859964466,0.9803396192104955
2011-11-04,1,0.002797350245719278,0.0032375112688318624,-0.016345863913061427,0.01250033996742403,0.98159696686472
2011-11-08,1,0.0024311244863232297,0.002807892423789117,-0.016047632671106562,0.01206909028483012,0.982315648453705
2011-11-10,1,0.0021990339543049523,0.002599600499322904,-0.016047632671106562,0.01084038589678163,0.9836229620760876
2011-11-14,1,0.002553294345418595,0.0030205081226742916,-0.02397517146782286,0.01003277995765675,0.9834615980595374
2011-11-16,1,0.002717299520410484,0.00319389038560178,-0.02397517146782286,0.010201508009835256,0.9831173179048855
2011-11-18,1,0.0018341893263668972,0.0022017025742576413,-0.02133477932370909,0.010201508009835256,0.9840581361214774
2011-11-22,1,0.0012236255180326275,0.001584923795120687,-0.008580210875622087,0.011324559840823298,0.9842171929081575
2011-11-25,1,0.0006256830020707269,0.000895620973047642,-0.005023306855546504,0.014732651399698699,0.9843381593721924
2011-11-29,1,0.0014540047720337601,0.0018378437352416985,-0.00814000980054768,0.011324559840823298,0.9845422620652086
2011-12-01,1,0.0017958774182238128,0.0021016464735738503,-0.00814000980054768,0.008305820907512786,0.9867458835807775
2011-12-05,1,0.0019880126574682976,0.0023007117892655787,-0.00814000980054768,0.007144987631345464,0.9872064055443663
2011-12-07,1,0.0017708980859496774,0.0020413493955807227,-0.008254748119884518,0.007144987631345464,0.9870585883333577
2011-12-09,1,0.0017534324625004367,0.0020432233708177526,-0.006526043856167948,0.007144987631345464,0.9881778325025923
2011-12-13,1,0.001097626085273754,0.0013515743728516215,-0.0025982146303818792,0.008305820907512786,0.9894002592607292
2011-12-15,1,0.001213067179131382,0.001470297465246162,-0.0025982146303818792,0.008343703639935819,0.9888105441651622
2011-12-19,-1,-6.147200044128047e-05,-5.587050406037742e-05,-0.001528926429260767,0.011922438161377884,0.9860094773072076
2011-12-21,1,0.0008979145612440502,0.0009959387034994224,-0.001528926429260767,0.010995208924644308,0.9888359514605286
2011-12-23,1,0.0015267634701141776,0.0017058288713698573,-0.0018055776498141014,0.009354843868760995,0.9899722147310572
2011-12-28,-1,-0.00019831644274941008,-6.475365146292817e-05,-0.0018055776498141014,0.009354843868760995,0.9900019414428299
2011-12-30,0,-0.00012270248100904003,2.5461624849793983e-05,-0.0029776302522425517,0.009354843868760995,0.9900616921628026
2012-01-04,1,0.0003064343739193852,0.00037680189716702347,-0.0029776302522425517,0.009354843868760995,0.990262422163818
2012-01-06,1,0.0002771337934678582,0.00033704742233876914,-0.0030771053210424722,0.010995208924644308,0.9892458470615972
2012-01-10,1,0.0005828001037150442,0.0006287059512868322,-0.0030771053210424722,0.009354843868760995,0.9901006638990694
2012-01-12,1,0.0005093112435646968,0.0006051617025094715,-0.0070574593415532625,0.006431843901121245,0.9897486915002172
2012-01-17,1,0.0012220283015434103,0.0013114373249919402,-0.003088778742249891,0.005564892175619281,0.9911943514493786
2012-01-19,1,0.0021297700174104984,0.0022599358843001334,-0.003088778742249891,0.005334786702694614,0.9935028765676
2012-01-23,1,0.0023629543413689414,0.002589570327762209,-0.002751668450302857,0.005334786702694614,0.9935526538655404
2012-01-25,1,0.0023363808020411972,0.0025395636920291214,-0.0076369034991764445,0.004930086953829101,0.9927663604035348
2012-01-27,1,0.0015650174320753457,0.001622066552440579,-0.0076369034991764445,0.004930086953829101,0.9928266089122596
2012-01-31,1,0.001653230151683225,0.0017483170864571172,-0.009124923633180857,0.005334786702694614,0.9918708636892859
2012-02-02,1,0.001309758591274783,0.0013145310952877914,-0.009955810187941394,0.004930086953829101,0.9913545785249077
2012-02-06,1,0.001783911964075591,0.0019082733549027559,-0.009955810187941394,0.003575628858761266,0.9917751574182706
2012-02-08,1,0.0022391467159542915,0.0024594410231552587,-0.009955810187941394,0.003575628858761266,0.9914248052138591
2012-02-10,1,0.001904902769064779,0.0020904198618843465,-0.009124923633180857,0.003575628858761266,0.9918445745838281
2012-02-14,1,0.0011418822855627422,0.0011550707798919368,-0.009251200907656828,0.005622770284012499,0.9906783443520273
2012-02-16,1,0.0017217555677161516,0.0018150940902746948,-0.009251200907656828,0.004379768018288478,0.9905655056374002
2012-02-21,1,0.0014737068511759192,0.0015567255537549218,-0.009251200907656828,0.008513308757323633,0.9899712375146351
2012-02-23,1,7.825302190873516e-05,0.00022802338911259126,-0.008253521847333491,0.008513308757323633,0.9908427088863316
2012-02-27,-1,-0.000912536964543247,-0.000584225035313195,-0.006814313440087018,0.01071726984831283,0.9907499137249732
2012-02-29,1,0.0004468549324364408,0.0004974253470650713,-0.006431011855271582,0.008513308757323633,0.9916883620183466
2012-03-02,1,0.0001838888595127356,0.0002458583575508247,-0.006074737937259318,0.009797650640454248,0.991791631983436
2012-03-06,1,0.00012743029348496985,0.00019220489969271382,-0.006431011855271582,0.009797650640454248,0.9911991684392512
2012-03-08,1,0.0007825483509699502,0.0008432646555250953,-0.006822185422185392,0.008463301723637675,0.9911431539664571
2012-03-12,1,9.384226146110983e-05,0.00017515106488971222,-0.009534456500020928,0.004375440735652799,0.9904119079117556
2012-03-14,1,0.00026824113136337245,0.00032841164746617456,-0.008473970306939596,0.009017567861318417,0.9902690442501028
2012-03-16,1,0.0008624206899706839,0.0008923901398305413,-0.010310682621365086,0.004132082153836173,0.9900111069996005
2012-03-20,1,0.001289923793007064,0.0014039546829264248,-0.010310682621365086,0.004132082153836173,0.9897465937299283
2012-03-22,1,0.001528386993942882,0.0017185508524375091,-0.011547394934142665,0.004132082153836173,0.9893251666629762
2012-03-26,1,0.0015170573864784,0.0016709319417111132,-0.012302472709799608,0.003550551971912965,0.9888366502592574
2012-03-28,1,0.0009655684493306389,0.0009987783198750944,-0.012302472709799608,0.009017567861318417,0.988411725775162
2012-03-30,1,0.0018483614202934634,0.002079837012783292,-0.012302472709799608,0.00904997593736892,0.9881894801947966
2012-04-03,1,0.0007541177906101218,0.0008273455332282605,-0.010310682621365086,0.00904997593736892,0.9898918685957843
2012-04-05,1,0.00021054004726209604,0.00025947098251383367,-0.013109498657155463,0.00904997593736892,0.9886354479647302
2012-04-10,-1,-0.0006932699367628915,-0.0005501615319543583,-0.007921955688938598,0.00904997593736892,0.9901153957938681
2012-04-12,1,0.0005587212897544323,0.0005777248348014778,-0.010279096033782248,0.0027664867479248838,0.9909913481937273
2012-04-16,-1,-0.0010502459868583485,-0.0008226580428504875,-0.0072556928465462795,0.005651897384101917,0.9919092213035015
2012-04-18,-1,-0.0016142386492152669,-0.0012488652764071821,-0.010279096033782248,0.002501089692022537,0.9922289640192302
2012-04-20,0,0.0,0.0,-0.015080008590384063,0.002501089692022537,0.9909393489602047
2012-04-24,0,0.0,0.0,-0.010935932678191781,0.002501089692022537,0.990834900267366
2012-04-26,-1,-0.0017007272882485808,-0.0013866950758785741,-0.010935932678191781,0.0011936834002888581,0.9918676446310998
2012-04-30,-1,-0.00048772551112544833,-0.00031008951165670625,-0.010935932678191781,0.0024738995176738754,0.9911402609232532
2012-05-02,-1,-0.00067421873072086,-0.0004701922549382281,-0.015312892997596694,0.005304929805153586,0.9900299175958053
2012-05-04,-1,-0.002100498541974635,-0.0017033122909451887,-0.010935932678191781,0.005304929805153586,0.9913044699692359
2012-05-08,-1,-0.002899156878095716,-0.002335108566878856,-0.010935932678191781,0.006806411651642474,0.9890259448384057
2012-05-10,-1,-0.003576178204712001,-0.0029416421520038413,-0.013372600914902848,0.007535275725362842,0.9885472997858392
2012-05-14,-1,-0.0040834427282618975,-0.003351687413358507,-0.015312892997596694,0.010369951860830265,0.9866371245567884
2012-05-16,-1,-0.003885481649850551,-0.003255930126006769,-0.0167323823425473,0.010369951860830265,0.9865938887080656
2012-05-18,-1,-0.00435476851714826,-0.003735404637110938,-0.006901947504899696,0.015333114076819376,0.9858885157963612
2012-05-22,-1,-0.003994798598311154,-0.0033783481695758653,-0.006901947504899696,0.013316962207759582,0.9860975132689297
2012-05-24,-1,-0.0034892802020214655,-0.0029584114753039006,-0.013976766541854745,0.013316962207759582,0.985106233614369
2012-05-29,-1,-0.002347010514380256,-0.0019452772697911521,-0.01754906312411069,0.012010401840048604,0.985577697815796
2012-05-31,-1,-0.0030522737547260875,-0.002581791157153023,-0.015657361470611756,0.012438261657507242,0.9854998976296876
2012-06-04,-1,-0.0028645316717936277,-0.0024476244986238755,-0.013421922483257022,0.013316962207759582,0.9841664024347957
2012-06-06,0,0.0,0.0,-0.013421922483257022,0.01185717293759521,0.9861746395828191
2012-06-08,0,0.0,0.0,-0.01588453094831752,0.01185717293759521,0.9856795510395197
2012-06-12,1,0.0006246173547004401,0.0008332574735840379,-0.012336749170756767,0.011168185089738991,0.9874099433988675
2012-06-14,-1,-0.00016913623835176602,-7.710978260605896e-05,-0.012336749170756767,0.01185717293759521,0.9867795649992727
2012-06-18,1,0.0007713346495465761,0.0010075895963570138,-0.012336749170756767,0.010831080007215685,0.9874397761887087
2012-06-20,1,0.0016843940236991868,0.0019869854891248796,-0.012336749170756767,0.010831080007215685,0.9864379702735174
2012-06-22,1,0.000569483984797852,0.0007467243256785748,-0.013205240563055148,0.010675731179734083,0.986837683471893
2012-06-26,-1,-0.00025179791578113533,-0.00016252285037275904,-0.011851459235423028,0.01115582258260301,0.9862462149286402
2012-06-28,-1,-0.00013349932859702088,-6.156694200175705e-05,-0.009202646412764063,0.012550091584335916,0.9857533522900802
2012-07-02,1,0.0007282886613637738,0.0009400867476333967,-0.008080137764848101,0.010675731179734083,0.9875640388122287
2012-07-05,1,0.0004989965297735547,0.0006838859142591809,-0.008080137764848101,0.010675731179734083,0.9870689339963533
2012-07-09,-1,-0.00032804258710013935,-0.0002764672247991098,-0.007106056025837545,0.012550091584335916,0.9875497956666597
2012-07-11,1,0.00014454328863210592,0.00031234002965534777,-0.007106056025837545,0.012550091584335916,0.9879523771718908
2012-07-13,1,0.00031874299237470206,0.00048354237199236855,-0.004572815770738039,0.010675731179734083,0.9894070587663961
2012-07-17,1,4.328698002973235e-05,0.00013703209913513802,-0.004399529841146494,0.010367789791451563,0.9897763995156503
2012-07-19,1,0.00139012333126587,0.0016324194796976728,-0.004399529841146494,0.0077507798290041814,0.9914193308395729
2012-07-23,1,0.0008730159159513572,0.0010646933822928248,-0.0036296811491974223,0.0077507798290041814,0.9922087498530816
2012-07-25,1,0.0014089583636203143,0.0016428447992351619,-0.004090816645457788,0.0050870908554542585,0.9932411338914628
2012-07-27,1,0.0028427311967516755,0.003234282977897856,-0.004090816645457788,0.004274325257620266,0.9944412025095961
2012-07-31,1,0.0027296269205965566,0.0031244976415027567,-0.0038755889498257043,0.004274325257620266,0.9945931857556803
2012-08-02,1,0.0025794875188164465,0.0029596091912798524,-0.0033478703365950927,0.004253496215994229,0.994814031738189
2012-08-06,1,0.0033018117550904303,0.00379030282767261,-0.0038755889498257043,0.004253496215994229,0.9945837816867826
2012-08-08,1,0.0036756302659231794,0.00423882448442108,-0.0038755889498257043,0.003867036385724784,0.9930751554621716
2012-08-10,1,0.003681570659155092,0.004272055585461562,-0.0052421310156880695,0.0029761204664058185,0.9924488720849748
2012-08-14,1,0.0034847347865590438,0.0040118310380912806,-0.0038755889498257043,0.0037912299632551433,0.9929868553244695
2012-08-16,1,0.00401833950034054,0.004651817258664594,-0.0038755889498257043,0.004068814873447402,0.9917048805433549
2012-08-20,1,0.0033683410012919123,0.003915044713140284,-0.006048648414121412,0.004068814873447402,0.9913370868110956
2012-08-22,1,0.0029039408755013657,0.0033778495078692922,-0.004990819543947752,0.004068814873447402,0.9921777345811583
2012-08-24,1,0.0024317507016470698,0.0027591730027076385,-0.0094145561136815,0.0037575918753911157,0.9915453386437542
2012-08-28,1,0.001990558186392319,0.002260122690622241,-0.009496948017627873,0.0037575918753911157,0.9905658929025007
2012-08-30,0,0.0,0.0,-0.009676522121427528,0.0052161468830522854,0.9896324801021913
2012-09-04,0,0.0,0.0,-0.009611289664333913,0.005036612465924225,0.9899624441812727
2012-09-06,0,0.0,0.0,-0.009611289664333913,0.0037575918753911157,0.9911869562422914
2012-09-10,0,0.0,0.0,-0.010103696958396462,0.0037575918753911157,0.9910768486766343
2012-09-12,1,0.0,0.0019462538563059433,-0.011157522082248624,0.0035779961800297727,0.9902421471308348
2012-09-14,1,0.0026734259532896066,0.00298989567434622,-0.011157522082248624,0.0035389153753877453,0.9902526605771782
2012-09-18,1,0.002305433541603037,0.0026162354343224783,-0.010473556940140098,0.0037472318167607105,0.9902631926726455
2012-09-20,1,0.0023117367615480863,0.00265084906587459,-0.010473556940140098,0.003646108313261582,0.9904201429494617
2012-09-24,1,0.0017649497354052532,0.0020309830265741067,-0.010473556940140098,0.003646108313261582,0.9903897481795387
2012-09-26,1,0.00023589026302161083,0.0002454014608927948,-0.00998205369795318,0.003646108313261582,0.9912617094788477
2012-09-28,1,0.0005137079896288786,0.0005349114376370586,-0.008156204297599556,0.005005532290033008,0.9917665258015707
2012-10-02,1,0.0006850701500859015,0.0007086404731912555,-0.008156204297599556,0.0052252573282868114,0.9907398151684897
2012-10-04,1,0.0006135461236099517,0.0006262668358894257,-0.010099463989144382,0.009736729562728218,0.9890866270953135
2012-10-08,-1,-0.0002345452960243491,-0.00010399826882353613,-0.010554448433406595,0.012261777442184447,0.9880597410155529
2012-10-10,0,0.0,0.0,-0.008156204297599556,0.012261777442184447,0.9885141414410891
2012-10-12,-1,-0.001765136517289358,-0.0014315157178101249,-0.008156204297599556,0.012261777442184447,0.9883272040773207
2012-10-16,-1,-0.000537259551556061,-0.0003505311263643473,-0.010174233070647078,0.007511558277761247,0.9892038852158417
2012-10-18,0,0.0,0.0,-0.010174233070647078,0.010190562745336284,0.9884285592906014
2012-10-22,0,0.0,0.0,-0.009069817258676675,0.010190562745336284,0.9891210880700221
2012-10-24,-1,-0.0026106115601736003,-0.0021143832316145527,-0.008814612976273842,0.013651363598548587,0.9883043335671536
2012-10-26,0,0.0,0.0,-0.008814612976273842,0.008856510775907784,0.9889708628441862
2012-11-01,0,0.0,0.0,-0.008814612976273842,0.007057512085105099,0.9903434847047456
2012-11-05,0,0.0,0.0,-0.0072166932929133305,0.005644705024562503,0.9916874680538923
2012-11-07,0,0.0,0.0,-0.004842441344411454,0.005024959842116259,0.993121227239036
2012-11-09,0,0.0,0.0,-0.004012601963925168,0.005024959842116259,0.99316992936985
2012-11-13,0,0.0,0.0,-0.004531762977760733,0.0057022476272455495,0.9922080268255984
2012-11-15,0,0.0,0.0,-0.004127784693345652,0.0057022476272455495,0.9927185564731802
2012-11-19,0,0.0,0.0,-0.004127784693345652,0.0057022476272455495,0.992934424455563
2012-11-21,0,0.0,0.0,-0.0039792773324362155,0.0057022476272455495,0.9930070307167904
2012-11-26,0,0.0,0.0,-0.0038187482784090643,0.005011052044297462,0.9939382139689362
2012-11-28,0,0.0,0.0,-0.0038187482784090643,0.004865188331351911,0.9941321105502402
2012-11-30,-1,-0.00032725041849208686,-9.54988555699484e-05,-0.0039792773324362155,0.004925821051678086,0.9932774435288104
2012-12-04,0,0.0,0.0,-0.004431789083293875,0.007003468862757718,0.9905658259458885
2012-12-06,0,0.0,0.0,-0.005982616545434952,0.007003468862757718,0.9898337597667651
2012-12-10,-1,-0.0001815177202248513,-7.76809591061865e-06,-0.008205907225563134,0.003877627726313963,0.9901382986383561
2012-12-12,1,0.0010455846628060817,0.001076829732612227,-0.008667119817959456,0.003877627726313963,0.9901809308645468
2012-12-14,-1,-0.00023750752896512114,-7.033993301039463e-05,-0.007752875269722383,0.003877627726313963,0.9908873812650785
2012-12-18,1,0.0009763042320151932,0.00099608398295994,-0.007752875269722383,0.003182535127689107,0.9904406840950531
2012-12-20,1,0.0016146318771868514,0.0017818100854360695,-0.007752875269722383,0.002559012762132255,0.9903688466258855
2012-12-24,1,0.0012240677623576491,0.0013199027851847598,-0.007752875269722383,0.0034517882151136247,0.9906599759639654
2012-12-27,1,0.0009564713680747855,0.0010102101826160864,-0.005959793484724674,0.006068206380317611,0.9905490580578795
2012-12-31,1,0.0013054360396492486,0.001436334560694517,-0.0032566145422452267,0.0047889752866563514,0.9917062468313962
2013-01-03,1,0.001651453737287183,0.0018461167186769665,-0.0032566145422452267,0.0047889752866563514,0.9930583443618686
2013-01-07,1,0.0011412181242627972,0.001281721440759571,-0.0032566145422452267,0.006068206380317611,0.9926465519907084
2013-01-09,1,0.0005666841083793246,0.0006239035031170104,-0.001656976519069158,0.006068206380317611,0.9927859458437431
2013-01-11,1,0.0009141266406669775,0.0010499800207279556,-0.00011829533755694177,0.008366199262086267,0.9921327155249307
2013-01-15,1,0.0005289057039822572,0.0005955078348668749,0.00033969381158489387,0.008366199262086267,0.9920950686664892
2013-01-17,1,0.0009707093001941932,0.001059252747789267,-5.4042231097441485e-05,0.006618381660100507,0.9927244184398714
2013-01-22,1,0.0010277283045261227,0.0011248705848668772,-0.002095950303464697,0.008366199262086267,0.9906893695595556
2013-01-24,1,0.0011300534213652636,0.0012283730205098775,-0.007757227847099967,0.008605894521019638,0.9897728008680722
2013-01-28,1,0.001464470063160895,0.0015945937082008624,-0.008867037866976433,0.008452661840097814,0.989307787571007
2013-01-30,1,0.0014833023146329188,0.001610806866522992,-0.008867037866976433,0.008549671699017478,0.9888320960494563
2013-02-01,1,0.0022624167256966726,0.00254709959620753,-0.007757227847099967,0.00834745832141888,0.9905062116544998
2013-02-05,1,0.00201510393371663,0.0022435950212591916,-0.0045781577383043354,0.00834745832141888,0.9912134673851914
2013-02-07,0,0.0,0.0,-0.0045781577383043354,0.00834745832141888,0.990438357969224
2013-02-11,1,0.004029432124488158,0.004583915017601042,-0.0045781577383043354,0.007846289712016395,0.992363195426765
2013-02-13,1,0.003660233663674633,0.004117742385387974,-0.0045781577383043354,0.007846289712016395,0.9921939962063872
2013-02-15,1,0.0034231709909561025,0.003830645094606285,-0.010325401779906292,0.007846289712016395,0.9907392663185183
2013-02-20,1,0.002690415407968146,0.002961691850891461,-0.00486679649211447,0.007846289712016395,0.9922329939631414
2013-02-22,1,0.001775439432999087,0.0018732386939388581,-0.00486679649211447,0.007699270842085022,0.9919172900197433
2013-02-26,1,0.0015055763148648245,0.0015804111750790247,-0.004092007443246506,0.008003411570544423,0.9915165449400237
2013-02-28,0,0.0,0.0,-0.0014476733151145436,0.008009555090659553,0.9911226948875362
2013-03-04,0,0.0,0.0,-0.006565482309326139,0.008009555090659553,0.9898430737015729
2013-03-06,0,0.0,0.0,-0.010401190756604114,0.007542748788767901,0.9891351025529916
2013-03-08,0,0.0,0.0,-0.009180915867055453,0.008009555090659553,0.9893510324754154
2013-03-12,0,0.0,0.0,-0.009180915867055453,0.008128016746224126,0.9885865621624187
2013-03-14,0,0.0,0.0,-0.009180915867055453,0.008128016746224126,0.9880643047928385
2013-03-18,0,0.0,0.0,-0.006993900550026664,0.010750891681237263,0.9879987426083243
2013-03-20,0,0.0,0.0,-0.013131437368146866,0.008128016746224126,0.9862395448296473
2013-03-22,-1,-0.0011182871634894977,-0.0007110022990877434,-0.008422598431652786,0.007547323366974587,0.9877341540405682
2013-03-26,0,0.0,0.0,-0.008422598431652786,0.007547323366974587,0.9880192256290775
2013-03-28,0,0.0,0.0,-0.008989271050272531,0.005049453044824213,0.988203984450944
2013-04-02,0,0.0,0.0,-0.007451707142738396,0.0077473613721916615,0.9887894196528476
2013-04-04,0,0.0,0.0,-0.005051957207192187,0.0077473613721916615,0.9898887490614386
2013-04-08,0,0.0,0.0,-0.005051957207192187,0.010702896858387741,0.9887056628096206
2013-04-10,0,0.0,0.0,-0.005051957207192187,0.0077473613721916615,0.9895635436618287
2013-04-12,-1,-0.00040377376190724396,-0.00013425080152852512,-0.0012798964358414567,0.008445579940461002,0.9893784744134603
2013-04-16,0,-0.00014240607072427516,6.0841771748151125e-05,-0.0012798964358414567,0.0077473613721916615,0.9906085852847303
2013-04-18,-1,-0.001956164085166713,-0.0015364672897841356,0.0001360327203502797,0.0077473613721916615,0.9918205384769767
2013-04-22,-1,-0.0016241561710326788,-0.0012531838816077444,-0.0012798964358414567,0.008445579940461002,0.9918132555475864
2013-04-24,-1,-0.0012715490042455677,-0.0009667199718438758,-0.0034099643548750436,0.0077473613721916615,0.9917196698098025
2013-04-26,0,0.0,0.0,-0.002776043083830175,0.0077473613721916615,0.9922354904708853
2013-04-30,0,0.0,0.0,-0.002776043083830175,0.007528558104965619,0.9927462210657391
2013-05-02,-1,-0.001451836847686938,-0.0012326425659401966,-0.0034099643548750436,0.007874631292218333,0.9921627691453213
2013-05-06,1,0.00024114615188002665,0.0003664397984497176,-0.0034099643548750436,0.00660626872676518,0.9936328227839689
2013-05-08,1,0.0007818850820019224,0.0008151242644776612,-0.00470552015907995,0.006574208527339564,0.9930729879004375
2013-05-10,0,0.0,0.0,-0.0058733353947317945,0.004000105721082608,0.9927328505942812
2013-05-14,0,0.0,0.0,-0.006636535595728382,0.004000105721082608,0.9914495324781079
2013-05-16,0,0.0,0.0,-0.006636535595728382,0.004000105721082608,0.9908001557791215
2013-05-20,0,0.0,0.0,-0.006636535595728382,0.008471873665234116,0.9896565612454157
2013-05-22,0,0.0,0.0,-0.008350033695753179,0.008471873665234116,0.98893535692893
2013-05-24,0,0.0,0.0,-0.013976106630701791,0.011624674251801987,0.987371267920585
2013-05-29,0,0.0,0.0,-0.013976106630701791,0.012663133452505245,0.986495607826456
2013-05-31,0,0.0,0.0,-0.013976106630701791,0.011435105932889652,0.9868268813425126
2013-06-04,0,0.0,0.0,-0.013976106630701791,0.011435105932889652,0.9868735556411822
2013-06-06,0,0.0,0.0,-0.008446388808220828,0.011790314013588543,0.9867779178254252
2013-06-10,1,0.00010095794988849034,0.00021824449322981867,-0.010625523880797967,0.011247216957744539,0.9869131671036754
2013-06-12,-1,-0.0008974271852714569,-0.0006892007862818256,-0.004202582581821534,0.011790314013588543,0.9868118801605364
2013-06-14,1,0.00018031433455180168,0.00023135551946701962,-0.0026999682935337724,0.011247216957744539,0.9878540100091441
2013-06-18,1,0.0018413240850147473,0.0019945654985121007,-0.0026999682935337724,0.010937272538373208,0.9900682861865971
2013-06-20,-1,-0.00018196109561464355,-8.315174716167926e-05,-0.002635863763973822,0.010937272538373208,0.9907446287110286
2013-06-24,-1,-0.0005170121394665306,-0.0003902362752339281,-0.0009558763410843036,0.010351637583887666,0.991907115035864
2013-06-26,1,0.0002671366189929854,0.0002681430182593327,-0.0017669260475577685,0.0094236409398867,0.9925827198228107
2013-06-28,1,3.7572057878731334e-05,0.0001071866105744366,-0.0017669260475577685,0.0094236409398867,0.9929638233271576
2013-07-02,1,7.120667444211813e-05,0.00013495100175220885,-0.001701831367722886,0.009437618522619245,0.9924895652272427
2013-07-05,1,0.001521012088393052,0.0017328136860363364,-0.001826378510679829,0.009437618522619245,0.9931463505391238
2013-07-09,1,0.0010919535261070396,0.0012358926878362174,-0.003132160015316842,0.009182849724293906,0.9935250830202843
2013-07-11,1,0.002068802920052697,0.0023255114538053593,-0.0033947380179678507,0.007685222576573841,0.9946688126503112
2013-07-15,1,0.0025755263638280058,0.0029033199019776875,-0.0033947380179678507,0.008492004286984557,0.9943577546304466
2013-07-17,1,0.002019917604233739,0.0022710033579508328,-0.004288882652412865,0.008492004286984557,0.9936501090714018
2013-07-19,1,0.0017056927701788371,0.0018697483853255567,-0.0033947380179678507,0.008944036887808017,0.993042796591297
2013-07-23,1,0.0018567674799359192,0.002051749939236105,-0.004288882652412865,0.008492004286984557,0.9928626679404163
2013-07-25,1,0.001561286553774323,0.0017379648498541092,-0.005551245895721388,0.0067244383653666095,0.9923970625897243
2013-07-29,1,0.0016783325598466107,0.0019105972543411402,-0.005551245895721388,0.0067244383653666095,0.9926077834382503
2013-07-31,1,0.0020694373999117378,0.0023491685434805457,-0.007052809774209356,0.0022890360140615223,0.991849101981728
2013-08-02,1,0.002374379403013299,0.00270597794744577,-0.007052809774209356,0.0022890360140615223,0.9917701525945527
2013-08-06,1,0.00207629228847338,0.0023670433943289108,-0.006788994369725537,0.006365348360083909,0.991580318425969
2013-08-08,1,0.0013867741962333218,0.001530961808560996,-0.006656411163615148,0.006365348360083909,0.991589085445701
2013-08-12,1,0.0017387834826207093,0.0019529029052001946,-0.006656411163615148,0.006365348360083909,0.9913695098917837
2013-08-14,1,0.0011919245155396112,0.0013056969911216581,-0.005415988700855852,0.007077940245773764,0.9915643385383415
2013-08-16,1,0.0011148956364059315,0.0012447629834509012,-0.004709504442183958,0.007023047386344932,0.9927440703790098
2013-08-20,1,0.0010448474008967232,0.0011886812913541095,-0.0036582660814030465,0.007023047386344932,0.9931705249504851
2013-08-22,1,0.0003306541896481943,0.0003367554660590684,-0.0036582660814030465,0.007023047386344932,0.993779118619862
2013-08-26,-1,-0.00026762597763675704,-0.0001603159462156794,-0.004709504442183958,0.007023047386344932,0.9933787145268292
2013-08-28,-1,-0.0008319203172538062,-0.0006647481466619464,-0.0036582660814030465,0.007023047386344932,0.9941983330287603
2013-08-30,-1,-0.00041044399492475654,-0.0003235812084442859,-0.0038506078738127034,0.005970190854956078,0.9940085766792697
2013-09-04,1,4.509550074163106e-05,9.4409408607277e-05,-0.005415988700855852,0.003821974000246672,0.9948527226659281
2013-09-06,-1,-0.0002024179199737655,-0.00012397295638113664,-0.005998367244266702,0.004332142289416319,0.9940807768473685
2013-09-10,-1,-0.0007341676659253322,-0.0005101141537260158,-0.007601623666547794,0.0035053534864241597,0.9937526530722197
2013-09-12,-1,-0.0006785334383153478,-0.00046713499760867895,-0.007601623666547794,0.0035053534864241597,0.9933171841194637
2013-09-16,-1,-0.00023226004187041282,-9.855680022625155e-05,-0.007601623666547794,0.003821974000246672,0.9929672910740793
2013-09-18,-1,-0.0002860725214993131,-0.0001353201267929927,-0.008285928656598874,0.0043817392585113,0.9921025708057728
2013-09-20,-1,-0.00042777280987531686,-0.00027976342789354084,-0.007826382810162387,0.005988580491914176,0.9921305510999113
2013-09-24,-1,-0.0005742311656725948,-0.00041485692125341466,-0.006797390135568614,0.005988580491914176,0.992543633265529
2013-09-26,-1,-0.00017132031423933156,-0.0001096265049634391,-0.008150431448885808,0.006398122348120434,0.9911110914670609
2013-09-30,-1,-0.00035623461952454503,-0.0002798974543852398,-0.006797390135568614,0.007833409782620376,0.9908613669371938
2013-10-02,-1,-0.00026871693315034455,-0.00022388219850085191,-0.007569244671318409,0.01031237825835167,0.9891118786474888
2013-10-04,-1,-0.00032869757115523083,-0.000261804384580217,-0.005057010743961583,0.010248955891742018,0.9893934464886138
2013-10-08,-1,-0.0011480387162588303,-0.000990651636518028,-0.002792725049282458,0.010723538618690463,0.9893096637654643
2013-10-10,-1,-0.0003294805394162348,-0.0002799048118963707,-0.005177813697544361,0.010248955891742018,0.9896997572325751
2013-10-14,-1,-0.00046314410586052805,-0.00035300724829922836,-0.005177813697544361,0.010723538618690463,0.989593906527749
2013-10-16,-1,-0.0005992116578790322,-0.00046553495379008286,-0.003173391346708591,0.010248955891742018,0.989941044972227
2013-10-18,-1,-0.00025339288127182495,-0.0001666509462168234,-0.003173391346708591,0.010248955891742018,0.9901177851278347
2013-10-22,-1,-0.00017849002844119347,-0.0001095108412781989,-0.008565489618501535,0.010248955891742018,0.9891447451036274
2013-10-24,-1,-0.0006070924561957902,-0.0004937340242730946,-0.007594626115719966,0.011198916878191491,0.9897195539209835
2013-10-28,-1,-0.0005477185055757662,-0.00041671288153595883,-0.007594626115719966,0.01018759699639087,0.9906273120689703
2013-10-30,1,0.0005187964637058718,0.0005301356465734143,-0.008228462202154757,0.008288472046017542,0.9911853015486934
2013-11-01,1,0.00022706496964885345,0.0003018496564617485,-0.008228462202154757,0.005564871290744681,0.9915869770159937
2013-11-05,1,0.0005018837585850204,0.0005210515134115763,-0.00847222778533049,0.005564871290744681,0.9907176409311766
2013-11-07,1,0.000622856028763829,0.0006732547450242276,-0.006814941874878375,0.007218972542840303,0.9911961139148521
2013-11-11,1,0.0001839023613964772,0.0002495632481028969,-0.006814941874878375,0.005564871290744681,0.9916209716013581
2013-11-13,1,0.00025131210018954764,0.0003374529220089647,-0.00847222778533049,0.0041085649410052185,0.9914366896661777
2013-11-15,1,0.0007308430286614047,0.0007310402149816866,-0.00847222778533049,0.00548559970694222,0.9910103236602074
2013-11-19,0,-9.114959459626145e-05,9.080353985666098e-06,-0.005605939777271376,0.006380973230548755,0.991370035205588
2013-11-21,1,0.00011556115274170877,0.00018765897529320248,-0.004999526782470842,0.006380973230548755,0.9919495624517107
2013-11-25,1,0.00030966493273095933,0.0003326940297161394,-0.004999526782470842,0.006874582227287904,0.9914742417503747
2013-11-27,-1,-0.00040828670309406143,-0.00030051212710476043,-0.0030346905343408385,0.006874582227287904,0.9928677977941605
2013-12-02,1,0.0001198096423022471,0.00012668012359410094,-0.0021329229586079103,0.006874582227287904,0.9932093598878027
2013-12-04,1,0.0003961828379758872,0.0004517709773084738,-0.0021329229586079103,0.0067265522299121295,0.9933406200213329
2013-12-06,1,0.0006959197909900661,0.0007985129104357801,-0.0030346905343408385,0.006350886894083809,0.9933225674136472
2013-12-10,1,0.0003273732199638379,0.00036020765375644094,-0.0027634742093308085,0.006350886894083809,0.9933333666613429
2013-12-12,1,3.0478263881572526e-05,3.5803008550448567e-05,-0.0011939093382963397,0.006350886894083809,0.9933874373304125
2013-12-16,1,0.00044085479513838056,0.0005115781570088792,-0.0011939093382963397,0.0063512646176047795,0.9930290641776733
2013-12-18,1,0.0008952029781822621,0.001017991359092803,-0.0038662097305300247,0.005511993510987518,0.9933797490739196
2013-12-20,1,0.0011885617262874296,0.0013756113360295081,-0.0038662097305300247,0.0063512646176047795,0.9930209611599642
2013-12-24,1,0.001633517982854264,0.0018942900827187965,-0.006440940767491782,0.005511993510987518,0.9914106713564047
2013-12-27,1,0.0015662509530063955,0.001804592279552552,-0.006440940767491782,0.006069580698638279,0.9912263352555106
2013-12-31,1,0.0015528093935500468,0.0017781699345598367,-0.006440940767491782,0.0063512646176047795,0.9904163149909783
2014-01-03,1,0.0009448385348005082,0.0010977062129830218,-0.009794202280883763,0.006069580698638279,0.9906091309645174
2014-01-07,1,0.0007677720495056722,0.0008810733031096758,-0.009794202280883763,0.0066279254212558755,0.9906352921586833
2014-01-09,1,0.0005653663667056265,0.0006345682511823527,-0.009794202280883763,0.009436287969856759,0.9898589590530344
2014-01-13,1,0.00012259674750672122,0.00012551757982927117,-0.0059184839771262866,0.010528979702453593,0.9897143357032026
2014-01-15,1,0.0004917840518821935,0.0005161313105111663,-0.0059184839771262866,0.010528979702453593,0.9900235469745244
2014-01-17,1,0.00011238539427256282,0.00013752511614787037,-0.0017031496821469975,0.010528979702453593,0.9900799840616472
2014-01-22,1,0.0002334035630900841,0.00027624867053470316,-0.0037091884538786326,0.009436287969856759,0.9906065641995057
2014-01-24,-1,-0.0009678129460983685,-0.000786002811859546,-0.003171529330949352,0.009436287969856759,0.9919751593640839
2014-01-28,-1,-0.0004376732958734869,-0.0003502195032432599,-0.003178899545876365,0.009436287969856759,0.9922382999170309
2014-01-30,-1,-0.0003890809217840983,-0.00029494207309809916,-0.003178899545876365,0.009069990562353435,0.9927463364142759
2014-02-03,-1,-0.0010576744791183233,-0.0009082331825541578,-0.003132344272643706,0.009436287969856759,0.9933001909703382
2014-02-05,-1,-0.000670215198305629,-0.0005686520043335255,-0.003132344272643706,0.009407668281522735,0.9936810299053235
2014-02-07,1,7.677293548087979e-05,8.235989135762617e-05,-0.003132344272643706,0.006489366411310832,0.9947802502062719
2014-02-11,1,0.0005145676276035024,0.0005715442177744896,-0.003178899545876365,0.005391359796151604,0.9952063879614834
2014-02-13,1,0.0008585711316594706,0.0009420135152452038,-0.004267033413750768,0.004317484952307153,0.9944443916485407
2014-02-18,1,0.0010080594989940093,0.0011006590398838897,-0.004267033413750768,0.005391359796151604,0.9936213109802061
2014-02-20,1,0.000942161885039975,0.0010135213099472036,-0.004267033413750768,0.005391359796151604,0.992502167274609
2014-02-24,1,0.0005650653173605827,0.0005651548096856725,-0.0033835879894097225,0.006567591986773739,0.9926081555265918
2014-02-26,1,0.0003075875497449373,0.00034963004747947106,-0.004893226607497532,0.006567591986773739,0.9919513582321242
2014-02-28,1,0.0002823877676157834,0.0003250242063525177,-0.004893226607497532,0.006567591986773739,0.9919337087360651
2014-03-04,0,-0.00010768773071276127,2.7456916077641075e-05,-0.0037683810572518815,0.006567591986773739,0.9916012479954224
2014-03-06,1,0.00041557293945524793,0.00046029932910003206,-0.0037683810572518815,0.0059955373398557915,0.9918552221152065
2014-03-10,1,0.0007226627003368995,0.0007306835767513198,-0.00554629390629309,0.0059955373398557915,0.9909616759425653
2014-03-12,1,0.000575893139151581,0.00059123618500752,-0.003909293044223463,0.00815693151365425,0.9904027305810728
2014-03-14,-1,-0.0004255635962471582,-0.00030446102050900976,-0.003909293044223463,0.00815693151365425,0.989860228966095
2014-03-18,1,0.0004207701103616833,0.00044491716319571906,-0.003909293044223463,0.006987998789824996,0.9902390998788623
2014-03-20,1,0.0011914043653591469,0.0012328337885490809,-0.006381904392633458,0.006987998789824996,0.9902992832824227
2014-03-24,1,0.001456452767937451,0.0015507209271178554,-0.006381904392633458,0.0072176510057802845,0.9903337397994343
2014-03-26,1,0.0013370197044049682,0.0014634598687587432,-0.0019155818141311676,0.007594481935305939,0.9908904759793539
2014-03-28,1,0.0016176954241819874,0.0018133297166502572,-0.007806005203591511,0.007594481935305939,0.9887002792289125
2014-04-01,1,0.0022567872175294065,0.0025385370594126506,-0.007806005203591511,0.0072176510057802845,0.9895553505369644
2014-04-03,1,0.0019084058296161902,0.002116738870818132,-0.008562728501127914,0.007594481935305939,0.9888277707025821
2014-04-07,1,0.001516299956325469,0.0016899086050192874,-0.008421098021119826,0.007594481935305939,0.9891247481792176
2014-04-09,1,0.0023162932403108303,0.0026180255631277328,-0.008421098021119826,0.007594481935305939,0.989541578870418
2014-04-11,1,0.0011559396060643469,0.0013147936503168545,-0.005445980889799938,0.008280164203298846,0.9907792126439569
2014-04-15,1,0.0013354924103774835,0.0014710870442432601,-0.008421098021119826,0.007594481935305939,0.9904061301197093
2014-04-17,1,0.0012051893021604752,0.001332878600001964,-0.008064960854384427,0.007594481935305939,0.9909761760045238
2014-04-22,1,0.0013617880992240782,0.001503504872285928,-0.008064960854384427,0.007446708546539416,0.9909142234063454
2014-04-24,1,0.001344778195940294,0.0014261014746458187,-0.008421098021119826,0.007520153602285285,0.990274802178617
2014-04-28,-1,-0.0007558861549506806,-0.000574582490762636,-0.006104296994655324,0.01043196060870492,0.9916377531211024
2014-04-30,-1,-0.0003951018282470579,-0.0002695562148168063,-0.008123621967869192,0.01043196060870492,0.9913257856141272
2014-05-02,-1,-0.00012347601033491765,-4.689557844594368e-05,-0.006104296994655324,0.008500499370536454,0.9921997361249262
2014-05-06,-1,-0.0008691968520501808,-0.0006902127708468206,-0.004087856900931208,0.008500499370536454,0.99256373818434
2014-05-08,-1,-0.0008786571797185225,-0.0006653041987518986,-0.004087856900931208,0.007520153602285285,0.9929476504492576
2014-05-12,1,4.604744022672835e-05,0.00012264744440057258,-0.004087856900931208,0.008160233763231455,0.9912353526797587
2014-05-14,-1,-0.0003763459929002137,-0.00028629790682468736,-0.003004787806336935,0.008160233763231455,0.9919063719904162
2014-05-16,1,6.884608790773633e-05,9.990039433378073e-05,-0.0023350822782123356,0.007520153602285285,0.9928099716430178
2014-05-20,1,0.0005132896236567982,0.000559343030188695,-0.003004787806336935,0.004699595112765973,0.9925730218674198
2014-05-22,1,0.00036914256003101054,0.0003979007052346973,-0.003467236393093322,0.0033359734614088962,0.9931272814298933
2014-05-27,1,0.0011968419137436404,0.001342292449738899,-0.003623858741372808,0.002286053785350668,0.9934058004700989
2014-05-29,1,0.00021517302765303222,0.000251044906611951,-0.003468551023074935,0.002286053785350668,0.9939576793728842
2014-06-02,1,0.00021060458690254935,0.00025011925964946017,-0.003468551023074935,0.00252367752297601,0.9935104758273514
2014-06-04,1,0.00019125601041174764,0.00023786804207870857,-0.003468551023074935,0.0033359734614088962,0.9930966864521429
2014-06-06,0,-4.504070614163669e-05,5.5985132719666244e-05,-0.003468551023074935,0.00463251445002501,0.9928161351522365
2014-06-10,1,0.0023283079050142224,0.0025723341839849973,-0.003651088080183366,0.0033359734614088962,0.9943391583459966
2014-06-12,1,0.001754468148265348,0.0018918664580387173,-0.003751187121123107,0.0033359734614088962,0.9944441963526074
2014-06-16,1,0.0020666862595159533,0.0022804935750592686,-0.003973743326167129,0.00020063490096989699,0.9938706415667001
2014-06-18,1,0.0008971325016576784,0.0009263638241536164,-0.003973743326167129,-0.0010709632600237728,0.994286796521271
2014-06-20,1,0.0005458790646524017,0.0006104798547454687,-0.003751187121123107,0.0010510158652402772,0.9944299212710728
2014-06-24,1,5.1479665487743904e-06,0.00012599173759940874,-0.003751187121123107,0.005350661351249178,0.9929225812123743
2014-06-26,-1,-0.0011680376454398062,-0.000839322562342451,-0.004434232083432046,0.005350661351249178,0.9924712751324585
2014-06-30,-1,-0.0006507540441135651,-0.00040057539670261186,-0.004434232083432046,0.005350661351249178,0.9924983542260306
2014-07-02,0,-6.938320160353802e-06,0.00012799850036953003,-0.00668455407902178,0.005350661351249178,0.9912674226027249
2014-07-07,1,0.00040539893193587505,0.0004649312896529037,-0.006825202814373646,0.005350661351249178,0.9909560407600683
2014-07-09,1,0.0007689322437394395,0.0007856576048643709,-0.006825202814373646,0.005750978034824227,0.9908181436047724
2014-07-11,1,0.0005989503599004656,0.0006129359516384978,-0.009478909010327453,0.006961659100944964,0.9896394030898464
2014-07-15,1,0.00021901744055657972,0.0002469645684311471,-0.008199443672440796,0.007686229697731968,0.989662392750284
2014-07-17,-1,-0.0006250702015404433,-0.00048046723529461,-0.002203378057822485,0.007686229697731968,0.9897644898144615
2014-07-21,-1,-0.0003602617887113341,-0.00024017705725540772,-0.002203378057822485,0.007686229697731968,0.9897318711607433
2014-07-23,-1,-0.0020128725931523954,-0.0016978568377857537,-0.0006463189082018886,0.007799434068662314,0.9906428009311881
2014-07-25,-1,-0.0027399147915579784,-0.0023529435105591797,-0.000635421282226926,0.007799434068662314,0.9907827109013748
2014-07-29,-1,-0.0022798684512601204,-0.0019604752665385154,-0.0007722397430346166,0.007710556293610695,0.9908423446028273
2014-07-31,-1,-0.0028158480866304642,-0.0024435097008568664,-0.0007722397430346166,0.007710556293610695,0.9907177007424753
2014-08-04,-1,-0.00276096874985481,-0.0023936014478553114,-0.001432330683345091,0.007519346164490934,0.991067985525355
2014-08-06,-1,-0.0031491712713704154,-0.0026788576485836067,-0.004313229388218083,0.007169602841412465,0.9910914132008924
2014-08-08,-1,-0.0028959119522085778,-0.0025052609688545483,-0.003428160203581101,0.007004207827352651,0.992802541297899
2014-08-12,-1,-0.0014942922021098115,-0.0013317359150445073,-0.0041749145882501466,0.005787602589297482,0.9935721266168114
2014-08-14,-1,-0.0008737384531054638,-0.0007977237386859175,-0.005871680543749722,0.00516927562158344,0.9934627551119127
2014-08-18,-1,-0.0007486287700483865,-0.0006601586290294315,-0.005871680543749722,0.00516927562158344,0.9935291024013879
2014-08-20,-1,-0.00011151689422755228,-0.00010078504483771833,-0.005871680543749722,0.00516927562158344,0.9930794602320292
2014-08-22,1,0.0005308600905120496,0.0006513065786186443,-0.006301374782852235,0.003661828453113101,0.9929592589585197
2014-08-26,1,0.00034493208596498513,0.0004380839665984666,-0.005535691157578209,0.003661828453113101,0.9932321062184182
2014-08-28,-1,-0.000525574382139313,-0.0004787586654127254,-0.005535691157578209,0.004049029052911783,0.9940989069811761
2014-09-02,-1,-0.00046502303407701406,-0.00046484765769393507,-0.005535691157578209,0.004049029052911783,0.9941781480112991
2014-09-04,-1,-0.0014392551845318255,-0.0012560316013939632,-0.006080140663660104,0.003474009501939987,0.9934730029644804
2014-09-08,-1,-0.0011956357719240392,-0.0010780777856713177,-0.0066183079002065034,0.003474009501939987,0.9930216197124089
2014-09-10,-1,-0.0015650380115370386,-0.001395626064069063,-0.0076593633410015636,0.006671076531053556,0.9908393927581537
2014-09-12,-1,-0.00194219832717199,-0.0017498084381339096,-0.00910967272785512,0.006671076531053556,0.9873503067194964
2014-09-16,-1,-0.001407386173884596,-0.001289307781907033,-0.00910967272785512,0.006947053657923753,0.9869383795289193
2014-09-18,-1,-0.00161464603168999,-0.001386264230922903,-0.00910967272785512,0.006947053657923753,0.9868474466894349
2014-09-22,-1,-0.001758611505413856,-0.0015235561543774801,-0.00910967272785512,0.007980586981731794,0.9861776474493674
2014-09-24,-1,-0.0016483373751231133,-0.0014306739624092013,-0.01074055367473584,0.008378447693361275,0.9844880961524641
2014-09-26,-1,-0.001872199604455988,-0.0016065710300880716,-0.01074055367473584,0.008834681342514531,0.9842454069065616
2014-09-30,-1,-0.001988132509140603,-0.00172926174622465,-0.01074055367473584,0.008834681342514531,0.9839768454533802
2014-10-02,-1,-0.0027946379794674555,-0.0024744794960429744,-0.00830082051494566,0.008834681342514531,0.9847695692039811
2014-10-06,-1,-0.003355192803310204,-0.0029360072496024646,-0.00692823815749522,0.009667294067583147,0.9820112551187873
2014-10-08,-1,-0.0026157963800105192,-0.0023022359895518672,-0.005710953210965404,0.009667294067583147,0.9839055456849267
2014-10-10,-1,-0.005354925953930261,-0.004736889819644298,-0.0009286262235862108,0.009667294067583147,0.9864680503628019
2014-10-14,-1,-0.005170886136048641,-0.004572393417976892,-0.0009286262235862108,0.009667294067583147,0.9869211567222096
2014-10-16,-1,-0.0037107577713019584,-0.003325759528963114,-0.0019734276503736124,0.008514762890777154,0.988732896372308
2014-10-20,-1,-0.0033234079029279603,-0.002966020180909871,-0.005015423828278169,0.008297231683913255,0.9893552797474602
2014-10-22,-1,-0.0026768838489519154,-0.0024022152142361575,-0.005015423828278169,0.008297231683913255,0.9904312727454757
2014-10-24,-1,-0.0019696828188784307,-0.0017856888818779484,-0.005015423828278169,0.008193232361956338,0.9906663575192354
2014-10-28,-1,-0.001661943427626509,-0.0015229028069425644,-0.002636558354070854,0.008193232361956338,0.9911616768523084
2014-10-30,-1,-0.0005066574060821583,-0.00038682883689200457,-0.0011804724923045074,0.008552010072757878,0.9893860830859325
2014-11-03,1,0.0013419822452898308,0.0016985403336287404,-0.0011804724923045074,0.008552010072757878,0.9923655118540654
2014-11-05,1,0.0016847684418304363,0.002095304023788379,-0.000111411535431883,0.008552010072757878,0.9921992786531069
2014-11-07,1,0.0017886771013887017,0.0022026949729021337,-0.0011804724923045074,0.009597167136086627,0.9907694813777326
2014-11-11,1,0.0016737476033238568,0.002060847019045438,-0.0011804724923045074,0.009597167136086627,0.9903778887816321
2014-11-13,1,0.0014361285309869923,0.0017564830814959347,-0.002636558354070854,0.010426072884565124,0.9896329852383634
2014-11-17,1,0.001472145837727758,0.0017879147801072369,-0.006635360681820421,0.010426072884565124,0.9891405210380774
2014-11-19,1,0.0019753903153400436,0.002381568376755183,-0.0027697658362530893,0.011401604225823501,0.9887862702270677
2014-11-21,1,0.002648926792621755,0.0031560723473540455,-0.0055413510117072245,0.012797201621749691,0.9885850166000714
2014-11-25,1,0.002810511554962968,0.003349812992718115,-0.006635360681820421,0.012797201621749691,0.9878651841706189
2014-11-28,1,0.0046132623846327405,0.005394487068924017,-0.007922168115549856,0.011401604225823501,0.9891979326195475
2014-12-02,1,0.004789784610081767,0.005578145523551986,-0.009024127744006918,0.011401604225823501,0.9886165722456864
2014-12-04,1,0.005334439064884504,0.0061723159143096725,-0.009841398552593531,0.005277308211802785,0.9879991172066531
2014-12-08,1,0.004824502696995311,0.005565085427948757,-0.009841398552593531,0.0051655859354967915,0.988183376404553
2014-12-10,1,0.004649208136169562,0.005383551969065482,-0.009024127744006918,0.010628179990691263,0.9883614480456699
2014-12-12,1,0.00400524261289825,0.004573499919469908,-0.010399776397595204,0.0032909469011765816,0.9879007720561639
2014-12-16,1,0.0029437225440305096,0.0033267649094907022,-0.010399776397595204,0.0032909469011765816,0.9886452435728894
2014-12-18,1,0.004368228095570664,0.004948908366578038,-0.010399776397595204,0.0032909469011765816,0.9884635868378715
2014-12-22,1,0.004190191112111571,0.0047076436514818035,-0.010399776397595204,0.0032093288143570657,0.9893036401179999
2014-12-24,1,0.0036269512386681345,0.004066889878673412,-0.009467163106411141,0.0032093288143570657,0.9902159087400229
2014-12-29,1,0.003176408505495276,0.0035665707481394113,-0.010399776397595204,0.0032093288143570657,0.9894644697775753
2014-12-31,1,0.002544321998809271,0.0028274274339187017,-0.01222824570422915,0.004036962792556044,0.9891950070296835
2015-01-05,1,0.002100558082329453,0.002345181068944965,-0.010399776397595204,0.006880001005171842,0.9888390722550884
2015-01-07,1,0.0017958385049440008,0.0020187891839083313,-0.00869603612562333,0.007510342624462409,0.9892541167114156
2015-01-09,1,0.0024596042226134878,0.0027896836539270595,-0.00869603612562333,0.004151542279750526,0.9896036225517336
2015-01-13,1,0.00200127180051708,0.0022991793034146243,-0.0053327631311011385,0.007510342624462409,0.9900896277712607
2015-01-15,1,0.0015942801990605003,0.0018490700881285973,-0.0037362876959347907,0.014268835141321282,0.9898962620523438
2015-01-20,1,0.0024629311962356994,0.002821148443273705,-0.0051156159018806175,0.008853980871805755,0.9895356730212932
2015-01-22,1,0.002304238780269178,0.0026053117339481595,-0.0051156159018806175,0.010628568401091946,0.9891847096652554
2015-01-26,1,0.0019478933569174663,0.0021740607974195148,-0.004468311297051996,0.01250167087615612,0.9888105217134183
2015-01-28,1,0.000821633516349487,0.0008884740197466325,-0.002782736712359874,0.01250167087615612,0.9894859398268377
2015-01-30,1,0.0001396165945527079,0.00017354121915766054,-0.002782736712359874,0.018415676028682097,0.9892532630792447
2015-02-03,1,0.001070146411797663,0.0011356023297141409,-0.005777899682283344,0.01250167087615612,0.9899387880770865
2015-02-05,1,0.0013627203402136723,0.001443460816316972,-0.006169087954047495,0.008808502696263144,0.9906537928126483
2015-02-09,1,0.001043788317988968,0.0010815541493523408,-0.006169087954047495,0.009532115126400401,0.9896120891026344
2015-02-11,1,0.0018524168132243225,0.0020351738094004186,-0.006169087954047495,0.008425339347954173,0.9903351188807772
2015-02-13,1,0.0023731645824005524,0.0026064062824877905,-0.006169087954047495,0.008425339347954173,0.9902492282192089
2015-02-18,1,0.0029384564117700424,0.0032434598136631336,-0.005777899682283344,0.008425339347954173,0.9912462849366959
2015-02-20,1,0.0031991497779884043,0.0035324819094645393,-0.005777899682283344,0.009532115126400401,0.9906881108469292
2015-02-24,1,0.003075175304154196,0.0033660878939547555,-0.006565291388843717,0.006435074057912004,0.9904498131258209
2015-02-26,1,0.00205321914690785,0.0021293466650067687,-0.006565291388843717,0.006435074057912004,0.9888907156908979
2015-03-02,1,0.0022155564906196964,0.0022639748648224513,-0.006565291388843717,0.010733394710891839,0.9842952435622466
2015-03-04,1,0.0011860798077848538,0.001217905183809913,-0.007343176363196914,0.010733394710891839,0.9838925046677129
2015-03-06,-1,-0.001058098628215651,-0.0006183057573384586,-0.005661896421442895,0.010733394710891839,0.9837635622947767
2015-03-10,-1,-0.001793932062314671,-0.001252182046282416,-0.003142740504152334,0.010378715175214059,0.9842475833286622
2015-03-12,-1,-0.0013786214398763806,-0.0009217612835155187,-0.003142740504152334,0.010378715175214059,0.9841851979705772
2015-03-16,-1,-0.000620253786760934,-0.00026926296504834217,-0.007025954583598982,0.007664426868847322,0.9843042197622052
2015-03-18,0,-0.00010431316772348904,0.0001683861286640605,-0.007025954583598982,0.007664426868847322,0.9838600553875084
2015-03-20,1,0.0007021217451930313,0.0008610235194915422,-0.00841140736948849,0.006931383881955545,0.9841814008039439
2015-03-24,1,0.00011944581527685637,0.00035078062237144255,-0.007025954583598982,0.007664426868847322,0.9842382474495542
2015-03-26,-1,-0.0016471250798775928,-0.001204354857874165,-0.00841140736948849,0.007664426868847322,0.9849017331181729
2015-03-30,1,0.003124677395401165,0.003335187154084671,-0.00841140736948849,0.006931383881955545,0.9909781562449229
2015-04-01,1,0.001974811934966675,0.002034665117925801,-0.00841140736948849,0.006931383881955545,0.9915488640050627
2015-04-06,1,0.0019290529964027011,0.001982260420031751,-0.00841140736948849,0.006931383881955545,0.9910743374312425
2015-04-08,1,0.002091492245100052,0.0021541278799083454,-0.01156099637748259,0.0049613539142528236,0.9901207350127766
2015-04-10,1,0.0021516546913062876,0.0022149060292158272,-0.01156099637748259,0.007061032584882559,0.9896978672902583
2015-04-14,1,0.001131533936966275,0.0011978502749270745,-0.009395649051816352,0.007061032584882559,0.9905114798307489
2015-04-16,1,0.001810908295899748,0.001835103315455256,-0.009395649051816352,0.007061032584882559,0.9906534192260824
2015-04-20,1,0.0016974056328000514,0.001730589098685407,-0.006980335657807674,0.007061032584882559,0.9911084436697686
2015-04-22,1,0.00186672208201059,0.0019155880369659348,-0.006980335657807674,0.007061032584882559,0.9894823285835718
2015-04-24,1,0.0016578805557027564,0.0017761803101100726,-0.004184321959005605,0.009322302234153593,0.9894888492033812
2015-04-28,1,0.0020140683344682993,0.002191858880099478,-0.004376120796116301,0.012879888764171073,0.9886157883167245
2015-04-30,1,0.0016697996808421362,0.0018426224992839325,-0.003533983661921985,0.012879888764171073,0.9894833771436151
2015-05-04,1,0.0020963331867754603,0.0023087296939880873,-0.004075256529632712,0.011126631124139212,0.9892977927592297
2015-05-06,1,0.0011530537035356336,0.001218120899353558,-0.005143095083473624,0.011126631124139212,0.9899899914243784
2015-05-08,1,0.00168506174069056,0.001823039046046561,-0.005451732671441765,0.00772387513466227,0.9893280324825162
2015-05-12,1,0.000922632774008039,0.0009275030418267845,-0.005143095083473624,0.013377756259365145,0.9882624557215356
2015-05-14,1,0.002107886885553189,0.0023304730862921718,-0.00649800871890927,0.00772387513466227,0.9878308013500566
2015-05-18,1,0.0021136897763098014,0.0023465266748797986,-0.00649800871890927,0.007886446091139912,0.9877655132885403
2015-05-20,1,0.003115748075715248,0.0034510029369702053,-0.00649800871890927,0.009659908178569465,0.9886487880750519
2015-05-22,1,0.0031919998245393657,0.0035107954187672953,-0.005833294292406659,0.0072315826108853044,0.989804020613173
2015-05-27,1,0.003392085800134282,0.003711034015601817,-0.007248635172583393,0.006477857625264478,0.9897700985835436
2015-05-29,1,0.00275456367756316,0.0029479689238684163,-0.008091936625592183,0.006477857625264478,0.9894625526464719
2015-06-02,1,0.0021809612571586845,0.002267500381190368,-0.008091936625592183,0.0039500419753837335,0.98947185496928
2015-06-04,1,0.001904587691862809,0.0019775575826246486,-0.008091936625592183,0.006045828483002366,0.9898941533290907
2015-06-08,1,0.000810137473434207,0.0009144505246996544,-0.008091936625592183,0.0038240957009049894,0.9906522709256391
2015-06-10,1,0.0011386673826567378,0.0012312448168633851,-0.011965369031756237,0.0019961406403610415,0.9901954705990602
2015-06-12,1,0.0007835864855686903,0.0008756299694679557,-0.010629173780736752,0.005869508271710896,0.9907793298569195
2015-06-16,1,0.0008700487053272109,0.0009474849734753378,-0.010629173780736752,0.005869508271710896,0.9903944130767423
2015-06-18,1,0.001422168924660283,0.001444916288964938,-0.010629173780736752,0.0035418225384964653,0.9908963134244224
2015-06-22,1,0.0004186187910672015,0.0006194558019569485,-0.010629173780736752,0.0035418225384964653,0.9911686672490077
2015-06-24,-1,-0.0006575197995802105,-0.0003264616742511661,-0.011965369031756237,0.005056271409027141,0.9884647735972847
2015-06-26,-1,-0.0007522422963620801,-0.00044717634783676067,-0.013441104550242102,0.005056271409027141,0.987466029904565
2015-06-30,-1,-0.001341649595959401,-0.0009910935567880807,-0.010761363737717414,0.005869508271710896,0.9880010314211908
2015-07-02,-1,-0.0015503340961113422,-0.0011595001962559361,-0.010761363737717414,0.005056271409027141,0.9880587704179395
2015-07-07,-1,-0.00182247963362488,-0.0014240788542023925,-0.008812398322859058,0.005834810397296531,0.988263396483917
2015-07-09,-1,-0.002668365525295504,-0.002205807843151505,-0.007726196735260123,0.0069351073455429365,0.9866698303781433
2015-07-13,-1,-0.001814302610316615,-0.0014841192060419959,-0.007726196735260123,0.012234168522265158,0.9856405892999083
2015-07-15,-1,-0.0011554549577836627,-0.0009175107678975643,-0.008812398322859058,0.007689517740388269,0.9848838162218968
2015-07-17,-1,-0.0013096999529002011,-0.0010630258027827517,-0.010790411501189916,0.007689517740388269,0.984525587083788
2015-07-21,-1,-0.0017859466412101395,-0.0014635000078737522,-0.015784856356777448,0.011555167088898859,0.983196324596156
2015-07-23,-1,-0.0023178084854824444,-0.001961970797839601,-0.015784856356777448,0.009021824651133988,0.9829112797832583
2015-07-27,-1,-0.004000991562695539,-0.0034091404412574067,-0.016012961259229942,0.009021824651133988,0.9825191054257696
2015-07-29,-1,-0.0034212354512553125,-0.0028946973051348227,-0.022108751894450725,0.009021824651133988,0.9792966116548362
2015-07-31,-1,-0.004028618275131353,-0.0034079318452762105,-0.022108751894450725,0.011555167088898859,0.9773172100087056
2015-08-04,-1,-0.00393037482388116,-0.0033263239334452854,-0.027165916221153382,0.011555167088898859,0.9757050774347188
2015-08-06,-1,-0.003210649233155321,-0.002725830096163555,-0.022108751894450725,0.011555167088898859,0.9772331616148203
2015-08-10,-1,-0.0018333620996796572,-0.001532790590361848,-0.02317182791494126,0.010772679287034303,0.9748311809315877
2015-08-12,-1,-0.002076066656914984,-0.001776911497878049,-0.022940403637766806,0.010772679287034303,0.975176976452438
2015-08-14,-1,-0.0026839827104971166,-0.0022985267936691013,-0.022940403637766806,0.013267922279639726,0.9742088723680313
2015-08-18,-1,-0.0037588176753707613,-0.003189136507848865,-0.02086911764693202,0.014497364300159347,0.9749452084710793
2015-08-20,-1,-0.0037009863575784125,-0.0032956137884668064,-0.020823675520395588,0.014497364300159347,0.9778586305639847
2015-08-24,-1,-0.005114687637592888,-0.004504143772718282,-0.020823675520395588,0.014497364300159347,0.9784584033887564
2015-08-26,-1,-0.0035237542762793575,-0.003107562178958157,-0.021741964257082823,0.011182493293874177,0.9818822326916474
2015-08-28,-1,-0.002118874843446282,-0.0018865758614899342,-0.021741964257082823,0.008767247078549,0.9828436223623208
2015-09-01,-1,-0.0032480138182093225,-0.0028983179259322615,-0.018798086372023515,0.011349403191433917,0.982172267009051
2015-09-03,-1,-0.0028287663450654033,-0.0024989344409899507,-0.021741964257082823,0.011349403191433917,0.9820374084291774
2015-09-08,-1,-0.0010674705260143998,-0.000978338852023422,-0.018798086372023515,0.011349403191433917,0.9845835615776707
2015-09-10,-1,-0.0019116925535288326,-0.0017186378605694788,-0.011506508761284586,0.013054898577497118,0.9849023384853092
2015-09-14,-1,-0.0008797377769431495,-0.0008256774121577269,-0.017824503485194,0.011349403191433917,0.9855642022229877
2015-09-16,-1,-0.0008884490099017295,-0.0007950860221186192,-0.017824503485194,0.011548189084526114,0.9816947627169242
2015-09-18,-1,-0.0016153597782830693,-0.0014552358525180861,-0.01779484029402374,0.011548189084526114,0.9820386401175061
2015-09-22,-1,-0.002710824476018802,-0.002394476919496266,-0.011498877577913694,0.011548189084526114,0.9828351551988268
2015-09-24,-1,-0.002870015158046598,-0.0025710022023890822,-0.009376176613543348,0.01850740552894654,0.981205161233021
2015-09-28,-1,-0.0034818465553284146,-0.003078236493333713,-0.009376176613543348,0.01850740552894654,0.9805361674507894
2015-09-30,-1,-0.0014683011511887711,-0.0013280213655712267,-0.009376176613543348,0.01454499673973434,0.9832768117799852
2015-10-02,-1,-0.0018826912140596092,-0.001681560366163631,-0.009376176613543348,0.010048547038308608,0.9836081298295247
2015-10-06,-1,-0.0008028386730357573,-0.0007594020687455131,-0.004285811096548621,0.005891454747818044,0.9850841720650436
2015-10-08,-1,-0.000331970705258503,-0.0003177983966748181,-0.004443684975797239,0.004891941720692392,0.9859121280235987
2015-10-12,-1,-0.00015145669688865974,-3.9899910437504824e-05,-0.004443684975797239,0.005891454747818044,0.9852728609919954
2015-10-14,1,0.0021634173320035695,0.002605797513245524,-0.005100242711832879,0.004891941720692392,0.9894089500364922
2015-10-16,1,0.002113211094298833,0.002577720509124807,-0.008507598416435202,0.00407034533872547,0.9888365950788666
2015-10-20,1,0.0022280778461934115,0.0027045422068801904,-0.008507598416435202,0.0064297183084657625,0.9882096499789662
2015-10-22,1,0.003517776008390212,0.004162409456356793,-0.012987589705782843,0.0054826975212379425,0.9881131666161409
2015-10-26,1,0.0026266033232811275,0.0031364124266953447,-0.012987589705782843,0.0054826975212379425,0.98736822766539
2015-10-28,1,0.0024080484804303217,0.0028568204123189007,-0.012987589705782843,0.0054826975212379425,0.9846603491556143
2015-10-30,1,0.0021168581423444024,0.0025672230161647887,-0.008507598416435202,0.008021191490462327,0.9854716811379763
2015-11-03,1,0.0021201378228435704,0.0025424327805803983,-0.012365297816437228,0.008021191490462327,0.9847223620975317
2015-11-05,1,0.0021868676463073222,0.0026326393142627772,-0.014102850935494095,0.008021191490462327,0.9837162199756383
2015-11-09,1,0.002826083216335244,0.0033964292822896303,-0.014102850935494095,0.003994876323659628,0.9839378755786108
2015-11-11,1,0.0024287548572189907,0.0029443335509761045,-0.014102850935494095,0.006722252084725816,0.9836358597949894
2015-11-13,1,0.0015351234036863563,0.0019086634107266165,-0.012363541578598385,0.006722252084725816,0.984923422004126
2015-11-17,1,0.0018859219450123193,0.002284443357966389,-0.012363541578598385,0.004696167326499784,0.984553980439558
2015-11-19,1,0.0018161982840913002,0.002171225033514961,-0.014342425614888157,0.0028620528945486183,0.9842971352065107
2015-11-23,1,0.0006694742416398221,0.0008791290910548356,-0.012363541578598385,0.004758903928840935,0.9865506896671579
2015-11-25,1,0.0019903376701747764,0.0023520767857319637,-0.012363541578598385,0.0063021219362567275,0.9891403078543703
2015-11-30,1,0.002024434580521414,0.0023307610212259097,-0.012363541578598385,0.0063021219362567275,0.9889642733246661
2015-12-02,1,0.0018582158486142334,0.0021658595255478665,-0.014177942266661145,0.0063021219362567275,0.9879929377558859
2015-12-04,1,0.0014900684201827657,0.0017758747549803634,-0.013922802679740349,0.0063021219362567275,0.988244715392046
2015-12-08,1,0.0009503608162595364,0.0011574714007419394,-0.018133682822973448,0.0063021219362567275,0.9860445721813995
2015-12-10,1,0.0005217879596391799,0.0006633155332073965,-0.016162606560344787,0.0063021219362567275,0.9861438746551681
2015-12-14,-1,-3.557922688486057e-05,-1.4470881530303386e-05,-0.018133682822973448,0.008503643089619161,0.9846342010789874
2015-12-16,-1,-0.00026988130888217865,-0.0002101329957220482,-0.018133682822973448,0.008040881146525096,0.9847254702107996
2015-12-18,-1,-0.0011846571519760814,-0.0010404720062910477,-0.014075881176659678,0.008503643089619161,0.9852530568509005
2015-12-22,-1,-0.0008676860511235289,-0.0007500502739882957,-0.014075881176659678,0.008503643089619161,0.9851682446346745
2015-12-24,-1,-0.00040629554656521137,-0.00034640019274913346,-0.014075881176659678,0.00833318755792568,0.9852245686608787
2015-12-29,1,1.266877554889227e-05,1.3226044741236517e-05,-0.014075881176659678,0.008328138404732486,0.9856585088344932
2015-12-31,-1,-0.0003481730324461343,-0.0003355182089897037,-0.012974615626615407,0.009365414864241334,0.9848288903901716
2016-01-05,-1,-0.0012993631484975226,-0.0011703763168936765,-0.012974615626615407,0.009365414864241334,0.9842518551444357
2016-01-07,-1,-0.0033879082216876043,-0.0029974110224310884,-0.009747760787382922,0.009365414864241334,0.9851694403661344
2016-01-11,-1,-0.003266750361807443,-0.002871945979706238,-0.012920199659293367,0.008328138404732486,0.9859841190283084
2016-01-13,-1,-0.004911589301665255,-0.004230437923578297,-0.009676067688573856,0.00622913790696789,0.9875240089841807
2016-01-15,-1,-0.006075328218754987,-0.005193866929462322,-0.007481267974158736,0.011115274460196205,0.98471144497177
2016-01-20,-1,-0.00454910884267074,-0.003923319839807102,-0.008526257625603382,0.010189084784919897,0.9853375406877402
2016-01-22,-1,-0.0032922070166649725,-0.0028741825212170577,-0.008526257625603382,0.009467501496180373,0.9858144431500562
2016-01-26,-1,-0.004405867351882049,-0.0037796882670613242,-0.012879653514321243,0.009467501496180373,0.9847659849953078
2016-01-28,-1,-0.0035583106411952695,-0.003076829765517202,-0.012879653514321243,0.010510492140316597,0.9838534543398445
2016-02-01,-1,-0.0018280658354692095,-0.0016240244669216241,-0.009586827376724755,0.010510492140316597,0.9847370949227743
2016-02-03,-1,-0.003443728922479854,-0.003004544031937351,-0.007428648913071219,0.0127513998530266,0.9851721378644726
2016-02-05,-1,-0.003818822464609505,-0.003382212782419874,-0.0036127184547242105,0.012791439951403166,0.9857782687751772
2016-02-09,-1,-0.0036798770239757253,-0.0032883064588869154,-0.0071756842540055665,0.012791439951403166,0.9856170054481286
2016-02-11,-1,-0.00445749665715265,-0.003931308715670979,-0.0010400394239931394,0.01345406193259303,0.9843040089693651
2016-02-16,-1,-0.0027098752779865344,-0.00234891452785059,-0.005472141961706928,0.012688588705994024,0.9878700827695781
2016-02-18,-1,-0.00315702163094603,-0.0027097410041384594,-0.000394505692389938,0.01307655533773547,0.9871812017806775
2016-02-22,-1,-0.002991696467471722,-0.0025477933115067974,-0.0032402038109971476,0.01374410776829677,0.9869650799613726
2016-02-24,-1,-0.002381037326288328,-0.0020977332656366377,-0.0036416993732652017,0.01374410776829677,0.9883235691359867
2016-02-26,-1,-0.001486648449447736,-0.0012893022789110021,-0.004984211365939494,0.01307655533773547,0.9896763568994371
2016-03-01,-1,-0.00023694560865460666,-0.00022110604720700533,-0.0036416993732652017,0.012791439951403166,0.9911243248147388
2016-03-03,1,0.00044017370205687425,0.0005387353086430604,-0.003867562971678524,0.009354990852688077,0.9917798583276539
2016-03-07,1,0.0006636676069273401,0.0007561789522226013,-0.004780496347369962,0.007985433058564624,0.9921656867239775
2016-03-09,1,0.001023796550809628,0.0012953760402801703,-0.003988855468740338,0.009079811723152444,0.9925000655991087
2016-03-11,1,0.001384149366031945,0.001682971683034092,-0.003988855468740338,0.007985433058564624,0.9927463487174152
2016-03-15,1,0.0015673353746583712,0.0018981372552361007,-0.0035934355937500347,0.009079811723152444,0.9925367570596324
2016-03-17,1,0.0030806592919719565,0.003688652847712217,-0.0049380994832057285,0.005870757273643616,0.9925784694859041
2016-03-21,1,0.0030782351745495644,0.003636694375032349,-0.005494626348622452,0.005282736046227173,0.9929553590680098
2016-03-23,1,0.0030083800407502913,0.003570134968824811,-0.005597784873331432,0.005870757273643616,0.9926524998743128
2016-03-28,1,0.0027234926995208684,0.0032079066239333277,-0.005713510493918545,0.005838945936662781,0.9925874607522788
2016-03-30,1,0.003189075144432494,0.003748554891798185,-0.005713510493918545,0.005803575233960623,0.9920975990126167
2016-04-01,1,0.003111307692899916,0.003654609537591354,-0.006690779339833983,0.005803575233960623,0.9894607429345328
2016-04-05,1,0.003002987918117062,0.0035473645129971395,-0.009285740304527983,0.008561518280269848,0.98899031018349
2016-04-07,1,0.0027536762669469984,0.0032389165231829766,-0.007336908569510881,0.005803575233960623,0.9894703083730616
2016-04-11,1,0.0024052393696919845,0.0027943623135091413,-0.007336908569510881,0.0038659796262679137,0.9894035229978699
2016-04-13,1,0.0032047315634641488,0.0037310508695390598,-0.007336908569510881,0.0018176762918915273,0.9886827144162638
2016-04-15,1,0.002842491406729368,0.0033356851975309383,-0.007336908569510881,0.0018176762918915273,0.9888852799514483
2016-04-19,1,0.0020616274133281104,0.002371805842080886,-0.006467470529134914,0.006981577532026163,0.9891431918895004
2016-04-21,1,0.0036509882073148623,0.0042944766553698055,-0.006457524052547727,0.005950518147443957,0.9892013541566025
2016-04-25,1,0.0038126443878848545,0.0045206979244863405,-0.006457524052547727,0.009158217983465987,0.9893555420147749
2016-04-27,1,0.004253640717291826,0.004993291366753825,-0.006457524052547727,0.009158217983465987,0.98855035182419
2016-04-29,1,0.0019292378329675416,0.002306013300374248,-0.0040444683964237,0.009158217983465987,0.9920924766250141
2016-05-03,1,0.0015736814446965332,0.001866873522740468,-0.0034466188575647686,0.004950043131020091,0.9933312468653402
2016-05-05,1,0.0010450599482854693,0.0012409981724416266,-0.0034466188575647686,0.004950043131020091,0.9934162051123683
2016-05-09,1,0.0007256502810058512,0.000869578008499985,-0.0030073644620137235,0.009160707717198038,0.9924489728618453
2016-05-11,1,0.0012169578077195881,0.0014491139287383923,-0.0030073644620137235,0.004950043131020091,0.993222781297967
2016-05-13,1,2.398493174628497e-05,2.4136234683445072e-05,-0.0023415413103129706,0.004950043131020091,0.9934743823535337
2016-05-17,1,0.0006099607351915399,0.0007149192473614604,-0.0030638113600027143,0.003610355785399736,0.993907757694062
2016-05-19,1,0.0010084222792272946,0.0011911354456985083,-0.0035802364505659323,0.002809177208481427,0.9935438295672504
2016-05-23,1,0.001689386626901542,0.0019776282878393664,-0.0035802364505659323,0.002809177208481427,0.9933729700647117
2016-05-25,1,0.0018127629863324449,0.0020535375271521993,-0.00371216566879138,0.002809177208481427,0.9932726748590675
2016-05-27,1,0.0013098392430662036,0.0014462859259840046,-0.007337479051263104,0.002802298027282566,0.9885416220110577
2016-06-01,1,0.0002759170296046206,0.000360324201670891,-0.007337479051263104,0.00663111337726552,0.98621489526956
2016-06-03,1,0.00014191786526358932,0.00022903822511967533,-0.005461612038618437,0.012768079230870167,0.9858098086977228
2016-06-07,-1,-0.0004193642765032141,-0.00023875244911291532,-0.005461612038618437,0.007137837535994877,0.986148506816682
2016-06-09,-1,-0.0007913301333755302,-0.0005449081232623445,-0.005366276657674703,0.015300872695034577,0.9842751670130578
2016-06-13,-1,-0.0009706373723043157,-0.0007246754383597844,-0.003548457990251354,0.015300872695034577,0.9835995716662299
2016-06-15,-1,-0.0008410827604311036,-0.0006251450744179771,-0.0010524898323223896,0.015300872695034577,0.9830492094850798
2016-06-17,-1,-0.0014050870139788267,-0.0011175189954669806,0.001310617088992019,0.015300872695034577,0.9831520239972832
2016-06-21,-1,-0.0008110570031950301,-0.0006027918959374104,-0.000794315281585362,0.014112602521609528,0.9839839740357793
2016-06-23,1,8.569618102460439e-05,0.00015315932391171975,-0.000794315281585362,0.009914387399596169,0.9846025063732433
2016-06-27,-1,-0.0033465955765105953,-0.002827176324525905,0.0020657869645938952,0.014112602521609528,0.9852784062187858
2016-06-29,-1,-0.002506519279223831,-0.002024227921495401,0.0020657869645938952,0.009914387399596169,0.9876744081572753
2016-07-01,-1,-0.0022620222183061213,-0.001789069831975877,0.0020657869645938952,0.008872558388145161,0.9885406867168373
2016-07-06,-1,-0.003229316673916924,-0.002624850042663488,0.0017335501402416216,0.008872558388145161,0.9882778258894959
2016-07-08,-1,-0.0008779816594818939,-0.000639032801092431,0.0017335501402416216,0.008508570421496116,0.990861717648002
2016-07-12,-1,-0.0003000655975535369,-0.00012931241500365972,-0.000303884625379244,0.007483389316763546,0.9917616168376292
2016-07-14,1,0.0003040645923180249,0.00039291208742650173,-0.0010144619658955358,0.007055640876269695,0.9925392952128529
2016-07-18,1,7.605862985380555e-05,0.00021042581200666783,-0.0010144619658955358,0.007356489381434723,0.9919480164641248
2016-07-20,1,0.0006305139691256353,0.0006629053353496654,-0.004437740052338271,0.007356489381434723,0.9916870962895201
2016-07-22,1,0.0007887656096326366,0.0008064124250318537,-0.001799069252394581,0.006321629385803769,0.9925547545558314
2016-07-26,1,0.0020009275251865253,0.0021990595614864296,-0.004113261464145623,0.005641764695711861,0.994056849880101
2016-07-28,1,0.0027340640787132885,0.0030548650737891423,-0.0050017352130027155,0.003134149533567644,0.9935202500522308
2016-08-01,1,0.0021285830708306732,0.00231718258822632,-0.004113261464145623,0.0042415547111133555,0.9939686450518553
2016-08-03,1,0.00183046751880345,0.002004657043100898,-0.004113261464145623,0.0042415547111133555,0.9946809634656082
2016-08-05,1,0.002145691174561601,0.002361442314557255,-0.004113261464145623,0.002125923407059766,0.9946514947432352
2016-08-09,1,0.0025186653005330913,0.0028335651925369167,-0.005547848519513126,0.0014601773548299456,0.9935095423920374
2016-08-11,1,0.0028392784792686063,0.0032220767052372626,-0.00614409388438964,0.0005960435643720703,0.9916638633262925
2016-08-15,1,0.0032052018791142558,0.003617382204542442,-0.00614409388438964,0.00019902796132118013,0.991158971627447
2016-08-17,1,0.0026210272453759294,0.0029519336414050986,-0.004859294393646871,0.0020270350451346147,0.9911872692224322
2016-08-19,1,0.0027673727487446016,0.003137840580303806,-0.005716771426322107,0.0045217653981793095,0.9906794541491243
2016-08-23,1,0.002506319660176455,0.002835297464998671,-0.005716771426322107,0.00689942353627652,0.9904564592459071
2016-08-25,1,0.0018234513576557605,0.0020441533555587777,-0.005716771426322107,0.00689942353627652,0.9910071688687794
2016-08-29,1,0.0018197115597990265,0.0020335425912148706,-0.006754795668997563,0.007829315049109904,0.9893064781887052
2016-08-31,1,0.0016864084444064746,0.0018869247167043746,-0.006754795668997563,0.007829315049109904,0.9895245753266629
2016-09-02,1,0.002243646072345452,0.0025526150710212395,-0.006754795668997563,0.0086159651745034,0.9890889248441026
2016-09-07,1,0.0011549113170795581,0.0012823797227615903,-0.0033005929594044758,0.0086159651745034,0.9901129594301643
2016-09-09,-1,-4.890789745214404e-05,-7.396359514459051e-06,-0.0030047677368562438,0.0086159651745034,0.991399116704361
2016-09-13,1,0.0005528885070367217,0.000602403563861586,-0.005473781539565759,0.007080759392717179,0.9905830589053412
2016-09-15,1,0.0015241627958826867,0.001687268219905555,-0.008277571654252263,0.006154275417605314,0.9909235155100918
2016-09-19,1,0.0017119033566273855,0.0019366971292113801,-0.007261049075592303,0.006214720703085533,0.9903039702977688
2016-09-21,1,0.0010766289114487997,0.0011102924760814875,-0.007261049075592303,0.006214720703085533,0.9907501634389283
2016-09-23,1,0.0009054379052706226,0.0009095745556124029,-0.008089080658960858,0.006919829486349051,0.9897618913471905
2016-09-27,1,0.0008939277846567213,0.0009101928808218918,-0.006311738633416667,0.006919829486349051,0.9908758058901118
2016-09-29,1,0.0005284762506379379,0.0006047715750924886,-0.008089080658960858,0.006919829486349051,0.9905417606380559
2016-10-03,1,0.000829810875080012,0.0008612105313777009,-0.008089080658960858,0.006919829486349051,0.9905830201516062
2016-10-05,1,0.0005056080429780174,0.0006085842522337831,-0.008089080658960858,0.004864823989854848,0.990584753521148
2016-10-07,1,0.00042683953339598177,0.0005246253910059519,-0.008089080658960858,0.004864823989854848,0.9904089734618123
2016-10-11,-1,-0.0007651853819463229,-0.0005410235976621203,-0.006883494404071645,0.007953077046273058,0.9911465973874515
2016-10-13,-1,-0.0011987759842251669,-0.0009510308858352559,-0.0059951078221565915,0.007953077046273058,0.9914777570924934
2016-10-17,-1,-0.00027743641044879685,-0.00017329754821419246,-0.004420456321131021,0.010394560057055946,0.991250383166832
2016-10-19,-1,-0.00018893216029444747,-9.61144910914647e-05,-0.005272992520068435,0.015159800448110893,0.9902713055398994
2016-10-21,1,0.00032181083190305,0.00035224265100229017,-0.003219258210922973,0.010394560057055946,0.9916598208294045
2016-10-25,1,0.000682390750949806,0.0006945956626573364,-0.003219258210922973,0.015159800448110893,0.9895614275917565
2016-10-27,1,2.1963795465054455e-05,0.00011749246334689185,0.0016237042993427736,0.015159800448110893,0.9890881888851979
2016-10-31,1,0.00026118716925950763,0.00033829268153976084,0.0005728151070730646,0.015159800448110893,0.9895618699654258
2016-11-02,-1,-0.0003209687622938339,-0.00015275350643711722,-0.0013770105554005438,0.015159800448110893,0.9861654404435987
2016-11-04,-1,-0.0006128112311451158,-0.00039557099457367237,0.0012531015647403016,0.016118195144748996,0.9853653399579382
2016-11-08,-1,-0.0002991389051482462,-8.681454301501267e-05,0.0012531015647403016,0.016853401829298162,0.9850033483039079
2016-11-10,-1,-0.0003990801110071926,-0.0001993794804063296,0.0027240936080946626,0.016853401829298162,0.9844635592316788
2016-11-14,1,0.0011542073237517467,0.0011542543825718006,-0.0012245820722510225,0.01365034887607885,0.986344007374209
2016-11-16,-1,-0.0006032762851411924,-0.0001651136989541226,-0.0012245820722510225,0.013353044331661967,0.986354681075736
2016-11-18,1,0.0009627597354011521,0.0011108097108949604,-0.003433777481950557,0.013353044331661967,0.9856245789971615
2016-11-22,1,0.0037730153104729752,0.004007497016664467,-0.003433777481950557,0.009699486026980111,0.9888594393244546
2016-11-25,1,0.0037174467232671685,0.003878182828177662,-0.003433777481950557,0.008574386218506012,0.9889578572120847
2016-11-29,1,0.004435966175355443,0.0047773417255905365,-0.00483347356750645,0.008574386218506012,0.9885165495581434
2016-12-01,1,0.0016242760569180337,0.0016353338744663742,-0.004376188118057887,0.008574386218506012,0.9911454653372797
2016-12-05,1,0.0027194852519120847,0.0029093768556619,-0.004376188118057887,0.006799682274180008,0.9918489404222423
2016-12-07,1,0.003983092721831651,0.004347654018167701,-0.00824958261011945,0.005573577469821482,0.9919366212711289
2016-12-09,1,0.003941278367429314,0.004300651919267429,-0.004376188118057887,0.005407079426108309,0.9929842322710498
2016-12-13,1,0.003567777318741036,0.0038559817953101854,-0.006046285334293794,0.005407079426108309,0.9929969527122147
2016-12-15,1,0.003986022603857659,0.004432138807709787,-0.005402074846705188,0.005407079426108309,0.9934714375503327
2016-12-19,1,0.003923198414231013,0.004400853736220666,-0.005402074846705188,0.005407079426108309,0.9941289379699934
2016-12-21,1,0.00410679668692482,0.004593511320015942,-0.005402074846705188,0.005407079426108309,0.9939753107299164
2016-12-23,1,0.003721232038413822,0.004110129958028412,-0.005402074846705188,0.006113169983001525,0.993630214924522
2016-12-28,1,0.0035966901862720876,0.003992284321020202,-0.004762701407045391,0.006113169983001525,0.9924231556886859
2016-12-30,1,0.0030016270453101035,0.003316452984646271,-0.005402074846705188,0.006113169983001525,0.9917379186686495
2017-01-04,1,0.0027570939749710682,0.003046343992629358,-0.0060828952896291,0.007180757537505428,0.9907717121249743
2017-01-06,1,0.002577136579884378,0.002876202389233546,-0.005402074846705188,0.007180757537505428,0.9914754711964269
2017-01-10,1,0.0025287953119466737,0.002780311402570371,-0.005402074846705188,0.010156496018794927,0.9906969761006926
2017-01-12,1,0.0023016995266363968,0.0025155382761886808,-0.00597682484921871,0.010156496018794927,0.9902703539394259
2017-01-17,1,0.002076186954236933,0.002243156337953759,-0.005372808223029041,0.011248175304072253,0.9898740786204929
2017-01-19,1,0.0015220368503043509,0.001585698692892207,-0.0021694138823256885,0.014341830078953692,0.9882639558543383
2017-01-23,1,0.0015713610754093316,0.0016403553327605477,-0.0019103788092597143,0.014341830078953692,0.9882860053446013
2017-01-25,1,0.002079929453991797,0.0021999342642347666,-0.006225131333039957,0.011578323307598209,0.9884581421573391
2017-01-27,1,0.0030919147488148706,0.0033572375491134113,-0.006225131333039957,0.008091042166931694,0.9902393583029123
2017-01-31,1,0.0016324686875041473,0.0016507308826360177,-0.001833475461573741,0.011578323307598209,0.9902445944904139
2017-02-02,1,0.0008154276079094817,0.0009550646167369521,-0.002048399745345207,0.008091042166931694,0.991217221054611
2017-02-06,1,0.0009801919902373475,0.0010835279378632013,-0.004502162839634049,0.00862285071583863,0.9907280731969701
2017-02-08,1,0.002223981260461377,0.0023352487108085195,-0.004502162839634049,0.006502791011366714,0.9914010413696733
2017-02-10,1,0.0016066059724851867,0.0016210688392972977,-0.004502162839634049,0.006945966767071057,0.9913371360485965
2017-02-14,1,0.002131445396820421,0.002233445351690816,-0.004502162839634049,0.006945966767071057,0.9916230289354838
2017-02-16,1,0.0034783352380540625,0.003747806961736874,-0.00530649178208252,0.006599221903653739,0.9930224566927278
2017-02-21,1,0.003621880437052843,0.0039207998189936324,-0.005517482396596059,0.006599221903653739,0.9918874180758221
2017-02-23,1,0.002947746304978031,0.0031444161726821903,-0.005340218857812604,0.006599221903653739,0.9926170059491828
2017-02-27,1,0.003100849106664105,0.0033226667181724613,-0.005340218857812604,0.004565996770826096,0.9924906350870513
2017-03-01,1,0.0035174563846605196,0.0037970702754012665,-0.005340218857812604,0.004565996770826096,0.9929923247874396
2017-03-03,1,0.002996484823871399,0.003189674504600179,-0.004554710110020408,0.004565996770826096,0.9935067092135419
2017-03-07,1,0.002192768356209308,0.002205176272495052,-0.005008573360283196,0.003633285984038421,0.993697457404347
2017-03-09,1,0.001316338411173267,0.001454890382969262,-0.0074630948408865505,0.003633285984038421,0.9934556252492082
2017-03-13,1,0.0011727572114808682,0.0013157058089804427,-0.0074218780076790265,0.003508773968601956,0.993673480739195
2017-03-15,1,0.0012304974471906188,0.0013739242520451496,-0.008862845324164498,0.0017943388167285042,0.9926227395886995
2017-03-17,1,0.0011703382303171748,0.0013086499831853917,-0.008540158053306062,0.00030659330696074173,0.9930014343756968
2017-03-21,1,0.0006336838547085426,0.0008181305185769711,-0.0074218780076790265,0.0017943388167285042,0.9933036284744264
2017-03-23,0,-4.779978083851468e-05,0.0002403484131973478,-0.008540158053306062,0.0017943388167285042,0.9924234876022254
2017-03-27,0,-0.00011964499558160123,0.00014928437601118547,-0.008540158053306062,0.003508773968601956,0.9915748713925422
2017-03-29,-1,-0.00032159045902831055,-1.104869587012264e-05,-0.00977145913761232,0.0021052826848027067,0.9913737902018662
2017-03-31,-1,-0.0006866409463089878,-0.0003060501301616065,-0.013513561060784931,0.0006071337163525521,0.9907734411572329
2017-04-04,-1,-0.0008291828563130352,-0.00045252167566081506,-0.013513561060784931,0.0013041261988671407,0.9907236863167979
2017-04-06,-1,-0.0016794608004506461,-0.0011821829454099326,-0.010259948889620615,0.0013041261988671407,0.9916596093369124
2017-04-10,-1,-0.0016262986968288737,-0.0011886597226366533,-0.010259948889620615,0.0032347874424190418,0.9902198665840954
2017-04-12,-1,-0.0024970116392059936,-0.001985571881748284,-0.005935665985758529,0.007009837541953945,0.9907276831794483
2017-04-17,-1,-0.00267549765401054,-0.002154338984691671,-0.005935665985758529,0.009176612084204012,0.9894746621904398
2017-04-19,-1,-0.001152219343278835,-0.000914867967122315,-0.007927886955641818,0.008456604622345387,0.9886581055083459
2017-04-21,-1,-0.0005184164935244597,-0.0003863615761332727,-0.003116735803384027,0.009700593294219564,0.9886849705895862
2017-04-25,1,0.0002624146195677306,0.0002984595373089339,-0.003116735803384027,0.009698155405183387,0.989396068658448
2017-04-27,-1,-0.0018007624767968735,-0.0014176800282939544,-0.00019900613116594984,0.009698155405183387,0.989333789410574
2017-05-01,-1,-0.002065805178095765,-0.0016872095658216504,0.0010923147943452925,0.010465245575792237,0.9885616133080614
2017-05-03,-1,-0.0019005188704018486,-0.0015810649055584053,0.0014870623636759378,0.010684605310490695,0.9865805015091796
2017-05-05,-1,-0.001910961410817951,-0.0015878835781038252,-0.0030540640536235986,0.010684605310490695,0.9850117805589307
2017-05-09,-1,-0.0007937975229379093,-0.000594997741837508,-0.0030540640536235986,0.010684605310490695,0.9858499714495225
2017-05-11,-1,-0.0007721676961645112,-0.0005840545077937677,-0.0051409722310367745,0.012776267076599627,0.9833176524485618
2017-05-15,-1,-0.00032142375735920946,-0.00015433064964297044,-0.0051409722310367745,0.015163566424283027,0.9829630538544918
2017-05-17,-1,-0.0010505736851973602,-0.0008140915936398031,-0.00635316009124323,0.015163566424283027,0.984014751767441
2017-05-19,1,0.00029934075387904084,0.0003741260329430364,-0.00635316009124323,0.012116509962488281,0.9856644845455972
2017-05-23,1,0.0004194437217224101,0.0004898043146828858,-0.014593876390285802,0.012116509962488281,0.9850967095987513
2017-05-25,1,0.00016115986191425765,0.0002880705246488549,-0.014593876390285802,0.015066392496657527,0.9843311748201609
2017-05-30,1,0.0010409765809982472,0.001078481495585912,-0.014979985201603891,0.012116509962488281,0.9837263983576462
2017-06-01,-1,-0.0005464182810655223,-0.0003001818186140298,-0.014979985201603891,0.013799975557067409,0.9846914238442042
2017-06-05,-1,-0.002053011030006909,-0.0016464674014950815,-0.014593876390285802,0.013799975557067409,0.9854194190957483
2017-06-07,-1,-0.0012300339548208207,-0.0009132372370985161,-0.014593876390285802,0.013799975557067409,0.9856143974223164
2017-06-09,-1,-0.002353327360742425,-0.0019024679232724593,-0.012652341677474714,0.013799975557067409,0.9877234536128338
2017-06-13,-1,-0.0011925388027859243,-0.0008764187038762126,-0.012652341677474714,0.010777765685853286,0.988478298119394
2017-06-15,-1,-0.0019069302783306426,-0.0015123218470514078,-0.0069597565261009416,0.013762227234467073,0.9882011783748003
2017-06-19,-1,-0.0011998010569586274,-0.0009269943029225933,-0.007234897027034158,0.013762227234467073,0.9885774999255135
2017-06-21,-1,-0.0007465336162676987,-0.0005818620584892983,-0.006603027369399234,0.013762227234467073,0.9890394009105694
2017-06-23,-1,-0.0006739097411566658,-0.000468323970208674,-0.010121599123477633,0.008180992957919133,0.9888781779170851
2017-06-27,-1,-0.0023066846848092304,-0.0019125825054385859,-0.005365652836318194,0.013762227234467073,0.9893062271499041
2017-06-29,-1,-0.0024758032288665875,-0.002066955813992537,-0.005365652836318194,0.010921505367479788,0.9901651637483115
2017-07-03,-1,-0.0027158980330342242,-0.0023259677479824147,-0.004241223766392976,0.010921505367479788,0.9911053946527548
2017-07-06,-1,-0.0023902291538414368,-0.0020152476961766506,-0.004332937266704047,0.007234085668923371,0.9920047067255404
2017-07-10,-1,-0.0013330950854482863,-0.0011120880340638483,-0.004332937266704047,0.007234085668923371,0.9922988713154457
2017-07-12,1,0.000607991016185343,0.0007275015128436989,-0.006603027369399234,0.0024439984673146646,0.9921814915030183
2017-07-14,1,0.0013689313253583382,0.0016128729363080584,-0.009908458152494021,0.0024439984673146646,0.9912241780378895
2017-07-18,1,0.0008990046370038383,0.001047966247517096,-0.009908458152494021,0.0069236770791845145,0.9906337617705588
2017-07-20,1,0.0009360639034966685,0.0011086765640043715,-0.01150757790565208,0.0033953511576030283,0.9897963002213044
2017-07-24,1,0.00036857557774524444,0.0005095507955409639,-0.005713899985503184,0.004185024725255123,0.9911094024444144
2017-07-26,1,0.0011905111538168213,0.0014250345883583635,-0.005713899985503184,0.001531114349338201,0.9910803229797638
2017-07-28,1,0.0006076780523026782,0.0007732349467549932,-0.0031230095343183053,0.0023729323725918705,0.9919213156436955
2017-08-01,1,0.00046400318932625877,0.0006059370751518307,-0.002485800144025498,0.003384934946050346,0.9918490192973882
2017-08-03,0,-5.815822141678131e-05,2.287306509045589e-06,-0.0014605411246639854,0.007967216060507713,0.9897748758319208
2017-08-07,1,0.0005926507366702001,0.0007606206151195323,-0.001893433171468643,0.0065851586605265395,0.9895364574842215
2017-08-09,1,0.00019007077297825533,0.0003005199981856879,-0.004314254393358311,0.0065851586605265395,0.9889517154942309
2017-08-11,-1,-4.527618078304453e-05,-1.3415016660261298e-06,-0.004314254393358311,0.0065851586605265395,0.9889028040808998
2017-08-15,1,0.0007826744405590191,0.000930314288717483,-0.004314254393358311,0.003384934946050346,0.9899822559509546
2017-08-17,-1,-0.0002885763206943482,-0.00028532694002138004,-0.001893433171468643,0.0065851586605265395,0.9905243592262496
2017-08-21,-1,-5.974606808726156e-05,-1.0421565807255067e-05,-0.001893433171468643,0.010330173245830299,0.9898654493428498
2017-08-23,1,0.0006131295642887967,0.0007539979689925669,-0.004314254393358311,0.007050289858721908,0.9897585406823214
2017-08-25,1,0.00042023028099941596,0.0005173155275334173,-0.006462204626191324,0.008175560660695677,0.989029699441643
2017-08-29,1,0.0004640462821817818,0.0005422771406634575,-0.006462204626191324,0.009373440209115498,0.98876231978182
2017-08-31,1,0.001996824551014952,0.002248976015456373,-0.006462204626191324,0.008480363702231982,0.9908110363815595
2017-09-05,1,0.0010450421625170217,0.001100693543698067,-0.004522187781963779,0.008173779580082556,0.9916703191168152
2017-09-07,0,-6.607771980191496e-05,2.9729734960080194e-05,-0.0009124292730810763,0.010681568532514035,0.9915720333546836
2017-09-11,1,0.0005928735557589762,0.0005983551263682524,-0.0009124292730810763,0.00891640647669816,0.9930820633012722
2017-09-13,1,0.0006514396080515073,0.0006653964561370703,0.00021141790930130383,0.00891640647669816,0.9928412825297507
2017-09-15,1,0.0018424759966609201,0.0020600670673663808,0.00021141790930130383,0.008173779580082556,0.9940367332855174
2017-09-19,1,0.0019892295074976254,0.0021785400347673284,-0.0006258675759220134,0.006961803976165769,0.994522834956121
2017-09-21,1,0.0009950987043296526,0.0010026171318179731,-0.0006258675759220134,0.006961803976165769,0.9953465249811813
2017-09-25,1,0.0004666994993018218,0.000541936560890553,-0.0006204415000438616,0.006289431773830495,0.99611555779966
2017-09-27,1,0.0008820308002122041,0.0009081108286743693,-0.0018046351342420333,0.006289431773830495,0.9956811396141598
2017-09-29,1,0.0019564668198559358,0.0021442169623557073,-0.0018046351342420333,0.006738154054687865,0.9957297591574235
2017-10-03,1,0.0017357441161507667,0.0018879272898611227,-0.0006204415000438616,0.006738154054687865,0.9959391499628764
2017-10-05,1,0.0028796020158667526,0.003227512939143253,-0.001915187584704514,0.00299974763653524,0.9960688555632703
2017-10-09,1,0.0023768005107339322,0.0026014784957791018,-0.0018989093570700585,0.0054873808924709505,0.9960650034059462
2017-10-11,1,0.0033698776201658734,0.003802982864011734,-0.002210296870347025,0.0034814868820331455,0.9954698510014683
2017-10-13,1,0.0036645525012941028,0.004152905454186648,-0.0023309877239513746,0.0023777701091796844,0.9937615038270728
2017-10-17,1,0.0036050146636090515,0.004092103550166483,-0.002210296870347025,0.004963287773409177,0.9941905427427978
2017-10-19,1,0.0037537584825774423,0.0043203350052866425,-0.002497371812635611,0.005633855834350164,0.9932335667073882
