JNU-Tangyin/eata/results/Batch4_SP500/Batch4_SP500-T.csv
Date,Action,Predicted_Q25,Predicted_Q75,Actual_Q25,Actual_Q75,RL_Reward
2010-12-14,0,-4.3324870880705245e-05,0.0,-0.003843466449618558,0.00288936785425394,0.9938910338543933
2010-12-16,1,0.00023424514210903467,0.0003689943927589078,-0.0022294776014440887,0.00288936785425394,0.9938098965526964
2010-12-20,-1,-0.000253766387674135,-4.5164709790549025e-05,-0.002424138678989921,0.00288936785425394,0.993732807944807
2010-12-22,1,0.00020696646010276128,0.0003157230801433238,-0.0035205335212009593,0.0033956407192714637,0.993638731095256
2010-12-27,1,0.00031529833141667225,0.00041142954372975956,-0.0035205335212009593,0.004817091450196683,0.9931093050531289
2010-12-29,1,0.00015847178275996186,0.0002860908834941151,-0.005220296415752009,0.004817091450196683,0.9921655137373145
2010-12-31,1,0.0006390790687393242,0.0006738028553741786,-0.011511988467443977,0.004817091450196683,0.9910414007701291
2011-01-04,1,0.0009266200685250716,0.0009629314097999413,-0.011511988467443977,0.0038212322666495305,0.9908046426343874
2011-01-06,-1,-0.00044707174808766576,-0.0002443820231834943,-0.007955004082018801,0.004817091450196683,0.9919052218053801
2011-01-10,-1,-0.0012432546488612296,-0.00099926779190695,-0.0035205335212009593,0.004817091450196683,0.9930640880489249
2011-01-12,-1,-0.002711259893980986,-0.0022223567098486087,-0.0022206000422482003,0.006384348665128905,0.9928268010658596
2011-01-14,0,0.0,0.0,-0.0022206000422482003,0.006007156770180273,0.9937343122505196
2011-01-19,0,0.0,0.0,-0.0022237040379511686,0.006007156770180273,0.9934215036147388
2011-01-21,0,0.0,0.0,-0.001229375516013663,0.0073364952630477175,0.9933005701610136
2011-01-25,0,0.0,0.0,-0.006315310934128985,0.003608888710743861,0.9931105324696157
2011-01-27,0,0.0,0.0,-0.0044503908299875035,0.007180766016910438,0.9936276674195604
2011-01-31,0,0.0,0.0,-0.0044503908299875035,0.007677268264561875,0.9938441610656632
2011-02-02,-1,-0.0005406392969426869,-0.00044485160567300764,-0.0023223417892070273,0.007180766016910438,0.9946193205616239
2011-02-04,-1,-0.0009579911622563214,-0.0008109623593237185,-0.0044503908299875035,0.004170645744970313,0.9948410241559956
2011-02-08,-1,-0.0007798949806619547,-0.0006721239600961983,-0.0044503908299875035,0.007677268264561875,0.9932844336016418
2011-02-10,-1,-5.223154965720108e-06,-4.417904623901063e-06,-0.006084326912250656,0.007180766016910438,0.9933591593484971
2011-02-14,-1,-0.00011309934938813395,-9.140825459698593e-05,-0.007531570192748498,0.004170645744970313,0.9926757515053815
2011-02-16,-1,-0.00026466114855161504,-0.00022667126526048086,-0.007970796529717975,0.007180766016910438,0.991609276398879
2011-02-18,1,0.00020263077190412843,0.00024553130609157516,-0.007970796529717975,0.007862981981218533,0.9910702842777654
2011-02-23,-1,-0.0006629156342799433,-0.0005777804655196667,-0.006555486685040122,0.007862981981218533,0.9917821404256334
2011-02-25,-1,-6.000468676011863e-05,-5.838574892435724e-05,-0.006555486685040122,0.011009742480494567,0.9910085538025295
2011-03-01,-1,-0.00036305860292516436,-0.00032990832777047576,-0.005809393450503805,0.012516757063122545,0.9899252333455665
2011-03-03,-1,-0.0005078848321215213,-0.0004396955277974944,-0.005809393450503805,0.014411425800391613,0.9889225822398928
2011-03-07,-1,-0.0006322031999787228,-0.0005528102431003771,-0.005347628189236775,0.014411425800391613,0.9889420756842621
2011-03-09,0,0.0,0.0,-0.005809393450503805,0.012143550938059673,0.9901509886696231
2011-03-11,1,4.789810665722499e-05,5.80412221396683e-05,-0.0038576630278947177,0.012143550938059673,0.9903493762030231
2011-03-15,-1,-0.0004951966481713727,-0.0004435595150704825,-0.002520269239479731,0.012143550938059673,0.9909580961706933
2011-03-17,-1,-0.0008853453927152295,-0.0007681901141199125,-0.002520269239479731,0.011009742480494567,0.9918221535907175
2011-03-21,-1,-0.0003775787311893462,-0.0003175206727544312,-0.0038576630278947177,0.011117729285481283,0.99176017858864
2011-03-23,-1,-0.00035219358767837444,-0.00030555925712308027,-0.003926876213391935,0.011117729285481283,0.9918135765901218
2011-03-25,1,0.0004424669711982766,0.0005062160282088853,-0.004662601824897861,0.007146140946262625,0.9920004350378098
2011-03-29,1,0.0020022039155681943,0.0022972995042107158,-0.004662601824897861,0.007146140946262625,0.9925892200704004
2011-03-31,1,0.002111856509974477,0.0024255855527854954,-0.0060032422976390816,0.005065676308150558,0.9931250223516832
2011-04-04,1,0.0021458490779228357,0.002456470830515275,-0.0060032422976390816,0.007146140946262625,0.9924052891716174
2011-04-06,1,0.0017242552114984477,0.0019571344324059324,-0.0060032422976390816,0.007146140946262625,0.9919060131561193
2011-04-08,1,0.0017537732980733188,0.0019807292286895452,-0.0060032422976390816,0.005704904084679048,0.9920213849466143
2011-04-12,1,0.001061017682565262,0.0011535935455228683,-0.006446336218685027,0.011105262903014996,0.9915681687873751
2011-04-14,1,0.0012214176364557976,0.0013596643849634478,-0.006271321779260441,0.011105262903014996,0.9914725704577264
2011-04-18,0,0.0,0.0,-0.006271321779260441,0.008925483589158139,0.9918896137758353
2011-04-20,0,0.0,0.0,-0.004995275031215116,0.008925483589158139,0.9917399811305069
2011-04-25,0,0.0,0.0,-0.007367712930126131,0.00687904276395818,0.992344289974795
2011-04-27,0,0.0,0.0,-0.007367712930126131,0.0028823238558214424,0.993358188150242
2011-04-29,0,0.0,0.0,-0.005668422590697642,0.004107794316986477,0.9933693564939153
2011-05-03,0,0.0,0.0,-0.007367712930126131,0.004107794316986477,0.993504180991877
2011-05-05,0,0.0,0.0,-0.007367712930126131,0.004107794316986477,0.9936709410325523
2011-05-09,0,0.0,0.0,-0.008112546947211415,0.004107794316986477,0.9933280320056199
2011-05-11,0,0.0,0.0,-0.007367712930126131,0.002817603477742186,0.994281518075213
2011-05-13,1,0.0017045000609843485,0.0019273526045470825,-0.006727991115461946,0.002817603477742186,0.9945747586382598
2011-05-17,1,0.00030057501154806575,0.00035908180703651566,-0.006727991115461946,0.004107794316986477,0.9942736741331596
2011-05-19,0,0.0,0.0,-0.006727991115461946,0.004107794316986477,0.9940049674750605
2011-05-23,0,0.0,0.0,-0.0054551819858095815,0.00588316888111924,0.9939649917463502
2011-05-25,0,0.0,0.0,-0.006660560061354966,0.00588316888111924,0.9937246943240163
2011-05-27,1,0.001245352612316664,0.001437508969559799,-0.007823481155904243,0.0063615526721513835,0.9931780351054816
2011-06-01,1,0.0010093442077244823,0.0011344548377979007,-0.006660560061354966,0.007125434468708366,0.9935421946285715
2011-06-03,1,0.0003497233922494442,0.0003586150955912745,-0.0025304885975702632,0.007766693270432804,0.9937259127483179
2011-06-07,1,8.643882729612168e-05,0.00011748574339069765,-0.002479023885543466,0.007766693270432804,0.9935100567348115
2011-06-09,1,1.3418838388201026e-05,5.188547688423704e-05,-0.003456724113770411,0.007766693270432804,0.9934137105058859
2011-06-13,0,0.0,0.0,-0.005734282058741515,0.007766693270432804,0.9931591421824583
2011-06-15,0,0.0,0.0,-0.005734282058741515,0.006565386474718736,0.9937875677678752
2011-06-17,1,0.00030142363204064805,0.00030440944324394573,-0.007491613168623827,0.005177426932036648,0.9936655979875937
2011-06-21,0,0.0,0.0,-0.007491613168623827,0.005341855289614272,0.9937609989166999
2011-06-23,0,0.0,0.0,-0.00664822274984983,0.005341855289614272,0.9942352270828076
2011-06-27,1,4.9557603161374165e-05,5.64630183724305e-05,-0.00664822274984983,0.002440077113560665,0.9944857514380641
2011-06-29,0,0.0,0.0,-0.008047687435405973,0.0013970354608288014,0.9940997452685694
2011-07-01,0,0.0,0.0,-0.008047687435405973,0.001082540833666768,0.9943225683920022
2011-07-06,0,0.0,0.0,-0.008047687435405973,0.0013970354608288014,0.9939144290202261
2011-07-08,1,8.97950410575753e-05,0.00012867005609886996,-0.009351581431095178,0.001632244990378185,0.9926047517486558
2011-07-12,-1,-0.00022859031121578912,-0.00014584517276265414,-0.00950141845241435,0.002543448851629641,0.989078303891348
2011-07-14,0,0.0,0.0,-0.012018908600141905,0.005651970503821202,0.9868925884604398
2011-07-18,0,0.0,0.0,-0.012018908600141905,0.007450542070253243,0.9862334211875509
2011-07-20,-1,-0.0007338378592174257,-0.0005871173598639421,-0.012018908600141905,0.0094060850835072,0.9860003727412208
2011-07-22,-1,-0.0008622300758412643,-0.0007034217577231118,-0.018226914551224487,0.0094060850835072,0.984290687352363
2011-07-26,-1,-0.0029038203092046507,-0.002380170837963355,-0.018226914551224487,0.01400784399919762,0.9830374718823952
2011-07-28,-1,-0.00435277814362991,-0.0036378361829792235,-0.013557778198568234,0.015754591325364303,0.9826729080967676
2011-08-01,-1,-0.0030616998623869303,-0.0025696020915938183,-0.013557778198568234,0.015754591325364303,0.9828885455288386
2011-08-03,-1,-0.0034659008893206194,-0.002898442844729338,-0.018470793431437035,0.015754591325364303,0.9814891908547213
2011-08-05,-1,-0.005118645614049054,-0.004303165656687527,-0.013557778198568234,0.015754591325364303,0.9824792197879954
2011-08-09,0,0.0,0.0,-0.009025458669693561,0.013781240871533868,0.9855568471514978
2011-08-11,0,0.0,0.0,-0.009025458669693561,0.012527385438689809,0.9871447681002209
2011-08-15,-1,-0.00015006013579453307,-0.00013797527022402472,-0.009025458669693561,0.01231405979820637,0.987539715796183
2011-08-17,0,0.0,0.0,-0.009025458669693561,0.011160722804709963,0.9874710921875011
2011-08-19,0,0.0,0.0,-0.007797418813129439,0.01231405979820637,0.9881736407286525
2011-08-23,0,0.0,0.0,-0.008992265845708957,0.010125904111751398,0.9884936618390383
2011-08-25,-1,-0.002106842931803842,-0.0018876242569308018,-0.008992265845708957,0.009562310710366789,0.988724737769286
2011-08-29,-1,-0.0017181184055727844,-0.0015507372836428336,-0.008992265845708957,0.010995922991624047,0.9876424867172852
2011-08-31,-1,-0.003022026437445688,-0.0026931751824176365,-0.007797418813129439,0.010313128660442396,0.9893859434324552
2011-09-02,-1,-0.0031622284125627405,-0.00281950835750747,-0.011431635351539064,0.010313128660442396,0.988961062649492
2011-09-07,0,0.0,0.0,-0.011431635351539064,0.009970349825803606,0.9897297436819646
2011-09-09,0,0.0,0.0,-0.005913121783931644,0.009970349825803606,0.9905373924885754
2011-09-13,-1,-0.004681619751356448,-0.004295845973680863,-0.011431635351539064,0.009970349825803606,0.9884541459255021
2011-09-15,-1,-0.004468988706716276,-0.004118138762060758,-0.011431635351539064,0.009624718893263787,0.9886837040576297
2011-09-19,0,0.0,0.0,-0.006630612404301542,0.008096893561277402,0.9907300260681541
2011-09-21,0,0.0,0.0,-0.004424762837717203,0.006822132223555007,0.9916071133087465
2011-09-23,0,0.0,0.0,-0.004127565611983348,0.006822132223555007,0.9923338598420399
2011-09-27,0,0.0,0.0,-0.006002244958669555,0.0049536559110605945,0.9925496715133529
2011-09-29,0,0.0,0.0,-0.006002244958669555,0.0056318243925180325,0.9914343564229339
2011-10-03,0,0.0,0.0,-0.004366729152106648,0.006822132223555007,0.9914391636880651
2011-10-05,-1,-0.0025551751329408105,-0.002336743267375845,-0.006002244958669555,0.00802558894563337,0.9896582003417039
2011-10-07,-1,-0.002189581798319712,-0.002014025816610903,-0.00881436881676488,0.009863318042715861,0.9890660156828381
2011-10-11,-1,-0.0018616046812259396,-0.001730250623405486,-0.006002244958669555,0.009271946725568336,0.9903205960473763
2011-10-13,1,0.0006549634559336207,0.0008660843354213757,-0.00881436881676488,0.009271946725568336,0.9900049793156519
2011-10-17,1,0.0005537125967492369,0.0007477264256548111,-0.00881436881676488,0.009271946725568336,0.9895423744882513
2011-10-19,1,0.00095158655959575,0.0012258693390720518,-0.010747777101645796,0.009271946725568336,0.9892219937672797
2011-10-21,1,0.001016966683745025,0.001293687362692086,-0.010747777101645796,0.009271946725568336,0.9892755507691912
2011-10-25,-1,-0.0003607825611450714,-0.00030701947588601463,-0.009800634956172203,0.009271946725568336,0.9893279260172085
2011-10-27,1,0.0010383148135181953,0.0012499070023845593,-0.01101948507389662,0.008714796296374788,0.9899047783633665
2011-10-31,1,0.0008470776937863643,0.0010360300932283238,-0.009800634956172203,0.008714796296374788,0.9900425090313891
2011-11-02,0,0.0,0.0,-0.009577233134568718,0.008714796296374788,0.9897970258279535
2011-11-04,0,0.0,0.0,-0.008307528643541529,0.007082503608064738,0.9903444292602422
2011-11-08,0,0.0,0.0,-0.008307528643541529,0.006891819731760743,0.9904283220720896
2011-11-10,1,0.0005811233018584739,0.0007138948197855382,-0.008307528643541529,0.006058082907899971,0.9907098257561457
2011-11-14,0,0.0,0.0,-0.006874283962053213,0.004593323128865357,0.991315414606731
2011-11-16,0,0.0,0.0,-0.006410186256330877,0.004593323128865357,0.9917828960404047
2011-11-18,-1,-0.0007083957183511382,-0.0005903355695641736,-0.005791253872297482,0.004593323128865357,0.9918960976253723
2011-11-22,-1,-0.0003931011649564374,-0.00026350643338589693,-0.004067319294713349,0.006276200275701452,0.9918469034006313
2011-11-25,0,0.0,0.0,-0.0006902787762640835,0.0072813725974879995,0.9920728766427679
2011-11-29,0,0.0,0.0,-0.001269671604624162,0.006690650270891887,0.9928090730900311
2011-12-01,0,0.0,0.0,-0.0006902787762640835,0.006690650270891887,0.9941885669790353
2011-12-05,1,0.00024619553919005973,0.00046238888810277057,-0.0006902787762640835,0.006406051230943871,0.9946430579085018
2011-12-07,1,0.00029249405041506125,0.0005050506909421083,-0.0014883654175064597,0.005963216561250632,0.9937978100289246
2011-12-09,1,0.000435512801183378,0.0006753544521003504,-0.0007671225150708139,0.005813833761976888,0.9948416000138516
2011-12-13,1,0.0005395971144559572,0.0007920339176804108,-0.0007671225150708139,0.006406051230943871,0.9944175611709474
2011-12-15,1,0.000617188900857971,0.0008867556671177195,-0.0007517965411095979,0.006406051230943871,0.9945636646287095
2011-12-19,0,0.0,0.0,0.0010658925401912306,0.006406051230943871,0.9941625004024339
2011-12-21,0,0.0,0.0,-0.0007517965411095979,0.005765012183783915,0.9947974015417191
2011-12-23,0,0.0,0.0,-0.0011543815514891349,0.004408541820698851,0.9950538499018377
2011-12-28,0,0.0,0.0,-0.0021463878821378303,0.00407476198614042,0.9937526853044932
2011-12-30,0,0.0,0.0,-0.0021463878821378303,0.00407476198614042,0.993807351733796
2012-01-04,1,0.00047198826292433585,0.0006596441411568375,-0.0021463878821378303,0.004747631819170474,0.9936866643182588
2012-01-06,1,0.0001248267637553345,0.0002838090381460258,-0.000920361764645621,0.005524705059994416,0.9945519993955022
2012-01-10,1,0.00043247723361807813,0.0006479885217894813,-0.000914368764146263,0.005524705059994416,0.9947612930098769
2012-01-12,1,0.00025661626322464383,0.0003932297810250552,-0.0021463878821378303,0.0043337863997484,0.9948857473560211
2012-01-17,0,0.0,0.0,-0.0016508531855166802,0.0043337863997484,0.994750403715074
2012-01-19,1,0.0012517806639761367,0.0014168266696241703,-0.003954402820522237,0.005109039908661614,0.9947013900480928
2012-01-23,0,0.0,0.0,-0.0019999361437792085,0.0055714067745518,0.994215040495219
2012-01-25,0,0.0,0.0,-0.0012439143495690007,0.006001612983325234,0.994524694377971
2012-01-27,0,0.0,0.0,-0.0007491905319392129,0.006001612983325234,0.996030646816868
2012-01-31,0,0.0,0.0,-0.0007491905319392129,0.005685741296214267,0.9960799477927226
2012-02-02,0,0.0,0.0,-0.0007491905319392129,0.005428062547473806,0.9962653330318336
2012-02-06,1,2.4640778510420837e-05,6.31571269915919e-05,-0.0012439143495690007,0.005166178248236272,0.9959838564616819
2012-02-08,1,0.00031778912778339987,0.00032528525027037314,-0.0012439143495690007,0.005166178248236272,0.9957691628673963
2012-02-10,0,0.0,0.0,0.00041113158042808837,0.0058409826709778755,0.9952664415511638
2012-02-14,1,0.00022428639726377128,0.0002345234215667251,-0.0007442322029344987,0.0058409826709778755,0.9951620838641079
2012-02-16,-1,-6.8775223319079e-05,-5.272613378731717e-06,-0.0006449226508788255,0.005968739164052567,0.995280479522915
2012-02-21,1,0.00044819978631858705,0.0004795290764158921,9.933036063893095e-05,0.0058409826709778755,0.9957575442168884
2012-02-23,1,0.000567281814575458,0.0006188764823161479,9.933036063893095e-05,0.005651224691118984,0.9959419322766292
2012-02-27,1,0.00018532553352555714,0.00020888209098496365,0.0005855990329854362,0.005865189348766718,0.9952411474332953
2012-02-29,1,0.00036271320532882184,0.000362981765326884,-0.004241772961270469,0.005865189348766718,0.9949450461603885
2012-03-02,1,0.0005340179252559663,0.0005603915522966584,-0.004734624535336454,0.005112522533698934,0.9951428106265863
2012-03-06,1,0.0005743348538433524,0.0006154433035193735,-0.004241772961270469,0.005865189348766718,0.995387283087451
2012-03-08,1,0.0008263773513142341,0.0009137713804064405,-0.004734624535336454,0.005865189348766718,0.9945835826408511
2012-03-12,1,0.0010571390585831367,0.0011692837078766394,-0.005766066361355537,0.004431116637279277,0.9937713518874757
2012-03-14,0,0.0,0.0,-0.005085317188091331,0.004851138777331345,0.9932947604355776
2012-03-16,0,0.0,0.0,-0.0067062651054254525,0.004431116637279277,0.9930778481876817
2012-03-20,1,0.0007430572450226434,0.0008295216682336011,-0.0067062651054254525,0.005101939498707159,0.9926664414055892
2012-03-22,0,0.0,0.0,-0.0067062651054254525,0.005101939498707159,0.9927855243327501
2012-03-26,0,0.0,0.0,-0.008288224618363047,0.005101939498707159,0.9913188221544519
2012-03-28,0,0.0,0.0,-0.005612637025737196,0.007570263860678958,0.9908710722174862
2012-03-30,0,0.0,0.0,-0.005424415209422424,0.0077964784755540015,0.9904288458723345
2012-04-03,0,0.0,0.0,-0.005424415209422424,0.0077964784755540015,0.9905523424220333
2012-04-05,0,0.0,0.0,-0.005286786950132162,0.0077964784755540015,0.9912760538122147
2012-04-10,0,0.0,0.0,-0.0003951546491975249,0.0077964784755540015,0.9923024114761201
2012-04-12,0,0.0,0.0,-0.0015867807793130055,0.007154041753825861,0.9926330800116135
2012-04-16,0,-0.00015598530953712475,0.0,-0.000900290648705893,0.0077964784755540015,0.9925117094415984
2012-04-18,-1,-0.0003400981303121975,-0.00023574468878551232,-0.0025390679756883286,0.007154041753825861,0.9926215136431821
2012-04-20,0,0.0,0.0,-0.0025390679756883286,0.007947914538110227,0.9921388867918554
2012-04-24,0,0.0,0.0,-0.002008716055489776,0.007154041753825861,0.9941508336354735
2012-04-26,0,0.0,0.0,-0.0032065403982379573,0.007154041753825861,0.994592059660139
2012-04-30,0,0.0,0.0,-0.0032065403982379573,0.005273610978884981,0.9948656130226298
2012-05-02,0,0.0,0.0,-0.00340919261596654,0.007663760479776906,0.9944928498493886
2012-05-04,0,0.0,0.0,-0.00340919261596654,0.007663760479776906,0.9942156590126505
2012-05-08,0,0.0,0.0,-0.00340919261596654,0.008732872017585226,0.9936307019649852
2012-05-10,0,0.0,0.0,-0.00340919261596654,0.008732872017585226,0.9933209561672482
2012-05-14,1,0.000999680965736718,0.0010026830910638738,-0.00340919261596654,0.008732872017585226,0.9935811036237879
2012-05-16,1,0.0008238481516456416,0.0008358622377563241,-0.0026455705015111797,0.01009243124903257,0.9931506637448562
2012-05-18,1,0.0016801780215341964,0.0018343341718681956,-0.0026455705015111797,0.008732872017585226,0.9935860153936074
2012-05-22,1,0.0014576173341783877,0.0015801830822767603,-0.0027131212407540406,0.008732872017585226,0.9934882640774935
2012-05-24,1,0.0017295395515635249,0.001906670370124412,-0.0027131212407540406,0.00800339387044815,0.9934086475692141
2012-05-29,1,0.0019666134851903383,0.002174737859520451,-0.0033324418851554648,0.007968861535053672,0.9931910600326799
2012-05-31,1,0.0016356467722919627,0.001751350918800212,-0.0030991716908986564,0.006346187133142321,0.993479034779819
2012-06-04,1,0.001653178781679876,0.0017780977553397738,-0.0023390410434909496,0.00854071630472507,0.9932806433374208
2012-06-06,1,0.0021567261877073318,0.0023657671731459767,-0.004749167622874683,0.006409870822081551,0.9933101645627437
2012-06-08,1,0.002221560545041811,0.0024435615597762656,-0.004749167622874683,0.005763392346289219,0.9938427256121519
2012-06-12,1,0.0027081697917413034,0.003005078407549809,-0.0051904870642674366,0.004418261753664826,0.9935823762761495
2012-06-14,1,0.00306627682231803,0.0034001536896095122,-0.005707494770662027,0.004418261753664826,0.9932263870155982
2012-06-18,1,0.002740052665270596,0.0030138664200823656,-0.005707494770662027,0.005763392346289219,0.9932580408787524
2012-06-20,1,0.0017276156565959675,0.0017870416494138947,-0.006288698395807418,0.006409870822081551,0.9923657490443201
2012-06-22,1,0.001264254089469675,0.0012861781907653224,-0.005707494770662027,0.006409870822081551,0.992682355858945
2012-06-26,1,0.0013199694037738794,0.001348996155191324,-0.0057408864380137275,0.008304334110405948,0.9910455912173243
2012-06-28,1,0.0017649898166945744,0.0018567368425976465,-0.0057408864380137275,0.011911132063257886,0.9892170865775977
2012-07-02,1,0.0023286862850932285,0.00248657915576114,-0.0057408864380137275,0.011742556622732377,0.9893598531867184
2012-07-05,1,0.0016376086796060464,0.0016816946369072705,-0.005862307647708934,0.011742556622732377,0.9893612887239157
2012-07-09,1,0.0017799927466082821,0.0018576011584561746,-0.005148034277742991,0.011742556622732377,0.9898974546618595
2012-07-11,1,0.001287645628856736,0.0012888597859329726,-0.004728778239016034,0.011742556622732377,0.9900102257564423
2012-07-13,1,0.0014852669416557016,0.0015255978872559528,-0.004725842208957516,0.01057035439161294,0.9906433404374219
2012-07-17,1,0.0018073965410113353,0.0018922580795836465,-0.004725842208957516,0.008438610065297768,0.99063820025458
2012-07-19,1,0.0011172540956420364,0.001135394549159313,-0.004150127449769954,0.007189800615261248,0.991835317429202
2012-07-23,1,0.001101509896637945,0.0011136584638953382,-0.004150127449769954,0.007189800615261248,0.9916526459275466
2012-07-25,1,0.0010095876960475106,0.0010226991582501634,-0.004150127449769954,0.004576079141892221,0.9931736359253163
2012-07-27,1,0.0019216104327633833,0.0020086200480502027,-0.004150127449769954,0.001742562943246562,0.9946092683079854
2012-07-31,1,0.0025959789543263095,0.002782200673667505,-0.004725842208957516,0.00019956353058545043,0.9943527688516883
2012-08-02,1,0.0023253191505299468,0.0024971156105957014,-0.004150127449769954,0.0008650812525840979,0.9948705260134804
2012-08-06,1,0.0021527302556133927,0.002288445073989109,-0.004150127449769954,0.000943390960763322,0.9948099806071329
2012-08-08,1,0.00200240198114668,0.0021243512773905368,-0.003814930141139215,0.003990108334754392,0.9946931915959651
2012-08-10,1,0.0020277489327055406,0.0021611031564835407,-0.0037405960657638138,0.003388401925468832,0.9949551269113438
2012-08-14,1,0.001517531531580489,0.0015690300688499979,-0.003582887459650197,0.003990108334754392,0.9953090601374637
2012-08-16,1,0.0014722367766862804,0.001521950095479883,-0.003582887459650197,0.004707975334201287,0.9939806741119069
2012-08-20,1,0.0007078213255408658,0.000768391207239481,-0.002506496570647998,0.0050206809333237686,0.9941425051748677
2012-08-22,1,0.0001283598930425514,0.00027846686524882566,-0.0015633279121315177,0.0050206809333237686,0.9942453439230781
2012-08-24,1,0.0005475827171263839,0.0006423129522530539,-0.0015633279121315177,0.0048033897943526435,0.9945148813646618
2012-08-28,-1,-0.00034802008881723687,-0.00011615271533073747,5.3441093890243174e-05,0.0048033897943526435,0.9943577857910135
2012-08-30,-1,-0.0010258280699799555,-0.0006512560559487558,-0.001612919263212503,0.004671546629908156,0.994137360469979
2012-09-04,-1,-0.0004740377926758431,-0.00020091240144389161,-0.0001967362050190926,0.004539957222728484,0.9943975827110151
2012-09-06,-1,-0.00030139005163076174,-2.4976504060916175e-05,-0.0001967362050190926,0.004539957222728484,0.9946381104579679
2012-09-10,-1,-0.0003841978196880431,-0.000106517870786503,-0.0030144233027961107,0.004539957222728484,0.9940990529327313
2012-09-12,-1,-0.0004082185546755648,-0.00011643594772910984,-0.0054428134510344055,0.004456394578427508,0.9935893075516384
2012-09-14,-1,-0.0004784588577233732,-0.00018728331040092296,-0.006351037398038603,0.0038810030606154745,0.9935866955901942
2012-09-18,1,0.00042632290263435526,0.0005706118299828969,-0.00867215447906898,0.0038810030606154745,0.9932258576198714
2012-09-20,1,0.0009265361238784056,0.0009884306758422574,-0.00867215447906898,0.004456394578427508,0.9926464419854195
2012-09-24,1,0.0011090875840601487,0.0011495844590772581,-0.011970719135018602,0.002305479925069244,0.9917556912056493
2012-09-26,1,0.0005626276574969944,0.0006895510738516388,-0.011970719135018602,0.002305479925069244,0.991393356805914
2012-09-28,1,8.187024516505574e-06,0.0001890289167789165,-0.011970719135018602,0.003939504175683026,0.9915974730638449
2012-10-02,1,6.760719642525878e-06,0.00019021763202646622,-0.011970719135018602,0.004689358157444635,0.9909606757527755
2012-10-04,1,0.0007973110656175229,0.0008736701784698321,-0.011970719135018602,7.57484681412103e-05,0.9908445201016478
2012-10-08,-1,-0.0005094677985178067,-0.0002511033700628942,-0.01229275869701072,0.000296060968298845,0.9907071967578136
2012-10-10,-1,-0.001006149798780088,-0.0007586850815026955,-0.01211071963278645,0.0041750993175414764,0.9906981457995625
2012-10-12,-1,-0.00266873680384353,-0.0022186150794071833,-0.007601791265756037,0.006146782844468913,0.9917315517914378
2012-10-16,-1,-0.0028290988125322407,-0.0023646639818499056,-0.007601791265756037,0.004925738578990405,0.9920564550936132
2012-10-18,-1,-0.0019935413627191196,-0.001647089413436594,-0.008308874462607349,0.0027134984270570654,0.9916090145233253
2012-10-22,-1,-0.0025966592726166544,-0.0021912455458497427,-0.007601791265756037,0.004087940924856353,0.9921161399312856
2012-10-24,-1,-0.003187617967912223,-0.0027157380150691374,-0.006632133619631283,0.006245381775760939,0.9913769859896064
2012-10-26,0,0.0,0.0,-0.008859490632432222,0.006245381775760939,0.9909222649155693
2012-11-01,0,0.0,0.0,-0.008859490632432222,0.006726060428651913,0.9909465621026278
2012-11-05,0,0.0,0.0,-0.008859490632432222,0.006726060428651913,0.9909802263985256
2012-11-07,0,0.0,0.0,-0.007845085521780577,0.006726060428651913,0.9922699734097258
2012-11-09,0,0.0,0.0,-0.006749863001305714,0.005259262426736357,0.9932727962318733
2012-11-13,0,0.0,0.0,-0.006749863001305714,0.006726060428651913,0.9927695473140016
2012-11-15,-1,-0.0025411685005516755,-0.00214374302812783,-0.006749863001305714,0.006726060428651913,0.9926479252460876
2012-11-19,-1,-0.002171532526043383,-0.0018061020180861042,-0.005307733941374245,0.00603805483584819,0.9934435577013303
2012-11-21,-1,-0.0021302583915092954,-0.0018006535184012704,-0.006749863001305714,0.006768336614271343,0.9928909290699618
2012-11-26,-1,-0.0012936219847670292,-0.0010962080777681027,-0.006749863001305714,0.00603805483584819,0.9935352014255392
2012-11-28,-1,-0.0018861533316103854,-0.0015773290739567849,-0.005307733941374245,0.00603805483584819,0.9937036045609242
2012-11-30,-1,-0.0018997134872797872,-0.0016219548847837034,-0.006749863001305714,0.004027349886051012,0.9935310866053009
2012-12-04,-1,-0.0026408532260373116,-0.002268762765629777,-0.005613568093562204,0.006768336614271343,0.9916084744390663
2012-12-06,-1,-0.002910974382592795,-0.0025175094386772653,-0.003896565840464468,0.006768336614271343,0.9911054912008324
2012-12-10,-1,-0.002382256945376823,-0.002080684556738703,-0.005954880611586774,0.006768336614271343,0.990229352039509
2012-12-12,-1,-0.001627173309523398,-0.001394188631844227,-0.005954880611586774,0.00490531938993719,0.9912593477572711
2012-12-14,-1,-0.002402936624240459,-0.0020800948052342298,-0.007381902190415161,0.00490531938993719,0.9911855964953402
2012-12-18,-1,-0.0018454952648371615,-0.0015959881270937787,-0.008257184862963797,0.003982973160228478,0.9911968040414174
2012-12-20,-1,-0.0009261390421183976,-0.0008802436030118279,-0.007381902190415161,0.0046771184288349876,0.9913106892457864
2012-12-24,-1,-0.0008182840025758832,-0.0008129311871536449,-0.004488076521605332,0.005064450883735496,0.9918189449785373
2012-12-27,-1,-0.0012956054158501222,-0.0012413681763727607,-0.004225517787685101,0.005311937083494898,0.9913616647926408
2012-12-31,-1,-0.00097004582068264,-0.0009569287472027737,-0.003843525615332667,0.005311937083494898,0.9913974571937936
2013-01-03,1,0.00010515651066626326,0.00022327552250495255,-0.003843525615332667,0.006304631966249282,0.9920198630565278
2013-01-07,1,0.000553897374853729,0.0007399684250065205,-0.006149035179632563,0.005620029082942673,0.9920024474422502
2013-01-09,-1,-0.0006021888371011836,-0.0005895477912139238,-0.004828717364049441,0.005620029082942673,0.9931251361745912
2013-01-11,-1,-0.00040918376727335003,-0.0003731909084975162,-0.004828717364049441,0.005620029082942673,0.9934322097906261
2013-01-15,-1,-0.0012254000857939114,-0.001141647077780141,-0.0024819464370161226,0.007421685911866817,0.9931906311893679
2013-01-17,-1,-0.0020856758811935,-0.001887255384934804,-0.00176816022574216,0.007421685911866817,0.9932591960334175
2013-01-22,-1,-0.001036015952952743,-0.0009814516244356136,-0.0038816446909238898,0.008191752316974863,0.9936756448114498
2013-01-24,-1,-0.0010307558286266813,-0.0009555855623093977,-0.0038816446909238898,0.008191752316974863,0.9935918577562141
2013-01-28,-1,-0.00034218808253340453,-0.00033603592011094153,-0.004651004644564977,0.008585579113526705,0.9931761184989302
2013-01-30,1,0.00017453072335367554,0.0002556526011100626,-0.0038816446909238898,0.008585579113526705,0.9937660488180563
2013-02-01,1,0.001722603280902788,0.0020582227362377294,-0.0038816446909238898,0.006346084659063347,0.9950711927992615
2013-02-05,1,0.0015129653235940483,0.0018182446814608716,-0.0038816446909238898,0.007423406926061582,0.9946872218429241
2013-02-07,1,0.0015734646854257152,0.0019176848507394403,-0.00176816022574216,0.008108171585156391,0.9946856039521488
2013-02-11,1,0.001379493229948491,0.0016770903839888468,-0.0025532685938459924,0.008108171585156391,0.9945505410265374
2013-02-13,1,0.001857192084753374,0.0022550614209098305,-0.002452699567351337,0.007320121359006318,0.9949829463675308
2013-02-15,1,0.002081003660473715,0.0025086175213445846,-0.0038526976027914114,0.007320121359006318,0.994148208063164
2013-02-20,1,0.0022243539014384743,0.0026979087440626207,-0.002452699567351337,0.007068067836470333,0.994712856957314
2013-02-22,1,0.002310295249344024,0.002785558423285135,-0.002452699567351337,0.007264207273270009,0.9946807494620905
2013-02-26,1,0.001892295053636591,0.0022840859656102263,-0.0013742220680425794,0.007264207273270009,0.99520855085292
2013-02-28,1,0.002416567817903824,0.002883812815395366,-0.00245227199939389,0.0063579839771488724,0.9953353474574912
2013-03-04,1,0.0031822385691253636,0.0037881124282438472,-0.00245227199939389,0.0078014458066356235,0.9944659134945569
2013-03-06,1,0.0026648881263711434,0.003169604389933912,-0.00245227199939389,0.0078014458066356235,0.9942704295651847
2013-03-08,1,0.002505092820108502,0.002929498102793028,-0.003266653394834487,0.007264207273270009,0.9938642705356603
2013-03-12,1,0.0020668456155832956,0.0023170561736428705,-0.003266653394834487,0.00795679752241666,0.9936380868687316
2013-03-14,1,0.0021069987035122178,0.002357945351797239,-0.0016455400105369628,0.008800190501147508,0.993745061616449
2013-03-18,1,0.001592944382726235,0.0018015730785007752,-0.0010998500863729152,0.008800190501147508,0.9938797008569114
2013-03-20,1,0.0011784495627790196,0.001267554015802108,-0.0016455400105369628,0.008800190501147508,0.9934946519693385
2013-03-22,1,0.0012985234771021566,0.0014335648109782538,-0.0016400786918196078,0.009994270718198082,0.9928114307497817
2013-03-26,1,0.001211554746393132,0.0013022865749060916,-0.003503964557234824,0.009852471366703577,0.9904857056940927
2013-03-28,1,0.0012012581466104863,0.0013120420296274461,-0.004772342811832827,0.009852471366703577,0.9901160773112779
2013-04-02,1,0.0017303077803233115,0.0018767017726808817,-0.004772342811832827,0.007621830539111002,0.9908089663383031
2013-04-04,1,0.002031361014221856,0.0022119817822054254,-0.001848340248503542,0.006983379953777206,0.9919363334363317
2013-04-08,1,0.0015337895688422973,0.0016559790836738948,-0.004627203581716991,0.006983379953777206,0.9917410813978904
2013-04-10,1,0.0021486109795445857,0.0023595448929984984,-0.004627203581716991,0.007330146937447313,0.9915406169273643
2013-04-12,1,0.0020066976115137992,0.0021608593994287884,-0.006002411312059276,0.006983379953777206,0.9910952934587235
2013-04-16,1,0.0018101378087787348,0.001971507097406735,-0.006002411312059276,0.006983379953777206,0.9913534826589497
2013-04-18,1,0.0012981931254737612,0.0013891992135131807,-0.006002411312059276,0.007279084324778832,0.9911156216797214
2013-04-22,1,0.002154544662113554,0.002358398876769848,-0.006016541717208126,0.00660249668714092,0.9918907122684444
2013-04-24,1,0.002416794618089673,0.002640469562147247,-0.006502180330878439,0.00628203662975792,0.9936439021946513
2013-04-26,1,0.0023656372212082634,0.0026065563822722797,-0.00608089304567978,0.004771205132439339,0.9941505132531484
2013-04-30,1,0.002519986970128357,0.0027699345889294425,-0.007477727467723738,0.0028213784473926857,0.9930008607771517
2013-05-02,1,0.0023056982716357552,0.0025108648371717284,-0.00890606589493039,0.002023121342977713,0.991699015226672
2013-05-06,0,0.0,0.0,-0.00890606589493039,0.004011747039926686,0.9922037154429763
2013-05-08,0,0.0,0.0,-0.01008135558920113,0.002534006125397363,0.9918476155092479
2013-05-10,0,0.0,0.0,-0.009740268934139006,0.004011747039926686,0.9912938137954079
2013-05-14,0,0.0,0.0,-0.009010337149182084,0.002534006125397363,0.991566406483982
2013-05-16,0,0.0,0.0,-0.010225757505742852,0.002534006125397363,0.9906931367399071
2013-05-20,0,0.0,0.0,-0.010225757505742852,0.005324027029580079,0.9902928027117993
2013-05-22,0,0.0,0.0,-0.011436634392488937,0.005324027029580079,0.9885902440322968
2013-05-24,0,0.0,0.0,-0.011436634392488937,0.005486387264976626,0.9885787898248236
2013-05-29,0,0.0,0.0,-0.010912193778502513,0.012407180861286473,0.9884746149413246
2013-05-31,0,0.0,0.0,-0.00735468486167169,0.012407180861286473,0.9890043344311409
2013-06-04,0,0.0,0.0,-0.00735468486167169,0.009289375805544533,0.9894963133660974
2013-06-06,-1,-0.0005336518510371679,-0.0003495919068274053,-0.0064067912033044065,0.008509520452508922,0.99049007397156
2013-06-10,-1,-0.0007731028459628693,-0.0005385526273254317,-0.0064067912033044065,0.0070095089549491365,0.9913661626803191
2013-06-12,-1,-0.0015517529918309346,-0.0012049462598922723,-0.00603799057637972,0.008509520452508922,0.9907622093354155
2013-06-14,-1,-0.0011128405371383344,-0.000834319865237875,-0.00603799057637972,0.0070095089549491365,0.9919349030531512
2013-06-18,-1,-0.0009039429066385246,-0.0006522230988682561,-0.00603799057637972,0.0070095089549491365,0.9920631282919069
2013-06-20,-1,-0.0020768845216530677,-0.0017045539545212768,-0.0035933838677298657,0.0070095089549491365,0.9937870430114468
2013-06-24,-1,-0.0017772761044580385,-0.0014542556267300734,-0.005953674546661766,0.0070095089549491365,0.9935673181659082
2013-06-26,-1,-0.0005651090459543944,-0.0004239141752523407,-0.006194158971244242,0.00603777452045282,0.994342761995206
2013-06-28,-1,-0.0007296037271856674,-0.0005568610727718706,-0.005953674546661766,0.00603777452045282,0.994432920397769
2013-07-02,-1,-0.0007380072286030781,-0.0005565886895797687,-0.006194158971244242,0.004435020625442972,0.9941219290534571
2013-07-05,-1,-0.000481491024681442,-0.00033199906900102736,-0.006194158971244242,0.0045771925020559505,0.9938462057055599
2013-07-09,-1,-0.0007109330728277236,-0.0005396616920426318,-0.005953674546661766,0.0045771925020559505,0.9938697008698288
2013-07-11,-1,-0.0005618552594082794,-0.0004043012063862226,-0.006194158971244242,0.0033123112707003355,0.9942544932719091
2013-07-15,-1,-0.0009182705931750751,-0.0007171749461334629,-0.006194158971244242,0.003573216857013677,0.9937803106099826
2013-07-17,-1,-0.000510358270493349,-0.0003678903131630278,-0.006194158971244242,0.003187330238823556,0.994046261228142
2013-07-19,-1,-0.0007635923432602364,-0.0005805883932885482,-0.006924405480508718,0.003187330238823556,0.993690647781107
2013-07-23,-1,-0.0006497636522395621,-0.0004922315561814723,-0.009174520621018464,0.0025507617959710646,0.9936235921262502
2013-07-25,-1,-0.0007826070996259231,-0.0006227288423009638,-0.009174520621018464,0.003187330238823556,0.99321709492772
2013-07-29,-1,-0.0005100307350446663,-0.0003764256124689507,-0.01143628700851093,0.0025507617959710646,0.9924413932727635
2013-07-31,-1,-0.0008898986935673074,-0.0007316308163589833,-0.009174520621018464,0.0025507617959710646,0.9930162315614858
2013-08-02,-1,-0.00038960020668552133,-0.0002885907821186478,-0.009174520621018464,0.0025507617959710646,0.9932262841400112
2013-08-06,-1,-0.0006402663096860635,-0.0005155978025802059,-0.01143628700851093,0.003187330238823556,0.9922663521747003
2013-08-08,-1,-0.0013162486711576894,-0.0010798221551567206,-0.011599838789056068,0.002637730324742179,0.9922653474572783
2013-08-12,-1,-0.0015766588970555192,-0.0013077008909634872,-0.01143628700851093,0.00565812322738115,0.9921968986457248
2013-08-14,-1,-0.0015665911488590835,-0.0013113751832376222,-0.01143628700851093,0.007466185725068507,0.9918056664762641
2013-08-16,-1,-0.0020707214221229817,-0.0017678329707483931,-0.005735425596271027,0.00799079515221989,0.9919578292293314
2013-08-20,-1,-0.0007802103446171269,-0.0006927945443774686,-0.003409778205432162,0.00799079515221989,0.9921722722254885
2013-08-22,-1,-0.0012692199084133153,-0.00116672057049778,-0.0038843286469609256,0.0067597745509861105,0.9923222244936438
2013-08-26,-1,-0.0010462709489687432,-0.0009853966049215958,-0.003810149194644976,0.00596279569054848,0.9934865514952244
2013-08-28,-1,-0.0012960043633644465,-0.0011995585679546437,-0.0029170904607445755,0.00596279569054848,0.9933794932270311
2013-08-30,-1,-0.0007242039095766948,-0.0007177927045095139,-0.00418150958640677,0.00596279569054848,0.9933649503208042
2013-09-04,-1,-0.0005307275935898301,-0.0004918607034301631,-0.0038506304279668363,0.00596279569054848,0.9942243042593052
2013-09-06,-1,-0.000966329590017277,-0.0009318846787007388,-0.0038506304279668363,0.00596279569054848,0.9943132389047928
2013-09-10,-1,-0.00048187689208719015,-0.00046201199581509934,-0.00418150958640677,0.005403568192495403,0.9935179752551073
2013-09-12,1,0.00028110402249060265,0.0004468535571612238,-0.00418150958640677,0.006090684517775966,0.9925681550083753
2013-09-16,-1,-0.00012312901409148805,-5.588061638362433e-05,-0.0053574066989714505,0.005403568192495403,0.9925316407203691
2013-09-18,1,0.0003182365503700214,0.000446205771326964,-0.006469118243617921,0.005738826703518612,0.9919960247466691
2013-09-20,0,-3.1968904759668284e-05,7.646948413955724e-05,-0.005079291819729715,0.00703726727228692,0.9923796095937346
2013-09-24,-1,-0.0001093789091510558,-2.3081000225842014e-06,-0.005079291819729715,0.00717419730567813,0.9918004004499746
2013-09-26,-1,-0.00010788434266384954,-2.3864438057841263e-05,-0.006469118243617921,0.00717419730567813,0.9911291654018859
2013-09-30,0,-5.691101270650304e-05,7.945835626833273e-05,-0.004190171527323683,0.01106182951661371,0.9904298972552815
2013-10-02,0,-6.500176588544385e-05,5.019638284058678e-05,-0.0017545396120042553,0.012522814605608217,0.989955727564348
2013-10-04,-1,-0.00022206843971939768,-0.00013154879883699194,-0.0006204629638389798,0.012522814605608217,0.9903369043235906
2013-10-08,-1,-0.0006850936474826466,-0.0006432997295198822,-0.0006204629638389798,0.012522814605608217,0.9902095501641489
2013-10-10,1,0.0004010576404049077,0.0005786899027865031,-0.0027887734198803592,0.008821237771971796,0.9908610819355453
2013-10-14,0,-3.9131657578680013e-05,5.079117251039969e-05,-0.002236183380960777,0.008821237771971796,0.9908873827642036
2013-10-16,1,0.00038281833260796883,0.000538343085955209,-0.0019518594164302766,0.00730369044692474,0.991721304092732
2013-10-18,1,0.0004079128658371381,0.000519919427670931,-0.0019518594164302766,0.007799938055264999,0.9917843382733478
2013-10-22,1,0.0005473037278733177,0.0006263967205106522,-0.0019518594164302766,0.006265802304863032,0.9922992066422718
2013-10-24,1,0.0003314885088973273,0.0004209875540567601,-0.0028294920896303863,0.006265802304863032,0.9926040808335016
2013-10-28,1,0.0012669707734795444,0.00148737268586926,-0.0028294920896303863,0.0041969634032661615,0.9938015816305865
2013-10-30,1,0.002018556785471914,0.002349542742378913,-0.0028294920896303863,0.0037627203572614936,0.9944887061468163
2013-11-01,1,0.0018131588290978217,0.002095787313848888,-0.004397502519015738,0.0037627203572614936,0.9936592492403017
2013-11-05,1,0.0013174617341810536,0.0015517515686149582,-0.003992960987744652,0.003470793413238596,0.9947662652632635
2013-11-07,1,0.0010466950455097035,0.0012592630983637577,-0.003992960987744652,0.003470793413238596,0.9952627566000724
2013-11-11,1,4.619143436789522e-05,6.58660429099698e-05,-0.004434455856156122,0.0037627203572614936,0.9949102351085299
2013-11-13,1,0.0001320217790062404,0.0001371177631182619,-0.00632600895076973,0.003470793413238596,0.9944853521115189
2013-11-15,1,0.0008910426879743443,0.0010351908807889176,-0.00632600895076973,0.003470793413238596,0.9943019977118936
2013-11-19,1,0.0011937470172769167,0.0013818958745774935,-0.008466032229763698,0.003470793413238596,0.9932889817476936
2013-11-21,1,0.0008685365684820169,0.0010208770013013508,-0.00632600895076973,0.003470793413238596,0.9937738086128185
2013-11-25,1,0.0010879977608621698,0.0012864875835934021,-0.00632600895076973,0.00534903169509054,0.9931525900437467
2013-11-27,1,0.001026406370776564,0.0012044605632867845,-0.00632600895076973,0.006380153987421566,0.9931955148208581
2013-12-02,1,0.0006105125260450738,0.0007506126794764145,-0.004110966473114612,0.006380153987421566,0.9940880835885745
2013-12-04,1,0.00028142063982105096,0.00036068768257351653,-0.004758757961230101,0.006380153987421566,0.9938586623530398
2013-12-06,1,0.00046113005985808374,0.0005893209159475493,-0.004307404616011833,0.004977427844816993,0.9945467147553628
2013-12-10,1,0.00028611124081038137,0.0003825874468992847,-0.004758757961230101,0.004950409642893588,0.9931255071525146
2013-12-12,-1,-0.00016100488429787203,-0.00012105898567395106,-0.004758757961230101,0.004950409642893588,0.9932749054311082
2013-12-16,0,-3.715495579184918e-05,1.2360242593878061e-06,-0.004758757961230101,0.005556201733931532,0.9930441877456728
2013-12-18,1,0.0004465284914376319,0.0005744006201240069,-0.004758757961230101,0.005124663397688456,0.9937223332804669
2013-12-20,1,9.1098852870794e-05,0.00013814543329618596,-0.00619233205645663,0.005124663397688456,0.9934174407498285
2013-12-24,1,0.001033911345537424,0.0012377733366197743,-0.007052523287294283,0.004706041663431122,0.992960853790634
2013-12-27,1,0.0011196545002385818,0.0013179985954815021,-0.007052523287294283,0.004706041663431122,0.9929149102454083
2013-12-31,1,0.0009094837594207223,0.001065217543539031,-0.008121609443435311,0.004706041663431122,0.9924376505041868
2014-01-03,1,0.0004045151009989204,0.0004732212078338686,-0.009949318517406918,0.004706041663431122,0.9908857859769664
2014-01-07,1,0.0004755666016569766,0.0005455514178836697,-0.011282533982945308,0.005124663397688456,0.9897923262180894
2014-01-09,-1,-0.001275740444422247,-0.001104083110311427,-0.008121609443435311,0.005471557099745513,0.9912832014265331
2014-01-13,-1,-0.0017220832717183233,-0.0014829522869291693,-0.007052523287294283,0.006567307657869045,0.990715806602758
2014-01-15,-1,-0.001214801272524605,-0.0010328289335366512,-0.007052523287294283,0.006596221363529772,0.990696591015849
2014-01-17,-1,-0.0012756397153264342,-0.0010877729452402293,-0.010004078920133903,0.006596221363529772,0.9904429888997756
2014-01-22,-1,-0.0018198653918961708,-0.001555968787534149,-0.010004078920133903,0.009542643286628072,0.9900779670243414
2014-01-24,-1,-0.0015681077128006904,-0.0013462943949046056,-0.010083803963085464,0.006596221363529772,0.9904475938804319
2014-01-28,-1,-0.0012910086238535285,-0.0010984828461129536,-0.010083803963085464,0.005594557394796494,0.9904207699657643
2014-01-30,-1,-0.00185865721688417,-0.0015834634708556897,-0.009981249346203565,0.00773435473447626,0.9902809217756455
2014-02-03,-1,-0.0029620077365506213,-0.0025859251736562007,-0.009469720383180075,0.00917045519693861,0.9916607684901129
2014-02-05,-1,-0.002477086122281653,-0.0021793278309901313,-0.009256526897053429,0.007666182915820044,0.9925043394914052
2014-02-07,-1,-0.002064169767377161,-0.0018257113729546954,-0.009256526897053429,0.00669880411980613,0.9926597891952578
2014-02-11,-1,-0.0010920044266674676,-0.0009868609449936083,-0.009256526897053429,0.006272221217370462,0.9932107118424515
2014-02-13,-1,-0.0008548828055786901,-0.0007488482354550943,-0.009256526897053429,0.005036665801002905,0.9938517013462776
2014-02-18,-1,-0.0016451685187999535,-0.0014372715336447436,-0.006116514247695224,0.006272221217370462,0.9937920159688305
2014-02-20,-1,-0.0011602449872148291,-0.0010165862589113762,-0.006116514247695224,0.006272221217370462,0.9927750003551926
2014-02-24,-1,-0.0022178055356429868,-0.001930646033604363,-0.0012429654394766972,0.006272221217370462,0.9926405616008109
2014-02-26,-1,-0.0026260811201157383,-0.002298978447268044,-0.0009231092805719089,0.00669880411980613,0.9923473829572368
2014-02-28,-1,-0.0027912744635434283,-0.0024365694170446466,-0.0006970109166504989,0.006788181030564574,0.9921247424276646
2014-03-04,-1,-0.002988473272486837,-0.002577555602087142,-0.0006103410748253937,0.006272221217370462,0.9923141222466942
2014-03-06,-1,-0.001996847931855172,-0.00175953297720102,-0.00015161165486265286,0.007399348221026586,0.9925309434957282
2014-03-10,-1,-0.00191421422889491,-0.0016759535336422075,-0.0006864664873452878,0.007399348221026586,0.9930239667788404
2014-03-12,-1,-0.001817126236820685,-0.0016067639211372919,-0.0011168306259304848,0.007399348221026586,0.9931161968572015
2014-03-14,-1,-0.0013384592821374518,-0.001207082680421937,-0.0008767710222464559,0.007399348221026586,0.9930893685925813
2014-03-18,-1,-0.0003401926567810051,-0.00031810375320351006,-0.0008767710222464559,0.007399348221026586,0.9935576766934169
2014-03-20,1,0.0005271855419234437,0.0006318762200036223,-0.0016684590076574343,0.007399348221026586,0.9949601799344868
2014-03-24,1,0.001372534486402223,0.0016435644198074183,-0.0016684590076574343,0.007399348221026586,0.9953316737818854
2014-03-26,1,0.0016072708247042758,0.0019300324423872797,-0.0018271323274241724,0.0066214350668949195,0.9932798018199296
2014-03-28,1,0.0020265356908365133,0.002406491359399867,-0.0018271323274241724,0.0066214350668949195,0.9928849146406395
2014-04-01,1,0.0018245852566911025,0.002147491746089815,-0.0018271323274241724,0.007923698013421694,0.992374672410687
2014-04-03,1,0.0020551486542197336,0.0023866709366359012,-0.002524298908541968,0.006760008454855498,0.992623405956321
2014-04-07,1,0.0018944865792900826,0.0022002631528557698,-0.004070705594554249,0.006760008454855498,0.9924726651866677
2014-04-09,1,0.0014567669056372984,0.0017070602622501862,-0.0006329055899015299,0.008191261798970116,0.9922882939916552
2014-04-11,1,0.0018486099636319602,0.002168871995118107,-0.0006329055899015299,0.008191261798970116,0.99248697325723
2014-04-15,1,0.0023674106197833712,0.0027706042068020107,-0.002086849395194864,0.007682120298318212,0.9922465999275023
2014-04-17,1,0.002449873063062166,0.002842071458266993,-0.0010577243850978112,0.006685683761524503,0.9926884541988248
2014-04-22,1,0.0025605329301911766,0.002967351183365768,-0.00811241772731498,0.006420003382396346,0.9910523333761202
2014-04-24,1,0.001207535249517486,0.0014384040022762268,-0.004140693722945312,0.006420003382396346,0.9930557808264026
2014-04-28,1,0.0014145277042784698,0.001642884560006393,-0.004140693722945312,0.0054424452921048565,0.9935577675298404
2014-04-30,1,0.0017961944125598301,0.0020642833627763564,-0.004140693722945312,0.00365951398025952,0.9941429762301424
2014-05-02,1,0.0017116649493468415,0.001964428804940818,-0.003955465540289907,0.00365951398025952,0.9942703459047608
2014-05-06,1,0.001501428946593222,0.0017185439321831392,-0.004815726949437054,0.003602362769750856,0.9940997263981891
2014-05-08,1,0.0019403911749445264,0.00218791762006748,-0.004815726949437054,0.003230931933356218,0.9948709342881237
2014-05-12,1,0.0021268647955260036,0.002409591180079285,-0.004815726949437054,0.0024750798834720896,0.9945873607920945
2014-05-14,1,0.0020152515848127902,0.0022925742577810018,-0.0038558664218393593,0.001635009526216134,0.9950174314561873
2014-05-16,1,0.002189087495742144,0.0024831459015382325,-0.0038558664218393593,0.0014177255648904472,0.9947837663126289
2014-05-20,1,0.0014736814175113251,0.001703607362019599,-0.0024879836130048284,0.001635009526216134,0.9968923997469538
2014-05-22,1,0.0014798094391238806,0.001721692338857281,-0.00206936317182581,0.001635009526216134,0.9971843557229727
2014-05-27,1,0.0013286698169394716,0.0015493019398128095,-0.00206936317182581,0.001635009526216134,0.9973551427527647
2014-05-29,1,0.0013053478719490751,0.0015047790111921847,-0.00206936317182581,0.0012142311539398327,0.9972834277420486
2014-06-02,1,0.0013946295383393268,0.0016126135924116915,-0.00206936317182581,0.0012142311539398327,0.9971035642093832
2014-06-04,1,0.00044988724829404315,0.00047102629038679045,-0.0014158315681847664,0.0036087440760067813,0.9976554701418959
2014-06-06,1,0.0002558934100712106,0.00027270080048073363,-0.000990594390496501,0.004600565630120739,0.9973767940215379
2014-06-10,1,0.0003751250145065697,0.0003971484866572239,-0.000990594390496501,0.004600565630120739,0.9967826132397366
2014-06-12,1,0.00021546268330726445,0.0002194885614838464,-0.00021253127322548194,0.004600565630120739,0.9968217799165261
2014-06-16,1,0.00010552911675162017,0.0001393237284770499,0.0,0.004600565630120739,0.9965094315727583
2014-06-18,1,0.0002938169754757518,0.0003024175957163487,-0.00021253127322548194,0.004600565630120739,0.9959912906369486
2014-06-20,1,0.0005314616635797678,0.0005641739357671095,-0.000990594390496501,0.004382052536168935,0.9958104352961207
2014-06-24,1,0.00024369344141025477,0.00026945427889826085,-0.000990594390496501,0.004382052536168935,0.9957789363151618
2014-06-26,-1,-0.0006418708091322304,-0.0004519466739531091,-0.0014763767104048774,0.004382052536168935,0.9950983081436103
2014-06-30,-1,-0.000594321486922379,-0.0004088139137096399,-0.0008345178558902505,0.00483001860293523,0.9938792714173605
2014-07-02,-1,-0.00023177454847136616,-0.00011695224862825744,-0.005925876934120191,0.004105700242287103,0.9930989035500505
2014-07-07,1,0.0002473171202956603,0.00028304243379054423,-0.006540749594338971,0.0032412361559415745,0.9930615781076366
2014-07-09,1,0.00016403131426633453,0.00019031108411145565,-0.007946630135188272,0.0032412361559415745,0.9926105707236198
2014-07-11,-1,-0.0001213429282040635,-3.572152433380517e-05,-0.010050373883861286,0.0037310786068040754,0.9918432934484647
2014-07-15,1,0.0003104292530625546,0.00033507527216929795,-0.010050373883861286,0.0037310786068040754,0.992156720703395
2014-07-17,-1,-0.00024141165099427175,-0.00012456946618430258,-0.007946630135188272,0.0037310786068040754,0.9927380288471914
2014-07-21,-1,-0.0005909509666973735,-0.00041468744713217336,-0.007946630135188272,0.0032412361559415745,0.9929274706464631
2014-07-23,-1,-0.0007523151437697426,-0.0005544090677668655,-0.007946630135188272,0.0032412361559415745,0.9926864816212377
2014-07-25,-1,-0.0009736625308106705,-0.0007548907278139237,-0.006540749594338971,0.00330913538848812,0.9929186030778877
2014-07-29,-1,-0.0002532602891331102,-0.0001239771355796481,-0.006540749594338971,0.0018839802754587304,0.9943158245090422
2014-07-31,-1,-0.0009389276832953866,-0.0007318937754370182,-0.004878803864652824,0.00330913538848812,0.995211863443334
2014-08-04,-1,-0.0011460481547955843,-0.0009091326338051671,-0.004248578273985393,0.003622202177533786,0.9952491504671743
2014-08-06,-1,-0.001712101672984355,-0.0014126070034398844,-0.0028011416529081274,0.004031495728032178,0.995884407351835
2014-08-08,-1,-0.0016358243747376204,-0.001361400397486835,-0.0028011416529081274,0.004031495728032178,0.9963675382766771
2014-08-12,-1,-0.0008650340406584807,-0.0007269450207106841,-0.0035701220641045418,0.0033220911136619936,0.9963595287452915
2014-08-14,-1,-0.0006114414994333362,-0.0005121933230742836,-0.003997568190233666,0.0033220911136619936,0.996117295413944
2014-08-18,-1,-0.0006847505929267233,-0.0005816966578128432,-0.0035701220641045418,0.004618881645401529,0.9957074311420091
2014-08-20,-1,-0.0005937021946798315,-0.0005132809566858977,-0.0015015599128036705,0.004618881645401529,0.9956802223282889
2014-08-22,-1,-0.0006002330749844988,-0.0005196845359291013,-0.00043181102349462654,0.005633018527755265,0.9954977299455826
2014-08-26,-1,-0.0004056831069945456,-0.0003616640102798445,-0.0015015599128036705,0.005633018527755265,0.9950793284036862
2014-08-28,-1,-0.0003099439833115346,-0.0002740980817512613,-0.0035701220641045418,0.005555772140876183,0.9947570878483444
2014-09-02,-1,-0.0004291855097002716,-0.0003656316339815844,-0.0020586846378161418,0.004618881645401529,0.9951380729579871
2014-09-04,-1,-0.00029026033132748414,-0.00024986783991485536,-0.00467732023983243,0.004618881645401529,0.9949845987752609
2014-09-08,-1,-0.0001045579071361501,-9.759495538903519e-05,-0.0027530966534438433,0.004618881645401529,0.994769359479207
2014-09-10,-1,-0.00013938334021102608,-0.00013764638141384506,-0.004654938834174988,0.004618881645401529,0.994842628218805
2014-09-12,-1,-0.00016508858839314467,-0.00016092756138159786,-0.005511263678932234,0.004375087003800254,0.9942887393316625
2014-09-16,-1,-0.0005925302527993572,-0.000494210436659769,-0.007056785308055888,0.0037499505815524674,0.9943087061826092
2014-09-18,-1,-0.00020187681717033262,-0.00016900302220078953,-0.007079414221253532,0.0015840238778437802,0.994246002451018
2014-09-22,1,0.0002138429957941244,0.00025316865028723217,-0.007079414221253532,0.0037499505815524674,0.9937906136199346
2014-09-24,1,0.00014630606858540804,0.00017482582124397187,-0.007079414221253532,0.004182650980772036,0.9936539889982763
2014-09-26,1,4.006722156320152e-05,4.990013886584362e-05,-0.007079414221253532,0.004224473791827052,0.9928626372239628
2014-09-30,1,0.00031296134032207526,0.00039200010118931435,-0.007079414221253532,0.00629159875499078,0.9923437057567841
2014-10-02,1,0.00022945296603343627,0.00030453860571027635,-0.005518806649998115,0.00629159875499078,0.9925120007299627
2014-10-06,1,0.0004991142353801613,0.000603833284991796,-0.005518806649998115,0.00629159875499078,0.9927895693424732
2014-10-08,1,0.0004409290521558376,0.0005527812230976677,-0.004297305460794044,0.00629159875499078,0.9930535347617647
2014-10-10,-1,-0.0005312588597142715,-0.0004779249681453562,-0.001942868646183436,0.00629159875499078,0.9934425675395572
2014-10-14,-1,-0.0008389197477875851,-0.0007466811964947288,-0.0007858959187687732,0.00629159875499078,0.9936432246509143
2014-10-16,-1,-0.0010364736343130402,-0.0009165826928288466,-0.00014237336105251593,0.0066087493738037,0.9931245211289316
2014-10-20,-1,-0.00047391691410406285,-0.0004266402599258139,-0.0007753025422320842,0.0066087493738037,0.9939141451775049
2014-10-22,-1,-0.0002719340257157608,-0.00025050932314724735,-0.0014033232128348345,0.00629159875499078,0.9940021658198278
2014-10-24,-1,-0.0008573609149113439,-0.0007552652196303436,-0.0014033232128348345,0.00612405450662334,0.9952385312216961
2014-10-28,-1,-0.0005154672384754103,-0.0004528339297715531,-0.0017124613665760373,0.0055873215755765865,0.9950772358170288
2014-10-30,-1,-0.00041662466734653794,-0.00036300220606408937,-0.0017124613665760373,0.00629071899530404,0.9945578451447221
2014-11-03,-1,-0.00021997810279589068,-0.00018536617335275746,-0.004151547147441315,0.005953004702536422,0.9935665837209091
2014-11-05,-1,-9.750250327069271e-05,-8.239321770568479e-05,-0.006409883534216179,0.005953004702536422,0.9932725131944287
2014-11-07,-1,-4.834610683707446e-06,-3.799446293969878e-07,-0.004834023667229126,0.005953004702536422,0.9936802181582579
2014-11-11,1,0.00019299808416953177,0.00023128624811845545,-0.009233027571505223,0.00407667249274816,0.99191810770549
2014-11-13,1,0.0004890029235889608,0.0005622092608326988,-0.01038923723591592,0.0015280846337930444,0.9913400016955103
2014-11-17,1,0.0006134667971823731,0.0007013063441142359,-0.01038923723591592,0.0013631699500901504,0.9914580592420206
2014-11-19,1,0.00035186464537056793,0.00040935720092460465,-0.009823886787347589,0.004286471276556434,0.9902192496787732
2014-11-21,1,0.0004004640259192789,0.00047703238538262177,-0.009823886787347589,0.006857612745919587,0.9899327237510999
2014-11-25,1,0.00023998674358769337,0.0003111415041802492,-0.008604129175680321,0.006857612745919587,0.9905439391859711
2014-11-28,1,0.0005206161959916148,0.0006147757486324206,-0.008604129175680321,0.005534120703951063,0.9908961388915817
2014-12-02,-1,-0.00019816246322920157,-0.00019375804473212803,-0.004672487202373237,0.005534120703951063,0.9916990523996005
2014-12-04,-1,-0.0002565165221811939,-0.0002379727217844332,-0.004920147284129849,0.006330624681669666,0.991358789318804
2014-12-08,-1,-0.00030925637545992817,-0.00030388710452904663,-0.0101264187863153,0.006330624681669666,0.9907805498862445
2014-12-10,-1,-0.00147232979820326,-0.0013420264669692854,-0.003091537426891548,0.007162485009507926,0.9920504297143149
2014-12-12,-1,-0.0017071682539004005,-0.0015488687701131322,-0.002289020383225662,0.006721744053677831,0.9928852806939497
2014-12-16,-1,-0.0017990945514475263,-0.0016196440202289222,-0.0023214213810996264,0.006721744053677831,0.9930113815601366
2014-12-18,0,-7.586934103582697e-05,1.6373722881614784e-05,-0.0023214213810996264,0.005534120703951063,0.9942799348885294
2014-12-22,-1,-0.0001542736047998787,-0.00012157980695653887,-0.0034332029407817635,0.004657789405447183,0.9943754010008253
2014-12-24,-1,-7.451785101607305e-05,-3.682991691387562e-05,-0.005814372030329896,0.0031304270281879622,0.9938521686294669
2014-12-29,-1,-0.0003471246698106842,-0.00030816089677459147,-0.006994315589739455,0.0017914232519002978,0.9935572336745881
2014-12-31,-1,-0.0009546768988569797,-0.0008380275775376536,-0.005814372030329896,0.0031304270281879622,0.9938919861488531
2015-01-05,-1,-0.0008559981557167372,-0.0007596793950301365,-0.005006576454693619,0.005470382045524996,0.992565451966189
2015-01-07,-1,-0.0010666248363690874,-0.000959854114762797,-0.004166072988289195,0.005470382045524996,0.9928879060110737
2015-01-09,-1,-0.0009350540996223317,-0.0008324132145217592,-0.005006576454693619,0.005470382045524996,0.9927400351531971
2015-01-13,-1,-0.0008678974772017127,-0.0007682456694074974,-0.005814372030329896,0.006688786564872896,0.9920102707072026
2015-01-15,-1,-0.001090551301805718,-0.0009645848910314501,-0.005814372030329896,0.006939933074155797,0.9917716643598528
2015-01-20,-1,-0.00035774635523713136,-0.00031793990717709857,-0.006216878852152187,0.006146110537701303,0.9925330390376369
2015-01-22,-1,-0.0003631292404774276,-0.00033491517701007356,-0.0064026508513454145,0.006146110537701303,0.9923459895849783
2015-01-26,-1,-0.0008945385254610079,-0.0008104758372967778,-0.0064026508513454145,0.006146110537701303,0.9925089771755843
2015-01-28,-1,-0.0013061695041820518,-0.0011808966574617815,-0.002494773547752676,0.0069171969500940456,0.992286351105135
2015-01-30,-1,-0.000942187758013449,-0.000864937266376463,-0.0018045641990244604,0.006146110537701303,0.9925976412928134
2015-02-03,1,0.000343116677380141,0.00040963562744334564,-0.0066069147395272,0.005001337895623242,0.9942825618447287
2015-02-05,1,0.00043208279361594415,0.0004996613675413365,-0.006666982737541774,0.005001337895623242,0.9937418896695144
2015-02-09,1,0.0007217428641905505,0.0008514169138631239,-0.00796099564975481,0.002910851085839955,0.9934576974258571
2015-02-11,1,0.0006045803357625688,0.0007298996018906144,-0.006666982737541774,0.002910851085839955,0.9934053690764062
2015-02-13,1,0.0010033123944860243,0.0011990823686371045,-0.007853647816011233,0.002910851085839955,0.9926716039659667
2015-02-18,1,0.0008203972009168677,0.00098700705477262,-0.007853647816011233,0.005001337895623242,0.991808349475547
2015-02-20,1,0.0004436774430678076,0.0005560330922929558,-0.007853647816011233,0.005001337895623242,0.9918811024332429
2015-02-24,1,0.00043061369976544334,0.0005403835317087688,-0.007771820526216019,0.002910851085839955,0.9921194517037327
2015-02-26,1,0.0007262675924121277,0.0008621030975904851,-0.011278765107354875,0.0018830358526365982,0.9916993468754141
2015-03-02,1,0.0011111512413896415,0.0013262894881038477,-0.011278765107354875,0.0026613428281256684,0.9912553692626499
2015-03-04,1,0.00041253228340732806,0.0005184873674439382,-0.010071377278940075,0.006277832061236976,0.991586975687605
2015-03-06,-1,-0.0005101862208593995,-0.0004542068713911567,-0.007159048318294407,0.006862466832220518,0.9917512493878172
2015-03-10,-1,-0.0014720042785178748,-0.001284542918259479,-0.007159048318294407,0.006862466832220518,0.9918436114836042
2015-03-12,-1,-0.0011863418617066974,-0.0010233853406716156,-0.007159048318294407,0.006277832061236976,0.9925503752835854
2015-03-16,-1,-0.0008370215274563304,-0.0007470359140844998,-0.005911492766011932,0.006060395021010689,0.9930952483744464
2015-03-18,-1,-0.00011290970794792345,-0.00010614300036970233,-0.005911492766011932,0.006057112790856878,0.9938816693118078
2015-03-20,-1,-0.0008215860132175427,-0.0007159671371758597,-0.005911492766011932,0.0061213933392478175,0.9936374638156645
2015-03-24,-1,-0.0006831268166711326,-0.0006163126502144007,-0.005328356466538882,0.006125608333255813,0.9934571422810321
2015-03-26,-1,-0.0007662478488180608,-0.0006990921616739595,-0.005328356466538882,0.006272200364783539,0.9920506143161649
2015-03-30,-1,-0.00037370727767808325,-0.0003692014808703292,-0.005328356466538882,0.0064170590411839045,0.991226383020724
2015-04-01,-1,-0.0003453272353820913,-0.00034146963318586963,-0.0051199535649072096,0.006119516107096672,0.9917930980708511
2015-04-06,1,7.334836872464334e-05,0.00013342385111806483,-0.005328356466538882,0.0040470933441387105,0.9920423206772973
2015-04-08,-1,-0.0003891759962383291,-0.00037752099160084235,-0.005921712185306403,0.0040470933441387105,0.9913750177085144
2015-04-10,1,1.089263678107934e-05,0.00010407404013888907,-0.005921712185306403,0.006119516107096672,0.9911056296478203
2015-04-14,1,0.00011984163556015396,0.00024179136718013915,-0.006040136784134724,0.006119516107096672,0.9910160449185249
2015-04-16,1,3.542345426549255e-05,0.00012589012205947042,-0.006040136784134724,0.006871031111942193,0.9908443527235432
2015-04-20,1,0.00013508658223459482,0.0002367270365251033,-0.005367831332814989,0.006871031111942193,0.9906510076573904
2015-04-22,1,1.1299595251908922e-05,7.60643077257345e-05,-0.006040136784134724,0.007166072627656704,0.9901125461466754
2015-04-24,1,0.0013353195991948326,0.0016050360892851945,-0.006040136784134724,0.007166072627656704,0.991577566773567
2015-04-28,1,0.0015731357944276884,0.0018182348667098625,-0.006040136784134724,0.007166072627656704,0.9921944281519448
2015-04-30,1,0.0011938820941320891,0.0013681624167600544,-0.006631097651031077,0.007166072627656704,0.991889946131807
2015-05-04,1,0.0010653762375814962,0.0012202673545265333,-0.006320219881787192,0.007166072627656704,0.9919800278072444
2015-05-06,-1,-0.0007423826017093592,-0.0006006981054442295,-0.004594078219658307,0.007474328500323284,0.9922362644786697
2015-05-08,-1,-0.0006850559609319301,-0.0005305148427488628,-0.005609740714555285,0.007166072627656704,0.9917770466938522
2015-05-12,-1,-0.0007814526717247848,-0.0006129307131377589,-0.004594078219658307,0.007166072627656704,0.9918950141072806
2015-05-14,1,0.0004723277890091326,0.0005256058433435742,-0.005774136220920182,0.006956875537384484,0.9921381485096329
2015-05-18,1,0.0012640475407231025,0.0014397316562208935,-0.006677169613897158,0.006956875537384484,0.9923385674489235
2015-05-20,1,0.0010935783204293708,0.0012521287633137838,-0.005774136220920182,0.006454176291227217,0.993052027480691
2015-05-22,1,0.0012270834798055546,0.001410606728111382,-0.004594078219658307,0.00614432265587787,0.9940859033149185
2015-05-27,1,0.0011344545563131431,0.0012761914992525944,-0.004594078219658307,0.00614432265587787,0.9931268491699182
2015-05-29,1,0.0007287605366348732,0.0008135867682772699,-0.002639636395968094,0.006454176291227217,0.9931639310813726
2015-06-02,1,0.00035791836353851595,0.0003722641318214755,-0.004363621739018473,0.006454176291227217,0.9925409489426219
2015-06-04,1,0.0012046565516247265,0.0013416169204103297,-0.004363621739018473,0.004977561943218833,0.993633880797411
2015-06-08,1,0.0006318395161671285,0.0006966472249711273,-0.003423948427389912,0.004977561943218833,0.9942255711931023
2015-06-10,1,0.0005714931571343519,0.0006158702252617959,-0.006677169613897158,0.004525716703257746,0.9926448512525624
2015-06-12,1,0.0007826993734163625,0.0008892187632842086,-0.00444669846640261,0.0064008264369073845,0.9926113053511763
2015-06-16,1,0.0007136975390619692,0.0008023580889917755,-0.0044623731100193334,0.0064008264369073845,0.9924219131791545
2015-06-18,1,0.0006751313822839813,0.0007268650705201118,-0.004946923229931524,0.006698579299729748,0.9920049152732974
2015-06-22,1,0.0004083289859428896,0.0004192068827273236,-0.007605720449792291,0.006698579299729748,0.9914359251924717
2015-06-24,1,0.0010524522627266008,0.0011344980001556496,-0.009514174565200801,0.005033091854007439,0.9917810095574834
2015-06-26,1,0.0017831756500745544,0.0020315800925300746,-0.009514174565200801,0.005033091854007439,0.9918005725171772
2015-06-30,1,0.001392102306345436,0.0015968494528288083,-0.008872409669865057,0.006698579299729748,0.9923733919733936
2015-07-02,1,0.001588251454018084,0.001823088117081202,-0.008872409669865057,0.006698579299729748,0.9922579206964756
2015-07-07,1,0.0014894708089744095,0.0016984722976637176,-0.008872409669865057,0.006698579299729748,0.9922642498800498
2015-07-09,1,0.000547088660136318,0.0006439492571592314,-0.005369152969955779,0.006698579299729748,0.9939146338180387
2015-07-13,1,0.00085690604032289,0.0009865723015378535,-0.005369152969955779,0.004098406536375292,0.9935979198751506
2015-07-15,1,0.0005475539171586044,0.0006158549250685267,-0.005369152969955779,0.0014488743900083556,0.9934248845152043
2015-07-17,1,0.000689365651863094,0.0007741471500511403,-0.006799108187722614,0.0014488743900083556,0.9935394491977534
2015-07-21,1,0.0005283235214750266,0.0006117176797218445,-0.004346567568170754,0.0039508681058655045,0.9939084040108278
2015-07-23,1,0.00011227792498702374,0.00014717429769483804,-0.0026655557654149745,0.0039508681058655045,0.9942838096058686
2015-07-27,1,0.00016456152768099696,0.00017651280390814197,-0.007016065925962299,0.0032546574323566355,0.992483335020609
2015-07-29,1,0.0001810987067816621,0.00018785486573479,-0.010142505237208194,0.0032546574323566355,0.9907478490395848
2015-07-31,-1,-0.00016013186695339665,-8.487166096366751e-05,-0.010142505237208194,0.0039508681058655045,0.9897655147452243
2015-08-04,-1,-0.00016790692515951454,-0.00010347160231669961,-0.01314672254865028,0.0039508681058655045,0.9885608939390058
2015-08-06,-1,-0.00046816874405149574,-0.00036941739864753786,-0.01314672254865028,0.006802023318025007,0.9879796132993741
2015-08-10,1,0.00012397434821703328,0.0001338588729955793,-0.015093237593109217,0.006802023318025007,0.9871591665945149
2015-08-12,-1,-0.0005897270036969378,-0.00048244106911440475,-0.012581314446269075,0.006802023318025007,0.9877679341718096
2015-08-14,-1,-0.000654731377377921,-0.0005337876274670649,-0.012581314446269075,0.005640512478783876,0.9881861294753709
2015-08-18,-1,-0.0005776630163992047,-0.00045667679856036545,-0.012581314446269075,0.007408349757398125,0.9880165250670409
2015-08-20,-1,-0.0008235770332168042,-0.0006782769064544017,-0.01177917464453507,0.007408349757398125,0.9881608223666744
2015-08-24,-1,-0.001963887453917349,-0.0016831168990821105,-0.007489010475389102,0.007408349757398125,0.9900467225603844
2015-08-26,-1,-0.0015042384691139647,-0.0012929078724526481,-0.005650816390956433,0.0035017270386699553,0.9921426861943001
2015-08-28,-1,-0.0013453384147770193,-0.0011303623735800636,-0.007489010475389102,0.0035017270386699553,0.9924869962552912
2015-09-01,-1,-0.0020000919707540985,-0.0017117685142975687,-0.005650816390956433,0.006740257683543436,0.9926128293732547
2015-09-03,-1,-0.0015022751827485717,-0.0012699998306175391,-0.005650816390956433,0.0038684092892473346,0.9936193096028608
2015-09-08,-1,-0.0014416253649076824,-0.001216954104869006,-0.004941884173225015,0.0038684092892473346,0.9938399146530954
2015-09-10,-1,-0.0017002347913493074,-0.0014476841317203099,-0.004941884173225015,0.005709664221439485,0.9936413246976147
2015-09-14,-1,-0.001825182353477249,-0.0015592855131424045,-0.005068968316340404,0.005709664221439485,0.9932253281497504
2015-09-16,-1,-0.0010155055917125074,-0.0008844061467793341,-0.005068968316340404,0.004953267788409021,0.9936625946239782
2015-09-18,-1,-0.0009362570025627744,-0.0008428232847868533,-0.0029936844740840653,0.006672258767997673,0.9932203249306234
2015-09-22,-1,-0.0011612567790661677,-0.0010357661308329712,-0.0029936844740840653,0.006672258767997673,0.9932030595337238
2015-09-24,-1,-0.0012836474850353315,-0.0011418795808591066,-0.0038033257666798405,0.007252080741777944,0.9925758899879144
2015-09-28,-1,-0.001902762942348004,-0.0016519443103938792,-0.0038033257666798405,0.007072918231321813,0.993227307585151
2015-09-30,-1,-0.0012585010238067565,-0.0010939429853641114,-0.004759307764896266,0.006395655427783543,0.993462999556848
2015-10-02,-1,-0.0011942516398101132,-0.0010369716860252351,-0.004759307764896266,0.006395655427783543,0.9934510325018329
2015-10-06,-1,-0.0004919776747588367,-0.00043279850947137337,-0.004759307764896266,0.005201838469463278,0.9945502283299441
2015-10-08,-1,-0.00011514659462271118,-0.00010465186835930789,-0.004448413905670067,0.004124389823147621,0.9948438192926466
2015-10-12,-1,-0.00024507864728655777,-0.00023212638173956366,-0.004695006525639472,0.003648614411696099,0.9947480759107636
2015-10-14,-1,-0.00019440005340171237,-0.00019095812332525146,-0.004695006525639472,0.003908537999206598,0.9946604868021947
2015-10-16,1,0.0002382558158332585,0.0003007509673002476,-0.00605346640370163,0.003130199969877061,0.9944979735389828
2015-10-20,1,8.414923280708029e-05,0.00011326723767990406,-0.005668764758094805,0.003908537999206598,0.9935664723598273
2015-10-22,1,0.0001671762625015392,0.00020101693063827276,-0.005668764758094805,0.003908537999206598,0.9937856750649234
2015-10-26,1,0.00029200026452914625,0.00037633267863764765,-0.00553465065454255,0.003908537999206598,0.9939151204395085
2015-10-28,-1,-4.5339128739202e-05,-2.9717919919732207e-05,-0.004695006525639472,0.0032106131385673765,0.9946605304174239
2015-10-30,1,6.639214618995218e-05,0.0001020451179139621,-0.004695006525639472,0.0031350002523251475,0.9946056909325388
2015-11-03,1,0.00013567970547926373,0.0001787925830299651,-0.00553465065454255,0.0031310000310297084,0.9943240609168973
2015-11-05,0,-1.635427742269022e-05,8.100584018765986e-06,-0.006010995855975804,0.0036816993404799117,0.9925581738351016
2015-11-09,-1,-0.0001896199415838697,-0.00017318388189332774,-0.006010995855975804,0.0041461180690393505,0.9924250295701593
2015-11-11,-1,-9.424190165738526e-05,-6.307945248878045e-05,-0.006410587359434496,0.0038632271659940097,0.9921688321909835
2015-11-13,-1,-0.0001938103059688361,-0.0001458886496723706,-0.006010995855975804,0.005182668511301363,0.9916885372671201
2015-11-17,1,0.0005963418342164808,0.0007648294433440691,-0.006010995855975804,0.005080536258625559,0.9922695695729559
2015-11-19,1,0.0007037127729141767,0.0008688801938462598,-0.008892805754088504,0.0038632271659940097,0.9915320836138054
2015-11-23,1,0.000701894725702373,0.0008760390048945821,-0.008892805754088504,0.007034257088916671,0.9907846347806627
2015-11-25,1,0.0007656269145792476,0.0009531432967172238,-0.008892805754088504,0.009728361095274758,0.990299092728011
2015-11-30,1,0.0004767442505076289,0.0005738300167407056,-0.008892805754088504,0.009728361095274758,0.9901294709888548
2015-12-02,1,0.000599639735238504,0.0007342814678674641,-0.009813295609181937,0.009728361095274758,0.9898307873483547
2015-12-04,1,0.0009696781881070182,0.001148316847635826,-0.008578645833760369,0.00758689592519004,0.9916335200375417
2015-12-08,1,0.0008860218884443553,0.0010642708860101034,-0.009813295609181937,0.00758689592519004,0.990816681747388
2015-12-10,1,0.0006020618235064151,0.0007239500956066122,-0.009813295609181937,0.009728361095274758,0.9907602903760143
2015-12-14,1,0.0003705227176457224,0.00043820485159623524,-0.006454387689111578,0.00758689592519004,0.9917299472847821
2015-12-16,1,0.0010419148759925679,0.0012140475603672615,-0.009153195813792037,0.00758689592519004,0.9915515034331429
2015-12-18,1,0.0006108296016165293,0.0007380718071907065,-0.006339074397424323,0.009728361095274758,0.9911946597759227
2015-12-22,1,0.0011862586789293385,0.0013935703261623348,-0.006339074397424323,0.011120593719082673,0.9905933542493842
2015-12-24,1,0.0012896193843527767,0.001504282400438085,-0.006339074397424323,0.011627471152578162,0.9905272672879916
2015-12-29,1,0.001314016080862988,0.0015178174583539428,-0.006339074397424323,0.011627471152578162,0.9907175421526403
2015-12-31,1,0.0011681348085435573,0.0013733300290288237,-0.004167989603959893,0.012897404900924975,0.9908235268818648
2016-01-05,1,0.0010505659442814916,0.0012115840457337028,-0.004167989603959893,0.015012410419392967,0.9901549900693337
2016-01-07,1,0.00036302313652939903,0.0004347287046178539,-0.0034835961405585017,0.015012410419392967,0.9908449051820315
2016-01-11,1,0.0007688455464197523,0.0009063596685770798,-0.004167989603959893,0.015012410419392967,0.9906558164142424
2016-01-13,1,0.00048744857466600605,0.0005716865301414291,-0.0053814105510080305,0.015012410419392967,0.9902820635102986
2016-01-15,1,4.179776062270361e-05,8.096377682466727e-05,-0.004281609371875419,0.012300669858916627,0.990836124758163
2016-01-20,1,8.223030273465103e-05,0.00010305042880557705,-0.0034835961405585017,0.01004302666933086,0.9919743621851081
2016-01-22,1,0.0011605435994732865,0.0013045009899065232,-0.004281609371875419,0.008335576744906521,0.9930873128114683
2016-01-26,1,0.001012436450405035,0.0010871718554025765,-0.003781163813592777,0.008335576744906521,0.9931330800508523
2016-01-28,1,0.0014167637615996424,0.0015762330030193881,-0.0053814105510080305,0.008335576744906521,0.9926238871293067
2016-02-01,1,0.001950528818793594,0.002181885429429142,-0.0053814105510080305,0.008335576744906521,0.9925878987178752
2016-02-03,1,0.0020685880586246825,0.00229248021409343,-0.0053814105510080305,0.007975662511295084,0.9930755965003802
2016-02-05,1,0.002002833404970366,0.0022034161092530525,-0.005136559226394898,0.007937400612083836,0.9934458282274561
2016-02-09,1,0.0019104946824500444,0.0021149152669558717,-0.0036536040186368325,0.007937400612083836,0.9939667314373878
2016-02-11,1,0.0013102160193494776,0.0014107091398943058,-0.001906538099223733,0.007975662511295084,0.9942767756572584
2016-02-16,1,0.0014279019101391562,0.0015243301286879836,-0.001906538099223733,0.007975662511295084,0.9944300646824009
2016-02-18,1,0.0015109061595368648,0.001603932043137668,-0.001906538099223733,0.007975662511295084,0.994300379858839
2016-02-22,1,0.0012202703242057355,0.0012559218760448956,-0.001906538099223733,0.00818982856146071,0.9940163001866592
2016-02-24,1,0.0016393460310646082,0.001762160740869876,-0.002469330652228006,0.007975662511295084,0.994108380849479
2016-02-26,1,0.001574718122678597,0.0016868806105540095,-0.0017670086964291943,0.00818982856146071,0.9942630056097369
2016-03-01,1,0.002021250833771566,0.0022253960778942502,-0.0016915446808457545,0.00818982856146071,0.9946064180316305
2016-03-03,1,0.0024541207937921355,0.0027149603409995153,-0.002469330652228006,0.0070397486532970946,0.9945576873497344
2016-03-07,1,0.002371010135868035,0.0026108164595017545,-0.0029318386479165767,0.008126137175749224,0.9942888419177436
2016-03-09,1,0.0021281830574536873,0.002328354479693271,-0.0033774917973498353,0.008126137175749224,0.9937316295148578
2016-03-11,1,0.002595352473746428,0.002883001024377862,-0.0033774917973498353,0.006852200117716283,0.9935595780073883
2016-03-15,1,0.0025668198346911813,0.002841072587552834,-0.004509373078414895,0.0074548406401527545,0.9929731976685611
2016-03-17,1,0.0028905025046258516,0.0032161949711805096,-0.004509373078414895,0.00548853574230645,0.9932433843247525
2016-03-21,1,0.0024254218615106715,0.0026700790040566184,-0.0033774917973498353,0.00541156829853885,0.9942175031984011
2016-03-23,1,0.0019224255332768723,0.0020816220884273297,-0.004509373078414895,0.00541156829853885,0.9934150592250761
2016-03-28,1,0.002249061875615782,0.0024499288218799158,-0.004509373078414895,0.0047200327829606354,0.9935885750744798
2016-03-30,1,0.002407996757550248,0.002629563571108715,-0.004509373078414895,0.0047200327829606354,0.9931744075082061
2016-04-01,1,0.001916180174651876,0.0020487598353795757,-0.0034351704179844925,0.004880494229355024,0.9935035716632171
2016-04-05,1,0.001622493529620139,0.0016814100609021945,-0.0035701995601952253,0.004880494229355024,0.9935074766616264
2016-04-07,1,0.0010183587667530218,0.0010388216005831413,-0.0032555778943106468,0.004880494229355024,0.9940377250753245
2016-04-11,1,0.0002722903665021269,0.0004160803464665381,-0.0034008696645079608,0.005773410320739345,0.9939079680197933
2016-04-13,1,0.0005545999733115987,0.0006190867908758544,-0.0033138205371438683,0.005773410320739345,0.9940525388001206
2016-04-15,1,0.0008141569518911974,0.0008345418267134527,-0.0034008696645079608,0.0065863900663166355,0.993302990102381
2016-04-19,1,0.0009538460701497089,0.0009710231689201305,-0.003782578755094454,0.005773410320739345,0.9933915361444488
2016-04-21,0,-0.00013277661285154385,1.9485585117123177e-05,-0.0034008696645079608,0.005773410320739345,0.9940659899364956
2016-04-25,1,0.00017547036443591076,0.00028496675732331777,-0.0034359404202501487,0.005107117315055546,0.9942670594375045
2016-04-27,1,0.0004260248052118828,0.0005161729943736773,-0.0034359404202501487,0.004668121804319705,0.9948223134048666
2016-04-29,1,0.0006899459275312288,0.0007262027539827138,-0.0034359404202501487,0.004947100171461392,0.9946788842370441
2016-05-03,1,0.0004710099753165547,0.0005506317626909289,-0.0034359404202501487,0.004252033353450252,0.9945842513327605
2016-05-05,1,5.081703807505926e-05,0.00019478028940797055,-0.003345915449521466,0.004947100171461392,0.9942689513485601
2016-05-09,0,-5.229842289161094e-05,0.00011061918088573803,-0.003325510789057931,0.004947100171461392,0.9940131179755758
2016-05-11,1,0.0005511869920418016,0.0006085074621344891,-0.0010402617673301157,0.004947100171461392,0.9945158242818479
2016-05-13,0,-0.00011087109511039495,6.822164957322478e-05,-0.0010402617673301157,0.004947100171461392,0.9948603332511912
2016-05-17,1,0.00018567655459719615,0.00029595809684955206,-0.0007522231245609692,0.004969799168283645,0.9949682643119739
2016-05-19,-1,-0.0003836992722987089,-0.00021543081586653337,0.0013844416495346617,0.005714926517114974,0.9950118857349588
2016-05-23,-1,-0.000449695903436413,-0.00028244269726818133,0.0025699054339504324,0.00580948215575089,0.9946920198084133
2016-05-25,-1,-0.0005983515445900084,-0.00038659627194403804,0.0025699054339504324,0.005942184165393591,0.994031509520713
2016-05-27,-1,-0.0002946573244540275,-0.00012371038497836691,0.0016263126235557094,0.0062677650343019075,0.9936896749192798
2016-06-01,-1,-0.001428126390660117,-0.0010520981624753845,0.0016263126235557094,0.007715047018928106,0.9931325947939131
2016-06-03,-1,-0.0008555267611790983,-0.0005639217430802463,0.0016263126235557094,0.008193149569714045,0.9930128548299513
2016-06-07,-1,-0.0006282135938289869,-0.000345263867382686,-0.0007356573237254578,0.006290631215475359,0.9936030692605091
2016-06-09,-1,-0.0003998804924088028,-0.0001345510446652718,-0.002361746892249203,0.0071656064313462536,0.9928376185271617
2016-06-13,-1,-0.0006062200461041672,-0.0002906557887691466,-0.0023482003008275187,0.0071656064313462536,0.993078323867372
2016-06-15,1,0.00021300461830929388,0.0003617315662366044,-0.0023482003008275187,0.0071656064313462536,0.993119090872571
2016-06-17,1,0.0006871559902478349,0.0007750633719418064,-0.0023482003008275187,0.0071656064313462536,0.9935047249565138
2016-06-21,1,0.0009415126978213888,0.000996941485297366,-0.0023482003008275187,0.006344939162335206,0.9935955298236859
2016-06-23,1,0.001978501470776418,0.002087724653971893,-0.0024543786850571153,0.006344939162335206,0.993487333355709
2016-06-27,1,0.0022429484301212804,0.0024170142525202967,-0.003056249680530401,0.004687488100781006,0.9934508849232181
2016-06-29,1,0.0026675891911725463,0.002899897599907431,-0.00401002849036002,0.004687488100781006,0.9933587258796142
2016-07-01,1,0.0032639968508677937,0.0035499906864752302,-0.00401002849036002,0.004230749961008362,0.9929790360761678
2016-07-06,1,0.0024565283475287457,0.0025975573196079867,-0.002891690118426236,0.004230749961008362,0.9936156693673626
2016-07-08,1,0.00207151346557827,0.0021837232757185845,-0.00239952549768906,0.0031609020201863788,0.9948086796789045
2016-07-12,1,0.0019025017481429903,0.002007563663597184,-0.002891690118426236,0.003677095648294588,0.9948671283992503
2016-07-14,1,0.0020224349008872065,0.002124382742190135,-0.002891690118426236,0.002977855288576624,0.9948941888675062
2016-07-18,1,0.002043176244523106,0.002157022464444393,-0.00401002849036002,0.0029626244715090493,0.9944423269062401
2016-07-20,1,0.0017371008665376792,0.0018070750187780904,-0.004269319933410413,0.0029626244715090493,0.9933737117579463
2016-07-22,1,0.002138212221170414,0.0022681242872069083,-0.005498567792597674,0.002089082932571123,0.9929094108769108
2016-07-26,1,0.0016146088981684615,0.001709911241372944,-0.004489398109678696,0.002089082932571123,0.9937933681079326
2016-07-28,1,0.0017425586073365697,0.0018580743002624264,-0.0032380442026544304,0.002089082932571123,0.9941809863614457
2016-08-01,1,0.002076770904305442,0.002220118914527628,-0.005498567792597674,0.002089082932571123,0.9941115947953681
2016-08-03,1,0.0020905867153060524,0.0022551886088869014,-0.005498567792597674,0.002089082932571123,0.9940089507203728
2016-08-05,1,0.0020418746962670067,0.002205010785396012,-0.005498567792597674,0.0021640795779330375,0.9940943985610688
2016-08-09,1,0.0021607990078046434,0.002373182312406909,-0.003514029202867645,0.0021640795779330375,0.9941887238608503
2016-08-11,1,0.0022107223676503165,0.002411754015636867,-0.006860678286582168,0.0006097422003313966,0.9921680411023003
2016-08-15,1,0.0015100827829755599,0.0015890013094584953,-0.009439225812835147,0.0012168380492025373,0.9910703976615082
2016-08-17,1,0.0005917539523020775,0.0006016536755052981,-0.0043672474982417876,0.002691091071716778,0.9920747305697385
2016-08-19,-1,-0.00019491486093749347,-0.00010768142426410772,-0.002882806142599035,0.002691091071716778,0.9928005843648219
2016-08-23,-1,-0.0006457231040312287,-0.0004869484181567139,-0.002882806142599035,0.005379554362764855,0.9921187912274005
2016-08-25,-1,-0.0003762490312514159,-0.0002545240432591631,-0.002882806142599035,0.007094773599590902,0.9915311873840551
2016-08-29,-1,-0.000932363017006209,-0.0007104972512641433,-0.002860027716872931,0.007072800342855869,0.9918372246811469
2016-08-31,-1,-0.001258400025734867,-0.0009878487433390472,-0.0034142324729552736,0.007072800342855869,0.9911965579206944
2016-09-02,-1,-0.0013542620386648228,-0.001063461038125304,-0.0034142324729552736,0.007072800342855869,0.9910701739389173
2016-09-07,-1,-0.0009837420686445429,-0.0007430544688766014,-0.008313603071732595,0.005046015143511884,0.9895970703311797
2016-09-09,-1,-0.002407269712749985,-0.0020232103504039213,-0.006147516535880838,0.005046015143511884,0.991459267932917
2016-09-13,-1,-0.0028748677054919788,-0.0023771957162689117,-0.004146058732496586,0.003988746725326142,0.993130464843875
2016-09-15,-1,-0.002183543266370588,-0.0017838156023332222,-0.004146058732496586,0.003988746725326142,0.9933484180299715
2016-09-19,-1,-0.0022926739279799328,-0.0019079093413321866,-0.0034960894507553085,0.003988746725326142,0.99335727675643
2016-09-21,-1,-0.0017370912649499113,-0.0014207583484486532,-0.0034960894507553085,0.0036862751490767537,0.993951340051183
2016-09-23,-1,-0.0010075103773230373,-0.0007787779296448913,-0.008280648502846849,0.002295650154844405,0.9926504756756477
2016-09-27,-1,-0.0010482447251425997,-0.0007994744324619099,-0.015235879841553179,0.0015291318490362085,0.9922596360085799
2016-09-29,-1,-0.0018206687412330171,-0.0014861670729618454,-0.009718803928827563,0.002295650154844405,0.9926382818784812
2016-10-03,-1,-0.0016304602613056334,-0.0013331336984234025,-0.009718803928827563,0.002295650154844405,0.9924464112678363
2016-10-05,-1,-0.003454458672780727,-0.0029416383368756423,-0.006165319726617912,0.002295650154844405,0.9937902299695095
2016-10-07,-1,-0.003796276211031692,-0.0032418487239282995,-0.00546058695727316,0.0023479542225998723,0.9934860534644765
2016-10-11,-1,-0.003929773224199583,-0.003325621698434567,-0.00546058695727316,0.003075369945732776,0.9931206791206322
2016-10-13,-1,-0.003763762030668662,-0.0031706955898792794,-0.006527987339701945,0.003075369945732776,0.9920884799623324
2016-10-17,-1,-0.003747716959138178,-0.003170278789944307,-0.008119693068545741,0.003075369945732776,0.9918991964891424
2016-10-19,-1,-0.003439796399131179,-0.002916277570909541,-0.008119693068545741,0.007278789104223002,0.9906308519674131
2016-10-21,-1,-0.005775286979591577,-0.004965393572151879,-0.00546058695727316,0.007278789104223002,0.9911657288615777
2016-10-25,-1,-0.006354123569944272,-0.00550463104766852,-0.0039609525390751675,0.00787510002246881,0.9895753488480294
2016-10-27,-1,-0.005997945105756069,-0.005225712482332517,-0.002117746098192836,0.008953488046366398,0.9888068451409379
2016-10-31,-1,-0.00537032735800686,-0.004690606159292195,-0.002117746098192836,0.008953488046366398,0.9892048912882639
2016-11-02,-1,-0.005639915545131125,-0.004938262557990777,-0.0015482423838087565,0.008953488046366398,0.9877173380936657
2016-11-04,-1,-0.005265854735156567,-0.004617171875508577,-0.0015482423838087565,0.008953488046366398,0.9882781121133825
2016-11-08,-1,-0.00425614053222848,-0.0037519685911659786,-0.0015482423838087565,0.012222480112233355,0.9871594276328935
2016-11-10,-1,-0.004342500949269595,-0.0038493053271168604,-0.0011209904697828674,0.010849284815813825,0.988481187602941
2016-11-14,-1,-0.004260356658834463,-0.0038232737068195225,0.00020290897069316736,0.01372354078801656,0.9873240594034826
2016-11-16,-1,-0.0027417686707481444,-0.0024942585197998825,-0.0008040205814218676,0.010397678739734226,0.9892637776832717
2016-11-18,-1,-0.0018028801502672901,-0.0016956676429368224,-0.0008040205814218676,0.01119769632970375,0.989631980421999
2016-11-22,0,-7.886828703677391e-05,8.55262133033117e-05,-0.0011209904697828674,0.009999084054512799,0.9913177497788912
2016-11-25,1,0.0005325059853902236,0.0007626463254501472,-0.0011209904697828674,0.008807056264357018,0.9919044325672413
2016-11-29,1,0.0006542225214896339,0.0008775831895898601,-0.002051714465186131,0.008807056264357018,0.9920850576880184
2016-12-01,1,6.753728137884915e-05,0.0002063450719512314,-0.002051714465186131,0.008807056264357018,0.9930582741256996
2016-12-05,1,0.00010259892470380525,0.0002697862939543645,-0.002051714465186131,0.009999084054512799,0.992595666924115
2016-12-07,1,0.0020540247530724887,0.002487700299862188,-0.0028660859523004867,0.008356810216791199,0.993118837894828
2016-12-09,1,0.0019282862941795878,0.0023359454640786296,-0.0030475044675693716,0.008356810216791199,0.9925962840408857
2016-12-13,1,0.0030833451305371778,0.0036673202277113575,-0.003511226608133542,0.008356810216791199,0.9926630325793167
2016-12-15,1,0.0029041722249141195,0.0034263447815825673,-0.0030475044675693716,0.005149677906040773,0.993245035511895
2016-12-19,1,0.0035915003202226176,0.004216490370829374,-0.003511226608133542,0.003972054542183634,0.9927353026090553
2016-12-21,1,0.00409921839799676,0.004824228505262943,-0.003511226608133542,0.005801094636769249,0.9923155291761215
2016-12-23,1,0.0042917901446723646,0.0050351228257500494,-0.005128416664639002,0.003972054542183634,0.9914244496743282
2016-12-28,1,0.004163470391449706,0.004892783580864959,-0.005128416664639002,0.006604542592110347,0.9919634253751097
2016-12-30,1,0.004132120569867539,0.00485293436506727,-0.005128416664639002,0.008392754622741812,0.9917961096524506
2017-01-04,1,0.004515535091272289,0.005304526280746449,-0.005560771235642947,0.006341815266719671,0.9909226143754134
2017-01-06,1,0.0030599664073599547,0.0036360683248299365,-0.004679709582759687,0.006341815266719671,0.9928257499997754
2017-01-10,1,0.002084927949518942,0.0024716003860380817,-0.004543522256255017,0.006341815266719671,0.9937311730577354
2017-01-12,1,0.001870168715629717,0.0021827227599892692,-0.002909574491051773,0.005112879656487785,0.9944254216420233
2017-01-17,1,0.0018534836462973418,0.0021540724533922456,-0.004543522256255017,0.005112879656487785,0.9936695283971049
2017-01-19,1,0.0018599326982696833,0.002173230993677494,-0.002909574491051773,0.006341815266719671,0.993885537909001
2017-01-23,1,0.002689598103013221,0.003107959763295565,-0.002909574491051773,0.005618290248788941,0.994385099138603
2017-01-25,1,0.002081180571538475,0.0024117355774065886,-0.0026176223378929454,0.005816058980673414,0.9948596237093545
2017-01-27,1,0.0026253009543047417,0.0030302959915424147,-0.0036468339970258043,0.005688604639619838,0.994148094946532
2017-01-31,1,0.002889154536155459,0.003345498429546432,-0.0026176223378929454,0.00567742752306533,0.9943685286604427
2017-02-02,1,0.0012422799464932063,0.001395173825261427,-0.0008945809894988134,0.00567742752306533,0.9954909316335694
2017-02-06,1,0.0012446633438845714,0.0014120657254618704,-0.0012491712794640943,0.00567742752306533,0.9955324215377066
2017-02-08,1,0.0015674987436901178,0.0018025912199699976,-0.0015462774110924068,0.00567742752306533,0.9953227718016094
2017-02-10,1,0.0014916853217111815,0.0016941089400413934,-0.0015462774110924068,0.005993470803502583,0.9948835195110584
2017-02-14,1,0.0011597860184825227,0.001345160631090539,-0.0015462774110924068,0.006684223402590489,0.9949544974359377
2017-02-16,1,0.0019246671546049828,0.0022489371713303877,-0.0020865747372528346,0.005993470803502583,0.9950519170881695
2017-02-21,1,0.0024319901881242356,0.0028330858859626196,-0.003396646948202265,0.0045480059030260315,0.9944567073916101
2017-02-23,1,0.002290797907827366,0.002633939776350663,-0.0037561933136735204,0.004021631791631135,0.9943123664908697
2017-02-27,1,0.002153631745386606,0.002479023726062393,-0.0037561933136735204,0.0015416173278886137,0.995042214199214
2017-03-01,1,0.001484798675874904,0.0016310960766970591,-0.0037561933136735204,0.0009620185901345504,0.9954649541708284
2017-03-03,1,0.0012318377880039559,0.0013247636982564757,-0.004483849607295919,0.0022667428505619845,0.995129371795858
2017-03-07,1,0.001148363364032932,0.0012398371921748623,-0.004483849607295919,0.003166382520071116,0.9953179479029121
2017-03-09,1,0.0012677806918957985,0.0013869018678691056,-0.004676096208309522,0.001987024002644298,0.994188862511275
2017-03-13,1,0.0014733649194539529,0.0016116675770137504,-0.005064961187112929,0.0009620185901345504,0.9941451624493527
2017-03-15,1,0.001631837165589688,0.0017937526784150678,-0.004676096208309522,0.0009620185901345504,0.9945800786234668
2017-03-17,1,0.0004760538157872344,0.0005524162537874464,-0.005064961187112929,0.0005524821378846555,0.9951357687132366
2017-03-21,-1,-0.0006346008133508076,-0.0003781314057900905,-0.004676096208309522,0.0005524821378846555,0.9959786993791382
2017-03-23,-1,-0.0013169025306375424,-0.0009655370204018509,-0.004676096208309522,0.0009620185901345504,0.9958711060275478
2017-03-27,-1,-0.001444123970166377,-0.0010888472350531633,-0.004495326129888122,0.0018288455870068675,0.9959196085240258
2017-03-29,-1,-0.001892674029976518,-0.001460097524666514,-0.005064961187112929,0.0023736817834791005,0.9948630538562901
2017-03-31,-1,-0.001888977232192696,-0.0014576901893049942,-0.006931485076849843,0.0009358921196413922,0.9946416511619632
2017-04-04,-1,-0.0016327803801673524,-0.0012488178052991032,-0.007925388609839889,0.00012413487241348848,0.9941726640559303
2017-04-06,-1,-0.002973025193478831,-0.002412950003246256,-0.007800915021176367,0.0009358921196413922,0.9941670439187609
2017-04-10,-1,-0.003612512771564973,-0.002949956327802414,-0.009344876624927227,0.0009358921196413922,0.9939439752152588
2017-04-12,-1,-0.0028819401469317874,-0.0023553670535110885,-0.009344876624927227,0.0009358921196413922,0.9938757503555936
2017-04-17,-1,-0.0029736737435682526,-0.0024533337809442704,-0.009344876624927227,0.0023399852763391414,0.9937599525723128
2017-04-19,-1,-0.002566405985190246,-0.0021357596339543474,-0.010437557755412857,0.0023399852763391414,0.9927441972635855
2017-04-21,-1,-0.002558153342050503,-0.002157232356900604,-0.010208515450856387,0.0034530126100156926,0.9921332539101164
2017-04-25,-1,-0.0023962932778876797,-0.0020269645367457325,-0.010208515450856387,0.0034530126100156926,0.9920539101716672
2017-04-27,-1,-0.0028262479009737666,-0.002376852517554353,-0.009344876624927227,0.002222260303854586,0.9930097556709389
2017-05-01,-1,-0.00380144468470289,-0.0032252099223579124,-0.00540094443126767,0.0034530126100156926,0.9928592251063221
2017-05-03,-1,-0.0034440727318710254,-0.002996001176012189,-0.0032021201376027882,0.006423749782851144,0.9926891474736416
2017-05-05,-1,-0.003259721108890933,-0.002831728199921787,-0.0018770276027110326,0.0034530126100156926,0.9937331888670465
2017-05-09,-1,-0.0029533908435778844,-0.0026086989082223827,-0.0016730223549666092,0.0034530126100156926,0.9940889040011182
2017-05-11,-1,-0.002501464353414036,-0.002218283496021887,-0.002265327485851445,0.00383167703399687,0.9941622259394575
2017-05-15,-1,-0.0019100878974964463,-0.0017255440919214235,-0.0032021201376027882,0.007296893979561169,0.9939053015514058
2017-05-17,-1,-0.002761350041656321,-0.0024912735145218735,-0.0016730223549666092,0.007296893979561169,0.9943457146818936
2017-05-19,-1,-0.0016377565223078742,-0.0015180345291608858,-0.0016730223549666092,0.003092005238330924,0.9958139510197757
2017-05-23,-1,-0.0015528832716593128,-0.0014379987045822602,-0.0032021201376027882,0.003092005238330924,0.9952757229337018
2017-05-25,-1,-0.0015017031883266135,-0.001397039599630941,-0.0031422728293062753,0.003092005238330924,0.9954603979200913
2017-05-30,-1,-0.0009423381834459601,-0.0009180321082084366,-0.004559067425089346,0.003092005238330924,0.9953068085536075
2017-06-01,-1,-0.001312416642899029,-0.0011874686923152814,-0.006495786282215485,0.003092005238330924,0.9951607704605246
2017-06-05,-1,-0.0015673239500405525,-0.001391492341576195,-0.006495786282215485,0.0036418833087682356,0.9944577793614078
2017-06-07,-1,-0.001453437983544179,-0.001301700766169242,-0.007139508397300407,0.0036418833087682356,0.9933749992709429
2017-06-09,-1,-0.0012528103316786006,-0.0011301758308732328,-0.006927403981987508,0.003092005238330924,0.9937330810609787
2017-06-13,-1,-0.001342966654668529,-0.001206642969835509,-0.0062899416179603065,0.003092005238330924,0.9939790649942079
2017-06-15,-1,-0.000600369766175811,-0.0005962109718684651,-0.006927403981987508,0.002965406027744937,0.9931537216855595
2017-06-19,-1,-0.0008005652948791446,-0.0007507936112340508,-0.009073775980200038,0.00259507782995893,0.9927628892273668
2017-06-21,-1,-0.0011134835974191534,-0.001056662926764412,-0.006792260789503296,0.004235043527746366,0.9928577657248927
2017-06-23,-1,-0.0010889023732134394,-0.0010427295634892657,-0.007860459003896288,0.004235043527746366,0.9926411291555901
2017-06-27,-1,-0.0017452739334735102,-0.0015852460029777908,-0.006600959958596567,0.00448854791610868,0.9908695028696564
2017-06-29,-1,-0.0019713211276344476,-0.001786955137856632,-0.006600959958596567,0.00448854791610868,0.9892766159813852
2017-07-03,-1,-0.0012388827161946352,-0.0011502773316967327,-0.006600959958596567,0.002836582633409074,0.989967369017303
2017-07-06,-1,-0.0020602103024056446,-0.001888096580698945,-0.006600959958596567,0.002836582633409074,0.9903733582426177
2017-07-10,-1,-0.0027276388296204974,-0.002451726827960358,-0.006600959958596567,0.0038971341976770206,0.9900024770139784
2017-07-12,-1,-0.002275635946281427,-0.002081467386080124,-0.005032550970904363,0.002836582633409074,0.9904956722561971
2017-07-14,-1,-0.0024100510309039173,-0.0022282961756765985,-0.004223187203246161,0.0028320132465330084,0.9912950057736585
2017-07-18,-1,-0.0024432549431962058,-0.0022732741529570455,-0.004223187203246161,0.0038971341976770206,0.9909901873513185
2017-07-20,-1,-0.0017082161481641678,-0.0016241826890219736,-0.005241066870014955,0.0019612600198457143,0.9910747590015094
2017-07-24,-1,-0.0017368970863110642,-0.0016659962158295648,-0.004853028903721676,0.0027360652481364365,0.9908514269335282
2017-07-26,1,0.0003139627843256092,0.0005081060077751742,-0.004853028903721676,0.0027360652481364365,0.9928215003651173
2017-07-28,1,0.0012837905575889502,0.0016019840545760146,-0.004853028903721676,0.0027360652481364365,0.9941604734324299
2017-08-01,1,0.0012726323531674754,0.0015954281135955029,-0.004853028903721676,0.0027360652481364365,0.9941350650039215
2017-08-03,1,0.0010113198959746821,0.001327090280450058,-0.004960360537751982,0.0027360652481364365,0.9944622659974948
2017-08-07,1,0.0014465139416011638,0.0018353816578751815,-0.005710324476655314,0.000859032184948691,0.9938186944059775
2017-08-09,1,0.0014188614200782025,0.0018103729963150144,-0.006954624339194071,0.000859032184948691,0.9920412498452404
2017-08-11,1,0.001045050806499049,0.0013655155433818604,-0.006954624339194071,0.002429441933485056,0.9924623090411779
2017-08-15,1,0.0009922627991122792,0.0012855212580466604,-0.006170031525894117,0.004565852643109926,0.99244098397163
2017-08-17,1,0.0004677599763558409,0.0006868891992879115,-0.006160938369379395,0.006214026827072733,0.9921064312221255
2017-08-21,1,0.0005420669890969963,0.0007734636010387586,-0.005754256538218263,0.008326701185830884,0.9912740218403544
2017-08-23,1,0.0010414495775254824,0.0013500942983510824,-0.005754256538218263,0.008055109080882354,0.9912558475560113
2017-08-25,1,0.001277763732567305,0.0016284894146241788,-0.005492078015010721,0.008889202414326683,0.9909392693798668
2017-08-29,1,0.0007194654073727305,0.0009424368169092086,-0.005754256538218263,0.008889202414326683,0.9906335077356037
2017-08-31,1,0.0002955563396693968,0.00045312030033604916,-0.005671570686960713,0.008889202414326683,0.9906519881910912
2017-09-05,1,9.573103064452446e-05,0.00024063311274904884,-0.0025150024464641913,0.009515601675829585,0.9905827493231214
2017-09-07,-1,-0.00153504154601077,-0.0014632750347304529,0.00011965234691805281,0.009515601675829585,0.9915851366503905
2017-09-11,-1,-0.0011979920659657577,-0.0011643410718374207,-0.0025150024464641913,0.009515601675829585,0.9906775053477911
2017-09-13,-1,-0.00037987197750437697,-0.00032263390816152473,-0.005671570686960713,0.008834127434059787,0.9915058454987806
2017-09-15,1,0.00027497555687327834,0.00042053752563263027,-0.005977120318544437,0.007379455576337704,0.9898655323739874
2017-09-19,1,0.0014057187100275917,0.001701925534714468,-0.005977120318544437,0.006059315233614221,0.9906635339604523
2017-09-21,1,0.0010446808303939664,0.0012489228573522482,-0.007649182627894578,0.005657510963564347,0.990348723346004
2017-09-25,1,0.00153891583858162,0.0017689927098346022,-0.008078894706030192,0.002076599314446715,0.9904661612750558
2017-09-27,1,0.0012883863392071106,0.0014942227402914288,-0.008885791069788757,0.002076599314446715,0.9885404774927999
2017-09-29,1,0.001393906524270018,0.0015925415732721089,-0.008885791069788757,0.002549600475636694,0.9883026442130489
2017-10-03,1,0.001747335173028291,0.00200368382184128,-0.011462417420907015,0.0020640144340410126,0.9879038197007239
2017-10-05,1,0.001816058649695453,0.002088451139390873,-0.011659321730120156,0.0020640144340410126,0.9871383529693166
2017-10-09,1,0.00017825995409830145,0.00018419861408197136,-0.011659321730120156,0.0034395044912176624,0.9884405499590672
2017-10-11,1,0.00044390170769435366,0.0005145449251180362,-0.011659321730120156,0.004357718056665053,0.9882218554066929
