JNU-Tangyin/eata/results/Batch4_SP500/Batch4_SP500-RLI.csv
Date,Action,Predicted_Q25,Predicted_Q75,Actual_Q25,Actual_Q75,RL_Reward
2010-12-14,0,0.0,0.0,-0.004373359183060252,0.004246280810620325,0.9940798795408489
2010-12-16,0,0.0,0.0,-0.0038612823076857265,0.002836984091333123,0.9942492675908109
2010-12-20,0,0.0,0.0,-0.0038612823076857265,0.002680341734568663,0.9949826290897115
2010-12-22,0,0.0,0.0,-0.0050847369280028355,0.002680341734568663,0.9942272708640241
2010-12-27,0,0.0,0.0,-0.0050847369280028355,0.002680341734568663,0.9926236860836586
2010-12-29,0,0.0,0.0,-0.0050847369280028355,0.002680341734568663,0.9924771298554075
2010-12-31,-1,-0.0007954960787613578,-0.0006998697988301458,-0.0050847369280028355,0.0049639960178553336,0.9916890765017731
2011-01-04,-1,-0.0008048976715166575,-0.0007003068973934774,-0.004638596089918646,0.0049639960178553336,0.9912725564723168
2011-01-06,1,0.0007826033403761264,0.0008890505947635253,-0.004638596089918646,0.002684357872369377,0.9915457587244664
2011-01-10,0,0.0,0.0,-0.0038612823076857265,0.004496198710879879,0.9916678981634232
2011-01-12,0,0.0,0.0,-0.003827033523493507,0.004496198710879879,0.9916619290676738
2011-01-14,-1,-0.000987820343527624,-0.0008210461929816491,-0.001705192427363604,0.006715206063156147,0.9913812582910873
2011-01-19,-1,-0.0009332386313080195,-0.0007796705235685645,-0.0008051035410106663,0.006784563451908513,0.9912594029208722
2011-01-21,-1,-0.0011704954879829812,-0.0009888215866242238,-8.904923072198799e-05,0.011940535761890553,0.9897257022181337
2011-01-25,0,0.0,0.0,-0.0008051035410106663,0.007452428488984293,0.9908680677564831
2011-01-27,0,0.0,0.0,-0.001705192427363604,0.007452428488984293,0.9911837945192581
2011-01-31,-1,-0.000817639183272837,-0.0006676584372738736,-0.001705192427363604,0.006784563451908513,0.9916647784141897
2011-02-02,-1,-0.00014132942432684427,-8.683931680072241e-05,-0.003412819789787066,0.006784563451908513,0.9921942170905836
2011-02-04,-1,-0.00011947768357166788,-6.782993648670282e-05,-0.004647131138577584,0.006784563451908513,0.9915275518582852
2011-02-08,1,0.00033764279458581596,0.0003565869223154593,-0.004647131138577584,0.007842042776462119,0.9910845862955697
2011-02-10,0,0.0,0.0,-0.009686895152813731,0.007842042776462119,0.9897164964757315
2011-02-14,0,0.0,0.0,-0.010791750860988311,0.007812888010759828,0.989377898310698
2011-02-16,0,0.0,0.0,-0.010791750860988311,0.008393692573640454,0.9890349256446365
2011-02-18,0,0.0,0.0,-0.010791750860988311,0.006547402526860122,0.9899791647027871
2011-02-23,0,0.0,0.0,-0.008267407459785447,0.006547402526860122,0.9913426914765493
2011-02-25,1,0.0013200447060166508,0.0014170661671233553,-0.007577218789753629,0.004759033635144042,0.9915820290382577
2011-03-01,1,0.0010035147131525505,0.0010792282666885668,-0.004256531622820158,0.006296980334814382,0.9921352470258022
2011-03-03,1,0.0014310652269537976,0.0015764138613214703,-0.004223943989780305,0.006296980334814382,0.9925870192041204
2011-03-07,1,0.0009810719364990903,0.001063323479496377,-0.0015672193101432383,0.006296980334814382,0.9931634848941081
2011-03-09,1,0.0014548652985793007,0.0016246673841910798,-0.002003734055699808,0.006296980334814382,0.9937079595594107
2011-03-11,1,0.0011015120830380834,0.0012545990204081774,-0.002003734055699808,0.006296980334814382,0.9949039838772143
2011-03-15,1,0.00046961671289045496,0.000489937821449968,-0.0004910332199358323,0.006296980334814382,0.9953370669589432
2011-03-17,1,9.263935490114332e-05,0.00012631211215950521,-0.0004910332199358323,0.006296980334814382,0.9953521038940663
2011-03-21,1,0.0007194979730926938,0.0007536265114571562,-0.0015864699695243346,0.004153365872614041,0.996388949290747
2011-03-23,1,0.0002957140622043896,0.00033384599513434324,-0.001285186817421247,0.004153365872614041,0.9961878607005742
2011-03-25,1,0.0006890963607282983,0.0007107740547927434,-0.0015408567035456375,0.003805255804196872,0.9965104697280278
2011-03-29,1,0.0009648814498628155,0.0010386865548471737,-0.0015408567035456375,0.003805255804196872,0.9965777961530808
2011-03-31,1,0.0015615843409099357,0.0017484527892347107,-0.0015408567035456375,0.003775285812208036,0.9970476198011102
2011-04-04,1,0.0014538975231983345,0.0016017980460542678,-0.002061486033843097,0.0036138707926281024,0.9966251920341135
2011-04-06,1,0.0016986362013938362,0.001890098109318313,-0.0021866311380468275,0.003433993376245017,0.9965618793030019
2011-04-08,1,0.0012221763023763626,0.0013297326405794666,-0.001112116551880576,0.003889066512274645,0.9964774708668247
2011-04-12,1,0.0010333127973043725,0.001084798301913349,-0.0015408567035456375,0.004514414669553159,0.9957479819267867
2011-04-14,1,0.0012611230149160422,0.0013429164664661303,-0.0023028670692616577,0.004514414669553159,0.9950265532664513
2011-04-18,1,0.0009965176778603188,0.0010348007757255023,-0.0017803682784445856,0.004514414669553159,0.9949453933028048
2011-04-20,1,0.000881476397172895,0.0009010335010080206,-0.0017803682784445856,0.005473560790049941,0.9946975028032091
2011-04-25,1,0.0008507565106832893,0.0008725519729987703,-0.004164568623812599,0.005473560790049941,0.9941965505483755
2011-04-27,1,0.001143458109261399,0.001229319818279932,-0.0076622678607233255,0.004700621665534539,0.9939917242079847
2011-04-29,1,0.0008848131960258311,0.0009144099539486901,-0.0076622678607233255,0.004700621665534539,0.9937907994865525
2011-05-03,1,0.0009868349597564727,0.0010465415995470407,-0.0076622678607233255,0.006056575517718029,0.9929647780673501
2011-05-05,1,0.001127568356556311,0.001266007674408962,-0.007994087528242091,0.006056575517718029,0.9930124937526621
2011-05-09,0,0.0,0.0,-0.007994087528242091,0.004404278700037052,0.9926738913704667
2011-05-11,0,0.0,0.0,-0.004379718761804851,0.003992162759471607,0.993175156754058
2011-05-13,0,0.0,0.0,-0.004379718761804851,0.0038384899333951863,0.9940545157724122
2011-05-17,1,0.0005417029886111587,0.0006031863272881084,-0.006151777706447297,0.003992162759471607,0.9939212558345524
2011-05-19,1,0.0009299326644390205,0.0009392104347903824,-0.006151777706447297,0.003992162759471607,0.9939022932957808
2011-05-23,1,0.0008983598305802985,0.0009259905692705318,-0.0015991995764362854,0.0050453971372802844,0.9942072230170894
2011-05-25,1,0.0002646144608958681,0.0003509533045729019,-0.0015354779488112114,0.0050453971372802844,0.9945244915725612
2011-05-27,1,0.0002055867091110553,0.0003002968107247603,-0.0015354779488112114,0.007093626598444383,0.9940124555205391
2011-06-01,0,0.0,0.0,-0.00037891726166834876,0.005318476652698064,0.9951364010777509
2011-06-03,0,0.0,0.0,4.184096390856518e-05,0.00748113607582937,0.9948802231730457
2011-06-07,0,0.0,0.0,4.184096390856518e-05,0.00748113607582937,0.9946986363613503
2011-06-09,0,0.0,0.0,-0.00037891726166834876,0.008296707052245047,0.9937539514453467
2011-06-13,-1,-0.0009421743325394122,-0.0006783476157194908,-0.0008507569495932389,0.008296707052245047,0.9934861137586413
2011-06-15,-1,-0.0013374019256930047,-0.0010012778638400026,-0.0008507569495932389,0.008296707052245047,0.993390795095223
2011-06-17,-1,-0.0005111039033982078,-0.0003057658476291094,-0.002588559396946059,0.007305530461173121,0.9937752244195424
2011-06-21,1,0.0001529229765897032,0.0002457286410163476,-0.0033331979821040543,0.007305530461173121,0.9941221226958796
2011-06-23,-1,-0.000185245414917043,-4.7853360106326584e-05,-0.0021520512594474187,0.008988457144288243,0.9909057152577732
2011-06-27,1,0.0007318558365529672,0.0007366287798104734,-0.004022915890159249,0.008296707052245047,0.9913784491262575
2011-06-29,1,0.0007432195549063388,0.0007456440071137219,-0.007570845954146894,0.008296707052245047,0.9903354811617014
2011-07-01,1,0.0012677254782586357,0.001356597986890046,-0.008670839594675931,0.004385074544735523,0.9897453260881296
2011-07-06,1,0.001646683884462044,0.0017723538474164683,-0.009523843823641574,0.0008076939826189172,0.9894324479511308
2011-07-08,1,0.0015709445288223526,0.001692687664847268,-0.009523843823641574,0.0004641651745651998,0.9889240447824037
2011-07-12,1,0.0012742545039930338,0.0013664357671339489,-0.01065840937075465,0.0008076939826189172,0.9838075124904095
2011-07-14,1,0.0016477406517603854,0.0018532235599215503,-0.014201956898430389,0.0008076939826189172,0.9792784521901484
2011-07-18,1,0.0009778968466341588,0.0010481740413531553,-0.016294173157917938,0.0043071035954798335,0.9783217479263098
2011-07-20,1,0.0009438466885128828,0.0010150777893490313,-0.016294173157917938,0.0050584117701780226,0.9778928578634519
2011-07-22,1,0.002639623181031522,0.002905495266305652,-0.020030445999550315,0.0004641651745651998,0.9779310310808627
2011-07-26,1,0.002399961483999281,0.0026532261021186628,-0.020030445999550315,0.0010581300408516467,0.9772892786683041
2011-07-28,1,0.0015137446172337038,0.0016158546335806902,-0.016812630743047372,0.006355171048712694,0.9774270414068156
2011-08-01,1,0.001045821170476885,0.0011089284092403767,-0.016812630743047372,0.01713190315566414,0.9767064036353648
2011-08-03,1,6.340378722487775e-05,0.00016754439675947032,-0.016812630743047372,0.01713190315566414,0.977227568633343
2011-08-05,-1,-0.0012773624307325976,-0.00098828310013688,-0.016812630743047372,0.01713190315566414,0.9769534209619668
2011-08-09,-1,-0.000836481375006177,-0.0006007975143163183,-0.012229180718644067,0.01713190315566414,0.9800472488775187
2011-08-11,1,0.000773906531873259,0.0007842423715586082,-0.012229180718644067,0.010976711037475677,0.9828027801510402
2011-08-15,1,0.000293084184822261,0.0003663564589131028,-0.009716991935771696,0.010976711037475677,0.9836016291175413
2011-08-17,1,2.4763289043922226e-05,0.00012226056775789984,-0.009014014856475263,0.01358176093155409,0.9834452638481769
2011-08-19,-1,-0.0011602787251550877,-0.0009348488456066157,-0.0076493355843845765,0.01358176093155409,0.9844201719720421
2011-08-23,-1,-9.615974628138452e-05,-1.3145490331914391e-05,-0.010808118854438534,0.012665758611731559,0.9840445206747018
2011-08-25,-1,-0.00010512803188409678,-2.7124243061749282e-05,-0.010981717118810875,0.00980549287332216,0.9846839359994463
2011-08-29,1,0.0012276655244193107,0.00132294348156694,-0.010981717118810875,0.012508295945524788,0.9856472403332124
2011-08-31,1,0.0011206183980159933,0.001187764057605812,-0.017353595179667773,0.0129590181461042,0.9832035241897977
2011-09-02,0,-5.9540681187254867e-05,1.565053778775026e-05,-0.017353595179667773,0.0129590181461042,0.9830250879986556
2011-09-07,1,0.001790062817364017,0.0019573360872034836,-0.017353595179667773,0.013719647378075458,0.982146324965998
2011-09-09,1,0.0003614900053562496,0.0003936131463356052,-0.013585023133090447,0.015223990299755756,0.9822822697567923
2011-09-13,1,0.0011187472882183765,0.0011809785869176378,-0.013585023133090447,0.015056272072554307,0.982602281089485
2011-09-15,1,0.0014525021760566272,0.0015514549918431708,-0.013585023133090447,0.01554549527149714,0.98258289944807
2011-09-19,1,0.0008314853960621883,0.0008610560513027156,-0.013585023133090447,0.016478688979338883,0.9815904125900122
2011-09-21,1,0.0004551525724464467,0.0004692820118213264,-0.01327668320948564,0.016659835053553375,0.9809832934658029
2011-09-23,1,4.130207815880501e-05,0.00011066901660823338,-0.00627227622654186,0.016659835053553375,0.9810463570289094
2011-09-27,1,0.0007073079956198832,0.0007105682997274971,-0.01327668320948564,0.016659835053553375,0.981029780249117
2011-09-29,1,0.001147966337490763,0.0012272000487100676,-0.00627227622654186,0.016659835053553375,0.9822891782339351
2011-10-03,1,0.00025967412901705783,0.0002982832716447587,-0.006874680820185532,0.016659835053553375,0.9833347128193184
2011-10-05,1,0.002462616229050864,0.0027102409273890567,-0.009941136980165813,0.016478688979338883,0.9841804747926144
2011-10-07,1,0.00229218414074973,0.002515223078529962,-0.008458572966184966,0.016478688979338883,0.983998912245901
2011-10-11,1,0.002617596817057199,0.0028948556885117836,-0.008458572966184966,0.015552209195003662,0.9847201275874605
2011-10-13,1,0.002644443604096003,0.002908115674916104,-0.01050344085624217,0.010960615113507667,0.9841700805207914
2011-10-17,1,0.0021093087942515264,0.002288452189571749,-0.008458572966184966,0.011405373374953238,0.9851028817513343
2011-10-19,1,0.0025264350802289078,0.002761942672779087,-0.008458572966184966,0.009681998575806192,0.9865507475802077
2011-10-21,1,0.0026015284737204753,0.002818164792715917,-0.008458572966184966,0.013107739398199588,0.9858147585534819
2011-10-25,1,0.0017902083344744804,0.001890953585580943,-0.008458572966184966,0.018490200195477105,0.984904766394107
2011-10-27,1,0.0028572215801999875,0.0031115787675231707,-0.008458572966184966,0.013107739398199588,0.9863662876257169
2011-10-31,1,0.0020863861672609065,0.0022449214837879554,-0.009053196118204323,0.013107739398199588,0.9841140764142858
2011-11-02,1,0.001680676657835682,0.0017705579455727354,-0.009053196118204323,0.013107739398199588,0.9836604554901109
2011-11-04,1,0.0018031159581264234,0.00190419980206333,-0.008752629739829671,0.008651077119235248,0.9851005789592954
2011-11-08,1,0.0019944292678565215,0.00212575786719278,-0.008752629739829671,0.01113340740869312,0.9849605744058549
2011-11-10,1,0.0015450316990196131,0.0016244123005410634,-0.0036506937263601985,0.012722963137717275,0.9853575361598499
2011-11-14,1,0.0017086165214565488,0.0018017049039935108,-0.003587746526250499,0.01113340740869312,0.9858545157116788
2011-11-16,1,0.0017452198467386311,0.001861654180249842,-0.001595959344255599,0.012472005947357857,0.9859571526481181
2011-11-18,1,0.0018554061491496136,0.0019825842731183603,-0.00420041593880385,0.009787740385305459,0.9855299196967044
2011-11-22,1,0.002014816869712406,0.0021798482433911066,-0.001595959344255599,0.009787740385305459,0.9853248784986893
2011-11-25,1,0.002083600721214646,0.0022777114511818284,-0.001595959344255599,0.009787740385305459,0.9854502267695503
2011-11-29,1,0.0010253094537404084,0.0010713943809023845,-0.001595959344255599,0.009787740385305459,0.9877551822433188
2011-12-01,1,0.000836613603783397,0.0008415179202636904,-0.001595959344255599,0.007866261824512902,0.9904861887943714
2011-12-05,1,0.0008477345437488646,0.0008508535240724862,-0.00420041593880385,0.007866261824512902,0.9898012840974733
2011-12-07,1,0.0009402753959645008,0.0009469774324963958,-0.00420041593880385,0.007866261824512902,0.9895964491454721
2011-12-09,1,0.001178888890547668,0.0011977518772417041,-0.0055099135469991655,0.007595382091355593,0.9898831406044414
2011-12-13,1,0.001939087357193794,0.002152641159010148,-0.0055099135469991655,0.006932456409253793,0.9901598969360531
2011-12-15,1,0.002149103587397657,0.00236924981022546,-0.006229266204599504,0.006432085031502725,0.9906588441565238
2011-12-19,1,0.0009725742881761899,0.0010030783559385398,-0.004145520455258614,0.006432085031502725,0.9916563289299267
2011-12-21,1,0.0017630078980818194,0.001869669870766273,-0.005059206233639807,0.006432085031502725,0.9929237345427961
2011-12-23,1,0.0014721433514551891,0.001527290521861835,-0.005059206233639807,0.006432085031502725,0.9927403576473813
2011-12-28,1,0.0008322995737552165,0.0008948128657642383,-0.00753907790382157,0.005384900368860966,0.9918149567527113
2011-12-30,0,0.0,0.0,-0.0060066859498398625,0.005384900368860966,0.9919910987413184
2012-01-04,0,0.0,0.0,-0.005059206233639807,0.0058774215253873385,0.9920356166975771
2012-01-06,0,0.0,0.0,-0.005059206233639807,0.004833467954812351,0.9925538307689163
2012-01-10,1,0.0007695142479348519,0.0008493954758663246,-0.0060066859498398625,0.004391985763787916,0.9924039317857796
2012-01-12,1,3.849300587899652e-05,0.00025257457276702336,-0.007622756969538325,0.0048106185796648725,0.9918959108413689
2012-01-17,0,0.0,0.0,-0.009510406765314533,0.0050068306049154045,0.991025398241255
2012-01-19,0,0.0,0.0,-0.008302715179968946,0.005861056348337813,0.9909720959719364
2012-01-23,1,0.00047558434306080647,0.0005109404372161266,-0.008302715179968946,0.0044497733138222665,0.9915705720785679
2012-01-25,1,0.00023925343858246026,0.000313876552373621,-0.009510406765314533,0.005045758789663259,0.9910069335628042
2012-01-27,-1,-0.0011781066090444385,-0.0008951578062340006,-0.007326779748222541,0.005400105444342833,0.9924811057534345
2012-01-31,-1,-0.00021041612528949693,-0.00012117691705285452,-0.008302715179968946,0.005045758789663259,0.9925455548705857
2012-02-02,-1,-0.0007947748771123189,-0.0005657943621639454,-0.00926025938549187,0.0044497733138222665,0.9929301245758492
2012-02-06,-1,-0.0003948270813358401,-0.00024813308230674745,-0.00926025938549187,0.005045758789663259,0.9923108655044137
2012-02-08,-1,-0.0004998861911633476,-0.0003500705294443323,-0.008935837752064182,0.005045758789663259,0.9927019412200272
2012-02-10,-1,-0.001069655875961647,-0.0008179433353752125,-0.00819457463549305,0.0064772332720455066,0.9919990581458774
2012-02-14,0,0.0,0.0,-0.00819457463549305,0.0064772332720455066,0.9921551641597273
2012-02-16,0,0.0,0.0,-0.008935837752064182,0.005400105444342833,0.9922463836104428
2012-02-21,0,0.0,0.0,-0.008935837752064182,0.0064772332720455066,0.9919059384378711
2012-02-23,0,0.0,0.0,-0.007929327014840845,0.0064772332720455066,0.9923019818765761
2012-02-27,0,0.0,0.0,-0.007929327014840845,0.00840465191682433,0.9911469214734326
2012-02-29,0,0.0,0.0,-0.005767114850375703,0.00840465191682433,0.9914876625340329
2012-03-02,0,0.0,0.0,-0.0058350788162573955,0.00840465191682433,0.991506679743392
2012-03-06,0,0.0,0.0,-0.0051010099108939125,0.008673448244098287,0.9918504795862805
2012-03-08,0,0.0,0.0,-0.0058350788162573955,0.008673448244098287,0.9916076434763323
2012-03-12,-1,-0.0005299279239340451,-0.00041473557362389806,-0.008575702583974438,0.00736592502810327,0.9918720145423622
2012-03-14,-1,-0.0005453472635512514,-0.0004472911160922457,-0.007849074813080578,0.007088932174864334,0.9922096125226645
2012-03-16,-1,-0.0006380799252604821,-0.0005454467515201363,-0.007849074813080578,0.00780874122742367,0.9920480709148515
2012-03-20,-1,-0.0006548888664715568,-0.0005370948064118571,-0.007849074813080578,0.007088932174864334,0.9922830711649993
2012-03-22,-1,-0.00031367634667061386,-0.0002788979314919271,-0.008575702583974438,0.007088932174864334,0.9911918335116359
2012-03-26,1,0.000233036212206746,0.00024292595393420605,-0.008575702583974438,0.003686351819898406,0.9924022506331859
2012-03-28,1,9.736771903227193e-05,0.00010847244266502128,-0.008575702583974438,0.003686351819898406,0.9923490041117371
2012-03-30,-1,-0.0002539980150021074,-0.00020744366729282177,-0.007431437640198362,0.003686351819898406,0.9927863116217442
2012-04-03,1,0.00010768117603891295,0.00011405182860341622,-0.007431437640198362,0.0032083897553423237,0.9930588272070999
2012-04-05,-1,-0.00027664881269902884,-0.00021675370362668684,-0.007396403464918578,0.0032083897553423237,0.9929135453904238
2012-04-10,-1,-0.0007252240287918706,-0.0006260488886658119,-0.0045248276481835645,0.005095252755892015,0.9936923803458027
2012-04-12,-1,-0.00043579201387137687,-0.0003719825232242804,-0.0055658309602086235,0.0037492759091671945,0.9927981019879032
2012-04-16,-1,-0.00037903626884493554,-0.0003308827922803992,-0.0055658309602086235,0.0032083897553423237,0.9929725806974922
2012-04-18,-1,-0.0003349075003430712,-0.00030207977323777916,-0.0045248276481835645,0.0037492759091671945,0.9929264414591981
2012-04-20,-1,-0.0010408990095013627,-0.0009202864479516647,-0.005866009524519936,0.0037492759091671945,0.9932438489975564
2012-04-24,-1,-0.0018506727452974304,-0.001572181475809994,-0.005866009524519936,0.004446077923417401,0.9931683440586658
2012-04-26,-1,-0.0017272413427779926,-0.001454100279454332,-0.005866009524519936,0.004446077923417401,0.9932925516633494
2012-04-30,0,0.0,0.0,-0.008442502903501148,0.004446077923417401,0.9928956043548924
2012-05-02,0,0.0,0.0,-0.00944941819439335,0.004446077923417401,0.9923916962629551
2012-05-04,-1,-0.0026818322672968265,-0.0023291035625374844,-0.011200251954484777,0.005459601023933639,0.991640171541121
2012-05-08,0,0.0,0.0,-0.011200251954484777,0.004934784498400452,0.9909807539456176
2012-05-10,0,0.0,0.0,-0.00944941819439335,0.0033757051604450454,0.9924686537463636
2012-05-14,-1,-0.0016028788052537472,-0.0013814610053323123,-0.004939160511889634,0.0033757051604450454,0.9930095970218048
2012-05-16,-1,-0.0005086408771677503,-0.0004940202882076973,-0.00944941819439335,0.0033757051604450454,0.9926759121814414
2012-05-18,-1,-0.0011383838816573866,-0.0010498706348643747,-0.003885721595159956,0.0033757051604450454,0.993269290029147
2012-05-22,0,0.0,0.0,-0.003885721595159956,0.003569716116314253,0.9933640771221264
2012-05-24,0,0.0,0.0,-0.0065455891536136904,0.0019202700683988922,0.9931452928813781
2012-05-29,0,0.0,0.0,-0.006776045648245938,0.003021782398022352,0.9927812930525838
2012-05-31,0,0.0,0.0,-0.003455435833757709,0.007907833842616832,0.9926024372454961
2012-06-04,0,0.0,0.0,-0.002277729898663547,0.00911946940646816,0.9920992185760793
2012-06-06,1,0.00030678877866157755,0.00039217502019097485,-0.003455435833757709,0.007907833842616832,0.9924359853196232
2012-06-08,1,0.00042348548213173956,0.000531313908401487,-0.003455435833757709,0.007907833842616832,0.9923851484240094
2012-06-12,1,0.00041355888489003946,0.0005112112392695799,-0.003455435833757709,0.007907833842616832,0.992181451801249
2012-06-14,1,0.0005267036157721471,0.0006503084691140897,-0.002277729898663547,0.007907833842616832,0.9927295954975458
2012-06-18,1,0.00022441667238866207,0.0003059391832916389,-0.0021887200246096155,0.007907833842616832,0.9927249809297645
2012-06-20,-1,-0.0001029984995949629,-7.733247799466097e-05,-0.002738625292965099,0.00911946940646816,0.9902796461457023
2012-06-22,-1,-0.0005974743168777249,-0.0005184089034982424,-0.002581852485592455,0.00911946940646816,0.9876763218036033
2012-06-26,-1,-0.0004078084683950934,-0.0003883921366620723,-0.0016159544583101504,0.00911946940646816,0.9882538498836791
2012-06-28,1,0.00039541763161447644,0.0004811461673260236,-0.0017201347613368524,0.007996311852175059,0.9887323987588047
2012-07-02,1,0.0016051660949369527,0.0018385578163536238,-0.002419541297704756,0.006082832076851212,0.9901874498070302
2012-07-05,1,0.0010592376853539888,0.001208733612753254,-0.0046507945927443915,0.00428262336244634,0.9898448742766293
2012-07-09,1,0.0009908766380615599,0.0011107787555059757,-0.005869099759729344,0.006549665942069639,0.988630350570477
2012-07-11,1,0.0011668328917626624,0.0013188583661865733,-0.007974700474091646,0.007996311852175059,0.9878413838715274
2012-07-13,0,0.0,0.0,-0.007974700474091646,0.0071353275190457165,0.9879747890793069
2012-07-17,1,0.0008054287293683591,0.0009683278171443618,-0.00891330247048415,0.0071353275190457165,0.9868339287712418
2012-07-19,0,0.0,0.0,-0.008198197859990855,0.0076565016973471085,0.9886142600886014
2012-07-23,0,0.0,0.0,-0.007974700474091646,0.009089305665734806,0.9910510080310039
2012-07-25,-1,-0.002736685693949202,-0.002414946141411284,-0.008198197859990855,0.009089305665734806,0.9910236982343552
2012-07-27,-1,-0.0021856644922352954,-0.0019290445295532632,-0.008198197859990855,0.009715708711285746,0.990743681988287
2012-07-31,0,0.0,0.0,-0.008198197859990855,0.009715708711285746,0.9903849441811291
2012-08-02,0,0.0,0.0,-0.006472336178890117,0.009715708711285746,0.9914024168064637
2012-08-06,0,0.0,0.0,-0.005717401328151155,0.009715708711285746,0.9919121101113004
2012-08-08,0,0.0,0.0,-0.004475344277028895,0.00859417174486854,0.9924732604025265
2012-08-10,-1,-0.002228889020413606,-0.002053769583961818,-0.005105915173973519,0.00859417174486854,0.992568185449907
2012-08-14,-1,-0.003535985329543854,-0.003197108592657987,-0.0035847900954584433,0.00859417174486854,0.9926751765372245
2012-08-16,0,0.0,0.0,-0.0035847900954584433,0.008674067606580092,0.9935100678295703
2012-08-20,0,0.0,0.0,-0.004300846853619674,0.008674067606580092,0.9931371225434469
2012-08-22,0,0.0,0.0,-0.004300846853619674,0.00952773829023031,0.9928865945402917
2012-08-24,0,0.0,0.0,-0.004300846853619674,0.00952773829023031,0.9928515765046783
2012-08-28,0,0.0,0.0,-0.004300846853619674,0.00952773829023031,0.9924889937562819
2012-08-30,-1,-0.0010552285114601829,-0.000992352336334124,-0.005680363422122569,0.00952773829023031,0.9916111021382276
2012-09-04,1,0.00013344954081085097,0.00024932085395480534,-0.005680363422122569,0.00952773829023031,0.9920482807118846
2012-09-06,1,0.000319281072007454,0.00045862785658416793,-0.005680363422122569,0.011261266537680314,0.9910211569065418
2012-09-10,1,1.1708931248718469e-05,0.0001048552187696285,-0.008092266221148385,0.011261266537680314,0.99049743638437
2012-09-12,-1,-0.00011651138189637037,-0.00010167335996216743,-0.008795199486475943,0.011261266537680314,0.9897663723060582
2012-09-14,1,0.0010443227602628174,0.0012268241788983517,-0.008795199486475943,0.011019220072191131,0.9911571899359964
2012-09-18,1,0.0015759579076700509,0.0018595603446042476,-0.008092266221148385,0.008803193647261672,0.9920459823939703
2012-09-20,1,0.0015493268440700315,0.0018163733121686937,-0.00577130304426402,0.011261266537680314,0.9914179281351491
2012-09-24,0,0.0,0.0,-0.005936368828615025,0.008864807933756328,0.9913894307287369
2012-09-26,0,0.0,0.0,-0.005789780030671052,0.008864807933756328,0.9915670268996658
2012-09-28,0,0.0,0.0,-0.005789780030671052,0.007101299160116545,0.9918185291052508
2012-10-02,0,0.0,0.0,-0.008147697180369484,0.005425155487954586,0.9918521544562625
2012-10-04,0,0.0,0.0,-0.008837445689893213,0.0014024543071604067,0.9927716366460326
2012-10-08,0,0.0,0.0,-0.010133435504578299,0.002950929398863608,0.9916862088001652
2012-10-10,0,0.0,0.0,-0.008397679296061297,0.002627531534791561,0.9924883231578788
2012-10-12,1,0.0015113539449051988,0.00171135760940353,-0.008397679296061297,0.002627531534791561,0.9919137562189977
2012-10-16,1,0.00187283067385142,0.0021444263419672024,-0.010133435504578299,0.002627531534791561,0.9907514073991315
2012-10-18,1,0.0029280425715813192,0.0032979686862729977,-0.010133435504578299,0.0014024543071604067,0.990729924139366
2012-10-22,1,0.002002722929233697,0.002221153144351585,-0.008397679296061297,0.005692954575141752,0.9909973046902498
2012-10-24,1,0.0016940087897775375,0.0018626719534244743,-0.007659626418626249,0.011284427941291706,0.990692687938259
2012-10-26,1,0.001870211592784647,0.0021477079592184516,-0.007659626418626249,0.011284427941291706,0.9874264032706749
2012-11-01,1,0.0013119886169373981,0.0014518046262787198,-0.008331639402507352,0.011284427941291706,0.9875560137122688
2012-11-05,1,0.0011898118699048056,0.001320085114396117,-0.007163778021047446,0.011284427941291706,0.9877001775952285
2012-11-07,1,0.0009440535619752617,0.0010334474330939054,-0.006099973676953883,0.009259627060160407,0.9888941139173048
2012-11-09,1,0.0006563608924152033,0.0006845178991645342,-0.006099973676953883,0.009259627060160407,0.9891273846236506
2012-11-13,1,0.0006413014612489265,0.0006799642172744897,-0.006099973676953883,0.009259627060160407,0.9889114558641442
2012-11-15,1,0.0005560317088921841,0.0005604555545033809,-0.006099973676953883,0.0054559119252466474,0.9895796602029003
2012-11-19,1,0.0005365754621940622,0.0005519603675453506,-0.005389796525193711,0.0054559119252466474,0.9896009101458471
2012-11-21,1,0.001642459319296484,0.0018114255614609996,-0.005389796525193711,0.0029765387044283663,0.9904466881225106
2012-11-26,1,0.002942032282723656,0.003356725257641199,-0.005389796525193711,0.0021400845986439716,0.9903416778730824
2012-11-28,1,0.0010036775534630672,0.0011266595433012353,-0.004004049104842696,0.0021400845986439716,0.9945951162702695
2012-11-30,1,0.000694873482415282,0.000784481513327871,-0.0033300307921089673,0.002948155560578118,0.9946856382352139
2012-12-04,1,0.00043333885734632785,0.0004918659757881214,-0.0033300307921089673,0.003305143105208834,0.9938414738979022
2012-12-06,1,0.0007348871237178442,0.0008593199039098449,-0.004004049104842696,0.003305143105208834,0.9932417704486026
2012-12-10,1,0.000818909049735928,0.0009448500082741474,-0.005223630862632387,0.004647021804111983,0.9928430795620257
2012-12-12,-1,-0.00022755013467572568,-0.00013716985991113392,-0.005536780086961542,0.0036864343789418195,0.9931237240163002
2012-12-14,-1,-0.0008312279563677716,-0.0006392241331157004,-0.003993603782250241,0.009493026083595068,0.9919349896516572
2012-12-18,-1,-0.00024285239026041963,-0.00012096368610985754,-0.003993603782250241,0.006527236675121847,0.9925665310899645
2012-12-20,1,0.00011966775313946784,0.00017421369370303959,-0.003993603782250241,0.009493026083595068,0.9919713553069693
2012-12-24,0,0.0,0.0,-0.003993603782250241,0.009493026083595068,0.9916360804735259
2012-12-27,0,0.0,0.0,-0.0031944062955960115,0.009493026083595068,0.9906641030474367
2012-12-31,-1,-0.0007283146262351944,-0.0006016649593535617,-0.0031944062955960115,0.009077770759344022,0.9907848138770915
2013-01-03,-1,-0.0007541021960761811,-0.0006284626626951362,-0.001393780958720631,0.007797781202055103,0.9916280464187597
2013-01-07,0,0.0,0.0,-0.001393780958720631,0.007797781202055103,0.9914917700899956
2013-01-09,0,0.0,0.0,-0.001393780958720631,0.007797781202055103,0.991613227356791
2013-01-11,0,-2.0438367634666914e-05,9.514778058919844e-05,-0.0011968216518659707,0.007914259554129548,0.9916945821460786
2013-01-15,1,0.001286417129800143,0.0013383192893451283,-0.0011968216518659707,0.006961443289886023,0.9936843909465919
2013-01-17,-1,-0.00046383727525542147,-0.00035237004023224014,-0.0011968216518659707,0.006961443289886023,0.9931181623431032
2013-01-22,1,0.0016125680406412653,0.0016977102403705029,-0.002170573898437445,0.006798742583789144,0.9937399119051207
2013-01-24,0,0.0,0.0,-0.002170573898437445,0.006798742583789144,0.9929065647530302
2013-01-28,0,0.0,0.0,-0.002170573898437445,0.006488065605661567,0.9931640132951204
2013-01-30,1,0.0004218466908354801,0.00045184661830801037,-0.002170573898437445,0.0058178198726566675,0.9934610229440355
2013-02-01,1,0.00046087587009482195,0.0004912466392896116,-0.0036190858111208235,0.005023359294151356,0.993656319577953
2013-02-05,1,3.4171765870926704e-05,7.663961315600894e-05,-0.002170573898437445,0.005023359294151356,0.9942694056591779
2013-02-07,1,0.0001698322067159159,0.00018346895888542785,-0.00032388582611744344,0.005488871921940305,0.9943607408252351
2013-02-11,1,0.0005220072437424359,0.000592487051688919,-0.0008985352486513942,0.004976235094591562,0.9946866556021001
2013-02-13,0,0.0,0.0,-0.0008985352486513942,0.005488871921940305,0.9939514792875612
2013-02-15,1,0.0007725534248287547,0.0008732751758514987,-0.00027477020925679074,0.0058178198726566675,0.9941129870018957
2013-02-20,1,0.000698863746831295,0.0007938736893004983,0.00014452181643134982,0.006828217893426464,0.9943507075373188
2013-02-22,1,0.0009069716499324936,0.0010121500529475093,-0.00027930410885569873,0.004976235094591562,0.9943042278306681
2013-02-26,1,0.0003136013171580969,0.00033683561964644164,0.0004701679334158088,0.004976235094591562,0.9951799619466856
2013-02-28,0,0.0,0.0,-0.00027930410885569873,0.00612411923863614,0.9946350772336889
2013-03-04,1,0.0008736112806946532,0.001033891501769591,0.0006813260437838211,0.008446152584830923,0.9945520961645055
2013-03-06,0,0.0,0.0,-0.00027930410885569873,0.007405072496060717,0.9942242574213368
2013-03-08,0,0.0,0.0,-0.0023618040332548875,0.007405072496060717,0.9940862757056778
2013-03-12,0,0.0,0.0,-0.0023105953899506737,0.007789909684153109,0.993788238181873
2013-03-14,0,0.0,0.0,-0.0023105953899506737,0.007277964461644077,0.9942458132259167
2013-03-18,0,0.0,0.0,-0.004701801776622407,0.00713799354909779,0.9938232408519386
2013-03-20,0,0.0,0.0,-0.005072771379721859,0.005685467337142935,0.9926675209217835
2013-03-22,0,0.0,0.0,-0.005072771379721859,0.005685467337142935,0.9931791472984457
2013-03-26,0,0.0,0.0,-0.005072771379721859,0.00713799354909779,0.9926823811538666
2013-03-28,0,0.0,0.0,-0.004946068681198226,0.005685467337142935,0.9932970744442751
2013-04-02,1,0.001683695631235287,0.0017363844094356413,-0.004946068681198226,0.005371907456433737,0.9937333612070783
2013-04-04,1,0.0017861038620252856,0.0018397891297661634,-0.0047331863574580045,0.004340409536393159,0.993895507911133
2013-04-08,1,0.0016008660467317377,0.0016252304120934191,-0.004289186542100208,0.005781548627042095,0.993462172416076
2013-04-10,1,0.0014351061372687745,0.0014532237826978163,-0.0016776917539472161,0.005781548627042095,0.9934912400346622
2013-04-12,1,0.0014483215162181622,0.0014656305552130716,-0.00437226345267515,0.005781548627042095,0.9932472308991279
2013-04-16,1,0.0007645387909828419,0.0008655240179440847,-0.0016776917539472161,0.005781548627042095,0.9940228051205827
2013-04-18,1,2.24797057729151e-05,0.0001497806457642424,-0.00010473192773581755,0.005781548627042095,0.9952285196033499
2013-04-22,1,0.00025221877561314697,0.00030142047292547824,0.0005046674514353074,0.005781548627042095,0.9955293826933119
2013-04-24,0,0.0,0.0,-0.0016058240267638828,0.0044769565932626125,0.9953432715358137
2013-04-26,1,0.0001460513570129829,0.00022667685641801738,-0.000670199586268219,0.006172193409654077,0.9942603886195271
2013-04-30,1,3.8533728674147814e-05,0.00017487679770670253,-0.003953626046993836,0.0044769565932626125,0.9944656470649735
2013-05-02,0,0.0,0.0,-0.003953626046993836,0.00503240737367972,0.9942846878328679
2013-05-06,1,4.563354539135014e-05,4.8879774622932005e-05,-0.0043540459719481565,0.003823981283537637,0.9942262726699255
2013-05-08,0,0.0,0.0,-0.004981297535563527,0.003823981283537637,0.9934283780312603
2013-05-10,0,0.0,0.0,-0.004372194863169583,0.007016092074057268,0.9929340499987579
2013-05-14,0,0.0,0.0,-0.005844555916542122,0.007016092074057268,0.9921536371030879
2013-05-16,0,0.0,0.0,-0.007584834305568523,0.009670359363491513,0.9909874930539022
2013-05-20,0,0.0,0.0,-0.007584834305568523,0.010597253354815438,0.9904987716317146
2013-05-22,0,0.0,0.0,-0.01090849475395267,0.010597253354815438,0.9897620572048164
2013-05-24,0,0.0,0.0,-0.01090849475395267,0.008363605938672998,0.9906291320546254
2013-05-29,0,0.0,0.0,-0.01090849475395267,0.008363605938672998,0.9904398810664937
2013-05-31,0,0.0,0.0,-0.01090849475395267,0.010801774928032887,0.9896127253213626
2013-06-04,-1,-0.00039200396238067096,-0.00020325746599741729,-0.007091226422475684,0.010801774928032887,0.9899542489042344
2013-06-06,-1,-0.00023679722480397195,-4.47391633009354e-05,-0.0056939117623690805,0.010801774928032887,0.9904223703744301
2013-06-10,1,0.0011486059825372348,0.0011831007084995206,-0.0056939117623690805,0.010801774928032887,0.9907576098123074
2013-06-12,1,0.00031509838589747715,0.00038746595845731474,-0.000739689416677325,0.013530034340692016,0.9902300159072175
2013-06-14,1,0.0007401981536196241,0.0007466259308420111,0.00047226119926499136,0.011764968885719871,0.9913114978932244
2013-06-18,1,0.0012298199227672715,0.0013137090145182873,-0.000739689416677325,0.011101598021733446,0.9912959183129751
2013-06-20,-1,-0.00028133003886933006,-0.0001443147702695172,0.002696720117840649,0.013530034340692016,0.9905490629188746
2013-06-24,1,0.00018006103753893542,0.0002503874738486985,-0.000739689416677325,0.013530034340692016,0.9902276457520774
2013-06-26,1,0.00026355539124373593,0.0003075143868643239,-0.00039364771860760615,0.013530034340692016,0.9905032988683165
2013-06-28,0,0.0,0.0,-0.0033205017069807812,0.009449521722613558,0.9910302082700411
2013-07-02,0,0.0,0.0,-0.005891606703142557,0.00757583879583852,0.9914020069298949
2013-07-05,0,0.0,0.0,-0.005891606703142557,0.00757583879583852,0.9917423444115634
2013-07-09,0,0.0,0.0,-0.007092558404540507,0.006684604792998032,0.9914418822854333
2013-07-11,1,0.003110810097877177,0.00340469994421294,-0.007092558404540507,0.0050303215651138055,0.9920268936675296
2013-07-15,1,0.003190616078769005,0.0034758424085567035,-0.007092558404540507,0.0050303215651138055,0.9916849911728176
2013-07-17,1,0.0032053301075152863,0.0035236367155797445,-0.006367719214581938,0.0032654850317775787,0.9921058031512142
2013-07-19,0,0.0,0.0,-0.007092558404540507,0.00017971331359751055,0.9939544854439003
2013-07-23,0,0.0,0.0,-0.005721507254709341,0.0017864020182676323,0.9940888734470138
2013-07-25,0,0.0,0.0,-0.006345312594148259,0.0017864020182676323,0.9932969105210455
2013-07-29,0,0.0,0.0,-0.006345312594148259,0.0017864020182676323,0.9932522280812158
2013-07-31,0,0.0,0.0,-0.006345312594148259,0.0017864020182676323,0.9928855805132936
2013-08-02,1,0.0024747374894502406,0.0026065406042311925,-0.008275619383600231,0.00017971331359751055,0.9909822536092234
2013-08-06,1,0.001902583582676888,0.001989644360002844,-0.006345312594148259,0.0027077737859248965,0.9915815562085446
2013-08-08,1,0.001667384938223839,0.0017275118417919009,-0.005425209362158343,0.0027077737859248965,0.9919844388620774
2013-08-12,1,0.0018520083785579606,0.0019512559981939438,-0.005425209362158343,0.0074878602198348776,0.9914303366005228
2013-08-14,1,0.001348532879807764,0.001362889143644778,-0.005425209362158343,0.0074878602198348776,0.9913772069855432
2013-08-16,1,0.0008484009640551101,0.0009135080927331497,-0.004947336266935966,0.0074878602198348776,0.9921914538852924
2013-08-20,1,0.0010042516844828108,0.0010347977857415663,-0.00350959507246487,0.0074878602198348776,0.9923895853759949
2013-08-22,1,0.0015626210661448467,0.0016329189936118487,-0.002458708151367791,0.0074878602198348776,0.991363576059772
2013-08-26,1,0.001185497113174776,0.0011922801597984201,-0.002458708151367791,0.010690910103538592,0.9913042207253371
2013-08-28,1,0.0002520308199548951,0.00034814283544322666,-0.0018040049311511088,0.010690910103538592,0.9916510664207435
2013-08-30,-1,-0.0003062692689761094,-0.0001469679063112947,-6.299470977334581e-05,0.010690910103538592,0.9921155915401897
2013-09-04,1,0.00011385213958139257,0.0002180232622646698,-6.299470977334581e-05,0.01037298661495293,0.9924798392654439
2013-09-06,-1,-0.00036520733184217894,-0.00017077266339182067,-0.000681122018863931,0.01037298661495293,0.99109803135339
2013-09-10,0,-0.0001946196919158827,5.147212014745036e-05,-0.004320195402948072,0.005166958442331287,0.9921930391672493
2013-09-12,-1,-0.0005344767639449991,-0.00022014060730866274,-0.002084734395290268,0.010006711077044813,0.9897494074015952
2013-09-16,0,-7.165513051067475e-05,0.00016920097561703312,-0.002601938791145191,0.01042827993176117,0.9895848705522433
2013-09-18,1,0.00039141679870669584,0.0005939094975208146,-0.0046443701035508555,0.01042827993176117,0.9890412961187897
2013-09-20,1,0.0022781566720092425,0.0023140726203310087,-0.0046443701035508555,0.011273169146620396,0.9890607135624968
2013-09-24,1,0.0020549750619502215,0.0020677596514243318,-0.002601938791145191,0.010844659024418253,0.9894169939554281
2013-09-26,1,0.0021807031619780473,0.0022489131355679054,-0.002601938791145191,0.010844659024418253,0.9893887488663542
2013-09-30,1,0.002731291577248703,0.0028953225322916488,-0.003220954316479124,0.01056592687710261,0.9895657653081696
2013-10-02,1,0.002198472414999498,0.0022762033376918177,-0.004200348245615388,0.01056592687710261,0.989386625268259
2013-10-04,1,0.0014299953863509728,0.0014377765702194491,-0.004200348245615388,0.01056592687710261,0.9900611465090889
2013-10-08,1,0.0009776501661925621,0.0010473322100946602,-0.004131580394737817,0.01056592687710261,0.990057838025857
2013-10-10,1,0.0029788610245470586,0.003150986568515615,-0.0045183022955927145,0.007557661086660174,0.9914709384563235
2013-10-14,1,0.0028251139353544343,0.0029360276757112195,-0.0045183022955927145,0.007557661086660174,0.9908742955796422
2013-10-16,1,0.0030516837664578593,0.0032561151913243595,-0.0045183022955927145,0.006198240872886034,0.991569713321389
2013-10-18,1,0.004698763554614136,0.005081903342525073,-0.0045183022955927145,0.005839778502013912,0.9926676319242907
2013-10-22,1,0.004903269499635441,0.005300949356608223,-0.0045183022955927145,0.005438618735471927,0.9923723537188007
2013-10-24,1,0.004332812129022787,0.004644565003946765,-0.004189761449356261,0.005839778502013912,0.9922309138426145
2013-10-28,1,0.004185727890868856,0.004466067882471972,-0.004730922994532482,0.006198240872886034,0.9914435003945393
2013-10-30,1,0.0038286401383216193,0.004071073416350584,-0.004778142329171542,0.006198240872886034,0.9907188859191535
2013-11-01,1,0.0028581805525554,0.002934153961277115,-0.004798385695823687,0.006198240872886034,0.9903228357410071
2013-11-05,1,0.002956111886024685,0.00306487730188198,-0.007025536300791641,0.006198240872886034,0.9895375325339867
2013-11-07,1,0.002745034624768542,0.002813366033891567,-0.005401163683466835,0.010206040130989566,0.9900660008869361
2013-11-11,1,0.0029652695879611715,0.003001488839570506,-0.007863967742570544,0.006951192387221119,0.9891628933249246
2013-11-13,1,0.0026419869497734763,0.002664240339038119,-0.009811840289189886,0.0057985598790713366,0.9883745230100397
2013-11-15,1,0.0031485587020395524,0.003211358161043351,-0.009811840289189886,0.0030675808232835493,0.988620718342113
2013-11-19,1,0.003263438304582083,0.0034024685303518922,-0.009811840289189886,0.00606708152829356,0.9881066126571832
2013-11-21,1,0.004426882103018245,0.0047303020721891405,-0.009811840289189886,0.00606708152829356,0.9879267935543727
2013-11-25,1,0.004813634780620687,0.005205544879660285,-0.009811840289189886,0.00550688150318379,0.9886867231838147
2013-11-27,1,0.003876366227516675,0.004157293436765478,-0.008971690795554335,0.00837270002510977,0.9895991231286815
2013-12-02,1,0.003688234649746308,0.004002346566296115,-0.00726616144424824,0.00837270002510977,0.9903360602935473
2013-12-04,1,0.0031268659545921414,0.0033955131520967746,-0.007275105425388194,0.009647074790168452,0.9896520622221754
2013-12-06,1,0.00365153099932604,0.003961346795780156,-0.00810705016698517,0.007227170966669565,0.9894860366592436
2013-12-10,1,0.0026601294875452093,0.002919715302987254,-0.007674673837529822,0.007227170966669565,0.990193050078987
2013-12-12,1,0.0011405380860441254,0.0011632413293268407,-0.007674673837529822,0.0078684916622891,0.9907688193371245
2013-12-16,1,0.001051041518565246,0.0010560914836282307,-0.008832104675030275,0.008405266575220192,0.9900377469712036
2013-12-18,1,0.0013471852976739646,0.0013802804998650474,-0.010586584302710589,0.0078684916622891,0.9903853893064762
2013-12-20,1,0.0013500162621913107,0.001357734392628849,-0.010586584302710589,0.007227170966669565,0.990886373724011
2013-12-24,1,0.0019086587323652378,0.0019972036209646854,-0.012119461094456059,0.0027535500165988477,0.9888321675583579
2013-12-27,1,0.0013379373187117375,0.001358189000013649,-0.01313607379122786,0.0027535500165988477,0.989010834118813
2013-12-31,1,0.001220089908473739,0.0012839654219388842,-0.01313607379122786,0.002765232839134866,0.9883975699865875
2014-01-03,1,0.0001798463971712307,0.0003516012896068243,-0.015656819150562187,-6.36467982994979e-05,0.9880241438923335
2014-01-07,-1,-0.00023932696958557133,-4.079678196132973e-06,-0.015656819150562187,0.0016777276484000892,0.988347293816302
2014-01-09,-1,-0.002122086449744531,-0.0016361275647673685,-0.01313607379122786,0.003816277006832496,0.9897855872909797
2014-01-13,-1,-0.002295739910022198,-0.0017982521975179586,-0.01313607379122786,0.003816277006832496,0.9901392708140595
2014-01-15,-1,-0.0023493750463764664,-0.0018572486231685057,-0.012843214249534886,0.003816277006832496,0.9901114403974738
2014-01-17,-1,-0.0033070337868465593,-0.0026687252148268215,-0.01226168931465808,0.009095021252396586,0.989502119662123
2014-01-22,-1,-0.004154933957255364,-0.003379139551382428,-0.01226168931465808,0.009095021252396586,0.9890790679687325
2014-01-24,-1,-0.006467738440862952,-0.0053848395307069035,-0.004039771991609256,0.009095021252396586,0.989579338278239
2014-01-28,-1,-0.006779246257942406,-0.00567478330118642,-0.0037634099537550937,0.009095021252396586,0.9901757638695187
2014-01-30,-1,-0.006969919253118517,-0.005834601862134395,-0.002511759790366122,0.009095021252396586,0.9892662628545588
2014-02-03,-1,-0.00843690334395784,-0.00718676929754557,-0.0016501917257040657,0.009232869892668175,0.9875370908782948
2014-02-05,-1,-0.008410039345252949,-0.007160978135716265,-0.0015671491253646326,0.009232869892668175,0.9873611333111513
2014-02-07,-1,-0.00791778892364009,-0.006740937975856837,-0.002110529733147961,0.009167234114215864,0.9884395608742824
2014-02-11,-1,-0.007227247592638271,-0.0061569939337857305,-0.002893069121103514,0.009031313238225813,0.9892742815986175
2014-02-13,-1,-0.00529891896196665,-0.004546317704293678,-0.004907337945967268,0.009031313238225813,0.9908130222442125
2014-02-18,-1,-0.004428169547625205,-0.003784856340039237,-0.004907337945967268,0.007396232283536823,0.9913320709018115
2014-02-20,-1,-0.004764436499482278,-0.004075319797574581,-0.004907337945967268,0.007396232283536823,0.9909907212822228
2014-02-24,-1,-0.004595057646471849,-0.003953820224540027,-0.005525865564996448,0.007659421780650537,0.9906851624505769
2014-02-26,-1,-0.00495581095322359,-0.004256295577517587,-0.005715340233636211,0.007659421780650537,0.9907452472274657
2014-02-28,-1,-0.004375910996510218,-0.0037091985881444974,-0.007185408404713005,0.007102922928658281,0.9921314960911809
2014-03-04,-1,-0.0032752684175049148,-0.002722842325350008,-0.006304147895753887,0.007102922928658281,0.9934469814280772
2014-03-06,-1,-0.0018432352632169542,-0.001573731713117408,-0.006304147895753887,0.007628285260952763,0.993141219417264
2014-03-10,-1,-0.0019392881078416058,-0.001670306663903603,-0.00855364737551959,0.007628285260952763,0.9917444884947823
2014-03-12,-1,-0.001860906957875207,-0.0016053630369279068,-0.007185408404713005,0.007882303835570433,0.9917071942652202
2014-03-14,-1,-0.0005422980223069711,-0.0005321783717177351,-0.00911557167904355,0.0074553228788303725,0.9911667294526245
2014-03-18,1,0.00029636815170343484,0.0004429972112599104,-0.00911557167904355,0.0074553228788303725,0.9913730620700807
2014-03-20,1,0.00013601138270132897,0.00024326819604308925,-0.00911557167904355,0.00774718019504057,0.9907471921503084
2014-03-24,1,0.00027520293888557904,0.00041130775085405485,-0.00911557167904355,0.007954981706675615,0.9904435843793873
2014-03-26,-1,-0.0003110439503365751,-0.00027545459118761076,-0.008917467223033104,0.007954981706675615,0.9904479753513573
2014-03-28,-1,-0.0011247703277174883,-0.0010471522925957818,-0.008917467223033104,0.007954981706675615,0.9904605183242026
2014-04-01,-1,-0.00035653619075844123,-0.00030993616221308934,-0.008917467223033104,0.00774718019504057,0.9911434849382882
2014-04-03,-1,-0.00031003321214693314,-0.00028752622247518836,-0.008917467223033104,0.0062321838300600264,0.9912283771243429
2014-04-07,-1,-0.0008174097494151066,-0.0007835549186629783,-0.006960820059512153,0.0062321838300600264,0.9920118444670457
2014-04-09,0,-3.773954569994152e-05,9.906095260381738e-05,-0.006960820059512153,0.0044065707336079845,0.9920337525534196
2014-04-11,-1,-0.0005570496672114662,-0.00043426164242856826,-0.0050683084072904285,0.009177304572151232,0.9916130474134219
2014-04-15,0,-0.00014939230770440333,2.6092230912218295e-05,-0.006861835897051668,0.007613856293100566,0.9906810892354533
2014-04-17,1,0.0011926089782449312,0.0016263542435345558,-0.0068386863715948955,0.004904377490582196,0.9916564426904778
2014-04-22,1,0.002054090627639362,0.0026267422584244494,-0.0068386863715948955,0.004129609776887095,0.9917426835618669
2014-04-24,1,0.0013031068764272431,0.0017394630914140982,-0.0052977938172697765,0.005698112009544211,0.9921168000817384
2014-04-28,1,0.0008214118161629656,0.0011664902372376992,-0.004284984663761054,0.009378691149588392,0.9920444481172652
2014-04-30,1,0.0009317377105241266,0.0012655167647563797,-0.004284984663761054,0.009378691149588392,0.991865006537264
2014-05-02,1,0.0016644969708286986,0.002144021639842836,-0.004284984663761054,0.009378691149588392,0.9915789791833957
2014-05-06,1,0.0003423123143293398,0.0005638815668318424,-0.0031326676362241684,0.009378691149588392,0.9923173799190259
2014-05-08,1,0.0005300491102294751,0.0007193303821087308,-0.0031326676362241684,0.009378691149588392,0.9916161965646085
2014-05-12,1,0.0018135016338688336,0.0021636915458119743,-0.003561030842569481,0.006397042689876558,0.9927317242567089
2014-05-14,1,0.0012398684611526086,0.001576759936271504,-0.003561030842569481,0.006397042689876558,0.9933919214615674
2014-05-16,1,0.0014550623907445828,0.0018377525593478734,-0.0030491384943499194,0.006397042689876558,0.9936512761491801
2014-05-20,1,0.0019743805434586023,0.002450363540740766,-0.0029000339616794377,0.006603898492296982,0.9938065008953358
2014-05-22,1,0.002454770334741951,0.0030031885059928934,-0.0029000339616794377,0.006603898492296982,0.993864213642242
2014-05-27,1,0.003313270447766933,0.003990014756884619,-0.003561030842569481,0.005189720402492616,0.9930122593702465
2014-05-29,1,0.0027517978149393186,0.003314099302666466,-0.004320683886189631,0.005189720402492616,0.9932472118889735
2014-06-02,1,0.002408159269916114,0.002906031240798273,-0.004070096460566885,0.005956445483425597,0.9935421594426294
2014-06-04,1,0.0020603679303245748,0.002453054748697855,-0.006198310751402258,0.006503423977884521,0.9923229699891642
2014-06-06,1,0.0031747420559809602,0.00370305661385052,-0.007318508300859249,0.006503423977884521,0.9926564961211756
2014-06-10,1,0.002956087917558043,0.003452270945764219,-0.007318508300859249,0.006503423977884521,0.9927191302970302
2014-06-12,1,0.0019730069255986128,0.0023146610148743396,-0.006198310751402258,0.006503423977884521,0.9930022410094279
2014-06-16,1,0.0018399141520484788,0.002146320985610373,-0.006198310751402258,0.0077175178001652614,0.9926637958119233
2014-06-18,1,0.0015732952828820968,0.0017535391747071447,-0.007318508300859249,0.005999111971924244,0.9920184674635392
2014-06-20,1,0.0016160312577103244,0.0017850690722804958,-0.007318508300859249,0.005999111971924244,0.9914162805572267
2014-06-24,1,0.0009049952343227718,0.0009763386984485561,-0.006295408620185254,0.005999111971924244,0.9920412482355428
2014-06-26,-1,-0.00048806201167062035,-0.00027598065270030504,-0.00824751946667102,0.005999111971924244,0.9918922935547907
2014-06-30,0,-1.1918450153802719e-05,0.00014666764288091106,-0.008569479412095711,0.0009517288489989406,0.991789847388871
2014-07-02,0,-5.1388037068943486e-05,0.00010369554944638423,-0.008569479412095711,-0.0012514265386944045,0.9922292366810449
2014-07-07,1,0.0002598529773725801,0.0003616668700145318,-0.008569479412095711,0.0009517288489989406,0.9923476237040361
2014-07-09,1,0.00046145109906333965,0.0004993344697791218,-0.008569479412095711,0.005107172954814528,0.9919978050062098
2014-07-11,1,0.00020642477649511072,0.0002491741582710085,-0.006655609629137277,0.005232348883042035,0.9923325320042766
2014-07-15,1,0.00022901340557943058,0.00028250957218921264,-0.006655609629137277,0.005232348883042035,0.9923860744358338
2014-07-17,-1,-0.0008490870018449087,-0.0006549289499139355,-0.006038669069008519,0.00648037980345987,0.9929299969726204
2014-07-21,-1,-0.0004866515771833845,-0.0003245345532171372,-0.006038669069008519,0.00648037980345987,0.9929043664496261
2014-07-23,0,-3.261090889818393e-05,3.132025187095049e-05,-0.005507608220576011,0.00648037980345987,0.9932964634605335
2014-07-25,-1,-0.00018312643668480202,-0.00016549388575076335,-0.0038654730616892894,0.006762415541446053,0.9936943365058708
2014-07-29,-1,-0.0007087446765843,-0.00062589408417285,-0.0013460981823426288,0.006762415541446053,0.9939192176432116
2014-07-31,-1,-0.0016757019004329343,-0.0014688389125844517,-0.0013460981823426288,0.006762415541446053,0.993866805475452
2014-08-04,-1,-0.0008249803273353508,-0.0007229993174071323,-0.0022992079659574114,0.006746557230216017,0.9943247566756171
2014-08-06,-1,-0.0009044567527255157,-0.0007900596769582508,-0.005155385206143443,0.006746557230216017,0.9940088381048011
2014-08-08,-1,-0.0002186893118906011,-0.0002111676768616428,-0.005155385206143443,0.006148404189641264,0.9940012375177539
2014-08-12,1,1.1578036107573904e-05,3.080398049392057e-05,-0.0056972971572252906,0.005192383490786288,0.9938532054270186
2014-08-14,1,0.0005273709135181843,0.000615160917737671,-0.005804944591254283,0.003487045562227567,0.9943418306657053
2014-08-18,1,0.0008802170016498864,0.0009892479667141952,-0.005804944591254283,0.003317576932305477,0.9950138845289794
2014-08-20,1,0.0005407332736631585,0.0005662708457648347,-0.005804944591254283,0.0033756270722802378,0.9948715218572981
2014-08-22,1,0.0005828484913522494,0.0006321027331302703,-0.007659383061823339,0.003317576932305477,0.9944989526138941
2014-08-26,1,0.0008516049923674709,0.0009499243559595778,-0.008448059980156759,0.0033756270722802378,0.9933438736813351
2014-08-28,-1,-0.0005520026106303005,-0.000410174584798672,-0.007659383061823339,0.003512813752283625,0.993384089065212
2014-09-02,1,8.454967717727906e-05,0.00011834460189992213,-0.008448059980156759,0.0033756270722802378,0.9931577909808319
2014-09-04,-1,-0.001430922911044887,-0.0011631202288948724,-0.0074783145759483305,0.003512813752283625,0.9932037984228914
2014-09-08,-1,-0.0009257706765511858,-0.0007292028728579974,-0.0074783145759483305,0.003512813752283625,0.9927531561045011
2014-09-10,-1,-0.0009216647368257468,-0.0007510172354828595,-0.006749235597854741,0.00536262368968829,0.9924887444412508
2014-09-12,-1,-0.0008089846470627599,-0.0006800833818451101,-0.0074783145759483305,0.009954468368358425,0.991455232254251
2014-09-16,-1,-0.0011645439348941457,-0.0009685406198457319,-0.0074783145759483305,0.012023445522117721,0.9901919417324883
2014-09-18,-1,-0.0011736102861152789,-0.0009607720353748465,-0.007849042735697608,0.012023445522117721,0.9901205155091309
2014-09-22,-1,-0.0017914785682555377,-0.0015179652839711873,-0.006749235597854741,0.012023445522117721,0.9903337529141315
2014-09-24,-1,-0.0012391355805679706,-0.0010359968902306335,-0.005057453331741188,0.012023445522117721,0.990514305349097
2014-09-26,-1,-0.0016126974584661116,-0.0013293429175171125,-0.004349389033780213,0.013094678265295315,0.9903943960273287
2014-09-30,-1,-0.002056335680244502,-0.0017523793056385668,-0.003570307865927838,0.01412628218351937,0.9895018821790103
2014-10-02,-1,-0.0007722513892528965,-0.0006872030657668554,-0.001873914831822097,0.013493641722156741,0.99033320641416
2014-10-06,-1,-0.0008965120282362852,-0.00074067825678224,-0.003570307865927838,0.013493641722156741,0.990228671412537
2014-10-08,-1,-0.0002914274569700437,-0.00020715404602750172,-0.003570307865927838,0.01181256536833018,0.9907126660571584
2014-10-10,-1,-0.0004276560713982644,-0.0003380327319198406,-0.0011700746624427436,0.01181256536833018,0.9918734387909431
2014-10-14,1,0.0005277339978927132,0.0005684763082009765,-0.003570307865927838,0.008897150350020205,0.9930246996371177
2014-10-16,1,0.0008047042843196737,0.0009169513445574599,-0.003570307865927838,0.008897150350020205,0.9930875878916456
2014-10-20,1,0.000763849082267877,0.0008551670584569222,-0.0028560779613189618,0.007602111848045105,0.9933774116251761
2014-10-22,1,0.0008658080283238082,0.0009579056750282804,-0.002913296490283235,0.006856319352325144,0.9939174241508453
2014-10-24,1,0.0016679656044788094,0.0018715359509343505,-0.002913296490283235,0.006856319352325144,0.9941362741801619
2014-10-28,1,0.002681480594923135,0.0030775573167779917,-0.004219023523467394,0.006856319352325144,0.9896708652477572
2014-10-30,1,0.0022145290320342292,0.002530859181739375,-0.006063826798265007,0.006856319352325144,0.98905777490916
2014-11-03,1,0.001991960585912567,0.0022478519857405286,-0.00616394452849015,0.006856319352325144,0.9892892147960418
2014-11-05,1,0.0019297977871177469,0.0021769725600446054,-0.004219023523467394,0.007036948269728512,0.9895339642135418
2014-11-07,1,0.002179633042770391,0.002483576956810199,-0.004219023523467394,0.007036948269728512,0.9894668629731302
2014-11-11,1,0.002073545729190002,0.0023732824250066887,-0.004526797775380276,0.007036948269728512,0.9886197437460973
2014-11-13,1,0.0016706241956652187,0.0018857527575989652,-0.004820668990279771,0.007036948269728512,0.9878122829462757
2014-11-17,1,0.0015044966103959514,0.0016950714582567243,-0.008593450848263566,0.007036948269728512,0.9876015488577896
2014-11-19,1,0.0018428260652697671,0.002099544457746527,-0.008593450848263566,0.009230143699348397,0.9862016906599321
2014-11-21,1,0.0019716220705727583,0.002238120977318795,-0.008593450848263566,0.010038725213362019,0.984937084738884
2014-11-25,1,0.0006286560756872093,0.0007256465876766555,-0.005124616966607201,0.010038725213362019,0.9892595686718471
2014-11-28,1,0.00033869262190563065,0.0003895998841563639,-0.0024845493095041024,0.01143605677142678,0.9896018685674861
2014-12-02,1,0.00031004687852961556,0.0003387844904860328,-0.0024845493095041024,0.01143605677142678,0.9895099198612481
2014-12-04,1,0.0005171787020253136,0.000582035063326622,-0.010109229422957312,0.01143605677142678,0.9884098783109091
2014-12-08,1,0.00045226878991072486,0.00047312596348761946,-0.012030078559218577,0.01143605677142678,0.9879471267125742
2014-12-10,1,0.00019720200288482893,0.0002053759861869812,-0.012030078559218577,0.012257151058827909,0.9876931612034078
2014-12-12,-1,-0.0005262205834186426,-0.00044634409770280103,-0.010109229422957312,0.012713571189519306,0.9871819560762503
2014-12-16,-1,-0.0011327783027294009,-0.0009494717525064882,-0.012030078559218577,0.012713571189519306,0.9864779221257831
2014-12-18,0,-1.0180861148446674e-05,6.135799941505647e-05,-0.012030078559218577,0.012257151058827909,0.9873176651944439
2014-12-22,1,0.0008617568026663066,0.0008634741771805888,-0.012030078559218577,0.012257151058827909,0.987808876342826
2014-12-24,1,0.0009893003690359167,0.0010321080890042934,-0.012030078559218577,0.008033265147445866,0.9883167258595
2014-12-29,1,0.0014020736494359592,0.001492219474452888,-0.012989773960705551,0.004548322779226888,0.9871285932391034
2014-12-31,1,0.0011405787798156632,0.0012020342257703476,-0.01370549560215535,0.006030040977813729,0.9860527138300293
2015-01-05,1,0.00028508646758508766,0.0003245073315642894,-0.010915895173295045,0.01348953225583894,0.9856984437362016
2015-01-07,1,0.00028687976683807706,0.0003078295019088225,-0.008355916000080758,0.014760126569262212,0.9857412488016073
2015-01-09,1,0.00047232852818143364,0.0004983225521911908,-0.008355916000080758,0.01298894450840643,0.9861247440452106
2015-01-13,1,0.0013492494150901643,0.0014900265990830993,-0.008355916000080758,0.006992246783533782,0.9872878981702864
2015-01-15,1,0.0005064840959721304,0.0005283911472070743,-0.005131387344860547,0.010320598206183427,0.9879743879882675
2015-01-20,1,0.0009304586087192741,0.0010141087601784591,-0.005131387344860547,0.006243975162062033,0.9887833791465671
2015-01-22,1,0.0013774959764164838,0.0014902213101774676,-0.005131387344860547,0.004339819142328092,0.9899785031145489
2015-01-26,1,0.0013312822953339425,0.0014450770044013449,-0.005131387344860547,0.004339819142328092,0.9900465598841929
2015-01-28,-1,-0.00023007295946177186,-0.00011550036781067974,-0.004301952105567923,0.006243975162062033,0.9908077443865819
2015-01-30,-1,-0.0006700101272822139,-0.000517129571940504,-0.004301952105567923,0.004339819142328092,0.9922111338619946
2015-02-03,1,0.0005149774483945821,0.0005434843350239928,-0.004301952105567923,0.0033169577531351646,0.9943357009348635
2015-02-05,1,0.0008067024191984752,0.0008124522071407287,-0.005662788362559765,0.0033169577531351646,0.9937332268389473
2015-02-09,0,-7.984258865288132e-05,3.3494531743767685e-05,-0.005546158088979425,0.0034909148054442143,0.9941383775565092
2015-02-11,1,9.550847245007646e-05,0.00018425216188938927,-0.005546158088979425,0.00544926961654464,0.9917156266029603
2015-02-13,1,6.0605930958511974e-05,0.00018522875107372357,-0.007977940953547367,0.005530412414883876,0.9909175360434532
2015-02-18,0,-4.839822567635706e-05,7.717641111363075e-05,-0.005073669635897123,0.008464870744729137,0.990910825832674
2015-02-20,-1,-0.00023963541046567597,-9.169058506731741e-05,-0.0044757235469743495,0.011142456500448691,0.9901561803422846
2015-02-24,-1,-0.0008418977912947671,-0.0005906953188977666,-0.004270703532796724,0.011142456500448691,0.9899701104169836
2015-02-26,-1,-0.0007471137041740355,-0.0005170572241208714,-0.0053326083732253985,0.009710429467109207,0.9898492103769094
2015-03-02,-1,-0.0009707340529375299,-0.0007339874809474733,-0.0035464221570501685,0.015131391947521961,0.9891885286548887
2015-03-04,-1,-0.0007869287419097091,-0.00059065728076153,-0.0053326083732253985,0.015131391947521961,0.9887110073466961
2015-03-06,-1,-0.0009570491298691017,-0.0007268301748768803,-0.004586564851338003,0.009962688747042267,0.9898499241613593
2015-03-10,-1,-0.0009251419683692784,-0.0007324369701174394,-0.004586564851338003,0.009962688747042267,0.9899708081730546
2015-03-12,1,0.0006892756799791825,0.0007020807954899064,-0.0053326083732253985,0.006780386240757045,0.9912640589328294
2015-03-16,1,0.0010317559856482669,0.0010627049306056674,-0.004586564851338003,0.006780386240757045,0.9921381286486144
2015-03-18,1,0.0014932989023766106,0.0016049098152241144,-0.004586564851338003,0.004313009889718986,0.9923233359435948
2015-03-20,1,0.002199036680695556,0.0024322450296537824,-0.005631387548874532,0.004313009889718986,0.9904838076150412
2015-03-24,1,0.002374275166680711,0.002673253302360701,-0.009313897243905274,0.0046399099767195275,0.9882130109918136
2015-03-26,1,0.001821361783374633,0.0020569183378189937,-0.005609625402733692,0.006893161365653161,0.9888627625738167
2015-03-30,1,0.0024996031618718015,0.0028366396629157906,-0.005609625402733692,0.010394040876265116,0.988976769448994
2015-04-01,1,0.0020601079884884593,0.002336756040048413,-0.011647160493990883,0.010394040876265116,0.988310527202971
2015-04-06,1,0.0019181200541339468,0.0021756905149613254,-0.011647160493990883,0.010394040876265116,0.9883813608119587
2015-04-08,1,0.0015956671289135379,0.0018023862745359504,-0.013074804819518199,0.010394040876265116,0.9883348933697542
2015-04-10,1,0.0013892522711499964,0.0015608860907418988,-0.00946269650781984,0.009120353966073608,0.9887815761697005
2015-04-14,1,0.0015535347314823116,0.0017357729974360918,-0.010270894484856607,0.006373386840333226,0.9887257229242883
2015-04-16,1,0.001623790842177592,0.0018188780039523934,-0.010270894484856607,0.009120353966073608,0.9882308595891531
2015-04-20,1,0.0011390160143447388,0.0012839802334181894,-0.008533858958170024,0.009053990563335211,0.9899385746724859
2015-04-22,-1,-0.001379728710568615,-0.001106058674828533,-0.006472530709501322,0.009053990563335211,0.9918601069910097
2015-04-24,-1,-0.0008680914762488099,-0.0006414396190488133,-0.008533858958170024,0.00808539626539282,0.9923029280520477
2015-04-28,0,-4.43151517400518e-06,0.00012260177779860229,-0.009548226296857304,0.005138068443381609,0.9926187215132142
2015-04-30,-1,-0.0009996360998481702,-0.0007638691681599141,-0.008337283318466277,0.005138068443381609,0.9935820607986965
2015-05-04,-1,-0.000797045383842616,-0.0005983793347281148,-0.008337283318466277,0.003506275780258646,0.9936487838694059
2015-05-06,-1,-0.0016033509011031555,-0.001284416944295581,-0.008337283318466277,0.007902419599322748,0.992420085861304
2015-05-08,-1,-0.0021915175104885395,-0.0017601341413749862,-0.006545354395476498,0.007902419599322748,0.9925974444695183
2015-05-12,-1,-0.0028098704937178395,-0.002287787249278128,-0.0056713656106429375,0.008162033006445536,0.9914274679349768
2015-05-14,-1,-0.0015472177437650305,-0.001244475619747411,-0.0056713656106429375,0.007902419599322748,0.9920643796711786
2015-05-18,-1,-0.0005322959280813362,-0.0004204352670378236,-0.00553963820441741,0.008119360049076815,0.9921016316733124
2015-05-20,-1,-0.00010305391971075989,-5.3633511293422754e-05,-0.00553963820441741,0.008485639825603401,0.9913190230034113
2015-05-22,-1,-0.00032407651055240923,-0.00027708386753388253,-0.0013756393359977597,0.008485639825603401,0.9916634385792535
2015-05-27,-1,-0.0005330378229535364,-0.00045247970322566,-0.0013756393359977597,0.008788827204171248,0.9913782503829935
2015-05-29,-1,-0.001499981981226649,-0.0012512909004678211,-0.0013756393359977597,0.008788827204171248,0.9908523753099777
2015-06-02,-1,-0.00165224942022212,-0.0013675369968165574,-0.004592229528799279,0.008788827204171248,0.9900854699726294
2015-06-04,-1,-0.001650289630757515,-0.0013692943031635312,-0.0023820692491783265,0.008788827204171248,0.9907956237515287
2015-06-08,-1,-0.0007424841759833482,-0.0006162786148472806,-0.0023820692491783265,0.008660808332065086,0.9914767636905396
2015-06-10,-1,-0.00032656700939707117,-0.00020847814862274617,-0.004592229528799279,0.005976727574130749,0.9925225993782678
2015-06-12,-1,-0.0001598891433071031,-8.241056886025916e-05,-0.0023820692491783265,0.008660808332065086,0.9922957021330905
2015-06-16,1,0.0007701970598034725,0.0008458099579019664,-0.0023820692491783265,0.004693263096420231,0.9930739299497907
2015-06-18,1,0.001283601827145112,0.0014275015473158453,-0.0024352153698836442,0.004628255800776376,0.993963253004148
2015-06-22,1,0.0008297064912611311,0.0008473100817337905,-0.005125622412267895,0.004959625922497874,0.9901510467288065
2015-06-24,1,0.0005004058230207748,0.0005667544265734483,-0.005125622412267895,0.004628255800776376,0.9904723779963225
2015-06-26,1,0.0012108872715897324,0.001313626211264496,-0.004763461522526268,0.0031261346973260606,0.9905504495058703
2015-06-30,1,0.000639630051075787,0.0006988248877439942,-0.004763461522526268,0.0031261346973260606,0.9913794786903477
2015-07-02,1,0.0008665173107747423,0.0009074901075420556,-0.004763461522526268,0.002575671519665784,0.9923181633789183
2015-07-07,1,0.0009101721544229648,0.0009650626349935712,-0.004763461522526268,0.0031261346973260606,0.9914433029162748
2015-07-09,1,0.0008376758140264666,0.0009063356446844307,-0.004624976071437579,0.0031261346973260606,0.9914962420930531
2015-07-13,1,0.0011157756261037173,0.0012066036441124384,-0.004624976071437579,0.0023906013822347586,0.9919437577651563
2015-07-15,1,0.0010947389784346853,0.0011714269463956777,-0.005150097848616066,0.0018085908377501654,0.9913989486312991
2015-07-17,1,0.0009708879539742894,0.001023040577955569,-0.005150097848616066,0.002389558706937684,0.9911861123896726
2015-07-21,1,0.0031710786956125987,0.0035112335618959142,-0.005150097848616066,0.002389558706937684,0.9935130412152832
2015-07-23,1,0.0021361128410947103,0.0023085053476947543,-0.005417143251714688,0.002389558706937684,0.9939885030809664
2015-07-27,1,0.0019443215425665942,0.002077074092058798,-0.007186207091897084,0.002389558706937684,0.9915221262639748
2015-07-29,1,0.0015065582309050302,0.00159408555184826,-0.005714048041495963,0.002973034995560605,0.9914371887364266
2015-07-31,1,0.0012729620913797535,0.0013028902563444373,-0.005966662367492402,0.002973034995560605,0.990986803614848
2015-08-04,1,0.002415045871529402,0.002696183801630096,-0.00823125806566856,0.002389558706937684,0.9906207483356134
2015-08-06,1,0.0023384583112794092,0.0026320571831695803,-0.00823125806566856,0.004802474811317081,0.9899479834952413
2015-08-10,1,0.002397025012852276,0.0027228203986248848,-0.009384561047162565,0.00696717199159714,0.9885137882619854
2015-08-12,1,0.0022706262091923965,0.002611350162050341,-0.0071376076881719,0.00696717199159714,0.9893074313170879
2015-08-14,1,0.002696305450264476,0.003088883223487438,-0.0071376076881719,0.005080669317356014,0.9894429790949797
2015-08-18,1,0.0021867106876084282,0.0024681512015945874,-0.00635109669465707,0.0056089106823377834,0.9892473359860814
2015-08-20,1,0.0018967325041670596,0.002175237655169485,-0.005145137526717866,0.00872830906854001,0.9897603210452275
2015-08-24,1,7.110455327465431e-05,8.233658096303868e-05,-0.004611973756701613,0.00872830906854001,0.9917797417689458
2015-08-26,1,0.0005607207390349642,0.0006300257686701441,-0.004639490088151,0.0056089106823377834,0.9924384472388468
2015-08-28,1,0.00018775108005685963,0.0001949535382296415,-0.004928202247126994,0.0056089106823377834,0.9915740051648466
2015-09-01,-1,-0.00040290855212266735,-0.0003340970572574594,-0.004928202247126994,0.006648400167991332,0.9917065997314837
2015-09-03,1,0.000643335027246219,0.0007201588888612106,-0.0054454177181671405,0.0046938826346858645,0.9927169874028559
2015-09-08,1,0.0011321400871205161,0.0012777785297521645,-0.0054454177181671405,0.0046938826346858645,0.9929927935269506
2015-09-10,1,0.000961983569254545,0.0010469039132270936,-0.0054454177181671405,0.0068248131499888945,0.9918882393433446
2015-09-14,1,5.626690419898524e-05,0.00015845024271091812,-0.005414933941777244,0.010387592639463488,0.9912230468569376
2015-09-16,1,0.0008528494834869713,0.0008750163387830831,-0.006953902587220161,0.0068248131499888945,0.9910579250335926
2015-09-18,1,0.0013207674026472626,0.0014474447703571624,-0.006953902587220161,0.00835510351281318,0.9907173956618408
2015-09-22,1,0.0006147873123716965,0.0006345263023078661,-0.005414933941777244,0.014235950818709035,0.9887154658538907
2015-09-24,1,0.00047499971865781835,0.0005158309415232408,-0.006953902587220161,0.014294676344419152,0.9879727994832429
2015-09-28,-1,-0.0007271082444553899,-0.0005229464925976814,-0.002781279645049269,0.014294676344419152,0.9882048489033332
2015-09-30,-1,-0.0008111818530059311,-0.0005961583175646517,-0.0014658672624064178,0.015780233921361318,0.9874997465710588
2015-10-02,-1,-0.0010995778857350073,-0.0008336003911126623,-0.0019557338387025864,0.015780233921361318,0.987000848798507
2015-10-06,-1,-0.0008328306194917689,-0.0006167855694224256,-0.0014658672624064178,0.014294676344419152,0.9881159481983295
2015-10-08,1,0.00021680858778369062,0.0003076912783136147,-0.0014658672624064178,0.010963987730314255,0.9893898527810088
2015-10-12,1,0.000994706512307493,0.001006155626100725,-0.0019557338387025864,0.00962177653718908,0.9892985620651882
2015-10-14,-1,-0.00021543924756924754,-5.032167185856979e-05,-0.0014658672624064178,0.010258098778863505,0.9895920984169614
2015-10-16,1,0.000507620690873995,0.0005950092487071781,-0.003369414508818097,0.00962177653718908,0.9898011081163646
2015-10-20,1,0.0019053554205560436,0.00196670694781369,-0.003369414508818097,0.00962177653718908,0.9915010851048236
2015-10-22,1,0.0018163987160537017,0.0018654169762095712,-0.0019557338387025864,0.00789134764650486,0.9921372526584943
2015-10-26,1,0.002043287034596871,0.002110194612097361,-0.0019557338387025864,0.00789134764650486,0.991854808988614
2015-10-28,1,0.0027459487140924646,0.002915973332537009,-0.003369414508818097,0.006888813318752211,0.9915028580916289
2015-10-30,1,0.0021231739402053874,0.002264685633218088,-0.0016879499924847702,0.006888813318752211,0.9923389873157842
2015-11-03,1,0.001994805142367264,0.002104838999021589,-0.003421528882898245,0.006888813318752211,0.992201290536752
2015-11-05,1,0.002389759334349117,0.0025810475760037243,-0.004914435359757207,0.006888813318752211,0.9908754922422323
2015-11-09,1,0.0020516897756332774,0.0022254957433252088,-0.004914435359757207,0.006888813318752211,0.9912706265825499
2015-11-11,1,0.0023156810551167024,0.0025262606679333165,-0.005764035143050942,0.005999220112187239,0.990926911232707
2015-11-13,1,0.0015354655795875157,0.0016426489679470233,-0.005764035143050942,0.006888813318752211,0.9911119970790626
2015-11-17,1,0.001985795959668713,0.002145296164930491,-0.005764035143050942,0.006647623832867547,0.9913542539997332
2015-11-19,1,0.001614413052643355,0.0016711821708871811,-0.0077605577527227925,0.004282202943722814,0.990294491433226
2015-11-23,1,0.0024079103083691294,0.0025976729441354127,-0.0077605577527227925,0.004282202943722814,0.988324426761464
2015-11-25,1,0.0014249879131730992,0.001481435187976356,-0.005764035143050942,0.007233618374367024,0.989682716346287
2015-11-30,1,0.0009811104442705473,0.0010033839227288875,-0.004723250644751858,0.0083470146903433,0.9895512360381741
2015-12-02,1,0.0010536757798460048,0.0010578880313588611,-0.0077605577527227925,0.0083470146903433,0.9889473903895079
2015-12-04,1,0.00120915801904372,0.0012386381351503193,-0.0077605577527227925,0.0083470146903433,0.9876387543840388
2015-12-08,1,0.000555042112052086,0.0006095779910075554,-0.009126310951719159,0.009511894904473048,0.9870987500476714
2015-12-10,1,0.0013068009759131232,0.001477961167008122,-0.010197634707309822,0.009511894904473048,0.9872731713982715
2015-12-14,1,0.0006349782832347371,0.0006751024727203578,-0.010197634707309822,0.008782033677074263,0.9868408076805983
2015-12-16,1,0.000683775055996998,0.0007197168373808287,-0.010197634707309822,0.011023023231723038,0.9859015013217873
2015-12-18,-1,-0.00031737725432525626,-0.00022326013287582495,-0.010197634707309822,0.012104301739375328,0.9857547947730074
2015-12-22,1,0.0014036225369971913,0.0015269897539668567,-0.01416734036065078,0.008782033677074263,0.9877034556488665
2015-12-24,1,0.0016106015567452097,0.0017776895027470272,-0.01416734036065078,0.008782033677074263,0.9854745507545398
2015-12-29,1,0.0018456842722548083,0.0020306072594750276,-0.015353267354467365,0.008699236488249287,0.9822277869127936
2015-12-31,1,0.0014562848517105072,0.0015852494223854126,-0.0152440489213213,0.011486087638204023,0.9814214767373804
2016-01-05,1,0.0015411191826386747,0.0016583091996327098,-0.014613885264107136,0.008699236488249287,0.9832573847432396
2016-01-07,1,0.0014304937945186634,0.0015588689492140617,-0.01424680878174553,0.006774615894692278,0.9839399846613796
2016-01-11,1,0.0012020145093820027,0.0012911868282580166,-0.01424680878174553,0.010212350335874991,0.9836093691255114
2016-01-13,0,-3.6843824234692704e-05,6.328654821939779e-05,-0.012256512564974047,0.010212350335874991,0.9844642937978663
2016-01-15,-1,-0.0005560115979105954,-0.0003077495722050912,-0.012256512564974047,0.010212350335874991,0.9844834660873112
2016-01-20,-1,-0.0004966100622085672,-0.00028202564888925037,-0.008133801528197265,0.009879617975983638,0.9852088502026024
2016-01-22,-1,-0.0012055024406728374,-0.0008874527613411181,-0.006369187193440216,0.009879617975983638,0.9854068831094193
2016-01-26,1,0.0009081054106213374,0.0010121983572965701,-0.006369187193440216,0.009664162389329253,0.9879013431960182
2016-01-28,-1,-0.0017380993321732348,-0.001360973994355263,-0.0041794239443442216,0.009664162389329253,0.9902326113918953
2016-02-01,1,3.534850620472445e-05,0.00018432382239408097,-0.006369187193440216,0.009664162389329253,0.9908116940643231
2016-02-03,-1,-0.0010528740844918554,-0.0007806669244343312,-0.0034878620629661605,0.009664162389329253,0.991515800647237
2016-02-05,-1,-0.0015184385162624848,-0.0011834900077361211,-0.0002837342596041224,0.009664162389329253,0.9911750640282999
2016-02-09,-1,-0.00046648166172262183,-0.0002807061270674629,-0.0034878620629661605,0.007735699056646759,0.9924113768356668
2016-02-11,-1,-0.0008696048022788148,-0.0006404886121736316,-0.003428654590274492,0.00943031006978309,0.9918708615474645
2016-02-16,-1,-0.00016955603250070852,-8.873164995600036e-06,-0.0034878620629661605,0.007735699056646759,0.9929528243021811
2016-02-18,0,-0.00011025712057789413,5.42366307869281e-05,-0.003428654590274492,0.007735699056646759,0.9926232348495776
2016-02-22,-1,-0.000317284245271616,-8.17625402173306e-05,-0.003807905168377498,0.007473141576817356,0.99230374849688
2016-02-24,0,-0.0001490721153895318,7.324219296459976e-05,-0.004857244294197083,0.006634871344660254,0.9926812133750859
2016-02-26,-1,-0.0006549574726894616,-0.00037165137042689117,-0.004857244294197083,0.006733190869354827,0.9924354500419641
2016-03-01,-1,-0.0003598780208757265,-0.00010687024639398552,-0.00375772966908804,0.006733190869354827,0.9929572508437692
2016-03-03,1,0.0001782560954718164,0.0003199107863329627,-0.004857244294197083,0.008630442422304584,0.9917514413976191
2016-03-07,1,0.0006899584974731633,0.0007411128593107137,-0.006355191989069837,0.008630442422304584,0.9908711422988618
2016-03-09,0,-1.069173011238652e-05,0.00016501211354923167,-0.007668758147275491,0.008630442422304584,0.990328599841014
2016-03-11,1,0.0009274419686089896,0.000953479397968425,-0.007686265194296357,0.006089497604425926,0.9905657839119419
2016-03-15,1,0.0017126993811436319,0.0018920152655720658,-0.007686265194296357,0.008630442422304584,0.9903538971092801
2016-03-17,1,0.002296108173397976,0.002543686941933037,-0.007686265194296357,0.005338881055093074,0.9906182487777048
2016-03-21,1,0.0021502435733424807,0.002399236832531908,-0.007577004565871298,0.003453998840047711,0.9912554226162312
2016-03-23,1,0.0022406951073349842,0.0025483435065756293,-0.007686265194296357,0.003453998840047711,0.989272016172838
2016-03-28,1,0.0020721643277285123,0.002302297487450362,-0.007686265194296357,0.003453998840047711,0.9895511830269947
2016-03-30,1,0.0025145401358522817,0.002808435306889979,-0.007686265194296357,0.0009043655546508739,0.9895540678539075
2016-04-01,1,0.002562684546969617,0.002877596005333479,-0.007577004565871298,0.0009043655546508739,0.9903900034268268
2016-04-05,1,0.0013563069431028795,0.0014780008183842023,-0.007142178505213385,0.002203989263947802,0.991430884903485
2016-04-07,1,0.0009549506798613929,0.0010426733328998319,-0.005514061168631724,0.003916783394858561,0.991488307710736
2016-04-11,1,7.601864787732995e-05,0.00013849302836903637,-0.004299811038978814,0.009819063819758254,0.9908068886693273
2016-04-13,1,0.0010019306484397197,0.0010893402786530254,-0.004774752692746655,0.008640642065655449,0.9909834712946718
2016-04-15,1,0.0007732943293521819,0.000836764947920143,-0.0044205754642386635,0.009623963392752063,0.9906359736219021
2016-04-19,1,0.0009318579667075434,0.0010486982617022385,-0.0044205754642386635,0.009623963392752063,0.9894595420949625
2016-04-21,-1,-0.0012274584318382993,-0.001029696078996706,-0.0044205754642386635,0.01249528018946926,0.9903492395385607
2016-04-25,-1,-0.0005713201255162701,-0.0004396858649222782,-0.0044205754642386635,0.009623963392752063,0.9911365401043783
2016-04-27,-1,-0.0007814423840843422,-0.0006214117461666332,-0.005193951752944381,0.01249528018946926,0.9901140120595463
2016-04-29,-1,-0.0007569749304514343,-0.0006120624749231518,-0.0044205754642386635,0.01249528018946926,0.990276745042132
2016-05-03,-1,-0.00042509738626812923,-0.000288066464975097,-0.0044205754642386635,0.01202670073317524,0.9904314246710721
2016-05-05,-1,-0.0004084324420996009,-0.0002534677952552796,-0.0038826107733674984,0.009623963392752063,0.9913977342558993
2016-05-09,1,0.0003486192510713056,0.0004330294366288428,-0.0038826107733674984,0.006597166665191152,0.9924664089416122
2016-05-11,1,0.0003473079395736559,0.0004233123397973085,-0.003231512079748847,0.006945221970601385,0.9925947368542426
2016-05-13,0,-0.00012246038513068886,6.23475620551659e-05,-0.003231512079748847,0.004909335825572568,0.9921804248563361
2016-05-17,1,4.1888956054921065e-05,0.00010237030757075729,-0.004056456945928339,0.004909335825572568,0.9926324594827407
2016-05-19,1,0.00027723406585498125,0.0003030927308643631,-0.004056456945928339,0.004623339587100904,0.993036540565026
2016-05-23,1,0.0004928487324879507,0.0005141899968160314,-0.004056456945928339,0.005103481791528086,0.9927824578032234
2016-05-25,1,0.0003910531214542049,0.0004079492890545548,-0.0030497091243446074,0.005103481791528086,0.9929033845331524
2016-05-27,1,0.000672360524518243,0.0007072176653983414,-0.00485796747844572,0.004698106814373481,0.9919984209608342
2016-06-01,1,0.00102975933207268,0.0010936032265858608,-0.00485796747844572,0.005648181670541087,0.9911191288209706
2016-06-03,1,0.0007458818477701631,0.0007610991678842997,-0.005665173752052345,0.008579321607640387,0.9894359927525155
2016-06-07,1,2.8004560591558944e-06,0.00012016021553203614,-0.007273086892785478,0.008579321607640387,0.9893951297027783
2016-06-09,1,0.0006725913229353965,0.0006848118197721915,-0.007273086892785478,0.008555104807752588,0.9889522866254812
2016-06-13,-1,-0.0005077460599080515,-0.00034011242281707286,-0.006552382427204901,0.008555104807752588,0.989960907411435
2016-06-15,-1,-0.00150984960872809,-0.0012038268038240473,-0.005185615008154724,0.008555104807752588,0.990275092633767
2016-06-17,-1,-0.00024216258645865077,-0.00020730875946123025,-0.005185615008154724,0.008555104807752588,0.9905805444564819
2016-06-21,-1,-0.0015239252201423178,-0.0012036594639464996,-0.005185615008154724,0.010247729240701596,0.9904672022966083
2016-06-23,0,-6.811862461937547e-05,1.189105567940866e-05,-0.006552382427204901,0.010137682363866665,0.9904984379186449
2016-06-27,-1,-0.0014155104374363636,-0.0011352117490603078,-0.006552382427204901,0.010137682363866665,0.9911324300403452
2016-06-29,-1,-0.0005486986608393997,-0.00035497844896663887,-0.006552382427204901,0.005902385811564449,0.9927657903163852
2016-07-01,1,0.00043252340183169724,0.00047533048447350715,-0.006361317894395482,0.005877226672870703,0.9940900147603268
2016-07-06,0,-0.000102229909869722,3.327280491454977e-05,-0.005736956278741219,0.005877226672870703,0.9941953742049012
2016-07-08,1,0.0004413396821287118,0.0004739458809442728,-0.004888828530897094,0.005877226672870703,0.9945383241136079
2016-07-12,1,0.0007303195093630859,0.0007419265372506088,-0.004888828530897094,0.0062735890132947815,0.9945077435136724
2016-07-14,1,0.001004578618521628,0.0010727813102366234,-0.004888828530897094,0.0046766032595784365,0.9947437865385278
2016-07-18,1,0.0008594709933751178,0.0009232602014232537,-0.0037741279326701186,0.006110831676386747,0.9948909735279762
2016-07-20,1,0.000876951537108042,0.0009266453872170944,-0.003989381334033534,0.0046766032595784365,0.9950667783361434
2016-07-22,1,0.0010105957375347056,0.0010978257863092557,-0.0027239130973041093,0.0046766032595784365,0.9953731592339102
2016-07-26,1,0.0007016813627083055,0.0007471009856215569,-0.0023456001795831307,0.0046766032595784365,0.995941790541125
2016-07-28,1,0.0008510900365305583,0.0009258972190012923,-0.0023456001795831307,0.006110831676386747,0.9955681436213203
2016-08-01,1,0.000850968124209126,0.0009200176980706649,-0.0019844446031375964,0.0060033363574164885,0.9959792990718923
2016-08-03,1,0.0008433998280457384,0.0009361452313718906,-0.0014509254285567034,0.0060033363574164885,0.9961993741695309
2016-08-05,1,0.0010057866540903548,0.0011169340110618428,-0.0019844446031375964,0.005959628705790001,0.9960210527804749
2016-08-09,1,0.001451579138560432,0.0016637965700454335,-0.0023456001795831307,0.005994177493798884,0.9954312663195994
2016-08-11,1,0.0012655462409258327,0.0014381635111849064,-0.004261134257622751,0.005994177493798884,0.9937354279744545
2016-08-15,1,0.0012325099196917925,0.0013837165412941815,-0.0070227730139291586,0.00343299181130426,0.9934281849886443
2016-08-17,1,0.001100222972634447,0.0012552291217015643,-0.007468664305576079,0.005441844451524471,0.9929811259679066
2016-08-19,1,0.001652298409760365,0.0019079794817800466,-0.007468664305576079,0.005441844451524471,0.9929265435516254
2016-08-23,1,0.0015726279423841914,0.0018123151231032512,-0.007468664305576079,0.005994177493798884,0.9923301154276906
2016-08-25,1,0.0015544311873209788,0.001743516981817296,-0.010928644874291522,0.005994177493798884,0.9914284546493891
2016-08-29,1,0.0013461097009472792,0.0014732127392124924,-0.010928644874291522,0.005695134656208672,0.9909194047236761
2016-08-31,1,0.0011157662526283308,0.001186657812432295,-0.010928644874291522,0.006375284312406329,0.9901904463873282
2016-09-02,1,0.0013601734288501218,0.001492870307716521,-0.012966338560080816,0.006113843217364201,0.9899772948610713
2016-09-07,1,0.0011563934083480116,0.0012450987898951784,-0.012966338560080816,0.006113843217364201,0.9904357625172004
2016-09-09,-1,-0.00010936234491156589,-3.282778935806787e-05,-0.009220968064247586,0.006113843217364201,0.9914236022194538
2016-09-13,-1,-0.0014839623007216443,-0.0011673708214334027,-0.007979024307519829,0.006749344448479908,0.991402297367819
2016-09-15,-1,-0.001423681501253932,-0.0011482185696163561,-0.007165932003086557,0.008349710597719258,0.9918655704459823
2016-09-19,-1,-0.0012499396865384002,-0.0009874487143542773,-0.007165932003086557,0.006749344448479908,0.9924391623336659
2016-09-21,-1,-0.0008412594345373501,-0.0006193191022839987,-0.007165932003086557,0.0058198213682331985,0.9933320750725613
2016-09-23,-1,-0.0007091828391090306,-0.0005304467746672092,-0.007979024307519829,0.005161993612285443,0.987904019597919
2016-09-27,-1,-0.0006945233239546235,-0.0005291550092210312,-0.007165932003086557,0.005373827355990678,0.9880600208475149
2016-09-29,-1,-0.0002823313609611399,-0.00020718541203870302,-0.008288350804425684,0.004891453325081403,0.9868724156464528
2016-10-03,-1,-0.0005538926858651813,-0.00044674782719035175,-0.007672099843503344,0.005373827355990678,0.9867008486835247
2016-10-05,0,-2.8673581407555524e-05,6.677815633582786e-06,-0.008564271852453464,0.005373827355990678,0.9857843202359267
2016-10-07,-1,-0.0007048601062139823,-0.0005451893076185237,-0.00923799895103159,0.0012831562793211354,0.9861418604609137
2016-10-11,-1,-0.0006991122571849461,-0.0005472573823495312,-0.00923799895103159,0.0013206426648493651,0.9863219332033111
2016-10-13,-1,-0.0004636565594529916,-0.0003382497275604407,-0.00923799895103159,0.006831239837186924,0.983970507944655
2016-10-17,-1,-0.0007431764691355888,-0.0005904191411038907,-0.00923799895103159,0.008277359724676943,0.9820156272038767
2016-10-19,-1,-0.0005967111299274102,-0.00047130601445693695,-0.00923799895103159,0.011669198806436907,0.9808459207490248
2016-10-21,-1,-0.004946409911710741,-0.0043507576981854585,-0.005742845098873171,0.011669198806436907,0.9860841611953455
2016-10-25,-1,-0.0049354776104873,-0.004334885024953502,-0.004723791832720245,0.011669198806436907,0.9860532157801376
2016-10-27,-1,-0.006231404150617323,-0.0054755329483494744,-0.0027341395905869804,0.013702652191213718,0.9852161835875933
2016-10-31,-1,-0.005056275588584451,-0.0044633743785661845,-0.0029670776262779677,0.011259791920546693,0.9846726441732013
2016-11-02,-1,-0.005743929473958655,-0.005030183250451936,-0.0029670776262779677,0.008955177519602547,0.9850294006409478
2016-11-04,-1,-0.006475438167866082,-0.005651977276029773,-0.0029670776262779677,0.012105522482655015,0.9840642368164509
2016-11-08,-1,-0.006133277665812594,-0.0053456586854613766,-0.0011578071907613402,0.015426281965166115,0.9829372105549681
2016-11-10,-1,-0.003687372443052356,-0.003208545144920832,-0.004315913392911973,0.012105522482655015,0.9849295225703594
2016-11-14,-1,-0.0020390828376538714,-0.0017864887741288601,-0.004315913392911973,0.010815771848669973,0.9871905497841187
2016-11-16,-1,-0.0014025897028512816,-0.0011869490531577394,-0.006657618200808891,0.010815771848669973,0.9873307216595565
2016-11-18,-1,-0.0008902773741554351,-0.0007905897159820313,-0.006657618200808891,0.010815771848669973,0.9878214691879746
2016-11-22,-1,-0.00024481594075566977,-0.00023311311532988747,-0.006657618200808891,0.010815771848669973,0.9880579858079099
2016-11-25,1,0.00021477573448267526,0.00027600663360485334,-0.006657618200808891,0.010815771848669973,0.9881995376091127
2016-11-29,-1,-0.0014807053917304453,-0.0013457318338862881,-0.006445885208536856,0.010815771848669973,0.9896847546381304
2016-12-01,-1,-0.0015327227144163531,-0.001406706282207262,-0.003125531259937931,0.010815771848669973,0.9896679679219722
2016-12-05,-1,-0.0010623644306667701,-0.0010015636096203932,-0.005360500080323055,0.007670240460776337,0.9893339546804605
2016-12-07,-1,-0.00011459384043257487,-6.9963298212377e-05,-0.0076896299172652515,0.005707253610117273,0.989816717505653
2016-12-09,-1,-0.00011877550979342145,-5.253352000009865e-05,-0.0076896299172652515,0.005707253610117273,0.9908657815251749
2016-12-13,1,0.0001135731436336525,0.0002141542590217416,-0.010809552921442443,0.0034981766847678158,0.9906704768414615
2016-12-15,1,0.0003629955265345258,0.00048108296078184707,-0.013302713512318263,0.003376364259620395,0.9909194060379249
2016-12-19,1,0.000294169204535557,0.00041044607161442605,-0.013302713512318263,0.0034981766847678158,0.9897839214761606
2016-12-21,1,0.0004865470946942627,0.0006365926477091326,-0.013302713512318263,0.003376364259620395,0.9897033632464235
2016-12-23,1,0.0009981157098491364,0.001201706215269964,-0.013302713512318263,0.004303070500112297,0.9895042225371782
2016-12-28,1,0.00033203176338833745,0.0004656061447130018,-0.009550081895719863,0.006843267271168286,0.9897456900017614
2016-12-30,1,0.0008391560134824156,0.00104984749074576,-0.013302713512318263,0.004304577437437543,0.9890232392718223
2017-01-04,-1,-9.77284094700688e-05,-1.255678944997034e-05,-0.009550081895719863,0.006220216355926672,0.9901949402285729
2017-01-06,-1,-0.0004908012545299634,-0.0004445035446125251,-0.005585207421465986,0.00820518530566689,0.9907477066627396
2017-01-10,-1,-0.000504361481171239,-0.00047774408478068074,-0.009550081895719863,0.006220216355926672,0.9905203593480127
2017-01-12,-1,-0.0005747243726943641,-0.0005290665191507597,-0.005585207421465986,0.00820518530566689,0.9902055958938604
2017-01-17,-1,-0.0010426812626206112,-0.001033461900919227,-0.003309847001091326,0.00820518530566689,0.9909028700552206
2017-01-19,-1,-0.00029686666216914744,-0.00017229201629332443,-0.002703116995348493,0.006220216355926672,0.9919609715233672
2017-01-23,-1,-0.0003051547281835549,-0.0001698073123638853,-0.0035447334755801573,0.006220216355926672,0.9916663109429128
2017-01-25,1,0.0006014799642807521,0.000864744318567357,-0.003918651037013928,0.0051017236457592,0.9923312784927963
2017-01-27,1,0.0010945812332600231,0.0014304732122139628,-0.004584190900129848,0.004360848216415128,0.9927191579294097
2017-01-31,1,0.0005812948097104205,0.0008534959849618477,-0.004259767887709778,0.0051017236457592,0.9931250625578149
2017-02-02,1,0.0002533693026597416,0.00041248006704990703,-0.007481919019722689,0.004360848216415128,0.9921424785857454
2017-02-06,1,0.0003744753558652179,0.000534537243840624,-0.007481919019722689,0.0007939069888285973,0.9923389150416031
2017-02-08,-1,-0.0007080125763222243,-0.0007039722169230893,-0.00620036753246373,0.00380156850326353,0.9940869490187826
2017-02-10,1,0.00015909479905337927,0.0002974008943034915,-0.00620036753246373,0.00380156850326353,0.9942732746782941
2017-02-14,1,0.0007533547204976919,0.0010064199385821388,-0.00620036753246373,0.004360848216415128,0.9931572754702316
2017-02-16,1,0.000744879478024624,0.000989611365000331,-0.0070208154512268976,0.005390870267313551,0.9923686776066403
2017-02-21,1,0.00047027176379138634,0.0006797160921202368,-0.007482943047360513,0.005390870267313551,0.9918588198955439
2017-02-23,1,0.0005505657617971222,0.0007698239776713842,-0.008302389135456128,0.006914844361465741,0.9914978045968802
2017-02-27,1,0.0002983415706068489,0.0004743387634386589,-0.008302389135456128,0.007492905246171506,0.9913227621502725
2017-03-01,1,0.0008080691938564755,0.0010803835474941506,-0.00898977232110148,0.006914844361465741,0.9912401562212578
2017-03-03,1,3.137893898802924e-05,0.0001992658659704759,-0.00725371136961495,0.009533800496187524,0.9909489251417255
2017-03-07,0,-7.066465907352054e-05,8.772255492552685e-05,-0.008302389135456128,0.009533800496187524,0.9899096982496978
2017-03-09,1,0.0003798358179959142,0.0006212232680428651,-0.00898977232110148,0.009533800496187524,0.9893473930794423
2017-03-13,1,0.000732982452904114,0.00100778053645531,-0.00898977232110148,0.009533800496187524,0.9892244969380747
2017-03-15,1,0.0019049504947246173,0.0023389182583904416,-0.010498699453930739,0.0093409175969197,0.989259407247581
2017-03-17,-1,-0.00042993619267122735,-0.0002997422096356229,-0.012220075740931256,0.0093409175969197,0.9891812145567258
2017-03-21,-1,-0.0015240277698209974,-0.001266433077859535,-0.009523374893377803,0.0093409175969197,0.9898529098518233
2017-03-23,-1,-0.002276373326753887,-0.0018686119450725402,-0.012313075687649997,0.010880743001340733,0.9846909170651796
2017-03-27,-1,-0.0017232171439024789,-0.0013990313697013895,-0.012313075687649997,0.012878150750658032,0.9821330281484099
2017-03-29,-1,-0.00291440945555502,-0.0024337969006024453,-0.007270721247553569,0.012878150750658032,0.9823391776237167
2017-03-31,-1,-0.001940864170142889,-0.001541943205495725,-0.012956006755897517,0.010892965106948574,0.9838365696921287
2017-04-04,-1,-0.002770931718182937,-0.0022895367579810204,-0.007270721247553569,0.010892965106948574,0.9849464811747755
2017-04-06,-1,-0.00197077123105787,-0.0016915754715486177,-0.005021190249825827,0.010892965106948574,0.9852786639602109
2017-04-10,-1,-0.0007859989330293517,-0.0007119451969177222,-0.006472740229721725,0.006015613914291414,0.9855945721896494
2017-04-12,-1,-0.0003366861723584668,-0.00029908400613584197,-0.006472740229721725,0.0043434113651751914,0.9861976642322554
2017-04-17,-1,-9.469625301837306e-05,-3.2124027358258175e-05,-0.006472740229721725,0.002666660079103573,0.9871822645337113
2017-04-19,1,0.00016155711948060678,0.0002706465797306582,-0.008615305372255492,0.0009367583432272831,0.9870411253959062
2017-04-21,-1,-0.0010317213128437821,-0.0010259779261192472,-0.006472740229721725,0.0009367583432272831,0.9929029962866852
2017-04-25,-1,-0.00013365412981436572,-0.0001265916604499408,-0.006472740229721725,0.0009367583432272831,0.9946090865523136
2017-04-27,-1,-0.0005023054855787194,-0.0004506041692241994,-0.006472740229721725,0.0010786831991406612,0.9940299007786879
2017-05-01,-1,-0.0008111980826633007,-0.0007389860367113021,-0.008615305372255492,0.0010786831991406612,0.9938502449975297
2017-05-03,-1,-0.00046301530089938326,-0.00043467505317018335,-0.008615305372255492,0.004678640722553702,0.9926910809065174
2017-05-05,-1,-0.0005215359971721019,-0.0005098971713694891,-0.009619484027724333,0.006200888435881632,0.9913686266388017
2017-05-09,-1,-0.0007787940733663161,-0.000773718035593152,-0.009807551924083203,0.006200888435881632,0.9914749599801989
2017-05-11,-1,-0.0008019884720637789,-0.0007854868203600199,-0.009619484027724333,0.008694945713480565,0.9906493642251162
2017-05-15,-1,-0.0011551704180237106,-0.0011234943356495857,-0.009729876831495324,0.008694945713480565,0.9905148819158708
2017-05-17,-1,-0.0011548359255782368,-0.001133394452398023,-0.00481026041184041,0.008694945713480565,0.9902196578293215
2017-05-19,-1,-0.0006632053402040767,-0.0005776471145174407,-0.009945540701240265,0.008694945713480565,0.9898648141018143
2017-05-23,-1,-0.0001921899665080838,-9.437918683394796e-05,-0.01029965348699535,0.006925994018089995,0.9902211761146936
2017-05-25,1,0.0005064511654597639,0.0007272113766502366,-0.01029965348699535,0.006359359564733859,0.9907497951249158
2017-05-30,-1,-0.0007625288200503718,-0.0007543624913168213,-0.005095788144091813,0.006359359564733859,0.9914934075100368
2017-06-01,1,0.0001950381932996338,0.0002777765027172052,-0.005095788144091813,0.003141289879723332,0.9928366194711212
2017-06-05,-1,-0.00039052605005452897,-0.00037752240812548705,-0.005095788144091813,0.003141289879723332,0.9925913516823607
2017-06-07,-1,-0.0009973624502702203,-0.0009184584512514455,-0.007698258683387888,0.003141289879723332,0.991703318544429
2017-06-09,-1,-9.54605589315019e-05,-9.059523743026518e-05,-0.010385703213301673,0.003141289879723332,0.9907185214784734
2017-06-13,-1,-0.0003557857835734007,-0.0003408736320546201,-0.008216096288037178,0.004040070002659335,0.9908648461788303
2017-06-15,1,7.241653657845772e-05,9.974123838681016e-05,-0.008216096288037178,0.003141289879723332,0.9911481117311468
2017-06-19,-1,-0.00023943079259112303,-0.00020605062288459795,-0.004331883009478013,0.003141289879723332,0.9919444577456058
2017-06-21,-1,-0.000497793920578915,-0.000470126587436967,-0.0030869858949042553,0.005401870013061807,0.990335109062551
2017-06-23,-1,-0.0007951577513248865,-0.0007493347043979581,-0.003968043683400381,0.007777858133057144,0.9896193776142153
2017-06-27,-1,-0.0004109087875062418,-0.00039772736931142796,-0.007142352179194235,0.010332164946076586,0.9870292196967354
2017-06-29,-1,-0.00013791725040490895,-7.359506371335507e-05,-0.007142352179194235,0.010332164946076586,0.9866207048139545
2017-07-03,-1,-0.00024322207276149322,-0.00023217604694687278,-0.003968043683400381,0.008867041102104997,0.9878645672565108
2017-07-06,-1,-0.0010289979506434605,-0.0009628246742815366,-0.0035875054775840846,0.008867041102104997,0.9878926665508311
2017-07-10,-1,-0.0011840597576476808,-0.0011174415638683423,-0.003578470467566407,0.008867041102104997,0.989284821946835
2017-07-12,-1,-0.0007308977010354591,-0.0007181272181032933,-0.005425798521648172,0.008867041102104997,0.9891610966101163
2017-07-14,-1,-0.0007281644525003986,-0.0006995531668582899,-0.006736805279237009,0.008867041102104997,0.988726343852321
2017-07-18,-1,-0.00048674550592882646,-0.0004825786628814994,-0.008535578587363406,0.008867041102104997,0.9879480651319399
2017-07-20,1,0.0011929227733772799,0.0014080170882379973,-0.011375355726958546,0.006210239843719402,0.9891618106092264
2017-07-24,1,0.0011589804304687075,0.0013831444068813635,-0.011375355726958546,0.005650146861076363,0.9898780435330944
2017-07-26,1,0.0004575322349532661,0.0005350192799557213,-0.008423968934957171,0.005650146861076363,0.9919072371511015
2017-07-28,1,0.0010065535029761957,0.0011440198857208142,-0.008423968934957171,0.0052881231578980736,0.9917623007152877
2017-08-01,1,0.0011546018161368544,0.0013202733102286289,-0.010939583625883672,0.003357937536702223,0.990890376331197
2017-08-03,1,0.0004429375570744364,0.0005395230915526374,-0.010492190455534756,0.003357937536702223,0.9920820916919282
2017-08-07,1,0.001290211862471859,0.0015664697804848623,-0.010939583625883672,0.0026268905600290654,0.9904846799274617
2017-08-09,1,0.0010053399422077034,0.0012575948567684616,-0.010939583625883672,0.003357937536702223,0.9892855831965959
2017-08-11,1,9.181858686422605e-05,0.00016509044253969123,-0.010492190455534756,0.0073551392281565806,0.9883978546048114
2017-08-15,-1,-0.0002335302877732483,-0.00019916657008708455,-0.008214835223077168,0.00810559107871458,0.9885320394101326
2017-08-17,-1,-0.00048354841316432186,-0.00045846615753216064,-0.00766657112868019,0.00835230455446272,0.9887267716901288
2017-08-21,-1,-0.0005569689411976682,-0.0005277604408298485,-0.00766657112868019,0.00835230455446272,0.9887485381299511
2017-08-23,1,0.00019277208854094423,0.00033899877738457134,-0.0058096476734602505,0.009551515958246149,0.9886541737552932
2017-08-25,1,0.00025808584595287743,0.00036374536995256425,-0.0058096476734602505,0.008000755202619163,0.9888644518211585
2017-08-29,-1,-0.0007104898375107588,-0.0006672917201020888,-0.0009295443369369776,0.01323002559406058,0.9879494670937153
2017-08-31,-1,-0.0006217408533357573,-0.0006058391928228575,0.0008922194943875457,0.01323002559406058,0.987296842692612
2017-09-05,-1,-0.0020943430916328344,-0.0018970674527968852,0.002867980644972604,0.01608688881725214,0.9879512920841923
2017-09-07,-1,-0.0019026921012962033,-0.0017458928677716948,0.002867980644972604,0.01283347327619859,0.9897328429444643
2017-09-11,-1,-0.0004900450673129993,-0.00046881192318995186,-0.0005433111384494208,0.008716575531679642,0.9920668867050672
2017-09-13,-1,-0.0009979134520924872,-0.0008633215684681762,-0.0038680803053341476,0.008716575531679642,0.992496480061291
2017-09-15,1,0.0002289164729304779,0.00035713753859811673,-0.0038680803053341476,0.007149704663539777,0.993124920931059
2017-09-19,1,8.18047218266927e-05,0.00018215802526962675,-0.004316671153769312,0.007746521328167418,0.9929125710580156
2017-09-21,1,0.0005995481641055283,0.0007399245918887012,-0.004316671153769312,0.007746521328167418,0.992216482835313
2017-09-25,1,0.0007598522899232778,0.0009010675048411426,-0.004482126885167119,0.007746521328167418,0.9910430260183009
2017-09-27,1,0.0018991782748268935,0.002190887457108486,-0.005244420359004499,0.006135069465678291,0.9914739612076859
2017-09-29,1,0.0014288417736816245,0.0016297266605448612,-0.004482126885167119,0.006135069465678291,0.9918758012324828
2017-10-03,1,0.0018543819092247333,0.002090464308614106,-0.004807924360029082,0.006135069465678291,0.9919413446321071
2017-10-05,1,0.0015022720086698908,0.0016667909918229424,-0.0050772047126436855,0.0071340362531796256,0.991771587185898
2017-10-09,1,0.001066604948726509,0.0011594261525932808,-0.004871925248467259,0.0071340362531796256,0.9918746366027694
2017-10-11,1,0.0008831962639613744,0.0009487245818334991,-0.004871925248467259,0.0071340362531796256,0.9918279877952273
2017-10-13,1,0.0013045203051043849,0.001475088653480153,-0.004623166736134795,0.0071340362531796256,0.9921826782356685
2017-10-17,1,0.0014192389632321943,0.001624302326698598,-0.004623166736134795,0.006142733897967536,0.9926013384006336
2017-10-19,1,0.0023710911205814525,0.002650893924870033,-0.004623166736134795,0.005347441666366866,0.9940835150833234
2017-10-23,1,0.0016760546832204687,0.001938776327735894,-0.004613169710811498,0.005347441666366866,0.9956666591683023
