JNU-Tangyin/eata/results/Batch4_SP500/Batch4_SP500-DRI.csv
Date,Action,Predicted_Q25,Predicted_Q75,Actual_Q25,Actual_Q75,RL_Reward
2010-12-14,0,0.0,0.002064238204199232,-0.007551723243886549,0.006426386503514159,0.9909583824656788
2010-12-16,1,0.003273159955108803,0.00360390206050954,-0.007551723243886549,0.0040616151074441805,0.9909222317482226
2010-12-20,1,0.0031719200283203894,0.003382810007957192,-0.008947014197816622,0.003343768883316452,0.9905853598578797
2010-12-22,1,0.00022995579897696846,0.00037551026974144496,-0.006987321876080367,0.005120446721883781,0.9940124486997445
2010-12-27,-1,-0.0002748885542844269,-6.55320165467325e-05,-0.005631242138973419,0.005499792772936794,0.993495886925466
2010-12-29,-1,-0.0007066107999210567,-0.0004142948784595144,-0.00621926093911173,0.005120446721883781,0.9923672912779021
2010-12-31,-1,-0.0011283636699388612,-0.0008054404847418723,-0.00646912554799336,0.005499792772936794,0.9898585658647906
2011-01-04,-1,-0.0022911187818906243,-0.0017277724573340032,-0.00646912554799336,0.0067459035102175584,0.9883084641458704
2011-01-06,-1,-0.002987703633685817,-0.0023218882001963493,-0.0056034360938656946,0.009852965780387394,0.9879405670389413
2011-01-10,-1,-0.0024184894156585807,-0.0018904057891263387,-0.007153768349638821,0.010240207357100935,0.9871807075841554
2011-01-12,-1,-0.00306758673287537,-0.0024421610318001285,-0.002644314752947237,0.010240207357100935,0.9876976774258251
2011-01-14,0,0.0,0.0,-0.002644314752947237,0.01139597784936355,0.9879521911984752
2011-01-19,-1,-0.0023324612886930106,-0.0018760676975755496,-0.0016286511861063639,0.01139597784936355,0.9878416480630782
2011-01-21,-1,-0.002122022628164357,-0.0016852994573144002,-0.0016286511861063639,0.01053238425353411,0.9880043760722135
2011-01-25,-1,-0.0009474222106449153,-0.0006943055914838657,-0.008594397498643117,0.007506329341999574,0.9866903888008752
2011-01-27,-1,-0.0011120574936588,-0.00090923706659374,-0.006833801219210579,0.009856728868414818,0.9875837642964413
2011-01-31,-1,-0.00037958139761902607,-0.00025390570223218854,-0.006027743498521933,0.0074744580230852505,0.9900956568675781
2011-02-02,1,0.0007046301906264293,0.0007191448426237467,-0.006833801219210579,0.0074744580230852505,0.9904074658661547
2011-02-04,1,0.0011458466850007474,0.00125005540908632,-0.008541070711855463,0.0060534222688108,0.9905519753426671
2011-02-08,1,0.0007227155716239348,0.000744019668912511,-0.0065734658222213575,0.0060534222688108,0.9909180226322869
2011-02-10,1,0.0007491809862787494,0.0007724108269178299,-0.0065734658222213575,0.0060534222688108,0.9909469682402188
2011-02-14,1,0.00031189812627263174,0.00039761040005873056,-0.007886973868947204,0.003863115777160791,0.9910685413950967
2011-02-16,1,0.00038869981285012656,0.00046366519985599215,-0.008541070711855463,0.0030875299010916417,0.9907875196720964
2011-02-18,1,0.0005298712815059359,0.0005925046377265489,-0.008541070711855463,0.0028789951180694714,0.9906884001286944
2011-02-23,-1,-0.0017883967270581494,-0.0014223728638160936,-0.006378801048434141,0.0051174293112952966,0.9929396087322268
2011-02-25,-1,-0.001752236785953964,-0.001395118617479092,-0.006378801048434141,0.0051174293112952966,0.9906299723653311
2011-03-01,-1,-0.0018902469044021005,-0.0015337213026546206,-0.005737422777706155,0.011353486310558776,0.9888488177647393
2011-03-03,-1,-0.001580798560676265,-0.001275941213554204,-0.004304022361844178,0.011690059510521142,0.9880684017172031
2011-03-07,-1,-0.002188898264613978,-0.0018068996905547126,-0.004304022361844178,0.011690059510521142,0.9882827354432515
2011-03-09,-1,-0.00130816375665851,-0.001056789440430258,-0.005672698060573453,0.011353486310558776,0.989132989166994
2011-03-11,-1,-0.0016478861189965395,-0.0013432710633972343,-0.008211738804335438,0.011353486310558776,0.988331889892046
2011-03-15,-1,-0.0019782140653519555,-0.0016419439741176597,-0.00801756465293733,0.011353486310558776,0.9883223153194183
2011-03-17,-1,-0.0012852871656669849,-0.0011036626868052802,-0.006980007514325072,0.011690059510521142,0.9878472276907069
2011-03-21,-1,-0.0011538133285687257,-0.0009733717596384665,-0.007986463688446861,0.011690059510521142,0.9876963351856884
2011-03-23,-1,-0.0011165098765647283,-0.0009078258669985272,-0.007986463688446861,0.013342800528559993,0.9872153705410547
2011-03-25,-1,-0.0019511472879576448,-0.0016631042045937038,-0.007844961560165113,0.011690059510521142,0.9899119225310518
2011-03-29,-1,-0.0005043074814786571,-0.0004089139397298236,-0.009221117689054672,0.007183263024070442,0.9911895160058707
2011-03-31,1,0.0009762273377940742,0.0011117165851427598,-0.009371933885789977,0.0012268036449426417,0.9919775951235881
2011-04-04,1,0.00041387727928042116,0.00044649106419580804,-0.00912988762635136,0.0036247405104014017,0.9923758936351044
2011-04-06,1,0.0006857967132282569,0.0008192468917341805,-0.00912988762635136,0.007183263024070442,0.9908684715708821
2011-04-08,0,-2.440061886336673e-05,8.860029938418843e-06,-0.00739155884786101,0.007183263024070442,0.9914239608714132
2011-04-12,0,-1.529792602333928e-05,1.9413493494472634e-05,-0.00739155884786101,0.007717656322956887,0.9911634719558509
2011-04-14,1,0.00032118638806851265,0.000402699176395698,-0.006247442696934758,0.007984109714491061,0.9910362649902742
2011-04-18,1,0.0002910821867719671,0.0003732666208820634,-0.004268250667260762,0.007984109714491061,0.9915817943120875
2011-04-20,1,0.0011243382598694184,0.0013295322465963454,-0.004268250667260762,0.009401356346827249,0.9909515436585048
2011-04-25,1,0.0007525945880124453,0.0008918815696687275,-0.004268250667260762,0.009401356346827249,0.9908642255830334
2011-04-27,1,0.0007283488448450051,0.0009029172419641495,-0.004268250667260762,0.009401356346827249,0.9910705585924667
2011-04-29,1,0.0005524226721057743,0.0007090988081484493,-0.0036227117589179686,0.009401356346827249,0.9912888316368981
2011-05-03,1,0.0004001915199044176,0.0005216377237577904,-0.004268008168342335,0.009401356346827249,0.9907723060996236
2011-05-05,1,0.0016434662026433055,0.001926855563532196,-0.008434202667077905,0.006290093999653326,0.9905744253187057
2011-05-09,1,0.0008551769963775291,0.0009929878916487642,-0.008375530576160809,0.006290093999653326,0.9908206412361246
2011-05-11,1,0.0016411242227406466,0.001930787318853623,-0.009626056639828922,0.005417349320922596,0.9903182309923008
2011-05-13,1,0.0027195666257856252,0.0031780066113772524,-0.010328358047638157,-0.00013936689163861454,0.9900797416536385
2011-05-17,1,0.001571104795960854,0.001762494778025825,-0.011494121330868176,0.0030779014596463614,0.9898400747288969
2011-05-19,1,0.0024682265918333883,0.002763251309617782,-0.011494121330868176,-0.00013936689163861454,0.990653510140405
2011-05-23,1,0.00208928298848179,0.0023335544185036725,-0.011494121330868176,0.0030779014596463614,0.9902896236011579
2011-05-25,1,0.0015658333635843627,0.0017175964460372744,-0.011494121330868176,0.005324558286145089,0.9904476014770164
2011-05-27,1,0.0015454004340827135,0.0017003884191413381,-0.011494121330868176,0.005324558286145089,0.9901136844788697
2011-06-01,1,0.0008309591055999497,0.0008788774511167893,-0.010014644400905595,0.00564123918867023,0.9903312284385407
2011-06-03,-1,-0.0005165787696928186,-0.0003939605380541315,-0.005051973629918242,0.008859812895488265,0.9888699700923378
2011-06-07,-1,-0.0008913945734272074,-0.0007081454805707043,-0.004411314809980008,0.010265632018905546,0.9887423179023013
2011-06-09,-1,-0.0010746769440313972,-0.0008746599146188973,-0.004411314809980008,0.010265632018905546,0.98888265303181
2011-06-13,-1,-0.0017053022304047915,-0.0014232134221038358,-0.004411314809980008,0.010265632018905546,0.9881262447643607
2011-06-15,-1,-0.0014298986124640705,-0.0011965107655917211,-0.004411314809980008,0.008859812895488265,0.9888822444769619
2011-06-17,-1,-0.000962965201618626,-0.0008165800749641857,-0.004411314809980008,0.008859812895488265,0.9891352469596348
2011-06-21,-1,-0.000590311847680437,-0.0004368094564232112,-0.005026339749475984,0.008859812895488265,0.9891781247193538
2011-06-23,1,2.5756117802213312e-05,6.875283132191377e-05,-0.005250404888220384,0.00911611043572427,0.9891453254814785
2011-06-27,1,0.00030176741406758744,0.00035374717656243336,-0.004486003189561474,0.00911611043572427,0.9893740712352743
2011-06-29,1,0.0011917069880292592,0.0013776312896482074,-0.006317973000388551,0.007613288329496749,0.9882007770876498
2011-07-01,1,0.0034467455657280835,0.003917457089124162,-0.008251937448434755,0.004960710358614952,0.9902093035677889
2011-07-06,1,0.003768681404351566,0.004285952378222019,-0.010529569213099839,0.004960710358614952,0.9881254382463455
2011-07-08,1,0.0037118108243835153,0.004239652074937191,-0.012222346077181874,0.004960710358614952,0.9865164528970679
2011-07-12,1,0.0030793720464342617,0.0035270348654590144,-0.012222346077181874,0.005544988055843895,0.9839407163067627
2011-07-14,1,0.002921188775368536,0.0033591449906180764,-0.015691798832576275,0.009523760580236292,0.9797483379693437
2011-07-18,1,0.001984341345578893,0.0021914810216360652,-0.015691798832576275,0.009523760580236292,0.9798089857239084
2011-07-20,1,0.0021810748104844806,0.002412354223929915,-0.015691798832576275,0.006286754483808422,0.9805665085535124
2011-07-22,1,0.002077156395713208,0.0022722417023744394,-0.025562184775099236,0.005345978847989157,0.9775350248179634
2011-07-26,1,0.0018486183339011687,0.002018511068800284,-0.025562184775099236,0.012169759110326509,0.9756784327651569
2011-07-28,1,0.00013260645510370373,0.00021127835472128475,-0.02662628587348323,0.012169759110326509,0.9756512611633122
2011-08-01,1,4.82525712237184e-05,0.00011449594820000896,-0.02662628587348323,0.017024635391326492,0.9739142460771503
2011-08-03,-1,-0.0006618806543741327,-0.0005039819202516332,-0.012579159019053826,0.014962031149465304,0.9756710507719196
2011-08-05,-1,-0.0018942271242624166,-0.0015702575974883854,-0.014987075117750558,0.014962031149465304,0.9764148562045363
2011-08-09,-1,-0.003443291588615416,-0.002922445724028391,-0.014987075117750558,0.013282220835957398,0.9787401896130487
2011-08-11,-1,-0.0013050366773548116,-0.0010552921328546684,-0.014879729554475465,0.007229322120255591,0.9821509871462337
2011-08-15,-1,-0.0006781592694701252,-0.0005253740099829392,-0.014879729554475465,0.008559593727885598,0.9821196116690957
2011-08-17,-1,-0.001818659930855961,-0.0014720296731058804,-0.014879729554475465,0.013282220835957398,0.9809746844104152
2011-08-19,-1,-0.00358084817271833,-0.0030935874707729645,-0.007304959610382863,0.013537299291382619,0.9828407632448565
2011-08-23,-1,-0.0009237753600046083,-0.0008090185464640954,-0.021417616670321122,0.01000677970893068,0.9834227778964579
2011-08-25,-1,-0.002809374504651156,-0.0024561309969040207,-0.014653280511645803,0.013537299291382619,0.9832338287960125
2011-08-29,-1,-0.0011048929695890249,-0.0009308155082372683,-0.01878021693255444,0.013537299291382619,0.9832111738352931
2011-08-31,-1,-0.0013172526989001648,-0.0010746635999549902,-0.021417616670321122,0.010091805860739086,0.9807052934169799
2011-09-02,-1,-0.0026935364009781034,-0.0022872289975377448,-0.021417616670321122,0.010091805860739086,0.9804044419780552
2011-09-07,-1,-0.00402591179404996,-0.00348339307795371,-0.01901113038172889,0.013740443964372687,0.9798415379756467
2011-09-09,-1,-0.004992775316890474,-0.004334339942353852,-0.018053537850633582,0.016298226664988345,0.9792139152688492
2011-09-13,-1,-0.004007666405939556,-0.0035135383936102265,-0.018053537850633582,0.021003035178879456,0.9778579040797957
2011-09-15,-1,-0.0028829213174507073,-0.0025059814915235623,-0.018053537850633582,0.016298226664988345,0.9789234124466595
2011-09-19,-1,-0.002315066927202505,-0.001981268069417135,-0.01901113038172889,0.016298226664988345,0.9792001008101995
2011-09-21,-1,-0.00441909170397988,-0.0038245665951852064,-0.01725565341191652,0.020780579806982082,0.97901357623801
2011-09-23,-1,-0.002563645238209485,-0.002183578236660745,-0.01725565341191652,0.020107146919414436,0.9806628791183036
2011-09-27,-1,-0.0008114971522117813,-0.0007137066995924345,-0.01483979847048209,0.013769532111363437,0.982540206537398
2011-09-29,-1,-0.003838651604904934,-0.003364661879615264,-0.008293712945764484,0.020107146919414436,0.9826245058218052
2011-10-03,-1,-0.004995605990168787,-0.004413792099975446,-0.007344302017474603,0.020107146919414436,0.9833931167795569
2011-10-05,-1,-0.0026819867392579586,-0.002424848665130244,-0.00977137649224569,0.013769532111363437,0.9858618306076721
2011-10-07,0,0.0,0.0,-0.00977137649224569,0.01145826435226566,0.9864631402219157
2011-10-11,-1,-0.0002835927061009486,-0.0002302812178253115,-0.00977137649224569,0.008492015629521704,0.9881810490478492
2011-10-13,1,0.00041956962264653384,0.0005663920428845236,-0.012281044431617111,0.006347735244978334,0.9876117708252887
2011-10-17,0,-2.8386018922553448e-05,4.3296821653628884e-05,-0.00977137649224569,0.009013912646511028,0.98783639514205
2011-10-19,1,0.00019981688174716396,0.0002999472836052375,-0.00977137649224569,0.009013912646511028,0.9879177544803407
2011-10-21,0,0.0,0.0,-0.00977137649224569,0.006347735244978334,0.9885232706790649
2011-10-25,0,0.0,0.0,-0.00977137649224569,0.002556470213611567,0.9881976040869537
2011-10-27,0,0.0,0.0,-0.00977137649224569,-0.0002568336038871777,0.9903109750612993
2011-10-31,0,0.0,0.0,-0.008565620229027376,0.0062342481449257315,0.9894128599299338
2011-11-02,-1,-0.17260374626909164,-0.17260374626909164,-0.006195975397822281,0.007932775964561796,0.8524818276720572
2011-11-04,0,0.0,0.0,-0.006195975397822281,0.0062342481449257315,0.9888145958261111
2011-11-08,1,9.16242700795971e-05,0.0001249366492649659,-0.008565620229027376,0.010308919321705344,0.9824120772537606
2011-11-10,0,0.0,0.0,-0.008153009750955884,0.010308919321705344,0.9830902608026749
2011-11-14,1,3.6653734954554555e-05,4.165671252288953e-05,-0.008153009750955884,0.008988731493837271,0.9832086635322581
2011-11-16,0,-4.3531610000687326e-06,1.0861770225812515e-06,-0.0075004024190356375,0.008988731493837271,0.9840705135344626
2011-11-18,0,0.0,0.0,-0.0075004024190356375,0.008988731493837271,0.9840206218049808
2011-11-22,1,0.0001838915690272298,0.00033606111701791795,-0.007009365353603428,0.014989453608185564,0.9838619014448097
2011-11-25,1,0.00039079669294847747,0.00045831713023035826,-0.005814135370679357,0.01655672174971093,0.983320959497185
2011-11-29,1,0.0005206852027690612,0.0006084932584064626,-0.007009365353603428,0.014665748782999236,0.9834847196253753
2011-12-01,0,0.0,0.0,-0.007009365353603428,0.013382636582793388,0.9842472371939007
2011-12-05,0,0.0,0.0,-0.0075004024190356375,0.013382636582793388,0.9832092306389468
2011-12-07,0,0.0,0.0,-0.0075004024190356375,0.012655062891534136,0.9882430776630977
2011-12-09,1,0.0007007080103328285,0.0009280758385227736,-0.007241217488296413,0.012655062891534136,0.9882274435699859
2011-12-13,1,0.0004911685360543027,0.0005729834115245573,-0.0069850341376315045,0.011908687461002841,0.9888476395663596
2011-12-15,0,0.0,0.0,-0.0042643428734080585,0.01088261555343119,0.9892609500613582
2011-12-19,0,0.0,0.0,-0.002331816662980809,0.011908687461002841,0.9886321408934966
2011-12-21,0,0.0,0.0,-0.0038504970915467208,0.01088261555343119,0.989445760375905
2011-12-23,1,0.0006965276956090495,0.00083893964436193,-0.005975348926740476,0.01088261555343119,0.9896240327453656
2011-12-28,0,0.0,0.0,-0.005975348926740476,0.008802623781131603,0.9905597471549044
2011-12-30,1,0.000641695835970187,0.0007038144751712935,-0.007466727955348044,0.007767119529779884,0.9908521000169271
2012-01-04,1,0.0010365645319706273,0.0012404174939060156,-0.005975348926740476,0.008802623781131603,0.9912312997754205
2012-01-06,1,0.0008342431919715894,0.0010306253374966394,-0.004172766939843045,0.00960355030557398,0.9910851284986946
2012-01-10,0,0.0,0.0,-0.0024392399457462506,0.013990671215156293,0.990743489764226
2012-01-12,0,0.0,0.0,-0.0024392399457462506,0.013990671215156293,0.9907221514429878
2012-01-17,1,0.000991671555220272,0.0011606933914916915,-0.004172766939843045,0.013990671215156293,0.9907814733027333
2012-01-19,1,0.00048184939211212924,0.0004867642048311877,-0.004172766939843045,0.013990671215156293,0.9904377514793938
2012-01-23,1,0.0017184403481777986,0.0019943895801986457,-0.0033541649523962957,0.008923052826307287,0.9911024993450431
2012-01-25,1,0.0019382426363620119,0.002238047385927517,-0.004378565274154477,0.0062259034833121365,0.9909241239696259
2012-01-27,1,0.0011356777356308432,0.001289460515416057,-0.004378565274154477,0.0062259034833121365,0.9909940933949203
2012-01-31,1,0.00030265860622437466,0.0003240302995113633,-0.0033541649523962957,0.00953138734897004,0.9895635499220394
2012-02-02,0,0.0,0.0,-0.006614450871099714,0.0062259034833121365,0.9894761241803146
2012-02-06,0,0.0,0.0,-0.007372467711301015,0.0062259034833121365,0.989058711886907
2012-02-08,0,0.0,0.0,-0.007372467711301015,0.009345868201344374,0.988078984591846
2012-02-10,0,0.0,0.0,-0.007372467711301015,0.009345868201344374,0.9882544076372898
2012-02-14,1,0.0021470878848705364,0.002378143130801661,-0.006683204544376465,0.01723575785347531,0.9876024384057985
2012-02-16,1,0.0025841803206879646,0.0028913265291557948,-0.008135491631890519,0.011430728891884743,0.9879082013907674
2012-02-21,1,0.0027358401919393006,0.0030912373510718696,-0.008135491631890519,0.011430728891884743,0.9880124713572466
2012-02-23,1,0.001227031701225689,0.0012689261325733625,-0.008072728446908256,0.011430728891884743,0.9887882159443967
2012-02-27,1,1.7373614979896053e-05,0.0001774087573929814,-0.008072728446908256,0.01701854625646489,0.9877559846941373
2012-02-29,1,0.0013923937547659145,0.0014442268427173202,-0.010355130385131913,0.011430728891884743,0.9879392132743463
2012-03-02,1,0.0009463863105210893,0.0009617959048966211,-0.009617490779221487,0.011430728891884743,0.9884231019926782
2012-03-06,1,0.0012230729375140152,0.0013272956511986306,-0.008241247666689317,0.009794983711925364,0.9902686256613982
2012-03-08,1,0.002181319347310903,0.0024311000111822546,-0.009617490779221487,0.003734292231391099,0.9906960750358643
2012-03-12,1,0.0018233077122556036,0.001988775264057462,-0.010914764608192833,0.003734292231391099,0.989493625061679
2012-03-14,1,0.0022238926134692085,0.0024569131361656445,-0.010914764608192833,0.003734292231391099,0.989338332654804
2012-03-16,1,0.00241630837720759,0.002700423255578222,-0.010914764608192833,0.003734292231391099,0.9896662773233327
2012-03-20,1,0.002374753941203318,0.0026469374616462007,-0.010914764608192833,0.008592286917527916,0.9890289617569441
2012-03-22,0,0.0,0.0,-0.010914764608192833,0.008592286917527916,0.9897262794085896
2012-03-26,0,0.0,0.0,-0.01040228238773459,0.008526236041582948,0.9911182008622632
2012-03-28,0,0.0,0.0,-0.007844196550226846,0.008526236041582948,0.9923106370518398
2012-03-30,0,0.0,0.0,-0.008039365980821146,0.005353392965023612,0.9924798784937556
2012-04-03,1,0.001430376066392184,0.0015760212596944356,-0.008039365980821146,0.008210382988738045,0.9910808640817514
2012-04-05,1,0.0006992185801948179,0.0007117169569194556,-0.008039365980821146,0.008210382988738045,0.991529504509644
2012-04-10,1,0.00021363217595928203,0.00024130366348967054,-0.007299173381946165,0.008210382988738045,0.9923371873315041
2012-04-12,1,0.0006288438766719954,0.0006463306448259516,-0.007299173381946165,0.008210382988738045,0.9928014229804436
2012-04-16,1,0.0005710529492310953,0.000580925215494222,-0.007299173381946165,0.005353392965023612,0.9928517802397524
2012-04-18,0,-1.9381443323460363e-06,0.0001177062249066034,-0.006096361544927964,0.008304561567690275,0.9909079265758258
2012-04-20,-1,-0.0004546953689361896,-0.0002613734097104061,-0.007299173381946165,0.008304561567690275,0.9895901538184472
2012-04-24,1,0.0003322753037104648,0.0003866624614523946,-0.007299173381946165,0.009639620085953916,0.9887773955264555
2012-04-26,1,0.0008609283318929986,0.0008972066945461879,-0.007299173381946165,0.015145927725561545,0.9881407269757096
2012-04-30,1,0.0004735126858213202,0.0004827073170567116,-0.0052691525881772205,0.015145927725561545,0.9881924769623238
2012-05-02,-1,-0.00024315413563086535,-3.736864163007272e-05,-0.0052691525881772205,0.013290418230570408,0.9879764271724799
2012-05-04,-1,-0.0007572660754854933,-0.00047838476109106094,-0.007211728072385115,0.013290418230570408,0.9862116321677621
2012-05-08,-1,-0.0011232681918504506,-0.0008064643381734286,-0.0067314630814025115,0.013290418230570408,0.985897361901438
2012-05-10,-1,-0.0006769854453957848,-0.0004133525491259248,-0.011710431518542778,0.013868190045432745,0.985297266862458
2012-05-14,-1,-0.001479251807078139,-0.0010886883038989457,-0.011710431518542778,0.013868190045432745,0.9850628713806928
2012-05-16,0,0.0,0.0,-0.011710431518542778,0.011932995557694212,0.9866433606578136
2012-05-18,0,0.0,0.0,-0.0073374164093350566,0.013868190045432745,0.9872707505921999
2012-05-22,-1,-0.0002443603810109031,-0.00018918764791542206,-0.0073374164093350566,0.011932995557694212,0.9883361908878241
2012-05-24,1,0.0013395734032447153,0.001384223030676371,-0.010958246625806425,0.005080107971154128,0.9878191834839913
2012-05-29,1,0.0008354193680062786,0.0009137779641916047,-0.010958246625806425,0.004658878240222144,0.9877145886576176
2012-05-31,0,0.0,0.0,-0.010645180470438519,0.004658878240222144,0.988912006669853
2012-06-04,-1,-0.0002940369132590196,-0.0002640486948765878,-0.007707383195792016,0.010312230765153287,0.989874408521754
2012-06-06,0,0.0,0.0,-0.007707383195792016,0.011158284418102717,0.9893721343357432
2012-06-08,0,0.0,0.0,-0.007707383195792016,0.010129751948653953,0.9896041491867625
2012-06-12,0,0.0,0.0,-0.00642494218333804,0.010129751948653953,0.9896917068749007
2012-06-14,1,0.000561037048225453,0.0005780919908652731,-0.006131299037108471,0.004658878240222144,0.9905847941000271
2012-06-18,-1,-0.0005789358753153439,-0.0003799376851017489,-0.006131299037108471,0.004540069176684892,0.9911994310097868
2012-06-20,-1,-0.0010695913561952646,-0.0007891467715728767,-0.006131299037108471,0.010129751948653953,0.9904915420082955
2012-06-22,0,0.0,0.0,-0.006892832775142702,0.010129751948653953,0.9897070897286041
2012-06-26,0,0.0,0.0,-0.007093207371798157,0.0054898331745202415,0.9898445425191873
2012-06-28,0,0.0,0.0,-0.005357779857651691,0.011910751210416723,0.9877663701714289
2012-07-02,-1,-0.00015459214117937022,-9.552847208461838e-05,-0.007375731577552971,0.011096826956056575,0.9885305351418079
2012-07-05,1,0.00032407402710224323,0.0003251145987677356,-0.007375731577552971,0.002993429585306988,0.9893998838705668
2012-07-09,-1,-0.0007704910312278246,-0.0005833674663630609,-0.005357779857651691,0.008396033295557251,0.9891412983087525
2012-07-11,0,0.0,0.0,-0.0031798350209163925,0.008396033295557251,0.9889838110925139
2012-07-13,0,0.0,0.0,-0.005354815886344769,0.008396033295557251,0.9886094951340538
2012-07-17,1,1.6016916724464315e-05,4.4740671635329894e-05,-0.005354815886344769,0.007939853385957258,0.9891583300976772
2012-07-19,1,0.00035212728350406694,0.0003615639038385313,-0.005354815886344769,0.007682572351273837,0.9894298459284161
2012-07-23,-1,-0.00045416818688873736,-0.00039885075599039807,-0.003510489005728938,0.007682572351273837,0.9910941987682493
2012-07-25,0,0.0,0.0,-0.005082726352847221,0.007682572351273837,0.9913845554074283
2012-07-27,1,0.0005254316408200817,0.0005343663377832075,-0.005682985339741991,0.006895025720814374,0.9921207883896946
2012-07-31,1,0.0006776787812912392,0.000784212911651905,-0.005082726352847221,0.006895025720814374,0.9926563799233056
2012-08-02,1,0.0005209794577272883,0.0006066462947320968,-0.005412649544611475,0.007305472231217577,0.9922397016063442
2012-08-06,1,0.0017463613020435908,0.0020276896072404086,-0.005412649544611475,0.005669638211886469,0.992830446682656
2012-08-08,1,0.0020838043374182967,0.002409130842320164,-0.005412649544611475,0.00636361937469576,0.9916369832758727
2012-08-10,1,0.0017562499758435896,0.0020416201555338086,-0.0049257661045262165,0.007718469256289312,0.9920841187893767
2012-08-14,1,0.0017801928894823006,0.002040081077743017,-0.0049257661045262165,0.007718469256289312,0.9918494709293088
2012-08-16,1,0.002090733677851292,0.0023953190717658944,-0.005412649544611475,0.00636361937469576,0.9913178717534986
2012-08-20,1,0.0012685880028746404,0.0014002555697430522,-0.0049257661045262165,0.007650827680964085,0.9913848903473433
2012-08-22,1,0.0011813552827860739,0.0013340957743789806,-0.003940339568718865,0.008157675179086412,0.9911714233824506
2012-08-24,1,0.0006704201228379729,0.0007461271516470797,-0.003940339568718865,0.008157675179086412,0.9905592362739875
2012-08-28,1,0.0002642304370892664,0.00026923145624525884,-0.0049257661045262165,0.008157675179086412,0.9900209228492711
2012-08-30,-1,-0.00016249275865409395,-7.064804860889532e-05,-0.003940339568718865,0.008157675179086412,0.9904661059996182
2012-09-04,-1,-9.722942390805314e-05,-4.087049608239411e-05,-0.002512827728096831,0.008157675179086412,0.9906154543108998
2012-09-06,1,0.0008990725427043823,0.0009787514592061878,-0.002512827728096831,0.007129135611617835,0.9917861016593079
2012-09-10,1,0.0010402119035745488,0.0011369398689183533,-0.004422661454652212,0.006547003814526794,0.9913040968623799
2012-09-12,1,0.0011881442367790724,0.0012925070707300902,-0.007434709610326178,0.005051666891741502,0.9914877385441855
2012-09-14,1,0.0009878407897389674,0.0010771282452058393,-0.004925255008072033,0.004455728610363761,0.992053965218919
2012-09-18,0,0.0,0.0,-0.004925255008072033,0.002560239901921747,0.9919080000323955
2012-09-20,0,0.0,0.0,-0.003443182016879738,0.0020351869650318925,0.9925962720634215
2012-09-24,1,0.0020404244230607205,0.002279971383346497,-0.0034658434826066392,0.0006352668596921974,0.9929506665259109
2012-09-26,1,0.0015373829377586367,0.001699764682452247,-0.004032469384484821,0.0006352668596921974,0.9926199333435796
2012-09-28,1,0.0014086090574516935,0.0015409543712272711,-0.004032469384484821,0.0006352668596921974,0.9923431340722324
2012-10-02,1,0.0013212870173713203,0.0014593123319130946,-0.004032469384484821,0.0024437065581496375,0.992302123139641
2012-10-04,1,0.0014554642788865827,0.001593666515558085,-0.004925255008072033,0.0016410457411248072,0.9917228412049504
2012-10-08,1,0.0011525785170533498,0.0012917352785453444,-0.004925255008072033,0.0033023192357214967,0.9906071255561071
2012-10-10,1,0.00044305702812650564,0.00045480775624656976,-0.005970444435785888,0.005602534805006296,0.9896529247795253
2012-10-12,1,0.0007742064640457156,0.0008725778017371762,-0.0061662595408510275,0.005602534805006296,0.9895762227366632
2012-10-16,1,0.00126654633670648,0.0014375319643439048,-0.012474779549764028,0.0033516869023868935,0.9896231670181171
2012-10-18,1,0.001537670475039847,0.0017729817204783708,-0.012474779549764028,0.0075942587407418554,0.9886072090447747
2012-10-22,1,0.0004824977365651917,0.0005260969257958715,-0.0061662595408510275,0.008836933419775872,0.9894838090774051
2012-10-24,-1,-0.0014441359982864895,-0.0011946338958745213,-0.004842059746065328,0.009654767260718025,0.9894728418288798
2012-10-26,-1,-0.0006026230146169778,-0.0004673461967420549,-0.0054249120522907365,0.011108840536040167,0.9890332772986996
2012-11-01,-1,-0.0002321506218797306,-0.00015231569526886877,-0.006763866622504732,0.009379218802187957,0.9888421777743368
2012-11-05,-1,-0.00041843275201361663,-0.00030089071874710307,-0.010112264314561366,0.009379218802187957,0.9846832556895474
2012-11-07,-1,-0.0007938753627382024,-0.0006514573718957958,-0.006260017602353809,0.005976544154185732,0.9865956348182032
2012-11-09,-1,-0.000354416547135755,-0.00029824094763681626,-0.006104850049006084,0.0045901593804523085,0.9874563166743018
2012-11-13,-1,-0.0007773522289303753,-0.0006621987606536346,-0.009194589679831824,0.0045901593804523085,0.9868454135598341
2012-11-15,-1,-0.0012505992810058126,-0.0010619028175254848,-0.008233435103072522,0.009379218802187957,0.9871568449602622
2012-11-19,-1,-0.000572837637276771,-0.000462879096946533,-0.008233435103072522,0.007859437098819543,0.9876130582423313
2012-11-21,-1,-0.0007817976389282324,-0.0006230887604598646,-0.009339888069319596,0.00427756245925555,0.98658639081251
2012-11-26,-1,-0.00023393803593883854,-0.0001618003818932121,-0.009339888069319596,0.0027687849552040906,0.9869127930906207
2012-11-28,1,0.0003061481614922429,0.00031843553543509947,-0.009339888069319596,0.0026950988044311458,0.9872701175056486
2012-11-30,-1,-0.00043274615567304945,-0.00034302141212719386,-0.008747370559611618,0.0029937251255241883,0.9875022973974952
2012-12-04,-1,-0.0030760872583809632,-0.002659676970424264,-0.008281867899568446,0.004241571818965492,0.9922693495440819
2012-12-06,-1,-0.0028115989140369943,-0.002426983274136101,-0.008929514483024236,0.0073579271826229595,0.9901083431086801
2012-12-10,-1,-0.0024758452776411544,-0.002163112817163694,-0.00945042467109414,0.007859437098819543,0.9892891933019325
2012-12-12,-1,-0.0030985733500676627,-0.0027201825028792224,-0.008929514483024236,0.007859437098819543,0.9894975905544275
2012-12-14,-1,-0.0029678803376656975,-0.002557952057095478,-0.008929514483024236,0.007859437098819543,0.9894056287819377
2012-12-18,-1,-0.0029394520402372727,-0.002514225194110056,-0.008929514483024236,0.004020513366646658,0.9901498334925526
2012-12-20,-1,-0.0034251743420892046,-0.0030156566614597926,-0.007502911813988586,0.008190880529156896,0.9909371263443904
2012-12-24,-1,-0.0033247051560041465,-0.0029019936358257383,-0.0077008862541998084,0.008190880529156896,0.9905665031975893
2012-12-27,-1,-0.0030195489032581613,-0.00264953867434076,-0.007321617930252935,0.008190880529156896,0.9907018228805189
2012-12-31,-1,-0.002332963883061121,-0.002070581185378791,-0.007321617930252935,0.008190880529156896,0.9907398346283689
2013-01-03,-1,-0.002408592175679356,-0.0021616281649895824,-0.00644336215518904,0.008183342075761902,0.9911756792585701
2013-01-07,-1,-0.0019777868263424333,-0.001768375147381534,-0.0030071628404561013,0.006937828822526716,0.993350845522
2013-01-09,-1,-0.001667025362085487,-0.0015001576478240147,-0.0019212035356117375,0.006937828822526716,0.994082525412862
2013-01-11,-1,-0.002022822262193598,-0.001834716439092437,-0.0006446336132921967,0.006937828822526716,0.9943410365870315
2013-01-15,-1,-0.001711512872802055,-0.001550364190148191,-0.0019212035356117375,0.0031738917077983675,0.9944563411968176
2013-01-17,-1,-0.001929213216790127,-0.0017312468065595206,-0.005779223776061603,0.0031738917077983675,0.9940650276204802
2013-01-22,-1,-0.0014986642273043032,-0.0013549018986182785,-0.006287633612025608,0.0020243144990376967,0.9942373856418983
2013-01-24,-1,-0.001702523794876521,-0.0015218142709769815,-0.005779223776061603,0.0020243144990376967,0.9932073203401979
2013-01-28,-1,-0.0015753808273033156,-0.0014130387545008083,-0.006287633612025608,0.003489097196244704,0.9918223745717097
2013-01-30,-1,-0.0012704131131281533,-0.0011420085866739576,-0.007592511544338644,0.003489097196244704,0.9909563982644134
2013-02-01,-1,-0.0006079349660218692,-0.00059991698499772,-0.007592511544338644,0.0020153979499670563,0.9910983404707083
2013-02-05,-1,-0.0005703250555695032,-0.000568659607335986,-0.007592511544338644,0.008235142466724906,0.9901794333378658
2013-02-07,-1,-0.0002334101973244032,-0.00017063048314082844,-0.007592511544338644,0.005382425537832414,0.9903394074383113
2013-02-11,0,0.0,0.0,-0.007592511544338644,0.007249324427141426,0.990009642370766
2013-02-13,0,0.0,0.0,-0.00422286126968373,0.008656682135169676,0.9900510208061104
2013-02-15,-1,-0.0010280878668519982,-0.0010084552873609437,-0.002779185252087084,0.010501852942641079,0.9896452803741025
2013-02-20,0,0.0,0.0,-0.002779185252087084,0.010501852942641079,0.9900756353382044
2013-02-22,0,0.0,0.0,-0.002779185252087084,0.010501852942641079,0.9909469616263042
2013-02-26,0,0.0,0.0,-0.0021219768170571162,0.010888510273480409,0.9915199046517811
2013-02-28,0,0.0,0.0,-0.0009301619129767273,0.010888510273480409,0.9922058236785842
2013-03-04,0,0.0,0.0,-0.0011070105291151049,0.010888510273480409,0.9912396840475886
2013-03-06,0,0.0,0.0,-0.002779185252087084,0.009471143095867914,0.9911403934992634
2013-03-08,0,0.0,0.0,-0.005856897248368406,0.009471143095867914,0.9903835439163751
2013-03-12,1,0.001868163606016044,0.00224987679476549,-0.010086697587150393,0.010888510273480409,0.9895074163001368
2013-03-14,1,0.0029142544561717772,0.0034820270106635217,-0.010086697587150393,0.009471143095867914,0.9900823814991729
2013-03-18,1,0.002151964216734359,0.0026297670065604448,-0.011094528064342317,0.010191797392297324,0.9889683632687206
2013-03-20,1,0.0017311352540507934,0.0021143694828264217,-0.012885392231639028,0.010191797392297324,0.9884570897392021
2013-03-22,1,0.0024798941914487864,0.002863255982983059,-0.012885392231639028,0.008793664996287018,0.9889636303745666
2013-03-26,1,0.003350395756538533,0.0038686855793746925,-0.012885392231639028,0.009320672328732727,0.9886915405107145
2013-03-28,1,0.0033917589093677564,0.00398948303386094,-0.012885392231639028,0.009320672328732727,0.9891454589388202
2013-04-02,1,0.0030326579670847354,0.0035889623715554897,-0.011094528064342317,0.010145455382528508,0.9895167348697931
2013-04-04,1,0.0034921810326190676,0.004029033662675812,-0.007725597826575241,0.012330722393349163,0.9900190716043157
2013-04-08,1,0.0023367455711776446,0.0026872692656524193,-0.00024506155143819267,0.012330722393349163,0.9910948580414085
2013-04-10,1,0.0022677347289871623,0.0026643898344242524,0.0009696808730125508,0.010145455382528508,0.9928490255968269
2013-04-12,1,0.0020636862698845586,0.0023213556098273472,0.0009696808730125508,0.011146048945472851,0.992684006800824
2013-04-16,1,0.002146056735768913,0.0025546267610072337,0.0009696808730125508,0.010889260581319924,0.9939119013409944
2013-04-18,1,0.001874479111079829,0.0021930998911258415,0.0009696808730125508,0.010889260581319924,0.9934659384053087
2013-04-22,1,0.002331649343803482,0.0028006419575756763,0.00038782061506001695,0.011543444529102932,0.9931677824645667
2013-04-24,1,0.00352030023679146,0.004124060640560265,-0.00025860938665622524,0.010889260581319924,0.9930549679833864
2013-04-26,1,0.0030357853703589935,0.0035850685164814998,-0.003118603129327046,0.010889260581319924,0.9927591157683159
2013-04-30,1,0.003039996177789184,0.003439970036567158,-0.006334003671292556,0.009787483527858382,0.992667607690439
2013-05-02,1,0.0032580070930894045,0.0036641951480521464,-0.0075700589658174305,0.009388838024087156,0.9918163240981664
2013-05-06,1,0.0032932629511723175,0.003688536544299403,-0.0075700589658174305,0.010889260581319924,0.9911363872021237
2013-05-08,1,0.0029904924649164577,0.003298748486454709,-0.007938379397212383,0.010927441786792981,0.9901915964317496
2013-05-10,1,0.0033253184413726865,0.0037046362681328986,-0.007938379397212383,0.01131561292719837,0.990125047112797
2013-05-14,1,0.003527792316261996,0.003959090119750416,-0.008629022704429924,0.01095639854904135,0.9889009897501083
2013-05-16,1,0.0018952790202564696,0.0020294659601514664,-0.008629022704429924,0.011447236156557263,0.9887662803747576
2013-05-20,1,0.0020327076109565483,0.002152487156606607,-0.008629022704429924,0.01095639854904135,0.9889991287811031
2013-05-22,1,0.0012584386137039867,0.0012661983315778121,-0.009733122514116756,0.01095639854904135,0.988098789803065
2013-05-24,1,0.0015829387468433492,0.0016349535814690695,-0.013190213128492577,0.0098002105963494,0.9867609768463436
2013-05-29,1,0.0012859431322420917,0.0012948333095226233,-0.013190213128492577,0.01003834142110897,0.9871779735528867
2013-05-31,1,0.0009155595128247831,0.0009218057318554204,-0.011073533074945956,0.01100115149165514,0.9871369111912983
2013-06-04,1,0.0017512882527308063,0.0018349195399577898,-0.011073533074945956,0.008392357450882187,0.9881456913089707
2013-06-06,1,0.0012211741820298523,0.0012512273827265078,-0.01067155887801525,0.007427787193079354,0.988834567710035
2013-06-10,1,0.0020712442412315337,0.0021622873532420833,-0.01067155887801525,0.006931708072758896,0.9895657108548385
2013-06-12,1,0.0005099188724777343,0.0006161192898619175,-0.01067155887801525,0.006931708072758896,0.990028029959861
2013-06-14,1,0.00048296627350319295,0.000575635095607882,-0.008287895322904557,0.006931708072758896,0.9904471056102816
2013-06-18,1,0.0006926708469330904,0.000772582385702513,-0.015579876634311549,0.005813963810364501,0.9893524007973209
2013-06-20,-1,-0.0008605471588228733,-0.0005980435629767854,-0.012561434449457887,0.0073449679354664,0.990066301560373
2013-06-24,-1,-0.0022235434300659188,-0.0018306167353410042,-0.006054488810835822,0.0073449679354664,0.991673920404143
2013-06-26,-1,-0.001827566182005332,-0.001485669112041592,-0.008784043304460813,0.005813963810364501,0.9915712640155244
2013-06-28,-1,-0.0011277671739487155,-0.0008620550296427881,-0.008784043304460813,0.005813963810364501,0.9920600662690542
2013-07-02,-1,-0.0007336947513431745,-0.0005305474326366395,-0.008784043304460813,0.0042803494500730415,0.9924887765447786
2013-07-05,-1,-0.0006236977274090274,-0.0004209198762330285,-0.008784043304460813,0.006742041286422322,0.9920862534261666
2013-07-09,-1,-0.0009527871276415247,-0.0006604354769972645,-0.008784043304460813,0.0029937268157196996,0.9921518645984891
2013-07-11,-1,-0.0024939515752736095,-0.0019869600866473476,-0.005955946081471103,0.007025303798937238,0.9927498431769892
2013-07-15,-1,-0.00226489214467063,-0.0017679263190550124,-0.006404167364133647,0.0029937268157196996,0.9932693856693456
2013-07-17,-1,-0.002984771389367701,-0.00245797653192409,-0.005605119933504348,0.0029937268157196996,0.994219444379908
2013-07-19,-1,-0.003378749538992966,-0.002782598757783691,-0.005605119933504348,0.0015572450319423846,0.9942219981067995
2013-07-23,-1,-0.0034275822012755676,-0.0028434144980610436,-0.005583471206827697,0.002376394945234844,0.9939944317994844
2013-07-25,-1,-0.004108169392529473,-0.0034446814770502363,-0.005583471206827697,0.004604758173670578,0.99338819024471
2013-07-29,-1,-0.0032150120574646023,-0.0026916521247189818,-0.005638577567062718,0.0020942554845926773,0.9943254952110839
2013-07-31,-1,-0.0031640793403343304,-0.0026501387031287347,-0.006404167364133647,0.0020942554845926773,0.9942669550153994
2013-08-02,-1,-0.0022769978284135147,-0.0018881325387628384,-0.007342184819260864,0.0006686104337218824,0.994628797120377
2013-08-06,-1,-0.002239584259406309,-0.0018952406592356217,-0.006366013701209298,0.0020942554845926773,0.9942358849991167
2013-08-08,-1,-0.0020576694182116275,-0.0017325075100440796,-0.006366013701209298,0.0024401067999373005,0.9938768634545466
2013-08-12,-1,-0.002341412193818649,-0.001977881403143808,-0.005951250052105123,0.004127522813931123,0.9935683705771002
2013-08-14,-1,-0.0022533554606209852,-0.0019326967142206833,-0.005445216657126306,0.004263012469513594,0.993035338819755
2013-08-16,-1,-0.002402984567145218,-0.0021050085835756308,-0.004763710012380831,0.005116613687041458,0.9930934296045414
2013-08-20,-1,-0.001944646074892311,-0.0017339567439101414,-0.0027499542905924227,0.00791455155940492,0.9925056181467242
2013-08-22,-1,-0.0023918899709169175,-0.0021241431078158524,-0.004782078799125837,0.005960108643472909,0.9898573411382204
2013-08-26,-1,-0.0023249595965337167,-0.0020579727439492793,-0.0027499542905924227,0.010063893275697178,0.9891594508905289
2013-08-28,-1,-0.0035533508545029396,-0.0030978477040740798,-0.001135666014928502,0.010063893275697178,0.988152513182731
2013-08-30,-1,-0.003467793014038178,-0.0030321104812280728,-0.001135666014928502,0.010063893275697178,0.988036543754614
2013-09-04,-1,-0.002879502283789686,-0.002520453678052411,-0.004954163223633436,0.010063893275697178,0.988244088085476
2013-09-06,-1,-0.002617236407455882,-0.0022658009133094156,-0.006836344683071257,0.010063893275697178,0.9878334255897239
2013-09-10,-1,-0.002401562835172479,-0.0020558704330118486,-0.008846507612315,0.010063893275697178,0.9872589729470571
2013-09-12,-1,-0.0021560064463676965,-0.0018536893250749508,-0.008846507612315,0.010063893275697178,0.9842183643796865
2013-09-16,-1,-0.0011340482005043181,-0.0009939259748621585,-0.008846507612315,0.010942130049102416,0.9839162910619568
2013-09-18,-1,-0.00013857377115875287,-0.00013609956077979195,-0.008846507612315,0.009795123350089394,0.9847038520258603
2013-09-20,-1,-0.002850047695194486,-0.0025562556790370236,-0.00635685209378369,0.010942130049102416,0.9864240901688751
2013-09-24,-1,-0.0018427927087076394,-0.0016937490997420345,-0.00635685209378369,0.01025229261886814,0.9874704633645396
2013-09-26,-1,-0.0014324474311567953,-0.0013517894264332404,-0.00635685209378369,0.009910090297844596,0.9871722404577562
2013-09-30,-1,-0.0012891340635441766,-0.0012437091160018975,-0.004013304362305506,0.009910090297844596,0.9875343105741056
2013-10-02,-1,-0.0008320555437512403,-0.0008097483810645241,-0.004181495740697479,0.010447591475184016,0.9872006639882159
2013-10-04,-1,-0.00047158952426879994,-0.0003872982121642671,-0.004181495740697479,0.008889704296685695,0.9881539216780686
2013-10-08,-1,-0.001071741337540661,-0.0010447890726509568,-0.0025504481847443417,0.011046007708054974,0.9877770915490166
2013-10-10,1,0.0017790250840775416,0.002161716921927349,-0.004181495740697479,0.00930837985627023,0.9911140887701295
2013-10-14,1,0.002208071569050156,0.002610940150715628,-0.004181495740697479,0.006113410652211666,0.9917588613643108
2013-10-16,1,0.0020525367185658836,0.0024454592886111685,-0.0035687274345017174,0.006393305310546084,0.9918305166105145
2013-10-18,1,0.003149598819859087,0.0036951326890129143,-0.0035687274345017174,0.00866839270400688,0.9918302031122764
2013-10-22,1,0.002553980795634369,0.002975287582370924,-0.006665110262442155,0.00866839270400688,0.9913287707512235
2013-10-24,1,0.0028976396986075134,0.0034259288801993864,-0.004943285089731824,0.008940932608950826,0.9921651661394087
2013-10-28,1,0.003045287871291257,0.003600348897333229,-0.006508321887055163,0.008940932608950826,0.9919302637223032
2013-10-30,1,0.004040529802368497,0.0047827569120218304,-0.005688177266673932,0.006354847196869913,0.9927077980126474
2013-11-01,1,0.0028869237859071185,0.003401886166310335,-0.005688177266673932,0.006354847196869913,0.992961531239917
2013-11-05,1,0.003637050421830797,0.004234986936836818,-0.006508321887055163,0.005059733573459162,0.9928546153272263
2013-11-07,1,0.003481270666358217,0.0040907276918548,-0.005688177266673932,0.005589180415865202,0.993527464862322
2013-11-11,1,0.002738847915309794,0.0031724576067942876,-0.006508321887055163,0.005589180415865202,0.9929969505256395
2013-11-13,1,0.0018845498689658868,0.0021202646891925296,-0.006643007325758938,0.005063385731718052,0.9929469513380126
2013-11-15,1,0.0027257429493678514,0.0030869017872648804,-0.006643007325758938,0.0048704201291285545,0.9930800486172945
2013-11-19,1,0.0025372914729939076,0.002913939502928001,-0.005688177266673932,0.005063385731718052,0.9935858478742495
2013-11-21,1,0.002983906482483315,0.003423961364674246,-0.006609247866416494,0.0048704201291285545,0.9919169846347822
2013-11-25,1,0.0029269291885197926,0.003372435614667312,-0.006428295255302641,0.0048704201291285545,0.9890970328642243
2013-11-27,1,0.0030946993937054296,0.003579109194446313,-0.006428295255302641,0.00508423310548746,0.9892728462901563
2013-12-02,1,0.002296550270622931,0.002626966337438143,-0.0044221749389540274,0.00508423310548746,0.9901175259348763
2013-12-04,1,0.0021092691129673555,0.002438641366416063,-0.005924387192462538,0.00508423310548746,0.9895805865187263
2013-12-06,1,0.0016568550885184081,0.0018642609172828996,-0.006428295255302641,0.00508423310548746,0.9887596504183956
2013-12-10,1,0.0011828441907458277,0.0013234175320772249,-0.006428295255302641,0.00508423310548746,0.9883189032580846
2013-12-12,1,0.0008628223599117379,0.0009501182743135067,-0.009303876648883115,0.0070446606169154,0.9869260203327286
2013-12-16,1,0.0010595710544069826,0.0011447509066199555,-0.009303876648883115,0.0076090375548748335,0.9867733793271412
2013-12-18,1,0.0014867582144000413,0.0016461162030584101,-0.018552184041361254,0.006652465787476832,0.9857170220283317
2013-12-20,1,0.0004491862803434331,0.00046958614870877736,-0.009303876648883115,0.006652465787476832,0.9873026346266044
2013-12-24,1,0.002172917886900996,0.002449508133748414,-0.018552184041361254,0.005927846230165547,0.989508060510282
2013-12-27,1,0.0020368716084577182,0.0022681149354420974,-0.018552184041361254,0.004718548882250496,0.9895934425732112
2013-12-31,1,0.0020731599879518755,0.0023154181492658823,-0.018976332140397262,0.006547018123253652,0.9885129307891574
2014-01-03,1,0.0012434177541187572,0.001364301720602731,-0.0189926906096584,0.006547018123253652,0.9876187370954043
2014-01-07,1,0.0008400643992456484,0.0008869105394312777,-0.018680471000069122,0.006547018123253652,0.9882783910555837
2014-01-09,-1,-0.0002709661792293702,-0.00015381289923438321,-0.010975184642689343,0.007410337024397223,0.9885688939736692
2014-01-13,-1,-0.0006226216543581404,-0.00046028031970114135,-0.004839859656187847,0.007410337024397223,0.9898820358519339
2014-01-15,-1,-0.0003231082751074258,-0.00017318242575946753,-0.007265773826667879,0.006816850652862846,0.9903188340005913
2014-01-17,-1,-0.0011492554170447122,-0.0008881536580673375,-0.006690214467790777,0.007093994031727681,0.9909743650079746
2014-01-22,-1,-0.0015087413549181527,-0.001186306986521469,-0.006690214467790777,0.00835028058657223,0.9896043473283029
2014-01-24,-1,-0.00222623895336991,-0.0018072080818282747,-0.002695013260111937,0.008807148735910268,0.9898235633838287
2014-01-28,-1,-0.0020312181513056802,-0.0016531597486262922,-0.007265773826667879,0.008807148735910268,0.9893697806066758
2014-01-30,-1,-0.0022380025351782093,-0.0018567219030395873,-0.006690214467790777,0.009425610981632053,0.9891714508034709
2014-02-03,-1,-0.003129099826868223,-0.0026632045049066674,-0.006690214467790777,0.009425610981632053,0.9880923611458391
2014-02-05,-1,-0.0031200481430246393,-0.0026668041892544125,-0.006690214467790777,0.01021589106221397,0.9872189133934047
2014-02-07,-1,-0.00234612172318954,-0.001999693978347477,-0.006690214467790777,0.010829757473058076,0.9871799945410638
2014-02-11,-1,-0.0016300230541546278,-0.0013959229781612833,-0.006690214467790777,0.010829757473058076,0.987651924341393
2014-02-13,-1,-0.0036029114662678823,-0.003018250956694073,-0.005058417028444169,0.010829757473058076,0.9861214151541478
2014-02-18,-1,-0.002927210863900494,-0.002434464135215534,-0.005529247326703084,0.009838884584309515,0.9867515454871294
2014-02-20,-1,-0.0019621806969052323,-0.0015809432238174746,-0.007971104232872783,0.0069383612153986664,0.9880286772515847
2014-02-24,-1,-0.0018765053255577703,-0.0014974277985137197,-0.007971104232872783,0.0069383612153986664,0.9871720537048542
2014-02-26,-1,-0.0024725528674739493,-0.0020300337642787524,-0.00415693455640174,0.0069383612153986664,0.9874718924217329
2014-02-28,-1,-0.001768566528275704,-0.0014112798623395254,-0.005441717156717221,0.006642178523928191,0.9881094698334593
2014-03-04,-1,-0.0035862827128197872,-0.002999545307576462,-0.0008608250048691415,0.008863615749525076,0.9892717300338784
2014-03-06,-1,-0.0017518036132483663,-0.0015009135366768063,-0.0002798169770558143,0.008863615749525076,0.9909422192962436
2014-03-10,-1,-0.0006775622542008597,-0.0005850565644314345,-0.005441717156717221,0.005503735056866711,0.991245415218888
2014-03-12,-1,-0.0006341343382069693,-0.0005353014103348758,-0.008963262699488484,0.008863615749525076,0.9901763175581898
2014-03-14,-1,-0.0007729257767805517,-0.0006981696638553875,-0.012663382084593954,0.008863615749525076,0.9899035937656134
2014-03-18,-1,-0.0006406314980103793,-0.0005790394876747209,-0.014291747837587711,0.009387898230633594,0.9888314574568863
2014-03-20,-1,-0.0008559566272972028,-0.000759173226200157,-0.014291747837587711,0.012007567892021693,0.9880212178984823
2014-03-24,-1,-5.9945752678894705e-06,-2.4746726734114815e-06,-0.014291747837587711,0.012007567892021693,0.9874351649557692
2014-03-26,1,0.00025565548438054504,0.00031624733133296353,-0.014291747837587711,0.012007567892021693,0.9869569827323584
2014-03-28,-1,-3.137353741074459e-05,-3.09757406622855e-05,-0.014291747837587711,0.012007567892021693,0.9877293254311282
2014-04-01,1,0.0008098758549981609,0.0009677968683733259,-0.014291747837587711,0.009429129238156577,0.9875353788416807
2014-04-03,1,0.0008309202344020227,0.0009645204608043688,-0.014291747837587711,0.007420299307469616,0.9880803198161762
2014-04-07,1,6.988865357103807e-05,0.00010458696140857831,-0.01186444271743501,0.007420299307469616,0.9890451759363144
2014-04-09,1,7.468147007563525e-05,0.00011372125139693257,-0.010287216234965018,0.004498769354453117,0.9902244183428677
2014-04-11,-1,-0.0005489105590301559,-0.000544882503013314,-0.004287873143001592,0.007471539956238887,0.9908212870249707
2014-04-15,-1,-0.0007506037937501935,-0.0007055948206046471,-0.004287873143001592,0.007036676714631941,0.9919900855830651
2014-04-17,-1,-0.00037264979055138094,-0.00034783078938879037,-0.004287873143001592,0.0056086582655120315,0.9910656204462586
2014-04-22,1,0.00042861604626379725,0.0005586640385690964,-0.0047607220415597,0.0056086582655120315,0.9916171763019906
2014-04-24,1,0.0005767747887367754,0.0007278523757078488,-0.0047607220415597,0.007036676714631941,0.990746279109874
2014-04-28,1,0.0003420910066999535,0.0004477821076526407,-0.0031240013982790998,0.007036676714631941,0.990778295565977
2014-04-30,1,0.00013508407032754505,0.0001946823839372884,-0.002701609436336641,0.007476760905284166,0.9908045095029361
2014-05-02,1,0.00020248701445686493,0.0002802896809104997,-0.0019516811085780223,0.009008763704993997,0.9902299328520204
2014-05-06,-1,-0.00014294145431646696,-0.00012924880242902692,-0.003733852081910919,0.009008763704993997,0.990206835950228
2014-05-08,-1,-0.00015935761087069902,-0.00015931119366619683,-0.003733852081910919,0.010172662794672034,0.9894136396827466
2014-05-12,1,0.0007272337758869028,0.0008718208380332681,-0.006400940962146915,0.009008763704993997,0.9902066897511643
2014-05-14,1,0.0008435179650749762,0.0010248612633671642,-0.006458651896740819,0.009008763704993997,0.9897770094855011
2014-05-16,-1,-0.0007151834929640678,-0.0006459570131322287,-0.004137002158813766,0.009008763704993997,0.9910960414150465
2014-05-20,0,-6.348632420516268e-05,3.367381292862688e-05,-0.004137002158813766,0.007780978263982448,0.9923133843589033
2014-05-22,1,0.0009336780377419516,0.0011686932408941928,-0.0063353866561360744,0.0060008361787195885,0.9918583303944424
2014-05-27,1,0.000969141946951101,0.001202374426729097,-0.007529164864535674,0.0060008361787195885,0.9908082140458497
2014-05-29,1,0.0007051474974559128,0.0008682529941849205,-0.007529164864535674,0.005944932006375891,0.990972260123355
2014-06-02,1,0.0011143937105449952,0.0013266355900698706,-0.008013806900612179,0.0042463882081238274,0.9908007745598768
2014-06-04,1,0.0005704397677630509,0.0006788409252622837,-0.007644011178797944,0.0042463882081238274,0.991430705811457
2014-06-06,1,0.0012702452529220671,0.0013839734976961646,-0.007644011178797944,0.0016281490472028043,0.9917942929175462
2014-06-10,1,0.0008244597064271556,0.0009854730415827496,-0.007644011178797944,0.0029119111091420783,0.9916743856504295
2014-06-12,1,6.162963916256989e-05,9.081226257299564e-05,-0.007644011178797944,0.0029119111091420783,0.9914959827805643
2014-06-16,1,0.0004480978541392924,0.0005296104482523007,-0.007644011178797944,0.000973312459026825,0.9915667642110311
2014-06-18,1,0.00015823494329065166,0.00017705859164695467,-0.007451533497994908,-0.0005940725170716901,0.9917839725823495
2014-06-20,-1,-0.0010111174711498023,-0.0008946410805365632,-0.007389887756725521,0.000973312459026825,0.9933158639498552
2014-06-24,-1,-0.001556330490941785,-0.001365646397590012,-0.0066892873071094745,0.002108619077205637,0.9940634258588505
2014-06-26,-1,-0.0021603036385602053,-0.0017609710665653269,-0.007389887756725521,0.002108619077205637,0.9932102845452977
2014-06-30,-1,-0.002322134473800501,-0.0019917682959648087,-0.0066892873071094745,0.0058927807417590225,0.9909885463023737
2014-07-02,-1,-0.0017178651840767509,-0.0014880124216124235,-0.007389887756725521,0.006122919135983972,0.9900768319642639
2014-07-07,-1,-0.0016562532884848071,-0.0014436935082469328,-0.007389887756725521,0.007005992756068955,0.9889964444400281
2014-07-09,-1,-0.0020527938026028286,-0.0017791021141225416,-0.00789596929696481,0.006954668423433077,0.9893605355769908
2014-07-11,-1,-0.002358942302156935,-0.0020726561365058387,-0.006857981153855904,0.009107530332316784,0.9898593466046187
2014-07-15,-1,-0.002000420024712381,-0.0017920592206586167,-0.00789596929696481,0.009107530332316784,0.9893911203221339
2014-07-17,-1,-0.00183020659900853,-0.0016515719356035173,-0.00789596929696481,0.009331729517201771,0.9886086896954033
2014-07-21,-1,-0.0020802543894710853,-0.0018427415805920186,-0.008482757428668173,0.009331729517201771,0.9880665380485841
2014-07-23,-1,-0.0022779172945228375,-0.001985532942926355,-0.008482757428668173,0.009331729517201771,0.9883521057969604
2014-07-25,-1,-0.0022637560791015656,-0.001995123893409197,-0.007675137619150191,0.009051026631911954,0.9895408871623932
2014-07-29,-1,-0.0006324057058281303,-0.0005624666370077334,-0.007675137619150191,0.007327757874467983,0.9920093406451119
2014-07-31,-1,-0.0003981661793082101,-0.00037894204984350184,-0.006648199091734704,0.006503270648428006,0.9926286884362199
2014-08-04,1,0.000407237714695167,0.000508492043765337,-0.006648199091734704,0.006503270648428006,0.9933660439374967
2014-08-06,-1,-0.0006480438568905242,-0.000582996692568047,-0.0031961445214123223,0.006503270648428006,0.9938504948712279
2014-08-08,-1,-0.00026268208728396985,-0.00024711854160948334,-0.0031961445214123223,0.0053662096953228525,0.9941722730462643
2014-08-12,-1,-0.0007653959350786497,-0.0006920601371210518,-0.0023632746350182292,0.0053662096953228525,0.9946967475690509
2014-08-14,1,0.00010353110459715407,0.0001839796593204964,-0.0031961445214123223,0.0048783837293053574,0.9943681562512403
2014-08-18,1,0.00023448503978483384,0.00032710450829866747,-0.0031961445214123223,0.0048783837293053574,0.9931792470043166
2014-08-20,1,0.0002456551159597759,0.00034180743546235293,-0.0031961445214123223,0.005024921390111796,0.9928441311396798
2014-08-22,1,0.0005978894243252376,0.0007653142229507188,-0.0038217649996755993,0.006056608189293228,0.9914844485384341
2014-08-26,1,0.0007685415032329269,0.0009708162663000279,-0.0038217649996755993,0.009536667978126209,0.9901230106019916
2014-08-28,1,0.0001652571165760633,0.0002407261875600372,-0.003657260513282948,0.010975935927729726,0.9895330384735039
2014-09-02,1,0.0004989623270960225,0.000629043252782802,-0.005906233200301151,0.010975935927729726,0.9895603592831613
2014-09-04,1,7.010547019280775e-05,8.010884593133945e-05,-0.00818195438441755,0.010975935927729726,0.9888947489585095
2014-09-08,1,9.37754939311138e-05,0.00010573660995529514,-0.009001938403106324,0.010975935927729726,0.9885656176571802
2014-09-10,1,0.00013611653423850083,0.00016008259959160445,-0.010029128398360631,0.010975935927729726,0.9878208286890683
2014-09-12,1,0.00035267653283687175,0.0004655221671264805,-0.010405228804101831,0.010613562950345809,0.9874806023640138
2014-09-16,1,0.0013464151751683842,0.0015792288900184789,-0.011366702906781838,0.010613562950345809,0.9878601257234135
2014-09-18,1,0.001780215356502439,0.002063845055189373,-0.011366702906781838,0.004466279222012698,0.9883996710340042
2014-09-22,1,0.0016438266018632245,0.0019066293883919503,-0.010405228804101831,0.0071710909254228015,0.9893302418320261
2014-09-24,1,0.002388769563029515,0.002745672128317709,-0.010405228804101831,0.006388504746223665,0.9904581824080915
2014-09-26,1,0.002301448713795042,0.0026377491009692278,-0.010405228804101831,0.0071710909254228015,0.9902577814627326
2014-09-30,1,0.002018346670426532,0.002319153182870342,-0.010049781241502648,0.009225474129916512,0.9902008180708536
2014-10-02,1,0.002434280272890419,0.002829785338237448,-0.011451111096708221,0.007644125229226364,0.9899858724156662
2014-10-06,1,0.0019833921909592402,0.0023066714102669555,-0.004799014730959606,0.009555714851582256,0.9900009553045888
2014-10-08,1,0.0011699305739897635,0.0013242989508338197,0.0013279599795290656,0.011758257666617814,0.9899658457192829
2014-10-10,-1,-0.0002628278505917089,-0.00021748943353926324,0.002437055374625832,0.011758257666617814,0.9899926311809949
2014-10-14,1,0.0006497514788090284,0.000783741103814274,0.0035188248691365286,0.012504478459279829,0.9911192503841828
2014-10-16,1,0.0008098246949173271,0.0009646465374765018,0.00449919068494998,0.012504478459279829,0.9908000625444455
2014-10-20,1,0.0012384287836593743,0.0014504857237767309,0.0013279599795290656,0.012504478459279829,0.9908886124608274
2014-10-22,1,0.001603010246129678,0.0018969129844616482,0.00035020601845702046,0.012504478459279829,0.9912819840572293
2014-10-24,1,0.002320165748561912,0.0026885920958948407,0.00035020601845702046,0.011545296047439379,0.9927806784777016
2014-10-28,1,0.002886411515434688,0.0033588169216309006,-0.0008350721025501153,0.00972015931416375,0.991960117150867
2014-10-30,1,0.002536317314916578,0.0029358811655064683,0.00035020601845702046,0.012399615730687142,0.9916367146020418
2014-11-03,1,0.002371303771312043,0.0027122690717451678,-5.92684580333155e-05,0.012221608354372936,0.9916386313483695
2014-11-05,1,0.002788925227946287,0.0032122487773541793,-0.00013577695778102669,0.010432778941134254,0.9917607021549844
2014-11-07,1,0.0031312244382136153,0.003593217137651791,-0.00013577695778102669,0.011509881020386538,0.9916986530229934
2014-11-11,1,0.0038313653822612424,0.004303415744428106,-0.005082820045968796,0.009495383978218652,0.9919338495500054
2014-11-13,1,0.003589121800268309,0.003995449224610582,-0.006957530723536627,0.009173654034480686,0.991936361467086
2014-11-17,1,0.003053942560323787,0.0033992515445547392,-0.005082820045968796,0.009173654034480686,0.9915740517467868
2014-11-19,1,0.0024689876653937078,0.0027126624752004864,-0.005082820045968796,0.010364381018459832,0.9904328065284624
2014-11-21,1,0.002409242168470439,0.0026452766198632226,-0.006274946449326272,0.011304687252363272,0.9891618694984264
2014-11-25,1,0.0016554509706404152,0.0017808484742892366,-0.004871652998571545,0.011304687252363272,0.9903982346786921
2014-11-28,1,0.0026052164592865095,0.002833167998776345,-0.004871652998571545,0.009495383978218652,0.9914566935453036
2014-12-02,1,0.0021663460894962004,0.0022870778023047116,-0.004871652998571545,0.008299553948323109,0.9915429318354019
2014-12-04,1,0.0020469808957618114,0.0021309791828742694,-0.006274946449326272,0.00623071858287471,0.9915354809368312
2014-12-08,1,0.0020604209913071816,0.0021347589204209535,-0.006274946449326272,0.00623071858287471,0.9904063425857335
2014-12-10,1,0.0012780831127298285,0.0013131824614837676,-0.004202260640262409,0.008582216463715483,0.9898752314981664
2014-12-12,1,0.001325014589230903,0.001342898950974988,-0.004202260640262409,0.008582216463715483,0.9898664847051666
2014-12-16,1,0.0002609264346240824,0.0004145077234459588,-0.004202260640262409,0.008582216463715483,0.9910820955956984
2014-12-18,1,0.0022105360923724967,0.0023633816900308505,-0.004202260640262409,0.003947658485312504,0.9917067398706932
2014-12-22,1,0.0024447687762040446,0.0026137230702588414,-0.002936608458641159,0.005728605552530514,0.9918751073669928
2014-12-24,1,0.0024487471896228056,0.0026540290748134805,-0.002936608458641159,0.00686308899578723,0.991583291597831
2014-12-29,1,0.0021740599348981982,0.002289332450777656,-0.007628995288164997,0.005728605552530514,0.9905623990939859
2014-12-31,1,0.0018203569601247035,0.001901169595286269,-0.008790803347724247,0.008816165332961548,0.989075633299887
2015-01-05,1,0.001091507224704056,0.001142796803794541,-0.010203706842736774,0.013126337495948142,0.9880189678323235
2015-01-07,1,0.0024046222478846064,0.002538624911806225,-0.010203706842736774,0.008019009683131285,0.9894628777691394
2015-01-09,1,0.001784941272791865,0.0018363994144720962,-0.008790803347724247,0.005728605552530514,0.9903647400750558
2015-01-13,1,0.001334908664155478,0.0013459013304301095,-0.008044347459099838,0.008019009683131285,0.9901362076562692
2015-01-15,1,0.0010212238111302046,0.0010664976243855507,-0.006037275755175503,0.010482377667120783,0.9900151750744136
2015-01-20,1,0.0011677817569090373,0.001202462626924112,-0.006037275755175503,0.011869928683010244,0.989524831661039
2015-01-22,1,0.0016902817213027492,0.0016929144704750049,-0.006037275755175503,0.010329293279418238,0.990578453689663
2015-01-26,1,0.0020234088391434244,0.0020782301894394298,-0.006037275755175503,0.010329293279418238,0.990555648919111
2015-01-28,1,0.0010203079838347771,0.0010836163412944711,-0.004042030528791077,0.011869928683010244,0.9912500861907421
2015-01-30,1,0.0013087663773588146,0.0013435620270682471,-0.004042030528791077,0.010329293279418238,0.9925593942179692
2015-02-03,1,0.0009203976434206359,0.0010083315551773513,-0.004633835021681351,0.0070479202453311435,0.9930095251664305
2015-02-05,1,0.0003090237086157046,0.0004990868346197012,-0.005534324247113051,0.010329293279418238,0.9911674595046952
2015-02-09,1,0.0006924453959084838,0.0007676923546488602,-0.004756553873914604,0.010703099057978126,0.9906669715552083
2015-02-11,1,0.0011244685475878256,0.0011255776907596903,-0.006329626170250041,0.010703099057978126,0.989572489860455
2015-02-13,1,0.0014374249390711284,0.0014621969281796551,-0.00697910120425212,0.011896398858762836,0.9884701465926735
2015-02-18,1,0.00187364281379801,0.002001024570367647,-0.00697910120425212,0.010882653621433263,0.9886038892436001
2015-02-20,1,0.0017204238688565145,0.0018237616386424065,-0.00697910120425212,0.013080895665066683,0.9871417542283817
2015-02-24,1,0.0018789641470964642,0.001982741444603163,-0.00697910120425212,0.014573548956302583,0.9860107303571277
2015-02-26,1,0.0020840594515537697,0.0022122094994068693,-0.008709739187081773,0.013021140028607596,0.9853438464206186
2015-03-02,1,0.001688087584222059,0.001740676725971995,-0.008709739187081773,0.01392734077746159,0.9852672733560958
2015-03-04,1,0.0005398486908792635,0.0006516249693775636,-0.008077778121772157,0.01392734077746159,0.9850617573987228
2015-03-06,-1,-0.0007248885300325718,-0.0003886153610762568,-0.008077778121772157,0.010667250895152932,0.9866978613490975
2015-03-10,-1,-0.000774973856846884,-0.0004368216130204699,-0.006604073048705803,0.01332090515680053,0.9867714089791157
2015-03-12,0,-0.0002367995826503327,3.481098253288288e-05,-0.00541478933868527,0.01332090515680053,0.9873463341999745
2015-03-16,1,0.0004488745356414208,0.0006232819471037103,-0.00541478933868527,0.009941602424061117,0.9882839398504009
2015-03-18,1,0.00024088353527718911,0.00043965563423303746,-0.009486109420826932,0.008419196217157286,0.9879379842103095
2015-03-20,1,0.0011941774443239997,0.0012446116858200627,-0.01078269406990901,0.0058607576715210006,0.9879600782509247
2015-03-24,1,0.0023222004419090224,0.0024281272006360663,-0.01078269406990901,0.0018828866231581462,0.9893276912380383
2015-03-26,1,0.0014498111381238288,0.001482695277926835,-0.009486109420826932,0.006357776540419328,0.9897203262128761
2015-03-30,1,0.0018865381426977146,0.001913225893147506,-0.01078269406990901,0.004864044512092292,0.9891311135853755
2015-04-01,1,0.0008315296323939147,0.0009251195320663942,-0.010812402066885834,0.004864044512092292,0.9889887928291804
2015-04-06,1,0.0006312661723965514,0.0007307677785566083,-0.010812402066885834,0.004864044512092292,0.9889979064984213
2015-04-08,1,0.0016426575617228176,0.0017236057064464812,-0.012553371589896868,0.003665363473850546,0.9884906033453192
2015-04-10,1,0.002056092344217301,0.0021919038425553365,-0.012553371589896868,0.004864044512092292,0.9881197146095312
2015-04-14,1,0.0012720282926599867,0.0012771924865712355,-0.012553371589896868,0.004864044512092292,0.9885402121573494
2015-04-16,1,0.0005244532481346125,0.000604187614856129,-0.013105492428960266,0.007229766970274851,0.9885899905221046
2015-04-20,1,2.1310819732372718e-05,0.00016027331094417265,-0.010847360343562864,0.008727959233518937,0.989412747240836
2015-04-22,-1,-0.0005222629844735045,-0.0002828883184537239,-0.011801139886901067,0.009526446176902067,0.9881638118126171
2015-04-24,1,0.0009040326618644259,0.0009185347363935279,-0.011801139886901067,0.0070204689757364805,0.9892457277104538
2015-04-28,1,0.0006004231857205671,0.0006451725594083018,-0.010561658165887233,0.008898552193286955,0.9893384074304942
2015-04-30,-1,-0.000634878805978961,-0.000452697757420441,-0.007811705918381217,0.00943901423275898,0.990646666690947
2015-05-04,-1,-0.0008054525139096016,-0.0006186581561960963,-0.007811705918381217,0.00943901423275898,0.9906432093882819
2015-05-06,-1,-0.001885391100470904,-0.0015369021366251575,-0.007811705918381217,0.00943901423275898,0.9905478491311351
2015-05-08,-1,-0.000966951852576276,-0.0007229591345344892,-0.007811705918381217,0.008586706853244792,0.9919006179836127
2015-05-12,-1,-0.0017304517501642654,-0.001340226254722379,-0.006787210280561322,0.008902952094930583,0.9904476757518434
2015-05-14,-1,-0.0014242359587541878,-0.0011088124958365314,-0.001297742044702135,0.008902952094930583,0.9907342021687107
2015-05-18,-1,-0.0008210474497758993,-0.000602619292180603,-0.0036203669872088176,0.008902952094930583,0.9914236354796307
2015-05-20,-1,-0.0009092476094723944,-0.0006702076901466869,-0.0004769807516560948,0.008902952094930583,0.9918129313726416
2015-05-22,-1,-0.000614335499826974,-0.0004203910645608742,-0.00313984822274668,0.008902952094930583,0.9917011228137484
2015-05-27,-1,-0.0007772147691449411,-0.0005570223069471995,-0.0005890978074092728,0.008902952094930583,0.9915429969677474
2015-05-29,-1,-0.0006266192625545415,-0.0004118954910589074,-0.0005890978074092728,0.009889361481767856,0.990619197373844
2015-06-02,-1,-0.00041671473607473783,-0.0002815264973411012,-0.001961244163231692,0.009889361481767856,0.9901927395897747
2015-06-04,-1,-0.0011129887128361415,-0.0008686425125303766,-0.001961244163231692,0.009889361481767856,0.990226314899369
2015-06-08,-1,-0.0007104750903039536,-0.0004988942860738036,-0.001961244163231692,0.0138409709667697,0.989894413285074
2015-06-10,-1,-0.0003058975752391488,-0.0001411835786401645,-0.001961244163231692,0.010919041853904922,0.9904312978828009
2015-06-12,1,0.00039624302963883957,0.0004658948043035663,-0.001961244163231692,0.008829353054451261,0.9909045139575273
2015-06-16,1,0.000681308728193092,0.000683066123387906,-0.002312356219261032,0.008829353054451261,0.9903778394142329
2015-06-18,1,0.0013429319502743177,0.001456088171627287,-0.004378624791345443,0.008829353054451261,0.9899913471916559
2015-06-22,1,0.000914183321001381,0.0009150368195803204,-0.002497796619771775,0.008829353054451261,0.9902631562138291
2015-06-24,1,0.0013530103214889912,0.001433944523843531,-0.002497796619771775,0.008829353054451261,0.9902490960011489
2015-06-26,1,0.0021315997635225495,0.002294619006410631,-0.010825531045714846,0.006149634187202798,0.9897096925064474
2015-06-30,1,0.0012738557326237598,0.0013222563130094534,-0.006301467447162009,0.008829353054451261,0.990671623617591
2015-07-02,1,0.0007061210514517008,0.0007538486694467344,-0.0016401876276319776,0.00889509230536705,0.9907646128881908
2015-07-07,1,0.0014305487380747847,0.0014792609296829303,-0.0016401876276319776,0.008406466869944647,0.9919747084682559
2015-07-09,1,0.00121118332256363,0.0012552396059685195,-0.0016401876276319776,0.008406466869944647,0.9900031076266185
2015-07-13,1,0.0016181905798222484,0.0017258029570183726,-0.00600023288057167,0.008942862481499742,0.9893453592332566
2015-07-15,1,0.0010472017082066068,0.0010774277898295123,-0.0038757145773282236,0.008942862481499742,0.9896995042003168
2015-07-17,1,0.001801911983482493,0.0019561363939400098,-0.0023572326773938553,0.008942862481499742,0.990102473229535
2015-07-21,1,0.002084391844717675,0.0022998352460207134,-0.004941001465022221,0.008942862481499742,0.9895366365192727
2015-07-23,1,0.002471314186385885,0.0027263565361199805,-0.00914833238772067,0.008658299996406618,0.9896035532708946
2015-07-27,1,0.0012001383114126235,0.0012315481227592774,-0.00914833238772067,0.008658299996406618,0.9879730709734325
2015-07-29,1,0.0010590589273242008,0.001081367159602939,-0.00914833238772067,0.008658299996406618,0.987507134958879
2015-07-31,1,0.0011127014921170756,0.0011367555206994694,-0.00914833238772067,0.009443245194612149,0.9874178825491825
2015-08-04,1,0.0014308394713205726,0.0015239366003499243,-0.013376864978058563,0.009443245194612149,0.9859492990746445
2015-08-06,-1,-7.51688859729893e-05,-1.129591104294484e-05,-0.010204232144139127,0.009443245194612149,0.9877295646805788
2015-08-10,1,0.00034792109918948644,0.0003627046749376088,-0.010156470988206137,0.009443245194612149,0.9873943177649972
2015-08-12,1,0.0007542164863789555,0.000817964329861389,-0.013376864978058563,0.010166372441087815,0.9862905636479268
2015-08-14,1,0.0017320712857306494,0.0019852629300258742,-0.013376864978058563,0.009443245194612149,0.9870161850085117
2015-08-18,1,0.000961361035625068,0.0010844452192823486,-0.011058192360635969,0.009443245194612149,0.987023375120227
2015-08-20,1,0.0011397020416055094,0.0013051628457401016,-0.012206089227633696,0.010166372441087815,0.9866835567416977
2015-08-24,-1,-0.0012880900526825575,-0.00110735432175752,-0.008724692994692022,0.01063718775733867,0.9889297908518943
2015-08-26,-1,-0.00025134128530309276,-0.000182047388410277,-0.008724692994692022,0.01063718775733867,0.9888133804715048
2015-08-28,1,0.00027381440954012603,0.0002985025271535125,-0.010519716744697975,0.01063718775733867,0.9871139511049363
2015-09-01,-1,-0.0002777751404570658,-0.00025024048309783386,-0.008639338914537914,0.01063718775733867,0.9879274385618815
2015-09-03,1,0.00023981013425504488,0.0002531718091739808,-0.008639338914537914,0.009754686687247174,0.9892932277178479
2015-09-08,1,0.00044910478835828135,0.0004595970011508626,-0.008639338914537914,0.008529678289743565,0.9902841353232255
2015-09-10,-1,-9.937986657808148e-05,-2.694311422776554e-05,-0.008639338914537914,0.005771088711274105,0.9906044935814876
2015-09-14,-1,-9.866172749723023e-05,-2.5319941607900964e-05,-0.008639338914537914,0.004933385885339042,0.9906630662547086
2015-09-16,1,6.399595207876981e-05,8.2064079833906e-05,-0.008639338914537914,0.004933385885339042,0.9891255246933218
2015-09-18,-1,-0.00018007504690706645,-0.00011787345407228338,-0.007868927891173768,0.004933385885339042,0.9893601643163834
2015-09-22,-1,-0.0005485417953403201,-0.00038071098899972525,-0.008254370964688562,0.004933385885339042,0.9885320668771388
2015-09-24,-1,-0.00031092437765094125,-0.00015230557448429367,-0.010994948047263624,0.0031664267757515407,0.9880444355629299
2015-09-28,-1,-0.0024453198639865616,-0.002013041893244133,-0.006771678093809447,0.005874938333089942,0.9896186758857188
2015-09-30,-1,-0.0013489338378451883,-0.0010905591011574393,-0.009453650876869892,0.005874938333089942,0.987922206963002
2015-10-02,-1,-0.0012004459059463692,-0.0009604477949255435,-0.016500962606030616,0.005874938333089942,0.9859380102423008
2015-10-06,-1,-0.0018182414937519518,-0.0014991688926485052,-0.016500962606030616,0.009557995196521386,0.9856419810373077
2015-10-08,-1,-0.0019536259977867856,-0.0016288628037771525,-0.015460969419721741,0.009557995196521386,0.9857984405133952
2015-10-12,-1,-0.0023086526965024694,-0.0019416482850507517,-0.015460969419721741,0.009557995196521386,0.9858219682877122
2015-10-14,-1,-0.003505175246605635,-0.0030104271214930214,-0.01013543819557416,0.012460438979939927,0.9868806714170455
2015-10-16,-1,-0.0024562542890993024,-0.0020804081643550545,-0.01439553369846621,0.009557995196521386,0.9874610451066913
2015-10-20,-1,-0.0034057074347338314,-0.002929423933074393,-0.010069686833793692,0.007506311187355239,0.9891456200296357
2015-10-22,-1,-0.002998617100974344,-0.002553697403131859,-0.00729658684807289,0.006387055905331776,0.990140061984174
2015-10-26,-1,-0.0029788306195214546,-0.002523063838785463,-0.00729658684807289,0.009083627890109787,0.9889021308720338
2015-10-28,-1,-0.0024218678568252187,-0.0020611658034006206,-0.00681811164617332,0.008281093348144742,0.99063430948299
2015-10-30,-1,-0.0034213536462445572,-0.002978474508069189,-0.005955972569587575,0.008281093348144742,0.9914617511105902
2015-11-03,-1,-0.002711544388744753,-0.0023701541977944607,-0.00681811164617332,0.008281093348144742,0.9915733884571736
2015-11-05,-1,-0.0030060724925286206,-0.0026245472481288314,-0.00681811164617332,0.00937138127783808,0.9897723542704425
2015-11-09,-1,-0.0028221812865481125,-0.0024902120969562493,-0.00681811164617332,0.01060550073726023,0.9882479077981805
2015-11-11,-1,-0.0023890607570989193,-0.002114537702606721,-0.006985380673143615,0.00937138127783808,0.9882735938071974
2015-11-13,-1,-0.0030282783440075452,-0.0027153833760337207,-0.006091982221541524,0.01060550073726023,0.9879152745150854
2015-11-17,-1,-0.0026811811359836873,-0.0024575982441203802,-0.001729396100438569,0.01060550073726023,0.987448683965502
2015-11-19,-1,-0.002759447209383977,-0.002483959127066105,-0.006240949592006207,0.013333599061750639,0.9839944681151922
2015-11-23,-1,-0.001664560415170282,-0.0015069395105386523,-0.006240949592006207,0.01089237206914696,0.9848305862486567
2015-11-25,-1,-0.0008465841777334158,-0.0008331605835748614,-0.006240949592006207,0.01089237206914696,0.9851257122140018
2015-11-30,-1,-0.0015171353930557593,-0.001410439535277492,-0.0044836297352554965,0.01089237206914696,0.9855342872685563
2015-12-02,-1,-0.0010771272428157217,-0.0010438159044370268,-0.0044836297352554965,0.008796887190931472,0.9859874405921982
2015-12-04,-1,-0.0002217519186846645,-0.00016925127829291775,-0.0044836297352554965,0.008796887190931472,0.9876018476475853
2015-12-08,1,0.0007627080852343595,0.0009771442172368272,-0.00777235419597113,0.006665153407924083,0.9881777430828769
2015-12-10,1,0.00017671070910446146,0.00032999626479575487,-0.007125345718622331,0.006665153407924083,0.9889153941711828
2015-12-14,1,0.0011273703181885327,0.0014468495136812519,-0.00816943524025883,0.006665153407924083,0.9887089391503039
2015-12-16,1,0.0010308026805837317,0.00128422953608081,-0.010182420486771081,0.00611267944215556,0.9877430358924768
2015-12-18,1,0.002977107485790064,0.0035064222217667104,-0.010182420486771081,0.00611267944215556,0.989916946521492
2015-12-22,1,0.0034500592347402946,0.004054018001009421,-0.010182420486771081,0.007134879380593139,0.989141399013175
2015-12-24,1,0.003661371926979919,0.004300779721808697,-0.010182420486771081,0.00914797462633312,0.988033062014346
2015-12-29,1,0.002948409208933766,0.0034239262047527762,-0.010182420486771081,0.01014752737428745,0.9881065568543501
2015-12-31,1,0.002646723174243494,0.003086179704794782,-0.008241395054724683,0.01014752737428745,0.9887262892268815
2016-01-05,1,0.002816935291562541,0.003275569733299133,-0.008241395054724683,0.00914797462633312,0.9888788407127349
2016-01-07,1,0.0024676753277506655,0.002913343763258318,-0.008241395054724683,0.00914797462633312,0.9877282569885435
2016-01-11,1,0.002157411842529718,0.002545743458582102,-0.01224952003072909,0.009483163511674197,0.9871234516347603
2016-01-13,1,0.0020989594952885394,0.0024804941150242104,-0.015864946031483453,0.009483163511674197,0.9867163492537591
2016-01-15,1,0.0004805322937157281,0.0005306596944377546,-0.009665119332339775,0.010751735110537524,0.9864443657119452
2016-01-20,1,0.0006947805412178484,0.0008224263970077802,-0.007524262083377229,0.011877141618070287,0.9862214557861703
2016-01-22,1,0.0018723942398224626,0.002173981793090067,-0.007524262083377229,0.011735604635008293,0.9867974238307972
2016-01-26,1,0.001790139964937262,0.002029803772814899,-0.0069187489619397646,0.010925106931743058,0.987362771363444
2016-01-28,1,0.002454338690450153,0.002835902718348845,-0.0069187489619397646,0.009889390574532421,0.9876161669684091
2016-02-01,1,0.002803280211751034,0.0032644734554883315,-0.0069187489619397646,0.009889390574532421,0.9878063930316
2016-02-03,1,0.001972235369731171,0.00230270623356985,-0.005678198054681464,0.009889390574532421,0.9888844913553587
2016-02-05,1,0.0005592079350837258,0.0007142665261017339,-8.124982721045711e-05,0.009889390574532421,0.9907084632083414
2016-02-09,1,0.0003055706839269725,0.0004065505416705497,-8.124982721045711e-05,0.01239725708168689,0.989691944204727
2016-02-11,-1,-0.00024702517229462876,-0.0002176331211936353,0.002047623668522797,0.01239725708168689,0.9900178971177919
2016-02-16,1,0.0010350983305917431,0.001246952264958878,0.0012727623904981197,0.0068577318410555765,0.9920217328655327
2016-02-18,1,0.002329463601776765,0.002754516419637954,0.0013467864919776533,0.0068577318410555765,0.99384252947014
2016-02-22,1,0.0017951805753951575,0.0020593331444564954,0.00022207230443860033,0.006695549882877221,0.9941620061191853
2016-02-24,1,0.002450367877280723,0.0028195143063972717,-0.001267841879877449,0.006002321722471124,0.9942450053881285
2016-02-26,1,0.0025953013104299816,0.0029844132116168794,-0.002535726590395634,0.006017222980280746,0.9934838457014402
2016-03-01,1,0.0026350351489072077,0.003010634127712286,-0.002535726590395634,0.004214365240164841,0.9934414338658865
2016-03-03,1,0.002522373520894953,0.0028519848305693786,-0.0042268924549825684,0.0042173033693334045,0.9929188812499271
2016-03-07,1,0.002496072254050258,0.002807428542347655,-0.005338321502999737,0.005032245060731321,0.9909242401311033
2016-03-09,1,0.002317844411842714,0.0025306372242226175,-0.0044108996864577425,0.003449623933272442,0.9927613991301806
2016-03-11,1,0.0028117027378070144,0.0031330432833465522,-0.0044108996864577425,0.0029759825695376482,0.9925936270370859
2016-03-15,1,0.0020324861684610242,0.002204298971678621,-0.0043568340780717465,0.0033177319220626536,0.9926113111089832
2016-03-17,1,0.0023617531589473877,0.0025892493303645825,-0.0056973490173946465,0.0025382855551319356,0.9917372011830682
2016-03-21,1,0.002251903028742601,0.002474373641335197,-0.008865499366738201,0.0033177319220626536,0.990630338770276
2016-03-23,1,0.001849773548992309,0.0020185246072602007,-0.006663198369629236,0.0033177319220626536,0.9909361815295692
2016-03-28,1,0.0010302407353629847,0.0010459671294392175,-0.0049632486850249916,0.0033177319220626536,0.9917195571032752
2016-03-30,1,0.0011180044147328662,0.001126931577221115,-0.0049632486850249916,0.004931955803920595,0.9913837803188527
2016-04-01,1,0.0009566587255634751,0.0009882748945498972,-0.008280433415148277,0.0033177319220626536,0.9909906521157378
2016-04-05,-1,-0.0007506766281644409,-0.00047660975579281463,-0.006082291486048358,0.0037748157351357907,0.9923229962005972
2016-04-07,-1,-0.00045389684324949526,-0.00025329161557507605,-0.008280433415148277,0.006499620170006531,0.9915267204689706
2016-04-11,-1,-0.001228044973135931,-0.0008805419485500535,-0.008280433415148277,0.007347215618023171,0.9899246435661164
2016-04-13,-1,-0.0008596884586052623,-0.0005570153484930868,-0.010300238897051688,0.006499620170006531,0.9896144251237389
2016-04-15,-1,-0.0014057208638649328,-0.001051870276259451,-0.007733585461436944,0.007347215618023171,0.9897026974884396
2016-04-19,-1,-0.0013704604177771293,-0.0010639644141724465,-0.007641884168996078,0.007347215618023171,0.9907615188203248
2016-04-21,-1,-0.0015578786996719865,-0.0012412919236422099,-0.007733585461436944,0.008541156213239092,0.988101932265197
2016-04-25,-1,-0.001558430100817329,-0.0012097436720757,-0.00924145623372809,0.007766086210987879,0.9877428621422722
2016-04-27,-1,-0.0015407170214712686,-0.0011965657757440932,-0.00924145623372809,0.010081225443887842,0.9871471283821085
2016-04-29,-1,-0.0020280253717324054,-0.001653175454858807,-0.007675943098865622,0.01127563316381691,0.9869098748413918
2016-05-03,-1,-0.0013931298705655813,-0.001095759669020804,-0.007675943098865622,0.010081225443887842,0.9876722247597606
2016-05-05,-1,-0.001759622602392708,-0.001418845512029764,-0.006328506024650407,0.010081225443887842,0.9882712038001169
2016-05-09,-1,-0.0013468944045912637,-0.001034954611049717,-0.005898858903312735,0.007578586306980636,0.9899603368659416
2016-05-11,-1,-0.001447502824466236,-0.0011759028154729036,-0.0021414132474408495,0.010081225443887842,0.9904413982796824
2016-05-13,-1,-0.0003734078038704657,-0.00030004203998446706,-0.002359040651604994,0.007578586306980636,0.9912680466095
2016-05-17,1,0.0002472097719792112,0.00028726104186375847,-0.005898858903312735,0.0058251242117461025,0.9911353394380018
2016-05-19,1,0.0011945963938009541,0.0013702709031918774,-0.002359040651604994,0.005261827488389181,0.9940629219068583
2016-05-23,1,0.0006365557038078935,0.0007337494948123394,-0.002359040651604994,0.005261827488389181,0.9945207999894667
2016-05-25,1,0.001007418447801878,0.0011338528095521275,-0.002359040651604994,0.005172340550021782,0.994772775072827
2016-05-27,1,0.0015071368395051991,0.0017088087708850713,-0.006311099656533547,0.003959717174012727,0.9930951539531172
2016-06-01,1,0.001057777049082586,0.0011598851849593135,-0.006311099656533547,0.004756572271965611,0.9931018412865354
2016-06-03,1,0.0010045112278789115,0.001088904789334863,-0.007551662864882189,0.0038227231448098816,0.991087448227465
2016-06-07,1,0.0007317394930424215,0.0007683177098334487,-0.007874225487517454,0.004756572271965611,0.9897568496640651
2016-06-09,1,0.0007241426558041357,0.0007311626989630252,-0.007874225487517454,0.0038227231448098816,0.9902554117569969
2016-06-13,1,0.00027871189205072935,0.0003443890266262091,-0.00781569870617889,0.004756572271965611,0.9903063539737909
2016-06-15,1,0.0006017598117825502,0.000627919616577659,-0.00590893229288274,0.005339289690427162,0.990470831534698
2016-06-17,1,0.0007777185476887146,0.0008432503264164881,-0.008301538127331256,0.005339289690427162,0.9898130212790903
2016-06-21,1,0.0006007086947024788,0.0006447123358812506,-0.006678316482444662,0.005481522070278912,0.9901535696392083
2016-06-23,1,0.0009255614496265919,0.0010141976220365337,-0.010709336558027149,0.005481522070278912,0.989750464201478
2016-06-27,-1,-0.0007190633359388145,-0.0005807531489029472,-0.006678316482444662,0.00792257459624881,0.9897526033050973
2016-06-29,-1,-0.0010684083399981309,-0.0008173548204640508,-0.010709336558027149,0.00792257459624881,0.9886142768808202
2016-07-01,-1,-0.0021807404246768215,-0.0018030544155982673,-0.004693053718228185,0.00792257459624881,0.990015147037576
2016-07-06,-1,-0.002738939567309205,-0.0022690776343437325,-0.004693053718228185,0.007532227052540896,0.9901197325819532
2016-07-08,-1,-0.002286463643853396,-0.0019197302809762916,-0.004693053718228185,0.008023983653610447,0.9887186721522508
2016-07-12,-1,-0.001413035387961167,-0.001186968391350082,-0.005656267683619836,0.007532227052540896,0.9893532186774836
2016-07-14,-1,-0.001276292642988594,-0.0010767732228469382,-0.010709336558027149,0.008023983653610447,0.9883223863233521
2016-07-18,-1,-0.0012132675995341021,-0.0010472534755388027,-0.007293913971654633,0.008023983653610447,0.9884931959550065
2016-07-20,-1,-0.0011102373026319141,-0.0009504846345289577,-0.007293913971654633,0.008023983653610447,0.9887182148395407
2016-07-22,-1,-0.000993150277030657,-0.0008572857446047656,-0.007631238955111951,0.007184054753744869,0.9887851214397985
2016-07-26,-1,-0.001707218137882526,-0.0015054628157132898,-0.00451779348816233,0.007184054753744869,0.9901094041018845
2016-07-28,-1,-0.001005862636182954,-0.0008889082301756516,-0.0028267099103296235,0.007184054753744869,0.9917157263731857
2016-08-01,-1,-0.0007485240598804747,-0.0006925608997548166,-0.00451779348816233,0.005984471400538946,0.9908317777680974
2016-08-03,-1,-0.0008765414292219777,-0.0008179845890565441,-0.004473475155291041,0.006077343222122347,0.9914275496008981
2016-08-05,-1,-0.0002242428760198394,-0.0002197298444979534,-0.004473475155291041,0.0048192127530284744,0.992345722144554
2016-08-09,-1,-0.0001450785043031925,-0.00010427528431836231,-0.0032950583861332244,0.006092531135222525,0.9922048339806034
2016-08-11,1,5.8362927800045296e-05,0.0001171655036275045,-0.005922838915573133,0.004480247417828507,0.992617396440649
2016-08-15,-1,-0.0003815185912929796,-0.00036811195993642686,-0.006232561897350686,0.006092531135222525,0.9912167393472593
2016-08-17,-1,-0.00016678760897462176,-0.00014941224915334588,-0.007497083560049822,0.007156299220139701,0.9903708302045424
2016-08-19,-1,-0.0005713599386305387,-0.000543522981602417,-0.007497083560049822,0.007156299220139701,0.9907078403871157
2016-08-23,1,0.00010453034748998059,0.0001770136082975857,-0.007497083560049822,0.007156299220139701,0.9909392702043193
2016-08-25,-1,-0.0003050821347451734,-0.00027330756960832083,-0.007497083560049822,0.007156299220139701,0.9901575044379337
2016-08-29,-1,-0.0010753146986237222,-0.0009508109715897263,-0.008338100056982026,0.007156299220139701,0.9904859954682279
2016-08-31,-1,-0.0007638795848739584,-0.0006776524455088416,-0.00851600545675376,0.006092531135222525,0.990725101651468
2016-09-02,-1,-0.00023571198529616778,-0.00023460209468979598,-0.00851600545675376,0.0061394032145398,0.9905913458115156
2016-09-07,-1,-0.0001973844668444236,-0.000167042833111158,-0.00851600545675376,0.006224497037240635,0.9906746732911698
2016-09-09,-1,-0.0011538186634899414,-0.0009993434142188137,-0.00851600545675376,0.008261859262411556,0.9909351112202904
2016-09-13,-1,-0.0007194551791496623,-0.0005984478065549924,-0.00851600545675376,0.008261859262411556,0.9918452017400753
2016-09-15,-1,-0.00044532385837365836,-0.00038353387994576353,-0.00851600545675376,0.007596837349136442,0.9921033573215163
2016-09-19,-1,-0.0010255697144298786,-0.0008981391008386877,-0.006718023758028221,0.007596837349136442,0.9922164799980888
2016-09-21,-1,-0.0007379356698711146,-0.0006104148569757404,-0.006718023758028221,0.006645602536759249,0.9924225414526502
2016-09-23,-1,-6.249805330859945e-05,-4.19913052792445e-05,-0.007884619898385618,0.00600282306614893,0.9930969260492803
2016-09-27,-1,-0.0011977380863059375,-0.0010308013059013113,-0.0065657357521556655,0.00600282306614893,0.9926238395035546
2016-09-29,-1,-0.0008609781001008756,-0.0007859048025883785,-0.003877345500440558,0.006017212487239142,0.9925608680174831
2016-10-03,-1,-0.0008212198700376616,-0.0006997058600091861,-0.003877345500440558,0.006645602536759249,0.9906145700946359
2016-10-05,-1,-0.0008958569805876009,-0.0007789061253888706,-0.007142273102135567,0.006645602536759249,0.9904431690116721
2016-10-07,-1,-0.0005729721559280157,-0.0005054754064644075,-0.007142273102135567,0.006017212487239142,0.9909036396647203
2016-10-11,1,0.0004070727883013193,0.0005332153882482427,-0.007142273102135567,0.006017212487239142,0.9905953854925456
2016-10-13,-1,-0.00025758703132490885,-0.00024356096551378796,-0.001133318105433572,0.008174923616234826,0.9882995864045611
2016-10-17,1,0.0003116154845640212,0.0004215861478898649,-0.0010310514039261933,0.013194479850912868,0.9867113230679863
2016-10-19,1,0.0010225493552155794,0.0012479454928754053,-0.007142273102135567,0.013194479850912868,0.9862842208840311
2016-10-21,1,0.0008505005034592765,0.0010506304512303169,-0.0010310514039261933,0.013542611879161308,0.9859794402210763
2016-10-25,1,0.00046257721091901515,0.0006302119711680469,0.001494664075405476,0.013542611879161308,0.9864484043298195
2016-10-27,1,0.0003836228188182706,0.0005335217075784239,0.0035088433444118317,0.013542611879161308,0.9865311828614158
2016-10-31,1,0.0023329296237608005,0.002769858003094739,-0.0010310514039261933,0.01170459549029461,0.9885906482609869
2016-11-02,1,0.0017997778784152006,0.0021460443249813423,0.001494664075405476,0.011856429339908546,0.987171480674349
2016-11-04,1,0.0015769810227601573,0.0018954505576379275,0.0035088433444118317,0.014676850648094252,0.986216164885
2016-11-08,1,0.0023402610215382384,0.0027613580928048933,0.004858784656252129,0.0134497151836966,0.986870265538059
2016-11-10,1,0.003671050946860413,0.004256518089656193,0.0020122139907056817,0.011856429339908546,0.9897009871917691
2016-11-14,1,0.00535394706568963,0.006185927758902498,-0.007340373815393838,0.00873184914927959,0.9904500557248828
2016-11-16,1,0.0038721213998084035,0.004423790536150447,-0.006960671490738096,0.008219203636877477,0.9904320963468279
2016-11-18,1,0.005011819280340312,0.005747547500818883,-0.006960671490738096,0.006726072423308287,0.9902898916722156
2016-11-22,1,0.004768896448724144,0.005386391766513917,-0.006960671490738096,0.006286883263567133,0.9901901425707131
2016-11-25,1,0.0048852236822409505,0.0054928802123553385,-0.008756657519239751,0.004780922433716087,0.9888976105084816
2016-11-29,1,0.003772347550619148,0.004214748489167068,-0.006960671490738096,0.004780922433716087,0.990229678293415
2016-12-01,1,0.0052618725073045455,0.005921548012376661,-0.008602208180002657,0.0015143962920187014,0.9896869628345408
2016-12-05,1,0.005446353811147149,0.006129342017756809,-0.008551705845299684,0.0009338846067561283,0.9900894974441594
2016-12-07,1,0.005790555061324568,0.006486461837766402,-0.009126460132149686,0.000510421999807421,0.9893146233502348
2016-12-09,1,0.005471016152450087,0.0061282397913002395,-0.009126460132149686,0.000510421999807421,0.9898063070868243
2016-12-13,1,0.004571497817373156,0.005099920079987892,-0.008551705845299684,0.0015143962920187014,0.9917192414214978
2016-12-15,1,0.003472788277135738,0.0037764509097951227,-0.007277904620625825,0.0015143962920187014,0.9925791172273053
2016-12-19,1,0.00358748891892765,0.00393502367506807,-0.00811242126681351,0.0018502118321546092,0.9923537195394518
2016-12-21,1,0.003424410092812424,0.0037510125483662437,-0.00811242126681351,0.0034574411828770003,0.9919262877362117
2016-12-23,1,0.002501968919052174,0.0026740739424801073,-0.006956725777081424,0.005096045776945662,0.9928559580247743
2016-12-28,1,0.002318833524509226,0.0025165896465524067,-0.006163127225991314,0.005096045776945662,0.9934421691965536
2016-12-30,1,0.001733519890929219,0.0018371435106794478,-0.006163127225991314,0.005096045776945662,0.993870578369125
2017-01-04,1,0.0014846667718432212,0.001563736306140847,-0.006837690969691864,0.005096045776945662,0.9932203182984349
2017-01-06,1,0.0008619008264817322,0.0008830516319532678,-0.006163127225991314,0.007540367627171607,0.9936216212024908
2017-01-10,1,0.001219581873874958,0.001246676813359666,-0.006646860961783591,0.007540367627171607,0.9926391332798293
2017-01-12,1,0.0015199783811624052,0.0015434960263965962,-0.006646860961783591,0.007620351144352385,0.9917792959449574
2017-01-17,1,0.0010993843191482746,0.0011041520970502877,-0.006152563026024001,0.007620351144352385,0.9923099234691488
2017-01-19,1,0.0009765248712545473,0.0009903031854529244,-0.006133048167973875,0.007620351144352385,0.9925065952898896
2017-01-23,1,0.00044583670728436147,0.0005752577820805581,-0.0036059687920531667,0.007620351144352385,0.9928338384396221
2017-01-25,1,0.0007915547084143233,0.0008681535285806913,-0.006577752187665898,0.004426198050940102,0.992442378884181
2017-01-27,1,0.0007092082502847846,0.0007859439017162529,-0.006805998369789926,0.004426198050940102,0.9918555469435373
2017-01-31,1,0.0005265460924311195,0.0006097896947637983,-0.006577752187665898,0.00388426814573663,0.9922293647060193
2017-02-02,-1,-0.0010177282686292324,-0.0007027631493407365,-0.00315893829404921,0.007262016049215076,0.9924688607664948
2017-02-06,-1,-0.0003026377488796983,-0.00010341353126130774,-0.005008821697187292,0.004045168372095158,0.9928007833875392
2017-02-08,1,0.00016615956415038806,0.0003243970786208694,-0.00315893829404921,0.004045168372095158,0.9937731527510023
2017-02-10,1,0.0007012232658818201,0.000834487252920797,-0.005008821697187292,0.00228024431528754,0.9946899890562554
2017-02-14,1,0.0010269643545451068,0.0010900612890976243,-0.005008821697187292,0.003086582474180389,0.9939958195034999
2017-02-16,1,0.0006614952164009646,0.0007568383551079315,-0.004995232206723083,0.004868959034546354,0.9933321197035012
2017-02-21,1,0.00016635854027965535,0.0003758652896604435,-0.004995232206723083,0.003086582474180389,0.9937118461102256
2017-02-23,-1,-0.0009229728792452818,-0.0005573789467457277,-0.004699028285876244,0.004238267887222295,0.9939750592776087
2017-02-27,-1,-0.0012403622924962178,-0.0008582734974157962,-0.004699028285876244,0.004238267887222295,0.9937582635898634
2017-03-01,-1,-0.0012818790371161776,-0.0008968475947423529,-0.004699028285876244,0.005852643286318482,0.9894394279141102
2017-03-03,-1,-0.00129184100091154,-0.0008993250174136867,-0.003705934381617871,0.006164478296086533,0.9892866191337103
2017-03-07,-1,-0.0012718727027612705,-0.000930536642824318,-0.003705934381617871,0.009057479304680288,0.9888108079062485
2017-03-09,-1,-0.0012780490237609017,-0.0009228970811748704,-0.0048809439792024106,0.0068380507787144116,0.9884679102565486
2017-03-13,-1,-0.001582022791488928,-0.0011946775467700994,-0.0048809439792024106,0.0068380507787144116,0.989025037863261
2017-03-15,-1,-0.0008443750612516447,-0.0005616985238579674,-0.005443692457468758,0.005424668787431241,0.9896784938519724
2017-03-17,-1,-0.0008805684905881857,-0.0005798114704978907,-0.005443692457468758,0.005424668787431241,0.9900723039310279
2017-03-21,-1,-0.0015915121244636265,-0.0011717004031170204,-0.005443692457468758,0.005424668787431241,0.9899839525857144
2017-03-23,-1,-0.0021372780356181606,-0.0015964694607948722,-0.005443692457468758,0.006568038957960722,0.9895400192555177
2017-03-27,-1,-0.0013497950393036202,-0.001026968659622924,-0.0026239141281748446,0.008443711454371498,0.9895058045314495
2017-03-29,1,0.0009160459461003416,0.000993472690494258,-0.0026239141281748446,0.006568038957960722,0.9943651130842979
2017-03-31,-1,-0.0003252503434973403,-4.189367943065322e-05,-0.005443692457468758,0.00589160604639899,0.994109409903651
2017-04-04,1,0.001241142211187151,0.0012731347848158583,-0.0026239141281748446,0.006252322170467674,0.994065066939034
2017-04-06,1,0.0008017224190468222,0.0008241824524978421,-0.0012069615926953213,0.006111109484124971,0.9947717391368024
2017-04-10,1,0.0016615844644337983,0.0018364906612980995,-0.0010335905238739109,0.006111109484124971,0.9952428741541388
2017-04-12,1,0.0007183136564611302,0.0007272907860592852,-0.0002573677069767856,0.0067773827681008696,0.9949189400760021
2017-04-17,1,0.0015683575524170243,0.0017267644716219806,0.0007260572813911644,0.006066626245610055,0.9959174526752083
2017-04-19,1,0.00132893764068756,0.0014733143593153595,-0.0010335905238739109,0.006066626245610055,0.9942771610779557
2017-04-21,1,0.0018596176898620059,0.002093347287482026,-0.0010335905238739109,0.0061077664171041894,0.9942310544269506
2017-04-25,1,0.0018544410600854827,0.002036010549826722,-0.0015001383646712422,0.005858248541449468,0.9941436093636401
2017-04-27,1,0.0024317379816116555,0.002755826971153989,-0.0014877792767709363,0.006617432801715112,0.9939445116254823
2017-05-01,1,0.002451160463005595,0.002777161327236093,-0.0019926471701162077,0.006617432801715112,0.9940407006987776
2017-05-03,1,0.0032981248987724813,0.0037946288793204268,-0.0019926471701162077,0.006617432801715112,0.9936069720936066
2017-05-05,1,0.0030019028233367762,0.0034180395052379265,-0.0019926471701162077,0.007600985847142505,0.9933394040375785
2017-05-09,1,0.002632035471089202,0.002963924328394845,0.0001451167417309534,0.007600985847142505,0.9934125522673943
2017-05-11,1,0.002845730870090427,0.00319979646143052,-0.0018201664814290787,0.007485519119271663,0.993423136222322
2017-05-15,1,0.002497173808831462,0.002788697472419121,-0.002880168968222658,0.007485519119271663,0.9921747460965371
2017-05-17,1,0.0017391684456291166,0.001942387943127431,-0.002008677717010051,0.007485519119271663,0.993304664467831
2017-05-19,1,0.0018276445261418124,0.0020062412932205344,-0.0029371449586919167,0.007485519119271663,0.9929568358500954
2017-05-23,1,0.0013771995344040357,0.0014695597582363154,-0.004690521382860583,0.007485519119271663,0.9921679107915742
2017-05-25,1,0.0017127481319223225,0.0018287426732233915,-0.004924653842512379,0.006763688809845419,0.9920987704186536
2017-05-30,1,0.0012190268823262097,0.0012506238593104992,-0.004588661254055957,0.013140714007069086,0.9905249061770824
2017-06-01,1,0.0016622147505116485,0.0017383853715715089,-0.005009077420603839,0.006763688809845419,0.9911694537102647
2017-06-05,1,0.001996840976486359,0.0021276310614704703,-0.006027383788264562,0.006237025431394729,0.9907052835897959
2017-06-07,1,0.002096290789384176,0.0022634655318887515,-0.00860211895735343,0.006237025431394729,0.9896794371071921
2017-06-09,1,0.0020602052949661082,0.0021933868647873393,-0.010700004223360246,0.006585706079336885,0.9891602681293817
2017-06-13,1,0.0011691853804868685,0.0011754970764159818,-0.008105044617850887,0.006585706079336885,0.9903754384259597
2017-06-15,1,0.0011224271329156803,0.001129092633931399,-0.010553661837744551,0.006585706079336885,0.990208983960446
2017-06-19,1,0.0015071075783697103,0.0015727856338348448,-0.010553661837744551,0.006093407807928559,0.9904384324316441
2017-06-21,1,0.00035400153099680897,0.00044163652352457224,-0.007737014435539394,0.008288901237828036,0.9912201784922577
2017-06-23,1,0.00037365336251118036,0.00046940303050238585,-0.010553661837744551,0.006093407807928559,0.9902894754252436
2017-06-27,1,0.001034769792081582,0.0010965008785108344,-0.01164048038159717,0.003676153029394761,0.9915846223214594
2017-06-29,1,0.0009528632828318061,0.0010213277878466157,-0.01164048038159717,0.003676153029394761,0.9910716590191453
2017-07-03,1,0.0006387140830172612,0.0007296771737542299,-0.010553661837744551,0.003676153029394761,0.991846215907389
2017-07-06,1,0.0007900926325642803,0.0007951863116604954,-0.010553661837744551,0.003676153029394761,0.9910897053032477
2017-07-10,1,0.0004615100694620414,0.0005108646919454837,-0.01035373130562139,0.005081856896054719,0.9910063605086276
2017-07-12,1,9.848669852812939e-05,0.0002238328441336539,-0.01164048038159717,0.005081856896054719,0.9897565711364714
2017-07-14,0,-1.4479487113447148e-05,0.0001152614239187481,-0.010388353987813468,0.008288901237828036,0.989332183578815
2017-07-18,-1,-0.00019683708694176677,-3.16922209043901e-05,-0.010388353987813468,0.00891867977300358,0.9893172185617366
2017-07-20,-1,-0.00042661908674960353,-0.0002040113497677158,-0.010388353987813468,0.009069990482568221,0.9892905871470461
2017-07-24,-1,-0.001782218253157361,-0.0013945185209298233,-0.007203255985408899,0.009069990482568221,0.990580645891238
2017-07-26,-1,-0.0020594940331349386,-0.0016406792955070844,-0.007203255985408899,0.009464658420428457,0.9897493382169507
2017-07-28,-1,-0.0030085840385618255,-0.002478837264110402,-0.00681081389235729,0.01008612922443656,0.9891771462016395
2017-08-01,-1,-0.002499534051040547,-0.0020246442999878635,-0.0084854927655378,0.01008612922443656,0.9880865951439933
2017-08-03,-1,-0.003999064200059582,-0.0033486513887877167,-0.007692508671982478,0.01008612922443656,0.988557738384952
2017-08-07,-1,-0.0029143604542101274,-0.00239505846669682,-0.009066276804248725,0.009464658420428457,0.989702705670621
2017-08-09,-1,-0.003737400576089608,-0.0031306711082216246,-0.010324848737708218,0.009464658420428457,0.9885658376744789
2017-08-11,-1,-0.0031175893246971763,-0.0025753988807070047,-0.010324848737708218,0.009736204213695228,0.9881739347208606
2017-08-15,-1,-0.002933453950387757,-0.002446387225168602,-0.010324848737708218,0.014184093830241972,0.9863219135793928
2017-08-17,-1,-0.0036800953759386235,-0.0030281174841500806,-0.010324848737708218,0.014184093830241972,0.9863236610513861
2017-08-21,-1,-0.0020978686355521805,-0.0017575921615963401,-0.012598776675248342,0.014184093830241972,0.9859419686876933
2017-08-23,-1,-0.0023909078667061386,-0.0020411631249339004,-0.010289840623332937,0.014184093830241972,0.9867306471045039
2017-08-25,-1,-0.0020732076734693784,-0.0017679265395582964,-0.009066276804248725,0.009415123769609362,0.9878535177476516
2017-08-29,-1,-0.002373404316293115,-0.002030923064040642,-0.009066276804248725,0.009736932364616986,0.9857047893303564
2017-08-31,-1,-0.003119505891316298,-0.002647869923291724,-0.00885073083088769,0.009736932364616986,0.98617525630981
2017-09-05,-1,-0.003611732840245229,-0.0030772559164542594,-0.005974746798912399,0.012692291453141304,0.9852410821833995
2017-09-07,-1,-0.005340540356776106,-0.004610659643563504,-0.003056099879798487,0.012692291453141304,0.9862606866360429
2017-09-11,-1,-0.003535071154067501,-0.003049930548501013,-0.005358661517308166,0.008917856310575805,0.9877171673174672
