JNU-Tangyin/eata/results/Batch4_SP500/Batch4_SP500-COWN.csv
Date,Action,Predicted_Q25,Predicted_Q75,Actual_Q25,Actual_Q75,RL_Reward
2010-12-14,1,0.0,0.014452872862818301,-0.013369132825568616,0.013086555495016756,0.9887887314401392
2010-12-16,0,0.0,0.0,-0.018078138178808427,0.013086555495016756,0.9814356385008005
2010-12-20,0,0.0,0.0,-0.01971655019324486,0.015313286602686074,0.9779703603904552
2010-12-22,1,0.011521046498527619,0.013237685782672412,-0.020231659697663135,0.015313286602686074,0.9769714546870646
2010-12-27,1,0.010974716048024063,0.012665450928108772,-0.016838452619031656,0.015801214646462197,0.9782844535932899
2010-12-29,1,0.010841762814825922,0.012415394570797184,-0.016838452619031656,0.017050319148336775,0.9782024270771491
2010-12-31,1,0.0083614249725023,0.009503567372915352,-0.016838452619031656,0.017050319148336775,0.977464858485397
2011-01-04,1,0.008032357861200457,0.009076542500627007,-0.013369132825568616,0.015801214646462197,0.9797602185719252
2011-01-06,1,0.008073805301412775,0.008960903920031443,-0.017489440466245756,0.01504869220112048,0.9773516580889112
2011-01-10,0,0.0,0.0,-0.01929137329332782,0.01504869220112048,0.978512668925609
2011-01-12,0,0.0,0.0,-0.01929137329332782,0.012724106522068589,0.9794337638656488
2011-01-14,1,0.007054667287947907,0.007605549627099835,-0.017489440466245756,0.01504869220112048,0.9798999699085001
2011-01-19,1,0.004625026113125836,0.004963847100105523,-0.010990347846855156,0.01590229563816665,0.9827984732032148
2011-01-21,0,0.0,0.0,-0.018548073049671966,0.01590229563816665,0.9794102700168733
2011-01-25,0,0.0,0.0,-0.018548073049671966,0.015532447696214972,0.9803464753125922
2011-01-27,1,0.005475622018591823,0.006005691394835857,-0.018548073049671966,0.007997619679264193,0.980483287914392
2011-01-31,1,0.001431611663101121,0.0016168504633934924,-0.016740653493387936,0.0064859533227249345,0.9831933485783875
2011-02-02,1,0.0011189773221459544,0.0012924306567792532,-0.016740653493387936,0.012004785022094068,0.9827394937389535
2011-02-04,-1,-0.002677637079905143,-0.001947397291218496,-0.01654512355920652,0.012004785022094068,0.9831159564089205
2011-02-08,-1,-0.0054856782257723296,-0.004223800661484212,-0.014777620687235945,0.014447343050149782,0.9820519972485147
2011-02-10,0,0.0,0.0,-0.01654512355920652,0.014447343050149782,0.9820758278223014
2011-02-14,0,0.0,0.0,-0.01764390471749525,0.003001066939532412,0.9838092104461005
2011-02-16,0,0.0,0.0,-0.019548330125890762,0.002419943197050357,0.9819135787868389
2011-02-18,0,0.0,0.0,-0.01654512355920652,0.003001066939532412,0.9853172140707636
2011-02-23,-1,-0.0043630192415151925,-0.003208890810177339,-0.01764390471749525,0.003727444352836267,0.9839777247530161
2011-02-25,-1,-0.004843493755919052,-0.0036313336855080705,-0.01764390471749525,0.013367786497256912,0.9817229210118344
2011-03-01,-1,-0.0047566721055296475,-0.0035973722976007185,-0.01764390471749525,0.013522905535843047,0.9814751836471611
2011-03-03,-1,-0.0040102377236438756,-0.0030188943019437077,-0.01767527910001638,0.013522905535843047,0.9815808364247476
2011-03-07,-1,-0.005401287660179811,-0.004324631564949,-0.013664188126287218,0.018578187640968167,0.9815728116265737
2011-03-09,-1,-0.00483696603545403,-0.003795362749318304,-0.013664188126287218,0.013522905535843047,0.9831813299083382
2011-03-11,-1,-0.00605304806749014,-0.004738205877244375,-0.013006948754034683,0.013522905535843047,0.9836770509031263
2011-03-15,-1,-0.007195164976766325,-0.005763697526464696,-0.012204934552947199,0.01790908151586976,0.9826251705372512
2011-03-17,-1,-0.0072559730041433235,-0.005834253719239069,-0.009987196143246137,0.01790908151586976,0.9845291507251405
2011-03-21,-1,-0.007927057143974495,-0.00640380814695748,-0.011808880790214058,0.01790908151586976,0.9845181474717287
2011-03-23,-1,-0.009757965881808023,-0.008076638231513826,-0.011808880790214058,0.015442793823280284,0.9852648246374123
2011-03-25,-1,-0.007360108136607614,-0.006014894524910705,-0.011934043163005312,0.012894911701165766,0.9869403357894037
2011-03-29,0,0.0,0.0,-0.011934043163005312,0.009273045930001219,0.9864985280225443
2011-03-31,0,0.0,0.0,-0.010138943497203833,0.009273045930001219,0.9874540836246123
2011-04-04,0,0.0,0.0,-0.011751367385358303,0.007291269437010318,0.9870157731645576
2011-04-06,-1,-0.003690047333490999,-0.0030860881703311713,-0.012539355013343566,0.007291269437010318,0.986908008437097
2011-04-08,-1,-0.00497028958869702,-0.004164739364407633,-0.011751367385358303,0.009273045930001219,0.9854391059028
2011-04-12,-1,-0.005352377959657862,-0.004381256323692714,-0.011751367385358303,0.005533687554720769,0.9868095814341683
2011-04-14,-1,-0.004260858933067875,-0.003371421603395365,-0.013239076396815114,0.004881466869313982,0.9881341104547887
2011-04-18,-1,-0.004921880904955938,-0.004006064235149178,-0.013239076396815114,0.005533687554720769,0.986330573584979
2011-04-20,-1,-0.004664116766995808,-0.003746164373730705,-0.01018066428813425,0.005121659175976175,0.9870981898117294
2011-04-25,-1,-0.003247800983997586,-0.0025106518361274607,-0.009615375798129148,0.00566764428061867,0.9866376867801583
2011-04-27,-1,-0.0021254043300878763,-0.0016643119833478174,-0.007945666620837507,0.00566764428061867,0.9870563722277832
2011-04-29,-1,-0.0007206457225009163,-0.0005127525319664689,-0.007945666620837507,0.005698772712479103,0.986624172352439
2011-05-03,-1,-0.0011662707259798544,-0.0009911865223896999,-0.007335030382731032,0.005698772712479103,0.987105586334111
2011-05-05,-1,-0.0009193937755591688,-0.0008689025728587602,-0.007335030382731032,0.0073846547325916185,0.9873710465268128
2011-05-09,1,0.0010154594576524197,0.0012116469278596876,-0.00861308732892151,0.005698772712479103,0.9887294681934699
2011-05-11,1,0.0012244363333744344,0.0014890157871622208,-0.013545473051051818,0.0073846547325916185,0.9873748844680897
2011-05-13,1,4.655673244768378e-05,0.00015317613182133796,-0.017914053537190215,0.0073846547325916185,0.9842015736748008
2011-05-17,1,0.0003576673023741252,0.000412998273393138,-0.017914053537190215,0.0073846547325916185,0.9832777076884671
2011-05-19,1,0.00044633002092799327,0.0004579268744818061,-0.017914053537190215,0.013099728307532577,0.9812731835360852
2011-05-23,1,0.000656125036742854,0.0009395120484189649,-0.017914053537190215,0.013099728307532577,0.9816137554569586
2011-05-25,1,0.0005317276804393576,0.0007789047307711599,-0.020259305432516805,0.013099728307532577,0.9803034278895029
2011-05-27,1,0.0015278466538894166,0.0019154342286883856,-0.020259305432516805,0.017213633573188575,0.9787535032160533
2011-06-01,1,0.0012813310876582324,0.0017046532695113902,-0.018755901220142368,0.017213633573188575,0.979474748592611
2011-06-03,1,0.0009252270668969789,0.0012769078145213784,-0.022932786776528487,0.022986936420278013,0.9769727742692405
2011-06-07,1,0.00048033924014193735,0.0007755865712760646,-0.02384559152981878,0.022986936420278013,0.9763868406387288
2011-06-09,1,0.0009142311473142786,0.001322348506674743,-0.02384559152981878,0.022986936420278013,0.9772249096028651
2011-06-13,-1,-0.0007492969373807292,-0.0007367594545596595,-0.021388177464766508,0.022986936420278013,0.978860992496902
2011-06-15,-1,-0.0020266751763060925,-0.0019228143979552396,-0.009257425345075922,0.02028298821305938,0.9810134231094056
2011-06-17,1,0.0007018802550661276,0.0009678055711071395,-0.021388177464766508,0.018543126640845013,0.9807845501472504
2011-06-21,1,0.0030600970131558435,0.0037080520875282267,-0.021388177464766508,0.018543126640845013,0.9815659040621778
2011-06-23,1,0.00048274877958909474,0.0006548357513322433,-0.0090875887117771,0.01979177826202402,0.980066518317098
2011-06-27,1,0.0020963410796597222,0.002459032117271202,-0.023376601661994168,0.018543126640845013,0.9802571074104659
2011-06-29,1,0.0004621661771999233,0.0004700906673403423,-0.023376601661994168,0.018543126640845013,0.9794510984441671
2011-07-01,1,0.0015371444865987923,0.0016427039246678194,-0.023470687809824923,0.017787507406558017,0.9813651107570147
2011-07-06,1,0.001984984253748524,0.002195814888086755,-0.023470687809824923,0.0183015340827153,0.9803559568020058
2011-07-08,1,0.0021516792741347267,0.0025049998779605536,-0.023470687809824923,0.0183015340827153,0.9797114462368137
2011-07-12,1,0.0032110965350473143,0.003793062626184423,-0.02389742875227779,0.018326159725513762,0.9753786833725024
2011-07-14,1,0.00483914514071092,0.005568077828353015,-0.025021549837493568,0.017715185101447598,0.9712142777123873
2011-07-18,1,0.0048541877903136785,0.005597189549335694,-0.025021549837493568,0.017715185101447598,0.968873457612682
2011-07-20,1,0.004866015266471315,0.00560361815077135,-0.02589518760078325,0.015287112932225982,0.9679485952686567
2011-07-22,1,0.006419659472939517,0.007193260033358932,-0.029114154348432383,0.012588986376865051,0.9659952788418682
2011-07-26,1,0.00502675621127739,0.005626083256301512,-0.029114154348432383,0.015287112932225982,0.96771980019899
2011-07-28,1,0.004518621661600669,0.004934621565838936,-0.029114154348432383,0.014689027443419888,0.9674730428495456
2011-08-01,1,0.004211558105270715,0.004662245212629982,-0.027915771346720127,0.01592092863502931,0.9673084209661267
2011-08-03,1,0.0028194086483956517,0.0030627858564958553,-0.02363738764984434,0.014689027443419888,0.9695744042652877
2011-08-05,1,0.000958382214859499,0.0010064526232445997,-0.028708823742050273,0.014689027443419888,0.9674771840560358
2011-08-09,-1,-0.0015003451424891931,-0.001218219963065162,-0.02146012407659099,0.014689027443419888,0.9713966892490463
2011-08-11,-1,-0.005635798876162857,-0.0048750301404858745,-0.02146012407659099,0.01539589926103571,0.9733331651752024
2011-08-15,-1,-0.002302340268422262,-0.0019647035933005033,-0.019047408861769727,0.01539589926103571,0.9759760976281987
2011-08-17,-1,-0.0014204240778911816,-0.0012457149037962746,-0.01419674960349503,0.01539589926103571,0.9774602371633
2011-08-19,-1,-0.0024136421750897757,-0.002137737653922454,-0.01419674960349503,0.01539589926103571,0.9789279132620228
2011-08-23,-1,-0.002308497398610577,-0.0019891055431790496,-0.02147598149998998,0.008361041640491253,0.9778651878860231
2011-08-25,-1,-0.002064860517242067,-0.0018363923874474136,-0.026546409480714597,0.005859644736811121,0.976685263772686
2011-08-29,-1,-0.0007465033572261048,-0.0006754652479018662,-0.026546409480714597,0.005859644736811121,0.9766553378645042
2011-08-31,-1,-0.0010726465630266988,-0.0009274268216169044,-0.032834480550355885,0.008605439980689508,0.9724313549702207
2011-09-02,-1,-0.0020798753128425437,-0.0018562825804498578,-0.032834480550355885,0.008605439980689508,0.9734116775102195
2011-09-07,-1,-0.0003266987116290041,-0.0002834762246883633,-0.04081281400093176,0.008605439980689508,0.9701292508034995
2011-09-09,-1,-0.0016758031009599886,-0.0014907547924578554,-0.0321676135249583,0.009254809751813768,0.9715724814721688
2011-09-13,1,0.0004000437349343678,0.00046572183174084167,-0.0321676135249583,0.009254809751813768,0.9713166617494747
2011-09-15,1,0.0006527717629532158,0.0007630224831233906,-0.0321676135249583,0.020100287351746918,0.970245823905799
2011-09-19,-1,-0.0011834084018572475,-0.0010578562753533489,-0.0321676135249583,0.020100287351746918,0.9693372656097328
2011-09-21,-1,-0.0029160489550662818,-0.002602240986336193,-0.03691818190513141,0.024599889307419454,0.9690199388968265
2011-09-23,-1,-0.004200850541283715,-0.0036770998320118362,-0.016639738442721104,0.024599889307419454,0.9690752989605641
2011-09-27,-1,-0.0038171458702647614,-0.0032910007573056675,-0.03691818190513141,0.022783965552964337,0.9686671905177139
2011-09-29,-1,-0.0050998962247047535,-0.004514711525151488,-0.0169962718128564,0.024599889307419454,0.9699909003914602
2011-10-03,-1,-0.00757732689881669,-0.006707318615754727,-0.01343138512214914,0.024599889307419454,0.9704791515913198
2011-10-05,-1,-0.004269639715125112,-0.0037701520096756775,-0.011712173802516032,0.024599889307419454,0.9749989309610604
2011-10-07,-1,-0.0027692512202819085,-0.00242899016255945,-0.0164250794932688,0.022783965552964337,0.9751727494438411
2011-10-11,-1,-0.00012703730476891045,-0.00011644733046110658,-0.0164250794932688,0.022783965552964337,0.9757168256225721
2011-10-13,1,0.0002525418762075704,0.0005001995485851557,-0.02425154363750046,0.019212553373651554,0.973323208342276
2011-10-17,-1,-0.0011734773898680558,-0.0011326497846567503,-0.019284553761167816,0.022410420763252222,0.974742225878239
2011-10-19,-1,-0.0009804795574015856,-0.0009575381952116119,-0.019284553761167816,0.019212553373651554,0.9750727880003314
2011-10-21,1,7.508258888500182e-05,0.00018530924787000353,-0.019284553761167816,0.014725893675104382,0.9767281493685931
2011-10-25,-1,-0.0010221109599410452,-0.0009851873783598072,-0.015659026262935364,0.014725893675104382,0.9788600657943669
2011-10-27,-1,-0.0003647471512258671,-0.0003381364622668249,-0.019284553761167816,0.007450904538483833,0.9802591300915644
2011-10-31,-1,-0.0008053118511145554,-0.0007295007181049944,-0.015659026262935364,0.009684741450522302,0.9795307931253858
2011-11-02,-1,-0.0031063228625523636,-0.0027619937366599465,-0.013629616549639746,0.009097158815049414,0.9808613525422526
2011-11-04,-1,-0.0042041837567981495,-0.0036620739719277224,-0.011490622250876457,0.014828145136391597,0.9789605743359037
2011-11-08,-1,-0.0004472917250790333,-0.0004397965063866171,-0.011490622250876457,0.012822799642361354,0.9802954781380941
2011-11-10,-1,-0.0005792233789806095,-0.0005416226873205675,-0.011490622250876457,0.016711213667665935,0.9804814527505029
2011-11-14,-1,-0.0011764644309135474,-0.0010743679414530528,-0.012802291657525403,0.012822799642361354,0.9808012388124988
2011-11-16,-1,-0.00168886348034691,-0.0016301777956919449,-0.011687247829309324,0.012822799642361354,0.9828662288545462
2011-11-18,-1,-0.0016696386005667077,-0.0016260846433731923,-0.01698310346372044,0.012822799642361354,0.9809581419759276
2011-11-22,-1,-0.0013784317034107336,-0.0013197870325585828,-0.01698310346372044,0.012897769508442005,0.9809500164843828
2011-11-25,-1,-0.002694644564962284,-0.0025706360971662406,-0.016270709439201118,0.017708807114860965,0.9788636936947749
2011-11-29,-1,-0.0017388680022908786,-0.0016918646428706536,-0.016270709439201118,0.017005491071213897,0.9796625599329476
2011-12-01,-1,-0.0012990266442440505,-0.0012738771504227256,-0.016270709439201118,0.017005491071213897,0.980126906346234
2011-12-05,1,0.002274463314098131,0.0028370019949173755,-0.016270709439201118,0.011761018178676634,0.9828906529143778
2011-12-07,1,0.0033634196077186266,0.004092408479135796,-0.016270709439201118,0.011761018178676634,0.981385690334046
2011-12-09,1,0.003441489236009043,0.004248514521130219,-0.012489550930926525,0.01519739240602021,0.9828709095358698
2011-12-13,1,0.003531355837905194,0.004495041983709318,-0.010757322392173762,0.01519739240602021,0.9842802739923382
2011-12-15,1,0.00255270615564799,0.0032929967634512886,-0.010757322392173762,0.01519739240602021,0.9823862728858517
2011-12-19,1,0.001503843110012105,0.002148643344409869,-0.007400628576262827,0.024409745008753512,0.9828456331103679
2011-12-21,1,0.0015488886208648712,0.0021664129994500418,-0.008007915558007072,0.024409745008753512,0.9819200950330949
2011-12-23,1,0.0027678630334602313,0.0035200944444330976,-0.004768300671150308,0.019662208228101045,0.9845381692432995
2011-12-28,1,0.0030337582120913533,0.003757619932675672,-0.007168452042999273,0.015392354084757117,0.9852267070742579
2011-12-30,1,0.002862861270276158,0.0035902431610493305,-0.008007915558007072,0.015392354084757117,0.9840641840981229
2012-01-04,1,0.0010520219605807258,0.0013349910006188576,-0.007168452042999273,0.02016759347290605,0.9826587290330329
2012-01-06,1,0.0035220422952563376,0.004219473623854587,-0.007168452042999273,0.02016759347290605,0.9829095915225682
2012-01-10,1,0.005218665051813676,0.006125071573599022,-0.008007915558007072,0.008929248874593057,0.983663009253883
2012-01-12,1,0.0039833889997060706,0.004581836049484025,-0.008824632045713893,0.006398206256208558,0.9827851500849483
2012-01-17,1,0.0025939565137427685,0.003041019092894029,-0.008824632045713893,0.015392354084757117,0.9834676544757954
2012-01-19,0,0.0,0.0,-0.008824632045713893,0.015392354084757117,0.9847992051364142
2012-01-23,0,0.0,0.0,-0.00711125700010316,0.007184414646709559,0.9863616548939321
2012-01-25,0,0.0,0.0,-0.008824632045713893,0.008037532545531217,0.9847675809886361
2012-01-27,0,0.0,0.0,-0.00876743700281778,0.013365679995316977,0.9846011851874379
2012-01-31,0,0.0,0.0,-0.00876743700281778,0.013365679995316977,0.9848092578964721
2012-02-02,0,0.0,0.0,-0.01395498392563315,0.013365679995316977,0.9839032055131164
2012-02-06,0,0.0,0.0,-0.016075065091062678,0.005272549440157367,0.9837028230234727
2012-02-08,0,0.0,0.0,-0.016075065091062678,0.010780708545772422,0.98363055536599
2012-02-10,0,0.0,0.0,-0.011943430124115502,0.010780708545772422,0.9847894556534159
2012-02-14,0,0.0,0.0,-0.00825222239447079,0.010780708545772422,0.9857576106297463
2012-02-16,1,0.0008423851809324588,0.0008480447657905041,-0.011943430124115502,0.010707872950014036,0.9855164752927386
2012-02-21,0,0.0,0.0,-0.011943430124115502,0.011102236725985154,0.9850371608440639
2012-02-23,0,0.0,0.0,-0.00825222239447079,0.01088008627434602,0.9866391718151072
2012-02-27,0,0.0,0.0,-0.00825222239447079,0.01287653942511922,0.9854335429941252
2012-02-29,0,0.0,0.0,-0.00825222239447079,0.01287653942511922,0.9854429057004835
2012-03-02,0,0.0,0.0,-0.00825222239447079,0.011102236725985154,0.9859280331839295
2012-03-06,0,0.0,0.0,-0.007259593216077265,0.01287653942511922,0.9866166551095991
2012-03-08,0,0.0,0.0,-0.011781618252340106,0.012658032637844062,0.9857395487624874
2012-03-12,0,0.0,0.0,-0.014558712048601472,0.012658032637844062,0.9836752965422229
2012-03-14,1,0.0,0.0004924558294599164,-0.014558712048601472,0.01227204703297281,0.9846733741360043
2012-03-16,0,0.0,0.0,-0.014885898808211461,0.012122732177092064,0.9846120337809446
2012-03-20,0,0.0,0.0,-0.015763577980754905,0.00870757294188401,0.9847232842086096
2012-03-22,0,0.0,0.0,-0.015763577980754905,0.008008024483768833,0.9850184877022963
2012-03-26,0,0.0,0.0,-0.015763577980754905,0.007576200834589097,0.9859574574712712
2012-03-28,0,0.0,0.0,-0.015763577980754905,0.008008024483768833,0.9858074435158332
2012-03-30,1,0.0004666826284947251,0.0005332462270338412,-0.014885898808211461,0.008008024483768833,0.9881065631488242
2012-04-03,1,0.00163609906440042,0.0019337357010157626,-0.014885898808211461,0.007999992370605646,0.9882680590824691
2012-04-05,-1,-0.0010361713013975061,-0.0008572296599813322,-0.012830276430206665,0.007999992370605646,0.9893623687440408
2012-04-10,-1,-0.002976464441125885,-0.0025790327359220423,-0.008929679049470068,0.008040217711465552,0.9899625300807003
2012-04-12,0,0.0,0.0,-0.011753478398442947,0.008008024483768833,0.9899321225021877
2012-04-16,0,0.0,0.0,-0.011753478398442947,0.008008024483768833,0.9899094936074411
2012-04-18,0,0.0,0.0,-0.011753478398442947,0.008008024483768833,0.9900695703311174
2012-04-20,0,0.0,0.0,-0.011992442752097321,0.005073765580995772,0.9896298536669415
2012-04-24,-1,-0.004243668114855539,-0.003586729643147531,-0.012488997948810126,0.00414214257702533,0.9903012460628303
2012-04-26,-1,-0.0033904243055091115,-0.0028365208648815374,-0.012488997948810126,0.004124186604144059,0.9898665952249792
2012-04-30,-1,-0.0020205203382521724,-0.0017702440244036725,-0.012488997948810126,0.004219632436080063,0.9891624787987665
2012-05-02,-1,-0.0020052143198923695,-0.0017981779683057548,-0.012488997948810126,0.005245939606579562,0.9873284262508953
2012-05-04,0,0.0,0.0,-0.013758580526400985,0.005245939606579562,0.9846913549015737
2012-05-08,-1,-0.003011840309427874,-0.002575202799368294,-0.013758580526400985,0.0053510460365789395,0.9839422313596955
2012-05-10,-1,-0.00429954403439572,-0.0036889783933949528,-0.012488997948810126,0.010621858556096665,0.9834717227616266
2012-05-14,0,0.0,0.0,-0.00629065694798807,0.01845779500124614,0.9832045720995507
2012-05-16,0,0.0,0.0,-0.00106382881585903,0.020218538591881087,0.9827086951406677
2012-05-18,0,0.0,0.0,-0.002862592814900907,0.020218538591881087,0.9822653786760099
2012-05-22,0,0.0,0.0,0.0,0.020218538591881087,0.9819756100783451
2012-05-24,0,0.0,0.0,-0.002862592814900907,0.017323299508165912,0.9810352101885287
2012-05-29,0,0.0,0.0,-0.013269444110070874,0.016770999330608417,0.9799755480821043
2012-05-31,0,0.0,0.0,-0.01879786663100672,0.016770999330608417,0.9799233148724737
2012-06-04,0,0.0,0.0,-0.002862592814900907,0.020218538591881087,0.9822900250246107
2012-06-06,0,0.0,0.0,-0.002862592814900907,0.016770999330608417,0.9841941148227177
2012-06-08,0,0.0,0.0,-0.00845960226312649,0.015718735271365938,0.9848440151290976
2012-06-12,1,0.0007592488091045304,0.0009516066515294363,-0.00845960226312649,0.012724709213309121,0.9865834509723874
2012-06-14,0,0.0,0.0,-0.00845960226312649,0.012724709213309121,0.985882832016205
2012-06-18,-1,-0.00017495299126993384,-3.4622711365166745e-05,-0.00372795006839224,0.012724709213309121,0.9868416346215805
2012-06-20,1,0.0006329457280426745,0.0008714230859119161,-0.004685215908345386,0.011116590250588561,0.9873687051041959
2012-06-22,-1,-0.00047444576217680755,-0.00042757681530169924,-0.0091812354697253,0.008335360732069367,0.9859894940337145
2012-06-26,-1,-0.0003123494147835833,-0.00017780106458435962,-0.0091812354697253,0.004946424824957138,0.9856617342349699
2012-06-28,0,0.0,0.0,-0.0091812354697253,0.004946424824957138,0.9848803307286367
2012-07-02,1,0.0009500849683762215,0.0011554497232520188,-0.0091812354697253,0.003854775041096448,0.9863577900329241
2012-07-05,1,0.0026678910977315567,0.00314225162375278,-0.015854713915840743,0.003854775041096448,0.9827907727894347
2012-07-09,1,0.0013620156888364296,0.001694625550933881,-0.015854713915840743,0.005210517665706394,0.981366577131207
2012-07-11,1,0.0017666011678332807,0.0021998132358102412,-0.015854713915840743,0.008160840794805828,0.9813072975592089
2012-07-13,1,0.0030293371824592456,0.00361696614099206,-0.015854713915840743,0.008160840794805828,0.982295683613579
2012-07-17,1,0.0037733672234208,0.004513283883344804,-0.015854713915840743,0.005081797694158959,0.9817238220168077
2012-07-19,1,0.0035653854800581715,0.004297947791917572,-0.01098438329266608,0.005081797694158959,0.9828970000224424
2012-07-23,1,0.000209547394664044,0.0004566190664159472,-0.0009881413612984383,0.008160840794805828,0.9852172715254484
2012-07-25,-1,-0.0012774258951643177,-0.0012581444867702598,-0.0009505920576700976,0.009294886196389102,0.9859720454353389
2012-07-27,0,0.0,0.0,0.0,0.008160840794805828,0.9892378817887042
2012-07-31,0,0.0,0.0,-0.0009505920576700976,0.008160840794805828,0.9884949488672524
2012-08-02,-1,-0.0015936938335020382,-0.0014537620220135643,-0.0009505920576700976,0.008886706182210154,0.9898695201062577
2012-08-06,0,0.0,0.0,-0.0009505920576700976,0.008886706182210154,0.9923074562934487
2012-08-08,0,0.0,0.0,-0.0009505920576700976,0.011461430124773528,0.9899504245045758
2012-08-10,0,0.0,0.0,-0.00492520656433681,0.011385334370924984,0.9889646484665682
2012-08-14,0,0.0,0.0,-0.004690009694714755,0.011385334370924984,0.9888196913018645
2012-08-16,0,0.0,0.0,-0.004690009694714755,0.011505385955726338,0.9856599544678245
2012-08-20,0,0.0,0.0,-0.007010642211913514,0.011461430124773528,0.98630041052898
2012-08-22,0,0.0,0.0,-0.008355629411349031,0.011385334370924984,0.9858674521747989
2012-08-24,0,0.0,0.0,-0.008355629411349031,0.011461430124773528,0.98539140089327
2012-08-28,1,0.00360574836796488,0.004151743370127988,-0.008962993578577824,0.011461430124773528,0.9845489780545034
2012-08-30,1,0.0022210018730544024,0.002433826328064859,-0.008962993578577824,0.011396302236633068,0.9844073299186986
2012-09-04,1,0.00453232923344557,0.005032919947424312,-0.008962993578577824,0.012019239937173094,0.9829798130971025
2012-09-06,1,0.004929883442976489,0.005504822059337265,-0.013994510583623694,0.010567046521274394,0.9839257915696379
2012-09-10,1,0.003374007144405297,0.003688118844063745,-0.008962993578577824,0.010567046521274394,0.9849917583811122
2012-09-12,1,0.0026252478679633802,0.002836349473973251,-0.011720343861134516,0.010567046521274394,0.9849049894113037
2012-09-14,1,0.005297280899115388,0.005852139526578846,-0.014048579146560224,0.0018656698160751943,0.9858320319778833
2012-09-18,1,0.003910852848389115,0.004475032384598409,-0.014048579146560224,0.008210268246536123,0.9870785534589636
2012-09-20,1,0.003420902429869882,0.003889795826089672,-0.015575381851338074,0.008324279574568357,0.9864597257646951
2012-09-24,1,0.0033871908070872356,0.0038039208631788957,-0.01837200386013159,0.0046537711870440375,0.9843415577675325
2012-09-26,1,0.0013783647530735057,0.001484629371266023,-0.017889243234380445,0.004853714786568891,0.9860881826413305
2012-09-28,0,0.0,0.0,-0.017889243234380445,0.008324279574568357,0.9853554297317271
2012-10-02,0,0.0,0.0,-0.017889243234380445,0.01095958545865346,0.9852353066574433
2012-10-04,1,0.0015235898351464983,0.0015281641932327525,-0.01837200386013159,0.01115287133114574,0.9824762480357752
2012-10-08,0,-0.00017447921371110085,6.05405657106298e-05,-0.019550380058682905,0.01115287133114574,0.9822824137216043
2012-10-10,-1,-0.0016075983187007615,-0.001153699894358521,-0.021515200807696984,0.01115287133114574,0.9794898105907759
2012-10-12,-1,-0.002411528864502363,-0.0018402433536997612,-0.021515200807696984,0.011663763542854002,0.9793234589416663
2012-10-16,-1,-0.0015955720709308115,-0.0011960042872085205,-0.02637453134247149,0.01153845050491847,0.9782250457742617
2012-10-18,-1,-0.002203536715740307,-0.0017545805909999633,-0.023262788437795532,0.013615371983431882,0.9776422184661452
2012-10-22,-1,-0.0034468336611561306,-0.002941303306783805,-0.020286220400566865,0.013615371983431882,0.9789790493958904
2012-10-24,-1,-0.006179543570433006,-0.00513127531224756,-0.020286220400566865,0.013615371983431882,0.9796575359365275
2012-10-26,-1,-0.0049626092025313664,-0.0041532607152027345,-0.018400852861427848,0.009931576192764297,0.9819217681560031
2012-11-01,-1,-0.002852179487413364,-0.002256186861478108,-0.018400852861427848,0.0056053757722677065,0.9816323939568276
2012-11-05,-1,-0.00246807911033027,-0.0020550542102782555,-0.018400852861427848,0.0056053757722677065,0.9830121501352008
2012-11-07,-1,-0.0027839728297840097,-0.0023882442152117003,-0.014229243114579482,0.0056053757722677065,0.9838655493249399
2012-11-09,-1,-0.006241223744547909,-0.005395725736337309,-0.01281224321058105,0.012876242321143483,0.9850220217210877
2012-11-13,-1,-0.005168897656936797,-0.0044296726514696065,-0.014229243114579482,0.01314582503240363,0.983634160228052
2012-11-15,-1,-0.0072074001562993685,-0.006194021782173884,-0.009955742759855418,0.01314582503240363,0.9829523196778732
2012-11-19,-1,-0.007423741306153527,-0.006417817319384813,-0.005560598358321262,0.01314582503240363,0.9808096281553186
2012-11-21,-1,-0.007148898211700531,-0.006209291715379558,-0.005560598358321262,0.015645226647446782,0.9794192768980216
2012-11-26,-1,-0.005872302427774088,-0.005142547101285054,-0.011677479574957848,0.015645226647446782,0.9787439254374675
2012-11-28,-1,-0.005917684780963358,-0.005203585808936318,-0.014337829236287177,0.015645226647446782,0.9776543165317604
2012-11-30,-1,-0.003976606117285186,-0.003472430608048733,-0.0202862620025321,0.015645226647446782,0.9777739132828331
2012-12-04,-1,-0.0051229722487944555,-0.0045021945506285846,-0.014337829236287177,0.020615776800974397,0.9779036317316888
2012-12-06,-1,-0.004079963553265481,-0.003678830585888962,-0.016851330270615212,0.020615776800974397,0.9779529260330859
2012-12-10,-1,-0.0019047392301962747,-0.001789499991915662,-0.016851330270615212,0.02012095040364296,0.9789083964200278
2012-12-12,-1,-0.002564242821782208,-0.0023455949256253983,-0.013234515679753266,0.01726496155775643,0.9812183623495309
2012-12-14,-1,-0.005047090511702773,-0.004381016277513,-0.01217174242350855,0.01726496155775643,0.9823715711658267
2012-12-18,-1,-0.0023743408705170915,-0.001949900612946194,-0.012282835032826067,0.013495845231172445,0.9853844380270669
2012-12-20,-1,-0.0012168572553877997,-0.0009757691915079256,-0.0121337934339026,0.016326514724293247,0.9849179244047686
2012-12-24,-1,-0.0030699666685884315,-0.0026225562658826265,-0.011952753622233728,0.016326514724293247,0.9851817786352045
2012-12-27,-1,-0.005358200417865545,-0.0044561303224133824,-0.008976181938354637,0.016326514724293247,0.9858497369327789
2012-12-31,-1,-0.0015470736562052895,-0.0013007443951104788,-0.0076390902771920465,0.015532068190273175,0.9880209020825119
2013-01-03,1,0.00047632317734096956,0.000501766598886408,-0.0076390902771920465,0.011786421190743347,0.9891876868894921
2013-01-07,-1,-0.00014937058334533744,-0.00013211856165696296,-0.004020108855732843,0.011786421190743347,0.9896360797394367
2013-01-09,-1,-0.00014728995652853118,-0.00010964301828125156,-0.0038130011078263215,0.011354388506921711,0.9897455187129548
2013-01-11,-1,-0.0006760911106433994,-0.000592450672460422,-0.003636945787586217,0.011354388506921711,0.9901564475282547
2013-01-15,-1,-0.00056502551162404,-0.0005469810694376034,-0.0009025262213099788,0.011786421190743347,0.989634123367776
2013-01-17,-1,-0.0003309697742730272,-0.00029917792219758774,-0.0008833914074953129,0.011354388506921711,0.990618381434009
2013-01-22,1,0.0023529891813501257,0.0027589429044590453,-0.0035620982159866497,0.01110107971511271,0.9934756665549689
2013-01-24,1,0.003211816344886588,0.0037078444572140852,-0.003636945787586217,0.010979195969268447,0.9921011437528906
2013-01-28,1,0.0027530166584223328,0.0031690232492880225,-0.003636945787586217,0.01110107971511271,0.9910733461530807
2013-01-30,1,0.0034314134572153952,0.003972135795529473,-0.0037348333924192415,0.01110107971511271,0.9897027292805614
2013-02-01,1,0.004894701755291872,0.005793744205011088,-0.004577862494021843,0.010979195969268447,0.9877039025764757
2013-02-05,1,0.004332385324382047,0.00508864317550003,-0.004577862494021843,0.01110107971511271,0.9867988564922855
2013-02-07,1,0.005220580207501203,0.0060974057578951435,-0.004577862494021843,0.011225700050653454,0.9863613679201787
2013-02-11,1,0.006080482603284749,0.007211492380251617,-0.00904177341589369,0.01301953883866363,0.9837687764790793
2013-02-13,1,0.006969248936846226,0.00822068491707067,-0.00904177341589369,0.012923177626073019,0.9838051248680592
2013-02-15,1,0.0069936609972986435,0.008248879225199835,-0.00904177341589369,0.012923177626073019,0.9837286438054862
2013-02-20,1,0.0069181164536741575,0.008183695351445992,-0.01664615031250063,0.012923177626073019,0.982400267576848
2013-02-22,1,0.004917142781493508,0.0058235021717819736,-0.014534014761886413,0.018014836437241846,0.9827864399960964
2013-02-26,1,0.004255546429294049,0.005035840433219285,-0.014534014761886413,0.018014836437241846,0.9823335397346553
2013-02-28,1,0.0037549510662072336,0.004524103548085282,-0.014286251504693282,0.018995909257218238,0.9825008438746621
2013-03-04,1,0.002166357902282893,0.0027129289871468234,-0.014286251504693282,0.018995909257218238,0.9819953982682746
2013-03-06,1,0.003562907736091787,0.004244851845989852,-0.014534014761886413,0.01825486978350745,0.9817607400505725
2013-03-08,1,0.004517681470405886,0.0052860988535562625,-0.014534014761886413,0.019072943313648946,0.9811756716323107
2013-03-12,1,0.006153913670279969,0.007124277359245449,-0.014286251504693282,0.01781049107993301,0.9840143932327413
2013-03-14,1,0.007368464343564099,0.008537353984353626,-0.016906718204315004,0.012352407501481272,0.9821147355255374
2013-03-18,1,0.006935620472458459,0.007963669511888037,-0.024710685831578587,0.010130603116387983,0.9805297631896416
2013-03-20,1,0.003648566063269542,0.004112586729579985,-0.02096022633634588,0.010130603116387983,0.9815645160519617
2013-03-22,1,0.00382341619721203,0.004282892633525921,-0.02096022633634588,0.007617970102489741,0.9828685758911836
2013-03-26,1,0.002461221159832043,0.00276892387656534,-0.016637262919078907,0.010512625384503888,0.9839440493189529
2013-03-28,1,0.004613119835005365,0.00528986344176475,-0.02096022633634588,0.007327197589298444,0.9832424140493033
2013-04-02,1,0.0025194134948199882,0.0028899279293767336,-0.016637262919078907,0.007617970102489741,0.9852272085275958
2013-04-04,1,0.0017657944223123815,0.0019708848075645474,-0.016637262919078907,0.007617970102489741,0.9857916096905998
2013-04-08,1,0.0008577244688067919,0.0008976741987897384,-0.016637262919078907,0.007617970102489741,0.9854114803838709
2013-04-10,1,0.0010537725700583,0.0010759655516550135,-0.016637262919078907,0.007813946208331111,0.9853791399514205
2013-04-12,-1,-0.0016770564885542033,-0.001236503874086001,-0.006913191838920815,0.009811965642403237,0.9857823176725953
2013-04-16,-1,-0.003598744980825817,-0.0029440087683037467,-0.003887812783577459,0.01498189392141061,0.9853783463367748
2013-04-18,-1,-0.005464522070278703,-0.004579204296091392,0.0,0.01520979831899425,0.9842137074029458
2013-04-22,-1,-0.00534641915195841,-0.004471985822774465,0.0,0.01520979831899425,0.9838050087050094
2013-04-24,-1,-0.004163899675536684,-0.003404703239570402,0.0,0.01498189392141061,0.9849020410869197
2013-04-26,-1,-0.004624284844433084,-0.003910853335997816,0.0,0.01498189392141061,0.9859672702368798
2013-04-30,-1,-0.004652001980426311,-0.003908301053148655,0.0,0.01498189392141061,0.9850406298539759
2013-05-02,-1,-0.00579426063181193,-0.004917989538300173,0.0,0.01520979831899425,0.9821800191832727
2013-05-06,-1,-0.003983393041561107,-0.0033899914671535166,0.0,0.01520979831899425,0.9839481896993322
2013-05-08,-1,-0.004050039915546307,-0.0034101640425816954,0.0,0.01563687654365786,0.983205826907921
2013-05-10,-1,-0.0029693733002423006,-0.002441838638580905,0.0,0.016824051637648708,0.9837451997562037
2013-05-14,-1,-0.00013283546869902004,-9.137705171236597e-05,-0.0008960565053749291,0.016824051637648708,0.9861016968607262
2013-05-16,1,0.0006251593314318764,0.0006952753035363057,-0.006873777719908599,0.01477450343076355,0.9852363160131432
2013-05-20,1,0.00032352273970768445,0.0003815334847352503,-0.006873777719908599,0.017118236287788878,0.9847126440151889
2013-05-22,-1,-0.0011293928884607025,-0.0008944758368478339,-0.009997806190244138,0.017118236287788878,0.9836370859413939
2013-05-24,-1,-0.0005631685841643254,-0.000412686625741212,-0.013627220365331908,0.017118236287788878,0.9821610716603149
2013-05-29,1,0.0017666503282629984,0.0019512454562907514,-0.013627220365331908,0.017118236287788878,0.981955850588821
2013-05-31,1,0.0035813627095567747,0.003935601633856822,-0.016705964846737822,0.013562069955709735,0.9828391612408174
2013-06-04,1,0.0034339531906077128,0.003769212050563718,-0.016705964846737822,0.014286878998258201,0.982127430541181
2013-06-06,1,0.003674036122184323,0.00399908834743673,-0.016705964846737822,0.007886427620333078,0.9827625510411878
2013-06-10,1,0.00432642340476584,0.0046990384931950525,-0.016705964846737822,0.0015772855240666227,0.9827653459578882
2013-06-12,1,0.0034936985445792315,0.0037467573604239553,-0.016705964846737822,0.00801054202124798,0.9834602017637905
2013-06-14,1,0.002889607865133987,0.0031939096842967417,-0.013627220365331908,0.01393441315845444,0.9844047266224524
2013-06-18,1,0.0039711027866902145,0.0044682602814855865,-0.013627220365331908,0.005705867667743586,0.9845344038595899
2013-06-20,1,0.001843304269084516,0.0020386210423437782,-0.006655623170147038,0.012956153554409548,0.987015916187989
2013-06-24,1,0.0004067024412659207,0.00042939954765787804,-0.0032815420951482423,0.012956153554409548,0.9884554609882357
2013-06-26,1,0.0014485516406264828,0.001622970306557439,-0.0032815420951482423,0.012956153554409548,0.9859619380725643
2013-06-28,1,0.0003783580973864257,0.0004195119389278179,-0.0032815420951482423,0.012956153554409548,0.9862008832578119
2013-07-02,1,0.002081785124579827,0.0023937079402531754,-0.008918304464082634,0.01277995339844393,0.9870814338385607
2013-07-05,1,0.001988999458719871,0.0022779778226662386,-0.00993213411304765,0.012956153554409548,0.9846304785471932
2013-07-09,1,0.002368504817331023,0.002896867350054438,-0.00993213411304765,0.012956153554409548,0.9806925521808814
2013-07-11,1,0.002775680967207779,0.003359522030845997,-0.00993213411304765,0.01277995339844393,0.9810774042163201
2013-07-15,1,0.0027555884235712456,0.003322950605853506,-0.00993213411304765,0.01277995339844393,0.980594253663643
2013-07-17,1,0.0021072352495722425,0.0025217154235620534,-0.00993213411304765,0.01277995339844393,0.9799538355881203
2013-07-19,1,0.0026942581723907845,0.0031650953962236404,-0.012984977789425851,0.013695312664679252,0.9787043348479856
2013-07-23,1,0.0024412443585894554,0.0028187972740758,-0.016875105273077513,0.017082068945213188,0.9767349270960436
2013-07-25,1,0.0034334184417592357,0.0038314931013459508,-0.021134171091459535,0.01271205587514377,0.9786778204589737
2013-07-29,1,0.0031459719952244268,0.0035801642905592215,-0.018675123297470814,0.01271205587514377,0.9790673206605063
2013-07-31,1,0.0027762847023555205,0.0031975703521866677,-0.022364651493055616,0.013435662826313472,0.9787577737872842
2013-08-02,1,0.003166481650988907,0.0036927873957144897,-0.0214165627428064,0.011508797356579989,0.9800040146232943
2013-08-06,1,0.006058389372332468,0.007002229439747996,-0.0214165627428064,0.01226072003137476,0.9831926245490751
2013-08-08,1,0.005925379389802094,0.006850868933953283,-0.0214165627428064,0.01226072003137476,0.9824853584659036
2013-08-12,1,0.004666717046879178,0.005298573400185668,-0.01840657700569072,0.01226072003137476,0.9838312294185096
2013-08-14,1,0.004751841940918024,0.0054062896503455264,-0.01840657700569072,0.01226072003137476,0.9842663829424094
2013-08-16,1,0.0036880422287031258,0.004133176479134352,-0.01697822119572099,0.01226072003137476,0.9850804322788849
2013-08-20,1,0.0043572323138032784,0.0049651923653672644,-0.01321067736755787,0.01223240430774969,0.9872880534127811
2013-08-22,1,0.002212446683199092,0.0024301536498969574,-0.006660104593423524,0.01223240430774969,0.9885645914102499
2013-08-26,1,0.0013208329100324015,0.0014210363072414583,-0.006660104593423524,0.01223240430774969,0.9890461711200333
2013-08-28,1,0.0009748764520959591,0.0010675199777111404,-0.006660104593423524,0.011986717487757155,0.9899693747792122
2013-08-30,1,0.0002530672368979677,0.000258564109531625,-0.006660104593423524,0.011986717487757155,0.9904206945442873
2013-09-04,1,0.0003943299784868482,0.0004449748007012904,-0.006660104593423524,0.011547625867350532,0.9906753072413966
2013-09-06,-1,-0.0015899541711817983,-0.001260557060845124,-0.0014124280467537177,0.011547625867350532,0.9906457731205226
2013-09-10,-1,-0.0019412364305836105,-0.0015049588021019372,-0.008421157185835429,0.00642898276342728,0.9914221174648421
2013-09-12,-1,-0.002073240698078343,-0.0016203872073839367,-0.008421157185835429,0.00642898276342728,0.9909707837148356
2013-09-16,-1,-0.0006680828267652605,-0.0004040154858891029,-0.008421157185835429,0.005734770389808463,0.992105655740005
2013-09-18,-1,-0.0008316315918162295,-0.0004883183327814416,-0.008421157185835429,0.0035800560134457093,0.9926842304919685
2013-09-20,-1,-0.0010079613177943337,-0.000674574551887918,-0.008421157185835429,0.005734770389808463,0.9913728902898981
2013-09-24,-1,-0.002260890530896352,-0.0017273585993589984,-0.006111529723943399,0.007013040783670184,0.9910483544258797
2013-09-26,-1,-0.0021587262631481492,-0.0016690082690212654,0.0007698424804030808,0.010724082794457121,0.9909043459298454
2013-09-30,-1,-0.00243740676869705,-0.001919596574358035,0.0028268904159344903,0.014041500606807578,0.9886693850330281
2013-10-02,-1,-0.001356533290836661,-0.0010067183293608049,0.001477017280924727,0.01370850067365514,0.9896050450488846
2013-10-04,-1,-0.0008255504022455989,-0.0005765323849854873,-0.0032260640678241238,0.01370850067365514,0.9893038133396834
2013-10-08,-1,-0.0012504646438980351,-0.0009787993354440831,0.001254698047053073,0.01370850067365514,0.9896180927894828
2013-10-10,-1,-0.0007014999686957686,-0.0005179598774251148,-0.003142298584481275,0.01370850067365514,0.9866967439320136
2013-10-14,-1,-0.0010972469629506026,-0.0008295336163351361,-0.0025047205286862764,0.01370850067365514,0.986459777188297
2013-10-16,-1,-0.000948922969568049,-0.0006947279074057401,-0.0025047205286862764,0.015290338914780016,0.9857717517425908
2013-10-18,1,0.0005970817960614546,0.0006230956365786801,-0.0025047205286862764,0.012971814129549621,0.9872363044098974
2013-10-22,1,0.001529612420468268,0.001728615132144948,-0.00252855251593343,0.012971814129549621,0.9878486007045323
2013-10-24,1,0.0018387339307087234,0.0020728933826897468,-0.0031712883303741317,0.01370850067365514,0.9869214563766248
2013-10-28,1,0.003490004993637148,0.003980324029891288,-0.0031712883303741317,0.012739403599495462,0.9887358006342057
2013-10-30,1,0.004370684162254057,0.005036405544330776,-0.0031712883303741317,0.011172578131400959,0.9892468819777093
2013-11-01,1,0.003863348844575532,0.004430023400072393,-0.002514383777317228,0.012739403599495462,0.9893605594863757
2013-11-05,1,0.0030990117062208566,0.0034808543082840643,-0.004911664815416653,0.012739403599495462,0.9881529413819315
2013-11-07,-1,-0.00015037619421296176,-0.00014894491801950859,-0.002509752456549825,0.012739403599495462,0.9909325276682471
2013-11-11,-1,-0.000793805309251858,-0.0006094787969012915,-0.00313766775684046,0.010672578608238118,0.9917023455974971
2013-11-13,-1,-0.001473364727883647,-0.0011228385690327848,-0.007658704507931377,0.004408392709972863,0.9912871616660509
2013-11-15,-1,-0.0006813387617340904,-0.0004690184352322017,-0.007658704507931377,0.004408392709972863,0.9912062208778185
2013-11-19,-1,-0.0022804861811042756,-0.0018163608027086434,-0.005824015548952887,0.004408392709972863,0.9915049497060164
2013-11-21,-1,-0.0011641957805474151,-0.000896857708295186,-0.005824015548952887,0.00251582914905951,0.9927733893080002
2013-11-25,-1,-0.00074638626734852,-0.0005236333220438222,-0.005824015548952887,0.004379695066820835,0.9916201011245085
2013-11-27,-1,-0.00027419056301960354,-0.00013802262717393216,-0.0077972735965090405,0.006287872754801319,0.9907733315306329
2013-12-02,1,0.000874930470770737,0.0008970319482484955,-0.008359367158845877,0.0031376679616732747,0.9901977477783515
2013-12-04,-1,-0.00037234061400974125,-0.00023446510597388722,-0.008359367158845877,0.0050865752313201534,0.9908006022159742
2013-12-06,-1,-0.0003266224790009469,-0.00019876970735746092,-0.008359367158845877,0.010948904853341965,0.9898799424552138
2013-12-10,-1,-0.000305032254083646,-0.0002253709292844866,-0.009628210151825719,0.010948904853341965,0.9887264955263695
2013-12-12,-1,-0.0016737720799998804,-0.0014609463481632138,-0.009628210151825719,0.012829137892064729,0.9872910935934736
2013-12-16,-1,-0.00041190106667577547,-0.00038146995182602864,-0.009628210151825719,0.012829137892064729,0.9861519929821099
2013-12-18,-1,-0.0010729011809357176,-0.0009685121702960374,-0.009628210151825719,0.013493412145365225,0.9853368757759519
2013-12-20,-1,-0.001809557273654143,-0.0015779019315841796,-0.012389481124979604,0.01592823393002511,0.9812522565101466
2013-12-24,1,0.000977685263566115,0.0011312347934982576,-0.015133063920154585,0.012829137892064729,0.9817283421828497
2013-12-27,1,0.0009063780397050195,0.001084877903795347,-0.012547505207204001,0.012829137892064729,0.9821107356216952
2013-12-31,1,0.0005878498422905927,0.0007181678339886093,-0.012557291750325538,0.013369132396567033,0.9807496478786268
2014-01-03,1,9.746902449322135e-05,0.00015347491246167836,-0.012344148180734144,0.013369132396567033,0.980940752959859
2014-01-07,1,0.00090231102090816,0.001071432731370487,-0.016551382962066336,0.01296956061873305,0.9792147867778387
2014-01-09,1,0.00020985469037676797,0.00025929683179323087,-0.015984654969714827,0.01296956061873305,0.9794431121496088
2014-01-13,-1,-0.0005734165246115799,-0.0005372615341098766,-0.012344148180734144,0.01296956061873305,0.9816407251894043
2014-01-15,1,5.238054315061258e-06,4.7142236573287195e-05,-0.013263324409168022,0.01296956061873305,0.9819076571256048
2014-01-17,-1,-0.00016171468129317203,-4.728758785036227e-05,-0.015984654969714827,0.01308732746274039,0.9809485314844993
2014-01-22,1,0.0014822424241082927,0.0015346877654102862,-0.02105596880093545,0.01308732746274039,0.9826350260054578
2014-01-24,-1,-0.0005600437158511509,-0.0003143330058386877,-0.015984654969714827,0.015604808267907765,0.9830338634372779
2014-01-28,1,0.00042449226969615967,0.0005152576374788465,-0.02105596880093545,0.016675486721103187,0.981270833552354
2014-01-30,-1,-0.0010202999097200204,-0.0007187537433293307,-0.015984654969714827,0.017489188513220517,0.9806997707084977
2014-02-03,-1,-0.0012616224277683112,-0.0009716000334267051,-0.02105596880093545,0.021510775982924675,0.9773725508657448
2014-02-05,-1,-0.0028811388578691725,-0.002396185212707271,-0.014755239109672559,0.022163103499169758,0.9785332304248865
2014-02-07,-1,-0.00325956027286872,-0.0027885141588970524,-0.01535080883937957,0.02312493852612128,0.9767582795559999
2014-02-11,-1,-0.0021561091203486445,-0.00184692716270268,-0.01535080883937957,0.02312493852612128,0.9769105837214819
2014-02-13,-1,-0.0019181879051234003,-0.0016110970510861413,-0.022892398927672735,0.022163103499169758,0.977094243708082
2014-02-18,-1,-0.002511597187739573,-0.0021122706846312296,-0.012737127658168392,0.023829029116440067,0.9759908816158096
2014-02-20,-1,-0.0027554815327685495,-0.0022951076271375158,-0.007607305869503491,0.026840566409427967,0.973842127718276
2014-02-24,-1,-0.001352915820084186,-0.0010340542037687117,-0.010128019614404304,0.026093960109033313,0.974883689813998
2014-02-26,-1,-0.0012073545844290693,-0.0009380962351480019,-0.015214237609229221,0.026093960109033313,0.973177267965675
2014-02-28,1,0.0013714600409605584,0.0014077518773108943,-0.015214237609229221,0.022535761341450803,0.9763310891794768
2014-03-04,-1,-0.00129444752453822,-0.0009698345858264857,-0.010128019614404304,0.030536879179169613,0.977132223895209
2014-03-06,0,-8.943484103600343e-05,8.74605713664184e-05,-0.01137491964878714,0.030536879179169613,0.9774950039933374
2014-03-10,1,0.00024083396261606816,0.0003669090093238563,-0.015304892979483991,0.025930826544605365,0.975060587020731
2014-03-12,1,0.00036372882676917196,0.0004745183519555769,-0.015304892979483991,0.028426794823148464,0.9742337239767896
2014-03-14,-1,-0.0008955392841534518,-0.00069697136056196,-0.015417408642449318,0.028426794823148464,0.9739845326793174
2014-03-18,1,0.0013240680940493636,0.0014007783049108421,-0.015417408642449318,0.02065205849626315,0.9747327293201288
2014-03-20,1,0.004338060658504931,0.00484305889495505,-0.015417408642449318,0.0125310156433919,0.9767522030973952
2014-03-24,1,0.004852337676532498,0.005532419181647753,-0.015417408642449318,0.017628935477469278,0.9768431146884212
2014-03-26,1,0.001240267189803093,0.0014684087833535381,-0.011340855953241576,0.020085150503952542,0.9796665790176426
2014-03-28,1,0.001011341041748351,0.0011941725487094627,-0.011961508188173556,0.020085150503952542,0.9792142454706463
2014-04-01,1,0.003183767467950188,0.003650493702941836,-0.011961508188173556,0.013521895877632414,0.9806291910227224
2014-04-03,1,0.0010385441553088196,0.001075256635954145,-0.011961508188173556,0.013521895877632414,0.981583109433201
2014-04-07,-1,-0.0032072625265524356,-0.0027254558004042783,-0.01070002731835747,0.013521895877632414,0.9861039951975569
2014-04-09,-1,-0.002088838169190227,-0.001789024477652279,-0.009883239815050052,0.012333205256539933,0.9870091231065131
2014-04-11,-1,-0.0037591443551799266,-0.0032955717297719904,-0.009644365314033376,0.013846906244559169,0.9869060722776046
2014-04-15,-1,-0.003323332010707643,-0.0028843878269863166,-0.009644365314033376,0.012333205256539933,0.9873415879738304
2014-04-17,-1,-0.001967456284539415,-0.0017082231644583285,-0.009679457759521103,0.00501443983147146,0.9860338085213743
2014-04-22,-1,-0.0005119665689095196,-0.00045167826078106613,-0.009679457759521103,0.0024937471333557025,0.9867830604732104
2014-04-24,1,0.0004221291342831958,0.0004877001748511631,-0.009661996227414286,0.0026058640858705935,0.9862939431638745
2014-04-28,1,0.0005296506077970278,0.0006620661596283503,-0.009569533809443248,0.005122776620447045,0.9860107173642578
2014-04-30,-1,-0.0006875600594643133,-0.000615703253342865,-0.008277238040414444,0.010571953900168175,0.9859517057505179
2014-05-02,-1,-0.0009494896433550606,-0.0008487020286732413,-0.007343771228331955,0.010571953900168175,0.9859704624174321
2014-05-06,-1,-0.0022104062880003313,-0.001944416407005574,-0.007343771228331955,0.010571953900168175,0.9858662339555743
2014-05-08,-1,-0.002691547504183465,-0.0022927570785306033,-0.007343771228331955,0.012747309111230344,0.9845223099475015
2014-05-12,-1,-0.0009670297489666492,-0.000785084295308999,-0.007343771228331955,0.010390676439103847,0.9867557597220205
2014-05-14,-1,-0.0021241503793915087,-0.001800632490698273,-0.008191593874479522,0.010390676439103847,0.985954593656031
2014-05-16,-1,-0.004657866504802552,-0.004025798348893005,-0.0037044468755039234,0.012747309111230344,0.9865539038123151
2014-05-20,-1,-0.0039445933533749115,-0.0034678478621737105,-0.0005854655790014762,0.015660742579836122,0.9854192664530238
2014-05-22,-1,-0.0022762768152077223,-0.0019776164090103262,-0.0005854655790014762,0.012972827793948934,0.9875530292150393
2014-05-27,-1,-0.00160897208202068,-0.0013803685904367588,-0.009134767185664024,0.010390676439103847,0.9876721383959259
2014-05-29,-1,-0.0018616033790803696,-0.001585277233902807,-0.009134767185664024,0.010318232501170324,0.9880178743593252
2014-06-02,-1,-0.0009473693970350519,-0.0008175011164487846,-0.009956094431690687,0.011827650283355171,0.9873909174812995
2014-06-04,-1,-0.0017568769213593093,-0.0015092387681428197,-0.009134767185664024,0.012972827793948934,0.9871675472477738
2014-06-06,-1,-0.0007705985749590316,-0.0005936861364460731,-0.009956094431690687,0.008254765785222636,0.9879153001828849
2014-06-10,1,0.0002046664094451979,0.0002195690430862707,-0.012820556283346645,0.008156411380057394,0.9870359503449045
2014-06-12,-1,-0.001042079873425369,-0.0009316138550357271,-0.009701087781430563,0.012084884854324322,0.9874532315425686
2014-06-16,1,0.0014915118355980023,0.0017877398275274801,-0.009701087781430563,0.01316937502622822,0.986811174410668
2014-06-18,1,0.0019645954853207033,0.0022348550450418773,-0.012820556283346645,0.012084884854324322,0.986099766993251
2014-06-20,1,0.003065275363762124,0.0035212319769538274,-0.012820556283346645,0.012084884854324322,0.9856236112219063
2014-06-24,1,0.001543427588741892,0.0017556542120112863,-0.009716478890979416,0.012084884854324322,0.9868092696692605
2014-06-26,1,0.0007385474847065712,0.0008084526603055077,-0.01088197895533576,0.012084884854324322,0.9861642187936193
2014-06-30,-1,-0.00035049663048119205,-0.00021032236898736408,-0.010391228307737681,0.012084884854324322,0.9865151106621458
2014-07-02,-1,-0.0002888043340961119,-9.228401601138123e-05,-0.01603487021486346,0.00847323428198293,0.9856075577892637
2014-07-07,-1,-0.0009466140766571846,-0.0006939141734620345,-0.010391228307737681,0.00847323428198293,0.9867942074849658
2014-07-09,-1,-0.001955906267916848,-0.0016147228340465153,-0.009308978104240674,0.012084884854324322,0.9868001449353133
2014-07-11,-1,-0.0012193407567833623,-0.0009397035849749096,-0.009308978104240674,0.007336216506528485,0.987445686429511
2014-07-15,1,0.000632505552980019,0.0007029086686278414,-0.009308978104240674,0.0036954440465131167,0.9887917231432636
2014-07-17,-1,-0.00038306734766034556,-0.0002545497070737374,-0.007726634503996211,0.007303938756276012,0.9895682312052007
2014-07-21,1,5.561984653811513e-06,0.00010568081642237098,-0.007726634503996211,0.007303938756276012,0.989921351257737
2014-07-23,1,0.001229228235505657,0.001432643864073399,-0.010567552917484789,0.007303938756276012,0.9895731373845609
2014-07-25,-1,-0.0006760371854242103,-0.0005479543234204415,-0.006246952458194312,0.007303938756276012,0.9905823113678007
2014-07-29,-1,-0.0003632575259174958,-0.00032956659177846775,-0.004978236139528223,0.0074032192013299795,0.9909274437779653
2014-07-31,-1,-0.0016840688694913118,-0.0015207483174854643,-0.004978236139528223,0.0074032192013299795,0.9919549551451993
2014-08-04,-1,-0.001571676298518868,-0.0014339795792634288,-0.0031001695440497313,0.012315425166540234,0.9903574664769919
2014-08-06,-1,-0.0022339817284575884,-0.001944932388298068,-0.006123682057136957,0.008696274706931344,0.9907076199742146
2014-08-08,-1,-0.0006281181297790054,-0.0006173260228772994,-0.007906999213633425,0.012300108050694123,0.9903549166284957
2014-08-12,1,0.0016445155262491502,0.002205051597015492,-0.007906999213633425,0.008599441456173923,0.990680015799445
2014-08-14,1,0.001322158789500897,0.0018390210578908318,-0.007272953375612955,0.00854563901688813,0.9913317835233708
2014-08-18,1,0.000146423056210166,0.0003027112593115286,-0.007906999213633425,0.005528501213491531,0.9912926394106042
2014-08-20,-1,-0.0002718036387686667,-0.00017171959753363761,-0.007906999213633425,0.005612676355327889,0.9909761282793162
2014-08-22,1,0.0012459552477150954,0.00171556027118908,-0.010800212010314256,0.005612676355327889,0.9900674818877784
2014-08-26,1,0.001366981977702793,0.001817094561766259,-0.014600894944707447,0.004930103074513026,0.9893136604221588
2014-08-28,-1,-0.002057689385666095,-0.0018106277886455148,-0.01129585758524479,0.005612676355327889,0.9901136171056735
2014-09-02,-1,-0.00026352039785928767,-0.000259825083004538,-0.015060010170951372,0.00122249267606133,0.9900286818318987
2014-09-04,-1,-0.0024801588390100378,-0.002124946724083926,-0.015473938238109861,0.004930103074513026,0.9876265693925058
2014-09-08,-1,-0.00203959755044614,-0.0017187624619840634,-0.015473938238109861,0.00122249267606133,0.9878460709780953
2014-09-10,-1,-0.0011408368223674358,-0.00098637530853649,-0.015473938238109861,0.0012626250463290364,0.9865267141137375
2014-09-12,-1,-0.0003569884241984595,-0.00034740117826170445,-0.016024876941619616,0.0012626250463290364,0.984712752296588
2014-09-16,-1,-0.000689183844746256,-0.0006812551560927703,-0.015638587583401715,0.007175405731191713,0.9843378232620835
2014-09-18,-1,-0.0012768956202787942,-0.001199414660078262,-0.015638587583401715,0.013559327606047061,0.9838468331157995
2014-09-22,-1,-0.002471340797772865,-0.0022282465445139757,-0.01560667229787835,0.014783394674170747,0.982815485759758
2014-09-24,-1,-0.0038313088836712046,-0.0034142319059827374,-0.01560667229787835,0.016404199721431978,0.982411875650574
2014-09-26,-1,-0.003750801864885191,-0.003278887729733537,-0.01560667229787835,0.01412721166682007,0.9830738001045352
2014-09-30,-1,-0.005020944202604129,-0.004413095865497113,-0.013744377175657432,0.01717293768951357,0.9813978180424616
2014-10-02,-1,-0.003238799370371451,-0.002927955125319511,-0.013744377175657432,0.01412721166682007,0.9847571011039116
2014-10-06,-1,-0.004253246305945299,-0.0037590384473372915,-0.01174997376749387,0.01717293768951357,0.9835553710331679
2014-10-08,-1,-0.004792442050254076,-0.004107177648238102,-0.01560667229787835,0.01412721166682007,0.9843786233103092
2014-10-10,-1,-0.005814309790105582,-0.005010836711839474,-0.01174997376749387,0.01717293768951357,0.9841197705572198
2014-10-14,-1,-0.004492092997293431,-0.003938975705966383,-0.008499337596088322,0.02010392521510959,0.9839926272032574
2014-10-16,-1,-0.0033761020388421267,-0.0029912271134452714,-0.009429167300293329,0.01672501255594664,0.9841677064910768
2014-10-20,-1,-0.0027990014982325812,-0.002486121269000813,-0.010766031005148722,0.014754301951415616,0.9845238156185602
2014-10-22,-1,-0.0023604890138682845,-0.0021151313067976707,-0.008278512093273755,0.013004253179331557,0.9850346282437954
2014-10-24,-1,-0.0023651251441625843,-0.0020919020995374626,-0.008278512093273755,0.013004253179331557,0.9848252602248876
2014-10-28,1,0.0005631810743998149,0.0007408341521757823,-0.007973101360632253,0.013004253179331557,0.9861196540189907
2014-10-30,0,-7.443944503401418e-05,3.0129264219807596e-05,-0.007344175295995948,0.013004253179331557,0.9868686651372546
2014-11-03,1,8.683447704186433e-05,0.00012580380078881082,-0.00556994124317302,0.012936248036614256,0.9880307957812394
2014-11-05,-1,-0.000189782979178724,-8.264699214301761e-05,0.0,0.01400286661613816,0.9881410659900812
2014-11-07,1,0.0018759276743981965,0.002309964476596078,0.0,0.01400286661613816,0.9897969375515268
2014-11-11,1,0.0029695851215181626,0.003612691916263426,-0.001655640641218581,0.01400286661613816,0.9883089691934174
2014-11-13,1,0.0025063291058449013,0.003015446173573302,-0.0016375400366227602,0.012886855866552136,0.9891083088840685
2014-11-17,1,0.000609370261452332,0.0008370314125344249,-0.0005518889855779887,0.012886855866552136,0.9901695477860242
2014-11-19,1,0.0012011150971658836,0.0015020318999378979,-0.00216129119139006,0.01400286661613816,0.9893767413059389
2014-11-21,1,0.002236297417900768,0.0027293453866485584,-0.00216129119139006,0.01400286661613816,0.9892691563107069
2014-11-25,1,0.0029988224256236942,0.0035423888798019115,-0.00216129119139006,0.01155283842962461,0.9904539489624214
2014-11-28,1,0.0023319646614363898,0.0026982342810087864,-0.00216129119139006,0.01155283842962461,0.9903985680600758
2014-12-02,1,0.0033883645960471375,0.003961141197201365,-0.00216129119139006,0.01155283842962461,0.9901362495968058
2014-12-04,1,0.005704746992840953,0.006674436531600462,-0.0049342400511479525,0.0058864477599535146,0.9878082519965541
2014-12-08,1,0.0057656041293797575,0.006640762556118375,-0.0049342400511479525,0.0058864477599535146,0.9874284337978441
2014-12-10,1,0.006541886482637224,0.007548795288921472,-0.002754566961575697,0.004266666242599379,0.9891071695176901
2014-12-12,1,0.006146019416373405,0.007085120220521657,-0.002754566961575697,0.004266666242599379,0.9882970368937377
2014-12-16,1,0.005315269628566445,0.006085033584694994,-0.010212303805000277,0.004266666242599379,0.9873763507070009
2014-12-18,1,0.0061960518905529,0.0070596356978066335,-0.010586081135779777,0.004266666242599379,0.9876677096481092
2014-12-22,1,0.005706583073170298,0.006410517067584382,-0.010586081135779777,0.004266666242599379,0.9871708801455072
2014-12-24,1,0.005657368330449721,0.006340396402026913,-0.015972293347352035,0.0026573945790976977,0.9856903456179901
2014-12-29,1,0.005607879424074057,0.006293966203921521,-0.01845291033054753,0.001068375088681064,0.9839404874695081
2014-12-31,1,0.006131300752292857,0.006883768065370178,-0.01845291033054753,-0.0010032745278529024,0.9830649038768586
2015-01-05,1,0.004945462930184776,0.005557963312108668,-0.01689567851599489,0.0028713010349506844,0.9836719793328552
2015-01-07,1,0.004622895275157427,0.005157658177171138,-0.01562511869559811,0.004905817490894086,0.9845858837137439
2015-01-09,1,0.0049608547589669,0.005579966304064357,-0.01562511869559811,0.007962499560379968,0.9838014699254994
2015-01-13,1,0.0035288803138744636,0.003922837889740419,-0.010586081135779777,0.007962499560379968,0.9854049062191738
2015-01-15,1,0.0020940514274529385,0.0023049785605820374,-0.0050950180150873,0.011772780468738746,0.9871528295745788
2015-01-20,1,0.0021184975059426263,0.0023519233703404134,-0.0050950180150873,0.011772780468738746,0.9873063400260264
2015-01-22,1,0.0023911038878482883,0.0026086683167794423,-0.0050950180150873,0.007637450390320793,0.9882743325746692
2015-01-26,1,0.0020687069413648958,0.00232839726142258,-0.002650513826071444,0.012685249550807211,0.9880472303035811
2015-01-28,0,-1.9612603903792575e-05,4.799579269225811e-05,-0.0005296479072656752,0.016153476610573366,0.9860309843825162
2015-01-30,-1,-0.000583364452317899,-0.0004585948247364241,0.001595781269308101,0.019559732891573374,0.9850791299120204
2015-02-03,1,0.0015122838856371232,0.0016512091276147337,-0.0019663939484437626,0.015669074846109975,0.9868654032873777
2015-02-05,1,0.0030537499150154624,0.003392971424909982,-0.0026031415728571825,0.015669074846109975,0.9868088437205431
2015-02-09,1,0.0036412415077692445,0.003997094743324325,-0.00410416365745489,0.013857514827584632,0.986909980774123
2015-02-11,1,0.0031275330532976467,0.003383133270449465,-0.0026031415728571825,0.015151664450998546,0.9866864727183822
2015-02-13,1,0.0030942096293384066,0.0032942447071328306,-0.0026031415728571825,0.015151664450998546,0.9867183133195049
2015-02-18,1,0.0019311347715770476,0.0019522107532517071,-0.0026031415728571825,0.015755491101026607,0.9859468975843653
2015-02-20,1,0.0022502778306995814,0.0022992745022040306,-0.0044162295238192205,0.015755491101026607,0.9857802374224339
2015-02-24,1,0.0028168301246451204,0.0028453772774864002,-0.005986577727991442,0.015151664450998546,0.986487342239191
2015-02-26,1,0.004770733961210703,0.005088387380312266,-0.007490969538221369,0.013857514827584632,0.9878359005353575
2015-03-02,1,0.005312356051477009,0.005655538784943808,-0.008444308662084463,0.007414747388846824,0.9878401650285723
2015-03-04,1,0.004145565018952791,0.004362135187835219,-0.007490969538221369,0.007414747388846824,0.9899294227228677
2015-03-06,1,0.003291989771430133,0.0033350701266659055,-0.005986577727991442,0.008029158654546165,0.9915087505385627
2015-03-10,1,0.003076357463444302,0.003089214174804884,-0.005986577727991442,0.008029158654546165,0.9910428922007466
2015-03-12,1,0.0035952405271944023,0.0036547540598535462,-0.005986577727991442,0.009245668753279642,0.9908069892427687
2015-03-16,1,0.003515901941581138,0.003583711785314756,-0.005986577727991442,0.01001110567873613,0.9907303571559359
2015-03-18,1,0.0035372898768925446,0.0035932861531306464,-0.00416692945565768,0.009245668753279642,0.9915787597890853
2015-03-20,1,0.003270328130273962,0.0032881618894970146,-0.005555721877116039,0.009245668753279642,0.9912693540332949
2015-03-24,1,0.003182368964021048,0.003278696379936655,0.001341648269908829,0.01001110567873613,0.9917874257338525
2015-03-26,1,0.0013914407829325403,0.0015725952757753483,0.0048579488503494505,0.01001110567873613,0.9920500506923196
2015-03-30,1,0.0013191956945379276,0.0014811227350128892,0.0048579488503494505,0.011603712370283986,0.9913991837980793
2015-04-01,1,0.0007696517726202155,0.0010574406728837472,-0.0012312481093676535,0.011603712370283986,0.9893922406676319
2015-04-06,1,0.002355646718439598,0.0023953890782433245,-0.009094660388171694,0.012413278332921898,0.9889230693981998
2015-04-08,1,0.0028706477930045445,0.0029321262101667817,-0.0074370743878136,0.009936595847399475,0.9899618241070377
2015-04-10,1,0.003497993326222311,0.003635952162150868,-0.0074370743878136,0.007573458403168309,0.9907688494574937
2015-04-14,1,0.0027721919888489405,0.0028402359593831345,-0.0074370743878136,0.009729955255416194,0.9896024052552819
2015-04-16,1,0.0031410705752380587,0.0031610807697015878,-0.010794267826644638,0.007084580363847135,0.9862362639180665
2015-04-20,1,0.002655816162562311,0.0026880823857513836,-0.009094660388171694,0.013553321267550204,0.984569215913425
2015-04-22,1,0.003723189687091716,0.003882273870526603,-0.01116102668059809,0.009601340749089323,0.9840329007825926
2015-04-24,1,0.0037945299593998383,0.003953145208627499,-0.01116102668059809,0.009601340749089323,0.9837730563112653
2015-04-28,1,0.00383311883280189,0.004017487708174997,-0.0103456568426761,0.009601340749089323,0.9825470994285462
2015-04-30,1,0.0023201595542528108,0.002333054636251806,-0.009148731713741864,0.012015812477382117,0.9838496105290545
2015-05-04,1,0.0033481615741964565,0.003548294399067226,-0.007890120756361849,0.012015812477382117,0.9848604652743431
2015-05-06,1,0.003272221475606966,0.0034947439408416414,-0.010841973192015181,0.017592044256724265,0.9829296543034243
2015-05-08,1,0.0029680948455015023,0.003126413480858157,-0.010841973192015181,0.01881611383298216,0.9820928379397763
2015-05-12,1,0.003882040474101664,0.004135897264663847,-0.010841973192015181,0.012366494433409921,0.9828294769559234
2015-05-14,1,0.0014310180479580018,0.0014407112452279936,-0.008290213527160431,0.012366494433409921,0.9857858120385848
2015-05-18,1,0.003476509436068316,0.0037467587996210527,-0.008290213527160431,0.009826606133569348,0.9876882133600479
2015-05-20,1,0.0029308872019313363,0.003133925688536543,-0.007905485737500004,0.009826606133569348,0.9882161310189566
2015-05-22,1,0.0027070626017450705,0.0028708458664951806,-0.007905485737500004,0.009826606133569348,0.9882426270579121
2015-05-27,1,0.004101548227750793,0.004479231963018382,-0.007905485737500004,0.0074110474150745976,0.9900732877914227
2015-05-29,1,0.00317017128162236,0.003350531396959713,-0.0043800660468904865,0.011919138030701933,0.9890538577821134
2015-06-02,1,0.0037998364349691024,0.004066551547280041,-0.007905485737500004,0.010823890198550398,0.9878238164953783
2015-06-04,1,0.0042327152107758705,0.004549370893803633,-0.007905485737500004,0.00723477653588309,0.9895245120271347
2015-06-08,1,0.004459667960414093,0.004733340821507596,-0.00834743853893462,0.006292630360708094,0.9896877018094367
2015-06-10,1,0.0030237288895012017,0.0030295260911096574,-0.009426982371308037,0.00723477653588309,0.9893702033311141
2015-06-12,1,0.0020538153608245283,0.0021900330704005154,-0.00834743853893462,0.00723477653588309,0.989968229622937
2015-06-16,1,0.0023649317110577195,0.002442391273129083,-0.00834743853893462,0.007628916520343832,0.98941411576819
2015-06-18,1,0.0009195601700677287,0.001224101837622179,-0.007005796259946134,0.012006310151932624,0.9891538224674338
2015-06-22,1,1.3105676067129814e-05,0.0004967564210716919,-0.0117350023346614,0.012006310151932624,0.9850597905458384
2015-06-24,-1,-0.0013473095941684225,-0.0006567847996587954,-0.011883543312180923,0.012006310151932624,0.984327487358021
2015-06-26,1,0.001296320571543471,0.0016074066900732304,-0.01553844555044559,0.006873835880873102,0.9846030759412415
2015-06-30,1,0.0012121198670964365,0.0014563882871365032,-0.011883543312180923,0.006873835880873102,0.9859636734975831
2015-07-02,1,0.0013252597847369751,0.0015113370121272274,-0.015113895100979088,0.006873835880873102,0.9859190794449174
2015-07-07,1,0.0006348513327419764,0.0009237644216616454,-0.015618306741550604,0.009126606945916965,0.9847915927848465
2015-07-09,1,0.0003591000825921885,0.0006640375077866982,-0.015618306741550604,0.006873835880873102,0.9851953441190177
2015-07-13,1,2.2656198980276505e-05,0.0003940834266943519,-0.015734790786251337,0.009404975585379222,0.9820317927957806
2015-07-15,1,0.0001650006726558928,0.0005229184821347473,-0.0169340950690665,0.009404975585379222,0.9806570569513231
2015-07-17,1,0.0015520667554464592,0.0016875318099630623,-0.0169340950690665,0.009404975585379222,0.9802775798885757
2015-07-21,-1,-0.0011563214805704323,-0.0008024626250014217,-0.01717052502462296,0.009404975585379222,0.9830794413635381
2015-07-23,-1,-0.0010193367855761929,-0.0007402252008343439,-0.018313318791138566,0.007138671390150961,0.9819892593644567
2015-07-27,-1,-0.0036774052367884117,-0.0030192398922582195,-0.01597981319667556,0.007138671390150961,0.9834849918290907
2015-07-29,-1,-0.0030530455079827434,-0.002463957026754414,-0.01597981319667556,0.0028195522329078266,0.9837119610926566
2015-07-31,-1,-0.0036450931847764314,-0.002993965188607903,-0.01597981319667556,0.01161338126287819,0.9822357951760738
2015-08-04,-1,-0.0030828229364774687,-0.002529671807074061,-0.018313318791138566,0.010368094698218255,0.9813982951030208
2015-08-06,-1,-0.0036842923936034905,-0.0030778731555674045,-0.020771005199150722,0.010368094698218255,0.9807415526330557
2015-08-10,-1,-0.002718762844708722,-0.0022440145259506866,-0.01703547195490274,0.009881927571062675,0.9834920035961139
2015-08-12,-1,-0.003454596076136739,-0.0028975407782776685,-0.016522631899645937,0.009881927571062675,0.9843342376870811
2015-08-14,-1,-0.002976245184281091,-0.0024422918319709584,-0.016522631899645937,0.009881927571062675,0.9843816528468988
2015-08-18,-1,-0.005307574369710494,-0.004451946426394926,-0.014074963824688834,0.010368094698218255,0.9846418521502353
2015-08-20,-1,-0.007817906060527909,-0.006647304831800822,-0.0159434504559147,0.010368094698218255,0.9845262887560482
2015-08-24,-1,-0.007970096709225756,-0.006805841108931792,-0.017617646585030004,0.010368094698218255,0.9840783264591514
2015-08-26,-1,-0.00835117195366343,-0.007183116221220935,-0.01848218352657144,0.012055859627583203,0.9820646046392125
2015-08-28,-1,-0.006404331636193104,-0.00547572639190223,-0.020298643320205034,0.010249984122308275,0.9817519821031434
2015-09-01,-1,-0.006905052985125672,-0.0059705008481201974,-0.01961986400381459,0.008558194410741458,0.983064622603099
2015-09-03,-1,-0.006840932862550572,-0.005945640491762242,-0.01860888916747113,0.0069993613324327904,0.9842568960798495
2015-09-08,-1,-0.006001078753844327,-0.005239110057079194,-0.01860888916747113,0.014792837774455322,0.9819034579963175
2015-09-10,-1,-0.0060798480539908375,-0.0052976948633631825,-0.020298643320205034,0.0095492164295852,0.9796833746746892
2015-09-14,-1,-0.005583091321254292,-0.004897117249305942,-0.022131781293378932,0.0069993613324327904,0.9794111009017384
2015-09-16,-1,-0.004194321273873595,-0.0036955027849527797,-0.022131781293378932,0.004981553335379225,0.9799185621549505
2015-09-18,-1,-0.006138330383765569,-0.005424500776260471,-0.02011363061745286,0.0069993613324327904,0.9784309951248922
2015-09-22,-1,-0.0074475289131740036,-0.006502769143918577,-0.02157674318512241,0.007287026410061025,0.9772288853190354
2015-09-24,-1,-0.0064850132933830015,-0.005697632618742697,-0.02157674318512241,0.004981553335379225,0.978964175933362
2015-09-28,-1,-0.009666992051061073,-0.008511836573478456,-0.0170625637699621,0.007287026410061025,0.9801106805072294
2015-09-30,-1,-0.008921629783639863,-0.007861733060550134,-0.0170625637699621,0.011757999738609956,0.9791607842439942
2015-10-02,-1,-0.008107513416097268,-0.007224624838071033,-0.019067202537911738,0.011757999738609956,0.9782320722820563
2015-10-06,-1,-0.007559844340029766,-0.006597240249514757,-0.019067202537911738,0.004105938671518315,0.979403644672195
2015-10-08,-1,-0.009200129512997531,-0.008168262041986778,-0.0170625637699621,0.009216728731221415,0.9821816907291102
2015-10-12,-1,-0.011080458714502226,-0.009815330312075649,-0.013151497792685912,0.014680271989053818,0.9786519013691654
2015-10-14,-1,-0.011297319912136124,-0.010018420462551834,-0.012869006862393709,0.014680271989053818,0.9783164653985892
2015-10-16,-1,-0.008482042553785532,-0.007615995918855116,-0.0103040534836231,0.009216728731221415,0.9825417551195414
2015-10-20,-1,-0.009549592483480786,-0.008566773770916126,-0.009558971500911116,0.009686734501506398,0.9830377489689502
2015-10-22,-1,-0.009389061309269283,-0.008491993084159849,-0.007221088881736539,0.01609028929990876,0.980783905011814
2015-10-26,-1,-0.007334448145832041,-0.006736194676571351,-0.007221088881736539,0.012653218701736486,0.9811079814607504
2015-10-28,-1,-0.004688873000240856,-0.004474146594162022,-0.007221088881736539,0.012166646394788904,0.9823074453005463
2015-10-30,-1,-0.0053364306358972755,-0.005043129928553094,-0.006370128404765625,0.015670887447271457,0.982009455455667
2015-11-03,-1,-0.0037018295619805786,-0.003590085917061548,-0.007221088881736539,0.012166646394788904,0.9824940450860844
2015-11-05,-1,-0.0028106939614047943,-0.0027888936269368824,-0.007221088881736539,0.012166646394788904,0.9824149238717415
2015-11-09,-1,-0.0012215397576165092,-0.0009955214396652503,-0.010551057192474822,0.009546939429169798,0.9838615197093822
2015-11-11,-1,-0.0008817978554976918,-0.0005714160928751253,-0.007513867514059745,0.009882380989169237,0.9842855176006158
2015-11-13,-1,-0.0013669232931356645,-0.0011415204681061233,-0.024990860990172975,0.009882380989169237,0.9801283641864883
2015-11-17,1,0.0007854710436718956,0.0014268724090918652,-0.024990860990172975,0.015670887447271457,0.9794543872462514
2015-11-19,1,0.00202175085573314,0.002810109727228557,-0.024990860990172975,0.011296071632523596,0.9799088128915431
2015-11-23,1,0.0014636556511827127,0.0021806815232036213,-0.018167432506094164,0.009592189401747468,0.9823999685776533
2015-11-25,1,0.0025953055023022024,0.003459119891667235,-0.018167432506094164,0.009592189401747468,0.9824904216673112
2015-11-30,1,0.003356925991760511,0.004320951579778257,-0.027091470685437796,0.008017369769959568,0.9804075259431018
2015-12-02,1,0.001944615387549111,0.0027528236449984207,-0.02127167114771971,0.009592189401747468,0.9823070913352636
2015-12-04,1,0.002967740566183227,0.003950348721617225,-0.023138124143532626,0.009592189401747468,0.9804784576031241
2015-12-08,1,0.0011669218596010544,0.001981973591183671,-0.023138124143532626,0.009592189401747468,0.9822180752072804
2015-12-10,0,-0.0002481731849064068,0.00018534382825936726,-0.025989745527783402,0.008153303457129358,0.9796785595032341
2015-12-14,-1,-0.004119606197279,-0.004038940856123451,-0.02370509574392791,0.008153303457129358,0.9819210943886545
2015-12-16,-1,-0.002956378434950495,-0.0029369424130898008,-0.025454805786707908,0.0037736022309151573,0.9818001436233089
2015-12-18,-1,-0.002516083187287372,-0.002414948021063696,-0.033067429454663635,0.0006297223168255915,0.9763522204576944
2015-12-22,-1,-0.0023140113155010094,-0.002202425414590173,-0.033067429454663635,0.008271104437653826,0.9709311155826538
2015-12-24,-1,-0.000865972378828885,-0.000549373638166501,-0.033067429454663635,-0.0019276516799125992,0.967609516977877
2015-12-29,-1,-0.00328403039821695,-0.003252221278322016,-0.03341384082827821,-0.0019276516799125992,0.9682877696556869
2015-12-31,-1,-0.002372384131493273,-0.00222623609300308,-0.03341384082827821,0.013571687654120288,0.9657136058316849
2016-01-05,-1,-0.0036381759530494575,-0.003589534241808987,-0.040579862486075514,0.013571687654120288,0.9645556996440947
2016-01-07,-1,-0.004246657971264725,-0.004191467727639255,-0.040579862486075514,0.014700991850546932,0.9639624883410016
2016-01-11,-1,-0.007770875202182424,-0.007241706453922109,-0.036920834672628876,0.014700991850546932,0.9669332328791339
2016-01-13,-1,-0.011116931073834551,-0.010105398644627827,-0.030563158611465278,0.016229154666067645,0.9679805306331705
2016-01-15,-1,-0.011582503054917224,-0.010510960710659465,-0.03005530411949996,0.026392936890847894,0.9628523370181563
2016-01-20,-1,-0.017262647134297256,-0.015503082421401117,-0.027516621057243427,0.03146852240028076,0.9628667284431704
2016-01-22,-1,-0.010496352035857557,-0.009641782143304222,-0.027516621057243427,0.026392936890847894,0.9680253757195512
2016-01-26,-1,-0.00939089489121999,-0.008635869721574218,-0.020857510145167815,0.0244542508286711,0.9716664983176613
2016-01-28,-1,-0.011503643772526271,-0.010490998537058763,-0.013665761275177773,0.026392936890847894,0.9668326169671306
2016-02-01,-1,-0.007631333099372655,-0.007082809027241029,-0.01965255861472906,0.025757605569020982,0.9683722256570985
2016-02-03,-1,-0.009605547213187923,-0.008847236595740195,-0.013273420282730458,0.025757605569020982,0.9692073215502383
2016-02-05,-1,-0.009637557209694487,-0.00889348065499257,-0.007449963724296471,0.033789186844769725,0.966954795560938
2016-02-09,-1,-0.00918952319150328,-0.00856137102710042,-0.007449963724296471,0.033789186844769725,0.965171209440502
2016-02-11,-1,-0.008829412186376867,-0.008170482040621716,-0.013168379896362364,0.034171208189701915,0.96502859230775
2016-02-16,-1,-0.003548477497696376,-0.00350703416017144,-0.018475535637387117,0.028083505702884783,0.9704664740167915
2016-02-18,-1,-0.0005374659424917871,-0.0001581938494262566,-0.018475535637387117,0.024975326949913154,0.974154051602375
2016-02-22,-1,-0.000671517965554764,-0.000467841319285913,-0.02361126844306087,0.028083505702884783,0.9720027490691799
2016-02-24,-1,-0.0005250220666195321,-0.00026248288578066385,-0.027112838567307035,0.03296843462847934,0.9668845088829675
2016-02-26,1,0.0009767412209233356,0.0014320809915308122,-0.02471262016591819,0.028083505702884783,0.9717469013839539
2016-03-01,1,0.003109318554018402,0.003990784696876311,-0.02471262016591819,0.028083505702884783,0.9711414172165521
2016-03-03,1,0.0014985093070345441,0.002008705781565056,-0.02471262016591819,0.028083505702884783,0.9713156639725983
2016-03-07,1,0.003553315418230371,0.004244808138243381,-0.027112838567307035,0.013544819934684732,0.9713378471468718
2016-03-09,1,0.0020131996256557987,0.0024756867858939874,-0.02471262016591819,0.013544819934684732,0.9725791953920034
2016-03-11,1,0.0033337594325719365,0.004054410383835477,-0.02471262016591819,0.011727818410685029,0.9733754281519723
2016-03-15,1,0.0008054701617240445,0.0011259773461260148,-0.017631719733660834,0.019545788652873132,0.9719491054319114
2016-03-17,1,0.0013245222726549631,0.0016714970548259737,-0.020673723299027103,0.018804907925762386,0.9707641728451626
2016-03-21,1,0.002048029411105514,0.002549075622803553,-0.017631719733660834,0.016822703126753952,0.9724141593731425
2016-03-23,1,0.003924837778526901,0.004744802796983727,-0.016831180278086978,0.011727818410685029,0.9775563999700365
2016-03-28,1,0.0021776192113269624,0.0027263906898315473,-0.016010695882983997,0.013962752676930206,0.9777976967343418
2016-03-30,1,0.005325455805232582,0.006364306691098034,-0.016010695882983997,0.013962752676930206,0.9804328232973724
2016-04-01,1,0.006359425297093326,0.00756237617248323,-0.02108741933231808,0.012392711395300753,0.9757652279388281
2016-04-05,1,0.004561289649532783,0.005598118668613965,-0.02011394830238465,0.018817382080601124,0.9775762494488369
2016-04-07,1,0.004342790368206869,0.005344762726535494,-0.02861138174685581,0.018817382080601124,0.974683020052197
2016-04-11,1,0.003471091101970307,0.004333904028730904,-0.031705143655572116,0.02310316272967941,0.9737887768919045
2016-04-13,1,0.007509480396349951,0.008958445583405996,-0.031705143655572116,0.01738602518047014,0.9723921756373184
2016-04-15,1,0.006764163493740243,0.008187178121306083,-0.029441670527081364,0.01738602518047014,0.973369934852644
2016-04-19,1,0.007145362342151669,0.008581454307309694,-0.03140234056634919,0.010054042088551094,0.9715663854666713
2016-04-21,1,0.008253447582299957,0.009895361823269399,-0.03271352868041557,0.01687002992418677,0.9689364513751593
2016-04-25,1,0.008321175753398174,0.010009035942867353,-0.03271352868041557,0.02012382006069832,0.9679906994557996
2016-04-27,1,0.008598217659924174,0.010227887962199917,-0.03271352868041557,0.02012382006069832,0.9649796876304836
2016-04-29,1,0.005871206978490906,0.0071722272260154995,-0.029441670527081364,0.02012382006069832,0.9682666922975763
2016-05-03,1,0.004913745283514617,0.005942651166555692,-0.029441670527081364,0.02012382006069832,0.9692375743034746
2016-05-05,1,0.002303109750796136,0.0030032077119378545,-0.024088939438278244,0.02012382006069832,0.9727413467213172
2016-05-09,1,0.0002539962662367924,0.00047237063065171515,-0.024088939438278244,0.023661101990909126,0.969917148812963
2016-05-11,1,0.0026263075067091395,0.0032473363252485815,-0.023091677423113688,0.01775908679671967,0.9732465875747448
2016-05-13,1,0.0016656994968579843,0.0021498694354712446,-0.024088939438278244,0.01775908679671967,0.9722097916606117
2016-05-17,0,-0.00011796405904990496,0.00014315555616215112,-0.023796705578535315,0.01775908679671967,0.9734650961121835
2016-05-19,1,8.889008330371982e-05,0.0004357611299306034,-0.023091677423113688,0.01363149556715456,0.9752434388514577
2016-05-23,-1,-0.000523167226691988,-0.0003865834915661045,-0.019367004373699932,0.013191935546791623,0.9764237930196591
2016-05-25,1,0.0033989721428866995,0.004063341978361646,-0.023091677423113688,0.012346022217160333,0.9795078017348777
2016-05-27,1,0.0014241488082538762,0.0017534007199509493,-0.028323538639450897,0.012346022217160333,0.9749409267874418
2016-06-01,1,0.002377690168353786,0.0027460649235040513,-0.028323538639450897,0.013191935546791623,0.972795021034579
2016-06-03,1,0.0018421249746996891,0.0019813302374123982,-0.028323538639450897,0.013191935546791623,0.972285890459842
2016-06-07,-1,-0.000488254773805466,-0.000204205601107437,-0.023481644704991936,0.012735612589503129,0.97589431553632
2016-06-09,-1,-0.002270471840851539,-0.0017357991522964234,-0.023481644704991936,0.01660601320397752,0.970575976277584
2016-06-13,-1,-0.007102283463776543,-0.005722557703983618,-0.023481644704991936,0.01660601320397752,0.9703990092369466
2016-06-15,-1,-0.005773214906721517,-0.004761387574281155,-0.02688702162146205,0.01660601320397752,0.9683130961326479
2016-06-17,-1,-0.004669482586548644,-0.003834850119166576,-0.02688702162146205,0.01660601320397752,0.9686264782160159
2016-06-21,-1,-0.006706385882563101,-0.005489479713968078,-0.038249047083035545,0.0211958328211796,0.9661910285864749
2016-06-23,-1,-0.006825264622793875,-0.005705330895607133,-0.02688702162146205,0.0211958328211796,0.9678421277126915
2016-06-27,-1,-0.014001840060760138,-0.011905915329107987,-0.02032313578476596,0.024690837391003286,0.9703726062373073
2016-06-29,-1,-0.010813434448640668,-0.009043830261844526,-0.02032313578476596,0.020903027844143707,0.9743438025959658
2016-07-01,-1,-0.01111979106554908,-0.00926564180828313,-0.022170523626454323,0.01586982149845414,0.9750447853774894
2016-07-06,-1,-0.011244093086384615,-0.009410068211454434,-0.02032313578476596,0.0238124224598956,0.9728127457757024
2016-07-08,-1,-0.0025211586572130903,-0.0019561702518904687,-0.02032313578476596,0.014818872278836649,0.9765072887463137
2016-07-12,-1,-0.0019105243027316722,-0.0015572233446741338,-0.02032313578476596,0.012865937858284984,0.9759461273108918
2016-07-14,-1,-0.003182623324473141,-0.0027403801911569598,-0.017229276316532517,0.0238124224598956,0.9771238292284615
2016-07-18,-1,-0.0045597108897200605,-0.00394018956460717,-0.015817095460816326,0.029658009010414658,0.9756481187224625
2016-07-20,-1,-0.003265995949224073,-0.0028787837792970685,-0.015817095460816326,0.0238124224598956,0.9762300019109144
2016-07-22,-1,-0.003636644292357891,-0.003255440231013544,-0.016799570745807704,0.029658009010414658,0.9741850467065364
2016-07-26,-1,-0.003442219894207529,-0.0030639089000571796,-0.015817095460816326,0.03818679536076375,0.9735423428754655
2016-07-28,0,-0.00016848930660544846,3.688909520728088e-05,-0.016799570745807704,0.03900242486945347,0.9698108771767225
2016-08-01,-1,-0.0021720292950439817,-0.0020394866120106536,-0.015817095460816326,0.03900242486945347,0.9685157289416663
2016-08-03,1,0.00046882443386751696,0.0007101074026162141,-0.01487120008041655,0.03900242486945347,0.9700479186785408
2016-08-05,1,0.00020769382034328455,0.0002737571607144407,-0.01546945417579177,0.03900242486945347,0.9705357376566797
2016-08-09,-1,-0.0011498049103527332,-0.001101906469944072,-0.01546945417579177,0.04176816170021691,0.9694626818948655
2016-08-11,1,0.00028188132835134345,0.0004310235487052019,-0.020381642430766508,0.04176816170021691,0.9675214895223706
2016-08-15,1,0.0031025346922144087,0.0037098978843071416,-0.02381727805617965,0.03883268259877465,0.9685983779128279
2016-08-17,1,0.00032157009410500246,0.00046383435878682267,-0.02381727805617965,0.03883268259877465,0.9684334059611172
2016-08-19,1,0.0027399539570803697,0.003368268998304209,-0.02381727805617965,0.034259443563216446,0.9697501182436357
2016-08-23,1,0.004458369914102735,0.005362780467163824,-0.02381727805617965,0.02593264075666342,0.9725908311163035
2016-08-25,1,0.0032378503476365684,0.003820508491573618,-0.018693177828375825,0.022115899748026004,0.976696179458496
2016-08-29,1,0.004929366547615669,0.005716483868672346,-0.02381727805617965,0.022115899748026004,0.9744676346374211
2016-08-31,1,0.006786925324342249,0.00776045339534679,-0.029271098781465166,0.022115899748026004,0.972885517831921
2016-09-02,1,0.0075346829999833696,0.008836913863862721,-0.02381727805617965,0.02593264075666342,0.9716767341529264
2016-09-07,1,0.007325383727376738,0.008499879388767747,-0.023287158770776913,0.02593264075666342,0.9703279440663881
2016-09-09,1,0.005455274520504367,0.006417925518550438,-0.02217867078257592,0.02593264075666342,0.9736671508435276
2016-09-13,1,0.005436494731638406,0.006428805316758915,-0.02286698080529285,0.02593264075666342,0.9731354783959083
2016-09-15,1,0.005183173771827454,0.006118663958657908,-0.02286698080529285,0.0245484059748726,0.9731444921461975
2016-09-19,1,0.005948096456626118,0.0070452416027483675,-0.025680726938033634,0.02749237963507143,0.9718518764320675
2016-09-21,1,0.0043108957863549485,0.004991377495713437,-0.025680726938033634,0.03154765621379663,0.9694446376364539
2016-09-23,1,0.004316437895173398,0.005011298488784012,-0.027590220962374304,0.03154765621379663,0.9673440368193811
2016-09-27,1,0.0027893195432165977,0.003093716680454663,-0.027590220962374304,0.02749237963507143,0.9676000868994064
2016-09-29,1,0.0023580391481498124,0.0025786912820981627,-0.02684930561407097,0.02749237963507143,0.9699269479832044
2016-10-03,1,0.004163460310656892,0.0047164595332455615,-0.02684930561407097,0.023198066268207494,0.9714137583991502
2016-10-05,1,0.005324803694203623,0.005962439410741645,-0.027590220962374304,0.016813211660857894,0.9739751851556496
2016-10-07,1,0.003437590276886894,0.003685380487377933,-0.02881904105545779,0.016813211660857894,0.9731558467244937
2016-10-11,1,0.0027414824168029654,0.0028568416979469543,-0.031013420118546686,0.01821293404814618,0.9724733533487763
2016-10-13,1,0.0022607699277071933,0.002323358769953868,-0.02881904105545779,0.018849204753592506,0.9729343498743876
2016-10-17,1,0.0037474975751199367,0.004250526262502999,-0.02881904105545779,0.015331875754319874,0.9740088356171583
2016-10-19,1,0.003954093665335841,0.004389409173837743,-0.02881904105545779,0.015331875754319874,0.9750869323977668
2016-10-21,1,0.0026497839375420546,0.0030201451380648483,-0.019987370790281796,0.031502005212522353,0.9737043634401722
2016-10-25,1,0.00035761196607674093,0.00048478949575182746,-0.01546198250193833,0.031502005212522353,0.9769057793914885
2016-10-27,1,0.0018291169849475103,0.0021128468571679606,-0.01546198250193833,0.028612452986064043,0.9770798434391377
2016-10-31,1,3.9511831289737664e-05,5.824452891018397e-05,-0.014098347274566976,0.028612452986064043,0.9779315053265603
2016-11-02,-1,-0.0020578031272870893,-0.0017335787123016159,-0.014233482150210778,0.028612452986064043,0.97639391194843
2016-11-04,-1,-0.004802853270341613,-0.00410267093690694,-0.013378365576223716,0.028612452986064043,0.9761353982872775
2016-11-08,-1,-0.004368100846834561,-0.0037505313597506855,-0.0033333301544189453,0.03342177509650193,0.974428918841241
2016-11-10,-1,-0.0016056809066673857,-0.0013042060614506723,-0.0033333301544189453,0.028612452986064043,0.9774578928338011
2016-11-14,-1,-0.003929739747230175,-0.0032838546113135797,-0.00235848462467034,0.028612452986064043,0.9774513038675886
2016-11-16,-1,-0.0061891852669595775,-0.004992304424344677,-0.00235848462467034,0.025896909239912065,0.9765961904994357
2016-11-18,1,0.0006753326799433852,0.0008803725782925046,-0.010408784028429964,0.01925039299722691,0.9832369363823745
2016-11-22,1,0.0012289494936218882,0.0013573359654173334,-0.010408784028429964,0.023339510283965588,0.982106373488955
2016-11-25,1,0.0024206167408369877,0.002440977122805727,-0.013378365576223716,0.01925039299722691,0.9823404574715542
2016-11-29,1,0.004498375123251863,0.00507024979759066,-0.013706550504349508,0.01925039299722691,0.982219586609098
2016-12-01,1,0.001713852608113514,0.001851279228786177,-0.01064687903945989,0.01925039299722691,0.9832995825751947
2016-12-05,1,0.0006212346844247968,0.0007318901850336588,-0.01030125724925516,0.023339510283965588,0.9806532262888817
2016-12-07,1,0.0035822773238937304,0.003772618217934502,-0.01030125724925516,0.010090938642600487,0.9844247905503034
2016-12-09,1,0.004453276275814867,0.004770144655876948,-0.013523563971886268,0.006965956247192861,0.9833490347093616
2016-12-13,1,0.003390004384109242,0.0034992611512694623,-0.016153849088228665,0.007068783798015477,0.9826783693870976
2016-12-15,1,0.0044412438596968164,0.0046915376252319885,-0.018504550593815783,0.0015479935577674502,0.980518015556392
2016-12-19,1,0.003876209642273751,0.004098666462027477,-0.018504550593815783,0.006226250081344006,0.9805945722506862
2016-12-21,1,0.004446274403799995,0.004662063032111938,-0.018504550593815783,0.0015479935577674502,0.9810444809654733
2016-12-23,1,0.0038801623254732863,0.0041251065018684495,-0.014292797675499548,0.006226250081344006,0.9812293518223206
2016-12-28,1,0.003546158540626256,0.0037852415803509053,-0.012934751460734837,0.007213922929500801,0.9814411846964259
2016-12-30,1,0.0011276357689926713,0.0013000115508325057,-0.010776119937520715,0.007213922929500801,0.9832427031486668
2017-01-04,1,0.0037673175547330157,0.003979301620633429,-0.010807657897278989,0.0015822694080416554,0.9851419140475287
2017-01-06,1,0.004054506018509949,0.0044067316404669005,-0.013116502463481679,0.007213922929500801,0.9799727434532843
2017-01-10,1,0.0016774079317491979,0.0017516950000319373,-0.013116502463481679,0.00727477938566928,0.9803367076091312
2017-01-12,1,0.001017625117226788,0.0011331740846114969,-0.010807657897278989,0.009876601145525757,0.9815728466754338
2017-01-17,-1,-0.0007296889055013504,-0.0004646826081346067,-0.009942496064019098,0.009876601145525757,0.9838551390788323
2017-01-19,-1,-0.0004240989896103862,-0.00020046716023468735,-0.010683065211595986,0.009876601145525757,0.9794199541799052
2017-01-23,1,0.0006566210700090695,0.0006651733092805495,-0.010683065211595986,0.009876601145525757,0.9791763344236672
2017-01-25,1,0.0026413142000689394,0.0030205594510998896,-0.013116502463481679,0.00986845882150334,0.9796105918257814
2017-01-27,1,0.0019151334205879116,0.002134681576874828,-0.015771146547058197,0.009844145124897393,0.9792173077984889
2017-01-31,1,0.0017977773115077532,0.0020349747931402624,-0.01608252889224541,0.009876601145525757,0.9787447440287123
2017-02-02,1,0.00011140980771807171,0.0001998322292564882,-0.016118324246292146,0.009876601145525757,0.9789766954830414
2017-02-06,1,0.001921745870350656,0.0020371308908086103,-0.01497470426692018,0.009844145124897393,0.9829891373433681
2017-02-08,1,0.0006952782648129632,0.000745315410719254,-0.014149490651174644,0.009844145124897393,0.9844338283675403
2017-02-10,1,0.0009056601031115671,0.0009250320577040515,-0.014546039210868972,0.0073291587086788635,0.983837771613687
2017-02-14,1,0.0013807332997873593,0.0014210683852111973,-0.014546039210868972,0.009893032100002362,0.9810595437557839
2017-02-16,1,0.00020354531049965292,0.0003170870396415095,-0.014546039210868972,0.009893032100002362,0.98278543134116
2017-02-21,1,0.0008815838739732692,0.0009133938420993464,-0.01908290672000542,0.0,0.9793537305083171
2017-02-23,-1,-0.0004708557961268275,-0.000267895027632777,-0.015477852045328647,0.01169852666964472,0.9791908637603526
2017-02-27,-1,-0.0009961667605427303,-0.0007779052742783244,-0.014546039210868972,0.017176063620114108,0.9792361967173033
2017-03-01,-1,-3.2183193940483e-05,-1.8093287695221525e-05,-0.014546039210868972,0.03011693452533913,0.9745041943074949
2017-03-03,-1,-0.000790633295201079,-0.0006672381060865843,-0.014546039210868972,0.03011693452533913,0.9746562673495653
2017-03-07,-1,-0.0020260497586396444,-0.0017502108278291157,-0.01802247043251533,0.03011693452533913,0.972962850811675
2017-03-09,-1,-0.0028502542800547905,-0.002456288846003116,-0.01802247043251533,0.03011693452533913,0.9718929718559969
2017-03-13,-1,-0.003964300083864625,-0.003417969429680575,-0.020243900652766805,0.03011693452533913,0.9717347210914509
2017-03-15,-1,-0.0006974764108245617,-0.0005836732715918302,-0.020243900652766805,0.02431818596587706,0.9738424262254171
2017-03-17,-1,-0.003220428552573781,-0.0027110098875548078,-0.015528061764548688,0.017176063620114108,0.9785658366404526
2017-03-21,-1,-0.007808239518936081,-0.00663558887914237,-0.011743136425818406,0.017176063620114108,0.9803514928301533
2017-03-23,-1,-0.004936203360247138,-0.004185143129200911,-0.014652594991809343,0.0120927069976561,0.9821389413252087
2017-03-27,-1,-0.004843490122296585,-0.004054802709936361,-0.014652594991809343,0.0120927069976561,0.9814726964984453
2017-03-29,-1,-0.0014520266768522463,-0.0010015805655510454,-0.015528061764548688,0.008232336975508731,0.9844794624006316
2017-03-31,-1,-0.003029064871598125,-0.002324819532933233,-0.015528061764548688,0.011943416901519245,0.9801458781331368
2017-04-04,-1,-0.005600661719401249,-0.004593343847594199,-0.014652594991809343,0.011943416901519245,0.9821472587468719
2017-04-06,-1,-0.003725220510603103,-0.0030451043338487233,-0.01518276165132816,0.008232336975508731,0.9827756200948
2017-04-10,-1,-0.005308946440738383,-0.0043951085821486045,-0.01518276165132816,0.008232336975508731,0.9828466066947792
2017-04-12,-1,-0.005435697122762713,-0.004550968187785984,-0.016409614389669168,0.011943416901519245,0.9799640432652288
2017-04-17,-1,-0.0038772949660952107,-0.003336952177472096,-0.016409614389669168,0.011943416901519245,0.9798299574950521
2017-04-19,-1,-0.0027761041162822344,-0.0023859443472972197,-0.01805834905114695,0.006851765131340918,0.9786480742091165
2017-04-21,-1,-0.002564709675862773,-0.0022624666086436644,-0.016409614389669168,0.013884067297225685,0.9777637370724352
2017-04-25,-1,-0.0017055437304679425,-0.0014848748057993489,-0.016409614389669168,0.008458230556104887,0.9787424584078922
2017-04-27,-1,-0.003478970521859144,-0.002969503416292244,-0.016409614389669168,0.008458230556104887,0.9786356859379329
2017-05-01,-1,-0.0005423936664097792,-0.00037804002572411826,-0.01661184920922561,0.008458230556104887,0.9817982305384847
2017-05-03,1,8.44783250740171e-05,0.00014614227927992754,-0.016354056152912178,0.013525654387218653,0.9824774736744114
2017-05-05,1,0.0002457564879936685,0.00037322905158200455,-0.014274198082017794,0.015341533260409107,0.982357579979937
2017-05-09,-1,-0.0005797380813758685,-0.000568165180888372,-0.014274198082017794,0.021343069742040408,0.9789387548458507
2017-05-11,1,0.000513220358793179,0.0007343269781453385,-0.0033783751129668796,0.015341533260409107,0.982449035815942
2017-05-15,1,0.000516167383178418,0.0007096076629763349,-0.0033783751129668796,0.021343069742040408,0.97946004242936
2017-05-17,0,-0.0001648736368752388,1.251681876071717e-05,-0.0033783751129668796,0.021343069742040408,0.9801529088249906
2017-05-19,1,0.0005724809566461349,0.0007995657452999718,-0.0033783751129668796,0.01678632072413202,0.9818128487419459
2017-05-23,1,0.00021505010284840774,0.0003778197214888339,-0.004139072743117155,0.01678632072413202,0.9806988545848083
2017-05-25,1,0.00018912153029821533,0.0003040747893584382,0.0,0.01659224998383295,0.9818487596401833
2017-05-30,1,0.0012158204208665055,0.0015666585261165447,0.0,0.015687003968253968,0.983726687608236
2017-06-01,1,0.0017269495934529408,0.002133644915542477,0.0,0.015687003968253968,0.9840469283134652
2017-06-05,1,0.002090894432485569,0.002500692123098358,-0.0007621835095052837,0.015687003968253968,0.9830248592537225
2017-06-07,1,0.0006267462439837707,0.000807974322110953,-0.0042350077487908295,0.015374139640694024,0.9855835312220642
2017-06-09,1,3.6653618512929976e-05,4.862656923419171e-05,-0.008153058099752218,0.015374139640694024,0.9847351284339809
2017-06-13,1,0.002086781404453615,0.0023869644355082316,-0.008153058099752218,0.015374139640694024,0.9878518690835714
2017-06-15,1,0.0019140906664107875,0.002195009286472583,-0.008153058099752218,0.015436143608947992,0.9877105221019702
2017-06-19,1,0.002529996924556404,0.0029362890503620348,-0.010699494536189187,0.015436143608947992,0.98702435143926
2017-06-21,1,0.001961969654226517,0.002287059291742015,-0.008153058099752218,0.015436143608947992,0.9878298295514079
2017-06-23,1,0.00272546639571608,0.0031339737611729393,-0.008153058099752218,0.01008354681939593,0.9891192487803648
2017-06-27,1,0.0025257935723676387,0.0028782623015075953,-0.010699494536189187,0.013110591226836043,0.9865539421635505
2017-06-29,1,0.0038150610051503027,0.004435107158399537,-0.010699494536189187,0.013441814542968883,0.986045537843325
2017-07-03,1,0.0034366725837698658,0.003958882495284341,-0.010699494536189187,0.01008354681939593,0.9869019134661675
2017-07-06,1,0.0028017900589283017,0.0032493434894053375,-0.010699494536189187,0.01008354681939593,0.986893420985076
2017-07-10,1,0.002944689027647225,0.0034344478532220505,-0.010636174031266347,0.013441814542968883,0.9850098969500044
2017-07-12,1,0.0033470280706644853,0.003853297485069626,-0.016225964518693778,0.007783504996928333,0.9836710030069965
2017-07-14,1,0.003525674948778814,0.004087283257740718,-0.015175459504375856,0.012472671723911645,0.9837579829317361
2017-07-18,1,0.002542449883852199,0.0029227251737429646,-0.010705892658012858,0.013365106830321556,0.9841440234414549
2017-07-20,1,0.002274171608624476,0.002571149461273755,-0.020273697802918267,0.013365106830321556,0.9819838874833942
2017-07-24,1,0.0023362016967542433,0.0026322644823663843,-0.020273697802918267,0.015586780291566352,0.9812837362042716
2017-07-26,1,0.0017354458938628086,0.0019245011650759905,-0.016333465437214634,0.013365106830321556,0.983105807463223
2017-07-28,1,0.001492179427924171,0.0015897973449741304,-0.016333465437214634,0.010238028903874728,0.9835159612881083
2017-08-01,1,0.000501483020259337,0.0005563620561998537,-0.015420449024122337,0.012501427031907559,0.9838751907100213
2017-08-03,-1,-0.0009280097170783515,-0.0006700544761914694,-0.015349221869230191,0.013365106830321556,0.9837903594409296
2017-08-07,1,0.0013171512469247221,0.0014382932578387731,-0.015420449024122337,0.013365106830321556,0.9836208816765339
2017-08-09,-1,-0.00027753153685751696,-0.00015026091887237347,-0.010843684309586165,0.013365106830321556,0.9841690865872152
2017-08-11,-1,-0.0005278823836278991,-0.00025697277830998716,-0.010843684309586165,0.013274643716256309,0.9846810880225652
2017-08-15,1,0.00043463630066010436,0.0005309611515356274,-0.012736466916220544,0.014079040895710153,0.9838509794178941
2017-08-17,-1,-0.0010354481686688389,-0.0007895825878522931,-0.009345771069192068,0.014079040895710153,0.9856937499763312
2017-08-21,1,0.0015150169681078913,0.0017633414090007856,-0.00997669860473686,0.012471272660552476,0.9864803645783753
2017-08-23,1,0.001091903970777206,0.0012587548813224505,-0.009345771069192068,0.012471272660552476,0.9873128612413532
2017-08-25,1,0.000257544894858625,0.0003266494526506133,-0.009345771069192068,0.012471272660552476,0.9878863718615168
2017-08-29,1,0.00040435526508373395,0.0004297808374786105,-0.006800660564723505,0.015910553341181712,0.9867761867664144
2017-08-31,1,0.00015973825422594654,0.00026382816414109326,-0.0014880725991418293,0.015593163614389368,0.9873895406812048
2017-09-05,-1,-0.0011756590219740713,-0.0008805105993095301,-0.0006963947393308022,0.013228728172297968,0.9893474762920834
2017-09-07,-1,-0.0015134356941993786,-0.001150092895039797,-0.0006963947393308022,0.012215796616672795,0.9893385722086099
2017-09-11,1,4.92883146936362e-05,0.00019069668932982035,-0.003577256817134236,0.009573651882316849,0.9896833090742043
2017-09-13,0,-7.152866298512715e-05,0.00012170547678183228,-0.003577256817134236,0.009573651882316849,0.9894757492861715
2017-09-15,1,0.0005407730203870788,0.0006124764967447047,-0.00927892361220265,0.009137201436727239,0.9873208816187008
2017-09-19,-1,-0.0005639897702857899,-0.0003039047651629237,-0.010061335571094728,0.009137201436727239,0.9866347685455271
2017-09-21,1,0.0014859666494555675,0.0016471531503889092,-0.016401774954884714,0.009137201436727239,0.9854868631108564
2017-09-25,1,0.0007497692345596442,0.0007588708506604645,-0.02072054367917879,0.010051620354578027,0.9840944253257543
2017-09-27,1,0.0021273185034320435,0.0022749358072835066,-0.022082646731384978,0.00873185868281751,0.9840768348242931
2017-09-29,1,0.002086771974377589,0.002157897655398107,-0.022082646731384978,0.010051620354578027,0.983438376446331
2017-10-03,1,0.002257812474683274,0.00239137947422198,-0.022835934649114414,0.010051620354578027,0.9817200109615996
2017-10-05,1,0.0022810615319870174,0.002422583453925654,-0.022835934649114414,0.010535050906365579,0.9808800634407051
2017-10-09,0,-0.00024823847569868695,1.4543154349319241e-05,-0.022835934649114414,0.013972689254191411,0.9802733587163125
2017-10-11,1,0.00036992958099653145,0.000499823544589454,-0.02391284612393297,0.010535050906365579,0.9800534560043418
2017-10-13,-1,-0.0020184796966217673,-0.0015847328189835285,-0.02265192794685794,0.013972689254191411,0.9821700911337344
2017-10-17,-1,-0.0027414298545193685,-0.0022354863657051216,-0.02265192794685794,0.013972689254191411,0.982549231600348
2017-10-19,-1,-0.0036678624136091747,-0.0030576875503079116,-0.02265192794685794,0.013972689254191411,0.9832681603855759
