JNU-Tangyin/eata/results/Batch4_SP500/Batch4_SP500-DOV.csv
Date,Action,Predicted_Q25,Predicted_Q75,Actual_Q25,Actual_Q75,RL_Reward
2010-12-14,0,0.0,0.0,-0.004825620070638283,0.003802155242950114,0.9935146728314496
2010-12-16,0,0.0,0.0,-0.004825620070638283,0.00655988063970489,0.9930664984633353
2010-12-20,0,0.0,0.0,-0.0041269249504122234,0.00655988063970489,0.9921786055220474
2010-12-22,0,0.0,0.0,-0.0049571405119784705,0.002945620713498136,0.9924965871708913
2010-12-27,0,0.0,0.0,-0.0036105332974862886,0.005668540050090476,0.992213198075611
2010-12-29,-1,-0.00014164280797176012,-0.00013862633231076187,-0.0036105332974862886,0.007335786403461073,0.9907146416721444
2010-12-31,1,0.002943401478301545,0.0031453892964539857,-0.0036105332974862886,0.00971254334440418,0.987793040894723
2011-01-04,1,0.0018208381123139164,0.0018859911500952295,-0.004345000120935083,0.011386005209918443,0.9868175585225173
2011-01-06,0,0.0,0.0,-0.001531767012813813,0.011386005209918443,0.9866156126427597
2011-01-10,0,0.0,0.0,0.0008720701481912943,0.011386005209918443,0.9862144713846847
2011-01-12,1,0.000793754066610344,0.0009507420750689832,-0.0001509873347420038,0.00901273121272515,0.9874755415407502
2011-01-14,1,0.0008785911108772368,0.0009987276305047023,-0.0001509873347420038,0.010860979023207705,0.9872387470877929
2011-01-19,0,0.0,0.0,-0.0001509873347420038,0.010860979023207705,0.9872055541735767
2011-01-21,0,0.0,0.0,0.0013242515726749773,0.012006059278138312,0.987680550649468
2011-01-25,0,0.0,0.0,-0.001651127152960657,0.012006059278138312,0.9852807700565398
2011-01-27,1,0.0007915827108330039,0.0008559784152013812,-0.0017646101371441734,0.009386265707836348,0.9868206768700731
2011-01-31,1,0.0020413130231061545,0.0021073710960560115,-0.0074237623642558455,0.008637566495295679,0.9899808514347268
2011-02-02,1,0.0019913148952834915,0.0020596701991690922,-0.0017646101371441734,0.008854888223745118,0.9895598552933936
2011-02-04,1,0.002371998161687607,0.0025216296048147235,-0.01087268130120259,0.008637566495295679,0.988143518046186
2011-02-08,1,0.002316777671329085,0.0024203911022601943,-0.01087268130120259,0.00927810452488222,0.9874676389601679
2011-02-10,1,0.0030518267309425804,0.0033227654310988516,-0.01583452381485884,0.00927810452488222,0.9862207205320588
2011-02-14,1,0.0027528873708954965,0.0029115198651621507,-0.01583452381485884,0.008736744309343665,0.985770181105647
2011-02-16,1,0.0025376674039585935,0.0027217768215036424,-0.011118962664605669,0.00927810452488222,0.9856745263021275
2011-02-18,0,0.0,0.0,-0.011118962664605669,0.010542484767028328,0.9851856173151604
2011-02-23,1,0.0011588410156152548,0.0011600620875851218,-0.009576263870306221,0.010542484767028328,0.9873824913736259
2011-02-25,1,0.001199646146705307,0.0012044712508016689,-0.009576263870306221,0.01453769927749201,0.9870319395355848
2011-03-01,1,0.001346764868607865,0.0014115288958676782,-0.010687006460748036,0.01453769927749201,0.9867866817207441
2011-03-03,1,0.0024619590058878437,0.002683757645193306,-0.010687006460748036,0.00922268489458999,0.9883209650228519
2011-03-07,1,0.0011797078339682051,0.001212821523259351,-0.009208416186942991,0.01160839442198728,0.989066921383246
2011-03-09,1,0.0013909581492135316,0.0014451809345653916,-0.009208416186942991,0.00922268489458999,0.9898012181659169
2011-03-11,1,0.0007262725690871687,0.0007699758277337098,-0.009208416186942991,0.00605543237795879,0.9904173041424944
2011-03-15,1,0.00012427910683012947,0.00023864242903234888,-0.007121293251024797,0.00605543237795879,0.9910244665083183
2011-03-17,1,0.00019774438396754393,0.0003307358961866472,-0.007121293251024797,0.004225544193928994,0.9920891105129525
2011-03-21,1,0.0008759532382545334,0.0009336073461052357,-0.008494930179246718,0.004225544193928994,0.9917328056898391
2011-03-23,1,0.0002142423257769344,0.00037016516273667997,-0.007121293251024797,0.011275147679689776,0.9904105955584636
2011-03-25,0,0.0,0.0,-0.008494930179246718,0.009499702911388864,0.989726452758989
2011-03-29,0,0.0,0.0,-0.007121293251024797,0.011275147679689776,0.9897250560664155
2011-03-31,0,0.0,0.0,-0.007121293251024797,0.010012253753999596,0.989928857421872
2011-04-04,0,0.0,0.0,-0.007831706324171565,0.008271449468657606,0.9906167269438447
2011-04-06,0,0.0,0.0,-0.008760897549840677,0.008271449468657606,0.9895457817149615
2011-04-08,0,0.0,0.0,-0.007831706324171565,0.009828022909733537,0.9897294736078435
2011-04-12,0,0.0,0.0,-0.008438754622255337,0.009828022909733537,0.9891006569901233
2011-04-14,0,0.0,0.0,-0.0112668762783539,0.009828022909733537,0.9880080644424241
2011-04-18,0,0.0,0.0,-0.012424074251187144,0.009066261570492354,0.9883660663767254
2011-04-20,1,0.15710895747518425,0.15710895747518425,-0.012424074251187144,0.009066261570492354,0.8627316834889943
2011-04-25,0,0.0,0.0,-0.012424074251187144,0.00826729056899101,0.989525927209394
2011-04-27,0,0.0,0.0,-0.012424074251187144,0.00826729056899101,0.9888829247496235
2011-04-29,0,0.0,0.0,-0.012424074251187144,0.00970035735731103,0.987680080565019
2011-05-03,1,0.0015214319981685111,0.001557364203408937,-0.01333486160573935,0.011730310270189566,0.9848939885588681
2011-05-05,0,-4.4889630509355985e-05,5.563905793325483e-05,-0.01333486160573935,0.011730310270189566,0.9852738366356406
2011-05-09,0,-6.994187028681257e-05,0.00015689920476301487,-0.01333486160573935,0.00970035735731103,0.9857326476676439
2011-05-11,-1,-0.0005405833615890873,-0.0002496823269049931,-0.012437558075786875,0.00879080217227997,0.9865786181743044
2011-05-13,0,0.0,0.0,-0.012437558075786875,0.00879080217227997,0.9863252163254473
2011-05-17,0,0.0,0.0,-0.012465355497238987,0.012738460872078264,0.985183156857125
2011-05-19,-1,-0.0012366689942514475,-0.0009425682253565585,-0.012465355497238987,0.009017616007216055,0.9860406655289908
2011-05-23,-1,-0.0022548204784688343,-0.00183923539228221,-0.005314353581214201,0.015178941114902927,0.9853156297690363
2011-05-25,-1,-0.001816604515837536,-0.001449001521530989,-0.00441433167813511,0.012682310913508221,0.9864067658221155
2011-05-27,-1,-0.0006756282295603067,-0.0004462354487280418,-0.007379176309516446,0.012682310913508221,0.986752794719409
2011-06-01,-1,-0.002351031329717177,-0.0018830712541421327,-0.00441433167813511,0.012682310913508221,0.988521253162969
2011-06-03,-1,-0.0032505449138700675,-0.002670054251223134,-0.0006002348169883503,0.01489016562700446,0.986713509726342
2011-06-07,0,0.0,0.0,8.383445010701077e-05,0.01489016562700446,0.9880400408579597
2011-06-09,0,0.0,0.0,8.383445010701077e-05,0.01489016562700446,0.9875307428779313
2011-06-13,0,0.0,0.0,-0.003520800763535315,0.01489016562700446,0.9865154973140416
2011-06-15,-1,-0.0029372796358568902,-0.0024362818768944527,-0.003520800763535315,0.013249431810198777,0.987147416884866
2011-06-17,-1,-0.0026759060265213255,-0.002200852204859153,-0.0057373679951458366,0.013249431810198777,0.987588446990289
2011-06-21,0,0.0,0.0,-0.008029778848851463,0.009767773436633204,0.9884470560515777
2011-06-23,0,0.0,0.0,-0.008029778848851463,0.009767773436633204,0.9882497068551229
2011-06-27,-1,-0.00017399187374391844,-0.00015495099563632523,-0.008029778848851463,0.00755488231311185,0.9881669184387071
2011-06-29,1,0.0010187997961884463,0.0011576710133235915,-0.014279892275949804,0.0071900145309346285,0.9862251663899582
2011-07-01,1,0.0025501832004325414,0.0029141259105272127,-0.014279892275949804,0.00419213869130121,0.9875302844167267
2011-07-06,1,0.002702640650855209,0.0031000358220836565,-0.020048403587381736,0.005514804166875114,0.9851841835786674
2011-07-08,1,0.0027616642257367032,0.0031947385266418863,-0.021516709634297103,0.00419213869130121,0.9825415504951363
2011-07-12,0,0.0,0.0,-0.022778016873799992,0.005514804166875114,0.9781041225067003
2011-07-14,1,0.001201167719123093,0.001416632855277036,-0.032828521726055056,0.0071900145309346285,0.9739046572818585
2011-07-18,0,0.0,0.0,-0.032828521726055056,0.009414740689959313,0.972855627580184
2011-07-20,1,0.00060147814200422,0.0006357425623038542,-0.032828521726055056,0.007393062856224419,0.9723340103599113
2011-07-22,1,0.00067125856623628,0.000731044922460358,-0.04036486519744016,0.0056890561721875095,0.9689477528308883
2011-07-26,1,0.0008811496241354793,0.0010188024917959946,-0.04036486519744016,0.015728725247951273,0.9675009637394965
2011-07-28,-1,-0.0015145325828559565,-0.0013431359641952244,-0.03472239396644324,0.021014274769498204,0.9678678689576188
2011-08-01,-1,-0.002094346008630071,-0.0018262133935608518,-0.03472239396644324,0.02763315340881756,0.9651503081620545
2011-08-03,0,0.0,0.0,-0.027956276034154674,0.02763315340881756,0.9666532091190585
2011-08-05,-1,-0.005402104028278114,-0.004702324400858436,-0.02643904229613516,0.02763315340881756,0.9677765552582921
2011-08-09,-1,-0.0057136585557144865,-0.00501159947223802,-0.0222201419712461,0.023028215759694194,0.973845347060657
2011-08-11,-1,-0.004557862317980412,-0.004042484179885606,-0.02190368991781581,0.021014274769498204,0.9771708660377981
2011-08-15,-1,-0.0035355999663487406,-0.0031216423796795183,-0.02522678201789734,0.02013819283267103,0.9767945468666319
2011-08-17,-1,-0.004370312983792717,-0.0038925718821810487,-0.02190368991781581,0.02013819283267103,0.976398116917751
2011-08-19,-1,-0.007056137455122501,-0.006257655052698317,-0.018297871310681925,0.02013819283267103,0.979189169231269
2011-08-23,-1,-0.004262117289068125,-0.0038161422641276354,-0.02190368991781581,0.017480626223947703,0.9809513884239149
2011-08-25,-1,-0.004268191508936571,-0.003850093686400479,-0.02190368991781581,0.015048559148356603,0.9802317622170034
2011-08-29,-1,-0.0020310336530265614,-0.0018774763349984067,-0.02190368991781581,0.009325824378498637,0.9803871794428276
2011-08-31,-1,-0.0015217536115088122,-0.0013974335099975828,-0.02548968613584429,0.009325824378498637,0.9787275453107166
2011-09-02,-1,-0.003040045218363905,-0.002725412613853428,-0.025795192918857582,0.009325824378498637,0.9780282653776778
2011-09-07,-1,-0.003815885681721261,-0.0034149789503937975,-0.025795192918857582,0.018756292062979248,0.9743632014527918
2011-09-09,0,0.0,0.0,-0.02517526106486767,0.01906159459037354,0.9736807808752995
2011-09-13,0,0.0,0.0,-0.020783581848482273,0.022084878985117632,0.9733635090200708
2011-09-15,-1,-0.0031213340804759726,-0.0028711960799552715,-0.021270482703089132,0.026323808749414847,0.9729374400040632
2011-09-19,0,0.0,0.0,-0.025543125199397037,0.026323808749414847,0.9712609397704395
2011-09-21,0,0.0,0.0,-0.025281859637874236,0.032377481126629096,0.9698908716108959
2011-09-23,0,0.0,0.0,-0.021270482703089132,0.032377481126629096,0.9717667197575734
2011-09-27,0,0.0,0.0,-0.021270482703089132,0.026323808749414847,0.972580537313462
2011-09-29,0,0.0,0.0,-0.016847923214188043,0.032377481126629096,0.9725183929377438
2011-10-03,0,0.0,0.0,-0.012807863495259666,0.032377481126629096,0.9725278412257732
2011-10-05,-1,-0.001352179268261419,-0.0012222185105142406,-0.016847923214188043,0.020762538605525124,0.974831921905529
2011-10-07,-1,-0.0012805796404517832,-0.0011331050700858721,-0.016847923214188043,0.020762538605525124,0.9749932871678881
2011-10-11,1,0.001174172718137351,0.0013841069020120804,-0.016847923214188043,0.018469199744711652,0.9773826576458359
2011-10-13,1,0.0011902996120580107,0.0013444234147344536,-0.017977605554364288,0.017367542998324145,0.9772875692745995
2011-10-17,1,0.0005922979866816644,0.0007151707995618794,-0.014468281532537076,0.018469199744711652,0.9773514570206283
2011-10-19,1,0.0016580994781280113,0.0019855713472576673,-0.014468281532537076,0.017367542998324145,0.979982698247946
2011-10-21,1,0.0015153305945727535,0.0017650813291108357,-0.015779056312585745,0.017367542998324145,0.9793784803173192
2011-10-25,1,0.002293307857035002,0.002615490266885274,-0.021909929894510294,0.013242622083693662,0.9786953788529256
2011-10-27,0,0.0,0.0,-0.025723612426140862,0.008604031173911902,0.9800568711607157
2011-10-31,0,0.0,0.0,-0.021909929894510294,0.012849383903816928,0.9806378597759989
2011-11-02,0,0.0,0.0,-0.015779056312585745,0.013683816017668533,0.9806166353325096
2011-11-04,0,0.0,0.0,-0.015779056312585745,0.019389376151751396,0.9802777665224167
2011-11-08,0,0.0,0.0,-0.009724227649866819,0.019389376151751396,0.9805494280161797
2011-11-10,0,0.0,0.0,-0.009724227649866819,0.02193392741691416,0.9793967391809796
2011-11-14,0,0.0,0.0,-0.021684815781323207,0.019389376151751396,0.9804109387435993
2011-11-16,0,0.0,0.0,-0.011795457767468542,0.019389376151751396,0.9806552978391562
2011-11-18,0,0.0,0.0,-0.010127272981383953,0.019389376151751396,0.9815003581237807
2011-11-22,0,0.0,0.0,-0.007376297211777013,0.02193392741691416,0.9810187435338937
2011-11-25,0,0.0,0.0,-0.0058435301774218806,0.02193392741691416,0.9814633486611982
2011-11-29,0,0.0,0.0,-0.007376297211777013,0.020089759113010693,0.9828406214615333
2011-12-01,1,0.004219300470271772,0.0049401094284952304,-0.007376297211777013,0.01669816883074304,0.9842135297378786
2011-12-05,1,0.0054299488475396795,0.006302364975929703,-0.009700087441932518,0.01444705364184374,0.9842296141567184
2011-12-07,1,0.00578168319598224,0.006705898629629031,-0.01599670269633377,0.01444705364184374,0.9833574946819467
2011-12-09,1,0.005348717857839514,0.006236816771859317,-0.009700087441932518,0.01444705364184374,0.985203251414473
2011-12-13,1,0.004685783747428132,0.005500096421627444,-0.007376297211777013,0.014951932080904187,0.9864910663400561
2011-12-15,1,0.004400191520566344,0.005112047959077973,-0.006563546729366016,0.014228370537235096,0.9874240001818899
2011-12-19,1,0.0033714917907222784,0.0038349103788383873,-0.004184825279333614,0.014228370537235096,0.9884408132842993
2011-12-21,1,0.00458595660940184,0.005216525281373126,-0.004184825279333614,0.010973344659440578,0.9895144793843822
2011-12-23,1,0.004658460099050625,0.00525413891967869,-0.004184825279333614,0.009370254814626482,0.9900987926011201
2011-12-28,1,0.002740153989311679,0.0029980105813943343,-0.002514657895388466,0.01257266198340404,0.9890335362973882
2011-12-30,1,0.0009385817853498013,0.001097141007266478,-0.002514657895388466,0.010477539412503609,0.9889641583462334
2012-01-04,1,0.0016094298221006418,0.0019608394795482616,-0.00017551878175216967,0.010477539412503609,0.990200350886934
2012-01-06,1,0.0018617113311357593,0.002265398711031359,-0.00017551878175216967,0.01274095479642419,0.9903195966776298
2012-01-10,1,0.0021274796818906497,0.002510098449291795,-0.00017551878175216967,0.010477539412503609,0.9916773109204235
2012-01-12,1,0.001885484613026147,0.0020136955482995176,-0.00027961264255508666,0.009370254814626482,0.9914758703214245
2012-01-17,1,0.0030945112058403997,0.0035197721146053938,-0.0011075330412370116,0.010477539412503609,0.9909757100012279
2012-01-19,1,0.002590009061511471,0.0029042457855494135,-0.003361298587646121,0.01279069187247624,0.9900427951795288
2012-01-23,1,0.002790968396834289,0.0032213636352996433,-0.003361298587646121,0.01279069187247624,0.9911388519534847
2012-01-25,1,0.0025724223812863324,0.003075196505791251,-0.005970910144035805,0.01279069187247624,0.9906750606381921
2012-01-27,1,0.0029126136142097344,0.0033551184475290132,-0.007250769290986671,0.004978466006849904,0.9917950841409601
2012-01-31,1,0.0025190185493823665,0.0029186359871151146,-0.008026258627530352,0.004978466006849904,0.9913835435834493
2012-02-02,1,0.002204845698301004,0.0024818657346062176,-0.008796733525586607,0.0034186216413941333,0.9913502925797018
2012-02-06,1,0.0019462047690835859,0.0021733691308312413,-0.009361381741132713,0.002663448337961674,0.9905051429056024
2012-02-08,1,0.0021515155512520927,0.002442162714369703,-0.009361381741132713,0.003927906502626661,0.9897475846670002
2012-02-10,1,0.0016739360990160527,0.0018810922555127607,-0.008137935093671621,0.007513493378787311,0.9899958119808168
2012-02-14,1,0.001397044158802002,0.0014311964004736742,-0.009361381741132713,0.007513493378787311,0.9895477352742581
2012-02-16,-1,-0.0008562925149327905,-0.0005496590740921944,-0.009361381741132713,0.004442168271793051,0.9907710402903246
2012-02-21,1,0.0004913629397088391,0.0006057067186502744,-0.010092250464058521,0.0028348689276838043,0.9904616776739307
2012-02-23,-1,-0.0008084202841841349,-0.0005231203205774554,-0.010092250464058521,0.0028348689276838043,0.9901062966684175
2012-02-27,-1,-0.0009484451777882171,-0.000565582377621708,-0.009790066405347807,0.011109481643877997,0.9892173632880106
2012-02-29,1,0.0004076502610798967,0.00045400602157894476,-0.010669183532694516,0.011109481643877997,0.9883828861846204
2012-03-02,1,0.00021427126371610089,0.00022177080899870756,-0.009790066405347807,0.011887130816582978,0.9879135990538805
2012-03-06,-1,-0.00034608978631637437,-0.00033010492742711645,-0.009772973275428323,0.013222940850217198,0.9887086828392466
2012-03-08,1,0.0002970247110938992,0.00036967609309964213,-0.010167007888976804,0.011887130816582978,0.9884597156402564
2012-03-12,1,2.0573416075114257e-05,3.276502516381963e-05,-0.011281552393189724,0.01081079344845659,0.9879534636051389
2012-03-14,1,0.0005523059701032589,0.000650761477667532,-0.011230273003431275,0.01081079344845659,0.9888486059103249
2012-03-16,1,0.0007163456450061519,0.0008455617354230669,-0.011230273003431275,0.01081079344845659,0.9890177905964344
2012-03-20,1,0.0008192353233803715,0.0010260766905160175,-0.011230273003431275,0.0116298550488159,0.9876240926077271
2012-03-22,1,0.0006488154071061787,0.0008753578765648256,-0.011230273003431275,0.0116298550488159,0.9878266632163201
2012-03-26,1,0.0002454117972214179,0.0002621247514064512,-0.011230273003431275,0.009603315461553796,0.9884783140387725
2012-03-28,-1,-0.0005611529430899023,-0.0004848832330278407,-0.00962331003974776,0.01081079344845659,0.9886186935027625
2012-03-30,1,0.0003850396544528703,0.00046374959599655686,-0.01091953261198366,0.010836629172316644,0.9883599071675399
2012-04-03,0,0.0,0.0,-0.0103929278926741,0.009592601455606323,0.9891130168783322
2012-04-05,0,0.0,0.0,-0.013500191373551783,0.009592601455606323,0.98896585282942
2012-04-10,-1,-0.0008920759014400461,-0.0007105148499126138,-0.013500191373551783,0.009592601455606323,0.9889972857082663
2012-04-12,0,0.0,0.0,-0.013500191373551783,0.009592601455606323,0.9889428010561365
2012-04-16,0,0.0,0.0,-0.013500191373551783,0.009592601455606323,0.9885814925525891
2012-04-18,0,0.0,0.0,-0.013500191373551783,0.0053273680838510995,0.9896043327884745
2012-04-20,0,0.0,0.0,-0.013500191373551783,0.004691560334575773,0.9891562244388957
2012-04-24,0,0.0,0.0,-0.013500191373551783,0.0033466903356089654,0.9875595691942796
2012-04-26,0,0.0,0.0,-0.013500191373551783,0.0027516929079658865,0.9874597755531294
2012-04-30,0,0.0,0.0,-0.010155720487280983,0.0027516929079658865,0.9879930104001392
2012-05-02,0,0.0,0.0,-0.01603271153598035,0.0018973391722290028,0.9867961053860249
2012-05-04,-1,-0.002347288855012676,-0.0020126052638275794,-0.017385306252925926,0.0018973391722290028,0.9868897869425173
2012-05-08,0,0.0,0.0,-0.016426509798378494,0.011308948816686953,0.9850322916434919
2012-05-10,0,0.0,0.0,-0.016426509798378494,0.012615791836103318,0.9850880971454694
2012-05-14,-1,-0.004104315160550477,-0.0034333388146504883,-0.017873895779117167,0.012615791836103318,0.9845313127515295
2012-05-16,0,0.0,0.0,-0.01767349502363794,0.012615791836103318,0.9842580824008227
2012-05-18,0,0.0,0.0,-0.01619557471137743,0.012615791836103318,0.9852288893563299
2012-05-22,0,0.0,0.0,-0.01619557471137743,0.011311329308453185,0.9870043581836402
2012-05-24,-1,-0.002718577758430301,-0.002192598941725193,-0.01767349502363794,0.008936081164139045,0.9863266734899195
2012-05-29,0,0.0,0.0,-0.01796549877368268,0.006947329581073423,0.985501417063884
2012-05-31,0,0.0,0.0,-0.01767349502363794,0.006947329581073423,0.9868963918099012
2012-06-04,0,0.0,0.0,-0.010498809765337139,0.008936081164139045,0.9871689044405906
2012-06-06,0,0.0,0.0,-0.010498809765337139,0.006947329581073423,0.9879640366508027
2012-06-08,0,0.0,0.0,-0.01612512149464349,0.005854424381035356,0.9872928059620256
2012-06-12,0,0.0,0.0,-0.014476344313001694,0.0011418761648791733,0.987450697630588
2012-06-14,-1,-0.0038987772789024267,-0.0034046564270136465,-0.011971776660472413,0.005854424381035356,0.9875063039588049
2012-06-18,-1,-0.0029369621819755856,-0.002573056224155933,-0.014476344313001694,0.0046463241883027105,0.9866035718629627
2012-06-20,-1,-0.0018821180400071748,-0.001729664973908365,-0.014476344313001694,0.01017087242550352,0.9845624282207436
2012-06-22,-1,-0.0035716358683092865,-0.0032140114512544133,-0.011971776660472413,0.01017087242550352,0.9854639623008913
2012-06-26,-1,-0.0038864770956793353,-0.0035242225572852887,-0.011971776660472413,0.01017087242550352,0.9856087218543896
2012-06-28,-1,-0.0036655304194416843,-0.0033496865733261745,-0.011971776660472413,0.020353973809595652,0.9824634641123253
2012-07-02,-1,-0.0024557818934260785,-0.002294167280298072,-0.011971776660472413,0.018749548009073455,0.9842872828666607
2012-07-05,-1,-0.0019029861490522174,-0.0017983875238846612,-0.011971776660472413,0.01017087242550352,0.9848736528762199
2012-07-09,-1,-0.0020292333939412647,-0.0019515773282714373,-0.01045907483015428,0.01843359060320919,0.9846921573833404
2012-07-11,-1,-0.002597745498206354,-0.002480536327523108,-0.007669287616179655,0.01843359060320919,0.9840399458884221
2012-07-13,-1,-0.0011339332601023985,-0.0010695934829239296,-0.007669287616179655,0.017547251429681186,0.9853552170089387
2012-07-17,-1,-0.00191780879523911,-0.0018666856398590684,-0.006468009315161779,0.017547251429681186,0.9864408414587494
2012-07-19,-1,-0.00043439133197299365,-0.00030566620089793485,-0.006468009315161779,0.012643148768100233,0.9882020418216696
2012-07-23,-1,-0.0017058475793767125,-0.001647407364004339,-0.002451439925586138,0.012643148768100233,0.9886267150043875
2012-07-25,-1,-0.002592423245897751,-0.002418385684265618,-0.0015588944781713863,0.012643148768100233,0.9890468079427828
2012-07-27,-1,-0.0009124113026841814,-0.0008663756583055765,-0.0015588944781713863,0.00910177692009503,0.9925765889914155
2012-07-31,-1,-0.0002985241579282052,-0.00019863324546045625,-0.0023351883454558386,0.00910177692009503,0.9931646324211131
2012-08-02,-1,-0.00040252976321845235,-0.0002934225737054961,-0.0017766668748078625,0.00910177692009503,0.9935971215042327
2012-08-06,1,0.000632011914371308,0.0009062597881069255,-0.0017766668748078625,0.005395912620980244,0.9948424626403901
2012-08-08,1,0.001801393367860628,0.0022409120540215735,-0.003515367253638228,0.003783695710487856,0.9944197934015178
2012-08-10,1,0.002100492841520852,0.0025576277221850355,-0.003515367253638228,0.0026768914419240822,0.9938526922014387
2012-08-14,1,0.001457183557374591,0.0017924811290513764,-0.003515367253638228,0.003808863452953762,0.9941894359904165
2012-08-16,1,0.0028663329604434163,0.0034404362134756463,-0.003515367253638228,0.005395912620980244,0.9925879161041442
2012-08-20,1,0.0018619292141500308,0.002237081170594978,-0.003515367253638228,0.005395912620980244,0.992207277173197
2012-08-22,1,0.0023265738830740065,0.0028208590403916937,-0.0017766668748078625,0.007576369740328427,0.9922892707503302
2012-08-24,1,0.0026192445278411794,0.003159945391985666,-0.003515367253638228,0.007576369740328427,0.9914272835024011
2012-08-28,1,0.0019816017812206575,0.0023727669449141397,-0.004442494189039579,0.007576369740328427,0.9905280763656469
2012-08-30,1,0.0014761772426082754,0.0017637478251934934,-0.004442494189039579,0.009263564762070707,0.990234170319684
2012-09-04,1,0.002097560931965143,0.002504802916010771,-0.007531396106773135,0.008819035492516036,0.9895420912756384
2012-09-06,1,0.002131961118248125,0.0025437828839044783,-0.004442494189039579,0.009082018476925297,0.9901472650496647
2012-09-10,1,0.0025144839388859695,0.002973634921948523,-0.008468023744175837,0.00453568249273649,0.9896968884574798
2012-09-12,1,0.0022647357318346314,0.002671376411066871,-0.015462390327591292,0.004340499525365539,0.9875744137492116
2012-09-14,1,0.004259282062861176,0.004949740177709431,-0.015462390327591292,0.0011184598983875037,0.9882255348397757
2012-09-18,1,0.004078977555802549,0.004799322195356689,-0.014731800635699776,0.002943024451716135,0.9885034788675882
2012-09-20,1,0.004249037331099105,0.004987021178256126,-0.015462390327591292,0.004596849611497896,0.9861244509872024
2012-09-24,1,0.0034911397883514834,0.0041130669291858275,-0.015122153942983543,0.005323061623676025,0.9869429309161611
2012-09-26,1,0.0023745519348343,0.002787506230481957,-0.009771240148831144,0.008234470992554659,0.9880410707474735
2012-09-28,1,0.0023530460564675114,0.0027322386315842156,-0.009771240148831144,0.007635643216094795,0.9879805084794314
2012-10-02,1,0.0016806614950632863,0.001963824736137034,-0.00784983069935047,0.012247010626890986,0.9878807394058194
2012-10-04,1,0.0021661515556235093,0.002509776802579949,-0.009771240148831144,0.01226044357725176,0.9859562556560467
2012-10-08,1,0.0010460813401065097,0.001189108347300414,-0.010188857633183184,0.013759404958622972,0.9852347775011339
2012-10-10,-1,-0.0009274654286329804,-0.0007778278708876097,-0.00784983069935047,0.014137762441416804,0.9860171556064152
2012-10-12,0,0.0,0.0,-0.00784983069935047,0.014137762441416804,0.9860114367455276
2012-10-16,0,0.0,0.0,-0.00784983069935047,0.012147836644221527,0.9874254972077617
2012-10-18,1,0.0019999934685917347,0.0023297101737547203,-0.007350337437507279,0.013799941642326107,0.9888291788183995
2012-10-22,0,0.0,0.0,-0.003656256243394872,0.013799941642326107,0.9886764408839026
2012-10-24,0,0.0,0.0,-0.0026345248073657386,0.013799941642326107,0.9886413593345109
2012-10-26,0,0.0,0.0,-0.0026345248073657386,0.013799941642326107,0.9883359481940851
2012-11-01,0,0.0,0.0,-0.0039885224730139435,0.012442145438718074,0.988956427316213
2012-11-05,1,0.0024311967573069655,0.002763899487798761,-0.0039885224730139435,0.011542328498427963,0.9912590564799283
2012-11-07,1,0.001664358256326202,0.001846480646361249,-0.0026345248073657386,0.01002219187336937,0.9929380866150345
2012-11-09,1,0.0019354682884573668,0.0021750092749699143,-0.0014440592193731485,0.006364189203186014,0.9939058458045164
2012-11-13,1,0.002137808830381058,0.002413806234324024,-0.0014440592193731485,0.006317539077312754,0.9940403237139435
2012-11-15,1,0.0012699089238692642,0.0013471424996476763,-0.0017177391690154414,0.006317539077312754,0.9937692586546785
2012-11-19,0,0.0,0.0,-0.0017177391690154414,0.005491003930143179,0.9941989867689264
2012-11-21,0,0.0,0.0,-0.003477750913894296,0.005491003930143179,0.9938238287232948
2012-11-26,1,0.0015483594480859833,0.00163215872747369,-0.003477750913894296,0.005143102391007163,0.994332570326553
2012-11-28,0,0.0,0.0,-0.002701907884603684,0.004825469917170295,0.9952354949042069
2012-11-30,0,0.0,0.0,-0.002701907884603684,0.004825469917170295,0.9951391693522393
2012-12-04,1,0.0005125938465578557,0.0006512821120374828,-0.0018452077497077336,0.004825469917170295,0.9947618558203694
2012-12-06,1,0.000968454494124228,0.0010072378845060676,-0.002701907884603684,0.004825469917170295,0.9944799707666242
2012-12-10,1,0.0006206551433659643,0.0007375142393958708,-0.002701907884603684,0.0054010017389239705,0.9942252451999704
2012-12-12,1,0.001293437179226452,0.0013185787654888261,-0.003477750913894296,0.0054010017389239705,0.994023524557986
2012-12-14,1,0.00029545427229650984,0.00042729077161076854,-0.003802498394421824,0.0054010017389239705,0.9939868240829495
2012-12-18,1,0.0006864317683448688,0.0008166831590708241,-0.003802498394421824,0.0044309646873564,0.993928883406165
2012-12-20,1,0.0011369776276846041,0.0011573647175515244,-0.0026240811323727108,0.0044309646873564,0.9941654451138437
2012-12-24,1,0.0009563084011005875,0.0009758821611333041,-0.0035690181377289044,0.0033661056731110455,0.9935715191748709
2012-12-27,1,0.0007095840161947175,0.0007624198655709908,-0.004392467261754277,0.0049881704699124224,0.9929536555998865
2012-12-31,1,0.0012661422269364259,0.0012978539256976822,-0.004392467261754277,0.0049881704699124224,0.9919619878835076
2013-01-03,1,0.0018104257626859698,0.0019588958148599733,-0.004392467261754277,0.0049881704699124224,0.9923994070887898
2013-01-07,1,0.0017142874781871406,0.0018706211669634115,-0.004392467261754277,0.008351594118731171,0.991966784773305
2013-01-09,1,0.0017382423705258935,0.0018748407483271377,-0.005204471964629077,0.008141059108790177,0.9917745554477869
2013-01-11,1,0.0018091801264529914,0.001998022665204243,-0.004553203948111767,0.008141059108790177,0.9919636084353294
2013-01-15,1,0.0013668690549324097,0.0014689235013389578,-0.003351928798889801,0.008141059108790177,0.9922031618988414
2013-01-17,1,0.001923105035400476,0.0020892892134968225,-0.003351928798889801,0.007731196952427127,0.9928434092687841
2013-01-22,1,0.0018140910272498381,0.001969845584962545,-0.004553203948111767,0.007731196952427127,0.992494023526618
2013-01-24,1,0.0014129865864428884,0.0015053587067920863,-0.004553203948111767,0.010151015633360981,0.9919733091084039
2013-01-28,1,0.0012030681515686177,0.001252820147514111,-0.005702396921168986,0.010282059616483675,0.9909300092635889
2013-01-30,1,0.001727103316356446,0.0018528984146410782,-0.004172246670806519,0.010282059616483675,0.9918683589452463
2013-02-01,1,0.0022287664095086875,0.0024145705151213067,-0.005702396921168986,0.007731196952427127,0.9918862591444806
2013-02-05,1,0.0022787781604969226,0.00249384303506018,-0.005425142000097557,0.007731196952427127,0.9919181495736108
2013-02-07,1,0.0020609510119844626,0.002239891124977987,-0.0040798283637827094,0.009104240928200561,0.9919713902415652
2013-02-11,1,0.0026458032663030638,0.003017270579246789,-0.006009403823563279,0.009104240928200561,0.9916392991748986
2013-02-13,1,0.0025070782355901006,0.002820397219379674,-0.006009403823563279,0.010087410750971661,0.9911872039243912
2013-02-15,0,0.0,0.0,-0.0064500021385510906,0.009450498202174291,0.9910726762601211
2013-02-20,0,0.0,0.0,-0.005463874900602246,0.009450498202174291,0.9913676752030885
2013-02-22,0,0.0,0.0,-0.005463874900602246,0.0072427909643222295,0.9918167176639157
2013-02-26,0,0.0,0.0,-0.005463874900602246,0.006889090884998754,0.992807301794447
2013-02-28,0,0.0,0.0,-0.005805403994049146,0.00688599004490735,0.9932703973260834
2013-03-04,1,0.0017242021500791362,0.001822751182924986,-0.006386042451603468,0.00688599004490735,0.9924677181434041
2013-03-06,1,0.0015949506300511056,0.0016271732670116396,-0.006386042451603468,0.00688599004490735,0.9924751994203701
2013-03-08,0,0.0,0.0,-0.006386042451603468,0.00688599004490735,0.992402205090549
2013-03-12,0,0.0,0.0,-0.005805403994049146,0.007467833907699991,0.9919577848010507
2013-03-14,1,0.0012623707569240053,0.0013082512985836095,-0.006386042451603468,0.006427358191677969,0.9915568941643801
2013-03-18,1,0.0012463652372641384,0.0012874992136677622,-0.007963078711875455,0.007467833907699991,0.988919514715004
2013-03-20,1,0.00034961312097504934,0.000526032594677231,-0.014335006219224043,0.007467833907699991,0.986928175021406
2013-03-22,0,-9.912576324320912e-05,0.00014928467995215552,-0.010077674210121509,0.007467833907699991,0.9875592247350977
2013-03-26,-1,-0.00034213679837154145,-6.457321842677803e-05,-0.010077674210121509,0.0140532838620673,0.9868761832379107
2013-03-28,1,0.00024282597418405613,0.00040012767965610403,-0.012815313297471783,0.0140532838620673,0.9866997418108441
2013-04-02,0,0.0,0.0,-0.01075001418036503,0.0140532838620673,0.9869078366677468
2013-04-04,0,0.0,0.0,-0.012450729851845362,0.014572293780683388,0.9861648421144559
2013-04-08,0,0.0,0.0,-0.012450729851845362,0.014572293780683388,0.9852432833869347
2013-04-10,0,0.0,0.0,-0.012450729851845362,0.012151883528910399,0.98552754341668
2013-04-12,0,0.0,0.0,-0.01075001418036503,0.012151883528910399,0.9858986745117185
2013-04-16,0,0.0,0.0,-0.007393695545650953,0.012151883528910399,0.988104447436778
2013-04-18,-1,-0.0030824072422472766,-0.002577896785118338,-0.0024072956852965793,0.012151883528910399,0.9892851084606223
2013-04-22,-1,-0.0032215314545610487,-0.002717105515034839,-0.0005651554825189814,0.014572293780683388,0.9877709133571828
2013-04-24,-1,-0.002124226540310089,-0.0017360900998206333,-0.002148021945870467,0.011294969196013777,0.9891091741244094
2013-04-26,-1,-0.002257445966427884,-0.0018764681807310517,-0.0008579044744828782,0.013393708445042517,0.9873204381863919
2013-04-30,-1,-0.0023283677101152804,-0.0019403243718962794,-0.0008579044744828782,0.013393708445042517,0.9874538246380214
2013-05-02,-1,-0.0018764525754992717,-0.0015420714666223739,-0.0008579044744828782,0.011294969196013777,0.9886586229912772
2013-05-06,-1,-0.000902135011553924,-0.0006900786574871199,-0.0008579044744828782,0.010070178200534047,0.9903151855636508
2013-05-08,-1,-0.0005820787351045575,-0.00041047772830087796,-0.003287887030857813,0.010070178200534047,0.9892849901123346
2013-05-10,-1,-0.000509878306233398,-0.0003255678330288199,-0.004154639268925316,0.008457346200623397,0.9892843133554191
2013-05-14,1,0.0006449347098237622,0.0006456052734546664,-0.007435257185459246,0.007913853532308501,0.989336917941348
2013-05-16,1,1.864028260307359e-05,0.0001169007739652869,-0.007435257185459246,0.008457346200623397,0.9890698636718037
2013-05-20,1,0.0009139629642075383,0.0009215417389748689,-0.007435257185459246,0.008457346200623397,0.9890614655965299
2013-05-22,1,5.109329873395944e-05,0.00013549432044424885,-0.009920225058629542,0.008457346200623397,0.9878865591382173
2013-05-24,1,0.0010976977164858528,0.0011586900728682804,-0.012919660765078536,0.007141111346168877,0.988820547482765
2013-05-29,1,0.0008684573913434524,0.0008978667228329044,-0.009920225058629542,0.010344231596270868,0.9886002626582521
2013-05-31,1,0.0008177059229147707,0.0008293437376511912,-0.009920225058629542,0.010344231596270868,0.9886897111393851
2013-06-04,1,0.001220982400803898,0.0012974765251242645,-0.012574118283386176,0.008020912919572689,0.988449798862792
2013-06-06,1,0.001088070776985265,0.0011313396714372488,-0.009920225058629542,0.008020912919572689,0.9893251487316391
2013-06-10,1,0.0005975950361291865,0.000630763830604434,-0.008175392059805567,0.011701251900195487,0.9891702588308302
2013-06-12,1,0.0002992379322361763,0.00032785396164863764,-0.0029760251112087317,0.012763480800486844,0.9889907763916526
2013-06-14,1,0.0005380735626806248,0.0005381010576181867,-0.004260472658424191,0.011701251900195487,0.9894296244761597
2013-06-18,1,0.0010508000686902065,0.001109344533799756,-0.005324626227078704,0.007099034840631459,0.990185316160327
2013-06-20,-1,-0.0008218825087565507,-0.0006815095878095782,-0.0036995646562406775,0.012763480800486844,0.9892396021972413
2013-06-24,-1,-0.0013455247183972185,-0.0011583802760421482,-0.002653766090415854,0.013413033984265271,0.9895307594319751
2013-06-26,-1,-0.00019017591380440433,-0.00016330982533491233,-0.0036995646562406775,0.013413033984265271,0.9902464471064162
2013-06-28,-1,-0.0003350210575154461,-0.0002862138605575163,-0.0036995646562406775,0.013413033984265271,0.990048391458328
2013-07-02,-1,-0.000546842109381155,-0.00046518103063795827,-0.002653766090415854,0.013413033984265271,0.9902601137334601
2013-07-05,-1,-9.19656216465919e-05,-7.78001878361674e-05,-0.0036995646562406775,0.013413033984265271,0.9898305567361084
2013-07-09,1,0.0005000078428326544,0.0005750726057729182,-0.0047158226367860255,0.010117544559310916,0.9903586305767071
2013-07-11,1,0.0011966315439395107,0.0013908925394059365,-0.0047158226367860255,0.0073421156392679526,0.9910019956753244
2013-07-15,1,0.0008482813398984421,0.0009747963361250004,-0.0033479747164226244,0.0073421156392679526,0.9912161019180693
2013-07-17,1,0.000932873635516434,0.0011111872132411583,-0.0010663042081975925,0.0073421156392679526,0.9915264014493768
2013-07-19,1,0.0019453227024148708,0.0022096514626395885,-0.0034231578748176814,0.005099349332852903,0.9935955737200776
2013-07-23,1,0.00201415820444299,0.002297173338622124,-0.00605076683730851,0.0041372272176020495,0.9938877114430572
2013-07-25,1,0.0014832619882904612,0.0016856585521042014,-0.00605076683730851,0.005099349332852903,0.9937887109722537
2013-07-29,1,0.0013055981721089268,0.0014955469546904885,-0.00310961055533904,0.005627228685464454,0.994192677463513
2013-07-31,1,0.0015451316899438403,0.0017803825260970566,-0.00605076683730851,0.004494611919892791,0.9935226316871877
2013-08-02,1,0.0016573423549703183,0.001894787865662456,-0.00605076683730851,0.004041394984385061,0.9943647566725983
2013-08-06,1,0.0018236210415793828,0.0021097945970101183,-0.0019421738623612021,0.005627228685464454,0.99400644076668
2013-08-08,1,0.002075149886119826,0.002369590365963837,-0.0019421738623612021,0.004494611919892791,0.9941538733158227
2013-08-12,1,0.0021606973280100996,0.0024426927412448327,-0.0019421738623612021,0.006443197329170582,0.9934088149478538
2013-08-14,1,0.002052238424292581,0.0022930235448083668,-0.005207783901517688,0.006443197329170582,0.9930919558171679
2013-08-16,1,0.0015587682162255447,0.0017376005073783296,-0.002095467176490197,0.00701563846957443,0.9934850693017324
2013-08-20,1,0.001473286835338664,0.0016504677672414198,-0.0015881316088401146,0.007357787220797254,0.9930309683292474
2013-08-22,1,0.0010124096710081038,0.001082133932818478,-0.0015881316088401146,0.008107350808362526,0.9919871161635729
2013-08-26,1,0.0012214916790274733,0.001330636318737138,-0.0015881316088401146,0.008107350808362526,0.9921391859784559
2013-08-28,1,0.0011306331112544239,0.0012511197851593843,-0.002413282664888995,0.008107350808362526,0.9927907787080696
2013-08-30,1,0.0011405128032748982,0.0012968156816320264,-0.002413282664888995,0.008107350808362526,0.9928717408215173
2013-09-04,1,0.0014956788047666915,0.0016301766904886304,-0.0034923722398942474,0.0077484292985324455,0.9930612235597934
2013-09-06,1,0.0014119698810584626,0.0015186524216594152,-0.00498052610303956,0.00701884451220228,0.9921455636693108
2013-09-10,1,0.0008876478481817413,0.0009425247357349679,-0.005683103809720915,0.005329235829659596,0.9922597493489153
2013-09-12,1,0.000459191183343805,0.0006050388115485445,-0.007244646507711131,0.006463395353455266,0.9911236126399406
2013-09-16,1,0.0009823990303844804,0.000984934795434865,-0.007244646507711131,0.006463395353455266,0.9906844938941072
2013-09-18,1,0.0011712498705103262,0.0012341342260898144,-0.008463968960954476,0.005329235829659596,0.9900622383489619
2013-09-20,1,0.0005595584826895486,0.0007212281227210432,-0.008215369851758164,0.005329235829659596,0.9906483096294283
2013-09-24,1,0.0003112274760718033,0.00045878271181813755,-0.008215369851758164,0.006463395353455266,0.9900697158877568
2013-09-26,1,0.0006293728849540786,0.0007113464429923447,-0.008089905428697398,0.009725857938802096,0.9897906114555794
2013-09-30,1,0.0008576531140349517,0.0009036159148493472,-0.009143703863194592,0.009725857938802096,0.9897354915199897
2013-10-02,1,0.0009875075879939386,0.0010000816932473231,-0.009143703863194592,0.008624689349613333,0.9899109796385483
2013-10-04,1,0.0007942277435175826,0.0008011490945605249,-0.007665573979090588,0.008624689349613333,0.9907319226484991
2013-10-08,1,0.00015714896162101905,0.00024691234019114176,-0.0061591155180920395,0.008624689349613333,0.9914041204685622
2013-10-10,1,0.0010650645120295031,0.0011348496305343431,-0.0065103816629244375,0.005990949635727837,0.9923171439053186
2013-10-14,1,0.00043554824282026586,0.0004741721912870473,-0.0065103816629244375,0.005990949635727837,0.991912743933075
2013-10-16,1,5.881864003854532e-05,6.808452100590967e-05,-0.0027679656172927116,0.008624689349613333,0.9927071177048202
2013-10-18,1,7.917565295485701e-05,0.00011736044385485973,-0.002674822335351194,0.007350135324600221,0.9935855543226969
2013-10-22,1,0.0005253816303920963,0.0005454632219013802,-0.003889048117522906,0.00518340303283733,0.9934656716527354
2013-10-24,1,0.0010566881255149026,0.0011690763753974115,-0.0050608756824077235,0.00518340303283733,0.992664419203461
2013-10-28,1,0.0007753689030909341,0.0008434028507428245,-0.0050608756824077235,0.0069764819672052305,0.9922434637046013
2013-10-30,1,0.0006616174484505213,0.0006889654739473533,-0.006490907755874446,0.004025763235462715,0.9920248114078344
2013-11-01,1,1.3537748570432626e-05,0.00010085398138411417,-0.008715454523056929,0.004025763235462715,0.9918575011241975
2013-11-05,1,0.00032052302333440084,0.0003551149957650789,-0.009554433662097739,0.0026349945225289367,0.9913844765014265
2013-11-07,1,0.0001982213377511916,0.00021139772917468328,-0.008715454523056929,0.008264269850756902,0.9903221954609905
2013-11-11,-1,-0.0006842292206466379,-0.0004906491489565391,-0.008715454523056929,0.0069764819672052305,0.9914777646423323
2013-11-13,-1,-0.0009238133918045062,-0.0006956722178038477,-0.009554433662097739,0.003317367059018586,0.9912963946181605
2013-11-15,-1,-0.0006942561239036327,-0.000531562136910791,-0.009554433662097739,0.003317367059018586,0.990518871412582
2013-11-19,-1,-0.0013742829704885126,-0.0011118671612096497,-0.008715454523056929,0.007092703442667205,0.9907685528740291
2013-11-21,-1,-0.001220367419462209,-0.000945651837386287,-0.00624938095513533,0.009183210723793944,0.9906810580913489
2013-11-25,-1,-0.0017367446912647923,-0.001422059897226792,-0.0053039025872744765,0.009183210723793944,0.9911666478879342
2013-11-27,-1,-0.001912457474713971,-0.0015999618193913048,-0.0037686089288735663,0.009183210723793944,0.9910106489053845
2013-12-02,-1,-0.0016794344507200013,-0.0014132917776119164,-0.0017397159660267154,0.009183210723793944,0.9915058422037739
2013-12-04,-1,-0.0025461511769572934,-0.0021607164931444784,-0.0014038368408219972,0.009183210723793944,0.9910145800044203
2013-12-06,-1,-0.0013116154235210656,-0.001065349651729276,-0.0037686089288735663,0.006498140669883938,0.9930357662489562
2013-12-10,-1,-0.0003832859002109176,-0.00029477247898788674,-0.0023980728743539384,0.006498140669883938,0.9933228493543051
2013-12-12,-1,-0.0006594919661504072,-0.0005531204910683677,-0.0023980728743539384,0.006498140669883938,0.9932490895167978
2013-12-16,1,0.00011656175608616034,0.000168156601708633,-0.0023980728743539384,0.00694589348233937,0.992931567086177
2013-12-18,-1,-0.00013502112081340928,-3.975006252296539e-05,-0.0035010513618913544,0.006498140669883938,0.9929015673613076
2013-12-20,1,0.0009101936913758931,0.0009476445080335244,-0.0035010513618913544,0.004557437975640154,0.9938258299384114
2013-12-24,1,0.0012424844636681454,0.0013536460330914816,-0.007537628122673197,0.002543834284457896,0.991191238152394
2013-12-27,1,0.001603732840109569,0.001723874442425293,-0.0090517034479567,0.002331240110950736,0.9904447757281325
2013-12-31,1,0.0017494011818390107,0.0019129850413670446,-0.00928891122972536,0.002331240110950736,0.9896124241596974
2014-01-03,1,0.001517272300474837,0.0017094873405459647,-0.011141234055701395,0.002331240110950736,0.9868753841138832
2014-01-07,1,0.0013112332487261544,0.0014624066522668836,-0.011141234055701395,0.004938881734021546,0.9864792506276101
2014-01-09,1,0.0005984752252561588,0.0006224380532859209,-0.011141234055701395,0.008358701438832621,0.9854119617077941
2014-01-13,1,0.0001931073218968167,0.00025283525316059446,-0.01062312700095824,0.008358701438832621,0.9856548968965304
2014-01-15,1,0.001245480738554641,0.0013106468892845964,-0.01062312700095824,0.004581819289930284,0.9864855694428889
2014-01-17,1,0.0008656672717257153,0.000885814724423102,-0.010430871621463767,0.008194145913762056,0.9864055157508642
2014-01-22,1,0.00045462840715546293,0.0004673397284389348,-0.010430871621463767,0.008194145913762056,0.985600318631606
2014-01-24,-1,-0.0021160182023086172,-0.0017973563319286622,-0.008714068990637532,0.008194145913762056,0.9880874699122436
2014-01-28,-1,-0.001696523522757974,-0.0014656218612784384,-0.006715444736848663,0.008194145913762056,0.9880656243448219
2014-01-30,-1,-0.0020272006034302336,-0.0017731647456382111,-0.0027609422730084992,0.0094044906015025,0.9864888252855222
2014-02-03,-1,-0.0037427279997560604,-0.0032524289892451414,0.0025188817711392355,0.010798830993980955,0.9878061182880504
2014-02-05,-1,-0.0038472024552113513,-0.003337567031448987,0.00438914658815529,0.01118782506731554,0.9869516780469592
2014-02-07,-1,-0.0021151044704395936,-0.001820574998981101,0.00438914658815529,0.010798830993980955,0.989196804148227
2014-02-11,-1,-0.0021575470761896302,-0.001882678202382383,0.004200749709901437,0.010798830993980955,0.9894035234228811
2014-02-13,-1,-0.0018382176161525128,-0.001595346658690005,0.0006953968950806234,0.010798830993980955,0.9893681609320686
2014-02-18,-1,-0.0009392851699462381,-0.0008067375178415728,0.0006953968950806234,0.010798830993980955,0.9894778222125018
2014-02-20,-1,-0.0003788656435155837,-0.0002949481670317313,-0.001588891554197718,0.009122183466770616,0.990920449701589
2014-02-24,-1,-0.00023861264233944276,-0.00017207196650801196,-0.005450177123249838,0.009122183466770616,0.990936013325063
2014-02-26,1,0.00044154789722745507,0.0004620149879929245,-0.006124551756224896,0.008486788889003269,0.9913569077849058
2014-02-28,1,0.0014082630360696007,0.001526922476855107,-0.006124551756224896,0.005664081868951075,0.9928078339961389
2014-03-04,1,0.0014125677963403352,0.0014943426629747732,-0.006124551756224896,0.006535417588265902,0.992495782309309
2014-03-06,1,0.0025867357552924715,0.002872078070231315,-0.006124551756224896,0.006535417588265902,0.9923643818620118
2014-03-10,1,0.003024741529429066,0.003406883676712641,-0.00755247278737948,0.005664081868951075,0.990343714623275
2014-03-12,1,0.0018901127215125858,0.002057195145885156,-0.006304647174348745,0.006766921395357386,0.9906651135831955
2014-03-14,1,0.0010292452382579828,0.001118963333243148,-0.006638326149661072,0.006766921395357386,0.9897484572410895
2014-03-18,1,0.0023182363596066908,0.002572012631370176,-0.006638326149661072,0.0065364295917648505,0.9904929126739822
2014-03-20,1,0.0025636091514511135,0.002867464230406976,-0.006638326149661072,0.010269432321941302,0.9892297188580772
2014-03-24,1,0.001890739372287254,0.002116877587236649,-0.003951506604936729,0.010269432321941302,0.9894011506598369
2014-03-26,1,0.001893664491192078,0.0021292654016436337,-0.002224999710140926,0.010269432321941302,0.9897295131458343
2014-03-28,1,0.0017678866799260154,0.001966800089665464,-0.005131427584192831,0.010269432321941302,0.9890273013609141
2014-04-01,1,0.0024740339286401,0.0027636678741002584,-0.005131427584192831,0.008893096120148939,0.9898369755989487
2014-04-03,1,0.003284523766650782,0.0036489119881006156,-0.007040322700763399,0.007283389888630563,0.9906224209675575
2014-04-07,1,0.0021217060094661693,0.0023711644961358727,-0.0024892402017394483,0.007283389888630563,0.9921223602283936
2014-04-09,1,0.0028310683482884796,0.003192942725379052,-0.0024892402017394483,0.007283389888630563,0.9924152829392249
2014-04-11,1,0.0016829205955387048,0.0019019173177050753,-0.0015967241462726146,0.008649954801539716,0.9927578134419716
2014-04-15,1,0.0017986522508968597,0.001992133974817577,-0.002832052099770171,0.007283389888630563,0.9926262593319768
2014-04-17,1,0.003229158373471733,0.0036276804795285144,-0.005064052844305452,0.005218341765145123,0.9934923653213897
2014-04-22,1,0.003318538385609836,0.0037046241211287855,-0.007159002748746442,0.004225008397714487,0.9923985091341416
2014-04-24,1,0.002922177130276939,0.0032215462377716223,-0.007159002748746442,0.006989126340513811,0.9921812464465235
2014-04-28,1,0.0022906427691707833,0.002474422829785486,-0.005064052844305452,0.007756041195313942,0.992810480486077
2014-04-30,1,0.0022656707610050836,0.002416245727447964,-0.007159002748746442,0.005830502960906906,0.9925309327904382
2014-05-02,1,0.0026759239100995836,0.0029447850946486055,-0.007159002748746442,0.005830502960906906,0.9928604967539106
2014-05-06,1,0.0021177562049445346,0.0022912951213283185,-0.007159002748746442,0.005830502960906906,0.9928392624682066
2014-05-08,1,0.0019567173191467535,0.0020737369362593336,-0.007159002748746442,0.005830502960906906,0.9926472323885304
2014-05-12,1,0.0026264137488099305,0.0028736943106885742,-0.0034979696257656087,0.005578870477281799,0.9940038316312022
2014-05-14,1,0.0022328296874565825,0.0024233574279727164,-0.0016597415803745342,0.005578870477281799,0.9943235347009245
2014-05-16,1,0.0025654236374043713,0.0028684590232759774,-0.0003193180686537686,0.004605086956627464,0.9949111321741626
2014-05-20,1,0.002203805749529513,0.002476398966178791,0.0,0.005335144562557153,0.9958072991866109
2014-05-22,1,0.002702141486973437,0.003056346634783237,0.0,0.005335144562557153,0.9963957504417769
2014-05-27,1,0.0032189179478673176,0.0036429495384090634,-0.0007017873744132284,0.004277587269783787,0.9958790762368473
2014-05-29,1,0.002716918238132298,0.0030415910781750443,-0.000417731622333788,0.004131263933009851,0.9962588379111428
2014-06-02,1,0.002646603132423776,0.0029462780955366702,-0.000417731622333788,0.0044403098313749775,0.9960082688807081
2014-06-04,1,0.002122201712162878,0.0023337254007598698,-0.000417731622333788,0.0044403098313749775,0.9961551688592786
2014-06-06,1,0.00237798665053895,0.002599961616038129,-0.0019549822414145924,0.004204767833373178,0.9959384763391808
2014-06-10,1,0.0031152250282442664,0.00350252430748764,-0.003149429922664898,0.003849816847692066,0.995513673721278
2014-06-12,1,0.0026608508317560575,0.0029582716491918055,-0.004271463213237251,0.003849816847692066,0.9953047212350316
2014-06-16,1,0.0028289557846681796,0.003159092713105249,-0.00502889282400776,0.0034375910287519195,0.9948045262413931
2014-06-18,1,0.0018570593898342633,0.001964465059407004,-0.006790137581721683,0.0034375910287519195,0.9936051985008317
2014-06-20,1,0.002008393979522365,0.0021164640255321066,-0.006790137581721683,0.004204767833373178,0.9926840808733954
2014-06-24,1,0.0010032764623861964,0.00105759639107416,-0.004805589098127739,0.005287304007144299,0.9929981221423887
2014-06-26,-1,-0.0005900376890385327,-0.00017487438335585942,-0.0062567508608345835,0.005287304007144299,0.9927983953815797
2014-06-30,0,-0.0002409864055422867,0.00013431809769091398,-0.008612726095655714,0.003728234679099231,0.9926681536751268
2014-07-02,0,-0.00030029400812053007,5.12734666412505e-05,-0.010017926385490764,0.0037697122184190985,0.9918742868342876
2014-07-07,-1,-0.0013626241075976007,-0.0008093966130194108,-0.008804247006566426,0.003980317441148285,0.9918147566607555
2014-07-09,-1,-0.0017641763698540412,-0.0011779016771884614,-0.01015189721515423,0.003980317441148285,0.991191233802941
2014-07-11,-1,-0.0010835795518039087,-0.0006990019082776901,-0.008804247006566426,0.006749988804634024,0.9909126406954818
2014-07-15,-1,-0.0015290019022769126,-0.0010964350276084663,-0.008437127908060464,0.006749988804634024,0.9910591163715604
2014-07-17,-1,-0.0017422919300886465,-0.0013045900739679771,-0.007827933496124215,0.006781036849851524,0.9915404974713161
2014-07-21,0,-0.00013003820768811168,9.190463621668022e-05,-0.007827933496124215,0.005929469023737694,0.9917086446944658
2014-07-23,1,0.0006300386041027951,0.000688649144105881,-0.007827933496124215,0.0067060188066473,0.9914602384361063
2014-07-25,1,0.0005600116176432274,0.0006307358271816161,-0.007743559225867412,0.0067060188066473,0.991267615572998
2014-07-29,1,0.00015002460993596462,0.0002014101360078735,-0.007395628864198604,0.009097760042490672,0.9913505069157943
2014-07-31,-1,-0.00015600872745545678,-0.00010307728468147309,-0.007045724601912477,0.009097760042490672,0.9917846026906358
2014-08-04,1,0.0002060163662073246,0.00021831479329699973,-0.006837850064752599,0.0067060188066473,0.9925970984357919
2014-08-06,-1,-0.001878685447340257,-0.0015545769040906645,-0.004377438206246245,0.0067060188066473,0.9934275952600907
2014-08-08,-1,-0.0007498973546467199,-0.000618524024631963,-0.005089402459809553,0.005875069934262076,0.9938485600834974
2014-08-12,-1,-0.0001808916724014516,-0.00010616052711446433,-0.006594831318336097,0.005875069934262076,0.9939365652287978
2014-08-14,1,0.00040179700805224855,0.0004408075631808641,-0.006837850064752599,0.0032011733940450946,0.9937265056501399
2014-08-18,1,0.000751148526049432,0.0007524282122526809,-0.007045724601912477,0.002739720363978312,0.9941601746396296
2014-08-20,1,0.0015151026532616472,0.0016313594014183955,-0.007045724601912477,0.001782628323659931,0.9938117557208992
2014-08-22,1,0.000932529558331005,0.001025681014585612,-0.006837850064752599,0.001782628323659931,0.9939992666855483
2014-08-26,1,0.0008059284028177495,0.0008927253683206195,-0.0073743807029329235,0.0007945023228797186,0.9935517760285941
2014-08-28,1,6.186727264518969e-05,0.0001785687917516542,-0.00879562342302941,0.001782628323659931,0.9931883572567949
2014-09-02,1,0.00048315977219712795,0.0005105393386959653,-0.010020214779572309,0.0007945023228797186,0.9925387913325379
2014-09-04,-1,-0.0004967179845083821,-0.00030079568363260145,-0.011353010595615637,0.0009606546138223275,0.9924703791732148
2014-09-08,-1,-0.0008644177054901605,-0.0006262906014241221,-0.011353010595615637,0.002170209147822032,0.9927285229937798
2014-09-10,-1,-0.0008870912350062484,-0.0007354422371763044,-0.012721276006274755,0.0023719795165136363,0.9903716813953689
2014-09-12,-1,-0.001224455699310058,-0.0010603137123165185,-0.013005360507300369,0.002170209147822032,0.9898173718227514
2014-09-16,-1,-0.001330491994552025,-0.0011508664208174455,-0.015521014585282586,-7.976144794757446e-05,0.9880961890094773
2014-09-18,-1,-0.0014921181303891129,-0.0012801581792984654,-0.015521014585282586,0.0009514834989411586,0.9877840574648459
2014-09-22,-1,-0.0018513103513424709,-0.0016055976648043408,-0.013005360507300369,0.002170209147822032,0.9876949433824378
2014-09-24,-1,-0.0028415384171669223,-0.002472977059463387,-0.011353010595615637,0.004299021309244171,0.9872657718453697
2014-09-26,-1,-0.0031441725221014218,-0.002737722061590768,-0.007015274319908605,0.010629405554370638,0.9864573373710475
2014-09-30,-1,-0.0034167663082907435,-0.0029949825026358923,-0.007015274319908605,0.015714960984025996,0.9847817528183522
2014-10-02,-1,-0.003211478462234414,-0.002844242196016091,-0.005943346566232405,0.015714960984025996,0.9847945326220934
2014-10-06,-1,-0.003538052468575601,-0.003112411013550723,-0.005943346566232405,0.015714960984025996,0.9846357363192406
2014-10-08,-1,-0.0036476640440166602,-0.003215101077278973,-0.005943346566232405,0.015714960984025996,0.985487752623689
2014-10-10,-1,-0.005262279848449395,-0.004624480948890942,-0.0052317067612498,0.015714960984025996,0.9857476396817892
2014-10-14,-1,-0.006770315458735194,-0.0059783676413941115,-0.0038568260236905693,0.015714960984025996,0.9865480683880952
2014-10-16,-1,-0.005412119667527221,-0.004813451431413783,-0.005514459202435202,0.010629405554370638,0.988017043685797
2014-10-20,-1,-0.004982380705291608,-0.004436061442161678,-0.005514459202435202,0.008500308821606354,0.9885686134221937
2014-10-22,-1,-0.004036902690720011,-0.003613617770659277,-0.004282540919475039,0.007244173266221712,0.9901705499270933
2014-10-24,-1,-0.0026476302696366453,-0.0023704656371232725,-0.004282540919475039,0.007244173266221712,0.9912807316084757
2014-10-28,-1,-0.0019088779024417268,-0.001753264730394712,-0.0036674221783427837,0.006192763322363718,0.9931872147014851
2014-10-30,-1,-0.0019638218627525115,-0.0018338086991188788,-0.005214179915484601,0.005537964271229389,0.9904929975745806
2014-11-03,-1,-0.0019316700262948176,-0.0018099442645453851,-0.008059694112178497,0.007244173266221712,0.9885464195919819
2014-11-05,-1,-0.00046137930352052625,-0.00040387635796201794,-0.008487210335925938,0.005537964271229389,0.9895113533286418
2014-11-07,-1,-0.00014892881065615678,-2.296166065299493e-05,-0.010986334808408335,0.004427528052078582,0.9885986385000342
2014-11-11,-1,-0.0003427342238303684,-0.0002191331544837269,-0.014635898164117197,0.004427528052078582,0.9874638988844948
2014-11-13,-1,-0.0006472380880900658,-0.0005970960155577498,-0.02131733162580463,0.003420579606855192,0.9858769458452186
2014-11-17,0,-2.4041237248339446e-05,0.00011390297520224652,-0.02131733162580463,0.003420579606855192,0.9853433262983001
2014-11-19,1,0.0009358558625936072,0.0012141057032523037,-0.02131733162580463,0.010342683155001274,0.983007037227404
2014-11-21,1,0.0016497768552457535,0.0020134409275553546,-0.02131733162580463,0.00682563412118674,0.9829597449687952
2014-11-25,1,0.0016606429745850727,0.002011095540499378,-0.02131733162580463,0.009824754342667271,0.9827868602034158
2014-11-28,-1,-0.0010458967325467582,-0.001035175119481776,-0.013545794415416125,0.009824754342667271,0.9859837117506639
2014-12-02,-1,-0.001030547603779661,-0.0010090747056637891,-0.013545794415416125,0.004521886701068268,0.9870102607636542
2014-12-04,-1,-0.0016897389184145992,-0.0015727427125927116,-0.017637370180645477,0.004988286727136099,0.9860107307874858
2014-12-08,-1,-0.00284676150921379,-0.0025818277799752208,-0.009786107880579136,0.00845249415991916,0.986681670688361
2014-12-10,-1,-0.00331493037082208,-0.0030584262438626284,-0.009786107880579136,0.009824754342667271,0.9860236293658469
2014-12-12,-1,-0.005119363472155985,-0.0046555594814620726,-0.005703830234987365,0.009824754342667271,0.9867719890805166
2014-12-16,-1,-0.004373394972554671,-0.003983030773239268,-0.005977001755897552,0.00845249415991916,0.987975958969731
2014-12-18,-1,-0.002680394063638072,-0.0024615232856269485,-0.005977001755897552,0.008098138368086608,0.9893350676222166
2014-12-22,-1,-0.0020127891090756813,-0.0018584664127505675,-0.005977001755897552,0.008098138368086608,0.9891121935825031
2014-12-24,-1,-0.0014207894459440393,-0.0013453463631606705,-0.009122820615352535,0.008098138368086608,0.9873131464808419
2014-12-29,-1,-0.002470535440969231,-0.0022452116180444242,-0.014929594899609384,0.008098138368086608,0.9863896760127465
2014-12-31,-1,-0.0028518645790164025,-0.0026386155046509876,-0.007243926573073956,0.009755089152533699,0.9863958236437552
2015-01-05,-1,-0.0033691626751345344,-0.003111017737614626,-0.004900373401388256,0.01790969426142347,0.9852738807615199
2015-01-07,-1,-0.002794288143687415,-0.0026220469191614816,-0.007243926573073956,0.01790969426142347,0.9846712024840317
2015-01-09,-1,-0.002407580642751011,-0.0023147329633542266,-0.006144201927389453,0.015016312615806833,0.9856718753008386
2015-01-13,-1,-0.0020257224043803562,-0.00200710926248997,-0.0060327407452491644,0.015016312615806833,0.9861825481988888
2015-01-15,-1,-0.002545527958172694,-0.002444892419526524,-0.005746970944359356,0.01678661360322923,0.9845259713281
2015-01-20,-1,-0.0013099724313198296,-0.0012493855890524466,-0.006461806574815795,0.01678661360322923,0.9858166016116097
2015-01-22,-1,-0.00031419057315255265,-0.00012957818577043765,-0.006461806574815795,0.01572726795965255,0.9867723183881238
2015-01-26,-1,-0.0004937979479804641,-0.0003323165990399536,-0.006461806574815795,0.013423780317384965,0.9884072514537989
2015-01-28,-1,-0.0014102084799288827,-0.0013621320067908848,-0.008185789309878037,0.013423780317384965,0.9889591384109552
2015-01-30,-1,-0.0002602750160860636,-6.561590050186013e-05,-0.008185789309878037,0.008067808722663954,0.9896413049276144
2015-02-03,1,0.002586608524857597,0.0031469886797558257,-0.008185789309878037,0.005270748948355151,0.9913162240104835
2015-02-05,1,0.002075077245758963,0.0025490779122940193,-0.008185789309878037,0.005270748948355151,0.9910225666996262
2015-02-09,1,0.0024159370339918345,0.0029325774240564666,-0.008185789309878037,0.005270748948355151,0.9902576237346064
2015-02-11,1,0.0021100284401401248,0.0025876175405419423,-0.007325597262151639,0.007466927996682193,0.9901986827344874
2015-02-13,1,0.002802015817879363,0.0033400439895792285,-0.00874335009891837,0.004708147227620158,0.9907570450606866
2015-02-18,1,0.0021795891766578377,0.0025907469021579695,-0.009707654563061581,0.005270748948355151,0.9881758748976093
2015-02-20,1,0.0017647039695969566,0.0021429699681869627,-0.010950554259631116,0.004708147227620158,0.9876739252368137
2015-02-24,1,0.0013565571349122621,0.0016500135475239614,-0.012623243640928546,0.005259696229077895,0.9868688917418009
2015-02-26,1,0.0006289318637239511,0.0008165958695279624,-0.010418905065307932,0.005259696229077895,0.9876657709749191
2015-03-02,1,0.0007337973584181502,0.0009262492080813652,-0.010418905065307932,0.007225108253069119,0.987599607416622
2015-03-04,1,0.0003878163055047996,0.0005300662882503106,-0.014879757698465617,0.007225108253069119,0.9869510042140542
2015-03-06,-1,-0.00031318925874692077,-0.000308594207234244,-0.010418905065307932,0.007225108253069119,0.9870658596500697
2015-03-10,-1,-0.0015344423328012694,-0.0013042637701780027,-0.0066583066811973365,0.004825700112313438,0.9883896841211943
2015-03-12,1,7.254009072349502e-05,8.782442286459147e-05,-0.010418905065307932,0.003894044318772794,0.9884380239039122
2015-03-16,-1,-0.0002745960512771536,-0.0002464376087222348,-0.007623617269125018,0.006302057008824604,0.9878382281046156
2015-03-18,1,0.0012794454896437356,0.0014955965899863415,-0.006660099158454973,0.006302057008824604,0.9890621584185433
2015-03-20,1,0.0013830821892996102,0.0016804924755164947,-0.006660099158454973,0.007983535167346636,0.9885219196518168
2015-03-24,1,0.0010488138426708693,0.0013340657530172884,-0.006660099158454973,0.007983535167346636,0.9891999712060221
2015-03-26,1,0.0009873207339604123,0.0012630255333494185,-0.007810207434889936,0.011045241572793983,0.9874925503594629
2015-03-30,1,0.0014952680718769013,0.0018429006453428063,-0.007810207434889936,0.012590766435410109,0.9870620208211274
2015-04-01,1,0.001767681168752575,0.0022021201800286956,-0.007810207434889936,0.012590766435410109,0.987226987880498
2015-04-06,1,0.00297847610002195,0.0035736404818242067,-0.007810207434889936,0.011300837521526559,0.9879365682202782
2015-04-08,1,0.0026915457584291615,0.003231898550881635,-0.007810207434889936,0.011300837521526559,0.9878200885278628
2015-04-10,1,0.0018111756607792008,0.002221476310933677,-0.007810207434889936,0.011300837521526559,0.9883014649645899
2015-04-14,1,0.002770670815243464,0.003329579032389472,-0.007810207434889936,0.01054069041333698,0.9887425528563678
2015-04-16,1,0.003829231031885781,0.004522506535220952,-0.005876035072896585,0.01054069041333698,0.9905948734628602
2015-04-20,1,0.004012951585899049,0.0047701891194211355,-0.005876035072896585,0.006890223534511356,0.9910605526155966
2015-04-22,1,0.0037199851588362596,0.004446063857760029,-0.004531672851238726,0.008433037463481372,0.9918504803800601
2015-04-24,1,0.0033948794099322,0.003860722451126108,-0.0026407915479537197,0.008433037463481372,0.9932524561370604
2015-04-28,1,0.003804545872385975,0.004337000965840207,-0.005486267633547457,0.0062490940051209655,0.9929622931138234
2015-04-30,1,0.0033598414861754538,0.003785480611805742,-0.005486267633547457,0.0035251049191037456,0.9929653360209328
2015-05-04,1,0.002735526502218806,0.0030230266599388183,-0.004603234315718396,0.0062490940051209655,0.9931100982017808
2015-05-06,1,0.002240079519971059,0.0024150318412004997,-0.006105542205670781,0.0062490940051209655,0.991967191266884
2015-05-08,1,0.0012889309541323736,0.001315721663526293,-0.006105542205670781,0.0034643881735268514,0.9925578848795362
2015-05-12,1,0.0015321949937773373,0.0015632509924696418,-0.006105542205670781,0.003978659483183523,0.9919834953096511
2015-05-14,1,0.0011877223593147093,0.0013343141606368036,-0.006105542205670781,0.0016948191974046128,0.9924220908723639
2015-05-18,1,0.0010618382669535672,0.0012116489441218463,-0.006172327621217311,0.0016948191974046128,0.9920571061648409
2015-05-20,1,0.0009461543080550698,0.0010482454580372155,-0.006172327621217311,0.004159180059768476,0.9916457682662058
2015-05-22,1,0.001024011616962179,0.001120593381077078,-0.008719942315256213,0.0005479624453378603,0.9917582830438512
2015-05-27,1,0.00042454979071250836,0.00043937835161449797,-0.00778478396627455,0.0005479624453378603,0.9923835380888996
2015-05-29,1,0.00016912731652813143,0.00020251165475428107,-0.00778478396627455,0.0017224547962437417,0.9924588998908519
2015-06-02,1,0.0004926694727391396,0.0005055899369635349,-0.01254652669379062,0.0013023397686508446,0.9921095264293323
2015-06-04,-1,-0.0004341973342257071,-0.0003268947773245271,-0.00778478396627455,0.0013023397686508446,0.9935262982501037
2015-06-08,-1,-0.0007116315475777481,-0.00057266877100373,-0.006683530979423445,0.0016675611904265594,0.9936761537230107
2015-06-10,-1,-0.0006448472136101869,-0.0005032709164398497,-0.012174905726693719,0.0005296645767321328,0.9928221295870662
2015-06-12,-1,-0.0014537802623939534,-0.0011393584191266787,-0.013047539830044497,0.0016675611904265594,0.9911163315004894
2015-06-16,-1,-0.0014509563430541651,-0.0011563573862494387,-0.012174905726693719,0.0032654911488839197,0.9910561072238846
2015-06-18,-1,-0.0001039028537585786,-5.755292662731608e-05,-0.012174905726693719,0.0016675611904265594,0.9914945873291972
2015-06-22,-1,-0.0013172778913830244,-0.0009414340221827161,-0.013047539830044497,0.0016675611904265594,0.9911441128271156
2015-06-24,-1,-0.0012482033662134196,-0.0009172264635992321,-0.013047539830044497,0.0016675611904265594,0.991386802707191
2015-06-26,-1,-0.00028835841215724736,-0.00017537572758153302,-0.01097811990876636,0.0008864294565116515,0.9916242095791299
2015-06-30,-1,-0.0009909354258112772,-0.0007841349213955644,-0.00841771848276623,0.004628508017086625,0.9914928693300579
2015-07-02,-1,-0.0009603046722254337,-0.0007637258120567666,-0.010799615858161261,0.004628508017086625,0.990654778818247
2015-07-07,-1,-0.00119914055586452,-0.0009508532178271548,-0.011802892607073592,0.0024873747883082283,0.9902377770853552
2015-07-09,-1,-0.0016631018069373457,-0.0014049433088237724,-0.00901462441175389,0.006288181522906807,0.9908317797242527
2015-07-13,-1,-0.0022348648490664804,-0.0018931273669257325,-0.007010015795607682,0.006288181522906807,0.9908894839759372
2015-07-15,-1,-0.002081085575980837,-0.0018047423563661502,-0.007010015795607682,0.004970531306706407,0.9903981250413507
2015-07-17,-1,-0.0019943751949158804,-0.0017221708738618135,-0.007252885258842318,0.003733745781814613,0.990667591464165
2015-07-21,-1,-0.0029649603954338914,-0.002553111555853042,-0.006716140245656875,0.004970531306706407,0.9912006955078098
2015-07-23,-1,-0.003056176506034287,-0.002647015061951288,-0.009289548644522968,0.004970531306706407,0.9895042717607734
2015-07-27,-1,-0.004159220137682858,-0.0036896746222008373,-0.019063446808190793,0.004970531306706407,0.9875014692582914
2015-07-29,-1,-0.0018830936128271698,-0.001632321771923596,-0.02113639722770517,0.004013067252643578,0.9847182379665019
2015-07-31,-1,-0.0028718487022134096,-0.0025008756848546605,-0.02113639722770517,0.006635836933190679,0.9837518120070388
2015-08-04,-1,-0.0025665745991489677,-0.0023025757490935115,-0.02357342806395696,0.008578029055440995,0.981199324299095
2015-08-06,-1,-0.0030260455847648682,-0.0026159364939170853,-0.02357342806395696,0.007692012140699971,0.9818654988121029
2015-08-10,-1,-0.0014961464180204024,-0.0012884922508669384,-0.02357342806395696,0.007692012140699971,0.9803771962048347
2015-08-12,-1,-0.0016285508893632656,-0.0013922304008701534,-0.01975344637656955,0.007692012140699971,0.9809792291969947
2015-08-14,-1,-0.0021626621663436074,-0.001851427886228261,-0.01975344637656955,0.007692012140699971,0.9808499406713039
2015-08-18,-1,-0.002247571309174816,-0.0019179281612770125,-0.01975344637656955,0.014636098523306948,0.9796839870507571
2015-08-20,-1,-0.002859504665416259,-0.002476125992768004,-0.01423646300437266,0.014636098523306948,0.980895329930401
2015-08-24,-1,-0.0022587241770661145,-0.0019389065763374916,-0.013582418732781931,0.014636098523306948,0.9820551457956246
2015-08-26,-1,-0.0028453331350617736,-0.0025112799683462035,-0.013582418732781931,0.010260256071900588,0.984530886755285
2015-08-28,-1,-0.0016358416899593612,-0.001429494493826153,-0.01439088510813056,0.005273700601097535,0.9848962924258027
2015-09-01,-1,-0.0026716623601074603,-0.002319295959160609,-0.013582418732781931,0.005273700601097535,0.9878778700758314
2015-09-03,-1,-0.002153563769441502,-0.0019017122436497998,-0.013582418732781931,0.005868129164404518,0.9865483574606382
2015-09-08,1,6.0754184214874605e-05,8.00025395646541e-05,-0.012279652667384258,0.01204354176182154,0.986556365701246
2015-09-10,-1,-0.0011130923159541966,-0.001013422630667435,-0.010734237550373915,0.013033649648076127,0.985267620117767
2015-09-14,-1,-0.0007802479045811565,-0.0006923790922066235,-0.012279652667384258,0.013033649648076127,0.9837818521577609
2015-09-16,1,0.000309916871172033,0.00039052977856027476,-0.01439088510813056,0.011707049469472148,0.984222467389062
2015-09-18,1,6.825192768031627e-05,0.00015671966792930614,-0.015809033608018642,0.011707049469472148,0.9838947484999359
2015-09-22,-1,-0.00022468054746487633,-0.00018801494736816853,-0.01557779243655085,0.013009312343455863,0.9813531480993553
2015-09-24,0,-2.2548525182627396e-05,3.91612766635063e-05,-0.012626960031339484,0.018451483362529785,0.9805327531704346
2015-09-28,-1,-0.000588528344841494,-0.0005728508214414512,-0.010490332788915162,0.018451483362529785,0.9810865848211974
2015-09-30,-1,-0.0001519495665196352,-0.00010317152132291904,-0.012626960031339484,0.022836371583073813,0.9796294566754387
2015-10-02,1,0.0003969750661911824,0.0005296929761905952,-0.011399921714970992,0.01739259079982711,0.9811181798917417
2015-10-06,1,0.002573189235424684,0.003008143384792,-0.011399921714970992,0.011841140547174058,0.983622569332684
2015-10-08,1,0.0038993785480452214,0.0045019132487945,-0.011399921714970992,0.007051766886295456,0.9844174014543529
2015-10-12,1,0.002388693111411692,0.0028112406993555535,-0.009062772261395399,0.007051766886295456,0.9863052076029527
2015-10-14,1,0.001985559632505635,0.0023888058666513548,-0.007994851993082657,0.007051766886295456,0.9872380028509438
2015-10-16,1,0.0018406544776683148,0.0022022563158975703,-0.007994851993082657,0.006680932186274036,0.9876235029147412
2015-10-20,1,0.0031001984021306822,0.00360407143440259,-0.007994851993082657,0.006680932186274036,0.9901084934284453
2015-10-22,1,0.003991293016140184,0.00462489227838619,-0.007994851993082657,0.006680932186274036,0.990703233494562
2015-10-26,1,0.0035003981245825457,0.004018279182612588,-0.00776172138360464,0.006040743342146616,0.9909967647155467
2015-10-28,1,0.0036233311578752724,0.0041391156209225136,-0.00776172138360464,0.006040743342146616,0.9920714294255681
2015-10-30,1,0.0037947777520591533,0.004352163575314214,-0.00776172138360464,0.0074909077842897935,0.9914963169964286
2015-11-03,1,0.0040035814374848105,0.004574740857251427,-0.008264641288223719,0.0074909077842897935,0.9903234534760401
2015-11-05,1,0.0035901622071229855,0.004093558054859207,-0.009543413157968006,0.009561760478920076,0.9903432270278748
2015-11-09,1,0.0036670567976097804,0.004220058252424086,-0.01111807708549703,0.009561760478920076,0.9895481009338384
2015-11-11,1,0.0030955563331815836,0.0035440905000271804,-0.01111807708549703,0.009561760478920076,0.9900732763951393
2015-11-13,1,0.0025638107326818567,0.002935222085623956,-0.01111807708549703,0.009561760478920076,0.9891584759995665
2015-11-17,1,0.002318191344592045,0.002636704574790697,-0.011042067054481925,0.006839600788550565,0.9898858648997301
2015-11-19,1,0.0026530993367582236,0.003019164887407325,-0.014430746564451868,0.005264217730726206,0.9882474942201767
2015-11-23,1,0.0024041775719986147,0.0027248385340469675,-0.014430746564451868,0.009561760478920076,0.9877743248333276
2015-11-25,1,0.0023145046582365852,0.002639756214333413,-0.014430746564451868,0.009574764213627329,0.9870531376729372
2015-11-30,1,0.0020228917982782536,0.0022466481814048724,-0.014430746564451868,0.006839600788550565,0.9872259697250321
2015-12-02,1,0.0016795875867667296,0.001859409104154961,-0.011434500074255479,0.005485861463114817,0.9879963525193478
2015-12-04,1,0.0015005856076346611,0.001650988263161833,-0.012006018819729467,0.005333066874451961,0.9879646500354061
2015-12-08,1,0.0011496166511947232,0.0012811372243584588,-0.014806739036208168,0.005333066874451961,0.9875425919762874
2015-12-10,1,0.0010903811847490545,0.0011987538710771753,-0.015317400707915945,0.005094947048378047,0.9866885502848075
2015-12-14,1,0.0006543614152595383,0.0006995989271917288,-0.015317400707915945,0.002054376217810118,0.9871323555693925
2015-12-16,1,0.0004900232091910196,0.0004979214111607291,-0.0168542887145463,0.005333066874451961,0.9849562628416891
2015-12-18,-1,-0.000360427908697025,-0.0002233795505922806,-0.014530771671888872,0.0056436920083539335,0.9868013417875495
2015-12-22,-1,-0.00023911896983244859,-9.090816259347336e-05,-0.014530771671888872,0.005333066874451961,0.98729659787532
2015-12-24,1,0.0013282379112715098,0.0013336974455000112,-0.014530771671888872,0.004194653853914236,0.9857658931486014
2015-12-29,1,0.0013419149069061182,0.0013932763617702313,-0.014530771671888872,0.0056436920083539335,0.9842867939595213
2015-12-31,1,0.0012841978703042947,0.001400929387764409,-0.014530771671888872,0.006582940990634709,0.9830436322380952
2016-01-05,1,7.391022137079274e-05,0.00016687550939693336,-0.014530771671888872,0.0073687970106956465,0.9824026682288509
2016-01-07,-1,-0.0013566759462245311,-0.0010709584864225994,-0.011656096608041028,0.01216525402770123,0.9828371249335377
2016-01-11,-1,-0.0022341683879159727,-0.0018416622894649615,-0.011656096608041028,0.01216525402770123,0.982567830776249
2016-01-13,-1,-0.004234564894527467,-0.003539932016834271,-0.011656096608041028,0.01216525402770123,0.9826159636838255
2016-01-15,-1,-0.004578304538336201,-0.003863294161554642,-0.010854307372654127,0.023901924666108867,0.982408946759792
2016-01-20,-1,-0.0044189757456778896,-0.0037130483815266345,-0.006072987319118303,0.023901924666108867,0.9817888173504036
2016-01-22,-1,-0.0034540251466171393,-0.0029063449384022695,-0.011428449837589352,0.023901924666108867,0.9814127001632507
2016-01-26,-1,-0.0022548888521476606,-0.0018594658830792376,-0.014210689501485466,0.02283938791638771,0.9833766157681061
2016-01-28,-1,-0.00219259367241608,-0.001810250205368539,-0.012260615336228119,0.01957758288806624,0.9838984254476002
2016-02-01,-1,-0.0005276823944608204,-0.0004085002384245357,-0.011629607894398555,0.01957758288806624,0.9847053955054268
2016-02-03,-1,-0.000669388064364249,-0.0004927277164376458,-0.006534353776974838,0.01491495759371149,0.9864538404961315
2016-02-05,1,0.00012946896453694054,0.00022425208784908899,-0.006534353776974838,0.01491495759371149,0.9858211216489324
2016-02-09,0,-5.986463062668273e-05,6.739792673265911e-06,-0.011453119800280317,0.01491495759371149,0.9849151528902033
2016-02-11,-1,-0.000872475277531071,-0.0006829047128081511,-0.011453119800280317,0.01957758288806624,0.9837037295008891
2016-02-16,1,0.00048153819043423077,0.0005486271982851548,-0.014226499809426937,0.012957959457560963,0.9852879989725368
2016-02-18,1,0.0015355246120174076,0.0015361950714229164,-0.014226499809426937,0.016397568865676348,0.9832188609520706
2016-02-22,1,0.0009403690785266595,0.0010870469899972497,-0.010861541863113024,0.015663664173491004,0.9844492420332335
2016-02-24,1,0.00013190739035535558,0.00035975050975032576,-0.008665175366330519,0.015663664173491004,0.9845113899595825
2016-02-26,1,0.0011886108944087238,0.0012720733842124586,-0.008665175366330519,0.015135877607807303,0.9850926450658546
2016-03-01,1,0.002886574274331679,0.0031638936912799136,-0.008665175366330519,0.007919330257856105,0.9859273496875848
2016-03-03,1,0.003331455571618367,0.00375841174417813,-0.008665175366330519,0.007919330257856105,0.9857126051111519
2016-03-07,1,0.003899910320041269,0.004300543457117348,-0.014226499809426937,0.0032573287227432228,0.9854500207870555
2016-03-09,1,0.0021466880654082204,0.0022730425621803694,-0.007758823828678086,0.006308953032319981,0.9880137838655911
2016-03-11,1,0.0024878859631363892,0.002629796008730294,-0.006047162632034229,0.006308953032319981,0.9896314866054083
2016-03-15,1,0.002556151573992217,0.0027868585522078044,-0.004865843898567738,0.01200363431381501,0.9893705557682989
2016-03-17,1,0.005359971071113084,0.006046933480701703,-0.004865843898567738,0.006308953032319981,0.9909852997038975
2016-03-21,1,0.005269717888003935,0.005924023447848586,-0.004865843898567738,0.010772183291376159,0.9903409956712276
2016-03-23,1,0.005484526988401104,0.006195953476872814,-0.004865843898567738,0.010772183291376159,0.9904061488912392
2016-03-28,1,0.004462429505405276,0.0050224341469286725,-0.004865843898567738,0.010772183291376159,0.9906164925092931
2016-03-30,1,0.004424834753070808,0.00499609029823156,-0.0034842368761350702,0.010772183291376159,0.990662835678837
2016-04-01,1,0.004323695212185049,0.0048561531811469475,-0.005940028521780319,0.010772183291376159,0.990050813994038
2016-04-05,1,0.0032614221832407827,0.0036376387362118444,-0.0050942537898352475,0.010772183291376159,0.9910258549510714
2016-04-07,1,0.003055388632542251,0.0033840024080271833,-0.005940028521780319,0.010150464958429826,0.9905354284428434
2016-04-11,1,0.003114542527542715,0.0034284130561554986,-0.008895261641901955,0.008544214148064146,0.9899914032265448
2016-04-13,1,0.005032709310177916,0.0056207726171193274,-0.008895261641901955,0.00337583102823612,0.9884714934181279
2016-04-15,1,0.005144903661966555,0.005787665893709126,-0.01076378343114141,0.00337583102823612,0.9877011806270602
2016-04-19,1,0.006006622871094744,0.006751155162256341,-0.01076378343114141,0.0018538148122637852,0.9870084957724098
2016-04-21,1,0.005321741449487842,0.005969596513190276,-0.011526802081767266,0.0018538148122637852,0.9864724155549676
2016-04-25,1,0.005482533341093903,0.006168927291545138,-0.011526802081767266,0.0018538148122637852,0.9868034510883414
2016-04-27,1,0.00513386304861552,0.005742698819221546,-0.011526802081767266,0.00813795878677374,0.9865840345892378
2016-04-29,1,0.004415547199849007,0.004909270916515069,-0.011526802081767266,0.00813795878677374,0.9876570503642462
2016-05-03,1,0.00347658987367016,0.0037972692536734757,-0.004231055150704915,0.00813795878677374,0.9888514130787214
2016-05-05,1,0.0029155953241468335,0.003178556658251076,-0.0018236140026923575,0.00813795878677374,0.9898961852981512
2016-05-09,1,0.0018316651557557149,0.0018762113460804371,-0.00019695703615548504,0.011019607218998839,0.9886122439287602
2016-05-11,1,0.003268525998404606,0.0034829679479596812,-0.00019695703615548504,0.011019607218998839,0.989746706781116
2016-05-13,1,0.0017692286144530686,0.0018501778225769566,-0.0018236140026923575,0.011019607218998839,0.9893569969156765
2016-05-17,1,0.0026936616004053903,0.0027535802163144215,-0.004384625303697653,0.008824442539658577,0.9897287829526324
2016-05-19,1,0.002461298941473145,0.002574406333821181,-0.00019695703615548504,0.008824442539658577,0.9916508872339778
2016-05-23,1,0.0023975704879890965,0.002485808592729696,-0.0007831269146730275,0.011008062405723655,0.991138437936006
2016-05-25,1,0.0030239899774718955,0.0031573535413575373,-0.0029076685527395034,0.007773747225266471,0.9915290842744126
2016-05-27,1,0.001859717449899009,0.0018597653034415414,-0.006224366560650862,0.007773747225266471,0.9867117351514547
2016-06-01,1,0.0008550966717848471,0.0010001128132093439,-0.006224366560650862,0.014105406812195038,0.9846509357860673
2016-06-03,1,0.00013959425744926183,0.00040373365170541303,-0.006224366560650862,0.014979799023068329,0.9837478183667916
2016-06-07,1,0.001317604723659145,0.0013441673685042333,-0.007195548272930734,0.014105406812195038,0.9848317797550333
2016-06-09,1,0.0010493177040643278,0.001193349493567753,-0.007195548272930734,0.015940196037176942,0.9837569563758213
2016-06-13,0,-0.00014311323517963428,0.00016013394252744045,-0.003520915638390573,0.015940196037176942,0.9838487037397453
2016-06-15,-1,-0.00044018016205240413,-0.00011069533414696949,-0.0024018311937337826,0.015940196037176942,0.9838333432058693
2016-06-17,1,0.0005171465784227448,0.0006641526349635891,-0.0024018311937337826,0.015940196037176942,0.9840872023025161
2016-06-21,1,0.0007202777398577572,0.0008405888748503002,-0.0024018311937337826,0.015940196037176942,0.9849122734080933
2016-06-23,1,0.0013088160729358997,0.00133751361766803,-0.004581547585609347,0.0151337922489036,0.9845754384503881
2016-06-27,-1,-0.0020364356991480715,-0.0016208774712873622,-0.002516637207613565,0.019478810202579015,0.9874473857349061
2016-06-29,1,9.34632416145585e-05,0.0002188090948231961,-0.003373815388252946,0.011160572357822189,0.9901528002309946
2016-07-01,0,-8.659619941230436e-05,0.0001142921064152232,-0.004814038243257103,0.008175363278921927,0.990037402780657
2016-07-06,-1,-0.0014593485141377956,-0.00107460897448217,-0.00394574943187328,0.011160572357822189,0.9906822851300221
2016-07-08,1,0.000837907576377135,0.0008762628791970603,-0.00394574943187328,0.008175363278921927,0.9916876345974228
2016-07-12,1,0.001775257441343823,0.0018869699202403248,-0.00394574943187328,0.007061261305882478,0.9917414147554983
2016-07-14,1,0.0018120432582257435,0.0019146866174364525,-0.00394574943187328,0.009133275990522969,0.9910021432705551
2016-07-18,1,0.0014327218684419378,0.00143274481783615,-0.004814038243257103,0.011391467387447122,0.990306329312433
2016-07-20,1,0.0015232178723261138,0.0015680204467012663,-0.0052985749858114805,0.011391467387447122,0.9900250054270228
2016-07-22,1,0.0009816341513698423,0.000983433843183466,-0.00394574943187328,0.011391467387447122,0.9912343776439333
2016-07-26,1,0.0013325932733784015,0.001377242699596167,-0.003764642028209487,0.007813991771523861,0.9920893555404583
2016-07-28,1,0.0016353848109088025,0.0017924821124364826,-0.003764642028209487,0.007813991771523861,0.9921990760370585
2016-08-01,0,-7.854761113923567e-05,6.142825124622644e-05,-0.0028292052272610784,0.007813991771523861,0.9934239248910055
2016-08-03,1,0.00034495722890351605,0.0004252178954209289,-0.0030901671794207317,0.004779122553262334,0.9934399499343809
2016-08-05,1,0.0006566588577809156,0.0007413332632816917,-0.0030901671794207317,0.0027458813865305783,0.9945049321021614
2016-08-09,1,0.0020218556674755895,0.0022240128699390774,-0.005163972427103372,0.002408256944205929,0.994200763531232
2016-08-11,1,0.0024170045874035125,0.0026819833473744913,-0.006737062797847821,0.002408256944205929,0.992000684875495
2016-08-15,1,0.0019861942712521056,0.002149967541733465,-0.006737062797847821,0.002408256944205929,0.99147714879978
2016-08-17,1,0.001495457451338607,0.0015757098295508954,-0.007486679923171278,0.0027458813865305783,0.9908725509484898
2016-08-19,1,0.0015520441740175047,0.0016389770549595207,-0.008178455546720786,0.0024579680702902797,0.9900236631854931
2016-08-23,1,0.001281804644301106,0.001322372661906947,-0.008178455546720786,0.005999076262717345,0.989199722795561
2016-08-25,1,0.0003879768421971904,0.0005060186108087155,-0.010104033412853906,0.01102727849784805,0.9877056260437402
2016-08-29,1,0.0003473889097415615,0.0004687133984966997,-0.010433515082302273,0.01102727849784805,0.9870387057551359
2016-08-31,0,-4.328432966538043e-05,0.00010419191322752009,-0.009730841036258058,0.011942128794481211,0.9861552918644103
2016-09-02,1,0.0006678265843564085,0.0006755227268210343,-0.009730841036258058,0.013680933756754601,0.9850382210629739
2016-09-07,1,5.166187443023974e-05,0.00013750947865489357,-0.010433515082302273,0.014422675534466628,0.9844038927113268
2016-09-09,-1,-0.0006456329466165674,-0.0005238788432912029,-0.010433515082302273,0.014422675534466628,0.9862182590348183
2016-09-13,-1,-0.0013229838159887321,-0.0010933057720262972,-0.010433515082302273,0.014422675534466628,0.9840251681350417
2016-09-15,-1,-0.0012025247067153156,-0.0009891844817650442,-0.00975983260541629,0.01174848465805388,0.9845794142280614
2016-09-19,-1,-0.0012028646196668104,-0.0009879060209814154,-0.00975983260541629,0.014422675534466628,0.9846309746587435
2016-09-21,-1,-0.0007070679955506759,-0.0005247671805766699,-0.00975983260541629,0.014422675534466628,0.9846718024919062
2016-09-23,-1,-0.00149587215459571,-0.001195719906260961,-0.00975983260541629,0.009890488017537665,0.9855050650085547
2016-09-27,-1,-0.002060638697005797,-0.00165836893962261,-0.010339153341348802,0.008522763990119146,0.9854036510741634
2016-09-29,-1,-0.0011874124213917363,-0.0008727191873329463,-0.012836503433934787,0.007082353629679605,0.9861229804910002
2016-10-03,1,0.00033269426395105055,0.00040296864479283265,-0.013292109792780553,0.005872342124117014,0.9864186439230505
2016-10-05,0,-4.492340639620948e-05,0.00010128302522527686,-0.013292109792780553,0.004807057954297461,0.9873669926729249
2016-10-07,-1,-0.0003047876107216377,-0.00016643975439835585,-0.012626930587681547,0.004807057954297461,0.9877008099561894
2016-10-11,-1,-0.0035056771060142135,-0.002934123420256146,-0.010371638725336519,0.005872342124117014,0.9905877914762491
2016-10-13,-1,-0.0037484509534551893,-0.003149724817264165,-0.007275501898356978,0.011007665111250767,0.9874363938005354
2016-10-17,-1,-0.0025816185645854946,-0.002172804911389088,-0.010144055846854506,0.007082353629679605,0.9881402722008574
2016-10-19,-1,-0.0016869999207625727,-0.0013834228233427803,-0.012454737977318883,0.0067041224502999135,0.9887374389464872
2016-10-21,-1,-0.0020335450684543254,-0.0016942253368219923,-0.010126452777498355,0.005252662824242298,0.9895179911816895
2016-10-25,-1,-0.0024908627348329856,-0.002090698039558766,-0.007963819535445138,0.00783990505515702,0.9887384931065719
2016-10-27,-1,-0.0015636789690759146,-0.0013627977751777748,-0.007076752556103315,0.007866122399712096,0.9893167776509327
2016-10-31,-1,-0.0014053401029859784,-0.0012600804951627615,-0.007963819535445138,0.007866122399712096,0.9885798147997588
2016-11-02,-1,-0.002043786802182861,-0.001784288292518422,-0.007963819535445138,0.018345138894865626,0.984696769285613
2016-11-04,-1,-0.0025022422969769057,-0.0021793103386809586,-0.007963819535445138,0.018345138894865626,0.9843577926491084
2016-11-08,-1,-0.001691717358739654,-0.0014775554550993271,-0.007963819535445138,0.021144292167650864,0.9841146691624661
2016-11-10,1,0.0006318517583902552,0.0007097819109488101,-0.007963819535445138,0.007866122399712096,0.9874280968226982
2016-11-14,1,0.0005844924073327468,0.0006764415725803231,-0.007076752556103315,0.007866122399712096,0.9876675209869752
2016-11-16,-1,-0.001570392102794612,-0.0012340861872840378,-0.007076752556103315,0.007777347500717239,0.9871512537886769
2016-11-18,-1,-0.0008576468121474857,-0.0006860671341844433,-0.006173000085116499,0.007777347500717239,0.9872823927735985
2016-11-22,1,0.00014296921424353937,0.00017057979730826191,-0.0057821574840771816,0.005702841949062631,0.9887904293035205
2016-11-25,-1,-0.00016978646986602185,-5.854492793084913e-05,-0.0057821574840771816,0.0050023956168939385,0.9890758391623771
2016-11-29,-1,-0.0004761215865872386,-0.00040168791555824794,-0.004300151644969856,0.005702841949062631,0.9895742135993641
2016-12-01,1,0.0023266801344309813,0.002654557831017299,-0.004300151644969856,0.004508585608631915,0.9929861799703638
2016-12-05,1,0.0020286653312930874,0.002328550286599519,-0.00354878608512518,0.0050023956168939385,0.9929850436801153
2016-12-07,1,0.002922396021826412,0.0033541598750189685,-0.00354878608512518,0.0050023956168939385,0.9931879877053693
2016-12-09,1,0.002869126372633356,0.0032878640928160584,-0.00354878608512518,0.004770890652063046,0.9930109778428996
2016-12-13,1,0.002573926366682807,0.0029073946594805854,-0.00434567970746336,0.004822098830039104,0.9914646328788523
2016-12-15,1,0.00227859298931992,0.0025972214129134437,-0.00434567970746336,0.005914053312507897,0.9910100392228691
2016-12-19,1,0.001947409250904899,0.002204402641357881,-0.00354878608512518,0.005914053312507897,0.9912585083550093
2016-12-21,1,0.0015663702240191662,0.0017268005999281654,-0.0046060543230719425,0.009602943358755915,0.9907115214570124
2016-12-23,1,0.001555386293937125,0.001729083379162113,-0.004333514688765208,0.012737169617351517,0.9893755416814489
2016-12-28,1,0.0017372816121968932,0.001977817512768498,-0.006781766785098092,0.012737169617351517,0.9893560117882269
2016-12-30,1,0.0017990081759263312,0.0020725214074677617,-0.00899753392123194,0.012737169617351517,0.9883626966001566
2017-01-04,1,0.002645173788803023,0.00305097869883283,-0.00899753392123194,0.010330129958345369,0.9887848353510801
2017-01-06,1,0.0029276112078735206,0.003367015478240457,-0.010116760497211252,0.010330129958345369,0.9884941939542341
2017-01-10,1,0.0025147018003591126,0.0028847474154853996,-0.00899753392123194,0.010330129958345369,0.9889360595848242
2017-01-12,1,0.003069081783366065,0.0035217707511116456,-0.007387708612191882,0.010330129958345369,0.9900313703068983
2017-01-17,1,0.0028941792286898554,0.0033159679247661807,-0.006781766785098092,0.0069938016203704,0.9916554962524546
2017-01-19,1,0.002762178641953194,0.003153047419862068,-0.006781766785098092,0.0069938016203704,0.9915708715847348
2017-01-23,1,0.0027724837103451747,0.0031619007313795507,-0.005707665094101528,0.007473425253740814,0.9917925042694551
2017-01-25,1,0.0034833066147431924,0.0039349887212523325,-0.006988055686967644,0.005125056079657863,0.9925039055075168
2017-01-27,1,0.0028763619868777323,0.0032496735790657465,-0.0048034477207984354,0.005125056079657863,0.9936616443090658
2017-01-31,1,0.0018371386585958834,0.002045231544148121,-0.0023068696479132964,0.005601306607618244,0.9941539111328859
2017-02-02,1,0.0011602354242032519,0.001216507356149153,-0.0023068696479132964,0.005125056079657863,0.9936410053108884
2017-02-06,1,0.0009943516860533514,0.001007943617404692,-0.0023068696479132964,0.004281174863746104,0.9940860450071941
2017-02-08,1,0.0008442921867350233,0.0008512934274085564,-0.004094809112933368,0.004281174863746104,0.9924008588220339
2017-02-10,1,0.0012768917798800649,0.0013230371189309857,-0.004094809112933368,0.004281174863746104,0.9924612045252714
2017-02-14,1,0.0016592744084768145,0.0017990881715292115,-0.00745327021701284,0.005300860762814257,0.990731562422498
2017-02-16,1,0.0014375838918736618,0.0015217724157906838,-0.00745327021701284,0.004942266334362837,0.9909126538232663
2017-02-21,1,0.0015650655204070539,0.001659109998122769,-0.008784035695624642,0.0031015961939264256,0.9904515123123305
2017-02-23,1,0.0017647469177028787,0.0019365722838079092,-0.008451910171167245,0.0031543735801244388,0.9906044359004154
2017-02-27,1,0.002014457684243442,0.0022534409466098046,-0.008451910171167245,0.0031543735801244388,0.99043431199374
2017-03-01,1,0.0025137482023242894,0.0028185944476182482,-0.008451910171167245,0.004942266334362837,0.9903918643459722
2017-03-03,1,0.0015683079322480068,0.0017153437816803435,-0.00490115010527814,0.004942266334362837,0.9915480717183982
2017-03-07,0,-8.660321019285811e-05,9.928826523101977e-05,-0.0032294111210894694,0.006602834231247377,0.9915043825161515
2017-03-09,-1,-0.001597318532718813,-0.0012198466243726986,-0.0020263874104501176,0.006602834231247377,0.9920579859387609
2017-03-13,-1,-0.0009066219267153084,-0.0006284015666695831,-0.0032294111210894694,0.00647473996736625,0.9924342450630007
2017-03-15,1,0.00018460171251385234,0.00029793052755759794,-0.0032294111210894694,0.004899568246402461,0.9931229186059275
2017-03-17,0,-3.864958405844275e-05,0.00011847252698656186,-0.004738995529303936,0.00647473996736625,0.991999266553719
2017-03-21,-1,-0.0009279911993497981,-0.0006496261977919317,-0.004738995529303936,0.00647473996736625,0.9923017291949172
2017-03-23,-1,-0.0011778202129978414,-0.0008656149424827949,-0.0053430506544169185,0.00647473996736625,0.9920861673994836
2017-03-27,-1,-0.0015497038858693162,-0.0011810934477508163,-0.0053430506544169185,0.008077620747021258,0.9908203889748141
2017-03-29,-1,-0.0011012767464110165,-0.0007690905240721743,-0.00757310261174397,0.006380028993348733,0.9914250029893639
2017-03-31,-1,-0.0013727231201977688,-0.000982354445880692,-0.009709875923773061,0.006380028993348733,0.991233596137286
2017-04-04,-1,-0.0009394438877046065,-0.0006152593826194631,-0.009709875923773061,0.005754661228340574,0.9912248189418292
2017-04-06,0,-1.2835273782642331e-05,9.215403625935787e-05,-0.009354938125455922,0.006148849173919776,0.9905544616197564
2017-04-10,-1,-0.00021154727011368405,-6.640763619512148e-05,-0.009354938125455922,0.006148849173919776,0.9909258954939169
2017-04-12,-1,-0.000925078560633044,-0.0006852555524707871,-0.006177610962036313,0.007574776700004055,0.9918189091403887
2017-04-17,-1,-0.0009577859511842322,-0.0007021187989687581,-0.0049544135123505036,0.007574776700004055,0.9919297396487075
2017-04-19,-1,-0.0008979470188391808,-0.0006779377354208581,-0.0049544135123505036,0.007574776700004055,0.9920333403507233
2017-04-21,-1,-0.0008310728513846138,-0.0006263471483733965,-0.004868742262377563,0.007659903741690257,0.9907425016856142
2017-04-25,-1,-0.000897703161956294,-0.0006258640850880063,-0.004868742262377563,0.006759060775482519,0.9917689246436207
2017-04-27,-1,-0.00021181089251081817,-0.00012532837112819528,-0.004868742262377563,0.006759060775482519,0.9918902230253416
2017-05-01,-1,-0.0009398002218749576,-0.0007466671588543191,-0.0039170841012080414,0.007659903741690257,0.9918581422092371
2017-05-03,-1,-0.0009044122701386264,-0.0007572540791284837,-0.003242793550192958,0.008551196540905744,0.9913705344349035
2017-05-05,-1,-0.00034865344570747433,-0.0002683952298609619,-0.003242793550192958,0.007659903741690257,0.9923591230170631
2017-05-09,-1,-4.1420766474500154e-05,-1.7327377846790021e-06,-0.003919352407320672,0.006807636207415576,0.9914230047563148
2017-05-11,-1,-0.0001803458103510786,-0.00010016700938897765,-0.003919352407320672,0.008154566849866469,0.991059595272676
2017-05-15,1,0.0002466762877486234,0.0002864504547879529,-0.0035322087351042806,0.007554801221682075,0.9918777339518959
2017-05-17,-1,-0.00017880234979537738,-8.97587310056264e-05,-0.0035322087351042806,0.007554801221682075,0.9911010730077113
2017-05-19,1,0.0008211548524378631,0.0008417076186657216,-0.0035322087351042806,0.0071887106230991375,0.992609002048705
2017-05-23,1,0.0007994413479390931,0.0008068494778286018,-0.010408037152337688,0.0071887106230991375,0.9894752804184097
2017-05-25,1,0.00010582344763797612,0.0001946862035542401,-0.006108981750688211,0.007554801221682075,0.9896482080842454
2017-05-30,1,0.0009459626266096295,0.0009974619458726346,-0.00785501092029912,0.0071887106230991375,0.989964588168281
2017-06-01,1,0.0011439920811333738,0.0012417343999833017,-0.006696899824983135,0.0071887106230991375,0.990067485817438
2017-06-05,1,0.0008742746410663814,0.0009150588073239814,-0.006696899824983135,0.008154566849866469,0.9884880910100861
2017-06-07,1,0.000427080754326466,0.0004410303255705503,-0.005114929993519157,0.008154566849866469,0.9891451356849864
2017-06-09,1,0.0009153025461739067,0.0009862457033123012,-0.005114929993519157,0.008088767205629612,0.9894938370158362
2017-06-13,1,0.00104168102393325,0.0011286599483633468,-0.005114929993519157,0.010347962598504765,0.9892368865195937
2017-06-15,1,0.0006209580568284593,0.0006557608171087809,-0.005114929993519157,0.010347962598504765,0.9896741236395333
2017-06-19,1,0.0015119530061070059,0.001739117976439544,-0.005114929993519157,0.010347962598504765,0.9901640753391128
2017-06-21,-1,-0.0011868304536848816,-0.0010356303573582357,-0.002238586717612131,0.010347962598504765,0.9910576323454894
2017-06-23,-1,-0.0013605812080656238,-0.0011421858154548712,-0.0038638187994057306,0.012016144773669135,0.9908887751693459
2017-06-27,-1,-0.0015709278180249487,-0.001327564021359041,-0.0038638187994057306,0.012016144773669135,0.990571886150388
2017-06-29,-1,-0.0012139207171147585,-0.0010163577848801043,-0.0019818152997412063,0.009490530747288554,0.9912395576997453
2017-07-03,1,0.00025279372018110693,0.0002864768961330931,-0.0038362346709885095,0.00709203864472939,0.9933972114413203
2017-07-06,1,0.0006905209573305342,0.0007493801783730366,-0.0019818152997412063,0.008289385816799624,0.9924663378083354
2017-07-10,1,0.00124109795396222,0.0013828267520284382,-0.0019818152997412063,0.008150080284552198,0.9927976150098135
2017-07-12,1,0.0016890055685649644,0.0018940569438226685,-0.0037941346259378933,0.007317871138893267,0.9931869713269728
2017-07-14,1,0.0018235311859486224,0.002068285989509139,-0.0043974964041977715,0.006531558410436129,0.9927022031444933
2017-07-18,1,0.0016532909092681976,0.0018578055868849154,-0.004707398736992633,0.006706701003278883,0.9922700276366015
2017-07-20,1,0.0010607680645082107,0.0011839860976151707,-0.004707398736992633,0.006056461913440323,0.9930599173711023
2017-07-24,1,0.0017570305946759141,0.0020122589548415143,-0.004707398736992633,0.004447753077752197,0.9934087549049496
2017-07-26,1,0.0011116974290254268,0.0012416126544559517,-0.0043974964041977715,0.006056461913440323,0.9934745607708952
2017-07-28,1,0.0010668803713602738,0.0011621010970808364,-0.0043974964041977715,0.006706701003278883,0.9929175281399708
2017-08-01,0,-1.5460112803087473e-05,0.00010431193030002939,-0.005288524947599127,0.006706701003278883,0.9925372294597995
2017-08-03,1,0.001524075810700493,0.001622487546303866,-0.005288524947599127,0.0035842122999323375,0.9932179015746045
2017-08-07,1,0.0021780379094941556,0.002405424610675133,-0.005288524947599127,0.0035284392344802308,0.99283239265428
2017-08-09,1,0.0019784290999611165,0.00218569320218622,-0.005288524947599127,0.006064285309926759,0.9928154293329532
2017-08-11,1,0.0007886681928477317,0.0007972534633183066,-0.0037955056513830107,0.0081518866470453,0.9931244417999752
2017-08-15,1,0.0006810311788359863,0.0006923565383744879,-0.0034587915344762177,0.0081518866470453,0.9933910581755704
2017-08-17,0,-3.3980599883931886e-05,7.147964762688896e-05,-0.0027738907923816804,0.01078418525612675,0.9932632062390957
2017-08-21,1,0.0003429629491820698,0.00035579007596539904,-0.0027738907923816804,0.01078418525612675,0.9929199828495034
2017-08-23,1,0.0007177787480023021,0.0007610928899845595,-0.0025660150603279497,0.01078418525612675,0.9930599157888264
2017-08-25,1,0.0012118115432365852,0.001341494774331565,-0.0021803073728839943,0.010232648733502277,0.9937865174630711
2017-08-29,1,0.00042101101952186405,0.00042968981509590106,-0.0021803073728839943,0.010232648733502277,0.9938029855848189
2017-08-31,1,0.000833189017779205,0.0008974474666421194,-0.0021803073728839943,0.008024699939630208,0.9944133059630759
2017-09-05,1,0.000439187138108085,0.0004653815776604852,-0.0014974093584802417,0.010402625133881476,0.9939586959404656
2017-09-07,1,0.001060464202399991,0.0011223387399605113,-0.0014974093584802417,0.008024699939630208,0.9945361106657334
2017-09-11,1,0.0015398472238850737,0.0016412635153207939,-0.002179531766427409,0.006346743679208015,0.9951008043932547
2017-09-13,1,0.0017405559620896458,0.00186283288391969,-0.0023963075237762197,0.006206523417819721,0.9951319001975026
2017-09-15,1,0.002688504488551407,0.0029866425100865215,-0.002127862277326707,0.004755547495175652,0.9960016171105592
2017-09-19,1,0.002624330242528397,0.002860677500524395,-0.0023963075237762197,0.0042676080031567405,0.9958291494340317
2017-09-21,1,0.0026883684844719335,0.002889215613212396,-0.0029162960772799065,0.0035390660678203912,0.9939626010689531
2017-09-25,1,0.0016726816898401278,0.0017464881851721517,-0.0029162960772799065,0.004755547495175652,0.9912508997228755
2017-09-27,1,0.0015206486934905758,0.001600157129720298,-0.0023963075237762197,0.004755547495175652,0.9911978118231856
2017-09-29,1,0.0014848888426740368,0.0015706518421537469,-0.0031314877029463436,0.006013423006535357,0.9903746184286432
2017-10-03,1,0.0019671684331419156,0.002121434479973652,-0.004034928974081645,0.003837178785831056,0.9907332767350129
2017-10-05,1,0.0023805824489223884,0.0026140906980957465,-0.004929931335278806,0.003837178785831056,0.9903066496683717
2017-10-09,1,0.002040296802328153,0.002201759287076179,-0.004929931335278806,0.004591084231406512,0.990231021439388
2017-10-11,1,0.00240157812128055,0.0026698231680189863,-0.004929931335278806,0.004591084231406512,0.9902253666679329
2017-10-13,1,0.0025692307807146137,0.0028625321842175914,-0.005727116060772154,0.004069739764316708,0.9888659574583272
2017-10-17,1,0.002071852688374772,0.0022697338479279448,-0.004929931335278806,0.004069739764316708,0.9891895654790485
2017-10-19,1,0.0007734243878931048,0.0008194613666829679,-0.004034928974081645,0.005520033215227936,0.9908299758335607
2017-10-23,1,0.0026195596638658187,0.002908063993277623,-0.004034928974081645,0.0038619591864542157,0.993399711268423
2017-10-25,1,0.002310176712258986,0.002550204047372956,-0.002694087552645815,0.002789724333816433,0.9939347943480686
2017-10-27,1,0.0020950497544372044,0.0022660961813484363,-0.00202447444346387,0.002122255812686858,0.9946496762377272
