JNU-Tangyin/eata/results/Batch4_SP500/Batch4_SP500-KR.csv
Date,Action,Predicted_Q25,Predicted_Q75,Actual_Q25,Actual_Q75,RL_Reward
2010-12-14,0,0.0,0.0,-0.003359480368579226,0.009279989623782,0.9925481035950515
2010-12-16,0,0.0,0.0,-0.005067052579618434,0.007213176666538283,0.9927505543955646
2010-12-20,0,0.0,0.0,-0.005067052579618434,0.007213176666538283,0.9929082474482502
2010-12-22,0,0.0,0.0,-0.005067052579618434,0.007213176666538283,0.9929060172405488
2010-12-27,0,0.0,0.0,-0.005067052579618434,0.0065982812524487695,0.9931074740723027
2010-12-29,0,0.0,0.0,-0.003944977570012321,0.004423202338776125,0.9937825518921523
2010-12-31,0,0.0,0.0,-0.0060275708450795475,0.0037226678010112823,0.9938724416486853
2011-01-04,0,0.0,0.0,-0.0037161734806460756,0.00409148158780026,0.9945731163487623
2011-01-06,0,0.0,0.0,-0.003359480368579226,0.005498404558993216,0.9938793990069235
2011-01-10,0,0.0,0.0,-0.002657882311874646,0.005498404558993216,0.993951729717406
2011-01-12,0,0.0,0.0,-0.0026583139832009957,0.005498404558993216,0.9937662036699234
2011-01-14,-1,-0.00040130414836015387,-0.0003186033360507134,-0.0023044657114801984,0.005498404558993216,0.9940117541642681
2011-01-19,-1,-0.00019205776675079803,-0.0001496274427515097,-0.0023044657114801984,0.009406596267456527,0.9924543154663814
2011-01-21,0,0.0,0.0,-0.002885823058588193,0.009406596267456527,0.9924039170231537
2011-01-25,-1,-0.0001500413027598471,-0.00013494623496685884,-0.004066363794783151,0.009406596267456527,0.9924266555447663
2011-01-27,-1,-0.00013043741402639304,-0.00012285308325525764,-0.004916675610354276,0.009406596267456527,0.9922091179122243
2011-01-31,-1,-0.0002330809208745197,-0.00019809178493620215,-0.004916675610354276,0.009406596267456527,0.9925207460135328
2011-02-02,-1,-0.00018629196287807005,-0.00016979420265986902,-0.005374876216298435,0.00971558929401335,0.9917479362480144
2011-02-04,0,0.0,0.0,-0.005374876216298435,0.0052530105933051765,0.9919904481109437
2011-02-08,0,0.0,0.0,-0.005374876216298435,0.0052530105933051765,0.9919134275055124
2011-02-10,0,0.0,0.0,-0.004991245505105917,0.0052530105933051765,0.9924723705259237
2011-02-14,0,0.0,0.0,-0.004106687272395533,0.00640689629518943,0.9925823300085234
2011-02-16,0,0.0,0.0,-0.004991245505105917,0.004713649338651451,0.9928817113718486
2011-02-18,0,0.0,0.0,-0.005106108909884636,0.005575640733048498,0.9924546845647881
2011-02-23,0,0.0,0.0,-0.006129149311524295,0.005575640733048498,0.9925257469606273
2011-02-25,1,0.0005997450748045813,0.000632471027855611,-0.0065373373387063935,0.006613051152634334,0.9920530963056217
2011-03-01,1,0.0005927890201201932,0.0006169192822201394,-0.003153977180544672,0.008869332699026521,0.9913980804308677
2011-03-03,1,0.0007456141191100316,0.0007866486858771849,-0.003153977180544672,0.006613051152634334,0.9921176645529101
2011-03-07,1,0.0008351963418297861,0.000898082629930929,-0.0065373373387063935,0.005575640733048498,0.9926537986914392
2011-03-09,1,0.0008384926842890661,0.000914885287638047,-0.0065373373387063935,0.006292185442866505,0.9922058224618301
2011-03-11,1,0.00046425098537642795,0.0005291480735407227,-0.0065373373387063935,0.005847400061997169,0.9922225493573211
2011-03-15,1,0.000688900614743841,0.0007957328682743168,-0.0065373373387063935,0.00627205046432797,0.9918962263662275
2011-03-17,-1,-3.9141051993886346e-05,-2.6668452184037545e-05,-0.005299990312048844,0.00627205046432797,0.9920991351667813
2011-03-21,-1,-0.00018976216685798257,-0.00018624578977070934,-0.005299990312048844,0.00627205046432797,0.992403741040711
2011-03-23,0,0.0,0.0,-0.005333802244223092,0.00627205046432797,0.9919136600883119
2011-03-25,0,0.0,0.0,-0.005333802244223092,0.00627205046432797,0.9920089142192475
2011-03-29,1,0.0006249117398309493,0.0007109053744232914,-0.005333802244223092,0.00627205046432797,0.9926365097721116
2011-03-31,0,0.0,0.0,-0.005333802244223092,0.008062471496582803,0.9918230955870329
2011-04-04,0,0.0,0.0,-0.005333802244223092,0.008062471496582803,0.9920987108765916
2011-04-06,0,-0.00012466565168488253,0.00019159551832138193,-0.005333802244223092,0.006768385311051862,0.9923874149001843
2011-04-08,0,0.0,0.0,-0.005333802244223092,0.006733876579530959,0.9924768420987597
2011-04-12,0,0.0,0.0,-0.0037799160799342085,0.006733876579530959,0.992504119612385
2011-04-14,0,0.0,0.0,-0.0037799160799342085,0.006733876579530959,0.9927438246704211
2011-04-18,1,0.0012649731613369464,0.0014321378373121684,-0.002218397899431789,0.009948265240366011,0.9925618905536644
2011-04-20,1,0.0009598884713982458,0.0010943748949954022,-0.0014140672022843201,0.009948265240366011,0.9931558547470358
2011-04-25,1,0.0012860728544666976,0.0014997146846837844,-0.002218397899431789,0.006733876579530959,0.9923717878623052
2011-04-27,0,0.0,0.0,-0.005618842367860177,0.004997533415174131,0.9920851610962372
2011-04-29,0,0.0,0.0,-0.003279286456184093,0.005475963893687906,0.9925435219329368
2011-05-03,0,0.0,0.0,-0.003279286456184093,0.005475963893687906,0.9909667259374105
2011-05-05,0,0.0,0.0,-0.0063924502053536785,0.00489129579291795,0.9907137283873289
2011-05-09,0,0.0,0.0,-0.008653807814208592,0.005538514377265564,0.9898270921733793
2011-05-11,0,0.0,0.0,-0.008653807814208592,0.006438807109895056,0.9894660560410861
2011-05-13,0,0.0,0.0,-0.011873628419159116,0.005699336842901479,0.9890792700720519
2011-05-17,0,0.0,0.0,-0.012625563288498926,0.005423333759977029,0.9888574540911769
2011-05-19,0,0.0,0.0,-0.012625563288498926,0.005699336842901479,0.9869531034202784
2011-05-23,0,0.0,0.0,-0.008743475663127828,0.006438807109895056,0.9874326437517843
2011-05-25,1,0.00032559051854418546,0.00033358016439417263,-0.008026544679746141,0.008164421522767024,0.9875218431685944
2011-05-27,1,0.0003808872979297656,0.00042446622640377103,-0.009159892879400514,0.006438807109895056,0.9875882126570947
2011-06-01,-1,-0.0009657329626498207,-0.0007569170507451468,-0.008332050349095892,0.0074356777785257,0.988974085667256
2011-06-03,-1,-0.0011742914214913159,-0.0009368802308055473,-0.008332050349095892,0.008853991993077398,0.9884614128210834
2011-06-07,-1,-0.001430002938566943,-0.0011727970269130713,-0.005684643154796547,0.008853991993077398,0.9892909233368044
2011-06-09,-1,-0.0011390744320946822,-0.0008958155617865537,-0.006153151561547845,0.008853991993077398,0.9896070018336148
2011-06-13,-1,-0.0014976930403032102,-0.0012172208608401886,-0.006153151561547845,0.008853991993077398,0.9899506635318281
2011-06-15,-1,-0.002169672826629753,-0.0018105764448443338,-0.0024146726002583782,0.008853991993077398,0.9899372859345287
2011-06-17,-1,-0.0009976418511448881,-0.0007800407018678747,-0.003278960622196136,0.007665534601962492,0.9923187172640356
2011-06-21,-1,-0.00037178098986918965,-0.0002091842892282722,-0.003278960622196136,0.007665534601962492,0.9928253077535651
2011-06-23,-1,-0.0004264442162917174,-0.0002503721307022767,-0.003435130091113235,0.006614877187988701,0.992065545061698
2011-06-27,-1,-0.0008591807821013005,-0.0006448236102502134,-0.0027193216750055144,0.006614877187988701,0.9916722331771579
2011-06-29,-1,-0.0002444570791980128,-0.00014757552464871054,-0.003435130091113235,0.0060940472753873735,0.992054525615539
2011-07-01,1,9.897400768290568e-05,0.0001617281665157674,-0.005525213243372283,0.005139414598129388,0.9926505381198688
2011-07-06,1,0.00016612138119807742,0.00021499293117445471,-0.006012756375041359,0.005381054088255958,0.9910172654755084
2011-07-08,1,0.00021573691585393594,0.0002634013035079843,-0.008785267362060811,0.005139414598129388,0.99044860907549
2011-07-12,1,0.00041385490474350924,0.00043052546347345104,-0.010268217836519183,0.005139414598129388,0.9882583548151902
2011-07-14,1,0.0005380188872796313,0.0005556732500845822,-0.020185388366112826,0.00543658472269305,0.9857604269400243
2011-07-18,1,0.0005638673899866996,0.0005790672270958364,-0.020185388366112826,0.006209944319127262,0.9856379306191345
2011-07-20,1,0.0006697995422790571,0.0006795850188867114,-0.020185388366112826,0.007066940933380781,0.9855577790203282
2011-07-22,1,5.151033355564301e-06,8.216989262338094e-05,-0.019275360728833405,0.006915062197281314,0.9855849619641112
2011-07-26,-1,-0.00027764201522962657,-0.00017314407352045065,-0.012007646073420752,0.006915062197281314,0.9864335642433969
2011-07-28,1,1.3468000036193705e-05,4.8938250049206694e-05,-0.016299770215334776,0.006915062197281314,0.9860458545910191
2011-08-01,-1,-0.0001296549894439707,-8.122038374712464e-05,-0.016299770215334776,0.009593928614379842,0.9846185781254756
2011-08-03,-1,-0.0005136434901340944,-0.00042939220020965524,-0.013144130187803506,0.009688155327322246,0.9847720535842557
2011-08-05,-1,-0.001343498366314858,-0.0011678449170463118,-0.01106333906013156,0.009688155327322246,0.9851182665755113
2011-08-09,-1,-0.002659177951480635,-0.0023167960915493674,-0.01106333906013156,0.01013627939698525,0.9858095842688172
2011-08-11,-1,-0.0024124512734519576,-0.0020871892372710584,-0.01106333906013156,0.008295583814486775,0.9858568660578767
2011-08-15,-1,-0.0017649869070655556,-0.0015048813162484949,-0.01106333906013156,0.008295583814486775,0.9858033785260344
2011-08-17,-1,-0.0010627685748127243,-0.0008950452454853493,-0.01106333906013156,0.007499539927845102,0.9854474172837905
2011-08-19,-1,-0.001577485218779506,-0.0013806046052231452,-0.01005304425961214,0.007499539927845102,0.9862680113561798
2011-08-23,-1,-0.0014381551768430985,-0.0012435376622522746,-0.01106333906013156,0.007499539927845102,0.9852366319147946
2011-08-25,-1,-0.002021511507880698,-0.0017692559593614164,-0.01005304425961214,0.007499539927845102,0.9857797604940385
2011-08-29,-1,-0.0009012860273258759,-0.0007803077939283095,-0.01005304425961214,0.005927839050373589,0.9868699974323907
2011-08-31,-1,-0.0005682205042606372,-0.0004885213507560048,-0.00976444381335789,0.005927839050373589,0.9878079141779234
2011-09-02,-1,-0.0011463362554130542,-0.0010117052026838718,-0.009802242221085392,0.005927839050373589,0.9877755716587554
2011-09-07,-1,-0.00011008692680110344,-0.00010120860013871337,-0.009244580344751726,0.006262954836629013,0.9890375476943943
2011-09-09,-1,-0.0015961333000064188,-0.0014160941017679997,-0.009244580344751726,0.008483928418143572,0.9900022967556648
2011-09-13,-1,-0.0019101068239069274,-0.0016725672118961972,-0.006364378476032682,0.012028329869280326,0.9897100081407678
2011-09-15,-1,-0.0009868015246597495,-0.0008630319063809852,-0.008049307819924006,0.007414167872101799,0.9909355073501817
2011-09-19,-1,-0.0009407359134900522,-0.0008478134544389335,-0.008121288441529628,0.007414167872101799,0.9906582344760003
2011-09-21,-1,-0.00209729562255329,-0.00185353973237948,-0.005804060549514095,0.012028329869280326,0.9912204370504478
2011-09-23,-1,-0.0020239710703657057,-0.0017792877899444515,-0.005804060549514095,0.012330343779304734,0.990438017489224
2011-09-27,0,0.0,0.0,-0.008121288441529628,0.012330343779304734,0.9902473003226754
2011-09-29,0,0.0,0.0,-0.008121288441529628,0.013309302559858882,0.9896581400867298
2011-10-03,0,0.0,0.0,-0.005804060549514095,0.013309302559858882,0.9900747012891425
2011-10-05,-1,-0.0003486312619822646,-0.00033906240407621574,-0.008360377104693903,0.00951653263613369,0.9891927713978865
2011-10-07,0,0.0,0.0,-0.005804060549514095,0.007399082755100582,0.9907742065833292
2011-10-11,0,0.0,0.0,-0.004177902724239197,0.007401475302667781,0.9908732845443771
2011-10-13,0,0.0,0.0,-0.004083492040770789,0.007481607493222095,0.989970102919938
2011-10-17,0,0.0,0.0,-0.00419769812053736,0.008590861615940625,0.9889900151157135
2011-10-19,0,0.0,0.0,-0.011729742061274544,0.007481607493222095,0.9885107915723168
2011-10-21,0,0.0,0.0,-0.012937343558384013,0.007481607493222095,0.9880594061123507
2011-10-25,0,-0.0003462694945434523,0.0,-0.011729742061274544,0.007481607493222095,0.9886683012843145
2011-10-27,-1,-0.00011314947089360728,-8.96410377782003e-05,-0.011729742061274544,0.007481607493222095,0.9884809568873706
2011-10-31,1,5.070356987839314e-05,7.33415714772197e-05,-0.012920564983555415,0.008119182477339695,0.9872545068905645
2011-11-02,0,0.0,0.0,-0.011235437875323386,0.010421896564261944,0.9868156907502146
2011-11-04,-1,-0.0009838934505787952,-0.0008338963332079972,-0.011235437875323386,0.012302354663807653,0.9865228311617016
2011-11-08,1,0.00034607197913411373,0.0004281529079021192,-0.011235437875323386,0.01088731724800486,0.9872888083496725
2011-11-10,1,0.0003762434468746879,0.0005080360723647083,-0.01010284106772867,0.014169473046625098,0.9875009926845926
2011-11-14,1,0.0007600573102405601,0.0009517862904275756,-0.007845066531183886,0.01088731724800486,0.9888299285276306
2011-11-16,-1,-0.00026721169329606726,-0.00024144393677612232,-0.007845066531183886,0.0117049165133119,0.9892633078754155
2011-11-18,0,0.0,0.0,-0.007596266043525016,0.0117049165133119,0.9898790190858655
2011-11-22,0,0.0,0.0,-0.004299621015234258,0.016150817969389414,0.9888722952342319
2011-11-25,0,0.0,0.0,-0.005243022456146198,0.014738248974623308,0.98845938810011
2011-11-29,0,0.0,0.0,-0.0048793324305169555,0.01335841960234907,0.990019571163478
2011-12-01,1,0.0015363351951362433,0.0018487195070003121,-0.006084956620517657,0.011591517475749456,0.9913548199429163
2011-12-05,1,0.0018522452330858277,0.002220732295999826,-0.007596266043525016,0.011376888603280275,0.9908645498711676
2011-12-07,1,0.0019336838213770853,0.0023204674334729213,-0.007596266043525016,0.011376888603280275,0.9906640278842385
2011-12-09,0,0.0,0.0,-0.006505195966637287,0.006459250194841695,0.9919944301451527
2011-12-13,0,0.0,0.0,-0.008994491051269614,0.006459250194841695,0.9915719925956866
2011-12-15,0,0.0,0.0,-0.006505195966637287,0.0065562993598955975,0.9919775053523934
2011-12-19,0,0.0,0.0,-0.0062448642909112275,0.0065562993598955975,0.9921130056029956
2011-12-21,0,0.0,0.0,-0.00662971303114759,0.005262961972193381,0.9933863717548551
2011-12-23,0,0.0,0.0,-0.005849549508300535,0.0065562993598955975,0.9936271041698229
2011-12-28,0,0.0,0.0,-0.00662971303114759,0.0065562993598955975,0.9932271792702203
2011-12-30,1,0.0013232670365227314,0.0015069841361639873,-0.008022227510221702,0.0065562993598955975,0.9927264295485831
2012-01-04,1,0.0012698524858162172,0.001440606010834769,-0.00662971303114759,0.00596999068558885,0.9935467614738458
2012-01-06,1,0.001126083649622909,0.00126170344105528,-0.00662971303114759,0.00596999068558885,0.9934338821723023
2012-01-10,1,0.0013964010674705728,0.0015926482612580771,-0.008022227510221702,0.00596999068558885,0.992568629088325
2012-01-12,1,0.0007365730314804047,0.0007958334691602544,-0.00662971303114759,0.00596999068558885,0.9931820496442562
2012-01-17,1,0.0011191460417650384,0.0012585338452137278,-0.00662971303114759,0.005858343443540696,0.9928593769621379
2012-01-19,1,0.0005649261077574704,0.0005934532126062584,-0.005329048923707823,0.005858343443540696,0.9929721654895213
2012-01-23,1,0.002037351896219066,0.0023586563700103763,-0.004392279909672166,0.00556844097436918,0.9933628540588706
2012-01-25,1,0.00202308952554912,0.0023265158766845127,-0.007828000454636065,0.002326835295839836,0.9922156476610763
2012-01-27,1,0.0008424652301397178,0.0009361659825412262,-0.005659621354456637,0.00556844097436918,0.9915457286324239
2012-01-31,1,0.0008274231912804674,0.0009663270087775501,-0.004182348690690953,0.00556844097436918,0.9924820669261183
2012-02-02,-1,-0.0002121293235805239,-0.00012692048206064372,-0.004397472158487827,0.00556844097436918,0.9908840276438153
2012-02-06,-1,-0.00023892058325657547,-0.00014295069538697481,-0.005320051852791593,0.0051059798975910415,0.9907324459297946
2012-02-08,-1,-0.0003243752833736237,-0.00025733484194071437,-0.004397472158487827,0.0069095621770474645,0.9909376455259455
2012-02-10,-1,-0.0005157422895486277,-0.00041129716047104235,-0.004397472158487827,0.0069095621770474645,0.9910070811294486
2012-02-14,-1,-0.0006959169120407062,-0.000529909733697089,-0.005320051852791593,0.0051059798975910415,0.9913338688927416
2012-02-16,-1,-0.0005718182145797129,-0.0004338238426101185,-0.004690258195847955,0.00496181922811797,0.991624582255131
2012-02-21,-1,-0.0007261189761271719,-0.0005725442956631794,-0.006289495054865924,0.00496181922811797,0.9914254220082342
2012-02-23,-1,-0.0014382864551108596,-0.0012184439840579376,-0.004690258195847955,0.005604790732175993,0.9920708055861195
2012-02-27,-1,-0.0006245528794755878,-0.0004675398614477264,-0.006289495054865924,0.00496181922811797,0.9927826760361532
2012-02-29,-1,-0.0006779004539944468,-0.0005410561075123623,-0.006289495054865924,0.00496181922811797,0.9926335911989642
2012-03-02,-1,-0.00041580589262445915,-0.0003356478932538907,-0.0046373045610170575,0.0037170260088578025,0.9945608086332293
2012-03-06,-1,-0.00025216898983681846,-0.0002070694926987865,-0.004728389651011006,0.0037170260088578025,0.9934465460672295
2012-03-08,1,2.209613470350558e-05,4.900901441682485e-05,-0.006923733944374911,0.0037170260088578025,0.9930307538977814
2012-03-12,-1,-0.0002517324566368156,-0.000178758619746166,-0.009504949443564217,0.0037170260088578025,0.9920528798249918
2012-03-14,0,-1.3105950748446799e-05,1.3460493214940606e-05,-0.009504949443564217,0.006657582150330317,0.9918374381647127
2012-03-16,1,0.00021045426898766125,0.00023573232880510201,-0.009504949443564217,0.006657582150330317,0.9917042477762645
2012-03-20,-1,-0.0002113841888111419,-0.00017172909216662738,-0.008684524842216353,0.006657582150330317,0.991572569844316
2012-03-22,1,4.9071608951691255e-05,7.793822537421157e-05,-0.008684524842216353,0.00546928450652903,0.991855586353342
2012-03-26,1,9.633549862002262e-05,0.0001096797466705656,-0.008115616793761344,0.0037511848941862744,0.993090821105072
2012-03-28,-1,-0.00020963484127213514,-0.00015765130769921062,-0.008115616793761344,0.004506978245205087,0.9929629685302931
2012-03-30,1,3.211676493381696e-05,3.975344147800575e-05,-0.008115616793761344,0.004506978245205087,0.992762873740368
2012-04-03,-1,-0.00028159385365836173,-0.00025948327649783144,-0.005862640783559952,0.004506978245205087,0.9939178678003284
2012-04-05,-1,-0.00020366318206121157,-0.00017054034898242846,-0.005258810021171423,0.0030135216149149253,0.9945091070002238
2012-04-10,-1,-0.0008290998431043629,-0.0007337796075720781,-0.0046822748892360365,0.0030135216149149253,0.9952811591917111
2012-04-12,-1,-0.0008023378691437363,-0.0006707099184880602,-0.004768714631090283,0.0025772979989422185,0.9952684985694589
2012-04-16,-1,-0.0009208625807139588,-0.0007739708972714244,-0.004888057443356549,0.0025772979989422185,0.9945202825957247
2012-04-18,-1,-0.0014712877204823864,-0.0012277320802467169,-0.004888057443356549,0.0025772979989422185,0.9944127564898995
2012-04-20,-1,-0.0014336041465335455,-0.0012211180188152265,-0.0052289681870556865,0.0025772979989422185,0.9942773263389764
2012-04-24,-1,-0.0014283022808337994,-0.0012082987406720242,-0.0052289681870556865,0.0031087228311176586,0.9932575657640179
2012-04-26,-1,-0.0012280063161689719,-0.001067954567162504,-0.00550183625105501,0.002609031737676463,0.9933141386510794
2012-04-30,-1,-0.001138920068963457,-0.001003242153737715,-0.00550183625105501,0.006296900749653652,0.9925870661657338
2012-05-02,-1,-0.0010353122874971424,-0.0009120457976529692,-0.007593621320025789,0.0035924638278418057,0.991954347756511
2012-05-04,-1,-0.001103941669431043,-0.0009942096189524264,-0.00991466208767982,0.007288370483637511,0.9908948679583305
2012-05-08,-1,-0.0014593502279708517,-0.001295453991031939,-0.00991466208767982,0.007288370483637511,0.9909862996633989
2012-05-10,-1,-0.0011479179532964423,-0.0010237927643160232,-0.010438247497314328,0.004649632773288701,0.991027065683177
2012-05-14,-1,-0.002157492219747228,-0.0018972536941251586,-0.009725262088298206,0.006441823687798022,0.9914348528153861
2012-05-16,-1,-0.0015422552943568217,-0.0014184912136552775,-0.009617282092413002,0.007872289926994763,0.9887790943684086
2012-05-18,-1,-0.001955616912072458,-0.0017749050728898045,-0.009043657620983506,0.010242471385541189,0.9888885805814444
2012-05-22,-1,-0.0012680715399883682,-0.0011583054575701997,-0.009043657620983506,0.007815803617337417,0.9892690333106048
2012-05-24,-1,-0.001578148099419664,-0.0014301063511361154,-0.009043657620983506,0.007815803617337417,0.9892776147605533
2012-05-29,-1,-0.0009409921900736503,-0.0008741434214140374,-0.009043657620983506,0.004844272587741119,0.9895411718377288
2012-05-31,-1,-0.001636987540954486,-0.0014882727386987574,-0.008049115644926302,0.007815803617337417,0.9897637762814945
2012-06-04,-1,-0.001419606962871755,-0.0013048779775335125,-0.008049115644926302,0.007815803617337417,0.9898011607355615
2012-06-06,-1,-0.001621812557059447,-0.001470984508200286,-0.008944853382939679,0.007815803617337417,0.9892986742886849
2012-06-08,-1,-0.001924603222538852,-0.0017603394268391945,-0.008994892444734667,0.008514612686376622,0.9888348762029376
2012-06-12,-1,-0.002070780160315906,-0.0018794253621742568,-0.0071424661512718216,0.01018598507588384,0.9887006867326534
2012-06-14,-1,-0.0010370372329433263,-0.0009748180264746848,-0.0071424661512718216,0.008514612686376622,0.9900897736969091
2012-06-18,-1,-0.0006377544283456417,-0.0006153003867535188,-0.008813448992276802,0.007453913171625811,0.9901728835404903
2012-06-20,-1,-0.0005271723290336103,-0.00051449239491683,-0.009945765261059995,0.00616446990295503,0.9901694632390835
2012-06-22,-1,-0.0011493283379340467,-0.0010643029378798582,-0.010150999187115012,0.00616446990295503,0.9898693351208853
2012-06-26,-1,-0.0013140413982715672,-0.0012274917846775803,-0.010150999187115012,0.006795437846160456,0.9898036603332656
2012-06-28,-1,-0.0005479789747300575,-0.0005340346127093046,-0.010150999187115012,0.007453913171625811,0.9892421186141465
2012-07-02,-1,-0.001073210777540237,-0.000998397300566579,-0.009110036776651509,0.007453913171625811,0.9898310320247558
2012-07-05,-1,-0.001319819906495387,-0.0012192001331431388,-0.009110036776651509,0.007453913171625811,0.9898604504561923
2012-07-09,-1,-0.001184786112697818,-0.001119638631381265,-0.007902149807353615,0.010375464271782354,0.9896029894998468
2012-07-11,-1,-0.0005685630662616655,-0.000557493795537572,-0.007902149807353615,0.010409447893245053,0.9899885926092856
2012-07-13,-1,-0.00040616559662307207,-0.0003773897640842773,-0.00784340420273036,0.010409447893245053,0.9918195890764553
2012-07-17,-1,-0.0011782583203332237,-0.0010639263595313472,-0.006049206843358167,0.010409447893245053,0.9919683908357204
2012-07-19,-1,-0.0007818499323873201,-0.0007768113358311681,-0.006049206843358167,0.010409447893245053,0.9922377311349979
2012-07-23,-1,-0.0012620160773545303,-0.0012022107794204299,-0.004137697429869353,0.010409447893245053,0.9923392548550206
2012-07-25,-1,-0.0012831668868556487,-0.0012132208865431292,-0.004137697429869353,0.010409447893245053,0.9927822828394582
2012-07-27,-1,-0.00020492128154405914,-0.00014048825923945946,-0.004744626865967512,0.004787509944724505,0.9935327382861836
2012-07-31,1,0.0004843155021547369,0.0006686261157289672,-0.004744626865967512,0.006327246778635898,0.993391930720296
2012-08-02,1,0.00012579869024791199,0.0002676185926599795,-0.004137697429869353,0.006327246778635898,0.9939256338257608
2012-08-06,1,0.0010138259532983035,0.0012730514736235847,-0.004137697429869353,0.0038374988408132592,0.9949512809485328
2012-08-08,1,0.0014658783448592244,0.0017888354465408322,-0.004137697429869353,0.004787509944724505,0.9938903118026376
2012-08-10,1,0.0011309062941746786,0.0013917008792950322,-0.004137697429869353,0.006327246778635898,0.9929525759109554
2012-08-14,1,0.0008880608792463353,0.001110202937056116,-0.0028334810029031396,0.009280151782851267,0.9915816780766472
2012-08-16,1,0.000874578304465761,0.0011197716795159347,-0.002541330160416574,0.009280151782851267,0.9919143811400076
2012-08-20,1,0.0009274300830785998,0.0011806550082862953,-0.002541330160416574,0.009280151782851267,0.9919241565691744
2012-08-22,1,0.0007557520809514275,0.0009913353846993849,-0.002526747962343411,0.010905406231141798,0.9914243632983221
2012-08-24,1,0.00028334903557549184,0.00042026814623522755,-0.002526747962343411,0.010905406231141798,0.9916553131242839
2012-08-28,1,0.0011111354487814795,0.0013785286231601302,-0.0034504528931008785,0.010905406231141798,0.9920324863861615
2012-08-30,1,0.0007135931908008497,0.0008786054913307912,-0.0034504528931008785,0.010905406231141798,0.9919923695164455
2012-09-04,1,0.0012828209857734206,0.0015574288566678213,-0.003759851992365809,0.011166125823740844,0.9915301290104125
2012-09-06,1,0.0024215333583220925,0.002839503741975798,-0.003889390169909356,0.005714755273552279,0.9923838437931183
2012-09-10,1,0.0022746096170412466,0.0026658003593749745,-0.003759851992365809,0.003588013348702693,0.993856759479478
2012-09-12,1,0.0032983695550038127,0.0038045871871667334,-0.00504256247206193,0.0022355704357489904,0.993437629066695
2012-09-14,1,0.002991899296931046,0.0034607853903091366,-0.00504256247206193,0.0022355704357489904,0.9939216232539533
2012-09-18,1,0.0027564397237174417,0.003192731474495604,-0.003889390169909356,0.003588013348702693,0.9927016131404972
2012-09-20,1,0.0030308839282648372,0.0034963124660137555,-0.003889390169909356,0.004452915104591441,0.9923247016206498
2012-09-24,1,0.0027744679922885023,0.0032110401541052356,-0.003029555785651409,0.005760276576764023,0.992588319223451
2012-09-26,1,0.002365769020375912,0.0027297491389258665,-0.003889390169909356,0.005760276576764023,0.9923091983845983
2012-09-28,1,0.0021802091327178955,0.002501628750253882,-0.004247348285346581,0.00788636827205088,0.9914844148545253
2012-10-02,1,0.0025474341031374867,0.0029323717042701973,-0.005058704697398901,0.005760276576764023,0.9915388786783291
2012-10-04,1,0.002031550628307681,0.002294618612081679,-0.005058704697398901,0.005760276576764023,0.9916487973143603
2012-10-08,1,0.0019219643154283457,0.0021386410933666184,-0.007504154880427038,0.007314417194503063,0.9904548494576019
2012-10-10,1,0.0007736366926454589,0.0007981766182470612,-0.004138536059764521,0.007314417194503063,0.9912816738043878
2012-10-12,1,0.0011599462071454204,0.001283546458218638,-0.004689305874735877,0.007823233615564914,0.9907026362786641
2012-10-16,1,0.002621750999863308,0.0029181898053868287,-0.0059896071930370404,0.007314417194503063,0.9916917225956572
2012-10-18,1,0.0032646682228718886,0.0036767898685236902,-0.0059896071930370404,0.005936839142142003,0.9925782758051
2012-10-22,1,0.0028530188528314627,0.0031565081263558513,-0.0059896071930370404,0.004800176894308867,0.992832088971375
2012-10-24,1,0.0021727920905077547,0.0023799732431147988,-0.0059896071930370404,0.005936839142142003,0.9925050525082044
2012-10-26,1,0.002203340103048467,0.002409790484129182,-0.004448836891643901,0.006695027894100409,0.9928715809206338
2012-11-01,1,0.0013075909411844537,0.001382714642203028,-0.003773079458354722,0.007426423084855993,0.9910276410416098
2012-11-05,1,0.0011546312313475754,0.0012064109816485526,-0.003773079458354722,0.008159251286623702,0.9902089475040663
2012-11-07,1,0.0016763951944145678,0.0018798776728821331,-0.003773079458354722,0.008159251286623702,0.9910329334492058
2012-11-09,1,0.0017423567685516768,0.0019512850451778904,-0.004163536617931427,0.008159251286623702,0.9909330984116618
2012-11-13,1,0.001867370758777645,0.0021079797667841677,-0.0036600017938446068,0.007346347188358771,0.9913521715593908
2012-11-15,1,0.0011592637108470622,0.0012861550258323091,-0.003422800287546147,0.007346347188358771,0.9915138386302274
2012-11-19,1,0.0011637417371333132,0.001263411596228308,-0.003422800287546147,0.008573372524334755,0.9911461504649985
2012-11-21,1,0.0014509433138828352,0.0016223550010017753,-0.0039979633010748545,0.008573372524334755,0.9908829542573552
2012-11-26,1,0.0011805815626837527,0.0012989343637795935,-0.0039979633010748545,0.007346347188358771,0.991557340819425
2012-11-28,1,0.0016087389584579332,0.0017615916392767698,-0.005957975203760342,0.005372863864995643,0.991403844371782
2012-11-30,1,0.0013196670502313274,0.0014212736714831193,-0.00673242286970239,0.005372863864995643,0.9926335356460559
2012-12-04,1,0.002187811675003758,0.0024302316610118617,-0.00673242286970239,0.005372863864995643,0.9927525544161792
2012-12-06,1,0.0019102651888071838,0.0020448822604451906,-0.009047357851570296,0.0032157884704266384,0.9921579573131502
2012-12-10,1,0.0013189820089336286,0.0013560257931468178,-0.00917015502546112,0.005372863864995643,0.9913873980021467
2012-12-12,1,0.002056562904345968,0.0021431180310928334,-0.00917015502546112,0.00609681837177311,0.9912338056891549
2012-12-14,-1,-0.0002155848288928309,-2.505872200062693e-06,-0.00917015502546112,0.0074977869600210455,0.9912221472161415
2012-12-18,1,0.00037135100729810663,0.0005213748452481161,-0.00917015502546112,0.007587301387994009,0.991086127184188
2012-12-20,1,0.0006016287851413211,0.0006771983478830822,-0.006300927859421979,0.011241412030319094,0.9904958228603977
2012-12-24,1,0.0002616575279804202,0.00036071535617747917,-0.0013410085723261841,0.011241412030319094,0.9905310297982302
2012-12-27,-1,-0.0007180501122461806,-0.0004681107865423551,0.0005687869675364786,0.011241412030319094,0.9905976766513993
2012-12-31,0,-4.4715597947916626e-05,8.130625621900848e-05,0.0005687869675364786,0.009920660404165275,0.9918496822146423
2013-01-03,1,0.0004898225990391633,0.000536253245867605,-0.00035920362166041005,0.008705582333856205,0.9922746239238442
2013-01-07,-1,-0.0007037822090508785,-0.0004970763595392383,-0.00035920362166041005,0.008705582333856205,0.9923786959087988
2013-01-09,-1,-0.001267073364547114,-0.000977685561569183,-0.00026890265286287846,0.008059359135175912,0.9933536515882772
2013-01-11,-1,-0.0013873486134700647,-0.0010609988759219314,0.001084430423495772,0.008059359135175912,0.9929450845898761
2013-01-15,-1,-0.0009145601365835549,-0.0006399053538987883,-0.0011659115802490454,0.007158147544024342,0.9936544140715958
2013-01-17,-1,-0.00039481911314315644,-0.00016237186647295526,-0.002321809886645576,0.006767943831443186,0.994000541539886
2013-01-22,1,0.00029290247874158885,0.00045869124184963624,-0.0029117145068632056,0.006502380184823717,0.9939099394885115
2013-01-24,1,0.000797851437054902,0.0008764171824973482,-0.0029117145068632056,0.006502380184823717,0.992508077793542
2013-01-28,1,0.0006602352167103455,0.000767984692793535,-0.004360592661553788,0.006767943831443186,0.9913294866199985
2013-01-30,1,0.000580019800782163,0.000692164813272861,-0.004034891518854432,0.007132073121924381,0.990796990442961
2013-02-01,1,0.0013196556641213567,0.0013593719040612213,-0.004034891518854432,0.008701920228016628,0.9906760133743266
2013-02-05,1,0.001084337850506746,0.001088076462791225,-0.004034891518854432,0.00779195671360462,0.9908287756754961
2013-02-07,1,0.001674285540990855,0.0018279204336530833,-0.004034891518854432,0.011868003966139781,0.9884995649441437
2013-02-11,1,0.0018336641661147073,0.0019905570064512983,-0.007226065881456035,0.011868003966139781,0.9882394521812148
2013-02-13,1,0.0017065403269269173,0.0018271583704366468,-0.007226065881456035,0.013096140219275324,0.9876991437571849
2013-02-15,1,0.0011426748219634723,0.0012052755100787423,-0.002654775538071686,0.013096140219275324,0.9885731405528412
2013-02-20,1,0.0005864325393993709,0.0006154813968684333,0.000274384855389144,0.013096140219275324,0.9895759739102847
2013-02-22,1,0.0016081322307449082,0.001693803755751041,0.0004407734298327356,0.012637812895998177,0.9912490853252183
2013-02-26,1,0.0014538564326739604,0.001512546640766874,0.0022113817042122555,0.011341417574882488,0.9921175245123999
2013-02-28,1,0.0019017570398936427,0.0020272422186362704,0.0012508647854739523,0.009829322240056705,0.992624495214136
2013-03-04,1,0.0020071316966769237,0.00214009544858401,0.0012508647854739523,0.008125645528976738,0.992040470814006
2013-03-06,1,0.0018459658349156294,0.0019605322090415463,0.0012508647854739523,0.008683742039080422,0.9910091497617161
2013-03-08,1,0.0032066748842639685,0.003454456088970205,-0.004641053112118145,0.007476218758753337,0.9932452255792796
2013-03-12,1,0.0025603788211984242,0.0027138146439883533,0.0012508647854739523,0.007868883828489978,0.993027314743522
2013-03-14,1,0.0038861745021702065,0.0042985969306158995,0.00045416771528134,0.007868883828489978,0.9933890770498719
2013-03-18,1,0.004244494818109363,0.0047504752600689894,-0.002605045552830018,0.008683742039080422,0.9921398628732792
2013-03-20,1,0.00436169829554534,0.004887408535716031,-0.002605045552830018,0.00955834875313912,0.991982831981622
2013-03-22,1,0.00454365232983394,0.005057743906089824,-0.002605045552830018,0.00955834875313912,0.9915886527845182
2013-03-26,1,0.004834155190343768,0.005390781072517324,-0.002979013113796647,0.01076506877097879,0.9909747826505568
2013-03-28,1,0.004941269308102672,0.005487769299294261,-0.005624503006835338,0.01076506877097879,0.9904192289394905
2013-04-02,1,0.004355189351817498,0.004810379199756062,-0.002979013113796647,0.01076506877097879,0.9913573267246533
2013-04-04,1,0.0034788588475990322,0.003786195023652974,-0.002979013113796647,0.012572069533390328,0.9920276884852374
2013-04-08,1,0.0028658966074923053,0.0030898541020011492,-0.0021007944083384768,0.012572069533390328,0.9924718359118274
2013-04-10,1,0.0035355532380269877,0.003842671404697455,-0.0030394627088633492,0.012572069533390328,0.9922689851038057
2013-04-12,1,0.003410092823358018,0.0036589269011562883,-0.005439233963284197,0.010473647178404885,0.9924358224442654
2013-04-16,1,0.003564311560822325,0.003843957683481309,-0.005439233963284197,0.010473647178404885,0.9918670740961092
2013-04-18,1,0.0037956212008392934,0.004094874414790298,-0.005439233963284197,0.012121929072499617,0.9913082425259483
2013-04-22,1,0.003958382291511783,0.004265051726614197,-0.0063952663666291204,0.01050225306887781,0.9906033128757097
2013-04-24,1,0.004287371738827572,0.004666982894558386,-0.007452210071151351,0.006214412551215488,0.9900055272202442
2013-04-26,1,0.003653936946511058,0.003938604578083064,-0.0063952663666291204,0.006214412551215488,0.9908296234842603
2013-04-30,1,0.00392406478576459,0.004282049197386102,-0.0063952663666291204,0.009287316771976431,0.9904691793927053
2013-05-02,1,0.003958073412603688,0.004312107664727602,-0.007588606141818274,0.0046402710571630534,0.9898226901531048
2013-05-06,1,0.0033778124815085097,0.0036268520504713253,-0.007588606141818274,0.006050904060906677,0.9905281839514545
2013-05-08,1,0.003338121186924734,0.003564878770536202,-0.0099608037381221,0.0037002228381707927,0.9900550848475558
2013-05-10,1,0.0026624346476472015,0.0027618104146102224,-0.0071084246872184596,0.006050904060906677,0.9887818338551683
2013-05-14,1,0.003123863249392382,0.00330226240099059,-0.005263535162182446,0.004951462287542938,0.9898286494856122
2013-05-16,1,0.0029168291310438356,0.0030523485526772775,-0.0078001326027402566,0.004951462287542938,0.9892015073826332
2013-05-20,1,0.0020597684897873834,0.0020675726826410194,-0.005164499170618033,0.006050904060906677,0.9898903515808216
2013-05-22,1,0.000742566153597433,0.0009467298120333224,-0.0078001326027402566,0.006050904060906677,0.9873815480584224
2013-05-24,1,0.0006006300497694205,0.0008272592253434775,-0.0078001326027402566,0.009208464248220196,0.9860538151574866
2013-05-29,1,0.000773485687031757,0.0009694262239747105,-0.0078001326027402566,0.01005096480461258,0.9858767982504054
2013-05-31,-1,-0.0008919274876294766,-0.000451752145412501,-0.005598527684109098,0.01005096480461258,0.9862762200260681
2013-06-04,-1,-0.0011239656196423695,-0.0006348249675044916,-0.005598527684109098,0.012232204438935176,0.984715920153795
2013-06-06,-1,-0.002238780643685139,-0.001623584028775262,-0.005598527684109098,0.013726340965352744,0.9848424454547376
2013-06-10,-1,-0.0004767565603467788,-8.64833035831361e-05,-0.005598527684109098,0.013726340965352744,0.9860717259485303
2013-06-12,-1,-0.0007850504564783077,-0.00038713692252972313,-0.0018763762780500907,0.013726340965352744,0.985647129298134
2013-06-14,1,5.688265848990395e-05,0.00031009400192094725,-0.001710438478839371,0.012339150340857093,0.9869627029553796
2013-06-18,1,0.0008074052810428962,0.0009606524817200044,-0.001710438478839371,0.012339150340857093,0.98733622955459
2013-06-20,-1,-0.0019920342070472714,-0.0015060324611500023,0.0028203280957355545,0.012339150340857093,0.9889962439263976
2013-06-24,-1,-0.001761662063312816,-0.001293576356074715,0.0007582864053139581,0.010361961433341716,0.990363144412267
2013-06-26,-1,-0.0013678558331205052,-0.0009475283770283864,0.0028203280957355545,0.010361961433341716,0.9903314398453946
2013-06-28,-1,-0.0015521329171705755,-0.0011014105768808826,0.0028203280957355545,0.010361961433341716,0.9904386304047038
2013-07-02,0,-0.00022900944470378895,6.673098873294315e-05,-0.001335252228748197,0.008685080092807537,0.9924940950898142
2013-07-05,1,4.063177017166403e-05,0.00028810231754449335,-0.001335252228748197,0.008654535845648507,0.9925984137657862
2013-07-09,1,0.0009126323265052105,0.0010628193739846555,-0.001335252228748197,0.00817597264879,0.9940728254111943
2013-07-11,1,0.000776621548547039,0.0009893908094833832,-0.0033631970912175635,0.00817597264879,0.9936877058812016
2013-07-15,1,0.0002452453287942987,0.0005455019579086167,-0.0038730985370746445,0.00817597264879,0.9930158676247077
2013-07-17,1,0.0014318697018227422,0.0015294012647667488,-0.006614022239579671,0.005399063765380083,0.9932203001917198
2013-07-19,1,0.0013799074901576158,0.0014972525307861645,-0.007770576201082084,0.005399063765380083,0.9922368527572327
2013-07-23,1,0.001537236618003578,0.001615011355854166,-0.00812240119592971,0.005067405699352629,0.9919100025109522
2013-07-25,1,0.0020911999340727985,0.0020974848419272763,-0.008183162519775928,0.003644838748084786,0.9916185387370836
2013-07-29,1,0.00186613421138795,0.0019179452977521269,-0.008237322384988529,0.003644838748084786,0.9907023070135579
2013-07-31,1,0.0023178362201308365,0.002418820450260224,-0.009117439089683474,0.003644838748084786,0.9906554202336243
2013-08-02,1,0.0018083156867829571,0.0018083759987405422,-0.008183162519775928,0.003644838748084786,0.9911112935866244
2013-08-06,1,0.0020802966961226154,0.00215476300887018,-0.008183162519775928,0.006086764998288645,0.9904569842106198
2013-08-08,1,0.0022399728700509343,0.002336876890816585,-0.008183162519775928,0.004967838999904961,0.9914108653028253
2013-08-12,1,0.001617424992306255,0.001636614811411375,-0.00812240119592971,0.006086764998288645,0.9920138817472418
2013-08-14,1,0.0016092992934843022,0.0016537924526428436,-0.007030155806148902,0.0066741124390847645,0.9914048919432431
2013-08-16,1,0.0011862634576643573,0.00119277536845733,-0.0053384804411957185,0.008856463326820127,0.9915708876604086
2013-08-20,1,0.0008072634477969507,0.0008294876820056077,-0.004208324330925108,0.010483677746609387,0.9911995140615074
2013-08-22,-1,-0.00018278346919472133,-1.9228575228435617e-05,-0.0009949437294177678,0.01060525314259962,0.9910054396319165
2013-08-26,-1,-0.0010708429605213634,-0.0007707598604751091,-0.0009949437294177678,0.01060525314259962,0.9911552944522963
2013-08-28,-1,-0.001995395818580728,-0.0015563651248975418,-0.0008099473714895988,0.01060525314259962,0.990835572760975
2013-08-30,-1,-0.0013406710285549135,-0.001019368891621403,-0.004086424284332691,0.01060525314259962,0.9912202590799598
2013-09-04,-1,-0.00037268442701714134,-0.00018645700320991097,-0.004086424284332691,0.009505613710581425,0.9920773924919215
2013-09-06,-1,-0.00032688926706036115,-0.00015114949864655417,-0.004707580871035005,0.01060525314259962,0.9910215321527779
2013-09-10,1,1.8120117504365066e-05,0.0001310843703031233,-0.005856356797942892,0.01060525314259962,0.9906390777148929
2013-09-12,1,0.0012163216842865905,0.0012704047083129217,-0.005856356797942892,0.01060525314259962,0.9908798511662152
2013-09-16,1,0.002217387261172247,0.0024226392614773436,-0.005856356797942892,0.010197594870082977,0.9907313410935636
2013-09-18,1,0.0026175383900479644,0.0028501503233613903,-0.006661218702797303,0.010197594870082977,0.9900206815012239
2013-09-20,1,0.002717611776611242,0.0029618379105425673,-0.006661218702797303,0.009370950309150177,0.9904952635490386
2013-09-24,1,0.0027180767706037148,0.002970389411425057,-0.004952731337790528,0.010269086675291497,0.9906002404755415
2013-09-26,1,0.0026385931022145366,0.0028668822865259916,-0.004467529495839231,0.010269086675291497,0.9910157033463419
2013-09-30,1,0.0020971694518735922,0.002262073458678856,-0.003240491490175345,0.010269086675291497,0.9911801075081894
2013-10-02,1,0.001986702345358518,0.0021156325810148023,-0.004316573833306322,0.010269086675291497,0.9909802288730801
2013-10-04,1,0.0019406020360954695,0.0020740199275984623,-0.0033908288467627513,0.009665230601626466,0.991730208104066
2013-10-08,1,0.00130806853643421,0.0013694883879180478,-0.0031176222407465442,0.009665230601626466,0.9923629861108926
2013-10-10,1,0.0017650278676294732,0.0018626740867667018,-0.003563396150057804,0.005717739079769788,0.9920501252639451
2013-10-14,1,0.0020417449864549232,0.0021310077755548754,-0.0048342757431914804,0.005548374546700706,0.9925420700276435
2013-10-16,1,0.0020936036133240785,0.002188282329615581,-0.003563396150057804,0.005797759308681623,0.9938040089853192
2013-10-18,1,0.0024573481602530606,0.002601590981222662,-0.003563396150057804,0.005797759308681623,0.9934815702345727
2013-10-22,1,0.0021166080970897788,0.0021586925719312496,-0.0048342757431914804,0.005797759308681623,0.9921215583392651
2013-10-24,1,0.0022922477189373297,0.002362448183167466,-0.00508117121738164,0.007683019825983867,0.9916263883360186
2013-10-28,1,0.0015930881304042838,0.001670265423317378,-0.004532004299626085,0.007683019825983867,0.9918994926074787
2013-10-30,1,0.0020489827673792482,0.002112691434754805,-0.004532004299626085,0.007683019825983867,0.9915707044356986
2013-11-01,1,0.001409165072406278,0.0014599096499973022,-0.004532004299626085,0.007683019825983867,0.9916764712281632
2013-11-05,1,0.0014489049572289445,0.0014761532449210075,-0.0061461404795398085,0.007683019825983867,0.9910033400435619
2013-11-07,1,0.0007594741778464067,0.0008326805886158589,-0.0061461404795398085,0.00859000280758657,0.990220271734062
2013-11-11,-1,-0.0012855995473777322,-0.0008260076928980971,-0.0035228242414423005,0.00859000280758657,0.9910434451424456
2013-11-13,-1,-0.0008237261976431856,-0.00042907989173525006,-0.005876041321252846,0.007664319108171312,0.9913608067804386
2013-11-15,-1,-0.0003156956946682481,-1.5392138131530009e-06,-0.005876041321252846,0.004862315997167842,0.9917599537739732
2013-11-19,-1,-0.0014597242917041727,-0.0010069672993348515,-0.005019518903950224,0.004576988890498429,0.9932682008793666
2013-11-21,-1,-0.0005990985625371494,-0.00031533948460885997,-0.006597898711654784,0.003632927508416077,0.9932836307074809
2013-11-25,1,0.00016346058593381398,0.00033991110923099744,-0.006597898711654784,0.0015953529353756922,0.9935458736444874
2013-11-27,1,3.331338614847863e-05,0.00017375640719405897,-0.006250809952657041,0.0015953529353756922,0.9939185913724394
2013-12-02,1,0.0002737666075098887,0.00036035595846493484,-0.006250809952657041,0.0029632798323658326,0.993754208686137
2013-12-04,0,-0.00011351490112332049,2.3046635485675403e-05,-0.005887109932123254,0.0012627303694179664,0.9943681483328114
2013-12-06,-1,-0.0008393361102507693,-0.000650231591540768,-0.005887109932123254,0.0012627303694179664,0.9959849494285484
2013-12-10,-1,-0.0007603700903513474,-0.0005973832298776011,-0.005887109932123254,0.0029632798323658326,0.995440889795826
2013-12-12,-1,-0.0011034060937721757,-0.0009050451175967617,-0.005887109932123254,0.0029632798323658326,0.9947652216975661
2013-12-16,-1,-0.0005791013234500554,-0.00047766421876790834,-0.005887109932123254,0.005137393151305273,0.9940474288552299
2013-12-18,-1,-0.0008546279013158681,-0.000731205877971361,-0.008008247299619993,0.0032829710985563905,0.9915920294028522
2013-12-20,-1,-0.0015975114288560906,-0.0013600684975660386,-0.006688010865970316,0.0032829710985563905,0.9918562946191027
2013-12-24,-1,-0.0014683916259201702,-0.0012419006618428342,-0.008008247299619993,0.0026009607725073587,0.9918262553654799
2013-12-27,-1,-0.0017612810571344235,-0.001505710593122742,-0.00841011913164431,0.003634504726998607,0.9905984129649056
2013-12-31,-1,-0.0016017682902656261,-0.0013794354368871814,-0.00841011913164431,0.0034534572090517968,0.9906868279259213
2014-01-03,-1,-0.002349788585860976,-0.0020110722310718657,-0.008787579888442698,0.0034534572090517968,0.9900057361990637
2014-01-07,-1,-0.0025405126525907735,-0.0021718607897584486,-0.008787579888442698,0.0025414122744472634,0.9904625454902154
2014-01-09,-1,-0.0025492805250936913,-0.002151133879561215,-0.009857814910396747,0.0025414122744472634,0.9887049093954086
2014-01-13,-1,-0.003173964175357531,-0.0026841207885432744,-0.008787579888442698,0.0035745166309244635,0.9886673663474508
2014-01-15,-1,-0.002887035130926299,-0.002404224306405068,-0.008787579888442698,0.0002130513245811942,0.9892845283924784
2014-01-17,-1,-0.005165449976819333,-0.004400326181066259,-0.0061559453509520065,0.004720745289551065,0.9908982662813778
2014-01-22,-1,-0.0057686034286503355,-0.004917163147571168,-0.005314105326446644,0.00915274716898647,0.9880386124803133
2014-01-24,-1,-0.006121971305826767,-0.0052337304242828855,-0.003534174540191003,0.009398588359978777,0.9870551866822568
2014-01-28,-1,-0.0049283662099863755,-0.0042174792935045415,-0.003269501273408561,0.008505921277524364,0.9884337683737279
2014-01-30,-1,-0.005244862309904466,-0.004499071101237619,-0.0026775086622297445,0.010476456207152375,0.9856145978746809
2014-02-03,-1,-0.006238327587350044,-0.00538292358220355,0.0007532216640852277,0.010476456207152375,0.9846119304227158
2014-02-05,-1,-0.005592326430276873,-0.004865291362605139,0.00027401160268231486,0.01608304093580935,0.98395438266755
2014-02-07,-1,-0.004011810027199025,-0.0035150808536815476,0.0007228849456733896,0.010476456207152375,0.9866332211621571
2014-02-11,-1,-0.002347389105468521,-0.002090483571685694,0.0007228849456733896,0.010245056757176558,0.9879827148945428
2014-02-13,-1,-0.0022950645469773396,-0.0020504846239612013,0.0007228849456733896,0.010300227434964263,0.987533811098408
2014-02-18,-1,-0.001678352420493383,-0.0015176092394543865,-0.0005120661334057112,0.010300227434964263,0.9884116192774363
2014-02-20,1,3.0042024434417144e-05,7.73119700810199e-05,-0.0013308886332565203,0.009540464342246074,0.9907102632848884
2014-02-24,1,0.00011941650421849693,0.0001473610023438238,-0.004212300123299797,0.009540464342246074,0.9908984122223897
2014-02-26,1,0.000524061608521778,0.00062223502255286,-0.00589831478024444,0.00947165770759538,0.9911693908740965
2014-02-28,1,0.0024159872582862948,0.0027670285845975144,-0.00589831478024444,0.008603283588721448,0.9927181030944379
2014-03-04,1,0.0019941882197875562,0.002236202038216341,-0.00688081225575392,0.007580763346969026,0.9925512744243538
2014-03-06,1,0.003147592327531229,0.0035903808093650626,-0.006677744879789892,0.007580763346969026,0.9919780480380831
2014-03-10,1,0.0038115026793016015,0.004389002132309606,-0.00688081225575392,0.006983571379600114,0.9910000025104285
2014-03-12,1,0.004122198440386408,0.004757457951372895,-0.006677744879789892,0.006983571379600114,0.9916875843272962
2014-03-14,1,0.004200537147391537,0.004859900544008183,-0.006677744879789892,0.004605227699543682,0.9912983064606132
2014-03-18,1,0.0043459831948381425,0.005043688188061235,-0.00688081225575392,0.006983571379600114,0.9903613705596775
2014-03-20,1,0.004401199788287159,0.005114766036952512,-0.006677744879789892,0.006944898927527388,0.9906473398029211
2014-03-24,1,0.004068943774603723,0.004742575061671064,-0.006327886439827514,0.008553146223170181,0.9910847484247782
2014-03-26,1,0.003686159530690784,0.004298286203847348,-0.006327886439827514,0.008553146223170181,0.9915411227650185
2014-03-28,1,0.00419687919950878,0.004864833579348308,-0.006327886439827514,0.00879164159924792,0.991189190003334
2014-04-01,1,0.0033065862568679265,0.0038687966838865267,-0.004864489884212883,0.009367474324493297,0.9915117414617428
2014-04-03,1,0.004352064385035912,0.0049850439705403,-0.0027527218042296383,0.00879164159924792,0.9934191340880103
2014-04-07,1,0.0035803555801607874,0.0041033771831901255,-0.0012904297949154141,0.00879164159924792,0.9942211021625224
2014-04-09,1,0.004273002416202575,0.0049188611120692055,-0.0015188733821328312,0.007682534610281309,0.9936502371113939
2014-04-11,1,0.003864314840451997,0.004472867460130897,-0.0012904297949154141,0.007682534610281309,0.9946611585657993
2014-04-15,1,0.003438180233602953,0.0039542970559302585,-0.0012904297949154141,0.007179645059041216,0.9954978173475963
2014-04-17,1,0.003610656202631026,0.004153830351426507,-0.001504244204021662,0.007682534610281309,0.9947236080732222
2014-04-22,1,0.004495796473607262,0.005174514618867266,-0.0026078549114442835,0.006828423001784849,0.9942620535229828
2014-04-24,1,0.0042474939408568314,0.004857947951840504,-0.00397547550623996,0.007179645059041216,0.9935030096398032
2014-04-28,1,0.004327516470867351,0.004944790557088341,-0.002563967377110776,0.007179645059041216,0.9937080581465172
2014-04-30,1,0.004533318756026489,0.0051575531400291225,-0.004314958435323374,0.006828423001784849,0.9933535148062463
2014-05-02,1,0.0043022309777866865,0.004842351329859292,-0.005055376747651058,0.006828423001784849,0.9923133002353776
2014-05-06,1,0.003978121404529078,0.004463912255329025,-0.005055376747651058,0.007127719749276387,0.9928318075312569
2014-05-08,1,0.00337136883233098,0.0037510203048674046,-0.004077414717563833,0.007127719749276387,0.9934005982986958
2014-05-12,1,0.0037846467860474416,0.004219711224984926,-0.005055376747651058,0.006931389749062709,0.9927015856055293
2014-05-14,1,0.003679663756950811,0.004106239166626517,-0.00597494940064951,0.006931389749062709,0.9920748571623643
2014-05-16,1,0.003318184644564225,0.003680612100046613,-0.005055376747651058,0.004692192071431564,0.9927896216856686
2014-05-20,1,0.0029713664446992406,0.0032670248592754714,-0.004231259988833286,0.006931389749062709,0.9931029932488816
2014-05-22,1,0.002444087729078767,0.002654635742035516,-0.00243781011795975,0.006931389749062709,0.9919126309526946
2014-05-27,1,0.0028660401336035287,0.003131264144630474,-0.004696411949211681,0.004692192071431564,0.9913982676345606
2014-05-29,1,0.002219080647474194,0.002364435159486928,-0.0041907862952733415,0.004692192071431564,0.9919144831118297
2014-06-02,1,0.002619656055452952,0.002811405832025754,-0.0041907862952733415,0.004692192071431564,0.9922184542487418
2014-06-04,1,0.0030022782781448923,0.0032573890262245176,-0.0041907862952733415,0.0034965458769911084,0.9921008007710217
2014-06-06,1,0.0023424984521863267,0.0024562370072800203,-0.0041907862952733415,0.003881749175138713,0.9920575320252305
2014-06-10,1,0.0024777774716268283,0.002638526627406714,-0.0041907862952733415,0.003881749175138713,0.9921097850110154
2014-06-12,1,0.0003007578295447056,0.0005938419496650231,-0.0041907862952733415,0.003881749175138713,0.9928132835859332
2014-06-16,-1,-0.0005373239316310925,-0.00011189845616697337,-0.0041907862952733415,0.005123428223486998,0.992546262485494
2014-06-18,-1,-0.0008927799915901683,-0.00039671581570437553,-0.004033476518596543,0.003881749175138713,0.9930593902885705
2014-06-20,-1,-0.0004650310541790047,-5.487588620714436e-05,-0.004033476518596543,0.003753641291983493,0.9953183932546775
2014-06-24,-1,-0.0017864490779427214,-0.0011858256195595124,-0.0025802827689574283,0.005113151680503134,0.9950655978434549
2014-06-26,-1,-0.0029304011583241615,-0.0021051433193579813,-0.003253845523349255,0.0065037770046487975,0.9941473632462056
2014-06-30,-1,-0.00302091600871207,-0.0021934013821998904,-0.003253845523349255,0.005113151680503134,0.9944350832529854
2014-07-02,-1,-0.0009809455839701914,-0.0004358701636291522,-0.005887765039236723,0.005113151680503134,0.9937423416987868
2014-07-07,-1,-0.0024305041511239623,-0.0017552720426384169,-0.005887765039236723,0.0057577227106654786,0.9935588997218552
2014-07-09,-1,-0.002911691660409409,-0.0021678072069054428,-0.005887765039236723,0.0057577227106654786,0.9931285334755968
2014-07-11,-1,-0.003360202947646769,-0.002588085843109726,-0.005231000083022531,0.0071163915078828015,0.9924700138756473
2014-07-15,-1,-0.00179125834454374,-0.0013039254623928007,-0.005231000083022531,0.0071163915078828015,0.9925443233312689
2014-07-17,-1,-0.0017495628452856697,-0.0012838419974830245,-0.006110652928998192,0.009356341832347348,0.9914817134442823
2014-07-21,-1,-0.001688363942095343,-0.0012360394627608862,-0.00741713345847214,0.009356341832347348,0.9915292084701485
2014-07-23,1,0.00025529841407438323,0.00036906743026597893,-0.00741713345847214,0.006380613756883348,0.99188336977621
2014-07-25,1,0.0005256949270550483,0.0005952486241674828,-0.00741713345847214,0.004516234587677165,0.9926841106308176
2014-07-29,1,0.00014326291151964065,0.0002426438968889539,-0.005655360550700256,0.005879801747771233,0.9928967203518685
2014-07-31,-1,-0.0008064875933407318,-0.0006088278653343391,-0.003074874604326163,0.007118301203411681,0.9935609745879127
2014-08-04,-1,-0.00037585965013243425,-0.00023660230916762519,-0.003074874604326163,0.007118301203411681,0.9936676146678456
2014-08-06,-1,-0.000502406030489014,-0.00034609188878156286,-0.0028328608873094685,0.006894565940886952,0.9942817069942811
2014-08-08,-1,-0.00046292124213663413,-0.0003076185233361636,-0.0028328608873094685,0.006894565940886952,0.9942277703054938
2014-08-12,0,-6.983333386991668e-05,3.850707064543662e-05,-0.003074874604326163,0.005661382773722894,0.9947273933254133
2014-08-14,1,0.00010967511526960852,0.00021887138417085668,-0.003074874604326163,0.005390931028758839,0.9953261925594276
2014-08-18,-1,-0.0006620740953140101,-0.0004434012336127711,-0.003074874604326163,0.006054127149594453,0.9946984289993012
2014-08-20,1,1.8535024765187376e-06,0.00011136097457353447,-0.003074874604326163,0.006054127149594453,0.9948651286375316
2014-08-22,-1,-0.0005953544397410853,-0.0003951866576939367,-0.0036795916895797443,0.006054127149594453,0.9945769450156509
2014-08-26,1,0.00021538838393737116,0.00026638145388440646,-0.00287065813791608,0.006054127149594453,0.9944629781402566
2014-08-28,1,5.131471162381901e-05,0.00015728798810509014,-0.004785064734720353,0.005390931028758839,0.9939039825720961
2014-09-02,1,0.0005393026157456632,0.0005658738701781441,-0.004785064734720353,0.004948725096886814,0.9940623996777709
2014-09-04,1,0.0006717696483685292,0.0007590889708783477,-0.005671101641044372,0.00388457711248766,0.993994685136856
2014-09-08,1,0.0004899091881550857,0.0005596599417983499,-0.005671101641044372,0.00388457711248766,0.9933567796386993
2014-09-10,1,0.0003237963155998908,0.0004054809754193092,-0.003076412070012178,0.00492554886165326,0.9927693422733804
2014-09-12,1,0.0006729040314888158,0.000673303827324609,-0.003076412070012178,0.006577639155312274,0.9920064052300352
2014-09-16,1,0.0010114894586436157,0.0010210796332918767,-0.0033451871800479023,0.005794890263188567,0.9915154895403862
2014-09-18,1,0.0010521790857492574,0.0010986775413757946,-0.009514404330006646,0.005794890263188567,0.9895454197031752
2014-09-22,1,0.000830502972722847,0.0008716309544909675,-0.009514404330006646,0.010043789902895332,0.9886592425700513
2014-09-24,1,0.0015271147402744006,0.0016753137516914251,-0.009514404330006646,0.010043789902895332,0.9883614083542203
2014-09-26,1,0.0006629481300356808,0.0006875073555567197,-0.003376550495634633,0.010043789902895332,0.9890645010304925
2014-09-30,1,0.0006359804729374416,0.0006363119982602134,-0.003376550495634633,0.010043789902895332,0.9889124999906592
2014-10-02,1,0.0004958123715269005,0.0005059050535391064,-0.001558823248555715,0.010109954287301229,0.9888817198390242
2014-10-06,1,0.0014566773299009652,0.0015899775592839258,-0.001558823248555715,0.011951955225949665,0.9894233931827887
2014-10-08,1,0.0023487888880430376,0.0026106783942267896,-0.001558823248555715,0.011455964810034691,0.9900868956716847
2014-10-10,1,0.0018998202921743203,0.0020756842103367276,0.00015329489964342941,0.009846828292370284,0.9910652999807847
2014-10-14,1,0.0013017778893306044,0.0013881668244436706,0.00015329489964342941,0.011455964810034691,0.991328033210016
2014-10-16,0,-9.597842830959074e-06,4.117003984390174e-05,0.0009977819574298163,0.011455964810034691,0.9926749076977649
2014-10-20,1,0.001040907021132834,0.0011054248980315504,0.0005622181808051872,0.010372595508090441,0.9936771939639409
2014-10-22,1,0.0020335506221917064,0.0022645624193602405,2.9099178925736844e-07,0.009524515928552873,0.9947678010951254
2014-10-24,1,0.002201317020287661,0.002475788765594244,2.9099178925736844e-07,0.009524515928552873,0.9947271748662411
2014-10-28,1,0.0024094509850444753,0.0027107680433696383,2.9099178925736844e-07,0.009524515928552873,0.9949120416026268
2014-10-30,1,0.0025869188049731217,0.00289945947441798,0.0005622181808051872,0.01015506679549252,0.9948714470157731
2014-11-03,1,0.003054291950376466,0.0033933646556646626,-0.0003788302823763826,0.006983631723286888,0.9952378228990133
2014-11-05,1,0.0032545495267769812,0.003610222812555438,-0.0015385136391156847,0.00567380593046385,0.9933544989454427
2014-11-07,1,0.0029893414731197716,0.0033221761624467184,-0.0015385136391156847,0.006373785168499563,0.9934085011593796
2014-11-11,1,0.0032193192094587125,0.003575119261844055,-0.0009130138438428366,0.005531589652876393,0.993940920079064
2014-11-13,1,0.0026820519086305917,0.0029398924076748855,-0.0027396820129773486,0.006373785168499563,0.9934985366222098
2014-11-17,1,0.0025463978655452793,0.002790250947587069,-0.0009130138438428366,0.005531589652876393,0.9942694940218169
2014-11-19,1,0.0025090602060117125,0.002741771686616208,-0.0008942059626664043,0.007259707728883811,0.993052074089799
2014-11-21,1,0.0023331149088010143,0.002536226515809182,-0.0007192122366934815,0.00909550112109983,0.9928078848302823
2014-11-25,1,0.0024764935744910847,0.0026928726250332316,-0.001589201039785732,0.00909550112109983,0.9925715542089465
2014-11-28,1,0.002782836052772571,0.0030247745575774816,-0.001589201039785732,0.0068330588961214404,0.9930063323134728
2014-12-02,1,0.0022574374748977133,0.0024025370820540503,-0.001589201039785732,0.0068330588961214404,0.9932223581152487
2014-12-04,1,0.0029424884913807755,0.0031904190742047334,-0.002480144021347659,0.004368171524068489,0.9944030032658497
2014-12-08,1,0.0030027177946082614,0.0032495360751308433,-0.002480144021347659,0.004969661529277823,0.9930585526499308
2014-12-10,1,0.0029605586562983315,0.003195742954903689,-0.003846144310385561,0.009113874424513,0.9921988557409943
2014-12-12,1,0.0030917865799166694,0.0033651680188253132,-0.0019551628434288904,0.005446007042041382,0.9926601350831783
2014-12-16,1,0.00303196212947124,0.003311225964635689,-0.003630491771177548,0.011177147520017444,0.9922169539839834
2014-12-18,1,0.0037508521050855525,0.004098355102599684,-0.0040035313270868015,0.002759401827513637,0.9927317932102694
2014-12-22,1,0.003342334923576534,0.0035785149186586553,-0.0040035313270868015,0.005069309648980022,0.9929357533594428
2014-12-24,1,0.003137505591081456,0.0033513813440090405,-0.0040035313270868015,0.009389019954270121,0.9929089320626894
2014-12-29,1,0.003202007280882489,0.003395445153384074,-0.004761452072532653,0.009389019954270121,0.9923689696023092
2014-12-31,1,0.00288293377189088,0.003033164375649661,-0.004410230533978568,0.009389019954270121,0.9923106715374119
2015-01-05,1,0.00231412045808726,0.002406484465118933,-0.000946969696969697,0.010777806292151663,0.9926380057782713
2015-01-07,1,0.0032677806237976083,0.003494867142180091,-0.000946969696969697,0.010777806292151663,0.9938534344399806
2015-01-09,1,0.003114531201638989,0.003295896316930585,-0.000946969696969697,0.009454766263716316,0.9942032030590159
2015-01-13,1,0.0030268924868547655,0.003201832533992185,-0.0007377706205425139,0.010777806292151663,0.9938146672613201
2015-01-15,1,0.0029684862885453064,0.0031167690636689457,0.0015334462692844185,0.01035141301277171,0.9941360821894304
2015-01-20,1,0.0026652107277883646,0.0027685340276555276,0.002402042267512565,0.01035141301277171,0.9943150312427049
2015-01-22,1,0.003226872452459922,0.003414435549025633,0.001746840215105467,0.009422665386171623,0.9942807152555584
2015-01-26,1,0.0036485502461953414,0.0038949283584850296,-0.0005427876016526295,0.007289646816515648,0.9945320386918871
2015-01-28,1,0.0035400265110522387,0.0037812287949377243,-0.0031543779392635444,0.007289646816515648,0.9942228194947612
2015-01-30,1,0.0034820053760018198,0.0037152781575433215,-0.0031543779392635444,0.006525290291157558,0.9936085862536687
2015-02-03,1,0.003633841363309011,0.0038722823649735127,-0.0054909396152965145,0.0049618533605844655,0.9929759412780215
2015-02-05,1,0.003586343747295034,0.003817296137367278,-0.0054909396152965145,0.0049618533605844655,0.9901797331934429
2015-02-09,1,0.003158138267631561,0.0033348547238032213,-0.0054909396152965145,0.00542932363501133,0.9899159495633406
2015-02-11,1,0.003260753349430928,0.003450472799745847,-0.0054909396152965145,0.0066429900626868,0.9892940914625312
2015-02-13,1,0.003318264098499575,0.0034851706657360202,-0.0054909396152965145,0.006306633133407773,0.9893141763114228
2015-02-18,1,0.0034656038937914816,0.0036693382033219806,-0.009122382442660216,0.0059157636504375485,0.988292605715666
2015-02-20,1,0.002541705325479026,0.0025762363764862553,-0.0054909396152965145,0.008228751125722909,0.9889932296381131
2015-02-24,1,0.002362179713823357,0.0023696033954075735,-0.0054909396152965145,0.008228751125722909,0.9893237997234305
2015-02-26,1,0.0014872515648295332,0.001618521379269201,-0.006796540528373992,0.008228751125722909,0.9893543389048975
2015-03-02,1,0.0012003845937049239,0.0013254191048260831,-0.0031525688387955483,0.00927491855787613,0.989653166702153
2015-03-04,1,0.0007010921494595344,0.0008582403271712044,-0.00025416127424973537,0.00927491855787613,0.9900962194613061
2015-03-06,1,0.0005772228917995056,0.0007630812933225056,-0.002213661034340243,0.008228751125722909,0.9929956425190753
2015-03-10,0,-9.7370959796546e-05,0.0001962505221881403,-0.002213661034340243,0.007282719649766353,0.9932386379938125
2015-03-12,0,-0.00018310107724139792,0.00019027057389978835,-0.002213661034340243,0.004924073977585987,0.9945620392112016
2015-03-16,1,0.000426378084010956,0.0006696025810556581,-0.007613034213531986,0.0037110878569660516,0.9938623921783067
2015-03-18,0,-2.1975992126720004e-05,0.00025929888784893156,-0.007613034213531986,0.0037110878569660516,0.9934218092638438
2015-03-20,1,0.00012163184592117011,0.0003899610939655841,-0.008344288376694733,0.003030523013214822,0.9926335000171381
2015-03-24,1,0.00011985965975627396,0.0003860206948293549,-0.010836756708486843,0.0032119248780382126,0.9914550157214795
2015-03-26,-1,-0.00040209795850116464,-7.276113203897119e-05,-0.008344288376694733,0.005284949258062329,0.9915601532464828
2015-03-30,1,0.0003450085893706114,0.0005635596630314638,-0.014910864975732576,0.0037110878569660516,0.9905034128529214
2015-04-01,1,0.0002408752604307734,0.00044866861978254814,-0.014910864975732576,0.0037110878569660516,0.9904385761234085
2015-04-06,1,0.0001292207990100725,0.0003507870565620556,-0.014910864975732576,0.0043066971893627425,0.9898556869499725
2015-04-08,1,6.054532918932398e-05,0.00027499670959150373,-0.016022550088565696,0.0044566422071652505,0.9882094565987767
2015-04-10,0,-6.316341074729867e-05,0.00016987707172534151,-0.016022550088565696,0.008501000727263385,0.9871040503508081
2015-04-14,-1,-0.0011680163989538027,-0.0007967501461656676,-0.016022550088565696,0.008501000727263385,0.988088158722093
2015-04-16,-1,-0.0020927524476392605,-0.0016129886673195487,-0.010810635790122756,0.011186201451782877,0.988298176612051
2015-04-20,-1,-0.003313781049249735,-0.0026820151219017784,-0.007488722236724953,0.011186201451782877,0.9884857722014277
2015-04-22,-1,-0.0036649071333954178,-0.003001994380685101,-0.003023256605164769,0.011186201451782877,0.9889214193312063
2015-04-24,-1,-0.00288396085860903,-0.0023343714352329183,-0.003023256605164769,0.009877607007139466,0.9897018268572967
2015-04-28,-1,-0.004199815094649496,-0.003483978729747287,-0.0015841198421008783,0.009877607007139466,0.9900426706777933
2015-04-30,-1,-0.004575780728887447,-0.0038274013664317827,-0.0019215306582661001,0.009877607007139466,0.9897443164866696
2015-05-04,-1,-0.0038903399798477403,-0.0032341283946232444,-0.002757187177082303,0.006177085862269771,0.9907449371602002
2015-05-06,-1,-0.004043167845899557,-0.003364226732036295,-0.002757187177082303,0.005047202494624768,0.9926180316517016
2015-05-08,-1,-0.0030392070692737104,-0.0024787259093431747,-0.004722960516880149,0.003963144287571829,0.9940621609822653
2015-05-12,-1,-0.0034488973339637094,-0.0028347107576278405,-0.0036538954792514197,0.0042573684216478894,0.9935942404700895
2015-05-14,-1,-0.002110285750576842,-0.0017144496435529128,-0.0036538954792514197,0.0042573684216478894,0.9944550779039001
2015-05-18,-1,-0.0016709029378374873,-0.0013403157725852017,-0.0036538954792514197,0.0042573684216478894,0.9944844383335344
2015-05-20,-1,-0.0015285794796747825,-0.0012011875695111698,-0.0036538954792514197,0.0054657443718010585,0.994153035107517
2015-05-22,-1,-0.0011352130855686582,-0.0008630149991626067,-0.0036538954792514197,0.005899683419880853,0.9941362668147401
2015-05-27,-1,-0.0014219833807388629,-0.0011083961624603078,-0.005765330661744009,0.005899683419880853,0.9934324467489166
2015-05-29,-1,-0.002678861737949852,-0.00218217308006053,-0.004722960516880149,0.005899683419880853,0.9936441576758516
2015-06-02,-1,-0.002319063450317028,-0.0019188936736390897,-0.004722960516880149,0.005899683419880853,0.9941323992820427
2015-06-04,-1,-0.002142268883072617,-0.001783908119552035,-0.002777860274553295,0.007090034138329843,0.9940121731650339
2015-06-08,-1,-0.0029342572856043752,-0.0024864966738521845,-0.0016817953814066936,0.007891462106792856,0.9925990851766043
2015-06-10,-1,-0.002463181049215875,-0.0020842888181637704,-0.0019087082370811226,0.007090034138329843,0.993117775204329
2015-06-12,-1,-0.0023238902374510084,-0.001957219300909685,-0.0017794524116234445,0.008118666665409922,0.9925459777233632
2015-06-16,-1,-0.0015374951620192874,-0.001296957329735971,-0.002447113938405426,0.0078028121535190335,0.9929670506295131
2015-06-18,-1,-0.0005430773624421339,-0.00045101047721487266,-0.002447113938405426,0.006414695875782925,0.9934764709900633
2015-06-22,-1,-0.00016167571285027605,-0.00011414064071061872,-0.00372786901003506,0.007085010040748977,0.9932405825377009
2015-06-24,-1,-0.00080384258656792,-0.0006857267503212721,-0.002447113938405426,0.007085010040748977,0.9934865573139495
2015-06-26,-1,-0.0002535712785735228,-0.00023652858613446552,-0.004468561251811516,0.007085010040748977,0.9931494898138948
2015-06-30,-1,-0.0002019703607878325,-0.00018198323370930466,-0.0034303151843530656,0.008475353019900947,0.9927498596135816
2015-07-02,-1,-6.170698559308616e-05,-4.007860937676471e-05,-0.0034303151843530656,0.007085010040748977,0.9927993538821182
2015-07-07,1,0.0012387307050548619,0.001457961693929678,-0.004468561251811516,0.006311205499859378,0.9935897014834679
2015-07-09,1,0.0015355924921377508,0.0018258956094181914,-0.005807776839286141,0.007085010040748977,0.9930037682026818
2015-07-13,1,0.0022690154550581458,0.0026713564019701323,-0.007556715385575487,0.005404466502866901,0.9920807152901652
2015-07-15,1,0.00203088610133601,0.002386106105050363,-0.007556715385575487,0.006311205499859378,0.9918652989199381
2015-07-17,1,0.0023940720932425774,0.002801145734077251,-0.007556715385575487,0.007327056150783886,0.9916392528409594
2015-07-21,1,0.0023816203617055567,0.002763412043933142,-0.007556715385575487,0.006571108312721405,0.9920156867124896
2015-07-23,1,0.0018635524698797068,0.002144870575754453,-0.008315337723762934,0.006571108312721405,0.9899093953111692
2015-07-27,1,0.001536152400103092,0.0017362155218217882,-0.01898091950115977,0.006571108312721405,0.9865116105935336
2015-07-29,1,0.0022264334254931623,0.0025272559408601554,-0.01898091950115977,0.006571108312721405,0.9848846629336077
2015-07-31,1,0.0022135338964983445,0.0024968250322013824,-0.01898091950115977,0.008578713514579112,0.983767327560563
2015-08-04,1,0.002484010785565211,0.002887622410696255,-0.01836112548543129,0.008578713514579112,0.9832001827527087
2015-08-06,1,0.0026785222816069192,0.0031208384334916036,-0.01836112548543129,0.008578713514579112,0.9829992659073014
2015-08-10,1,0.0010525754870318433,0.0012441202601363751,-0.017004590818042245,0.01087629149519698,0.9828989258772665
2015-08-12,1,0.0017342499184190541,0.002044763703606422,-0.01828718722783616,0.011341851385841619,0.9812392950501766
2015-08-14,1,0.001858478722223885,0.002178703058167782,-0.01828718722783616,0.015529243145754936,0.9791839399483926
2015-08-18,1,0.0017886552006076324,0.002073890369033352,-0.01828718722783616,0.015529243145754936,0.9791211256197084
2015-08-20,1,0.0004442813279374086,0.0005826454286204099,-0.017090485378143023,0.015529243145754936,0.9805314226588965
2015-08-24,1,0.003180966540944546,0.0036719829068891517,-0.013060585269560042,0.015529243145754936,0.9836163787246194
2015-08-26,1,0.0043614615820289915,0.005006950485909496,-0.013060585269560042,0.009662010783396098,0.9844474121990962
2015-08-28,1,0.0039046057420597862,0.004486532321223208,-0.011806888716020172,0.005280200378403188,0.9853223430853634
2015-09-01,1,0.0028807760674539155,0.0033276139289083297,-0.007703472228164801,0.009684500621729236,0.9867196949964505
2015-09-03,1,0.003029669097896774,0.003443895490393049,-0.007703472228164801,0.0126350753196695,0.986828491681715
2015-09-08,1,0.0030883269938028965,0.003463267698187684,-0.007703472228164801,0.0126350753196695,0.9864881850392307
2015-09-10,1,0.002894399807588706,0.0031801154049816297,-0.006851594193931741,0.0126350753196695,0.9879485748498366
2015-09-14,1,0.0033589223406249582,0.0036811261752146317,-0.006851594193931741,0.010810895497075137,0.9902233569274381
2015-09-16,1,0.003227998805326173,0.003557603176331192,-0.010363380449838075,0.010810895497075137,0.9881293730202739
2015-09-18,1,0.0020937086811692197,0.002203812610741463,-0.007606954870638088,0.0126350753196695,0.9881982970320853
2015-09-22,1,0.0016332315384222583,0.0016637098282589265,-0.005429438697055663,0.0126350753196695,0.9881856934119798
2015-09-24,1,0.0012641207370058874,0.001266966596880896,-0.003159837587657988,0.0126350753196695,0.9882499536792995
2015-09-28,1,0.0009042322252680262,0.0009496219185019794,-0.004721823135805365,0.0126350753196695,0.9878239760236351
2015-09-30,1,0.0015583967162296419,0.0016391264934790635,-0.008423013247786687,0.012671458987790745,0.9871302082434883
2015-10-02,1,0.0023655707423524738,0.0025297634258490873,-0.008423013247786687,0.010643028021453844,0.9882783322582
2015-10-06,1,0.0022388541202100175,0.00241688353169446,-0.008233916082072048,0.0103211909987422,0.9896248707526463
2015-10-08,1,0.0030058945458436245,0.0032876605103885786,-0.01170748545415488,0.00878437033530154,0.9893893007548237
2015-10-12,1,0.0031290881918213218,0.003441315206577837,-0.01170748545415488,0.009803531057547561,0.988430188930995
2015-10-14,1,0.0015899071178146608,0.0017080042343020619,-0.007816382723631235,0.009803531057547561,0.9906716607698098
2015-10-16,1,0.002414872644231359,0.0026283062444942508,-0.01170748545415488,0.0062687992633461385,0.9904279072443051
2015-10-20,1,0.0019929459386914135,0.0021054549800860168,-0.01170748545415488,0.009803531057547561,0.9899737190177197
2015-10-22,1,0.0021965741942692927,0.0023166425848852312,-0.01170748545415488,0.011220607407441043,0.9894752301749362
2015-10-26,1,0.0013616545290118008,0.0013626893025061849,-0.010265788213117803,0.011220607407441043,0.9904654573598374
2015-10-28,1,0.001016232951792674,0.0011000077729396598,-0.0072917191104830805,0.005633514884366274,0.9919756435653841
2015-10-30,1,0.0009753231324979655,0.001053268737989436,-0.00936811125858879,0.011220607407441043,0.9906750165101165
2015-11-03,1,0.0007302025332991487,0.000835750979840293,-0.007131671245120347,0.013224206054830647,0.9909771879946863
2015-11-05,1,0.00015448346228801615,0.00031340293475379434,-0.0060052210806808,0.013705828283546622,0.9890343459186943
2015-11-09,1,0.0003860466176742547,0.0004999721422892232,-0.004082583152908564,0.014119566522563652,0.9890675197373969
2015-11-11,1,0.0002347848085125123,0.0003551553979133825,-0.0035834205060247216,0.014119566522563652,0.9891171012570171
2015-11-13,-1,-0.0012985236552579696,-0.0009629652923970482,-0.0024942849211975803,0.014763150536722927,0.9894173986831843
2015-11-17,-1,-0.0003475669385194734,-0.00012134684530676885,-0.0024942849211975803,0.014763150536722927,0.9901600497351433
2015-11-19,-1,-0.0005168762337330651,-0.00024989833695710536,-0.0030542891515763235,0.014763150536722927,0.9890987425569295
2015-11-23,-1,-0.0005950903098251926,-0.00033056962478275023,-0.0030542891515763235,0.0167738772657213,0.9873747773661692
2015-11-25,0,-0.00012201252591175545,3.2096525820144925e-05,-0.0024942849211975803,0.0167738772657213,0.987174657793692
2015-11-30,1,0.0001285480808719667,0.0002636490093715538,-0.0015007355397751946,0.014763150536722927,0.9885344052109899
2015-12-02,1,0.000805533124358819,0.0008340705625829458,-0.0031477480974605246,0.01452820392712646,0.9884072999847332
2015-12-04,1,0.002658823160174509,0.002857695668466556,-0.004832639407154299,0.011568998949397814,0.9896207970256382
2015-12-08,1,0.003180043921635461,0.003458987314522038,-0.008640580335370327,0.006428678798845674,0.9891826414319219
2015-12-10,1,0.0027283688621167184,0.0029531030169205456,-0.008640580335370327,0.01100377685691569,0.9889651616455638
2015-12-14,1,0.0030707915792311147,0.0033170661011968,-0.01139573645857753,0.006428678798845674,0.9871502959796986
2015-12-16,1,0.0031982961999352556,0.0034334458115554273,-0.012120213465459636,0.004603914275971505,0.9862928313291602
2015-12-18,1,0.001764640987596262,0.0018241740015913503,-0.009513349986633618,0.004603914275971505,0.9879148953525451
2015-12-22,1,0.0029888815204117247,0.0032271920469505557,-0.011967477735904007,0.000709694548457914,0.9877840293898721
2015-12-24,1,0.0026810080287436237,0.0028350694075719553,-0.012551008621667229,-0.000664574166386579,0.9873232756167789
2015-12-29,1,0.0026800979834191285,0.002833173639301259,-0.012551008621667229,0.00014423092007275276,0.9864619774996699
2015-12-31,1,0.001179865803802365,0.0012826847616240365,-0.012551008621667229,0.010148874317632891,0.9854590401135632
2016-01-05,1,0.0014610187732920438,0.0015249954794224628,-0.009707860281888026,0.004652374934465126,0.9871800098485917
2016-01-07,1,0.0004845695948869522,0.0006475857339649765,-0.012551008621667229,0.004652374934465126,0.9855759953752137
2016-01-11,1,0.000635983998635122,0.0007876256046660806,-0.015000071873090841,0.001497896286934817,0.9851937591869064
2016-01-13,-1,-0.0026736868216180104,-0.002040809287856266,-0.012551008621667229,0.0030665718407950375,0.9877021181090627
2016-01-15,-1,-0.0007452621239761966,-0.0005663017506722864,-0.011578847769000065,0.005533270748427336,0.9853081620378363
2016-01-20,-1,-0.0008230390534891194,-0.0006692563570829518,-0.013715643197319006,0.011829780040584806,0.9831895878786591
2016-01-22,-1,-0.001935641549921923,-0.0016347169324632388,-0.011578847769000065,0.013545944460217514,0.9830391568710731
2016-01-26,-1,-0.0030044058052641084,-0.0025218293748254348,-0.007578784688521363,0.014616820404541254,0.9827980911474549
2016-01-28,-1,-0.001518216704953149,-0.0012445191933568682,-0.007578784688521363,0.014904290744844666,0.983512289851954
2016-02-01,1,0.0010257136361668854,0.001078320811934202,-0.007578784688521363,0.012255445336912332,0.9851792895478786
2016-02-03,1,0.0010050247570319631,0.0010746157387109719,-0.013929484979265496,0.012255445336912332,0.9817498317282488
2016-02-05,-1,-0.0013121895891363656,-0.0011003790232657668,-0.007578784688521363,0.012255445336912332,0.983251029994598
2016-02-09,-1,-0.0022026446406702236,-0.0018744362576702256,-0.003123620150251469,0.014442242133485283,0.9828864837543869
2016-02-11,-1,-0.0027738166350425872,-0.0023574496672343305,-0.0020761236383106587,0.018252053301592297,0.9820406201360968
2016-02-16,-1,-0.0009940178282775792,-0.0007690909954273225,-0.006346902425899548,0.014442242133485283,0.9850257611761026
2016-02-18,-1,-0.0017525147261197266,-0.001412982279456528,-0.006346902425899548,0.012573869810827885,0.9865429115022725
2016-02-22,-1,-0.001767888831646492,-0.0014115851554610639,-0.006480512706908475,0.012586001798787124,0.9862926117803064
2016-02-24,-1,-0.0012337899383416551,-0.0009542944962252238,-0.007255629949689508,0.01232709665001157,0.9865195762120222
2016-02-26,1,2.561633142665555e-05,0.00010995526664844796,-0.007255629949689508,0.011825992737204933,0.9867844949749494
2016-03-01,1,0.001006104156948144,0.0010375506079258992,-0.007255629949689508,0.006997668078942702,0.9879496971267938
2016-03-03,1,0.0010917943294441786,0.0011779473419285618,-0.006480512706908475,0.006997668078942702,0.9912803137168079
2016-03-07,1,0.0004766127991843799,0.000490222276261966,-0.006480512706908475,0.006469532512574024,0.9921541310570628
2016-03-09,1,7.617788868489642e-05,0.00020057534184230515,-0.006776052884316327,0.006469532512574024,0.9910493605745181
2016-03-11,1,0.0013767803947512982,0.0014671354014475536,-0.008047450704122357,0.004399460193125764,0.990888431387712
2016-03-15,1,0.0009349188730080752,0.0009732913691993026,-0.008047450704122357,0.006469532512574024,0.9907010231742847
2016-03-17,1,0.0010551766181861816,0.0011371420586387697,-0.008047450704122357,0.004399460193125764,0.9906453992654577
2016-03-21,1,0.0006363573721405218,0.0006494181624740235,-0.008047450704122357,0.002422686424920693,0.9908362957032779
2016-03-23,1,0.00013088576076872126,0.00019987494955776586,-0.008742976924778002,0.004399460193125764,0.990059895641792
2016-03-28,1,0.000589787395931109,0.0006038331990322786,-0.012448843857955881,0.004399460193125764,0.9877131025172909
2016-03-30,1,0.0004656070835660818,0.0005004967432084024,-0.012448843857955881,0.004399460193125764,0.9872017835241486
2016-04-01,1,0.0001570870264500779,0.0002644680640954512,-0.013431630788439035,0.0010472882575968856,0.9863176103611055
2016-04-05,1,5.919190063213549e-06,0.00012664205951055008,-0.013431630788439035,8.08304007395616e-05,0.9866335063852358
2016-04-07,-1,-0.0002664340749125656,-0.00010018717999494382,-0.012448843857955881,-0.0017815722071964698,0.9886257261232081
2016-04-11,-1,-0.001974839618365228,-0.001557950633085625,-0.011122769635580062,8.08304007395616e-05,0.9883034492042833
2016-04-13,-1,-0.0007879277647753589,-0.000555001214336474,-0.013431630788439035,-0.002425840321031563,0.9872592955465429
2016-04-15,-1,-0.0016227358209899402,-0.0013050292512399339,-0.012448843857955881,-0.0003622855229678567,0.9885157941605585
2016-04-19,-1,-0.002409406648341272,-0.0019944582129673817,-0.011303326710671463,-0.0003622855229678567,0.9891887651548398
2016-04-21,-1,-0.0022930959034793887,-0.0018859842734232576,-0.010631945517882484,-0.0003622855229678567,0.9899672594647626
2016-04-25,-1,-0.001726790791474267,-0.001407972932686684,-0.010195795654545533,-0.0003622855229678567,0.9920130221742343
2016-04-27,-1,-0.00198511724033001,-0.0016552876325995674,-0.010631945517882484,0.0021441750913115034,0.990747084872877
2016-04-29,-1,-0.0015021436712054003,-0.0013417908836227737,-0.0070263926511187225,0.005189204688245606,0.9904505002641021
2016-05-03,-1,-0.001225719208408747,-0.0011354715326121535,-0.006679673105955132,0.007245449220630425,0.9896761432315219
2016-05-05,-1,-0.001554129386489341,-0.0014148915503664986,-0.006679673105955132,0.007245449220630425,0.9896632361036971
2016-05-09,-1,-9.971065128104256e-05,-2.5136345935351638e-05,-0.006108229754414874,0.005773448865943212,0.9913642748859881
2016-05-11,-1,-0.0008577443429881606,-0.0008532017974094352,-0.0034550154512709578,0.006627328070158698,0.9923302814304255
2016-05-13,-1,-0.001518095158497736,-0.001373487623475157,-0.0054178517580249,0.006627328070158698,0.991376541089563
2016-05-17,-1,-0.001045329151881974,-0.001023818089180036,-0.0054178517580249,0.006627328070158698,0.9913759187728723
2016-05-19,-1,-0.0003893378248335063,-0.0003058042241444028,-0.006438797930545986,0.006300137348228672,0.9916312818858327
2016-05-23,-1,-0.00024864491554350355,-0.00013263648666394265,-0.00722976659985527,0.006300137348228672,0.9912381140589762
2016-05-25,-1,-0.00034113120248408717,-0.00027386231330207714,-0.006998950197513424,0.006300137348228672,0.9920298349508908
2016-05-27,1,0.0006183047104695366,0.0008341200981679602,-0.006998950197513424,0.006627328070158698,0.9904326317099349
2016-06-01,1,0.0009917922669612296,0.0012144326466485616,-0.007483499638391364,0.006627328070158698,0.9899539752549252
2016-06-03,1,0.0009284011498704558,0.0011561254200827455,-0.007483499638391364,0.0079538487841152,0.9895261244283925
2016-06-07,1,6.664723658865138e-05,7.337698432998007e-05,-0.007483499638391364,0.009769823511311818,0.9888209050136587
2016-06-09,0,-2.505150775788484e-05,8.170670766100593e-06,-0.007483499638391364,0.011609335960515495,0.9881801468734132
2016-06-13,-1,-0.0008269834940901678,-0.0006743481220994356,-0.007483499638391364,0.011609335960515495,0.9889728817743747
2016-06-15,-1,-0.0018130000216728774,-0.0015009013407443394,-0.007002143471906442,0.011609335960515495,0.989301840088963
2016-06-17,-1,-0.0025858263501507854,-0.00216565379939573,-0.007552558449656097,0.011609335960515495,0.9888891816646339
2016-06-21,-1,-0.002771462260735501,-0.002383933463251771,-0.007002143471906442,0.011609335960515495,0.9892021510426309
2016-06-23,-1,-0.0010315212494383331,-0.0009645985664435027,-0.00730201868551302,0.009769823511311818,0.9894166811196564
2016-06-27,1,0.001200915798328892,0.0014188167631299393,-0.00730201868551302,0.007354732232765898,0.9908951751372529
2016-06-29,-1,-0.0004922906057695051,-0.00037240985737494803,-0.008858880243778537,0.005609684182776544,0.9896838162354519
2016-07-01,-1,-0.0008949037072549682,-0.0007034187146395148,-0.008858880243778537,0.003117107835385118,0.99008410941496
2016-07-06,0,-9.548193376769231e-05,2.049943168028342e-05,-0.010581221190961821,0.0010189059105002122,0.9882972299555561
2016-07-08,1,0.0010632474302512125,0.0011794513113045275,-0.013020408685675187,0.0009547717798803598,0.9877676395253187
2016-07-12,1,0.0005099178433630666,0.0005337694999542735,-0.013020408685675187,0.0009547717798803598,0.9881358792018248
2016-07-14,1,0.0004291037241705289,0.0004503346310491381,-0.013020408685675187,0.0009547717798803598,0.9879009152708468
2016-07-18,-1,-0.0002512794887056769,-0.00021194462525737142,-0.010149467886933041,0.004764795002394838,0.988744749297967
2016-07-20,1,0.00019491687988326475,0.00024025942370072426,-0.013878091207177303,0.0027638914955045563,0.9877938316326861
2016-07-22,1,0.0003814386158381492,0.0005146796394932052,-0.011939580441323028,0.005091722654395371,0.9873186432481481
2016-07-26,1,0.0006923901420611508,0.00084918119458443,-0.01873482326341519,0.005091722654395371,0.9871042522797341
2016-07-28,-1,-0.0017008501940948765,-0.001523179208154412,-0.007604757688409325,0.006794239669543966,0.9886129822773736
2016-08-01,-1,-0.001542151065017582,-0.0014224100999965991,-0.009804940106024321,0.006794239669543966,0.9884960966613218
2016-08-03,-1,-0.0016586729016759903,-0.0015678240014705721,-0.007604757688409325,0.005091722654395371,0.9910247666783376
2016-08-05,-1,-0.002494608953752835,-0.0022865057502914374,-0.006883148877273161,0.006794239669543966,0.9912108108630348
2016-08-09,-1,-0.002734844149078291,-0.002497133293303956,-0.006883148877273161,0.006794239669543966,0.9893607783777795
2016-08-11,-1,-0.002402590855974056,-0.0022073142752072443,-0.006883148877273161,0.006707409985181097,0.9894530379034219
2016-08-15,-1,-0.0020571237073011414,-0.0018857243531053888,-0.007906400162785363,0.005519974673964347,0.9892588963952417
2016-08-17,-1,-0.0024630260535320313,-0.002273043590443335,-0.007167557452957557,0.006707409985181097,0.9890731455194451
2016-08-19,-1,-0.0015807705568965335,-0.001496962067208181,-0.008148554377826413,0.005519974673964347,0.9897951906204298
2016-08-23,-1,-0.0017206433804588307,-0.0016365808458980956,-0.007826165206131427,0.005519974673964347,0.9902228920690639
2016-08-25,-1,-0.0010240741208359216,-0.0010236544739148574,-0.00836355992669707,0.0027644937246772494,0.9910624460007076
2016-08-29,-1,-0.0013668141367704733,-0.0013276580434206373,-0.00836355992669707,0.0027644937246772494,0.9909004868393978
2016-08-31,-1,-0.0021116490261781874,-0.0019451721842782422,-0.009437063768820642,0.0027644937246772494,0.9909571907706477
2016-09-02,-1,-0.0009068847754923751,-0.0008883184299920539,-0.010165581295439024,0.0027644937246772494,0.9905717636055926
2016-09-07,-1,-0.002636193414333868,-0.0024102562220744694,-0.009611166755086829,0.00024613608258755153,0.9928941975634723
2016-09-09,-1,-0.0026238042339663094,-0.0023731365672090064,-0.010165581295439024,-0.0010193981781748168,0.9919090353170777
2016-09-13,-1,-0.00291510297241934,-0.0026474676479378303,-0.009611166755086829,0.0028185100321321023,0.9909483656799548
2016-09-15,-1,-0.0018848572619081711,-0.001768243932525573,-0.009611166755086829,0.0028185100321321023,0.9899785843806719
2016-09-19,-1,-0.002866964908272109,-0.002606478347872998,-0.010165581295439024,0.004898409790105952,0.9897986491284069
2016-09-21,-1,-0.0031000108433909958,-0.0027809323109043178,-0.010165581295439024,0.004898409790105952,0.9898257531718352
2016-09-23,-1,-0.003655237559828286,-0.0032619302159251243,-0.010020675300589369,0.004898409790105952,0.990087749766693
2016-09-27,-1,-0.00407811415681245,-0.0036329443681405197,-0.008885274923670815,0.007595215356731908,0.9895297807948403
2016-09-29,-1,-0.003844741910162772,-0.0034855706621384824,-0.0067869872253352006,0.007595215356731908,0.9894254249149153
2016-10-03,-1,-0.004815293387561844,-0.004278566754137577,-0.0067869872253352006,0.008821638722428233,0.9894818084452376
2016-10-05,-1,-0.005009378233594136,-0.004465232671857735,-0.00614042002856551,0.012470333886646576,0.9871403237874542
2016-10-07,-1,-0.004908715444347284,-0.004362193115087242,-0.00614042002856551,0.008821638722428233,0.987022860379773
2016-10-11,-1,-0.0026977349992215473,-0.0024374670769097624,-0.0067869872253352006,0.008390021958600677,0.9884885672590786
2016-10-13,-1,-0.001676799931236784,-0.0015329011362439542,-0.0067869872253352006,0.010780895354857035,0.9870128933809472
2016-10-17,-1,-0.0020751666071243697,-0.001900823357764633,-0.00614042002856551,0.014731112821520675,0.9851511544831797
2016-10-19,-1,-0.0010097090482935167,-0.0010083029697229534,-0.006764561502107072,0.014731112821520675,0.9841218924776751
2016-10-21,-1,-0.0008813412723525482,-0.0008133841397809086,-0.006764561502107072,0.014731112821520675,0.9842024876619265
2016-10-25,-1,-0.0007317540732194036,-0.0006535325150687716,-0.005539177616028011,0.012252497809117396,0.9851016859215248
2016-10-27,-1,-0.0003197811336624049,-0.00017243258084816127,-0.005539177616028011,0.012252497809117396,0.9847602328995677
2016-10-31,0,-0.00012966864146812947,6.392614289245325e-05,-0.006223094170363806,0.012252497809117396,0.9844964376295122
2016-11-02,1,0.0015249810135856158,0.0019349710406432372,-0.007591028658885761,0.012252497809117396,0.9843931236254126
2016-11-04,-1,-0.00045174675671547814,-0.00032985093889198425,-0.007591028658885761,0.012252497809117396,0.9855828547429555
2016-11-08,-1,-0.0006332446461954832,-0.0005544062791539349,-0.005629326998902349,0.017190902755899875,0.9855050702686247
2016-11-10,1,0.0018940975286832187,0.002271884258878582,-0.005629326998902349,0.01672224902805093,0.9873298092550385
2016-11-14,1,0.0036823817264135666,0.004299231122141998,-0.0076479265617765005,0.006481258856410939,0.9886167370741096
2016-11-16,1,0.00420215066292623,0.005050044362641239,-0.005629326998902349,0.010699895463335083,0.9888531613363938
2016-11-18,1,0.0038516474190198294,0.004598641129449216,-0.0029723372927241316,0.010699895463335083,0.9890954491935045
2016-11-22,1,0.003920619476079556,0.004682385457335253,-0.00863460127232465,0.010699895463335083,0.9881493442461124
2016-11-25,1,0.005021321188164937,0.005997572798561833,-0.00863460127232465,0.010699895463335083,0.9874394815943374
2016-11-29,1,0.004435327582273607,0.00535668030758934,-0.00863460127232465,0.010699895463335083,0.9881697320210068
2016-12-01,1,0.005765214605111822,0.006839540115752597,-0.006871571514219555,0.006562322476924847,0.9896256365808548
2016-12-05,1,0.004670492518682123,0.00559602187015271,-0.00863460127232465,0.006562322476924847,0.9889285268482886
2016-12-07,1,0.005127817354673624,0.00605880520664784,-0.00863460127232465,0.0036052429275762942,0.9885615392419779
2016-12-09,1,0.007659416073400656,0.008955255537179177,-0.00863460127232465,0.002638805401209704,0.9869863153749878
2016-12-13,1,0.006985467963462419,0.008163705825844116,-0.006871571514219555,0.002638805401209704,0.9880992195840202
2016-12-15,1,0.009186930080949944,0.01069058219654843,-0.006871571514219555,0.002638805401209704,0.9868352476075176
2016-12-19,1,0.006053770448618773,0.007009327757165671,-0.00863460127232465,0.002638805401209704,0.9882171732432222
2016-12-21,1,0.006533288120181309,0.0075093738156705135,-0.008382233915631383,0.002638805401209704,0.9878086919118721
2016-12-23,1,0.0045674529179186366,0.005248244446116317,-0.007786958090623086,0.002438351329126438,0.989042939419165
2016-12-28,1,0.0036338955975698337,0.004142032186280971,-0.007119547777459699,0.003813721101741234,0.9896046020287891
2016-12-30,1,0.003123313279388484,0.003534329977956494,-0.007119547777459699,0.008100633104502255,0.98989024098863
2017-01-04,1,0.0015721433426949356,0.0017783274427318032,-0.005156131561143376,0.00882986268283523,0.9904526982877964
2017-01-06,1,0.0017018900059264834,0.001955665149900877,-0.006728948436813641,0.00882986268283523,0.9900785132860336
2017-01-10,1,0.0012137299277602026,0.0013390973111996034,-0.0100908293998546,0.008728780332250568,0.9893272863091086
2017-01-12,1,0.0020700802659641923,0.0023609270964223493,-0.0100908293998546,0.008728780332250568,0.9891547195689347
2017-01-17,1,0.0035498716930858227,0.003978587461439216,-0.0100908293998546,0.0035955314640827973,0.9893103658538743
2017-01-19,1,0.002949190484321974,0.0033327368602446275,-0.008473454948837097,0.008728780332250568,0.9897783731214878
2017-01-23,1,0.0017832501966986982,0.001979009452244497,-0.0074575245241607245,0.008728780332250568,0.9910335581361728
2017-01-25,1,0.0019867822241284925,0.002159989683855073,-0.008473454948837097,0.008728780332250568,0.9893637572175337
2017-01-27,1,0.001476056499587859,0.0016698438577062243,-0.008473454948837097,0.009498806959900736,0.9883558962274468
2017-01-31,1,0.0015003071289588412,0.0015710439699004215,-0.010534033249947781,0.008405536291073202,0.9879846099715336
2017-02-02,1,0.001594158539040267,0.0017209720955831446,-0.014303124269483545,0.006675097047597743,0.9857679884533277
2017-02-06,1,0.0005025293153419117,0.0005610252556666893,-0.018346406823655303,0.006675097047597743,0.9852971425576394
2017-02-08,-1,-0.00044128183918670696,-0.00029365648821529756,-0.014543362481701162,0.006990255231526054,0.9861913582155654
2017-02-10,0,-0.0001544305990460506,1.148296756548991e-06,-0.014543362481701162,0.006279792790722886,0.9868878965024733
2017-02-14,-1,-0.000759795489663699,-0.0005351254194638427,-0.014543362481701162,0.006279792790722886,0.9872855284810497
2017-02-16,0,-8.619153847440352e-05,9.339967839187499e-05,-0.014543362481701162,0.006279792790722886,0.9873076900557042
2017-02-21,-1,-0.000415352573692808,-0.00015253760794998854,-0.014543362481701162,0.00530725828181954,0.9867964005137317
2017-02-23,-1,-0.0025801892025337893,-0.002030189695513153,-0.01239588386030255,0.006907328038545246,0.9881136559995098
2017-02-27,-1,-0.004003573061404224,-0.0032673187907760405,-0.009726050133247606,0.00530725828181954,0.990025133971004
2017-03-01,-1,-0.004746288996949942,-0.003886951623356177,-0.008807917352254956,0.00530725828181954,0.9900830140560198
2017-03-03,-1,-0.008331360013733944,-0.007062446702370185,-0.005846963106957597,0.006907328038545246,0.9911925246540569
2017-03-07,-1,-0.00854267693669299,-0.007337997406106155,-0.00494576916990904,0.008349338634321468,0.9903160527501023
2017-03-09,-1,-0.007559360053587896,-0.006543648306206174,-0.00494576916990904,0.008349338634321468,0.9908333796876355
2017-03-13,-1,-0.007926098362965739,-0.006847400740859946,-0.00494576916990904,0.010031242446179716,0.9892589547397218
2017-03-15,-1,-0.007393723870900263,-0.00639683450461739,-0.005561639788602666,0.010031242446179716,0.9890866874721983
2017-03-17,-1,-0.006460678421153486,-0.005552819076078625,-0.005561639788602666,0.009880850790788378,0.9905497197697885
2017-03-21,-1,-0.007265636226641016,-0.006276138192655916,-0.00494576916990904,0.009880850790788378,0.989770813135689
2017-03-23,-1,-0.006537003630813893,-0.005644636995769657,-0.005561639788602666,0.009821445307024975,0.9907223845143792
2017-03-27,-1,-0.00756730359942353,-0.006508468251722959,-0.00507871902882542,0.009821445307024975,0.9895240094185949
2017-03-29,-1,-0.005506662485879268,-0.004796545242304747,-0.00507871902882542,0.00973578393360843,0.9906592826286025
2017-03-31,-1,-0.0060547626434887805,-0.005214210718941545,-0.008498439820093021,0.008486597664576958,0.9900454391500396
2017-04-04,-1,-0.006608789559481852,-0.005641247934682781,-0.008498439820093021,0.008486597664576958,0.9895589458543009
2017-04-06,-1,-0.0046875422983859265,-0.004125173137643932,-0.0071722215633723725,0.008486597664576958,0.9901757832971377
2017-04-10,-1,-0.001896415200699375,-0.0017867663227547274,-0.008498439820093021,0.004957312645475474,0.9908217354163404
2017-04-12,-1,-0.0029845015402637782,-0.002677799255552658,-0.0071722215633723725,0.006777431604780604,0.9897232833416332
2017-04-17,-1,-0.003178888857064813,-0.002807609390597252,-0.010683309918294156,0.006777431604780604,0.9884535037352012
2017-04-19,-1,-0.0031600248456659062,-0.0027936202338514123,-0.011454260073896057,0.006777431604780604,0.9883366769876496
2017-04-21,-1,-0.002632567778688917,-0.0023555249535971547,-0.011454260073896057,0.0071858843396180976,0.9877163209294152
2017-04-25,-1,-0.0033206603928038403,-0.0029163217442102936,-0.011454260073896057,0.006037461008715,0.9882269249587179
2017-04-27,-1,-0.0011769836045955949,-0.001133856667396324,-0.011454260073896057,0.0045745048685077744,0.988347081834919
2017-05-01,-1,-0.0033039809386521506,-0.002971080350216683,-0.007077259716112207,0.008018056736119147,0.9888593671048593
2017-05-03,-1,-0.0018320987360705783,-0.0017224609961813068,-0.006500235589815193,0.008018056736119147,0.9893551327986411
2017-05-05,-1,-0.0010686748406420782,-0.0010083090616634228,-0.006006747661570567,0.008018056736119147,0.9899107555266614
2017-05-09,-1,-0.0015128251324419098,-0.00149792290513249,-0.006006747661570567,0.008018056736119147,0.9902447290582664
2017-05-11,1,0.0014078655929922715,0.0018932827921038918,-0.006006747661570567,0.008018056736119147,0.9911444773541708
2017-05-15,0,-0.0002169939483160294,3.0235991426226256e-05,-0.004341346302718483,0.009874306651986521,0.9914945060058854
2017-05-17,-1,-0.0010349852190974426,-0.0009297515008259835,-0.003507686365856494,0.009874306651986521,0.9872026826828669
2017-05-19,0,-2.45761829475086e-05,0.00023527996505267744,-0.004341346302718483,0.009874306651986521,0.9833004752892787
2017-05-23,0,-0.00021846221793859382,4.79421806248684e-05,-0.005301587382665665,0.009874306651986521,0.983065086870683
2017-05-25,1,7.870492056538225e-05,0.0003782659825660326,-0.005301587382665665,0.009874306651986521,0.9827850032162792
2017-05-30,1,0.000156963478354342,0.0003696768702308158,-0.005301587382665665,0.008784336399212347,0.9832331324306214
2017-06-01,1,0.0009439716404043333,0.001255161017876612,-0.005859570088531982,0.008784336399212347,0.9824441102496189
2017-06-05,1,0.0008796105750597294,0.0011938372339297988,-0.005859570088531982,0.009708422113916308,0.9822776751011492
2017-06-07,1,0.000683714408605133,0.0010046416324250161,-0.006404237464664,0.009708422113916308,0.9820286895706696
2017-06-09,1,0.0033929866707948218,0.0041845301973888,-0.01201010649060667,0.007430745006578114,0.9818835173862253
2017-06-13,1,0.0025350896353372203,0.003178232913680734,-0.006404237464664,0.007185419822689651,0.9834692604065546
2017-06-15,-1,-0.0024786718547769146,-0.002414978480978313,-0.004406332815921378,0.007185419822689651,0.9871680264918493
2017-06-19,1,0.0013104053409010636,0.00174205580367726,-0.005054281270637374,0.005716523128686701,0.9926981351055235
2017-06-21,1,0.000852931126616274,0.0012225780802405742,-0.004406332815921378,0.007757480844445123,0.9919366221756885
2017-06-23,1,0.0019320758135879458,0.0025010063551907484,-0.004406332815921378,0.007185419822689651,0.9921915383697386
2017-06-27,1,0.0028168603715242766,0.003455209043640194,-0.004406332815921378,0.008099806552945406,0.9915931632612212
2017-06-29,1,0.0034154931594345844,0.004103439366767601,-0.002043546714698097,0.009738079865802673,0.9922259241308399
2017-07-03,1,0.003453935210355906,0.004152445033293014,-0.002043546714698097,0.009743557318683541,0.9922171142265871
2017-07-06,1,0.00322684638921125,0.003957161263266215,-0.0003224493373849976,0.009743557318683541,0.9920558640627865
2017-07-10,1,0.002003533249428928,0.00254263641080629,0.000663375161715608,0.009900050546393925,0.9929021580799446
2017-07-12,1,0.003205000967591206,0.003982045480703449,-0.0024884191579161706,0.009900050546393925,0.9922922864290351
2017-07-14,1,0.004030372591520326,0.004946851371840612,-0.0065317032147086665,0.009900050546393925,0.9908802060559783
2017-07-18,-1,-0.0011422280142164244,-0.0011144061835184707,-0.004514096207480222,0.009900050546393925,0.9903797704292099
2017-07-20,-1,-0.0005646019627122395,-0.00048601123347663153,-0.008367529962166893,0.005297698137714527,0.9916904357281942
2017-07-24,-1,-0.0005191651032391837,-0.0004356201424270151,-0.009876432438791018,0.005297698137714527,0.991223572025895
2017-07-26,-1,-0.0008468111780574905,-0.0007910906789694993,-0.009876432438791018,0.005297698137714527,0.9914506127288681
2017-07-28,-1,-0.0007292274189522887,-0.0006613640713211569,-0.010204784820196443,0.003404835715588214,0.9872371215736988
2017-08-01,-1,-0.0003305017241540195,-0.0003106976453272814,-0.010204784820196443,0.0031398914626840956,0.9876377087711058
2017-08-03,-1,-0.0009271738650111283,-0.0008329246694362007,-0.010204784820196443,0.003909481509554746,0.9873203451630865
2017-08-07,-1,-0.0004819150152210581,-0.00044724660913304955,-0.010204784820196443,0.003909481509554746,0.9866301041878012
2017-08-09,-1,-0.0005026014051668783,-0.0004964739130792219,-0.010204784820196443,0.0064514855178316975,0.986649108821659
2017-08-11,-1,-0.0011052451185735643,-0.0010028970821696816,-0.010204784820196443,0.010640958910696998,0.9831296303071602
2017-08-15,-1,-0.0012701825611083474,-0.0011636439331124942,-0.0031802387496999013,0.011758700893063315,0.9832149720453017
2017-08-17,-1,-0.0016105127219729377,-0.0014545739422387209,-0.0034240213734301967,0.013616871726070609,0.9817727680304048
2017-08-21,-1,-0.0015805754239917858,-0.0014467038500629473,-0.0081348925109615,0.013616871726070609,0.981465348303134
2017-08-23,-1,-0.0010638434258146354,-0.000999552266474692,-0.015053046265539365,0.011758700893063315,0.9804748107508089
2017-08-25,-1,-0.0020552418566030352,-0.0018880910503373987,-0.014560479416687064,0.010128732685022842,0.9852437003024787
2017-08-29,-1,-0.0019425393725474877,-0.0017863332609443453,-0.014560479416687064,0.011569259126221315,0.9847006636894335
2017-08-31,-1,-0.0013908433179629196,-0.001328764809410382,-0.011431097971607887,0.010128732685022842,0.9857402539473874
2017-09-05,-1,-0.0007914053058373152,-0.000789488299912627,-0.011431097971607887,0.010128732685022842,0.985382914118051
2017-09-07,-1,-0.00032517156882163223,-0.00025385321600421865,-0.011431097971607887,0.009022045016389308,0.985706768726285
2017-09-11,-1,-0.001603407159432826,-0.0015196622731305039,-0.011431097971607887,0.0072832892108346415,0.9893209557975613
2017-09-13,-1,-0.0010415870804273463,-0.0010307024936585655,-0.011431097971607887,0.00916754513082432,0.9889067330085083
2017-09-15,-1,-0.001093753380747077,-0.0010762124413811703,-0.010009227140883066,0.010897420973952961,0.9893683311882354
2017-09-19,-1,-0.0013246799223351569,-0.0013011637580682936,-0.010009227140883066,0.010897420973952961,0.9881974589254211
