JNU-Tangyin/eata/results/Batch4_SP500/Batch4_SP500-BF-A.csv
Date,Action,Predicted_Q25,Predicted_Q75,Actual_Q25,Actual_Q75,RL_Reward
2010-12-14,0,0.0,0.0009220617596412122,-0.0027662129501648796,0.0017112420034799314,0.9973418047390297
2010-12-16,0,0.0,0.0,-0.0027662129501648796,0.0007165256679919562,0.9965984406063265
2010-12-20,0,0.0,0.0,-0.002853696662227614,0.0007165256679919562,0.9966438520507729
2010-12-22,0,0.0,0.0,-0.002853696662227614,0.0008458753845017799,0.9966264438359111
2010-12-27,0,0.0,0.0,-0.0033953854335039765,0.0008458753845017799,0.9963068723672435
2010-12-29,1,0.0037057122343994984,0.004452887477679143,-0.003904455216531675,0.001290599084211338,0.9937983121020202
2010-12-31,0,0.0,0.0,-0.003904455216531675,0.0017042719675527107,0.9954745639687623
2011-01-04,0,0.0,0.0,-0.003753876207599437,0.001969844249734633,0.9950213734959246
2011-01-06,1,0.0013601583623189333,0.001395139356562036,-0.003753876207599437,0.0023476485841210353,0.9950050668876818
2011-01-10,1,0.0014000054830444215,0.0016164688477209098,-0.00315324592590876,0.0023476485841210353,0.9956457860034779
2011-01-12,1,0.001457626084677552,0.0016809460477446914,-0.003753876207599437,0.0023476485841210353,0.9954588477808163
2011-01-14,1,0.0015131804575409932,0.0017491971256196489,-0.003753876207599437,0.003201776894886825,0.9955588728296422
2011-01-19,0,0.0,0.0,-0.00315324592590876,0.003201776894886825,0.9956530313396165
2011-01-21,0,0.0,0.0,-0.00315324592590876,0.002673071259477174,0.9958005922607575
2011-01-25,0,0.0,0.0,-0.00315324592590876,0.003278687363376042,0.9948275805544227
2011-01-27,0,0.0,0.0,-0.0018412869764451389,0.004545302405885342,0.994155881049232
2011-01-31,0,0.0,0.0,-0.003161841794643666,0.003278687363376042,0.9947483501665256
2011-02-02,0,0.0,0.0,-0.003161841794643666,0.002673071259477174,0.9952111652657802
2011-02-04,0,0.0,0.0,-0.0033669665659518165,0.0012237443865559712,0.9953390403102443
2011-02-08,0,0.0,0.0,-0.0033669665659518165,0.003647111778208335,0.993077437134425
2011-02-10,0,0.0,0.0,-0.0044196789514317925,0.003647111778208335,0.9920040750639928
2011-02-14,0,0.0,0.0,-0.007874478962220672,0.0016280952071147537,0.9908469434228524
2011-02-16,0,-8.943911338616284e-05,3.7114188431670695e-05,-0.00879081632330341,0.0040234373261557235,0.9889886854657349
2011-02-18,0,0.0,0.0,-0.00879081632330341,0.012883117890117054,0.9879915557969591
2011-02-23,0,0.0,0.0,-0.008976108411125314,0.007657652182067192,0.9883949262535136
2011-02-25,0,0.0,0.0,-0.008976108411125314,0.005886457299473959,0.9888480909835752
2011-03-01,0,0.0,0.0,-0.008976108411125314,0.005886457299473959,0.9890748055553927
2011-03-03,0,0.0,0.0,-0.008976108411125314,0.005886457299473959,0.9889317680289477
2011-03-07,0,0.0,0.0,-0.008976108411125314,0.005886457299473959,0.988953574837537
2011-03-09,0,0.0,0.0,-0.008976108411125314,0.005440944049414279,0.9908387096427794
2011-03-11,0,0.0,0.0,-0.00562783701930533,0.005440944049414279,0.9919569300399388
2011-03-15,0,0.0,0.0,-0.0035144041238558445,0.005886457299473959,0.9922927612098914
2011-03-17,0,0.0,0.0,-0.0032710844441207467,0.005886457299473959,0.9937770136421216
2011-03-21,0,0.0,0.0,-0.0035144041238558445,0.005440944049414279,0.9937346549669012
2011-03-23,1,0.0013069994347620357,0.0013184331140037922,-0.002651463212099847,0.006105254462630232,0.9940580119084714
2011-03-25,-1,-0.000733075197789469,-0.0004618849365728052,-0.002716650383095962,0.006347130222568548,0.9940750405480788
2011-03-29,-1,-0.0010830914935574991,-0.0007614739822980432,-0.002716650383095962,0.007225028723103815,0.9930846488366535
2011-03-31,-1,-0.0004819992343052617,-0.00026497336358829657,-0.0032710844441207467,0.007225028723103815,0.9929590384267916
2011-04-04,-1,-0.0006970418917053591,-0.00043718244890758996,-0.0035144041238558445,0.007225028723103815,0.9925502270031414
2011-04-06,0,0.0,0.0,-0.004189168744339991,0.0065205440908369435,0.9926227823696073
2011-04-08,0,0.0,0.0,-0.00408728023067153,0.0065205440908369435,0.9924966293777187
2011-04-12,0,0.0,0.0,-0.006493325375357762,0.0065205440908369435,0.9928511084121819
2011-04-14,-1,-0.0007724286918311971,-0.0006722960561806174,-0.00780257776952825,0.0065205440908369435,0.9914183948901288
2011-04-18,-1,-0.0008813253274833708,-0.0007659528764377675,-0.006493325375357762,0.006357261822782328,0.9920795070126351
2011-04-20,0,0.0,0.0,-0.006493325375357762,0.005341229479894037,0.9927222424843098
2011-04-25,0,0.0,0.0,-0.008091122629676949,0.004125954611787473,0.9921130917530525
2011-04-27,0,0.0,0.0,-0.006733937724041908,0.0017016376097368142,0.9929482489505526
2011-04-29,1,0.0003065649473600252,0.0003578349496855545,-0.006493325375357762,0.004125954611787473,0.9928776630581114
2011-05-03,1,0.00030126046600308673,0.0003522049802137901,-0.005825396313624813,0.004125954611787473,0.9931537625869016
2011-05-05,1,0.00022820415816103356,0.00026131006650252533,-0.005944047216841358,0.004125954611787473,0.9926684331083777
2011-05-09,1,0.0004381812811664137,0.0005155012434354914,-0.006589506995407328,0.0046279386000631735,0.9921901488359759
2011-05-11,1,0.000644664469108829,0.0007595959481068595,-0.006088372413102451,0.0073156346490472045,0.9922831545270744
2011-05-13,1,0.0010566836477964364,0.0012284078649096315,-0.007213791074252446,0.0046279386000631735,0.9933197922160595
2011-05-17,1,0.001280215719953061,0.0014884072896507723,-0.007213791074252446,0.0048514319934198375,0.9932524207967905
2011-05-19,1,0.0013165243359702886,0.001526319940910109,-0.007213791074252446,0.008112882908942019,0.9925244335831812
2011-05-23,1,0.0007402563310270904,0.0008661771453500563,-0.00565835145285652,0.008112882908942019,0.9932093342873701
2011-05-25,0,0.0,0.0,-0.006279680903164291,0.008112882908942019,0.9930099161841521
2011-05-27,1,0.0002969095507756549,0.00033906122913263256,-0.006279680903164291,0.0072842693001222225,0.9935887821905168
2011-06-01,1,0.0011730039434615872,0.0013429865127882947,-0.006279680903164291,0.0072842693001222225,0.9939232276258412
2011-06-03,1,4.874784029378409e-05,6.653206378318105e-05,-0.0009124794070475475,0.008566648298123054,0.9931362149311698
2011-06-07,0,-6.627450013214331e-06,2.3037967099252937e-05,-0.0009124794070475475,0.008186344058648582,0.9933991200449374
2011-06-09,1,0.0005975291127051148,0.0006296865768491711,-0.0023401450484017987,0.0063575201893761564,0.9938321344534374
2011-06-13,-1,-0.00037517169407698647,-0.0002810126899195137,-0.0011149442756810213,0.0063575201893761564,0.9938948374110658
2011-06-15,1,0.00022668259153089525,0.00023961496330679046,-0.0011149442756810213,0.005629443407808268,0.9943213567784239
2011-06-17,1,0.0009465233156898958,0.001002245714897342,-0.0023401450484017987,0.0038687864908880463,0.9943814550086821
2011-06-21,0,0.0,0.0,-0.005746632038087497,0.0025810257692994616,0.9935559681377811
2011-06-23,1,0.0003159625972344476,0.0003338506065329797,-0.0023401450484017987,0.007013953869609764,0.9922142512983538
2011-06-27,1,0.0004933225054561453,0.0005097312840786361,-0.005965114197936583,0.007013953869609764,0.9916974159731029
2011-06-29,1,0.0005325221462266316,0.0005618532375288299,-0.010157032084225108,0.007013953869609764,0.9906378586948609
2011-07-01,1,0.0012052586845779497,0.001314998022574395,-0.011808307764356136,0.002250314412073644,0.9911943433806052
2011-07-06,1,0.0011127156156961917,0.0011961129076279624,-0.012257692999278504,0.002250314412073644,0.9907745372225029
2011-07-08,1,0.0009652198151010431,0.0010356929430168115,-0.012474898952623145,0.0025451947318089257,0.9891035512740185
2011-07-12,0,0.0,0.0,-0.013542714920067346,0.0038833846651007797,0.9864741628908726
2011-07-14,0,0.0,0.0,-0.016073619628678492,0.007488363564779726,0.9820468199394732
2011-07-18,0,0.0,0.0,-0.013542714920067346,0.012810593708888644,0.9802033837832058
2011-07-20,0,0.0,0.0,-0.013542714920067346,0.012549160256519627,0.9805936623481568
2011-07-22,0,0.0,0.0,-0.01386203679282312,0.007450293803017134,0.9815370326443702
2011-07-26,0,0.0,0.0,-0.01386203679282312,0.014419920585226838,0.9795632179807844
2011-07-28,1,1.9304038536980454e-05,0.00011301732487103234,-0.01404314076182434,0.014419920585226838,0.9795928806296739
2011-08-01,1,0.0005511475723430319,0.0006526015571863127,-0.01404314076182434,0.020906295985599028,0.9778364066063382
2011-08-03,0,0.0,0.0,-0.013366978598187234,0.020906295985599028,0.9775241563038924
2011-08-05,0,0.0,0.0,-0.01091209419122549,0.020906295985599028,0.9790217118122253
2011-08-09,0,0.0,0.0,-0.01091209419122549,0.02368232119676449,0.9797086957874991
2011-08-11,0,0.0,0.0,-0.01091209419122549,0.016457729343042016,0.982523957710066
2011-08-15,0,0.0,0.0,-0.01091209419122549,0.015241232775166444,0.9843402035299145
2011-08-17,0,0.0,0.0,-0.01091209419122549,0.017726524304416715,0.9842245790177616
2011-08-19,0,0.0,0.0,-0.011093862285540986,0.017726524304416715,0.9838021266692986
2011-08-23,0,0.0,0.0,-0.015310168394642373,0.017726524304416715,0.9827754174477579
2011-08-25,-1,-0.00021969141934603917,-9.985774805137092e-05,-0.016499185357966465,0.017726524304416715,0.9822646086199815
2011-08-29,0,0.0,0.0,-0.016499185357966465,0.017726524304416715,0.9816642924182734
2011-08-31,-1,-0.00027307083336828956,-0.00017857188158689656,-0.02436776977845647,0.018584429057537433,0.9798371029286042
2011-09-02,-1,-0.0004893610906050823,-0.00040491082419701714,-0.024776691712277737,0.018584429057537433,0.9790406055755425
2011-09-07,-1,-6.550261744307189e-05,-4.474095542682877e-05,-0.02436776977845647,0.018584429057537433,0.9804068025184193
2011-09-09,-1,-0.0017947271292021083,-0.0015583451097832704,-0.009565229119321145,0.01999401610230376,0.9797801144877865
2011-09-13,-1,-0.0007361804549259111,-0.0006569207288522956,-0.009565229119321145,0.01999401610230376,0.979764265294857
2011-09-15,0,0.0,0.0,-0.010889486491861838,0.01897662554118948,0.9804509570663412
2011-09-19,0,0.0,0.0,-0.006658682606741015,0.01897662554118948,0.9805701494957406
2011-09-21,0,-0.0005258565403402759,0.0,-0.006488680254969269,0.01897662554118948,0.9828586189647045
2011-09-23,-1,-0.0012092400827948744,-0.0010667539497198222,-0.005157211041480711,0.02128108055079018,0.9825535363210544
2011-09-27,0,0.0,0.0,-0.0068266701926661625,0.01824529887049934,0.9834907915784346
2011-09-29,-1,-0.0009863922713856195,-0.000846097220817051,-0.006488680254969269,0.017815820600130646,0.9849674198025734
2011-10-03,-1,-0.001736363716619129,-0.0015187379617054924,-0.006488680254969269,0.017815820600130646,0.9855983060884395
2011-10-05,-1,-0.00017990615285530033,-0.00017807674421735175,-0.0068266701926661625,0.017815820600130646,0.9844606848250355
2011-10-07,1,0.0012681673156050353,0.0014728845673580896,-0.0077566019264687,0.01697276177457541,0.9855072350705052
2011-10-11,1,0.0020579153339221517,0.002372192238887758,-0.0077566019264687,0.01697276177457541,0.9846410222514218
2011-10-13,0,0.0,0.0,-0.010840530590253179,0.01697276177457541,0.9829729286880643
2011-10-17,0,0.0,0.0,-0.010840530590253179,0.01824839239827582,0.9826257601597868
2011-10-19,0,0.0,0.0,-0.015801676896600007,0.01565645233106705,0.9827515769253491
2011-10-21,1,0.0008401117154132745,0.0009660812923063925,-0.016783257396966712,0.015237756707033114,0.9825289537734296
2011-10-25,0,0.0,0.0,-0.010670091397379539,0.015237756707033114,0.9845918992841329
2011-10-27,0,0.0,0.0,-0.015395774307512365,0.014011295280842991,0.9849199435692316
2011-10-31,0,0.0,0.0,-0.010591603598641539,0.015178905432428138,0.9843429001093286
2011-11-02,0,0.0,0.0,-0.007505185699170604,0.015178905432428138,0.9850988003763419
2011-11-04,0,0.0,0.0,-0.009080413335881547,0.018045594261400247,0.9830830380842451
2011-11-08,1,0.0032534000939674155,0.0035273789433834996,-0.009080413335881547,0.015178905432428138,0.9847946949923779
2011-11-10,0,0.0,0.0,-0.0069587321911632255,0.015178905432428138,0.9862362460364004
2011-11-14,0,0.0,0.0,-0.015395774307512365,0.011645470951779374,0.985850825774957
2011-11-16,0,0.0,0.0,-0.009037689915460832,0.010455469449797281,0.9867016271152902
2011-11-18,0,0.0,0.0,-0.008613036582283854,0.007599646145760324,0.987596087119558
2011-11-22,0,0.0,0.0,-0.008613036582283854,0.010455469449797281,0.9868038949934403
2011-11-25,1,0.0,0.0024515723322305286,-0.0037097344721840004,0.010328521818940128,0.9887564836594286
2011-11-29,1,0.002951709207854752,0.003390201708717274,-0.006445410445897218,0.010328521818940128,0.9887877208424264
2011-12-01,1,0.0036996526969106983,0.004207554531800095,-0.006445410445897218,0.007568450672158045,0.9898148377357668
2011-12-05,1,0.0042015502749915105,0.004779635966887397,-0.006445410445897218,0.006423596956225057,0.991969053455326
2011-12-07,1,0.00391749835746503,0.004415890944500579,-0.009272994441837391,0.005669809289634148,0.9908144434442228
2011-12-09,1,0.0037940377014679064,0.0042771966364918805,-0.009272994441837391,0.007760886613109879,0.9903027967705301
2011-12-13,1,0.00308218748212972,0.00354177902495111,-0.006982031033420682,0.007760886613109879,0.9912820837924429
2011-12-15,1,0.0031260085773398352,0.003570618961640547,-0.006982031033420682,0.007760886613109879,0.9911414425070333
2011-12-19,0,0.0,0.0,-0.004698356989811957,0.01041287528371921,0.9913994803043924
2011-12-21,0,0.0,0.0,-0.004698356989811957,0.007760886613109879,0.9918735968948338
2011-12-23,0,0.0,0.0,-0.006641953592701935,0.006800863840468925,0.9920832262544639
2011-12-28,0,0.0,0.0,-0.007424088377314417,0.006800863840468925,0.9921282731372507
2011-12-30,1,0.0005842208482930056,0.0006299858889481344,-0.008070741078960603,0.007536664507845183,0.990985429913467
2012-01-04,0,-4.2905465247312176e-05,0.00010567354250035511,-0.007424088377314417,0.009740208967925122,0.990440900294444
2012-01-06,0,0.0,0.0,-0.004622685405977336,0.009740208967925122,0.9907779566259893
2012-01-10,0,0.0,0.0,-0.005930263310561172,0.009180856950459325,0.9918513320077079
2012-01-12,0,0.0,0.0,-0.005930263310561172,0.009180856950459325,0.9922308988651517
2012-01-17,0,0.0,0.0,-0.005930263310561172,0.007348927988006972,0.9928061613988082
2012-01-19,0,0.0,0.0,-0.006162632175984225,0.00610353961469696,0.9931246750906834
2012-01-23,0,0.0,0.0,-0.007003571312281935,0.005461309345016157,0.9928295196099644
2012-01-25,0,0.0,0.0,-0.006765443451827839,0.005461309345016157,0.9931032628487212
2012-01-27,0,0.0,0.0,-0.006162632175984225,0.005461309345016157,0.9936755001277472
2012-01-31,-1,-0.9970355067854206,-0.9968781597962636,-0.005930263310561172,0.004838324050300049,0.5007546179640421
2012-02-02,1,0.0010563614500337434,0.0011391809072527862,-0.006162632175984225,0.002239692396495624,0.994831504677744
2012-02-06,1,0.0012769014884027622,0.0014197846049195293,-0.006116531577695255,0.0020779814478417997,0.9950308601542439
2012-02-08,1,0.0015573068180059933,0.0015723116035558837,-0.0062903655402795884,0.0020779814478417997,0.9949922299676199
2012-02-10,1,3.016621299279244e-05,0.00020271052713999972,-0.005928787991223436,0.0020864195443884145,0.9957644756080436
2012-02-14,-1,-0.00023456788569500885,-2.32311488661879e-05,-0.0062903655402795884,0.0020864195443884145,0.9946391950846888
2012-02-16,0,0.0,0.0,-0.006334372014720953,0.0028681571372209795,0.994078829228777
2012-02-21,0,0.0,0.0,-0.003482761459428215,0.0028681571372209795,0.9946985518378787
2012-02-23,-1,-0.0011280929532440772,-0.0008275669242140573,-0.003482761459428215,0.0058000697927956,0.9941416853266912
2012-02-27,-1,-0.0013440947721183843,-0.000992744916756044,-0.003482761459428215,0.006989181219094847,0.9930707702019479
2012-02-29,-1,-0.0008766538471064309,-0.0006093288331074719,-0.0058998178806738254,0.006989181219094847,0.9932234916443
2012-03-02,-1,-0.0006290441094472966,-0.00044355263502179074,-0.003482761459428215,0.008260401675276984,0.993284209225275
2012-03-06,-1,-0.0005970068760419835,-0.0004376096240148229,-0.003526420372218778,0.008371592045997365,0.9927133316146023
2012-03-08,-1,-0.0010574535892583174,-0.0008281522263555741,-0.003526420372218778,0.00864819148004656,0.992036572290677
2012-03-12,0,0.0,0.0,-0.008728864586357856,0.008631603951593037,0.9918446796843221
2012-03-14,0,0.0,0.0,-0.006704915117021576,0.008260401675276984,0.9928924869177888
2012-03-16,-1,-0.0011408062616777084,-0.0009642880726860449,-0.003526420372218778,0.008260401675276984,0.9931152578522913
2012-03-20,0,0.0,0.0,-0.005819668477972519,0.008260401675276984,0.9929919441072621
2012-03-22,0,0.0,0.0,-0.005819668477972519,0.008631603951593037,0.9928340838026251
2012-03-26,0,0.0,0.0,-0.006704915117021576,0.0074922042112071235,0.9933172866799332
2012-03-28,-1,-0.00014353035423070483,-4.757720769472647e-05,-0.006493788975948581,0.009784084472940404,0.9923825189201871
2012-03-30,1,0.00019265458730397656,0.0002476526105553168,-0.008191683317048537,0.00945737316887025,0.9923565216043325
2012-04-03,1,0.00042527939072576113,0.0004383831563894782,-0.006315257877981506,0.009784084472940404,0.9924326026724514
2012-04-05,1,0.00015488754825928217,0.00022258284769461126,-0.007118525617687393,0.007760623571203935,0.9924936675683881
2012-04-10,-1,-0.00021753324995664046,-0.0001252186472679953,-0.002943580125011364,0.007760623571203935,0.9931203689216833
2012-04-12,0,-2.6905255271029982e-06,6.740722542583391e-05,-0.006017049010850151,0.008891915309386092,0.992762064090307
2012-04-16,0,-3.52751784551031e-06,8.133711261545736e-05,-0.006140856051418083,0.008891915309386092,0.9928273656389917
2012-04-18,-1,-0.00018464886866310421,-7.263027174570516e-05,-0.006140856051418083,0.01052617533052798,0.9920373188420519
2012-04-20,1,0.00017803438553580246,0.0002587861819341758,-0.007118525617687393,0.008891915309386092,0.991791613548017
2012-04-24,1,0.0005311134484054293,0.0005420591132261082,-0.006140856051418083,0.005741727525727271,0.9923503007142765
2012-04-26,1,0.0016620881242534551,0.001845705776705786,-0.006140856051418083,0.004715811318043297,0.9925760933475382
2012-04-30,0,0.0,0.0,-0.00581540560533298,0.005549736394028341,0.9929040517397957
2012-05-02,0,0.0,0.0,-0.006034597077174118,0.003937189051660546,0.9932500591277802
2012-05-04,0,0.0,0.0,-0.00581540560533298,0.003937189051660546,0.9922902845307774
2012-05-08,0,0.0,0.0,-0.00581540560533298,0.008243502753682401,0.9896362312119621
2012-05-10,0,0.0,0.0,-0.004561344749377847,0.005549736394028341,0.9901863561567824
2012-05-14,0,0.0,0.0,-0.004561344749377847,0.00889526594526153,0.9891473678965121
2012-05-16,0,0.0,0.0,-0.004561344749377847,0.00889526594526153,0.9896501248365984
2012-05-18,-1,-0.00015893610404015777,-0.00014828064189715596,-0.003495259881940679,0.011264817046359598,0.9894179257185219
2012-05-22,0,0.0,0.0,-0.003495259881940679,0.011264817046359598,0.9891068229935284
2012-05-24,0,0.0,0.0,-0.003495259881940679,0.010149065703501686,0.9895717699895469
2012-05-29,0,0.0,0.0,-0.003929896869840281,0.011264817046359598,0.988019318188012
2012-05-31,0,0.0,0.0,-0.003797224825408398,0.011264817046359598,0.9874574909304368
2012-06-04,0,0.0,0.0,-0.003746169355622928,0.013075139653413486,0.9875312497815284
2012-06-06,0,0.0,0.0,-0.005120795354911672,0.010451577783303589,0.9896494134189332
2012-06-08,1,0.002121420009028148,0.0023487794919056755,-0.007251917731994959,0.010451577783303589,0.9889754619639116
2012-06-12,1,0.0018537687792671064,0.0020458169271723205,-0.0062922789407501185,0.007689936216541723,0.990057978406059
2012-06-14,1,0.0027721489090437373,0.003088752989929544,-0.0062922789407501185,0.009223384662546614,0.9896122351681543
2012-06-18,1,0.0031695870215876477,0.0035173477525661063,-0.007251917731994959,0.007809792576602304,0.9892837851813696
2012-06-20,0,0.0,0.0,-0.007251917731994959,0.007073271901981827,0.989945564882461
2012-06-22,0,0.0,0.0,-0.009451073189796901,0.005531311253750306,0.988764864369084
2012-06-26,0,0.0,0.0,-0.010148183365437628,0.004000032454792255,0.9901038021243735
2012-06-28,0,0.0,0.0,-0.00922139538960633,0.007809792576602304,0.9897231259248647
2012-07-02,1,0.0038624909582096892,0.00433303658980065,-0.010148183365437628,0.005531311253750306,0.9894224359519791
2012-07-05,1,0.0033106123619825083,0.00368086457260405,-0.010845308122094506,0.005531311253750306,0.9896965024475536
2012-07-09,1,0.0026948831081089366,0.0029996364226291482,-0.010338023110794391,0.007809792576602304,0.9897807335968294
2012-07-11,1,0.0022003202955968755,0.0024129203288468966,-0.010338023110794391,0.007809792576602304,0.989538363214536
2012-07-13,1,0.002851156314410054,0.003115943434622832,-0.010338023110794391,0.005025441190856888,0.9900725143929598
2012-07-17,1,0.0025821793650646387,0.002795297980837449,-0.009981785480365976,0.0018582145863758602,0.9905135249626859
2012-07-19,1,0.002546491023510819,0.0027686891825211713,-0.009981785480365976,0.0019790170025357047,0.9907030874159007
2012-07-23,1,0.00157505685275874,0.0016709520273602237,-0.007135125054184385,0.003729112965192608,0.9927128083048934
2012-07-25,1,0.000803387967039618,0.0008296945946648867,-0.006372912439037494,0.005800277209716097,0.9931705009402908
2012-07-27,1,0.0014946439700368286,0.0015233962916546562,-0.006686570889007065,0.003729112965192608,0.9933576179604122
2012-07-31,1,0.0005597029357418306,0.0006683955055712067,-0.006372912439037494,0.005699253044763017,0.9939126669575061
2012-08-02,1,0.0002438231285094598,0.0003762259648228896,-0.006372912439037494,0.006734491025995885,0.9930924796634263
2012-08-06,1,0.0004025115603442477,0.0005202010029421056,-0.005713664884712691,0.006734491025995885,0.9935054336481459
2012-08-08,0,-0.00010499253195009556,7.540719912825771e-05,-0.003351685217903192,0.007172740690738649,0.9924409654544476
2012-08-10,-1,-0.00020917132012939366,-7.254910408413854e-06,-0.0024480075064846297,0.007172740690738649,0.9928653372453672
2012-08-14,-1,-0.0005229308345785617,-0.0003042667518832645,-0.003351685217903192,0.007172740690738649,0.9914578578739804
2012-08-16,1,0.00027093677787502193,0.0003511023695009102,-0.005897084907410484,0.006734491025995885,0.9910113785728223
2012-08-20,1,4.586729764151018e-06,0.00014166869258875025,-0.0071791344655745175,0.008002410922167302,0.9900149563209268
2012-08-22,1,0.00020264632665585906,0.0002975987704173778,-0.0071791344655745175,0.007699338427308062,0.9903288476059727
2012-08-24,1,0.00027956585341221395,0.0003676260902193497,-0.0071791344655745175,0.007940016810397962,0.9895339971427183
2012-08-28,1,8.123166035054331e-05,0.0001949860528818067,-0.0071791344655745175,0.0085811004036101,0.9895199328557192
2012-08-30,1,0.00013072170612312328,0.0002743252534871934,-0.004987750409143193,0.008411961376933121,0.9904716513565747
2012-09-04,1,0.0008409434254693564,0.0008966873450743815,-0.004987750409143193,0.008411961376933121,0.9903605439468917
2012-09-06,1,0.0016656834756724934,0.001708097399946125,-0.007731431117209575,0.008411961376933121,0.990354075963513
2012-09-10,1,0.0011188189091207346,0.001157952197842219,-0.007731431117209575,0.008411961376933121,0.9903911353392072
2012-09-12,1,8.165454065554758e-05,0.00022012541330482732,-0.004987750409143193,0.008411961376933121,0.9911041561962415
2012-09-14,1,6.645685459803546e-05,0.00020527230614355977,-0.0033447755104371525,0.008411961376933121,0.99150209379756
2012-09-18,1,0.0007183766460503646,0.0007409874023341875,-0.002975087282420015,0.008411961376933121,0.9918002156065756
2012-09-20,1,0.00014148846710042024,0.0002484345368418049,-0.002975087282420015,0.008411961376933121,0.9909340379084056
2012-09-24,0,-9.280949102182553e-06,9.410483259406608e-05,-0.002975087282420015,0.0060841942332823746,0.9913654231477621
2012-09-26,-1,-0.000396944933033923,-0.0002151861708522293,-0.004979078135550319,0.005583960236043019,0.9910013433648522
2012-09-28,1,1.95675988656879e-05,0.00015553015063647283,-0.006683210403478899,0.005583960236043019,0.9910000837661338
2012-10-02,1,0.0002811577666113184,0.0003906936918766425,-0.006683210403478899,0.005691653658255486,0.9911437688853142
2012-10-04,1,0.00032851684441177975,0.00044432882027679,-0.004341652317897618,0.005583960236043019,0.992269127289863
2012-10-08,1,0.0006501519655385133,0.0006936484799376688,-0.006786237950035695,0.005583960236043019,0.9918606885038765
2012-10-10,-1,-0.0008204833910086307,-0.0005672551820680078,-0.006348845785911636,0.005691653658255486,0.992303811226266
2012-10-12,-1,-0.0006924080061808993,-0.00044669597029514457,-0.007695421550292009,0.006021094822931335,0.9913358325251334
2012-10-16,1,0.00011050935497541002,0.0002492140983234918,-0.009709724826457097,0.006021094822931335,0.9911221942028043
2012-10-18,-1,-0.0007388092404565144,-0.0005074763476024869,-0.007695421550292009,0.00827703331466436,0.9908739854930327
2012-10-22,-1,-0.0018758299174552323,-0.0015122425978316223,-0.006348845785911636,0.009904487932507346,0.9913409886423175
2012-10-24,-1,-0.00358232178431653,-0.002945187013629677,-0.0035628937557593623,0.011446358979954826,0.9906991218814744
2012-10-26,-1,-0.000898901099838737,-0.000730363793107269,-0.0020684686567541623,0.011515138623018433,0.9907241403451079
2012-11-01,0,0.0,0.0,-0.0030081882349034333,0.012059574323013337,0.9906088508338977
2012-11-05,0,0.0,0.0,-0.004734847238769954,0.012059574323013337,0.9904259158973056
2012-11-07,0,0.0,0.0,-0.004297507188916578,0.012059574323013337,0.9907469750960334
2012-11-09,-1,-0.00024064952561992828,-0.00019824011417539524,-0.004297507188916578,0.012059574323013337,0.9892343644004138
2012-11-13,0,0.0,0.0,-0.004297507188916578,0.011515138623018433,0.9892103194989343
2012-11-15,0,0.0,0.0,-0.005216251280418727,0.009960203491898512,0.9895384282280125
2012-11-19,0,0.0,0.0,-0.005216251280418727,0.006184158719502992,0.9904030123454318
2012-11-21,0,0.0,0.0,-0.005216251280418727,0.005969961324196914,0.9903791341933613
2012-11-26,0,0.0,0.0,-0.006757658956411656,0.0030494068117932318,0.990423823673545
2012-11-28,0,0.0,0.0,-0.006757658956411656,0.0005764187704054663,0.990959246779317
2012-11-30,0,0.0,0.0,-0.007867454890467628,0.0005764187704054663,0.9913866172323856
2012-12-04,0,0.0,0.0,-0.007867454890467628,0.0030779605322522286,0.9904366068271131
2012-12-06,0,0.0,0.0,-0.00917502461323456,0.005513210333280392,0.9899639035478922
2012-12-10,0,0.0,0.0,-0.00917502461323456,0.006410802832985124,0.9910484736668481
2012-12-12,0,0.0,0.0,-0.00917502461323456,0.007481315774887712,0.9916194694729452
2012-12-14,1,0.0013621426851171399,0.001508447935622154,-0.005876777043858115,0.008252236685171742,0.9916226198146559
2012-12-18,1,0.0013070014289001718,0.001408062274294691,-0.0067643276618594775,0.009240184883973383,0.9911472233018914
2012-12-20,0,0.0,0.0,-0.0067643276618594775,0.00868346136899543,0.991437762007622
2012-12-24,0,0.0,0.0,-0.0033362220924154527,0.00868346136899543,0.9916931512189184
2012-12-27,-1,-0.00022594119292605616,-0.00016602522178214924,-0.0067643276618594775,0.00868346136899543,0.991156662415496
2012-12-31,0,0.0,0.0,-0.0033362220924154527,0.010697798371316358,0.9910303155172678
2013-01-03,0,0.0,0.0,-0.006703051060966641,0.010266455985505933,0.9915135912495137
2013-01-07,0,0.0,0.0,-0.006703051060966641,0.010266455985505933,0.9917631888906269
2013-01-09,0,0.0,0.0,-0.0033362220924154527,0.009915509140604113,0.9923460081149208
2013-01-11,0,0.0,0.0,-0.0033362220924154527,0.009915509140604113,0.9923349689043833
2013-01-15,0,0.0,0.0,-0.0033362220924154527,0.00783298036788821,0.9932457877295412
2013-01-17,0,0.0,0.0,-0.0018932067728205993,0.00783298036788821,0.9931385783991232
2013-01-22,0,0.0,0.0,-0.0017561193337099106,0.009915509140604113,0.9926818499786187
2013-01-24,1,0.0004498955423887672,0.000505568854558504,-0.003401701461933474,0.010266455985505933,0.9918197302385464
2013-01-28,1,0.001621901266952819,0.0017360856619755738,-0.0044913119287589695,0.009915509140604113,0.9921728964716541
2013-01-30,1,0.0025481928767276535,0.002822381586798276,-0.006619674715529912,0.007112819895660778,0.9921243326080849
2013-02-01,1,0.0025838016995120994,0.00286747446388411,-0.006814216410256505,0.007112819895660778,0.991123214997477
2013-02-05,1,0.002069748165032543,0.002285455256407395,-0.006073876177009345,0.010509299225070072,0.9906622007007468
2013-02-07,0,0.0,0.0,-0.007030874130088982,0.0077286149131441315,0.9909295422012652
2013-02-11,1,0.0012740039834883963,0.001294854810960787,-0.006073876177009345,0.008939290802605276,0.9909584024624534
2013-02-13,1,0.0011469324410151357,0.0011596712107894785,-0.006073876177009345,0.008939290802605276,0.9905785883484636
2013-02-15,0,0.0,0.0,-0.007030874130088982,0.008939290802605276,0.9892976207551527
2013-02-20,-1,-0.00028474829643712016,-0.0002619372008892793,-0.007030874130088982,0.008245855524617778,0.98916073890753
2013-02-22,0,0.0,0.0,-0.007005597272511687,0.007568840933644352,0.9900856483090443
2013-02-26,0,0.0,0.0,-0.006073876177009345,0.008245855524617778,0.9898765285963036
2013-02-28,0,0.0,0.0,-0.005588577288668504,0.010962365685324209,0.9894971822797102
2013-03-04,0,0.0,0.0,-0.003046128145654233,0.008299641728210601,0.9910382958182472
2013-03-06,0,0.0,0.0,-0.005719441530116564,0.007818088378831266,0.9910192281177409
2013-03-08,0,0.0,0.0,-0.005719441530116564,0.007818088378831266,0.9905019024987605
2013-03-12,1,0.0012843248475136303,0.0013704440874687128,-0.005719441530116564,0.007586769668175293,0.9908505190059396
2013-03-14,1,0.0014388062156294188,0.0015838557441052131,-0.005561366774086748,0.007948252455654744,0.9908576582912112
2013-03-18,0,0.0,0.0,-0.005561366774086748,0.007948252455654744,0.9919253732304901
2013-03-20,0,0.0,0.0,-0.007413793913754433,0.007307124989921582,0.9915742988246735
2013-03-22,0,0.0,0.0,-0.005894625690287772,0.007948252455654744,0.990749511102669
2013-03-26,0,0.0,0.0,-0.008234348002225594,0.007307124989921582,0.9911475480951535
2013-03-28,0,0.0,0.0,-0.008234348002225594,0.006716709971955462,0.9916555594449781
2013-04-02,1,0.0009821167766814567,0.0010199114291192437,-0.008234348002225594,0.004289847790324549,0.9913381453393209
2013-04-04,0,-0.00011980746479601904,2.3894023667250287e-05,-0.005147550655745177,0.006716709971955462,0.992195587274329
2013-04-08,1,0.0011319354420097592,0.0012335851821699629,-0.0049799501296572575,0.004423902841590755,0.9924712043893769
2013-04-10,-1,-0.00020195312494156756,-5.391332308987278e-05,-0.0049799501296572575,0.004688530578988913,0.9928307529730036
2013-04-12,-1,-0.000571397272879187,-0.0003623990582841993,-0.004742312679419259,0.001506465140456788,0.9933567284780331
2013-04-16,0,-0.00011197236349822903,1.7812625450159137e-05,-0.0038569961720446248,0.0035810200424522447,0.9935969960787667
2013-04-18,-1,-0.0008289084547463408,-0.0006162015098922282,-0.0032060760001515263,0.005403161326098574,0.9939642837587532
2013-04-22,-1,-0.0005210083803764858,-0.0003558304868200864,-0.0032060760001515263,0.0035810200424522447,0.994610224008562
2013-04-24,-1,-0.0007471575650661833,-0.0005768492752709418,-0.0032060760001515263,0.0035810200424522447,0.9948419858113038
2013-04-26,-1,-0.00018836714367127412,-0.00012082166953323738,-0.0032060760001515263,0.004495047567823342,0.9945984658546149
2013-04-30,-1,-0.0008055951361499821,-0.0006323795310552458,-0.003791668417228478,0.004495047567823342,0.9943771233609547
2013-05-02,-1,-0.00048101571697920507,-0.00035174343801177204,-0.004774408771793898,0.004495047567823342,0.9937215234000828
2013-05-06,-1,-0.00016353641103075814,-6.620992843074316e-05,-0.006060086290697627,0.005527992009665927,0.9930371097132743
2013-05-08,-1,-0.0003028962332002577,-0.00014832389770029963,-0.006413843737297842,0.0040916587431475675,0.9932810245934754
2013-05-10,-1,-0.0007335879021062494,-0.0005023567875484686,-0.006413843737297842,0.005527992009665927,0.9922783298294064
2013-05-14,-1,-0.00045234672128507643,-0.00026701381077777096,-0.00705345640902791,0.005281857986193376,0.9920005747750664
2013-05-16,-1,-0.00021146859579577093,-5.4184066338553555e-05,-0.00705345640902791,0.005281857986193376,0.9923932520653247
2013-05-20,-1,-0.0008534856661057751,-0.0006001343413496615,-0.006413843737297842,0.005281857986193376,0.9927330707228462
2013-05-22,-1,-0.0007849661955528857,-0.0005463441881177355,-0.008958023054877357,0.005281857986193376,0.990277392354949
2013-05-24,-1,-0.0008745741024864082,-0.0006091905103443644,-0.008958023054877357,0.005281857986193376,0.9903949701980426
2013-05-29,-1,-0.0008464969505168832,-0.0006194841136294362,-0.008191375063869107,0.005281857986193376,0.9905597275010053
2013-05-31,-1,-0.0015803842681590859,-0.001259903190123696,-0.005788127683030069,0.005255044941977604,0.991861082130478
2013-06-04,-1,-0.001575413679122753,-0.0012181871896358191,-0.004193890066998216,0.005673183257155728,0.9918045183354933
2013-06-06,-1,-0.002090375437340789,-0.001664672001637239,-0.0031659510442870304,0.005673183257155728,0.9915945136003093
2013-06-10,0,0.0,0.0,-0.0023219196323046943,0.005765198104768005,0.9915923097177731
2013-06-12,0,0.0,0.0,-0.0007486547918273915,0.008057595364104218,0.9909760136771499
2013-06-14,0,0.0,0.0,-0.0007486547918273915,0.008057595364104218,0.9909230930556472
2013-06-18,0,0.0,0.0,0.0018094039091329462,0.008057595364104218,0.9908320664722493
2013-06-20,0,0.0,0.0,0.0021835943397712654,0.008057595364104218,0.9935634911082384
2013-06-24,0,0.0,0.0,0.0004284745477805645,0.0068243775939974575,0.9938561344128131
2013-06-26,0,0.0,0.0,0.001068416737315198,0.010055903808911682,0.9928752518558581
2013-06-28,-1,-0.0024610620780723866,-0.002072049612007734,0.00010240559611735293,0.010055903808911682,0.9916689718894913
2013-07-02,-1,-0.0018699716939438909,-0.0015558411140646228,-0.002000984096838622,0.009667795023403753,0.9923093876517457
2013-07-05,-1,-0.0021535217615155228,-0.0017837724473323624,-0.003281205938785207,0.010055903808911682,0.9912650077878565
2013-07-09,-1,-0.0008656932440147854,-0.0006554295161779304,-0.003518731421045463,0.006418754394237278,0.9930767334686154
2013-07-11,1,0.0005752016808992921,0.0005800259286240454,-0.0037481704347583833,0.0034379476796368956,0.9938367273478463
2013-07-15,1,0.0007459767227907365,0.000768900448335316,-0.0046621582831569384,0.0025140726389722015,0.9931905068649141
2013-07-17,1,0.0009217783776365529,0.0009894366969258484,-0.007563102690227797,0.0014922431459415285,0.9919198300754349
2013-07-19,1,0.00041037026534721123,0.00045105361952507396,-0.01137522149592098,0.0010936155075970569,0.9913308892939688
2013-07-23,1,0.0002555476077439578,0.0003209352636923839,-0.01137522149592098,0.004166830071839488,0.9906906683861639
2013-07-25,1,0.0006916493560926684,0.0007346472552447567,-0.010932216679978044,7.08043255953669e-05,0.9908582119870598
2013-07-29,1,0.00013902701297216033,0.0001746988312841092,-0.010932216679978044,0.0032681960711679232,0.9912902134783577
2013-07-31,1,7.434127229090311e-05,0.0001342855625288269,-0.012168524073421895,0.000482592434322242,0.9911459346292391
2013-08-02,1,1.462801412820541e-05,5.197278552618308e-05,-0.010932216679978044,-0.000556696440789235,0.9919417294589411
2013-08-06,-1,-0.00023122072705306532,-0.0001604746754225941,-0.010932216679978044,0.000482592434322242,0.9919169453151052
2013-08-08,-1,-0.0003944905622562582,-0.0003145324136644299,-0.00866218202553303,-0.000556696440789235,0.992327734745449
2013-08-12,-1,-0.0006869623737279168,-0.0005988734040829707,-0.007999962013538656,0.003390551058173277,0.9928662270544816
2013-08-14,-1,-0.0009875086327398482,-0.0008486544181660596,-0.007637996147439226,0.00380928017254571,0.9940063159250162
2013-08-16,-1,-0.0006422789053208014,-0.0005935516677108199,-0.006700786044847433,0.004266417602882922,0.9941500451230914
2013-08-20,-1,-0.0002379419074559805,-0.00021482096442423633,-0.0055268355952036215,0.004266417602882922,0.9937275505694462
2013-08-22,-1,-0.0007792939550081738,-0.0007438012620912464,-0.005460717155368181,0.004266417602882922,0.9928390726661107
2013-08-26,-1,-0.001170965935745862,-0.0010377523702637854,-0.0062301160879848225,0.004266417602882922,0.9921951033836357
2013-08-28,-1,-0.0015185729660184485,-0.001351089336017838,-0.005460717155368181,0.004266417602882922,0.9926767534267444
2013-08-30,-1,-0.001854569604795212,-0.0016534874966317044,-0.005460717155368181,0.004266417602882922,0.9924500036642774
2013-09-04,-1,-0.0015611861640890557,-0.0014065616053420137,-0.0062301160879848225,0.004894876386466424,0.9910930514439945
2013-09-06,-1,-0.001734434326155445,-0.001575390572996757,-0.003886119745920496,0.004971775960799825,0.9906623161786627
2013-09-10,-1,-0.001990839520826016,-0.001758995534847963,-0.007235603567564605,0.005029401774284156,0.9902524466233349
2013-09-12,-1,-0.0013237915638878005,-0.0011914889954594094,-0.010635229942245975,0.00654135736412304,0.9885684363076567
2013-09-16,-1,-0.0014142899729682299,-0.0012483079693963747,-0.010635229942245975,0.00790418762952114,0.9885010176733696
2013-09-18,-1,-6.264687385732352e-05,-5.99686958931886e-05,-0.010635229942245975,0.00790418762952114,0.9887636424370316
2013-09-20,-1,-0.002174717770054441,-0.0019155956634312214,-0.007813416784776983,0.011059581744248021,0.9892067122598438
2013-09-24,-1,-0.0013311708953111937,-0.0012062307121664905,-0.004078724151657956,0.009301385190465455,0.9896402115117718
2013-09-26,-1,-0.0014462461347562023,-0.0012807781580939696,-0.007998225401212686,0.009301385190465455,0.9891482036026561
2013-09-30,-1,-0.0015846585684046474,-0.0014346114109611047,-0.004078724151657956,0.011675033769590552,0.9887733544052368
2013-10-02,-1,-0.001136007937517253,-0.0010417943106261428,-0.004078724151657956,0.009301385190465455,0.9897151470579943
2013-10-04,-1,-0.00011057094000315425,-4.639837202054803e-05,-0.003601808538711227,0.00836530892157573,0.9906719665136583
2013-10-08,-1,-0.0005857446872128071,-0.0005624976122268822,-0.0006227349069788073,0.00836530892157573,0.9908783923709376
2013-10-10,1,0.0004193011369822005,0.0005398517106569925,-0.0006227349069788073,0.007217323970256196,0.9934961874710282
2013-10-14,1,0.00043397787329637575,0.0005575427957386235,-0.0006227349069788073,0.006189819129970093,0.9936548650851824
2013-10-16,1,0.0010878965558528144,0.001315913148053747,-0.0006227349069788073,0.005489769965195302,0.9943960719942098
2013-10-18,1,0.001185804003090685,0.0013947996966758149,-0.002142997831640221,0.005489769965195302,0.9948890093328785
2013-10-22,1,0.0011593961198111558,0.0013281682723785757,-0.002142997831640221,0.005221044967878174,0.9952695745421426
2013-10-24,1,0.0009441760603411381,0.0010894478998159265,-0.0014190482719099288,0.005221044967878174,0.995649975904057
2013-10-28,1,0.0013487864162661412,0.0015284748201688583,-0.0014190482719099288,0.004835248236120303,0.996438551495145
2013-10-30,1,0.0011063060393355908,0.0012857245367717879,-0.0014190482719099288,0.004835248236120303,0.997029139330572
2013-11-01,1,0.0008977426588493837,0.0010285848090381437,-0.002223935646566211,0.004835248236120303,0.9956859555184606
2013-11-05,1,0.0016253248476666379,0.0018557974625139002,-0.002223935646566211,0.005489769965195302,0.9951117850417733
2013-11-07,1,0.0011491559062757782,0.001333959561808669,-0.002223935646566211,0.005602204698578082,0.9940491442690211
2013-11-11,1,0.0004185250061287649,0.0004547630944845088,-0.0035971618805072238,0.00559371941722603,0.9936850680146436
2013-11-13,1,0.0009574819006944064,0.0010233172162268567,-0.004719504644539478,0.005030658305334975,0.9924562337658773
2013-11-15,1,0.0003090923454475637,0.00034286590092577656,-0.004719504644539478,0.004800076848780808,0.9927333238649568
2013-11-19,1,0.0007948314721523861,0.0008297076811313092,-0.004719504644539478,0.005222308685007767,0.99168430115004
2013-11-21,1,0.0010945273308935167,0.0011954395600842476,-0.0049018612282873825,0.005222308685007767,0.9915092978923374
2013-11-25,1,0.0010085990977540767,0.0010967905867750613,-0.0049018612282873825,0.005222308685007767,0.991335810991729
2013-11-27,1,0.0016773320971033374,0.0019182171969637756,-0.0049018612282873825,0.005320443643079887,0.9913181777918304
2013-12-02,1,0.0007777873910538322,0.000955708613670333,-0.004274349530126564,0.005320443643079887,0.9928623205659104
2013-12-04,1,0.002231730780561488,0.0026119258912312305,-0.004274349530126564,0.0030765778438949605,0.993235562746289
2013-12-06,1,0.002683506323211162,0.003126032771672265,-0.004274349530126564,0.0020204986899688593,0.9936686173821795
2013-12-10,1,0.00235632027062754,0.002754876803688181,-0.0036762791847242504,0.0028066736386300464,0.9944613722279311
2013-12-12,1,0.0010430955215987659,0.001268253790545904,-0.0022374921708902297,0.004257981673785621,0.9948802893668381
2013-12-16,1,0.0015241530290512485,0.0018076076473822675,-0.0008879912496162112,0.004257981673785621,0.994671252067817
2013-12-18,1,0.0018843252164157285,0.002191565745873743,-0.0008879912496162112,0.004257981673785621,0.9948433623469117
2013-12-20,1,0.0015071090986047285,0.0017743175155526566,-0.0006395466544425135,0.005154452754138861,0.9949045536381436
2013-12-24,1,0.00122536031490571,0.0014349858011406924,-0.00283363300507885,0.005154452754138861,0.9943098045502898
2013-12-27,1,0.00010311760576443463,0.00015590263085144308,-0.00283363300507885,0.006973514896067976,0.9935866179303167
2013-12-31,1,0.0017469038275768748,0.0020008653194993763,-0.004121068664840241,0.007329271782989221,0.9926677968429022
2014-01-03,1,0.0014223519073117354,0.0015991012700380352,-0.0057432684616124845,0.007329271782989221,0.9912949447231469
2014-01-07,1,0.000979384982977622,0.001090752092968781,-0.0057432684616124845,0.009229549042787898,0.9907644370651784
2014-01-09,1,0.0010816741140044508,0.0011890987669274863,-0.0057432684616124845,0.010423346799548188,0.9896277004906615
2014-01-13,1,0.0024337862718499864,0.0027244941209725914,-0.0057432684616124845,0.010423346799548188,0.9909853220344262
2014-01-15,1,0.002018564690834143,0.002212667839034697,-0.0057432684616124845,0.010617245952925222,0.9905167101904124
2014-01-17,1,0.0018813113944508761,0.002064354055848051,-0.0035336398061810883,0.010013170057367614,0.9913278328358515
2014-01-22,1,0.0018280715917087474,0.001974945758352248,-0.0035284998365816868,0.010013170057367614,0.9914731756642973
2014-01-24,1,0.0010203648372597933,0.0010312964974000362,0.00035729154283992907,0.01067190276811571,0.9906499278446121
2014-01-28,1,0.0015657153433062292,0.0016474690856645728,-0.002386554273044397,0.010632247021442002,0.9909946072410492
2014-01-30,1,0.0008562434788386336,0.0008916569809627863,0.00035729154283992907,0.010632247021442002,0.9917765226133938
2014-02-03,-1,-0.0007002921086426872,-0.000489695996548843,0.0019151264010155815,0.012878174183833743,0.9910264819798198
2014-02-05,-1,-0.000244975019729916,-0.00010059670421724756,0.0021804666122965215,0.014293715417267979,0.9899465288850372
2014-02-07,1,0.0008561815859477332,0.0008683503204054378,0.0017709012828426767,0.012962057620351138,0.9916825385398502
2014-02-11,1,0.001892260176531864,0.002075723051221246,0.0003023651921977774,0.008448154462463983,0.9924772906389692
2014-02-13,1,0.0012878429961094744,0.001293971306932816,0.00017008296968497772,0.006878563523051898,0.9920244882205458
2014-02-18,1,0.0011663431477127366,0.001174408166995159,0.00017008296968497772,0.008052728819162205,0.991607689843646
2014-02-20,1,0.0012646802795590983,0.001272065007463726,-0.0002598669616404364,0.008052728819162205,0.9916009971741124
2014-02-24,1,0.001974040255827129,0.0020369932739187223,-0.003283108240985636,0.008052728819162205,0.9904825051238441
2014-02-26,1,0.0010208352672974488,0.0010654479980836584,-0.00153525528946241,0.008296803586672494,0.9904488262999817
2014-02-28,1,0.001823033832002508,0.0019067063391314824,-0.003283108240985636,0.008762083291710748,0.9901206836990062
2014-03-04,1,0.0015309191516151414,0.0015354747829956286,-0.002369086240331753,0.008762083291710748,0.9908308168835444
2014-03-06,1,0.0034183726407731718,0.003730420567199474,-0.003283108240985636,0.008052728819162205,0.9924729551601987
2014-03-10,1,0.002830299772617221,0.0030551670555070713,-0.004662407670825575,0.008052728819162205,0.991768816814708
2014-03-12,1,0.0030103690676267164,0.0032796648659050667,-0.003343093618244522,0.008296803586672494,0.9917617184295848
2014-03-14,1,0.0028507176121286668,0.0031162847818469114,-0.0073469905272995,0.008296803586672494,0.9910647068273583
2014-03-18,1,0.003296542941801175,0.003630969604560212,-0.009329036970420646,0.007368293879034908,0.9903553129406141
2014-03-20,1,0.003098246383022188,0.003383815887054529,-0.009329036970420646,0.008762083291710748,0.9895467552462539
2014-03-24,1,0.002581203123332859,0.002826288223529576,-0.0073469905272995,0.0055507032622652335,0.9920588637524436
2014-03-26,1,0.0027036159647260832,0.002927837210328324,-0.009329036970420646,0.005324746359999027,0.9914948022254776
2014-03-28,1,0.002805521634188857,0.003034952479860135,-0.009329036970420646,0.005324746359999027,0.9918780974694557
2014-04-01,1,0.0030414665182205425,0.003338661081723768,-0.009329036970420646,0.00510934949257084,0.9922597341960369
2014-04-03,1,0.0024380623669106134,0.0026112416762224897,-0.004178494261551209,0.00517823671356497,0.9926681560007312
2014-04-07,1,0.0020374017576075105,0.0021804784538322704,-0.003996058200168012,0.005558688126664731,0.9927837254363621
2014-04-09,1,0.002576595073395677,0.0027988506109597067,-0.00624192096505757,0.00517823671356497,0.9928757230107733
2014-04-11,1,0.0010404622318626595,0.0010492210639523839,-0.0023397175723158924,0.005558688126664731,0.9936937370940873
2014-04-15,1,0.0011310019849488989,0.0011534625266884687,-0.001155102018869291,0.007754441903557587,0.993404907603089
2014-04-17,1,0.001433084156471181,0.0014962674739324568,-0.0023397175723158924,0.007754441903557587,0.9930396126480997
2014-04-22,1,0.0013532379061271065,0.001398350775753559,-0.005249559766029059,0.007754441903557587,0.9925937315963831
2014-04-24,1,0.0011499883417024248,0.0011708087810293822,-0.0020590436335810223,0.00863454937739028,0.9927280511637718
2014-04-28,1,0.0004940954804098695,0.0006362179902047747,-0.005249559766029059,0.007078938254098293,0.9923156025697029
2014-04-30,1,0.001329684667411964,0.0013629340495238283,-0.005249559766029059,0.007078938254098293,0.9922898517062206
2014-05-02,1,0.0016040171739079494,0.0016932208855363119,-0.005249559766029059,0.009675565479995119,0.9917431209473002
2014-05-06,1,0.0009909549028416192,0.0010060323905136687,-0.004741127876404546,0.009675565479995119,0.9920713975685617
2014-05-08,0,-0.00012075175577032902,0.00010578114453284879,-0.005636383946039517,0.011242008737581155,0.9909022889793767
2014-05-12,1,0.00016148033590832305,0.00033538425269343756,-0.005636383946039517,0.011242008737581155,0.9909584410039795
2014-05-14,1,0.0013266145464480238,0.0013411968803028276,-0.00689294193553373,0.009259397529764575,0.9911437811445871
2014-05-16,1,0.0005810411664749803,0.000713539536495985,-0.005626623157166567,0.006898003429459329,0.9926301016499356
2014-05-20,-1,-0.0005266356257728721,-0.00025248169213984894,-0.003901614431727673,0.009259397529764575,0.9920958517950786
2014-05-22,1,0.0006787965783388327,0.0008388124640748499,-0.003901614431727673,0.007644544350372979,0.9924892246499954
2014-05-27,0,-0.00012316130577383398,0.0001338606444219782,-0.005626623157166567,0.007644544350372979,0.9919081051371788
2014-05-29,-1,-0.00029001641764594434,-2.402321616724553e-06,-0.005626623157166567,0.007644544350372979,0.9919909616527481
2014-06-02,1,0.00010035214076782584,0.00036525309323441667,-0.005626623157166567,0.0037236226299140864,0.9928106324423908
2014-06-04,-1,-0.0003884912891390995,-6.503745808700571e-05,-0.004869337056467016,0.005663213575941995,0.9925453729867437
2014-06-06,1,0.0008678929908473678,0.0009816942971239031,-0.003784095350332256,0.005010671904730693,0.9937709555958687
2014-06-10,1,0.0005039496467896027,0.0006365182430643326,-0.004220577770279283,0.005010671904730693,0.9938501413739359
2014-06-12,1,0.0005403747785152089,0.0006647299559865735,-0.003784095350332256,0.003668741385486912,0.9944432383780454
2014-06-16,1,0.00027691426067245786,0.00043269757569247514,-0.003784095350332256,0.004830190978493916,0.994383695082935
2014-06-18,1,0.0005686186258500386,0.0007210906828116131,-0.005154093430116477,0.0036268748248837112,0.9942409490190706
2014-06-20,1,0.0011738843976789766,0.00122230970273568,-0.005154093430116477,0.0015416453940510896,0.9939373645661668
2014-06-24,-1,-0.0003763247393038675,-0.00011307232327516508,-0.004220577770279283,0.0015416453940510896,0.9954459328321209
2014-06-26,-1,-0.0012328716748490217,-0.0008194002161280487,-0.003806617427542446,0.0010087211119496648,0.9958147073166517
2014-06-30,-1,-0.001529827787268282,-0.0010745352376853156,-0.005154093430116477,0.0020281019785794363,0.9945842551998132
2014-07-02,-1,-0.0009395592018913309,-0.0005946093029203883,-0.008793250527103934,0.0006880539585909972,0.9933722456532996
2014-07-07,-1,-0.0006616346571161006,-0.00037424789231386014,-0.008793250527103934,0.0020281019785794363,0.9925013579204878
2014-07-09,-1,-0.0010090818039748093,-0.0006977821454132125,-0.008793250527103934,0.00591141758573405,0.9924460123383343
2014-07-11,-1,-0.0011856956132477404,-0.0008560443969089006,-0.008793250527103934,0.009375713049892489,0.991905432589082
2014-07-15,-1,-0.001090127914464238,-0.0007808626292650191,-0.008793250527103934,0.009729476833976607,0.9912943433222445
2014-07-17,-1,-0.001355533071208973,-0.0010616592097270915,-0.0022775124554656272,0.009729476833976607,0.9918163139897618
2014-07-21,-1,-0.0012149145156289723,-0.0009205626150203871,-0.003648559967045237,0.009729476833976607,0.9918974463344545
2014-07-23,-1,-0.0014511961586850248,-0.0011372808178800797,-0.003648559967045237,0.009729476833976607,0.9915642390628014
2014-07-25,-1,-0.0014430561996965343,-0.0011425417468781565,-0.004798757066910318,0.009729476833976607,0.9911278621368674
2014-07-29,-1,-0.0008698772645556498,-0.0007133937302886378,-0.0023929389508827235,0.009572751016938202,0.9918954776706266
2014-07-31,-1,-0.0020814745173285847,-0.001784760290097886,-0.0023929389508827235,0.009572751016938202,0.9921067046489913
2014-08-04,-1,-0.001372125776120729,-0.0011598519495807122,-0.0023929389508827235,0.009572751016938202,0.992734889826184
2014-08-06,-1,-0.0010785403861303302,-0.0008938394359062135,-0.004084381981146808,0.007833012821049304,0.9932984916217118
2014-08-08,-1,-0.0005343539667010519,-0.0004315547917687474,-0.0050673846504611635,0.005184500835307104,0.9933038125574947
2014-08-12,1,0.00017152431567285954,0.0001804329111840705,-0.007645454709250464,0.004595225347725393,0.993403058302768
2014-08-14,1,9.66684873607498e-05,0.00012254024894978226,-0.008952099766414895,0.005232651288013201,0.9928984573885119
2014-08-18,1,0.00035621437310335766,0.00037217132346135777,-0.008952099766414895,0.005232651288013201,0.9924696012443804
2014-08-20,1,0.00035569721271988216,0.0003750672267446232,-0.00903574675851886,0.005232651288013201,0.9919687870821595
2014-08-22,1,0.0003161991413788987,0.0003428067620881336,-0.009379460228071512,0.007045809167785423,0.9915781563229082
2014-08-26,1,0.0005834445420821949,0.0006383039939592154,-0.009768787617995848,0.006458507954256283,0.9910362231942957
2014-08-28,-1,-0.00036669851601150126,-0.0002830993407078216,-0.010167870381349538,0.006458507954256283,0.9912992115858411
2014-09-02,1,0.0002383641711051391,0.00024747387883306606,-0.010167870381349538,0.006458507954256283,0.99135008690782
2014-09-04,-1,-0.0004360305917400199,-0.0003253585657119503,-0.010912253475767717,0.006458507954256283,0.9907938756481719
2014-09-08,-1,-0.001037480340293506,-0.0008364279272444074,-0.010912253475767717,0.0072231516040538795,0.9899851386695268
2014-09-10,-1,-0.0008258294451336484,-0.0006778994582541237,-0.011362776484788499,0.008428805216554371,0.9889860730390818
2014-09-12,-1,-0.0010396225151632398,-0.0008635104809233656,-0.01207313429671324,0.008428805216554371,0.9886562202770676
2014-09-16,-1,-0.00048739198516089085,-0.0003647306474038765,-0.012692024878742443,0.0072231516040538795,0.9882254789252873
2014-09-18,-1,-0.0003814630696591103,-0.0002840734160175081,-0.012912289891169975,0.0072231516040538795,0.9881838721902094
2014-09-22,-1,-0.00015743990108195636,-0.00010175511566495873,-0.012912289891169975,0.007461526208178233,0.987154905768591
2014-09-24,-1,-0.00039104149574127514,-0.0003130126927538621,-0.01207313429671324,0.008992724470560797,0.9875553151966372
2014-09-26,-1,-0.0012464523214315935,-0.0010607615633157013,-0.01207313429671324,0.012554962875921246,0.9875202290519978
2014-09-30,-1,-0.0011421945098044628,-0.0009680657591475052,-0.01207313429671324,0.014231689460184202,0.9865443633412666
2014-10-02,-1,-0.0016837940699624045,-0.0014504232458684165,-0.011253315261059282,0.014231689460184202,0.9867137380539815
2014-10-06,-1,-0.0010425610033471537,-0.0009193033580946204,-0.011253315261059282,0.014047208831936997,0.9868891010044203
2014-10-08,-1,-0.001015725877700814,-0.0008830382629339067,-0.009809507765038694,0.012554962875921246,0.9882469619610491
2014-10-10,-1,-0.0019590414609479793,-0.0017034001798999574,-0.007027945530934119,0.012554962875921246,0.9886583602178325
2014-10-14,-1,-0.0024480082719861257,-0.00216465029945318,-0.000777917787452949,0.012554962875921246,0.9891671903039527
2014-10-16,-1,-0.0028782075149762793,-0.0025264251097739518,-0.000777917787452949,0.012554962875921246,0.9893945038630099
2014-10-20,-1,-0.001541913220553937,-0.0013526260902159812,-0.0032972467246364934,0.009102844354585226,0.9916859471889852
2014-10-22,-1,-0.0006528450570691264,-0.0005989899639390031,-0.0032972467246364934,0.008342011720699845,0.992695036425711
2014-10-24,-1,-0.0005318709212624908,-0.00048330562541709686,-0.002540916269142342,0.008169768359231187,0.9934577934372246
2014-10-28,1,0.00030530814770389643,0.000391948656917172,-0.002145019062804279,0.008169768359231187,0.9945928680818913
2014-10-30,1,0.00010825034967179171,0.00015024251880965502,-0.002145019062804279,0.00834430146140186,0.9939298325877037
2014-11-03,1,0.0008046303951961156,0.0009472771559435902,-0.002540916269142342,0.008169768359231187,0.9939933220134223
2014-11-05,1,0.0007670389083404325,0.000895189035496343,-0.004221790609178074,0.008169768359231187,0.9914822600966673
2014-11-07,1,0.0012736985490597469,0.0015032173235499423,-0.004221790609178074,0.008155330217825624,0.9913352704407089
2014-11-11,1,0.0016273396100496926,0.0019238374722977077,-0.006186107690103747,0.007083151013287719,0.9901089154946133
2014-11-13,1,0.0013139934107392847,0.0015248140301607263,-0.008540503005904188,0.007083151013287719,0.9891382370035281
2014-11-17,1,0.001222106245545433,0.0014193508783824503,-0.009362652010704211,0.007083151013287719,0.9887941405914542
2014-11-19,1,0.0011442204337126565,0.0013281773108341814,-0.009362652010704211,0.0082241672779776,0.9877366879518151
2014-11-21,1,0.0013529187262621045,0.0015736384184301035,-0.01137520730441165,0.00869179362592797,0.9872244135175164
2014-11-25,1,0.001729733033503948,0.002006230027469297,-0.01137520730441165,0.00887060032554524,0.9871144021523057
2014-11-28,1,0.00203522112954834,0.0023318969095044665,-0.013127843994182362,0.008207439395870021,0.9875071417964618
2014-12-02,1,0.0017511914188392006,0.0020044489825218393,-0.01081964928386273,0.008207439395870021,0.9878483847350968
2014-12-04,1,0.0004510214994849586,0.0005363020476265958,-0.009741976671404291,0.008207439395870021,0.9902475629947786
2014-12-08,1,0.00028583928417419283,0.0003155783822756736,-0.010236310454843396,0.00887060032554524,0.9891650645538608
2014-12-10,-1,-0.00043761657857447847,-0.0003972523461704659,-0.009606496899269972,0.008905423103535537,0.989908659804346
2014-12-12,-1,-0.001140765852193952,-0.0010078127110878016,-0.008058394966053432,0.008905423103535537,0.9912971046182548
2014-12-16,-1,-0.001539969516058597,-0.0013581349280430727,-0.005496281051191127,0.008905423103535537,0.9914264131515862
2014-12-18,-1,-0.0008057214252202801,-0.0006962332202522031,-0.005496281051191127,0.006977949666554939,0.9917873118991727
2014-12-22,-1,-0.0013878131352925015,-0.0011599268558627098,-0.0034268694232427806,0.007760033115366345,0.9915784086181276
2014-12-24,-1,-0.0006552340648784268,-0.0005392776222262074,-0.005185923565161702,0.0067556523107555454,0.9920855723124246
2014-12-29,-1,-0.0006209162114575066,-0.0005260531209266568,-0.008442614883342773,0.0063567018702337654,0.9918389850939431
2014-12-31,-1,-0.0007541310513787176,-0.000657545073020916,-0.008442614883342773,0.0063567018702337654,0.9908022944931856
2015-01-05,-1,-0.0003708646157360609,-0.0003424896644741314,-0.008442614883342773,0.007760033115366345,0.9904324466219202
2015-01-07,1,1.5272152022261694e-05,3.8733673307764506e-05,-0.005496915397838657,0.0074034597808423225,0.991590014591131
2015-01-09,1,7.944930223097922e-05,0.00012042200879455682,-0.004239542053405153,0.006311943210658888,0.9923663392722946
2015-01-13,1,0.0002468439366293332,0.000310388791867202,-0.004239542053405153,0.0074034597808423225,0.9918364640735424
2015-01-15,1,0.00019350864318661376,0.00024420322425094455,-0.004593182754178513,0.0074034597808423225,0.9919397068723931
2015-01-20,1,0.0009438132446932658,0.0011147598264661025,-0.004593182754178513,0.007185096702453934,0.9924582558225362
2015-01-22,1,0.001175120807082743,0.0013417851988890286,-0.004593182754178513,0.0063322538618366805,0.9929271085668664
2015-01-26,1,0.0011246955863342479,0.0013026589389856548,-0.00363484656625844,0.0063322538618366805,0.9932674534883147
2015-01-28,1,0.000450230264365169,0.0005307834635626443,-0.0012465320759361585,0.0063322538618366805,0.9944984247881989
2015-01-30,-1,-0.00016372209115216832,-0.0001494837536537601,-0.0012465320759361585,0.0063322538618366805,0.9956427755027243
2015-02-03,1,0.0001689112024659046,0.0001907130971349301,-0.0020775560133910226,0.004271187140506613,0.9957017690212285
2015-02-05,1,0.00017992005336293432,0.00019602853961243487,-0.0020775560133910226,0.002650206498990386,0.9951659826614623
2015-02-09,1,0.00039255098607995844,0.00046992518544446496,-0.004393728463083037,0.002650206498990386,0.994688867216674
2015-02-11,1,0.0006542272168261864,0.0007652032574802062,-0.004393728463083037,0.002650206498990386,0.994537569734151
2015-02-13,1,0.0005876530852165008,0.0006940303269766227,-0.004893375171477827,0.004271187140506613,0.993766452816325
2015-02-18,1,0.0007942513115814429,0.0009141093798081616,-0.006897834007343856,0.002650206498990386,0.9928894299513402
2015-02-20,1,0.0006435811540299233,0.0007077660280876068,-0.00902036212978922,0.0006588009947373463,0.9923813064750324
2015-02-24,1,0.0007122208859884286,0.0007892211463948748,-0.00902036212978922,0.0006588009947373463,0.991480558330888
2015-02-26,1,0.0003804303014826853,0.0003840452602941846,-0.01105854637458539,0.00421516585419783,0.990191061308084
2015-03-02,1,0.00023421540708603938,0.00023937733944109498,-0.01105854637458539,0.010229844079775206,0.9896891112877371
2015-03-04,-1,-5.154993896014808e-05,-1.8884288464160603e-05,-0.01105854637458539,0.010229844079775206,0.9896393190547982
2015-03-06,-1,-0.0009056316062730235,-0.0007409524320044418,-0.00902036212978922,0.011855332060642697,0.989380797586305
2015-03-10,-1,-0.0016126918018488443,-0.001331298659561828,-0.00902036212978922,0.011855332060642697,0.989386816625324
2015-03-12,-1,-0.0014733261938154661,-0.0011921973917245524,-0.00902036212978922,0.011547244717094608,0.989322070185101
2015-03-16,-1,-0.0009847657754843166,-0.0008072831713695921,-0.008207440557096754,0.011547244717094608,0.9899225628138689
2015-03-18,-1,-0.0007782613866969968,-0.0006427561627794418,-0.007599691390776054,0.009863893107408598,0.9907931116029817
2015-03-20,-1,-0.0011720757078181848,-0.0009982683798746843,-0.0024319979247769533,0.009863893107408598,0.9907028804613958
2015-03-24,-1,-0.0007748344813768676,-0.0006682019484829624,-0.0023434271449336514,0.008413993933754879,0.9915980043009222
2015-03-26,-1,-0.0006037992632294974,-0.0005146319034700646,-0.0023434271449336514,0.006467694875664921,0.9926005840011783
2015-03-30,1,0.00022730934508354656,0.0002669403178110495,-0.0072757700227768325,0.00589895625436663,0.9927461466458659
2015-04-01,-1,-5.96112688020252e-05,-5.2465807805456316e-05,-0.007964727981811725,0.00589895625436663,0.9925236770000738
2015-04-06,1,0.0007113297046187918,0.0008305499452194549,-0.007964727981811725,0.00539297121715804,0.9932128701116755
2015-04-08,1,0.0009474219901814437,0.0011075291220686953,-0.008120042673796506,0.00539297121715804,0.9927491280821336
2015-04-10,1,0.0014381612444584078,0.0016695202504202295,-0.008120042673796506,0.006467694875664921,0.9922754420086324
2015-04-14,1,0.0012724872591175604,0.0014766532923750197,-0.007964727981811725,0.008255046710468839,0.9921814901254274
2015-04-16,1,0.0014479863772972213,0.001671741504397159,-0.007964727981811725,0.008825767335759474,0.9914108821534072
2015-04-20,1,0.001530383168049581,0.0017729513705312346,-0.0072757700227768325,0.009268443823477537,0.991676441716837
2015-04-22,1,0.001525287242948374,0.0017861852894238738,-0.005216800384108481,0.009268443823477537,0.9919283783929872
2015-04-24,1,0.00147768610505368,0.0017549659960512153,-0.0036485373192123366,0.009268443823477537,0.9923621027688081
2015-04-28,1,0.0014822223349440456,0.0017476616519298853,-0.0028610005373517723,0.008825767335759474,0.9930147311767578
2015-04-30,1,0.0005331718339958478,0.0006038896306240399,0.00027234112014750636,0.009268443823477537,0.9929247257245137
2015-05-04,1,0.0011614720302910294,0.0013220922036001096,0.00027234112014750636,0.010704840931733425,0.9920762299178483
2015-05-06,1,0.00034695732658164807,0.0003475261324126915,0.0004389485314540008,0.010704840931733425,0.9909941364051296
2015-05-08,1,0.0007616524019547053,0.0007838883582245469,0.00027234112014750636,0.009268443823477537,0.9911968161617754
2015-05-12,1,0.0009003654189954597,0.0009150738567092892,-0.0005196040071758432,0.010704840931733425,0.9910563806511863
2015-05-14,1,0.0015527460434066988,0.0016970539052749238,0.00027234112014750636,0.010704840931733425,0.9916753628525335
2015-05-18,1,0.0017840784574788722,0.0019576294159823785,-0.0005196040071758432,0.010822116703266896,0.9915873685518459
2015-05-20,1,0.0021195510302730054,0.002355937592553503,-0.0005196040071758432,0.01113104325621336,0.9914499284276942
2015-05-22,1,0.0019292572618909267,0.0021279272767544158,-0.002892409389140048,0.01113104325621336,0.9906297174511106
2015-05-27,1,0.001696895018743648,0.0018455536332774875,-0.004953056052413054,0.01113104325621336,0.9898001165480859
2015-05-29,1,0.001944295681399779,0.0021244912159414267,-0.004953056052413054,0.01113104325621336,0.9897280611267597
2015-06-02,1,0.002861556058534144,0.003178881690181061,-0.007403698602217426,0.01070139436017659,0.9901720170493088
2015-06-04,1,0.002461533272364671,0.002718624317503209,-0.007403698602217426,0.01070139436017659,0.9899775805552291
2015-06-08,1,0.002253480591336999,0.002481285669183579,-0.004953056052413054,0.011068810566758465,0.9906270394839172
2015-06-10,1,0.002377958835136501,0.0026153693448944587,-0.007403698602217426,0.011068810566758465,0.9902945994745949
2015-06-12,1,0.003175618328450696,0.003548089059178459,-0.007403698602217426,0.011068810566758465,0.9904927465909995
2015-06-16,1,0.003405679959917621,0.0038406251967761105,-0.008686499683972615,0.011068810566758465,0.9906053477397659
2015-06-18,1,0.003522813844976022,0.003955679465773772,-0.008686499683972615,0.011049146878131598,0.990485890783869
2015-06-22,1,0.0031564159813877593,0.0034930703231012194,-0.008686499683972615,0.011049146878131598,0.9904390886304772
2015-06-24,1,0.0024341148254531774,0.00262507346746533,-0.008025759481573757,0.011049146878131598,0.9908737112700875
2015-06-26,1,0.0032008871447508818,0.0035116210340076963,-0.008025759481573757,0.007523149906663516,0.9910824431905436
2015-06-30,1,0.003837067468965763,0.004221541555748023,-0.004934082493173225,0.011049146878131598,0.9908608378860355
2015-07-02,1,0.0027686548816606297,0.002998975948410907,-0.003012528299408964,0.011900272791954774,0.9910452552933567
2015-07-07,1,0.0031485167225147885,0.003440432314650484,-0.003012528299408964,0.011900272791954774,0.9915435540755296
2015-07-09,1,0.0028912000538656446,0.003133213512876338,-0.003012528299408964,0.011812954666411656,0.9913616494503004
2015-07-13,1,0.0034373959272224197,0.0037698603042664635,-0.004549036590065014,0.011279533445811944,0.9912853189117135
2015-07-15,1,0.003209511425742705,0.0035203307198238363,-0.004549036590065014,0.011279533445811944,0.990472226627518
2015-07-17,1,0.0034264786369293944,0.0037659467879968545,-0.004549036590065014,0.00942766551492144,0.990330156923704
2015-07-21,1,0.0030133671207284176,0.0032875541258461224,-0.0039174497644503,0.00942766551492144,0.9909599661771558
2015-07-23,1,0.0025852450182481394,0.0027811209258177183,-0.004549036590065014,0.00942766551492144,0.9901305697739337
2015-07-27,1,0.0022407355872910628,0.0023344118158686086,-0.008753991393988324,0.00942766551492144,0.9874470309946938
2015-07-29,1,0.002908583941717122,0.003073759889966081,-0.008753991393988324,0.006272630102646896,0.9888604203495427
2015-07-31,1,0.003428741116710009,0.0036300049649866917,-0.009673124311342362,0.005521208345300081,0.9890313395161319
2015-08-04,1,0.0037883468659577328,0.004053289512916799,-0.01501218185451951,0.0014581284658599267,0.9877597547090026
2015-08-06,1,0.0032958122188671587,0.0034839987285906365,-0.010376246643294307,0.0054397540017260245,0.9887764561564232
2015-08-10,1,0.0030347378400092636,0.0031797759179789447,-0.017724153714426996,0.0054397540017260245,0.9871681418120738
2015-08-12,1,0.0017031510914279134,0.0017743058642392374,-0.016277028563294264,0.006028267071924727,0.9870972931078236
2015-08-14,1,0.0013193748594062416,0.0014432598595612415,-0.016277028563294264,0.006028267071924727,0.9868947606448442
2015-08-18,1,0.001598953278782149,0.00169297427466974,-0.016277028563294264,0.007283886082640527,0.9862321958647349
2015-08-20,1,0.0008389696428513452,0.0009964566925276263,-0.016879633427345914,0.008887359632917882,0.9859307806124347
2015-08-24,-1,-0.0018868984891871599,-0.001395100830988991,-0.008826710069179556,0.010740951045354549,0.9873793626327116
2015-08-26,-1,-0.0016829935439994744,-0.0012632105512015279,-0.009457878923552751,0.010740951045354549,0.9871794957678803
2015-08-28,-1,-0.0016504307461440118,-0.0012395022030017833,-0.012191432365670734,0.00910588385760043,0.9862514250030361
2015-09-01,-1,-0.002115699289371693,-0.0016748562227264852,-0.009457878923552751,0.00910588385760043,0.9864549794941815
2015-09-03,-1,-0.0017103759554188858,-0.0013110027140432775,-0.009457878923552751,0.009738387757197294,0.9862409520841757
2015-09-08,-1,-0.001602459299115599,-0.001212065835356143,-0.008950628836746312,0.009738387757197294,0.9861097774987904
2015-09-10,-1,-0.0016278187591109697,-0.0012260384792134578,-0.00824658564359206,0.009308226657356545,0.9869060997510445
2015-09-14,-1,-0.002470077977651832,-0.0019508671100698257,-0.0034135082750545416,0.009308226657356545,0.9864696267289434
2015-09-16,-1,-0.0019691873818329527,-0.0014893076397066332,-0.007544264091148547,0.008307987550644129,0.9876666923833785
2015-09-18,-1,-0.0027987513877623213,-0.002225972728130647,-0.0037941220827753114,0.009273876971000829,0.988441004656605
2015-09-22,-1,-0.0021691519289306236,-0.0016284787787229247,-0.0037941220827753114,0.0065563118366257596,0.9899022366021216
2015-09-24,-1,-0.0023369988527195884,-0.0018063090689935076,-0.0037941220827753114,0.0065563118366257596,0.9891884775639908
2015-09-28,-1,-0.003872482740967498,-0.0031345989507072856,-0.0069838840330140204,0.0065563118366257596,0.989961878783921
2015-09-30,-1,-0.003493162245038898,-0.002847350584534349,-0.006678867525442629,0.0065563118366257596,0.9904049637069364
2015-10-02,-1,-0.002475436860964811,-0.0019717131790605576,-0.006678867525442629,0.005821027417923958,0.9915149772452689
2015-10-06,-1,-0.0005285450911943399,-0.0002706601535838155,-0.006678867525442629,0.0056907099376146825,0.9936522934346612
2015-10-08,-1,-0.00023631905502448738,-3.387139867018474e-05,-0.0050376714854784965,0.0056907099376146825,0.9938051684070591
2015-10-12,1,0.00015468056132073932,0.00030147762141191257,-0.0069838840330140204,0.0056907099376146825,0.993169045908835
2015-10-14,-1,-0.0002899402340808964,-8.726935617925109e-05,-0.006678867525442629,0.005821027417923958,0.9927524346880313
2015-10-16,0,-2.3778820514293027e-05,0.00014851845703392784,-0.007894749810850801,0.0056907099376146825,0.9918337769824369
2015-10-20,1,0.000495069203642599,0.0005849150721581391,-0.007894749810850801,0.0056907099376146825,0.9911388490051326
2015-10-22,1,0.0009344433871212317,0.0009745678394471148,-0.007045023744313273,0.00541697575704036,0.9917902680190215
2015-10-26,0,-4.973005387524872e-05,5.599705672389811e-05,-0.0050376714854784965,0.00541697575704036,0.9923922691320279
2015-10-28,-1,-0.0007288694206362652,-0.0005120962485604975,-0.005290217974750804,0.00541697575704036,0.9921523160702163
2015-10-30,-1,-0.0004490489182963441,-0.00027647645828715974,-0.007894749810850801,0.00541697575704036,0.9899725448778232
2015-11-03,1,0.00021236556825165182,0.00027585237384986257,-0.009384265440966391,0.0058505577061656435,0.9892703505499261
2015-11-05,1,0.0005503188567606251,0.0005662510309777707,-0.012250187383235703,0.0058505577061656435,0.9880773962655821
2015-11-09,0,-1.9145382174899563e-05,4.5716802597908334e-05,-0.01231981323306878,0.009195015332028291,0.9877506895386016
2015-11-11,1,0.0005533264868755716,0.0005534901370507578,-0.01504416244736493,0.0058505577061656435,0.9873016730204544
2015-11-13,-1,-0.001256185434766599,-0.0010075354409440668,-0.01231981323306878,0.006161581817260875,0.9883329102973641
2015-11-17,-1,-0.00019103956898828682,-0.00010229525125382514,-0.01231981323306878,0.006161581817260875,0.9879659455574433
2015-11-19,1,0.0004015588609302874,0.00041384841286146536,-0.01504416244736493,0.006161581817260875,0.9869005484480334
2015-11-23,0,-1.9287549163799172e-05,6.213645988107546e-05,-0.01504416244736493,0.009195015332028291,0.9853034079925937
2015-11-25,-1,-0.0002679473992760109,-0.0001721890385774694,-0.01504416244736493,0.009195015332028291,0.9853674030608344
2015-11-30,-1,-0.0006010544513211406,-0.0004663824747964038,-0.0139130110204813,0.006161581817260875,0.9875086717786948
2015-12-02,-1,-0.0006647950168901077,-0.0005491411474995401,-0.0139130110204813,0.005384298740682105,0.9877979935999837
2015-12-04,-1,-0.00042246655900879317,-0.0003260251771279025,-0.0139130110204813,0.005227186643474131,0.9881561334052328
2015-12-08,-1,-0.00019973676180261153,-0.0001488200116744895,-0.014429684653457108,0.004311084430192328,0.9881231708528494
2015-12-10,-1,-0.0012536709139433539,-0.0010660337852678161,-0.010857526249940588,0.004647160609403708,0.9891473458873931
2015-12-14,-1,-0.0014226284547256135,-0.0012131696260041583,-0.014429684653457108,0.004647160609403708,0.987880334949683
2015-12-16,-1,-0.0005721154256031948,-0.00044891659461759897,-0.014429684653457108,0.004091398587102093,0.9888691386891326
2015-12-18,-1,-0.0003107921436070989,-0.00030133405141796656,-0.013641959095329578,0.004366900143277808,0.9892868993919268
2015-12-22,1,0.0006591022745055233,0.0008370711152149816,-0.01170555825623446,0.004366900143277808,0.9899171412900856
2015-12-24,1,0.000800405272860327,0.0010200690538728443,-0.01170555825623446,0.0047266010223252575,0.9899129563828232
2015-12-29,1,0.0008056683186833862,0.0010238901958200088,-0.01170555825623446,0.0047266010223252575,0.9893818397820152
2015-12-31,1,0.00043927066742741093,0.0006151245217339285,-0.01170555825623446,0.005724472812527102,0.9881962713202493
2016-01-05,-1,-0.000926795180439861,-0.000891451902156634,-0.009036960182202864,0.008580916680226685,0.988890662052279
2016-01-07,-1,-0.0019833122007584586,-0.0018164916463223823,-0.004681711576319955,0.008580916680226685,0.9899033534132806
2016-01-11,-1,-0.0014477035392682553,-0.0013653316776333058,-0.006577968414971618,0.011375210742845603,0.9884095928995842
2016-01-13,-1,-0.0024450460160186614,-0.0022094598099548822,-0.006577968414971618,0.009144288794147668,0.9900056308155133
2016-01-15,-1,-0.0034840881381330213,-0.003033659821677491,-0.006577968414971618,0.013727326432963339,0.9889339795691848
2016-01-20,-1,-0.0037700581738501237,-0.003278051131395655,-0.004681711576319955,0.016018114661799428,0.9880886393787206
2016-01-22,-1,-0.0035167225232068536,-0.0030609488325338543,-0.003928240748514364,0.016018114661799428,0.9880834854963704
2016-01-26,-1,-0.003490270238846803,-0.003008290342983556,-0.003928240748514364,0.016018114661799428,0.9885344924920839
2016-01-28,-1,-0.002745930734275758,-0.0023786103970282095,-0.003928240748514364,0.01287636612104208,0.9883773185886338
2016-02-01,-1,-0.002147549281607811,-0.0018588340594852786,-0.004021056886573418,0.007505227639872612,0.9895070048055591
2016-02-03,-1,-0.0016314577929833006,-0.0014109962881143393,-0.00653315991718118,0.005421283615778261,0.9894955081418705
2016-02-05,-1,-0.002141090583379739,-0.0018407080089626086,-0.006009620939277593,0.006957844090829289,0.9890869463295675
2016-02-09,-1,-0.0015004254198906501,-0.0013116970187271883,-0.0053707063165388995,0.005421283615778261,0.9904185546453782
2016-02-11,-1,-0.0023775866554903487,-0.0020559169054267376,-0.0029478356884159525,0.006794178571197015,0.9899189868578416
2016-02-16,-1,-0.0008503174675826287,-0.0007613079678643982,-0.00595048374284573,0.005559656751946336,0.99104594407043
2016-02-18,-1,-9.807605480789873e-05,-7.987334290687848e-05,-0.010116969005352795,0.005559656751946336,0.9908991282372951
2016-02-22,-1,-7.894085244119478e-05,-1.731380300395912e-05,-0.010116969005352795,0.003507853356803278,0.9913065163332256
2016-02-24,0,-6.45728040105719e-05,2.442335259541118e-06,-0.010116969005352795,0.003507853356803278,0.9909288997168323
2016-02-26,-1,-0.0006486953388237152,-0.0005472429911319196,-0.008343497926127217,0.003507853356803278,0.9924281151023857
2016-03-01,-1,-0.00045554397091503396,-0.0004550639313032628,-0.005985973266002856,0.004977011973076459,0.9927888267419891
2016-03-03,-1,-0.0007286907983827327,-0.0007050944790366673,-0.004809154265423895,0.006298219814201769,0.9930100867120204
2016-03-07,-1,-0.00028529671404998156,-0.00023163447106259183,-0.005985973266002856,0.005076460780154696,0.9926487324678522
2016-03-09,-1,-0.0005720267250886915,-0.0005655531796759193,-0.007481380911473209,0.005076460780154696,0.9920122236727411
2016-03-11,1,7.946168851911349e-05,0.0001920791494973938,-0.008517273347141079,0.0048682143146374385,0.9916564018040349
2016-03-15,-1,-0.0001574539237101245,-5.734587643377813e-05,-0.007481380911473209,0.0048682143146374385,0.992166287745883
2016-03-17,1,0.00011986263915529194,0.00024577711926316486,-0.005876344889808378,0.004508192833695396,0.993584360211079
2016-03-21,-1,-9.048065169989391e-05,-1.9487754511235362e-05,-0.007231317050947996,0.004541342436054808,0.9930259630571454
2016-03-23,-1,-0.0004516465196972491,-0.0004354920196470717,-0.007231317050947996,0.005396460013584171,0.9908142496704224
2016-03-28,-1,-0.00029459120150388993,-0.00024493530417448676,-0.007231317050947996,0.0068298645590098295,0.9902636702302423
2016-03-30,1,0.0003784643436259444,0.0005388531507867938,-0.007231317050947996,0.005396460013584171,0.9907248646454196
2016-04-01,1,0.0010016130359363452,0.0012645997291885606,-0.007231317050947996,0.0068298645590098295,0.9902653863020316
2016-04-05,1,0.0003428560117912191,0.0004820078051505908,-0.0063991810724463695,0.0068298645590098295,0.9909829099108819
2016-04-07,0,-2.9998700856287766e-05,9.172480777905264e-05,-0.003983366633425527,0.0068298645590098295,0.9918879752198196
2016-04-11,-1,-0.0007556966322696217,-0.0007269274736996934,-0.0032306452792559954,0.00904339540150219,0.9915061419895578
2016-04-13,-1,-0.0002958065606664742,-0.00023520374748463887,-0.003983366633425527,0.012894355184732401,0.9903616070703107
2016-04-15,1,2.360031759492836e-05,0.00013986085703265487,-0.004584916554724984,0.01344286872769967,0.9891621695433875
2016-04-19,1,0.00035200438854755036,0.0005244344002179114,-0.004117719688060491,0.013037743310518069,0.9897844090162067
2016-04-21,-1,-0.0004039130864815719,-0.0003463390358792231,-0.004117719688060491,0.00904339540150219,0.9916614457964098
2016-04-25,-1,-0.00039512907309540715,-0.0003411284976161541,-0.004117719688060491,0.00904339540150219,0.991920184184989
2016-04-27,-1,-0.0004330368131241646,-0.00039677777794111643,-0.004117719688060491,0.013037743310518069,0.9916067182707478
2016-04-29,1,0.00047517494411808333,0.000645180302893639,-0.004117719688060491,0.013037743310518069,0.991900951460239
2016-05-03,1,0.00039453062487997625,0.0005501455837726866,-0.004721293057955795,0.013037743310518069,0.991531046167359
2016-05-05,0,-2.316750824161835e-05,4.277972839456014e-05,-0.004721293057955795,0.013037743310518069,0.9915753947283649
2016-05-09,1,0.0006706800551568744,0.0008216165115045751,-0.006683320093063986,0.006598117268041606,0.9914552807965406
2016-05-11,1,0.0010135318109863937,0.0012545884151954458,-0.006683320093063986,0.006598117268041606,0.9907913317306847
2016-05-13,1,0.0007115997711208335,0.0008820884770570079,-0.006683320093063986,0.004214146822580672,0.9910970826422505
2016-05-17,1,0.000915480449489645,0.0011342183123591123,-0.006683320093063986,0.0038585240210860534,0.9913340044674276
2016-05-19,1,0.0005348427469755903,0.0006988480929808287,-0.006683320093063986,0.0038585240210860534,0.9912229886883498
2016-05-23,1,0.0004791032694460969,0.0006376858319728584,-0.004430886940033326,0.006598117268041606,0.9908485933183607
2016-05-25,1,0.0006893337769408637,0.0008543139793133374,-0.008790408521706585,0.005271152617494957,0.9907012550880901
2016-05-27,1,0.000574376597692282,0.000669084232319698,-0.010181638725683109,0.004244308605558065,0.9897059600490259
2016-06-01,1,5.008068290143226e-05,6.869007680331233e-05,-0.010181638725683109,0.004945771448081887,0.9896141832743092
2016-06-03,1,0.00013690625790133197,0.00014193842406506449,-0.01090885659836141,0.008702505795613073,0.9869853342229384
2016-06-07,-1,-0.0004032805986308239,-0.00030593509763008963,-0.01090885659836141,0.004945771448081887,0.9874294730840465
2016-06-09,1,0.00017956757141762353,0.00020836855167169556,-0.009918039011262364,0.004945771448081887,0.9889957346354281
2016-06-13,-1,-0.0006810673981173937,-0.0005369299405380641,-0.0054363142068198115,0.0076665880439305565,0.9896990192015578
2016-06-15,-1,-0.0005462399708284036,-0.00041891250875688435,-0.009751561670061073,0.0076665880439305565,0.989281278321158
2016-06-17,-1,-0.0008725124185317491,-0.0007241916435206428,-0.007039738971708304,0.0076665880439305565,0.9897849660039466
2016-06-21,-1,-0.00019989633868350125,-0.00014484103612391985,-0.007039738971708304,0.005844618649896161,0.9902002336973874
2016-06-23,0,-1.0078873034936669e-05,1.1340795776046712e-06,-0.0045576828461549364,0.0061356655487602935,0.9901456805915477
2016-06-27,-1,-0.0006798647403658591,-0.0006077991651049684,-0.006363970484151667,0.0061356655487602935,0.9914847370313722
2016-06-29,-1,-0.00045758897679505346,-0.0004005934230543962,-0.007099807657585536,0.0061356655487602935,0.9910280422260923
2016-07-01,1,0.0006313984346442618,0.0007176450714471003,-0.007099807657585536,0.0050429269771421256,0.9927766622577799
2016-07-06,-1,-0.00029925579224357343,-0.00024314492774170146,-0.006363970484151667,0.0050429269771421256,0.9939221647721493
2016-07-08,1,0.00042808927009120677,0.0005071702815061894,-0.006363970484151667,0.0046598062457108725,0.9941037232535211
2016-07-12,1,0.0011432468042948257,0.0013697608954954736,-0.006363970484151667,0.003452782387718024,0.9941270484581275
2016-07-14,1,0.001326801388761864,0.00161349940724562,-0.003988901057798383,0.0038807867838523513,0.9941781943667131
2016-07-18,1,0.0012179853456741408,0.0015000499173512879,-0.003445669578110998,0.0038807867838523513,0.99438187414744
2016-07-20,1,0.0009951002111242128,0.0011959225843012362,-0.003445669578110998,0.0038807867838523513,0.9941211315812518
2016-07-22,1,0.000999922815075562,0.0011539997109625312,-0.003445669578110998,0.0038807867838523513,0.9944561433422029
2016-07-26,1,0.00031263111216132033,0.00034887323312706044,-0.002064496161269132,0.0038807867838523513,0.9950607899088961
2016-07-28,1,0.0003583134354919957,0.00041432904087575483,-0.0013925789383072854,0.005527388467700184,0.9954641746793677
2016-08-01,-1,-7.295976551886799e-05,-5.732991980588273e-05,-0.0013925789383072854,0.005582014889258772,0.9954590234714181
2016-08-03,1,9.900611523574817e-05,0.00013280209605469258,-0.0029088318400898178,0.005582014889258772,0.9934949475011071
2016-08-05,-1,-0.00013614294470217848,-0.0001103767667915218,-0.003445669578110998,0.005582014889258772,0.9928675506426298
2016-08-09,-1,-5.9287589321452156e-05,-5.70648804415607e-05,-0.01044097300890732,0.005582014889258772,0.99203673164407
2016-08-11,1,0.00041723994282550703,0.0004814724228324647,-0.01108373456562455,0.003867622126164794,0.9911550437587617
2016-08-15,1,8.515170662476591e-05,8.777744794666192e-05,-0.012050978394084066,0.005582014889258772,0.9899343217299715
2016-08-17,1,0.0004619906732264153,0.0005080014461634946,-0.012050978394084066,0.005063075481096658,0.9898802906198789
2016-08-19,1,0.001062590488578845,0.0012160564566837135,-0.012050978394084066,0.005063075481096658,0.9889983674178856
2016-08-23,1,0.0012047112879134238,0.0014027787817680092,-0.012050978394084066,0.005063075481096658,0.9891562323586044
2016-08-25,1,0.001395852940860841,0.0015931043249059955,-0.012050978394084066,0.0029366368015078985,0.9886527138895779
2016-08-29,1,0.0007515539927590106,0.0008179373520004363,-0.011197212959708616,0.002291115600087752,0.9891105055663043
2016-08-31,-1,-0.0008765203780267847,-0.0007286516740197366,-0.009221557885250847,0.002291115600087752,0.991449409216827
2016-09-02,-1,-0.0013590026152716771,-0.0011590915031532204,-0.008080137601202988,0.0031265118768362184,0.9917787651921033
2016-09-07,-1,-0.0019637119137160433,-0.0017008802365942879,-0.007218624267441719,0.0031265118768362184,0.9921535750572081
2016-09-09,-1,-0.0028783657754695774,-0.0025200491781111533,-0.0058764315690885876,0.0031265118768362184,0.9932335232185543
2016-09-13,-1,-0.003188713090342105,-0.0027560846745222035,-0.005589183416449088,0.0031265118768362184,0.9939690983202878
2016-09-15,-1,-0.00316198186646795,-0.0027359541774698987,-0.005589183416449088,0.0030146835459881885,0.9937024916113066
2016-09-19,-1,-0.0027359922568511207,-0.002359927372921406,-0.006590620238366892,0.002291115600087752,0.9938428085533061
2016-09-21,-1,-0.002024582266644507,-0.001773861489656648,-0.00704591528203022,0.0030146835459881885,0.9933865322064734
2016-09-23,-1,-0.001737536383703825,-0.0015143956696923083,-0.008159336941723244,0.0030146835459881885,0.9935467637503198
2016-09-27,-1,-0.0020586197142609015,-0.0017894758448476983,-0.00704591528203022,0.005231184058176486,0.9933531153007554
2016-09-29,-1,-0.0014064437464654544,-0.0012606201595196898,-0.00704591528203022,0.005231184058176486,0.9932397157247914
2016-10-03,-1,-0.0013187888038036946,-0.001181287918182201,-0.00704591528203022,0.005675092534836999,0.9928543277879583
2016-10-05,-1,-0.0018199463143040095,-0.0016228088933808915,-0.007139084632845804,0.005675092534836999,0.9927677388810727
2016-10-07,-1,-0.0019109484024703981,-0.001705168500564169,-0.007139084632845804,0.005675092534836999,0.992884789128484
2016-10-11,-1,-0.0018832281457527825,-0.0016569940164370715,-0.007139084632845804,0.007165343960854146,0.992411947753371
2016-10-13,-1,-0.002141897187739367,-0.0018806686288683479,-0.007139084632845804,0.007165343960854146,0.9916469663525099
2016-10-17,-1,-0.002791091434429055,-0.0024808781043060574,-0.0060679443951959615,0.007165343960854146,0.9920140081383076
2016-10-19,-1,-0.00233668766852232,-0.0021072100352828613,-0.00443382193635972,0.007232933760322998,0.9921072628787088
2016-10-21,-1,-0.0023214137158103897,-0.0020910326918416383,-0.00443382193635972,0.00545602696583148,0.9924032011374221
2016-10-25,-1,-0.001722856572267523,-0.0015673245937565538,-0.00443382193635972,0.00545602696583148,0.9921160244053138
2016-10-27,-1,-0.0018845639907150236,-0.0017051497580277976,-0.005955298749534394,0.007275238776507921,0.9910875838713983
2016-10-31,-1,-0.0007868677385644714,-0.0007772186130254088,-0.005955298749534394,0.00545602696583148,0.9916204811667867
2016-11-02,-1,-0.0013336314386545552,-0.0012241950052667766,-0.007102841805076363,0.00545602696583148,0.9901627391638361
2016-11-04,-1,-0.0011297895885460276,-0.0010573472344520983,-0.007102841805076363,0.007275238776507921,0.9896500675010882
2016-11-08,-1,-0.0006355000539993172,-0.0005923400873520353,-0.009404449132739379,0.004493379276205172,0.9902843334580951
2016-11-10,-1,-0.0015911735340794378,-0.0014722735930043976,-0.007022451038979143,0.008179296606837711,0.9902558114458802
2016-11-14,-1,-0.0017584579928765828,-0.0016181581863038102,-0.007022451038979143,0.008179296606837711,0.9903997784590898
2016-11-16,-1,-0.0019912195209413498,-0.0017703975575396138,-0.009692024618406226,0.007277243613821493,0.9899042005816798
2016-11-18,-1,-0.0016917028907298937,-0.0015297839078112826,-0.009692024618406226,0.007277243613821493,0.9901749652133397
2016-11-22,0,-5.1356729153061024e-05,5.9654356435722377e-05,-0.009692024618406226,0.0050000006221652,0.9912059435608089
2016-11-25,-1,-0.0004851531248446694,-0.00047190392662048013,-0.006182107443887133,0.0041733640579163156,0.9919892562492165
2016-11-29,1,4.822207108313672e-05,0.00015445007956448276,-0.006182107443887133,0.0016046595777566013,0.9922076800223835
2016-12-01,-1,-0.0012858484624898234,-0.001243124610379077,-0.004626241466330754,0.0017657372892801399,0.9941418219145037
2016-12-05,-1,-0.0009401093128482546,-0.0009330089586179197,-0.004626241466330754,0.0031000156798044512,0.9939685313670281
2016-12-07,-1,-0.001287840384958785,-0.001228184492196443,-0.004626241466330754,0.0031000156798044512,0.9941825919815335
2016-12-09,1,8.94517941798259e-05,0.0002224890164841557,-0.0046700291382694836,0.0013439813998154862,0.9951093073126822
2016-12-13,0,-1.105065328324583e-05,0.00014321205570851206,-0.0050459893230090525,0.0013439813998154862,0.9952641817218488
2016-12-15,-1,-0.0005353950518736052,-0.00047732818692169596,-0.004640428756060681,0.0013439813998154862,0.99627788183295
2016-12-19,-1,-0.0004069628557370963,-0.0003315569998130388,-0.0050459893230090525,0.0013439813998154862,0.9958642361106826
2016-12-21,-1,-0.0006673927094888809,-0.0006396203051270957,-0.0050459893230090525,0.0028217430398730947,0.9949371275501167
2016-12-23,-1,-0.0009336780986519497,-0.0009248494277454235,-0.004640428756060681,0.005210865302178092,0.9946437850120774
2016-12-28,-1,-0.0007716797610074756,-0.0007499241477983597,-0.005171967722611775,0.005210865302178092,0.9944609449916042
2016-12-30,-1,-0.0009453230753803116,-0.0009403898201736818,-0.004640428756060681,0.005210865302178092,0.9947503366672791
2017-01-04,1,7.941874020723008e-06,0.00016831217414095193,-0.005171967722611775,0.002664819395210039,0.9949532169350824
2017-01-06,-1,-0.0002611690103085125,-0.00014257643150059984,-0.005171967722611775,0.003907709657887563,0.9943266243930562
2017-01-10,-1,-0.0001862556784152894,-2.854902306429933e-05,-0.005171967722611775,0.005341077154459246,0.9943026292167021
2017-01-12,0,-0.00017263596332818456,2.3999049842709196e-05,-0.0021305975965915927,0.008993333124118812,0.9935507626198401
2017-01-17,1,0.0002000818873517965,0.0004452269934327463,-0.0023801263590789096,0.008993333124118812,0.9936405734870887
2017-01-19,1,0.00042933307755771324,0.0007441227930135124,-0.0021305975965915927,0.009756832217715715,0.9935646985126759
2017-01-23,1,0.001266293920918974,0.001678987669596377,-0.0021305975965915927,0.006104694684605396,0.9947031839010155
2017-01-25,1,0.000987384293010036,0.001277908757353051,-0.0021305975965915927,0.007564798584228042,0.9943246063283862
2017-01-27,1,0.0004969242106349915,0.0006933033361025755,-0.0021515974839700974,0.007564798584228042,0.994261744807152
2017-01-31,1,0.00010879982406852086,0.0002105703860874959,0.00035267915310086646,0.007564798584228042,0.9939870391638783
2017-02-02,-1,-0.0006992734638915214,-0.0006338202547979101,0.00035267915310086646,0.007564798584228042,0.9938301913982248
2017-02-06,-1,-0.0005840367101267094,-0.0005416988362101099,-0.0024025264987220657,0.005721534735114404,0.9931821803074945
2017-02-08,-1,-0.00024215188348330658,-0.00023736511156030027,-0.0031388557400560983,0.005721534735114404,0.9929122021627166
2017-02-10,1,0.0009075821047999739,0.0010840501658264442,-0.0031388557400560983,0.0037896919710115086,0.994366999996708
2017-02-14,1,0.0010523035812660614,0.0012553302464273748,-0.003047731084624571,0.0037896919710115086,0.9943119730753508
2017-02-16,1,0.0018150347413140606,0.0021418157089681897,-0.004132803412194081,0.003273253134388475,0.9940197531019488
2017-02-21,1,0.0019143322719515118,0.0022404802019953393,-0.004132803412194081,0.003300154838801388,0.993787441916577
2017-02-23,1,0.002453538674829606,0.0028523755247658947,-0.004132803412194081,0.003059317212471888,0.9935967395916075
2017-02-27,1,0.002361730447576514,0.0027563794522049534,-0.007396544172125503,0.003059317212471888,0.9933025106288641
2017-03-01,1,0.002244872770524939,0.002593798126675602,-0.007396544172125503,0.0017521509876971034,0.9931406698050196
2017-03-03,1,0.002117220437044828,0.00243790667604934,-0.008824400963331924,0.001842074284753256,0.9927445350970447
2017-03-07,1,0.0010047208537969027,0.001195688811736042,-0.00393133605908123,0.0021672129801429533,0.9950939146880684
2017-03-09,1,0.0002593983076798136,0.00033605265299943,-0.0029117185133210304,0.0021672129801429533,0.9955562836739932
2017-03-13,-1,-0.0002658008933799458,-0.00022017830839262786,-0.0029117185133210304,0.003637128376379039,0.9951626467275851
2017-03-15,-1,-4.837055242302792e-05,-3.1218595044732466e-05,-0.00393133605908123,0.003637128376379039,0.9951003684472703
2017-03-17,1,7.00750750035541e-05,7.321274660289872e-05,-0.003953809133911221,0.003637128376379039,0.9949376449199832
2017-03-21,1,0.0003179022620782365,0.0003728949626466728,-0.0057345406733630595,0.003896840814097664,0.9946581177950021
2017-03-23,1,0.00041690118668294266,0.0004757251110398456,-0.0057345406733630595,0.0038950991699996905,0.9948802159609105
2017-03-27,1,0.0002854606800733816,0.00035680621927920795,-0.0032466168550840447,0.004762772876852503,0.9944910138641325
2017-03-29,1,0.000191294462544602,0.00024088596527530674,-0.0057345406733630595,0.007057916752115555,0.9934241213201185
2017-03-31,-1,-4.071771119838411e-05,-1.991674960790837e-05,-0.004915696857127895,0.007733130124617063,0.9933845388529364
2017-04-04,1,0.00043242404355061515,0.0005611014764885535,-0.005540099904928731,0.007733130124617063,0.9930478386697625
2017-04-06,-1,-0.0006975246237032372,-0.0006149164390546185,-0.004915696857127895,0.00841471738314435,0.9915627312703881
2017-04-10,-1,-0.0004919105324856794,-0.0004213203565497408,-0.004915696857127895,0.008433355582763964,0.9915418241809856
2017-04-12,-1,-0.0003498321576577979,-0.0003163043820720635,-0.0031166343026491168,0.008433355582763964,0.9917772927816194
2017-04-17,-1,-0.0003969839686597148,-0.000356434594852411,-0.0031166343026491168,0.008563131440574977,0.9919202175198547
2017-04-19,1,0.00011404761259041713,0.00018042030325799547,-0.0004900884579135863,0.01121519023055213,0.9899091418313836
2017-04-21,1,0.00015491612031135054,0.00022626395695923157,0.001454480953365764,0.01121519023055213,0.9900607256147591
2017-04-25,1,0.00115818160079911,0.0013812142888329033,-0.00104644845859487,0.01121519023055213,0.9853552633917941
2017-04-27,-1,-9.635058919028646e-05,-5.6353879026458455e-05,-0.00104644845859487,0.013057543991732843,0.9831251533405873
2017-05-01,1,0.000327161354932659,0.00035683549159229075,-0.0028537181229198543,0.013057543991732843,0.9837167251788159
2017-05-03,1,4.634259421102298e-05,7.119600197500875e-05,-0.0004691945740415528,0.015142731926288478,0.9825438410778344
2017-05-05,1,0.0020738387157492985,0.0023863623963835405,-0.0029366054985938955,0.013284686825295815,0.984243764531101
2017-05-09,1,0.0021483489232939287,0.0024385500560115997,-0.00472815213409335,0.013284686825295815,0.983003835083406
2017-05-11,1,0.0020690729014013844,0.002321093248786923,-0.007534814897051778,0.013284686825295815,0.9813772433843257
2017-05-15,1,0.0021500167233106595,0.002414193715766192,-0.00530468707149269,0.013284686825295815,0.9819591590674954
2017-05-17,1,0.004100952557428206,0.004604693990866224,-0.00530468707149269,0.006553955186648822,0.9833797108466399
2017-05-19,1,0.00392357047441779,0.004377080029458184,-0.009391618040581917,0.006553955186648822,0.9827659033154005
2017-05-23,1,0.004314300426582723,0.004811763735474734,-0.009391618040581917,0.002598720954800352,0.9874689439562474
2017-05-25,1,0.0029515966233659412,0.003247625120929827,-0.007894024924314279,0.002598720954800352,0.9895077092509413
2017-05-30,1,0.0028854555420300154,0.003199511612449085,-0.009391618040581917,0.002598720954800352,0.9890219551778933
2017-06-01,1,0.003777916370590219,0.004183799956155193,-0.009468037233855881,0.0013374410590902372,0.9887480356256801
2017-06-05,1,0.0029486799719794523,0.0032179092190142314,-0.009468037233855881,0.0013374410590902372,0.9894557607802024
2017-06-07,1,0.001730188376025432,0.001806527342046351,-0.008527454951022802,0.0010579775194219938,0.9910924121920971
2017-06-09,1,0.000339021236028484,0.0004241835731046661,-0.007639878983430395,0.0010579775194219938,0.9928974387171614
2017-06-13,1,2.3279302704864286e-05,0.00016269478871143943,-0.007639878983430395,0.001905345933092069,0.9928027981327674
2017-06-15,1,0.000997484664264952,0.0010177300565844516,-0.007639878983430395,0.0013296572863807682,0.9924473419307106
2017-06-19,1,0.0007596378710119101,0.0007713122116436856,-0.006583002370124244,0.005470651969035326,0.9925179849497698
2017-06-21,-1,-0.000304369781108979,-0.00017152006855898193,-0.006048030846948049,0.005851793897171242,0.9933102409078096
2017-06-23,1,0.00014005758189099352,0.00022724063178182773,-0.0059380964975644475,0.005764590262417997,0.9942758551531127
2017-06-27,-1,-0.0008238923186341698,-0.0006102124734350323,-0.005333188386599194,0.006138001048747565,0.9944181036624342
2017-06-29,-1,-0.0008315695528831489,-0.0006111909207363429,-0.005333188386599194,0.006138001048747565,0.9932317750671984
2017-07-03,-1,-0.001001732360247342,-0.0007769730788085577,-0.0033153672621546657,0.006138001048747565,0.9933422247841288
2017-07-06,-1,-0.0007866340747120515,-0.0006377617135537308,-0.00461822147694019,0.006138001048747565,0.9931296416009072
2017-07-10,-1,-0.001258419754599957,-0.0010577992414139642,-0.0031091153821493638,0.006430028268378808,0.9927207059321621
2017-07-12,-1,-0.0005871622111932975,-0.0004950430357387233,-0.004343651183045981,0.006430028268378808,0.9929867173844578
2017-07-14,-1,-0.0003705473884160594,-0.00031684572087242285,-0.004343651183045981,0.006168417364119074,0.9930783865216796
2017-07-18,1,0.00048332868155917774,0.0005711711325977653,-0.004484462956068373,0.005764590262417997,0.992467482035443
2017-07-20,1,0.0006173088686237669,0.0007109243501296257,-0.004484462956068373,0.009815638378475277,0.9912943663949932
2017-07-24,1,0.0008241404465337806,0.000954437465619749,-0.004484462956068373,0.009815638378475277,0.99144519918966
2017-07-26,1,0.0012793510303377173,0.0014691134004656036,-0.0048191842890994525,0.00890987425740653,0.9912212305847473
2017-07-28,1,0.0013618077259212504,0.00147650071560038,-0.0048191842890994525,0.005739949370019081,0.9923082264994777
2017-08-01,1,0.0009423097341599688,0.0009569269191630256,-0.005664279049124284,0.00890987425740653,0.9912655221374183
2017-08-03,1,0.0002986858802625349,0.00036458594873228637,-0.0048191842890994525,0.012613676005324983,0.9901908892962272
2017-08-07,1,0.0006449872971581493,0.00066493026794475,-0.0048191842890994525,0.009326013347455375,0.9909271519786284
2017-08-09,1,0.00031725442716962535,0.00037215405008853773,-0.0022177008597750085,0.011424221379090794,0.9907125004219176
2017-08-11,1,0.00018785112330690093,0.00026003013192188847,-0.0010564831703096225,0.012287505498867837,0.9901774800494547
2017-08-15,1,0.0009410477538130556,0.0009669933563128966,-0.002167600391723905,0.010899358786889565,0.990879646392088
2017-08-17,1,0.0017261229521879917,0.001823185920496339,-0.005099213427645479,0.0082385005491366,0.9912017842654387
2017-08-21,1,0.0017138621346441678,0.0018017041333084562,-0.0074936236547657725,0.008999703686067877,0.9906380832341259
2017-08-23,1,0.0014014304807269033,0.0014222227591270406,-0.006923111022639905,0.008999703686067877,0.990704917696359
2017-08-25,1,0.0007052901393045652,0.0007698068052171709,-0.004909042550270189,0.008999703686067877,0.9915588018312107
2017-08-29,1,0.0006445285583175525,0.0007463042564886436,-0.004466071270985159,0.00761163608350332,0.9924310234206578
2017-08-31,1,0.002180848555054545,0.002280545735959765,-0.004466071270985159,0.00761163608350332,0.9932426285714034
2017-09-05,1,0.0018914255091912553,0.001937078870622682,-0.005110065741932516,0.00761163608350332,0.9928943128797502
2017-09-07,1,0.002008368034250798,0.0020553700665205447,-0.005110065741932516,0.0075365115189570285,0.9929526641079072
2017-09-11,1,0.002616021998416252,0.0027383391268704003,-0.005110065741932516,0.0007170320134936461,0.9931305819829118
2017-09-13,1,0.0019012077684475669,0.0019237935411401481,-0.0042777038450869664,0.005581862612710317,0.9937061250787121
2017-09-15,1,0.0013998853114629319,0.0014023956391818345,-0.0031702826377028055,0.005581862612710317,0.9946607684070544
2017-09-19,1,0.000956364234661899,0.0010347519493013675,-0.002600278760394463,0.005581862612710317,0.9949331422335833
2017-09-21,1,0.0009155561668958989,0.0009930132130901593,-0.002600278760394463,0.00478122367758267,0.9949809415921839
2017-09-25,1,0.0007734202003669224,0.0008777112744041515,-0.002600278760394463,0.005653198744898129,0.9948325558095221
2017-09-27,1,0.001119504821404146,0.0011270768974171023,-0.002600278760394463,0.005653198744898129,0.9941989780386181
2017-09-29,1,0.0015091514544744952,0.0015865429396494583,-0.0041534074513913145,0.005653198744898129,0.9934460217175711
2017-10-03,1,0.0011664644620575427,0.0012071720394750856,-0.0028477384703146226,0.009137163082193383,0.9926369114815892
2017-10-05,1,0.0013743942354119342,0.0014441194892528006,-0.004220716288253584,0.00626193586458498,0.9920313882860715
2017-10-09,1,0.002285585816002274,0.002608085135109633,-0.00837914168141636,0.00626193586458498,0.9911205027232317
2017-10-11,1,0.0029115697619450463,0.0033244218719949313,-0.00837914168141636,0.009177720136231554,0.9906497348772471
2017-10-13,1,0.0032379173472418263,0.0037340042854464577,-0.00837914168141636,0.011433333015012313,0.9903498617649545
2017-10-17,1,0.0031791917728681333,0.0035957739767261943,-0.00837914168141636,0.011433333015012313,0.9900314422394165
2017-10-19,1,0.002424353748758977,0.0027231269475683382,-0.008692433480883367,0.01207418202106949,0.9888448873571979
2017-10-23,1,0.0033555146107672154,0.003847157254014082,-0.008692433480883367,0.012556339258834343,0.9887791433604943
2017-10-25,1,0.002354011732912502,0.0026848521465637877,-0.005743682209571456,0.012556339258834343,0.9891783235849746
2017-10-27,1,0.0018467300734235702,0.002062008436240022,-0.004051452843310897,0.012556339258834343,0.989651024439574
2017-10-31,1,0.0018868038144093265,0.002031013178058562,-0.004051452843310897,0.010521950337817594,0.9907612785134114
2017-11-02,1,0.0010957000563479571,0.0011310242253579931,-0.0028852239717214695,0.012288532413382602,0.9907676330531732
2017-11-06,1,0.0007135994622849925,0.0007162967532560055,-0.0013070504106537874,0.012869389051634848,0.9900688221070899
2017-11-08,1,0.001067234155119928,0.0011006816928869293,-0.0013070504106537874,0.013725625864041224,0.9882856196785874
2017-11-10,1,0.001290607411259452,0.0013139653771096576,-0.0028852239717214695,0.012869389051634848,0.9885983592035327
2017-11-14,1,0.0022328800066709637,0.0024023001145415694,-0.0037742615136312006,0.012869389051634848,0.9879890484355046
2017-11-16,1,0.0014159223582605593,0.0014354806649274784,-0.0028852239717214695,0.011023488875546002,0.9889903215844331
2017-11-20,1,0.0017469773386333994,0.0018065118050663534,-0.0028852239717214695,0.010100269158538728,0.9896236977982692
2017-11-22,1,0.0010938160887804813,0.0011387523793222496,-0.0022556744924012175,0.010100269158538728,0.9889311569972065
2017-11-27,1,0.0013009821494948382,0.0013432593425919308,-0.0022556744924012175,0.011023488875546002,0.9888298466491722
2017-11-29,1,0.0008129271528969817,0.0009398563820031088,-0.002099645961500165,0.011046321555455457,0.9882506271446915
