JNU-Tangyin/eata/results/Batch4_SP500/Batch4_SP500-AWK.csv
Date,Action,Predicted_Q25,Predicted_Q75,Actual_Q25,Actual_Q75,RL_Reward
2010-12-14,0,0.0,0.00023491061750667303,-0.00588407684952422,0.008636794393751597,0.9928897901894607
2010-12-16,1,0.0004273565399340977,0.0004314678799248762,-0.00588407684952422,0.008636794393751597,0.9926932268625303
2010-12-20,1,0.00018013191247751918,0.00021982640788618222,-0.005980396171359384,0.008108357211988411,0.991980764183983
2010-12-22,1,0.0002186786686765348,0.0002487098826948718,-0.00588407684952422,0.008108357211988411,0.9922347673574339
2010-12-27,1,8.924213997446064e-05,0.0003175612810364932,-0.00588407684952422,0.008636794393751597,0.9920461732621985
2010-12-29,1,0.0019632001441615412,0.0020906443838651085,-0.005980396171359384,0.007949076470366115,0.9918981567924431
2010-12-31,1,0.0013264053075419556,0.001397478864935455,-0.005968261724446621,0.007949076470366115,0.9915885109872796
2011-01-04,1,0.0016208545975039514,0.0016892795405894024,-0.005968261724446621,0.007949076470366115,0.991038576976292
2011-01-06,1,0.0001468919977310452,0.00030724085169226805,-0.003515985071229078,0.009426841970315958,0.9906927399710498
2011-01-10,1,0.0008528177698182949,0.0009121924271326474,-0.003515985071229078,0.007949076470366115,0.9916290237243853
2011-01-12,1,0.0005593776328239133,0.0006769255686445256,-0.0029872457325662806,0.006926773435758305,0.9918951474936883
2011-01-14,1,0.0007818932666509064,0.0008927954853536079,-0.0029872457325662806,0.006926773435758305,0.9917240426912097
2011-01-19,1,0.0007366632553194944,0.0007672392787306856,-0.0026534445800381517,0.008280317814008726,0.9923703234070745
2011-01-21,1,0.0006800599421156961,0.000768951706987881,-0.0017572859139823142,0.01052853424842351,0.9917613330268535
2011-01-25,1,0.001648868700737494,0.001720632933047173,-0.0031246727374588394,0.008280317814008726,0.9917337548711366
2011-01-27,1,0.0016960655579852828,0.0018021212774536163,-0.0031246727374588394,0.010177273760195796,0.9915304879729656
2011-01-31,0,0.0,0.0,-0.0031246727374588394,0.01141138598837965,0.991174065463492
2011-02-02,1,0.0007991754840523909,0.0008422662272224231,-0.0031246727374588394,0.01141138598837965,0.9913822661285714
2011-02-04,1,0.001428725912971563,0.0014726902740288522,-0.004409627661791218,0.010177273760195796,0.9912538733250064
2011-02-08,1,0.0011113257533974632,0.0011179971723785228,-0.0031246727374588394,0.010177273760195796,0.991213221939653
2011-02-10,1,0.0011092889407792344,0.0011347316214238932,-0.004706842144035923,0.010177273760195796,0.9907292657183796
2011-02-14,1,0.0016158584955973478,0.001707687822093593,-0.010490019514553294,0.009009943870450092,0.9905621496794524
2011-02-16,1,0.00197965735960597,0.0021292157616694986,-0.010490019514553294,0.008451884208689428,0.9905611750936001
2011-02-18,1,0.002362247404103872,0.002537391280717685,-0.010490019514553294,0.008451884208689428,0.9905308127963793
2011-02-23,1,0.0016999129167880839,0.0017809389679396205,-0.0058420452533757255,0.008451884208689428,0.9912643331462322
2011-02-25,1,0.0016764576300719114,0.0017642821708114815,-0.003288018493404146,0.008451884208689428,0.9918598819775744
2011-03-01,1,0.0018490472144245037,0.0019744400634235776,-0.003288018493404146,0.00710511236456869,0.9922210362998716
2011-03-03,1,0.0025412141916213173,0.002747495122917727,-0.003288018493404146,0.006306747135142692,0.9927620190682238
2011-03-07,1,0.0017550902260302236,0.001852878736391205,-0.0012743305049172995,0.0071811241314044694,0.9934879143895815
2011-03-09,1,0.0016628130699028168,0.0017280036614322838,-0.0015181512737876411,0.007328436909663672,0.993341010068307
2011-03-11,0,0.0,0.0,-0.00296825572592452,0.007328436909663672,0.9934421816529293
2011-03-15,0,0.0,0.0,-0.003316828498791924,0.007328436909663672,0.993459696327866
2011-03-17,1,0.029343397975357913,0.035687362900926334,-0.00296825572592452,0.009371236940289136,0.9708511241140443
2011-03-21,1,0.0008592612001625541,0.0009595891249383115,-0.003316828498791924,0.009371236940289136,0.9931958993423821
2011-03-23,1,0.0006852252251642903,0.0007082980071720204,-0.003316828498791924,0.009371236940289136,0.9932266344316807
2011-03-25,1,0.0007981702369063773,0.000853031389791448,-0.004275052056839613,0.007375879810591077,0.9935290347333473
2011-03-29,1,0.000803566941052617,0.0008348255417362921,-0.003316828498791924,0.009787898802604302,0.9930848295216392
2011-03-31,1,0.0016454867116312269,0.0017687999179420667,-0.003316828498791924,0.009371236940289136,0.993404743080635
2011-04-04,1,0.0017061312922322268,0.0018031137939608498,-0.003316828498791924,0.007477946128646634,0.9937565724984664
2011-04-06,1,0.0021507034835943238,0.0023357743622194876,-0.004726743123719906,0.00656796918270154,0.9935833061299668
2011-04-08,1,0.0018509536084900485,0.0019850736589862522,-0.004726743123719906,0.007477946128646634,0.9935701063560686
2011-04-12,1,0.0003660572386200836,0.00048416393968369047,-0.0008437539290602407,0.009990794298051952,0.9913126474098835
2011-04-14,1,0.0009557269150580282,0.0010069644374558905,-0.004816495914202934,0.007614490841567408,0.9915604041995584
2011-04-18,1,0.0009395699750236975,0.0009822393198923123,-0.004816495914202934,0.004945869253430586,0.9914883702937359
2011-04-20,1,0.0012256056129699168,0.001238952904593648,-0.004816495914202934,0.007793880105680669,0.9907860529528344
2011-04-25,1,0.0005915706256834252,0.0006812574939562145,-0.005101479463238881,0.007793880105680669,0.9902950526855117
2011-04-27,1,0.0017930392366871327,0.0018881033191182586,-0.005101479463238881,0.0057997155615108365,0.9903520365442644
2011-04-29,1,0.001964811297187175,0.0020699753804310724,-0.005101479463238881,0.004709430678664282,0.9903669520148226
2011-05-03,1,0.0017936537422168224,0.0018536823303314735,-0.008192753459129913,0.005765352911101934,0.9895645420000752
2011-05-05,1,0.0011652002827108432,0.0011964712476770453,-0.011727051434502485,0.005765352911101934,0.9892318470795808
2011-05-09,1,0.001681945906083011,0.0017291587464924154,-0.011727051434502485,0.004162032749663506,0.9890988444720856
2011-05-11,1,0.00175141274271998,0.0018222184615057022,-0.009573496274493547,0.0027137061689569927,0.9916438868011119
2011-05-13,1,0.001469144129147578,0.0015206669489449516,-0.00797661965104784,0.004162032749663506,0.9920795594338357
2011-05-17,1,0.00024163593147356427,0.0003671271908878378,-0.00797661965104784,0.005765352911101934,0.9923178567660176
2011-05-19,1,0.0010220762889618618,0.0010452608128154266,-0.00797661965104784,0.004364108674020908,0.992447474004426
2011-05-23,1,0.0007214842851027118,0.0007610269019210248,-0.006725614258725419,0.0051962230690221515,0.9929700219609537
2011-05-25,1,0.0011564867626782647,0.0011827111500461224,-0.006725614258725419,0.004016824654680888,0.9939445958461505
2011-05-27,1,0.0013500424382897726,0.0013696473854361564,-0.006725614258725419,0.004016824654680888,0.9936657476291377
2011-06-01,1,0.0005047939628284384,0.0006245461731545054,-0.005939454334143602,0.005317424250535631,0.9937912453033334
2011-06-03,0,-0.0001589379387434668,2.436940754350957e-05,-0.003240565183710504,0.006978587443049398,0.9930830228944678
2011-06-07,-1,-0.0006668837365791404,-0.0004237339773964574,-0.003240565183710504,0.006978587443049398,0.9929921900091857
2011-06-09,-1,-0.0007465079957223067,-0.0005197063731797683,-0.00213122520397449,0.006978587443049398,0.9930186711195674
2011-06-13,-1,-0.0009290483272016531,-0.0006429244192552399,-0.003973755145732889,0.005462837206928348,0.9926394333542216
2011-06-15,-1,-0.0010470851561433835,-0.0007486136287983576,-0.003973755145732889,0.004852908182769061,0.9930974911940346
2011-06-17,-1,-0.0003759106366125159,-0.00017843282450427872,-0.005913339589107781,0.004261314327955891,0.9929643792756009
2011-06-21,0,0.0,0.0,-0.005913339589107781,0.0042571902436118175,0.9928565953903241
2011-06-23,0,0.0,0.0,-0.006586094595747275,0.004840535929736841,0.9922408090789803
2011-06-27,0,0.0,0.0,-0.008042180145118092,0.004840535929736841,0.9918217455380459
2011-06-29,0,0.0,0.0,-0.008794525194990549,0.0038110175733975216,0.9916390342246612
2011-07-01,0,0.0,0.0,-0.008794525194990549,0.0035041080255892327,0.9927945176397388
2011-07-06,0,0.0,0.0,-0.009054366675789608,0.0038110175733975216,0.991393056319791
2011-07-08,0,0.0,0.0,-0.010464820381864241,0.0035041080255892327,0.9901034534098758
2011-07-12,0,0.0,0.0,-0.010464820381864241,0.0038110175733975216,0.9833887147122191
2011-07-14,0,0.0,0.0,-0.013559401570105885,0.0042571902436118175,0.9791396461141116
2011-07-18,0,0.0,0.0,-0.011540652913520567,0.006313910131958216,0.9780391466953589
2011-07-20,0,0.0,0.0,-0.011540652913520567,0.004062219765419325,0.9776727844572491
2011-07-22,0,0.0,0.0,-0.024108320483111303,0.0009774073638144395,0.9762157863088019
2011-07-26,0,0.0,0.0,-0.024108320483111303,0.012165025395855587,0.9756727030388741
2011-07-28,0,0.0,0.0,-0.016966148058316984,0.019237946842795194,0.9751654001024701
2011-08-01,0,0.0,0.0,-0.016966148058316984,0.019237946842795194,0.9741357694861834
2011-08-03,-1,-0.0017826264012366663,-0.001486187309041411,-0.013890050220899881,0.017066786920238983,0.9756296801336317
2011-08-05,-1,-0.003199731356600337,-0.002720071468767819,-0.010154747659055063,0.017066786920238983,0.9767465918283644
2011-08-09,-1,-0.002431361808622157,-0.0020488160851609653,-0.010154747659055063,0.016351398319012132,0.9830151769866764
2011-08-11,-1,-0.0007134477966915628,-0.0005495048295211509,-0.010154747659055063,0.014858811303998087,0.9860207546548061
2011-08-15,-1,-0.0001245023346429984,-1.9596710694155524e-05,-0.009021319778470113,0.011755454908554723,0.9871498937784939
2011-08-17,1,0.00024528646251217455,0.00031702764722372297,-0.006354988985650702,0.014858811303998087,0.9863816507820825
2011-08-19,-1,-0.0022440904716005614,-0.0018897787126519313,-0.0054419125248255235,0.014858811303998087,0.987999746500528
2011-08-23,-1,-0.000937551191359054,-0.0007707064223852313,-0.0054419125248255235,0.014858811303998087,0.9882126874338318
2011-08-25,-1,-0.00043670645221446637,-0.00034807146934912427,-0.005783966126292832,0.011755454908554723,0.9892974999291776
2011-08-29,1,0.0027467704332722388,0.003069008329494876,-0.005783966126292832,0.008812876730103298,0.9901449844313973
2011-08-31,1,0.0020089203773764265,0.002213315204278064,-0.006615400034009005,0.008812876730103298,0.9893644078031356
2011-09-02,1,0.0014917867550677587,0.0015917818924643986,-0.007775263855763491,0.008812876730103298,0.988024303900259
2011-09-07,1,0.0015471048837280457,0.001674830850270665,-0.007399846472518077,0.007757057132694133,0.9886403711014483
2011-09-09,1,0.0005188011258180517,0.0005324483596231834,-0.006615400034009005,0.008662235115372115,0.9896126264961906
2011-09-13,1,0.0007532691518853483,0.0007694417807385045,-0.006615400034009005,0.008662235115372115,0.9891370356570675
2011-09-15,1,0.0012757404643410203,0.0013579533445836267,-0.007399846472518077,0.008291972046996958,0.9887889151221076
2011-09-19,1,0.001570693817167692,0.0017413108794141585,-0.007399846472518077,0.01038299560882678,0.988752401098603
2011-09-21,1,0.0022992901648831617,0.0025748529170378934,-0.007399846472518077,0.009483710717234205,0.9893037069803989
2011-09-23,1,0.001680040927310765,0.0018708402163990858,-0.005293181780760442,0.009483710717234205,0.9898636492123837
2011-09-27,1,0.002231545077416801,0.0024925723835574256,-0.006399121820292519,0.009483710717234205,0.9885246480323627
2011-09-29,1,0.002079261954983389,0.0023246853875000563,-0.006369720885894728,0.01038299560882678,0.9880026839050688
2011-10-03,1,0.0009843962971374295,0.0010814682625066704,-0.00347332834281636,0.01038299560882678,0.9897179668010032
2011-10-05,1,0.0007536518929010671,0.0008067891208007784,-0.00347332834281636,0.01038299560882678,0.9886914039150271
2011-10-07,1,0.00037510823097980774,0.0003980525195315195,-0.004126079510023559,0.011489777336623664,0.9872819017366614
2011-10-11,1,0.0012840303072731763,0.0014080003326488821,-0.004126079510023559,0.011489777336623664,0.9877006102709643
2011-10-13,0,0.0,0.0,-0.004126079510023559,0.011049586841139897,0.988221758312391
2011-10-17,0,0.0,0.0,-0.007459005646535191,0.010551669261809537,0.9884690670569103
2011-10-19,0,0.0,0.0,-0.008497076823986946,0.010551669261809537,0.9882844861174155
2011-10-21,0,0.0,0.0,-0.008497076823986946,0.010551669261809537,0.9880275688801969
2011-10-25,0,0.0,0.0,-0.007459005646535191,0.005669047148031374,0.9899756393623682
2011-10-27,0,0.0,0.0,-0.008263789989896438,0.003515435383762509,0.990811542672322
2011-10-31,0,0.0,0.0,-0.008263789989896438,0.005669047148031374,0.9897087915101864
2011-11-02,0,0.0,0.0,-0.006753659805295727,0.01096718642126684,0.9902142330262176
2011-11-04,0,0.0,0.0,-0.005830197203305718,0.008389598841227325,0.9919410941502271
2011-11-08,0,0.0,0.0,-0.006753659805295727,0.005063693936936936,0.9920362676618055
2011-11-10,0,0.0,0.0,-0.005830197203305718,0.0038173679632461147,0.9928474269551495
2011-11-14,0,0.0,0.0,-0.003811163585151286,0.0038173679632461147,0.9930523086561356
2011-11-16,0,-4.575927157552263e-05,2.418535369805934e-05,-0.003811163585151286,0.004678049954371732,0.9922739327369301
2011-11-18,1,0.0001902101080894276,0.0003263359785319633,-0.003811163585151286,0.008389598841227325,0.9917360068053075
2011-11-22,1,0.00019618460515880904,0.00035294643202096846,-0.0024968279509907905,0.011351195072899379,0.9908301872758817
2011-11-25,0,-9.635475292327596e-05,1.517770578405176e-05,-0.002012013256003183,0.011351195072899379,0.9909822521753989
2011-11-29,1,0.0007052300460918202,0.0009307717090185722,-0.0024968279509907905,0.011351195072899379,0.9908500177542492
2011-12-01,1,0.0009144469220277729,0.0011406402522518761,-0.004812378004860694,0.01028198033835348,0.9909422047353501
2011-12-05,1,0.0009950823488424662,0.0012232996065758461,-0.00968373790605689,0.01028198033835348,0.9904723131066101
2011-12-07,1,0.0004469586203952842,0.0005935187197480152,-0.005019135263066899,0.01028198033835348,0.9906530061566333
2011-12-09,1,0.0006496168524115932,0.0008365970232722331,-0.00968373790605689,0.01028198033835348,0.9901539484627483
2011-12-13,1,0.0005706436085479451,0.0007549843457425621,-0.00968373790605689,0.01103460798228536,0.9896133833221266
2011-12-15,1,0.000475421612739379,0.0006266882913143251,-0.005019135263066899,0.01103460798228536,0.9906752633647976
2011-12-19,-1,-0.00018203842409729632,-0.00017252207949202254,-0.002754173932563322,0.011466647245923977,0.9906075687799405
2011-12-21,1,0.0005379349543843195,0.0006289163143653204,-0.002754173932563322,0.009920193959931163,0.992038813610771
2011-12-23,1,0.0008533923859014043,0.0009944521424654679,-0.004443614759018752,0.009920193959931163,0.9917357078064579
2011-12-28,1,9.527888966447853e-05,9.875185243354829e-05,-0.002754173932563322,0.009920193959931163,0.9925512160596839
2011-12-30,-1,-0.00030031337539727714,-0.00021117734799710178,-0.00153800288339228,0.007981104359418472,0.99309977559077
2012-01-04,0,-0.00010365667454994518,6.661561030889783e-05,-0.0007731757112103914,0.007981104359418472,0.9938287293828925
2012-01-06,1,0.0004137281343183783,0.0006403388827544155,-0.001188396442058692,0.006799338759470519,0.9944732196702011
2012-01-10,-1,-0.0003099643607624937,-0.000207874547512319,7.158345320042189e-05,0.008298882451291224,0.994057136232796
2012-01-12,-1,-0.0007342102779470683,-0.0006831264694699801,-0.001188396442058692,0.006286857750514041,0.9941367937964433
2012-01-17,1,2.586331335577814e-05,0.00010569941734129198,-0.001188396442058692,0.005420259537016046,0.9950008677998791
2012-01-19,1,0.00032636929603365545,0.0005217050105288293,-0.0012816285556829137,0.005420259537016046,0.9948873114763298
2012-01-23,1,0.0005396350550592625,0.0008172838847151284,-0.005957803441197774,0.005420259537016046,0.9941259605103545
2012-01-25,1,0.0007815007335966253,0.0010961710954215693,-0.0024897805101615636,0.005420259537016046,0.9940672525428774
2012-01-27,1,0.0008627919258918387,0.0011815476310011795,-0.0055995043789750076,0.004894424284020373,0.9943965341220595
2012-01-31,1,0.0011617549970146892,0.0015059585363039454,-0.0055995043789750076,0.005420259537016046,0.993536736478309
2012-02-02,1,0.0004273890878212704,0.0005756353790182941,-0.006449042508737965,0.005420259537016046,0.99310901149139
2012-02-06,1,0.0003883078344867875,0.0005517088565856768,-0.008273245953163946,0.005339011349917104,0.9924592235812388
2012-02-08,1,0.000500362434613284,0.0007509909139623494,-0.008273245953163946,0.004984083042223992,0.9926285316129277
2012-02-10,1,0.0003476088230696371,0.0005346807648263857,-0.006449042508737965,0.004984083042223992,0.993087674082925
2012-02-14,1,0.0006556056705046064,0.000905130749935262,-0.008425058099991339,0.006332097232355415,0.9921958054102774
2012-02-16,1,0.0006875878086331523,0.0009050689904682772,-0.006449042508737965,0.004984083042223992,0.992898752817312
2012-02-21,1,0.0004163160818048575,0.0006158915865461242,-0.005226527477696845,0.004984083042223992,0.9932133369730953
2012-02-23,1,0.0011008811566207866,0.0013782818448012256,-0.005226527477696845,0.0029449584360502195,0.9939103167944303
2012-02-27,1,0.0004465006319298563,0.00048116939009357483,-0.004347383281025742,0.004945998187762094,0.9935866420005214
2012-02-29,1,0.001022021068522066,0.0010510413143422406,-0.005076645923902223,0.004540494039671212,0.9941849455236411
2012-03-02,1,0.0007422372612956099,0.0007577990011964893,-0.003009542387627853,0.004945998187762094,0.9942158272505252
2012-03-06,1,0.000581739513666843,0.0006172419321344026,-0.0022067349306723574,0.005670107795589548,0.9947078284252419
2012-03-08,1,0.0007172226798513216,0.0007926042778741833,-0.0041239970832496866,0.004540494039671212,0.9944096060005221
2012-03-12,1,0.0006929718690766522,0.0007689805357271593,-0.0082411248898267,0.0030847890141306837,0.9935264956892653
2012-03-14,1,0.000787802524912485,0.0008477539043433206,-0.005076645923902223,0.0030847890141306837,0.9941298001832363
2012-03-16,1,0.000498919618987481,0.0005991615183055998,-0.0082411248898267,0.0030847890141306837,0.9939938783525013
2012-03-20,0,-9.523610299796645e-05,9.559675043440655e-05,-0.0050757344828991895,0.00539843875503751,0.994096522441602
2012-03-22,1,0.00032449516199652254,0.000430286828719839,-0.0050757344828991895,0.008385746221718967,0.9934850329060441
2012-03-26,1,0.0005382019408094813,0.000616709282653468,-0.0082411248898267,0.008385746221718967,0.9925630733490499
2012-03-28,-1,-0.00017455101389052166,-2.9922951790151294e-05,-0.005385001249875157,0.009154597106500094,0.992146874591953
2012-03-30,1,0.00021676905920483668,0.0003392591717077676,-0.00927405458430695,0.009138842752658057,0.9918693158027155
2012-04-03,1,0.0010275942762960652,0.0010310647554686325,-0.00927405458430695,0.008385746221718967,0.9917598493276438
2012-04-05,1,0.00036111139271718864,0.00043317843212362724,-0.00688279288536759,0.008385746221718967,0.9924511437193212
2012-04-10,-1,-0.00047119542014019335,-0.0002625880793546171,-0.004247742160472414,0.008385746221718967,0.9932363120452984
2012-04-12,-1,-0.0004589331208844661,-0.00025766206991086483,-0.004247742160472414,0.009138842752658057,0.992954733541428
2012-04-16,-1,-0.0011322134072649,-0.0008510856826573599,-0.004247742160472414,0.009138842752658057,0.9927492697315542
2012-04-18,-1,-0.0009160966068020226,-0.0006475685870161811,-0.004247742160472414,0.007848195029715784,0.9931867451320707
2012-04-20,-1,-0.000977371077720893,-0.0006741151792604995,-0.006544289665925752,0.00687565190214869,0.9929110804526782
2012-04-24,-1,-0.00042013962875954463,-0.0002613804839107772,-0.0050114718291818395,0.00687565190214869,0.9936619082422955
2012-04-26,1,0.0003735987527717562,0.00041119770199348935,-0.0050114718291818395,0.0055418301902135925,0.9932294437136908
2012-04-30,1,0.00012083508630504733,0.0001708586115432496,-0.004795539133522877,0.0055418301902135925,0.9935797892049303
2012-05-02,-1,-0.00015493483793148523,-2.7107470642100606e-05,-0.005472950696595033,0.005480615003289428,0.9934107460153003
2012-05-04,-1,-0.0003969610106276177,-0.0002433048662130413,-0.005896491578948866,0.005480615003289428,0.9932868532465434
2012-05-08,-1,-0.0007826402922101915,-0.0005680613170921064,-0.005896491578948866,0.00820579238833703,0.9920309071184039
2012-05-10,-1,-0.000242137029249591,-8.63569678507293e-05,-0.007983556284087165,0.006836111564233,0.9918529357860373
2012-05-14,-1,-0.0010103641354356307,-0.0007562158209574003,-0.007983556284087165,0.006836111564233,0.9916842924113349
2012-05-16,-1,-0.0005926675236276448,-0.0004301592878789737,-0.007983556284087165,0.006836111564233,0.9912090854776894
2012-05-18,-1,-0.0010840736809046587,-0.0008719073597801033,-0.006252489557182031,0.006836111564233,0.9914755916687216
2012-05-22,-1,-0.0005702941697098418,-0.0004049875188398611,-0.007827597915943481,0.0060691592726087665,0.9918372134160375
2012-05-24,0,-2.834616381968525e-05,8.563644355234177e-05,-0.007827597915943481,0.0054777748534653265,0.9926050256286759
2012-05-29,0,-0.0001332411749699607,1.7404168106682327e-05,-0.007827597915943481,0.004878507161418351,0.9928217018728678
2012-05-31,1,3.7285568906571124e-05,0.00013865244263299944,-0.006114987047027661,0.0054777748534653265,0.9925004467007988
2012-06-04,-1,-0.0008399722182871007,-0.0006058019503048257,-0.005446684740377749,0.007360051742784472,0.9920844223261651
2012-06-06,1,0.000766166682119783,0.0007727264042689981,-0.005446684740377749,0.0054777748534653265,0.9931687299388595
2012-06-08,1,8.00070442722268e-05,0.0001516502080453205,-0.0040394873085610175,0.0054777748534653265,0.9939834149939231
2012-06-12,1,0.00020717436549850965,0.00022717846085530582,-0.0038306551516879457,0.0061019277636596946,0.9943439787938291
2012-06-14,0,0.0,0.0,-0.003050486663631855,0.006789231745758036,0.9940238561883346
2012-06-18,0,0.0,0.0,-0.0027298931848119684,0.006789231745758036,0.9944457081319337
2012-06-20,0,0.0,0.0,-0.0019210178654092724,0.007360051742784472,0.9943331149011825
2012-06-22,-1,-0.000131477636773232,-0.00010542869322266637,-0.0005681672660631752,0.007360051742784472,0.9940586734436342
2012-06-26,-1,-0.0007094898217716156,-0.0006153319972753918,-0.0014731138692514651,0.007360051742784472,0.993437612877271
2012-06-28,1,0.00021812061319407584,0.00024401260589272374,-0.0014731138692514651,0.007473921221036791,0.993423682032309
2012-07-02,0,0.0,0.0,-0.0017320955729858338,0.006754683315975854,0.9935408571062297
2012-07-05,0,0.0,0.0,-0.0014731138692514651,0.006754683315975854,0.9938962706645891
2012-07-09,1,0.000599735840829385,0.0006803254619461476,-0.0014731138692514651,0.008631016969726745,0.9916719275961077
2012-07-11,1,0.0005537711394946145,0.0006437650436700265,-0.0017320955729858338,0.008631016969726745,0.9909335570377151
2012-07-13,1,0.000817652082169111,0.0009006445281279946,-0.001973268527504894,0.008631016969726745,0.9907427605442486
2012-07-17,1,0.001041799881814384,0.0011962669521294951,-0.001973268527504894,0.008631016969726745,0.9907507723886213
2012-07-19,1,0.0009908038033085466,0.0011210588525692995,-0.0033531992633026274,0.007370275931690245,0.9906330990548772
2012-07-23,1,0.0015653112720455473,0.0017907779598409137,-0.007159436960232649,0.006687204423645399,0.9902722842763002
2012-07-25,1,0.0008562694662175633,0.0009690579285478781,-0.00696883736124127,0.006687204423645399,0.9908677849629993
2012-07-27,1,0.0014773045318900594,0.0016402247945881156,-0.00696883736124127,0.004678193924549027,0.9917408351283001
2012-07-31,1,0.001106596532311471,0.0012341939307373654,-0.006663640471676038,0.004678193924549027,0.9924061148620228
2012-08-02,1,0.0012513793139428307,0.0014095869816360504,-0.00696883736124127,0.004678193924549027,0.9917742066727938
2012-08-06,1,0.0023554647151923236,0.0026464580385887884,-0.00696883736124127,0.003721839938211636,0.9930884712471268
2012-08-08,1,0.0014565565947170967,0.0016213738863454243,-0.006663640471676038,0.004678193924549027,0.9931234653813298
2012-08-10,1,0.0017079337524455703,0.0018929767851078728,-0.007052790599165089,0.003721839938211636,0.993422752276647
2012-08-14,1,0.0019320439740462007,0.0021441779118375284,-0.007052790599165089,0.0021451516027530667,0.9933233338297628
2012-08-16,1,0.0018598261794532524,0.0020829732696750736,-0.007052790599165089,0.0019397731435807303,0.9919914926165047
2012-08-20,1,0.001578732671122427,0.0017414634414357145,-0.006334574589705332,0.0021451516027530667,0.9920146083558155
2012-08-22,1,0.0016424250006934512,0.0018213852433003198,-0.003966896418318648,0.005225584372872957,0.991808756105519
2012-08-24,1,0.0018016309535565061,0.002021725790729092,-0.003966896418318648,0.007737223332713173,0.9915590968223068
2012-08-28,1,0.001455028672855884,0.0015938376836295404,-0.006545479507074295,0.007737223332713173,0.9908421858352363
2012-08-30,1,0.0006340182046687241,0.0006481341664378115,-0.005587820334426517,0.007737223332713173,0.991348080283076
2012-09-04,1,0.0011603583391550704,0.0012344103072237332,-0.006545479507074295,0.005052073019850193,0.9915964266857166
2012-09-06,1,0.0011598189974095635,0.0012124105222838105,-0.005587820334426517,0.004611182616146106,0.9928139324701466
2012-09-10,1,0.0008291602565795788,0.0008493047533965571,-0.003557841104111707,0.004611182616146106,0.9931437065907729
2012-09-12,1,0.0008300897726281058,0.0008685102675129958,-0.005587820334426517,0.004611182616146106,0.9928079363833785
2012-09-14,-1,-0.0006137088418837907,-0.0004739013926292325,-0.005587820334426517,0.004611182616146106,0.9938351037296366
2012-09-18,1,0.00031279688423376765,0.0003217985590092367,-0.004001554893411986,0.0043383943628104655,0.9945815033857671
2012-09-20,1,0.0004923777151728868,0.000494829591374434,-0.004001554893411986,0.0035363039588360776,0.9939948496981693
2012-09-24,1,0.0010518065969433296,0.001130784034355048,-0.005931743797913768,0.0030964495213508837,0.9942972121463433
2012-09-26,1,0.00032870097451576487,0.0003542547183045214,-0.004527872665935129,0.0035363039588360776,0.9940514321953855
2012-09-28,1,0.0004844204294377223,0.0005016848880175073,-0.004527872665935129,0.0030964495213508837,0.9941720624314251
2012-10-02,1,0.00040008842177314375,0.00040778865819798534,-0.0036708946243131546,0.0023963713855556954,0.99450808753712
2012-10-04,1,0.00034657924398179984,0.0003911426563895809,-0.0036708946243131546,0.001219797156738052,0.9948165408541324
2012-10-08,1,0.000161958585566957,0.00023554324967486602,-0.0049397629906172726,0.0013619114408917226,0.9931182454160075
2012-10-10,-1,-0.0006668343145070559,-0.00045795895890414983,-0.0036708946243131546,0.0015729478094838674,0.9937467538854847
2012-10-12,-1,-0.0009417793024409468,-0.0007246247700125867,-0.002866213958923061,0.0023963713855556954,0.9940366089181732
2012-10-16,-1,-0.0004762074492856188,-0.0003516638937438481,-0.003060926351919086,0.0024584102099084572,0.9938922650848262
2012-10-18,1,0.0002479860390611064,0.00029504965449079666,-0.003060926351919086,0.0024584102099084572,0.9946180736094803
2012-10-22,-1,-0.0002296840755834256,-0.00012049673090225435,-0.0025248461544508547,0.0036973382023551536,0.9946623045380552
2012-10-24,-1,-0.0006375891127703078,-0.000455403030156332,-0.0025248461544508547,0.0036973382023551536,0.9951334010008925
2012-10-26,-1,-9.242117832978182e-05,-3.4036041519989037e-05,-0.0016408993079429968,0.005294491535852661,0.9947510431220349
2012-11-01,-1,-0.0006995741913581012,-0.0005323652575116762,-0.001152087289300566,0.0055671998088879454,0.9944639105234997
2012-11-05,-1,-0.0009213593708317553,-0.0007150905832771474,-0.001152087289300566,0.0055671998088879454,0.9942517364560121
2012-11-07,-1,-0.0011841206932382514,-0.0009440700591834165,-0.0013296741072841122,0.005019717185924569,0.9957666812293264
2012-11-09,-1,-0.001056997495546789,-0.0008262029421506467,-0.001139322588133311,0.0055671998088879454,0.995248591873484
2012-11-13,-1,-0.0012075710683202585,-0.0009344014338288431,-0.0018597042340786148,0.006441848974646487,0.9950047325456562
2012-11-15,-1,-0.0015732262323562415,-0.0012476867174637844,-0.003601104147360128,0.006441848974646487,0.9945046691292863
2012-11-19,-1,-0.001481721767830846,-0.0011667764937978926,-0.004330532623272404,0.006441848974646487,0.9940595309073964
2012-11-21,-1,-0.0007761810105855902,-0.0005800774206170984,-0.005901643756697408,0.0055671998088879454,0.9938351151779555
2012-11-26,-1,-0.0003133525336687366,-0.00018996862317022793,-0.005901643756697408,0.0055671998088879454,0.9938889874626206
2012-11-28,0,-9.655367992619546e-05,7.103143677920259e-06,-0.007303996267438046,0.004876603650722051,0.9937491363871489
2012-11-30,1,0.00011225552060352927,0.0001853662056384087,-0.007303996267438046,0.0044105010491085105,0.993569733974023
2012-12-04,-1,-0.0002287589602426659,-0.00010979925876528513,-0.007303996267438046,0.006506540502888262,0.9926579739389764
2012-12-06,-1,-0.00021248396084164677,-0.00013006529485335086,-0.007509835121637806,0.006506540502888262,0.9922010174536292
2012-12-10,1,0.0002385592973801923,0.0002715752629612123,-0.007509835121637806,0.0037905092354066786,0.9923666557117496
2012-12-12,1,0.00036275657192021273,0.00037144946252883694,-0.007509835121637806,0.005427617674135269,0.991669070496592
2012-12-14,-1,-6.084923804035628e-05,-2.5574449094891655e-05,-0.0049762347319374225,0.005427617674135269,0.9919868962497604
2012-12-18,-1,-0.00036169154015838024,-0.00024509930699313586,-0.004084608036655905,0.003440455716898017,0.9928667522704799
2012-12-20,-1,-0.00022702492326845514,-0.000182318290002974,-0.00296858326712501,0.005427617674135269,0.9929147648462175
2012-12-24,-1,-0.00031579638087398575,-0.00023260442948941856,-0.00296858326712501,0.0054383243882707814,0.9929132880685796
2012-12-27,-1,-0.0007940994466785143,-0.0006588116730558229,-0.00296858326712501,0.007264501637130493,0.9913919612060255
2012-12-31,1,0.0005462480798448066,0.0006696211172525918,-0.00296858326712501,0.007264501637130493,0.991355732413275
2013-01-03,1,0.0007975946664806179,0.0008952991764744331,-0.004040810522533453,0.0054383243882707814,0.9922265410954831
2013-01-07,1,0.00044516359718070543,0.000529583504256897,-0.004040810522533453,0.0054383243882707814,0.9925230391482208
2013-01-09,1,0.0007035931237366949,0.0008448135632751152,-0.00296858326712501,0.009729091152841075,0.9917746302135383
2013-01-11,1,0.0015104728093925965,0.0017462776410959715,-0.0036712138400583137,0.007264501637130493,0.9926358988011164
2013-01-15,1,0.000705019061194744,0.0008082900425298973,-0.0020615600369735436,0.007264501637130493,0.9928304443342431
2013-01-17,1,0.0005754945693486283,0.00065877701832217,-0.0020615600369735436,0.007264501637130493,0.9927081014836243
2013-01-22,1,0.0010409657663438307,0.0011880571667217698,-0.003849975853223993,0.007497401500059507,0.992404887050609
2013-01-24,1,0.0012976016010681265,0.0014787926687826894,-0.003849975853223993,0.009641147775315911,0.9921632814490989
2013-01-28,1,0.0004478566322501209,0.00048809167308254235,-0.003849975853223993,0.005999490067518157,0.9931626398906058
2013-01-30,1,0.001114174623403298,0.0012703888350286386,-0.003849975853223993,0.0048515761918145935,0.9940823864555139
2013-02-01,1,0.001207505975757822,0.0013933592240600872,-0.0024111059806472307,0.005999490067518157,0.9936002582126834
2013-02-05,1,0.000614401236009957,0.0006926755457841112,-0.0024111059806472307,0.005999490067518157,0.993686365067515
2013-02-07,1,0.001334605391883488,0.0014974848413503322,-0.003798219147553989,0.0048515761918145935,0.9935758656334526
2013-02-11,1,0.0004951849203573993,0.0005240920845756068,-0.004738531799449945,0.005191538842365178,0.9933340200281328
2013-02-13,1,0.0010633584955007883,0.0011511086695875977,-0.004738531799449945,0.005189686952986052,0.9934512202751847
2013-02-15,1,0.0009444294608978486,0.0010315697245470968,-0.0037341252874702907,0.0062996341654494685,0.9935038943471793
2013-02-20,1,0.001441823619878001,0.0016313315723744514,-0.002389741360619331,0.0062996341654494685,0.9940842096170366
2013-02-22,1,0.0013228511318040482,0.0014570592120209187,-0.0023464716552861957,0.005189686952986052,0.9943271006698859
2013-02-26,1,0.0011279992639170898,0.001255086938786603,-0.001632798197672928,0.0051012025955525855,0.9951826543148236
2013-02-28,1,0.0009500771677275912,0.0010336050073210276,-0.0012366115928953282,0.0062996341654494685,0.9948218624673326
2013-03-04,1,0.0017774609650366628,0.001988582079305478,-0.0023464716552861957,0.0051012025955525855,0.9955825797621747
2013-03-06,1,0.0013698749450948428,0.0015219274067824464,-0.0023464716552861957,0.0062996341654494685,0.9952473314638893
2013-03-08,1,0.0013872510558961553,0.0015241735174500817,-0.0012366115928953282,0.0062996341654494685,0.9961642554241315
2013-03-12,1,0.0008269639193458633,0.0008560452534784422,-0.0012366115928953282,0.006607205477238906,0.9956418055452256
2013-03-14,1,0.0007375759605871262,0.0007553026297795223,0.0006381438095412163,0.006607205477238906,0.9957155854160791
2013-03-18,1,0.0013184021658901258,0.0014557066763938573,0.00039500222403745654,0.006960277564166338,0.993867513792286
2013-03-20,1,0.0013356945093702945,0.0014555852420532105,-0.0026357126125303152,0.004718501063817467,0.9936440796798919
2013-03-22,1,0.0012634035411248122,0.00136863068430678,-0.004271737649437842,0.004990852445432674,0.9932185581413653
2013-03-26,1,0.0011494421108813502,0.0012298248137152987,-0.00515627645292946,0.004990852445432674,0.9926323971875389
2013-03-28,1,0.0013963062699653426,0.0014996734814236275,-0.0057388418656062826,0.004685352888770728,0.992528563526023
2013-04-02,1,0.001193215376439251,0.001267481961990919,-0.0057388418656062826,0.006137768204783343,0.9921195293925055
2013-04-04,1,0.0010614967950877358,0.0011066416582785634,-0.004974321410903334,0.006589256331957999,0.992173972660437
2013-04-08,1,0.0013823144514538614,0.0014798486451411458,-0.005651168521802075,0.004920141276704877,0.9919107725005265
2013-04-10,1,0.001556965724341323,0.0016828473606110709,-0.005939314421057887,0.004920141276704877,0.992101927323872
2013-04-12,1,0.0013811719550478917,0.0014743066858100972,-0.005939314421057887,0.004920141276704877,0.9919941309854623
2013-04-16,1,0.00142441023851327,0.0015290122065618806,-0.005651168521802075,0.004920141276704877,0.9939556512434697
2013-04-18,0,0.0,0.0,-0.005571512035335768,0.006141420274176831,0.993947779097013
2013-04-22,0,0.0,0.0,-0.0051500185148844625,0.006141420274176831,0.9943871492745603
2013-04-24,1,0.0006684204806086308,0.0007068061055072823,-0.0051500185148844625,0.006141420274176831,0.9942107998100019
2013-04-26,1,0.0007953210325498117,0.0008550518833882988,-0.00550805014599386,0.005229292902760309,0.9938909609586037
2013-04-30,1,0.0011869158720101654,0.0012848082878959895,-0.005695044157068907,0.004633143534745795,0.9935234251528479
2013-05-02,1,0.0010726001283394705,0.0011336603923066363,-0.005939314421057887,0.0036959189114116253,0.9928004830465004
2013-05-06,1,0.0008838257978404011,0.0009415117535194718,-0.007277401947797587,0.004633143534745795,0.9923990843735969
2013-05-08,1,0.0010159436810693312,0.001090171106887125,-0.0070225300746284925,0.004633143534745795,0.9922962493534063
2013-05-10,1,0.0005836119533029888,0.0006011367130887094,-0.0070225300746284925,0.004633143534745795,0.9923021656210916
2013-05-14,1,0.0010678509239510972,0.0011233590180078662,-0.0070225300746284925,0.004633143534745795,0.9920408476397314
2013-05-16,1,0.0005269204942743178,0.000563712021480021,-0.0069151925500197525,0.004633143534745795,0.9921982327952642
2013-05-20,1,0.0008135757757749337,0.0008169751917093107,-0.0069151925500197525,0.004018154749531452,0.992229187287192
2013-05-22,-1,-0.000198712731769901,-5.54910306762401e-05,-0.011533935361245688,0.004018154749531452,0.9912722767126811
2013-05-24,-1,-0.0005531614614481082,-0.00038227264738994755,-0.00686887915281366,0.004018154749531452,0.9919303714426719
2013-05-29,-1,-0.000562434992889326,-0.0004192800027013692,-0.004067093602083001,0.004745543623938428,0.9919127720496684
2013-05-31,-1,-0.0017416021784931977,-0.00143066760858488,-0.003211471119433305,0.009355971804942152,0.9916086529461988
2013-06-04,-1,-0.001802401235002225,-0.0014832757807177587,-0.003211471119433305,0.006133794889812932,0.9912395054728925
2013-06-06,-1,-0.000997841597742842,-0.0008118850560188498,-0.003211471119433305,0.006133794889812932,0.9911915340614198
2013-06-10,-1,-0.0016632689066536492,-0.0013693295176483633,-0.0022588565517716866,0.011738470861395955,0.9896727319739486
2013-06-12,-1,-0.0012150429114269107,-0.0009664219604389198,-0.0022588565517716866,0.009967232443257788,0.9901516519493123
2013-06-14,-1,-0.0005872494957652545,-0.0004333456380183794,-0.0022588565517716866,0.011738470861395955,0.9898310169609951
2013-06-18,-1,-0.0004338208826460271,-0.0003087900486576069,-0.004391769438308037,0.011738470861395955,0.989334372562132
2013-06-20,-1,-0.002207831119154015,-0.0018444826369818294,-0.0022588565517716866,0.011738470861395955,0.9901152038158543
2013-06-24,-1,-0.0018866774970232615,-0.0015810313732202172,0.001111897839522921,0.012487667669350527,0.9890973106125001
2013-06-26,-1,-0.0014648847156482347,-0.00120024480757278,-0.0025511220583210163,0.011222684753034102,0.9895379217699095
2013-06-28,-1,-0.000794381291116236,-0.0005888891383821963,-0.0025511220583210163,0.009528196091124255,0.9908602672231367
2013-07-02,-1,-0.001533835109210388,-0.0012821249759385422,-0.0015727381382817512,0.009528196091124255,0.991591307046346
2013-07-05,-1,-0.0012903747994017075,-0.0010666455635058758,-0.0014463292836905,0.009528196091124255,0.9917054776402364
2013-07-09,-1,-0.0001435426654480679,-6.660874005030197e-05,-0.005885893342000022,0.00671085019829877,0.9926961876245387
2013-07-11,0,-6.410181970737855e-05,1.4697809031656106e-05,-0.005885893342000022,0.00539424493980835,0.9930250144923881
2013-07-15,1,0.0009107116004987323,0.0009627641318442318,-0.008699537378253845,0.00539424493980835,0.9929114803179039
2013-07-17,1,0.0003109705167098322,0.0003223450121613487,-0.008699537378253845,0.00539424493980835,0.9928442838834137
2013-07-19,1,0.0005614559852743439,0.0005663008192708942,-0.00888083165679503,0.0028812852977036715,0.9921154044372525
2013-07-23,1,0.0011215585924431936,0.001187518691695566,-0.00888083165679503,0.001687084049204812,0.9924570911051942
2013-07-25,1,0.001057129077183165,0.001156415857200917,-0.008699537378253845,0.001687084049204812,0.9923810429872382
2013-07-29,1,0.0008323384773537792,0.0008835402554490154,-0.008699537378253845,0.0017544525913040013,0.9918818763773679
2013-07-31,1,0.000583421738314378,0.000607056318935529,-0.008611267097719914,0.0020916664602547846,0.9923098370225122
2013-08-02,1,0.0007285643462905302,0.0007614189553470402,-0.008753398655265409,0.0017453182430672042,0.9920089778944862
2013-08-06,1,3.770696443376211e-05,9.522134914311724e-05,-0.009710649269201533,0.0017453182430672042,0.991834944632159
2013-08-08,1,0.000320549920632058,0.0003358459490079792,-0.010872519555567763,0.001526886618802729,0.9912767908378971
2013-08-12,1,0.0005872197785782646,0.0006229876502131784,-0.010872519555567763,0.0017453182430672042,0.9916084472026547
2013-08-14,0,-2.9918426090680907e-05,8.660368993321766e-06,-0.010400818771383746,0.0017453182430672042,0.9917562225195041
2013-08-16,-1,-0.0007252457575725294,-0.0006107890602712627,-0.009012708300001875,0.0017453182430672042,0.9928181954635871
2013-08-20,-1,-0.0006653400415373805,-0.0005807534189509739,-0.009012708300001875,0.00436540330092011,0.9910957765397655
2013-08-22,1,0.00010801512796035581,0.00010887749340497953,-0.010400818771383746,0.002397312766511471,0.9909319296899188
2013-08-26,-1,-0.00012518862721199643,-0.00010003193594503249,-0.010400818771383746,0.0051002083240653945,0.9905796313872509
2013-08-28,1,0.0002848088332095828,0.0003335906545907511,-0.010400818771383746,0.009040222070625412,0.9901787108880958
2013-08-30,-1,-0.0003783878643316432,-0.00035829649572995977,-0.008066482093870129,0.009441700778582692,0.9905939111452425
2013-09-04,-1,-0.0011840223803024233,-0.0010781615140121848,-0.005317516970288676,0.009441700778582692,0.9913819074901534
2013-09-06,-1,-0.0014697607402398808,-0.0013363573202277435,-0.005317516970288676,0.009441700778582692,0.9908160790644743
2013-09-10,-1,-0.001006939358850901,-0.0009018610176473308,-0.0062109850449121005,0.009040222070625412,0.9912937240799953
2013-09-12,-1,-0.0019467951509238536,-0.001722588524283978,-0.004414929305867815,0.009814379519375676,0.9904340386317143
2013-09-16,-1,-0.002196862577918667,-0.0019251497365683514,-0.005317516970288676,0.009814379519375676,0.9900820230901854
2013-09-18,-1,-0.00019961563034366918,-0.00016605697540089605,-0.006672639938579544,0.009488372300320158,0.9912464080888668
2013-09-20,-1,-0.0009969393068197763,-0.0009073255036715755,-0.004587931674426028,0.009814379519375676,0.9911162282454606
2013-09-24,1,0.0001515282141731486,0.00021333152231743763,-0.004587931674426028,0.009342931689432378,0.9916478786503432
2013-09-26,1,0.0001992450618641813,0.00024174266922368954,-0.0066179653119245304,0.008458115330426803,0.9916153617578358
2013-09-30,1,0.0005241123497771172,0.0006213268867243022,-0.005369372910387243,0.008458115330426803,0.9917680401442807
2013-10-02,1,0.000711793883282012,0.0008386220811534577,-0.005369372910387243,0.008458115330426803,0.9917540344372741
2013-10-04,1,0.00011442121092969214,0.00019295186255075173,-0.002321420903935158,0.008458115330426803,0.9926280206649648
2013-10-08,-1,-0.00029982023868670106,-0.0002779420485265525,-0.001063849081319836,0.008458115330426803,0.9924759084601996
2013-10-10,1,0.0010714333333134202,0.00129234020266707,-0.0017183150569939343,0.005821097916402906,0.9940565605664963
2013-10-14,1,0.00035152409515749915,0.0004364977839134644,-0.0017183150569939343,0.0061393208709107725,0.9933251558000196
2013-10-16,1,1.362002055587251e-05,2.0038564350212148e-05,-0.002786709325110422,0.005821097916402906,0.9935517033628235
2013-10-18,1,0.0004843756654584854,0.0005297573853423072,-0.002786709325110422,0.0061393208709107725,0.994031396918054
2013-10-22,1,0.0004560962542391654,0.00047033332918232454,-0.004110136500160271,0.005821097916402906,0.9939209626893988
2013-10-24,1,7.268161239883152e-06,7.770480917258804e-05,-0.004110136500160271,0.005821097916402906,0.9937554022084399
2013-10-28,1,0.0006627225045982474,0.0006868234394080868,-0.004110136500160271,0.005440726177854461,0.9941420311770566
2013-10-30,1,0.0006996190248219297,0.0007101385979879431,-0.005433282953019891,0.005821097916402906,0.9938380694800402
2013-11-01,1,0.000901427090016521,0.0009724274116126626,-0.006776668761284912,0.005821097916402906,0.9934591274549648
2013-11-05,1,0.0015920754248054966,0.001780952847317836,-0.007390267175288248,0.0052586524330586575,0.9932801276648532
2013-11-07,1,0.001540285545181621,0.0017255990146285297,-0.008922467476101984,0.005146587932197933,0.9927990030182434
2013-11-11,1,0.00048535085242578735,0.0005290507838713049,-0.007390267175288248,0.003054043426890528,0.9936359385019417
2013-11-13,-1,-0.0002675743393530416,-0.00013104090162083308,-0.007485764271606763,0.005146587932197933,0.993512829949046
2013-11-15,1,0.0008558419686867421,0.00089121673897737,-0.007485764271606763,0.0027555120826069012,0.9937854893191419
2013-11-19,1,0.0007155303893450517,0.0007896893152180332,-0.005637815757687669,0.005146587932197933,0.9933737588877425
2013-11-21,-1,-0.0006665726224211224,-0.0005016310716153524,-0.004871368724081582,0.005146587932197933,0.9939334578187294
2013-11-25,-1,-0.0002964688715894031,-0.00019033043013929886,-0.004871368724081582,0.005444679024998624,0.9937950250423097
2013-11-27,1,0.0004243492077957655,0.00046365102274580316,-0.004291504476267733,0.004220096305166617,0.9941974387267926
2013-12-02,1,0.0002597955161519605,0.00029543754268831433,-0.003942435351445111,0.004311715732277431,0.9945534567950381
2013-12-04,1,0.0005161070270451234,0.0006410685111430404,-0.003942435351445111,0.004311715732277431,0.9940628203548707
2013-12-06,-1,-0.00019600339007512366,-0.0001852476690485697,-0.0038638143729348784,0.004709053955054745,0.9942517116334866
2013-12-10,-1,-0.00015733038107207094,-0.000131525065970447,-0.00252011948753834,0.004709053955054745,0.9945253457482193
2013-12-12,1,0.00022653295832712202,0.0003483800159436585,-0.00252011948753834,0.004709053955054745,0.9948072641815542
2013-12-16,1,0.00016083933514656872,0.0002507992108061129,-0.003129336047181388,0.004709053955054745,0.9946334800771137
2013-12-18,1,0.001180922651543744,0.0014077413326479306,-0.003129336047181388,0.0018993325799083857,0.9953099290102652
2013-12-20,1,0.0007399145579183803,0.0008900042040289634,-0.00252011948753834,0.0056718429998877055,0.9952522509487112
2013-12-24,1,0.0012066782349640062,0.0014410845369567278,-0.003129336047181388,0.00442571677324366,0.9950846760889558
2013-12-27,1,0.0008519612715250458,0.001001351060602345,-0.00397013801715408,0.00442571677324366,0.9948774295181967
2013-12-31,1,0.001128211208144391,0.0013245962041484927,-0.00397013801715408,0.0056718429998877055,0.9942859437747527
2014-01-03,1,0.0005712010436930914,0.0007038256640971611,-0.00397013801715408,0.0056718429998877055,0.9949371039282205
2014-01-07,1,0.0005247562712663075,0.0006144321556974103,-0.0056825040773360565,0.004443859828288713,0.9941862693027725
2014-01-09,-1,-7.051584009438755e-05,-4.092158679282426e-05,-0.0056825040773360565,0.0064657432230313455,0.9929486801275366
2014-01-13,-1,-0.00027874379967103867,-0.0002122375020234127,-0.004612559805759102,0.0064657432230313455,0.9933348889708008
2014-01-15,-1,-5.07876990183068e-05,-4.794673049382505e-05,-0.0007144177135232725,0.008144269566734768,0.9927315202822419
2014-01-17,1,6.389655566356452e-05,6.799019574789129e-05,-0.0005593953427891951,0.008144269566734768,0.9929741394487234
2014-01-22,1,0.000696358926195486,0.0007954004913677103,-0.001762705405694667,0.009017969700670444,0.9934306773175008
2014-01-24,-1,-0.00013513492696908447,-7.857700736583765e-05,-0.001762705405694667,0.009017969700670444,0.9928417032468445
2014-01-28,-1,-0.000752341386362066,-0.0005760391072721009,-0.0011419936767294264,0.009017969700670444,0.9928722956387024
2014-01-30,-1,-0.00034151675706793746,-0.000192609055912238,-0.0011419936767294264,0.009017969700670444,0.9927651025661558
2014-02-03,-1,-0.0002827909746410488,-0.0001754961065097282,-0.0011419936767294264,0.009017969700670444,0.9920291219080959
2014-02-05,-1,-0.0019407791435366822,-0.0015973582627139965,-5.982807712972754e-05,0.009017969700670444,0.9924168490650874
2014-02-07,-1,-0.0008458828514524858,-0.0006274598898986158,-0.00039808091652294183,0.005386657946892172,0.9942550319841796
2014-02-11,1,0.0005298504176599822,0.0005653656390484062,-0.0011419936767294264,0.005386657946892172,0.994043390882694
2014-02-13,1,0.000554665990121742,0.0005802838174830665,-0.0011419936767294264,0.007830546406442502,0.9936044854814532
2014-02-18,1,0.0009007883581562682,0.0009691012862042673,-0.002039846456449082,0.008377264786596367,0.9928612451267095
2014-02-20,1,0.0013401184390812223,0.001477707121658923,-0.006433891357028045,0.007430250417347589,0.9924336648309551
2014-02-24,1,0.0010633567834266297,0.001176292918931983,-0.0034155547985960056,0.00822187531759303,0.9926490285524483
2014-02-26,1,0.0010867434352994406,0.001206526782712751,-0.006534544217623972,0.00822187531759303,0.9919248842593308
2014-02-28,1,0.0014202712458438076,0.001531799088614714,-0.006534544217623972,0.00822187531759303,0.9922436695266229
2014-03-04,1,0.0007515328197350056,0.0007569954074633688,-0.005356457542055703,0.00822187531759303,0.9927485286869414
2014-03-06,1,0.0011631681654689459,0.0012768258851111158,-0.005356457542055703,0.00822187531759303,0.9926641671831988
2014-03-10,1,0.0009679660703927082,0.0010288430695671558,-0.005922121368249211,0.00822187531759303,0.9920898813659208
2014-03-12,1,0.0008642262474323067,0.000907188593688577,-0.005356457542055703,0.007972994605840313,0.9929894380047112
2014-03-14,1,0.0018968068137036422,0.002110102142918163,-0.005356457542055703,0.0057786073556819065,0.9940360119548315
2014-03-18,1,0.00197185718326166,0.0022198027411492773,-0.0036206874255211114,0.0055485210229292495,0.9945367256096165
2014-03-20,1,0.001151299514927381,0.0012715871363024333,-0.002758819334142086,0.0057786073556819065,0.9949263559950272
2014-03-24,1,0.0016551920368462932,0.0018659116935607432,-0.002758819334142086,0.0055485210229292495,0.9951698037934823
2014-03-26,1,0.0011510631500763814,0.0013067838295439172,-0.0022417764455721404,0.0055485210229292495,0.9957518229044335
2014-03-28,1,0.0016612256592931235,0.0018767917455426756,-0.0022417764455721404,0.0055485210229292495,0.9961199238768098
2014-04-01,1,0.0017921680194912686,0.0020509218928044613,-0.003114120126053486,0.004976990671626286,0.9955401657566222
2014-04-03,1,0.00199443745419361,0.0022746989634017216,-0.003114120126053486,0.004976990671626286,0.9951310924549841
2014-04-07,1,0.0018013538124376977,0.0020484020135884255,-0.003114120126053486,0.004976990671626286,0.9949202421158874
2014-04-09,1,0.001717734058986261,0.001922667554156344,-0.0034574375942074036,0.005818214722757062,0.994101347290802
2014-04-11,1,0.0018199626904256098,0.0020704360388579058,-0.004668577922623519,0.005818214722757062,0.9938655510269624
2014-04-15,1,0.001607477615317116,0.0017953822967157291,-0.004668577922623519,0.006880828567870154,0.9934019062188817
2014-04-17,1,0.0012602557844435464,0.0013757640782789925,-0.0034574375942074036,0.006888689252983503,0.993560850638369
2014-04-22,1,0.001561708224842109,0.001724097938283611,-0.004998277510019441,0.006888689252983503,0.993164656159426
2014-04-24,1,0.001513731924781759,0.0016706747195170887,-0.004998277510019441,0.007478243604950439,0.9929882323482189
2014-04-28,1,0.00159797255770214,0.0017441855531619905,-0.004998277510019441,0.007211645808988613,0.9927498368285221
2014-04-30,1,0.0007213572952256335,0.0007384051508215369,-0.0028972814712012887,0.007211645808988613,0.9938305942515461
2014-05-02,1,0.000982759432393819,0.0010070774758928003,-0.004005461292772999,0.007211645808988613,0.993219460654024
2014-05-06,1,0.0006906613212037051,0.0007219533779950175,-0.003641864220060506,0.006775019616922865,0.9937012464560162
2014-05-08,1,0.0009238663603492314,0.0009332048656723443,-0.003527361003713258,0.004538592907690707,0.9942907820970429
2014-05-12,1,0.0004989345909725954,0.0005574901787404616,-0.003527361003713258,0.004538592907690707,0.9944522930293138
2014-05-14,1,0.001456605048533788,0.0015667250861627331,-0.003527361003713258,0.003780943028748778,0.994772588757714
2014-05-16,1,0.001303863123597589,0.0013721269063125584,-0.003527361003713258,0.0037600164475329596,0.9951231926942861
2014-05-20,1,0.001036450049469445,0.001079084527089883,-0.0032339833761661496,0.003780943028748778,0.9952537527063503
2014-05-22,1,0.0013005944915764718,0.0013717907531057665,-0.003647299823137488,0.0037600164475329596,0.9951713422437098
2014-05-27,1,0.0012521423278514356,0.0013219134027664082,-0.003527361003713258,0.0037600164475329596,0.9954768304598216
2014-05-29,1,0.0009780140485706143,0.0009862522599382259,-0.003527361003713258,0.0037600164475329596,0.995366903693441
2014-06-02,1,0.001304866129141119,0.0013468862023285346,-0.0032339833761661496,0.004061723930121478,0.9962844825989693
2014-06-04,1,0.0009437446618002568,0.0009611595496091605,-0.003677561915665969,0.004061723930121478,0.9955301558414348
2014-06-06,1,0.0007642389536617842,0.0008138199048136423,-0.0044994777582321,0.004061723930121478,0.9953671849090115
2014-06-10,1,0.00031871107031655375,0.00043998015485564065,-0.0033805605527342055,0.004926369736870098,0.9950755058473019
2014-06-12,1,0.00040002225528457217,0.0005076762297035113,-0.0034970979858136345,0.004926369736870098,0.9951376517281769
2014-06-16,1,0.0007878407229831533,0.0008284105094396338,-0.0042193052946165235,0.004926369736870098,0.9949808131936273
2014-06-18,1,0.0008831948277741857,0.0009327384608302536,-0.004821820115202205,0.004029422090854992,0.9950036311223535
2014-06-20,1,0.00023806793448636373,0.0003660053911249289,-0.0047335898828049765,0.004926369736870098,0.9943406886275798
2014-06-24,1,0.0007854136000150584,0.0008247322034197777,-0.0053593153007040215,0.004926369736870098,0.9940888087691869
2014-06-26,1,0.0007023222914349977,0.0007674853189340389,-0.0053593153007040215,0.004029422090854992,0.9940952173020801
2014-06-30,1,0.000384376081947369,0.000540776981858212,-0.005547342981589245,0.0029447352761440815,0.9938819089315712
2014-07-02,1,4.510559622055262e-05,0.00019536051780372318,-0.0056740125145532975,0.0029447352761440815,0.9939882613322015
2014-07-07,0,-0.0001121401308569906,4.1623776633504866e-05,-0.0056740125145532975,0.004212695969644269,0.9935164598415356
2014-07-09,1,0.0004649867211397287,0.0005215177078592253,-0.006586742430641652,0.0029447352761440815,0.993037160099882
2014-07-11,1,0.00031615318405264336,0.0003940474424935517,-0.006586742430641652,0.004212695969644269,0.9917652577748389
2014-07-15,1,0.0004303768277185126,0.00048701512496718144,-0.006586742430641652,0.00577879033498632,0.9915031517501017
2014-07-17,0,-0.0001250682859000477,9.745407363755164e-06,-0.0056740125145532975,0.0066623282800871665,0.9908654863903691
2014-07-21,1,0.0003029236910078424,0.0003947413086664204,-0.0056740125145532975,0.0066623282800871665,0.9911482449754687
2014-07-23,1,0.0007737327031848212,0.0007758800520949714,-0.005295348181019424,0.0062822345522696756,0.9914649368468198
2014-07-25,1,0.0003066238357024506,0.00038173118857821203,-0.0067234169215509496,0.0062822345522696756,0.9911712171674085
2014-07-29,1,0.0001237398548288218,0.00022893633314362516,-0.005295348181019424,0.005310341701757192,0.9918582726682958
2014-07-31,-1,-0.000707503610763845,-0.0005074702387527152,-0.004159907600286424,0.0062822345522696756,0.9917212446523307
2014-08-04,-1,-0.0012592839666868707,-0.0009860068031930058,-0.004159907600286424,0.00816866086815761,0.9917720175484914
2014-08-06,-1,-0.00140079880126604,-0.0011691096994326659,-0.0025518470837094247,0.00816866086815761,0.9922070294899132
2014-08-08,0,-6.395966374419908e-05,1.6256402190504182e-05,-0.0037816289503198692,0.005939150473719837,0.9937582927254635
2014-08-12,-1,-0.0005275021280393883,-0.000350659990818063,-0.0039755321281900015,0.0038650448431545126,0.993687748029045
2014-08-14,1,0.0006775266477955998,0.0006934197871911023,-0.005335269505640748,0.0030990533239050005,0.9941909332610142
2014-08-18,1,0.000495053605263879,0.0005696167117719675,-0.004902842880560199,0.0030990533239050005,0.9946451411516841
2014-08-20,1,0.0009804837369454442,0.0009904872513036291,-0.008184556515185593,0.00268316433422011,0.9939888138652169
2014-08-22,1,0.000590355987694283,0.0006286690567201901,-0.008409582882204569,0.003508922589490039,0.9936172320006642
2014-08-26,1,0.000642754424536288,0.000661808682955309,-0.009401590580099987,0.003508922589490039,0.9931474045147174
2014-08-28,1,0.0009575199272641354,0.0009699042669563761,-0.009401590580099987,0.00268316433422011,0.993925328355697
2014-09-02,1,0.0008848178647180906,0.0008927079321683659,-0.008524447221740297,0.001987301021116455,0.9946819303184792
2014-09-04,1,0.0008656540284968105,0.0008726899346837945,-0.008524447221740297,0.001025375784934343,0.9945254112354361
2014-09-08,1,0.0005985381598542902,0.0006359156440423123,-0.006820756421136137,0.001025375784934343,0.9947107151140573
2014-09-10,0,-0.00012307135461233536,2.3605412618739417e-06,-0.005663527372965266,0.0040771011973855945,0.9939343939583298
2014-09-12,-1,-0.00027043112064300976,-0.00013842968703172077,-0.005663527372965266,0.004997768493639478,0.9932098702094923
2014-09-16,1,3.312963097066695e-05,0.0001334142177462086,-0.006585084024555103,0.005013887033964815,0.9924657380370849
2014-09-18,-1,-0.0005061873484948902,-0.0003597387531630776,-0.00640299736890791,0.005104778527405803,0.991910538282435
2014-09-22,-1,-0.0011421673442012534,-0.0008834294432997778,-0.0034222879264885686,0.007374316577857722,0.9913288745972217
2014-09-24,-1,-0.0012602774727974058,-0.0010136924227122056,-0.0020771888174791835,0.007374316577857722,0.9915165828147041
2014-09-26,-1,-0.0013487124631879246,-0.0010894500404849204,-0.0020771888174791835,0.00950399007549552,0.9906465326485066
2014-09-30,-1,-0.0011250912528668342,-0.0009150904532138974,-0.0024076145497995967,0.010553688013619994,0.9900705177286928
2014-10-02,-1,-0.0016158372459944151,-0.0013278462288629324,-0.0027352763631327773,0.012958619033729454,0.988993990599486
2014-10-06,-1,-0.0013373905603022112,-0.0011145586218464238,-0.0014210542150551227,0.012958619033729454,0.9892139993402151
2014-10-08,1,0.00027279802563738673,0.00029891963458094153,-0.0027352763631327773,0.010040913162678992,0.9903622979914065
2014-10-10,1,0.00033338550989745294,0.00037504926784612307,-0.0027352763631327773,0.007768033054700434,0.9906997234006277
2014-10-14,1,0.0007583918877844069,0.0007933293740130388,-0.002443030681069432,0.007768033054700434,0.9913888470660377
2014-10-16,0,-3.9492094457738364e-05,2.2819811980233416e-05,-0.003129350168766488,0.007768033054700434,0.9917499436805858
2014-10-20,1,0.001147921186427205,0.0012435440490045086,-0.003129350168766488,0.007149138260007367,0.9932443196106842
2014-10-22,1,0.001415265471401271,0.0015679947595328846,-0.003129350168766488,0.007151192395615208,0.9931775917708773
2014-10-24,1,0.0018771918387864078,0.002079181295810576,-0.004291998446655589,0.006346257795054064,0.9934724943510331
2014-10-28,1,0.0021462736112760937,0.002378706197848414,-0.004291998446655589,0.005052102274614169,0.9937041453097398
2014-10-30,1,0.0024838821215092655,0.0027502408315927835,-0.003728532553462914,0.006346257795054064,0.993970724954769
2014-11-03,1,0.0022733504515291183,0.0025159212440574335,-0.0056168644421208495,0.0063698444875538475,0.9932945043908948
2014-11-05,1,0.001998032539689014,0.0022111432157847157,-0.004561913970858731,0.0063698444875538475,0.9940032939791971
2014-11-07,1,0.0018997408346918174,0.002121466628053902,-0.004561913970858731,0.006370529199423127,0.9943961360031942
2014-11-11,1,0.0016896312117708743,0.0018548956691534293,-0.005339903342643115,0.006370529199423127,0.9938015589110043
2014-11-13,1,0.0011568547353329828,0.0012651704033096445,-0.004367634684985184,0.006370529199423127,0.9944047794768762
2014-11-17,1,0.0013604202814278862,0.0015056906634879946,-0.004771777971206034,0.006370529199423127,0.9935009684463874
2014-11-19,1,0.0018463715503898189,0.002081459852171226,-0.004771777971206034,0.006783966542791299,0.992478987951181
2014-11-21,1,0.001239055867291236,0.0013459331057157056,-0.004961949172096367,0.006783966542791299,0.9921533503246349
2014-11-25,1,0.0008876332579818265,0.0009365052927210895,-0.004961949172096367,0.010615878153009177,0.9913260405788203
2014-11-28,1,0.0016067194774021046,0.0017578753430354456,-0.004961949172096367,0.010615878153009177,0.9905342665889217
2014-12-02,1,0.0012239169860966351,0.0013209325629400023,-0.0072184602259202845,0.010615878153009177,0.9890583594583973
2014-12-04,1,0.001019997476267534,0.0010844317757369175,-0.01174628329432845,0.010887611446938021,0.9879694152553113
2014-12-08,1,0.0010068205106894604,0.0010497881003312596,-0.01174628329432845,0.011324238026069564,0.988107279623608
2014-12-10,1,0.0009392517108573126,0.0009971985217705711,-0.0062699924527025355,0.011324238026069564,0.9890964920227981
2014-12-12,1,0.0008584685335976634,0.0009033629465624201,-0.0062699924527025355,0.011324238026069564,0.9891195670136834
2014-12-16,1,4.384064726661356e-05,0.0001058003991513031,-0.00023928807835705223,0.012198109753954859,0.9888899324711031
2014-12-18,1,0.001150147398699872,0.001222508809945341,-0.00023928807835705223,0.011324238026069564,0.9900599489208063
2014-12-22,1,0.00030416885838310776,0.00037334118225241803,0.0004107782600607471,0.011324238026069564,0.9899603580810188
2014-12-24,1,0.0008949791941580741,0.000916619083114509,0.00026543916655478214,0.007870354863716249,0.991060938896123
2014-12-29,1,0.0018074569830947968,0.0018706610030913696,-0.0013636234298102412,0.007540636144162781,0.9927457451089452
2014-12-31,1,0.0004528329308648016,0.0004912927824304475,-0.0006616538993767859,0.007870354863716249,0.9932468433534417
2015-01-05,1,0.00019640448912405608,0.0002716257695024322,-0.0006616538993767859,0.007870354863716249,0.9938632384967591
2015-01-07,1,0.0012132663386999437,0.001311496159632484,-0.0013636234298102412,0.007870354863716249,0.9933816158059467
2015-01-09,1,0.0013496785113181016,0.0014698112290420506,-0.0031415532433165852,0.007870354863716249,0.9913310428756943
2015-01-13,1,0.0013383717362010672,0.0014670444234253252,-0.005879608119483603,0.007870354863716249,0.9905837571494844
2015-01-15,1,0.0017254096477128584,0.0018859254817110366,-0.01443317512444135,0.007540636144162781,0.9903899466716318
2015-01-20,1,0.002141201712961375,0.0023498308686824465,-0.01443317512444135,0.006875903392559782,0.9897272209440324
2015-01-22,1,0.0024850902622725658,0.002756538545703717,-0.01443317512444135,0.005646589615451926,0.9896191491156362
2015-01-26,1,0.002637670405810434,0.002921424196650319,-0.01443317512444135,0.006674093798981141,0.9893791014614199
2015-01-28,1,0.0024217793816545866,0.0026813856120859064,-0.015228648462174692,0.006674093798981141,0.988909208310053
2015-01-30,1,0.0017992616389266812,0.001957747598634889,-0.014997605943441426,0.006674093798981141,0.9894766326513684
2015-02-03,1,0.0017816067570536932,0.0019060217609932167,-0.014997605943441426,0.006455460041628752,0.9896382725175129
2015-02-05,1,0.0014848073337177291,0.0015548917834105657,-0.014997605943441426,0.006455460041628752,0.9891086939504441
2015-02-09,0,-3.2802344179614566e-05,6.523231102132895e-05,-0.0077958933064398595,0.006455460041628752,0.9912344019444338
2015-02-11,-1,-0.0007962496947790578,-0.0005723195279674197,-0.003950465077924414,0.006455460041628752,0.9914311817064557
2015-02-13,-1,-0.0015413436476402146,-0.0012279340886360264,-0.003950465077924414,0.007056290177782138,0.9910748137465972
2015-02-18,-1,-0.0005736139241357586,-0.0003543677097508721,-0.003950465077924414,0.007056290177782138,0.9912784136793242
2015-02-20,-1,-0.0009761191809948215,-0.0007043425259430538,-0.0022205914620592906,0.008444868923084166,0.9908615213058111
2015-02-24,-1,-0.0009855725013894524,-0.0007078310205164319,-0.006166614285410235,0.008444868923084166,0.9907173318940362
2015-02-26,-1,-0.0016725831346561784,-0.0013046847513719089,-0.006881705874165252,0.008444868923084166,0.9909888005010563
2015-03-02,-1,-0.002095941813726553,-0.001668794710701404,-0.005915974984843063,0.009652725756284324,0.9911047775459922
2015-03-04,-1,-0.0011703897416074068,-0.0009163345826708705,-0.005915974984843063,0.009652725756284324,0.9914096108842321
2015-03-06,-1,-0.001991529921773226,-0.0016524294854806585,-0.002800395502213176,0.008696379197591204,0.9923359801700444
2015-03-10,-1,-0.001780089989557569,-0.0014727845293945403,-0.006881705874165252,0.008696379197591204,0.9918195658848429
2015-03-12,-1,-0.0018080615920199729,-0.0014596022262809108,-0.006881705874165252,0.006374022430942903,0.9921276030873009
2015-03-16,-1,-0.0013088112916589485,-0.0010689684297972982,-0.006881705874165252,0.005890129185172966,0.9925833616734416
2015-03-18,-1,-0.00030588903425931413,-0.00018730344618362796,-0.006881705874165252,0.0054011379490544135,0.9938448892469298
2015-03-20,1,0.0004344299415914943,0.00043872504985625346,-0.006881705874165252,0.0054011379490544135,0.9936487323947186
2015-03-24,1,4.694354559927717e-05,8.113354848958398e-05,-0.005673658210206836,0.005805999005968005,0.9938341471324494
2015-03-26,-1,-0.00024662084402153823,-0.00020077392032324934,-0.00457893148238206,0.0068774674264624296,0.9935043191437742
2015-03-30,1,0.00032508675141630584,0.00034974584842246617,-0.005097686533738648,0.0068774674264624296,0.9931619155044594
2015-04-01,1,0.0002629040404187051,0.0002642176412766638,-0.006276881211080142,0.0068774674264624296,0.9929762207556119
2015-04-06,1,0.0005044134283244111,0.0005176815035517029,-0.006276881211080142,0.006174869607687685,0.9930676276119998
2015-04-08,-1,-0.00015637406387184808,-9.832987491245721e-05,-0.005886438321538832,0.006174869607687685,0.9926860078825146
2015-04-10,-1,-0.0005146182416227289,-0.0003830650218855752,-0.005629602766201058,0.006174869607687685,0.9932474098600197
2015-04-14,-1,-0.0005799482994145208,-0.00044548839567446223,-0.004951835014528066,0.006124652941083366,0.9935585575084831
2015-04-16,-1,-0.0005566569924224327,-0.0004388374719786385,-0.004951835014528066,0.0068774674264624296,0.9926941679058447
2015-04-20,-1,-0.00045965630226165854,-0.0003468656979590746,-0.0049135492538782,0.0068774674264624296,0.9925615515170759
2015-04-22,-1,-0.0005373256154588481,-0.00040575841005471635,-0.0049135492538782,0.006124652941083366,0.9927980918974271
2015-04-24,1,0.0006368702657776515,0.0006795221486446013,-0.005569363098769735,0.0011148021387005493,0.9929622042800139
2015-04-28,1,0.00015345587642472792,0.0001910444300822976,-0.0049135492538782,0.0011148021387005493,0.9938877980899622
2015-04-30,-1,-0.0004033209617812863,-0.00029267063860395664,-0.0049135492538782,0.003255166200330132,0.9939848541547766
2015-05-04,-1,-0.00022598335505517175,-0.00014437016639900243,-0.005569363098769735,0.0006173022044412199,0.9938730033301378
2015-05-06,-1,-0.001524619370031553,-0.0012804792251372556,-0.0049135492538782,0.0013393772133259189,0.9949700023012797
2015-05-08,-1,-0.0015904811938151184,-0.001337020254500295,-0.005946426138586152,0.003255166200330132,0.9938723371257183
2015-05-12,-1,-0.0023498032760913903,-0.0019752412814401524,-0.005777046242589064,0.003255166200330132,0.9940754167864063
2015-05-14,-1,-0.0013038517100572898,-0.0011049966117077903,-0.008579834945723943,0.0031138889637532243,0.9943478191266801
2015-05-18,-1,-0.0009463536935366753,-0.0007702718973282449,-0.009092011908559058,-9.021839183246251e-05,0.9941280364692399
2015-05-20,-1,-0.0007218816273316474,-0.0006166782991931032,-0.009092011908559058,0.0031138889637532243,0.9931860697392006
2015-05-22,-1,-0.0002236874477176097,-0.0001934452078810922,-0.008681407676091267,0.0031138889637532243,0.9933636053264389
2015-05-27,-1,-0.0010202791614590898,-0.0008638782991115814,-0.008681407676091267,0.0013393772133259189,0.9935251223799535
2015-05-29,-1,-0.0012966610489837443,-0.0011036154681109793,-0.007692038038929605,0.0014177918801493556,0.9935503241159511
2015-06-02,-1,-0.0013249545022736417,-0.0011599233779597188,-0.007692038038929605,0.0014177918801493556,0.9931096081914624
2015-06-04,-1,-0.001504648344667645,-0.0013309128928287116,-0.006840338938108184,0.004770934529101419,0.9924053306510822
2015-06-08,-1,-0.0019334689997880196,-0.0017083166701798455,-0.006458045091582348,0.006818613179932189,0.9922683524914874
2015-06-10,-1,-0.0016909625914637541,-0.0015298073316515485,-0.006840338938108184,0.006818613179932189,0.9913323675425982
2015-06-12,-1,-0.0014294300887467502,-0.0013302991225707119,-0.006458045091582348,0.00819230728757751,0.9909529296007871
2015-06-16,-1,-0.0019733079943072005,-0.0018252947168734546,-0.005411054734582128,0.00819230728757751,0.9914216341377037
2015-06-18,-1,-0.0008145486299616225,-0.0008103297300295944,-0.006197752878920633,0.008001617993858352,0.9918918531289391
2015-06-22,-1,-0.0009847383691284205,-0.00096671926129877,-0.006458045091582348,0.008001617993858352,0.991351434546692
2015-06-24,-1,-0.0014920006609830006,-0.001400601305529924,-0.007249110273681725,0.008200033076914387,0.9906793174730881
2015-06-26,-1,-0.0011040224446596874,-0.0010777864871988555,-0.006867597605792356,0.010532128889755882,0.9901675441941349
2015-06-30,-1,-0.0018805605612429695,-0.0017661754072738685,0.00010111242591761345,0.010532128889755882,0.9904520548842415
2015-07-02,-1,-0.0017495967714351067,-0.0015723284763069778,-0.0023701883573836856,0.008092865156558632,0.9915333479811048
2015-07-07,-1,-0.0008736668414858467,-0.0007884518117572353,-0.004158387708187613,0.00652361762921159,0.9921483442245291
2015-07-09,-1,-0.0019639257570529616,-0.001723224206859867,-0.0023701883573836856,0.007288290136531592,0.9922728535123687
2015-07-13,-1,-0.0005474353045801703,-0.0005281827298762162,-0.0023701883573836856,0.007288290136531592,0.9929766183779898
2015-07-15,-1,-0.0004300233122415414,-0.00041620123010704686,-0.0023701883573836856,0.010019935834969459,0.9918736521133061
2015-07-17,-1,-0.00029727487990803114,-0.00028464303251432257,-0.001297077296691655,0.008618849956413897,0.9923358032151143
2015-07-21,-1,-0.0008483422329411554,-0.000777503001224127,-0.0009247724955673783,0.008618849956413897,0.9923800037602639
2015-07-23,-1,-0.0011541882251885982,-0.0010381117212853754,-0.0009247724955673783,0.008618849956413897,0.9925857132057747
2015-07-27,-1,-0.00015737773883752046,-0.00014540831589502992,-0.0023701883573836856,0.0071933014949385025,0.9920631132849121
2015-07-29,-1,-0.0004358418958777738,-0.0003728177256831809,-0.0025247293834166178,0.007463618403150013,0.9910768193010958
2015-07-31,-1,-0.00026099789336935,-0.00022612546563488263,-0.0026190602737947237,0.008748350225937585,0.9904513563820964
2015-08-04,-1,-0.0004880214645864333,-0.0004460951696528217,-0.005135656881945148,0.008748350225937585,0.9895982953287026
2015-08-06,1,7.131942306100001e-06,2.167786248259226e-05,-0.005135656881945148,0.01074101141625947,0.9890491468564294
2015-08-10,1,0.00046964205333453713,0.0005849533404403221,-0.011140777710725741,0.011428960049801764,0.9881229462907964
2015-08-12,1,0.0013697180446500656,0.0016194732317238243,-0.011140777710725741,0.007434610017337597,0.988818934061124
2015-08-14,1,0.0013609545731857547,0.001588605101907942,-0.011140777710725741,0.008224732484108651,0.9882329916605733
2015-08-18,1,0.0012896740375836309,0.001485447435763029,-0.011140777710725741,0.00798183430003597,0.9881979374867028
2015-08-20,1,0.0012701752609679397,0.0014880389380449682,-0.009756819272013252,0.00965002238134241,0.9884299752130733
2015-08-24,1,0.0003417287393819818,0.00044215649584050177,-0.004156321218272302,0.00965002238134241,0.9901011661058597
2015-08-26,1,0.0007035122820493261,0.0008716139425670652,-0.002076132435486118,0.008810857043729631,0.9908670968188356
2015-08-28,1,0.0007950111008098939,0.0009439773537245626,-0.003786065441331035,0.008810857043729631,0.9907588688811401
2015-09-01,-1,-7.481033720051557e-05,-3.478405861474626e-05,0.0009208410714930167,0.009204040535830585,0.9913471522561688
2015-09-03,1,0.0006328739516295347,0.0007657289566960453,0.0009208410714930167,0.008810857043729631,0.9923666759304975
2015-09-08,1,0.00030649504688745415,0.00039115875865461885,0.0009208410714930167,0.008111983224097381,0.9929873097394746
2015-09-10,1,0.00012576000000971428,0.00019767481780636484,0.00298555435223572,0.008810857043729631,0.9918907444679952
2015-09-14,1,0.0007451392693306602,0.0009032048195890258,0.0015185007263382347,0.008810857043729631,0.992846643024022
2015-09-16,1,0.0013538354843346742,0.0016277807810750884,-6.988380656332478e-05,0.008810857043729631,0.9929748955369033
2015-09-18,1,0.001596143549214923,0.0018914891981332022,-6.988380656332478e-05,0.008930879016914174,0.9926312327376132
2015-09-22,1,0.0014485689154949764,0.0017051049430647526,-0.0008177624276537066,0.009613982909350578,0.992032889256821
2015-09-24,1,0.0019420979629037266,0.0022724883318440917,-0.005125101365211096,0.009613982909350578,0.9917887324739847
2015-09-28,1,0.0011312859039694094,0.0013040021003390889,-0.005125101365211096,0.009795378317873468,0.9914713762476558
2015-09-30,1,0.001741446374762885,0.0019936850610236486,-0.005125101365211096,0.009172010291949945,0.9918442896023043
2015-10-02,1,0.0017880932142207873,0.002032212457449091,-0.006459379229241575,0.009172010291949945,0.9913528671622455
2015-10-06,1,0.0018050657189788754,0.002069828504878872,-0.005125101365211096,0.009172010291949945,0.9917437829729581
2015-10-08,1,0.0027672399662370967,0.0031811234113595,-0.004963705720320048,0.007740101276669629,0.9932820990119946
2015-10-12,1,0.0028405900007635416,0.003247106553447035,-0.006836380691860702,0.006567012521794914,0.9911173352602004
2015-10-14,1,0.002437456767921038,0.0027714541978700862,-0.004963705720320048,0.007740101276669629,0.9910061701069293
2015-10-16,1,0.0031598687217760527,0.0036007549533145647,-0.007573469488079166,0.006567012521794914,0.9908571978626981
2015-10-20,1,0.003057996064489641,0.0034715253880410013,-0.0089242947694404,0.006567012521794914,0.9902217648861705
2015-10-22,1,0.0027950636549016667,0.003148408257173929,-0.007573469488079166,0.006567012521794914,0.9904086112901224
2015-10-26,1,0.002437003893772176,0.0027264973845143063,-0.0053250463468507364,0.005257323982785296,0.9914396118656008
2015-10-28,1,0.0019053661573400285,0.002097036165116241,-0.007573469488079166,0.005257323982785296,0.9913274963931249
2015-10-30,1,0.0015779637009498723,0.0017104231300445938,-0.005592440953748052,0.006567012521794914,0.9908893311068794
2015-11-03,1,0.0016154146548480852,0.0017405037917711888,-0.007573469488079166,0.005021675450086002,0.9905906756378317
2015-11-05,1,0.0013084411339763916,0.0013521979664286605,-0.007573469488079166,0.007347658156929117,0.9901365298675113
2015-11-09,1,0.000530136994638371,0.0005441736856161496,-0.005592440953748052,0.007655054263167156,0.9922100257014353
2015-11-11,1,0.0007875878458464458,0.0007885603377097056,-0.008419147280151624,0.005092809929865124,0.9916916730669217
2015-11-13,0,-3.6993781023404455e-05,7.944639664176533e-05,-0.006056452170833422,0.005092809929865124,0.992317961066039
2015-11-17,-1,-0.00015113276564333243,-2.040265892678492e-05,-0.0019094773715375986,0.007113843883614397,0.9918912458661502
2015-11-19,1,7.868469946633596e-06,0.00016709063246223612,-0.0019094773715375986,0.007113843883614397,0.9924026288729554
2015-11-23,1,0.0004681107454890972,0.0005371781046102626,-0.006056452170833422,0.00834091654306322,0.9909084178388706
2015-11-25,1,0.0005924311960639631,0.0006099729744242731,-0.0019094773715375986,0.00866561237349278,0.9909222484199653
2015-11-30,1,0.000342020466898684,0.0004315169630190825,-0.0003439517464393807,0.00866561237349278,0.9913771007262556
2015-12-02,1,0.00024503715058062786,0.0003192365476272394,-0.0012793525247863239,0.00866561237349278,0.9913275438170394
2015-12-04,1,0.0008154317134875743,0.0008193559898526336,-0.0025609753748091152,0.00866561237349278,0.9914474431224538
2015-12-08,1,0.0008842339924236091,0.0008858868571409358,-0.00512036883344994,0.00866561237349278,0.991069844953776
2015-12-10,-1,-0.0005307472807352954,-0.0003463813733732622,-0.0025609753748091152,0.009245865912830057,0.991883415811813
2015-12-14,-1,-0.0006389365934896817,-0.0004286578622228231,-0.0025609753748091152,0.009245865912830057,0.9918380911073705
2015-12-16,1,0.000986306813715183,0.0010078450222778539,-0.0031943446396821428,0.009245865912830057,0.9926480220598095
2015-12-18,1,0.0011191331140698274,0.0011537259726709514,-0.004840018031178525,0.009245865912830057,0.9924310643150063
2015-12-22,1,0.0008181542813401468,0.0008233045431269684,-0.004767816481038679,0.009245865912830057,0.99205741331604
2015-12-24,1,0.0008041051617466133,0.0008415611418344091,-0.0061757802107154135,0.009584847472776697,0.9911410530924419
2015-12-29,1,0.0012664875633095914,0.001307735456494946,-0.0061757802107154135,0.009584847472776697,0.9909618717475492
2015-12-31,1,0.0007494897495847395,0.0007673819533129145,-0.004767816481038679,0.010576859126323229,0.9906204389141228
2016-01-05,1,0.0013731117590454777,0.0014841361533719961,-0.004767816481038679,0.010576859126323229,0.9908393540860717
2016-01-07,1,0.0010992147094604865,0.0011839197148705658,-0.003989516010406752,0.010576859126323229,0.9897379672360248
2016-01-11,1,0.0014526286350568136,0.0015895287998062939,-0.003989516010406752,0.013563020028433837,0.9889712923978065
2016-01-13,1,0.0011180823954080764,0.0011901477153419765,-0.0061757802107154135,0.014658357370461735,0.9879605644829114
2016-01-15,1,0.000644863660360417,0.0007221385752295559,-0.0061757802107154135,0.014658357370461735,0.9879964235924953
2016-01-20,1,0.0006262436314926172,0.0007021137870590671,-0.006266104682695482,0.015152287592061954,0.9875707002201661
2016-01-22,1,0.0019964910372470635,0.0021125160124593123,-0.004152042032526666,0.014658357370461735,0.9895000333323611
2016-01-26,1,0.0009317209923244226,0.001031033650192159,-0.001277075338130734,0.01036088863730619,0.9905769301950028
2016-01-28,1,0.0018459159109174238,0.0019016155346195792,-0.004152042032526666,0.01036088863730619,0.9880912797765948
2016-02-01,1,0.0022549310627165533,0.0023274568100807636,-0.004152042032526666,0.008203258963990183,0.9887794779961715
2016-02-03,1,0.0017953053727157733,0.0018158517197153523,-0.007314806420576167,0.01036088863730619,0.9860192102148779
2016-02-05,1,0.0010161369328100822,0.0010569028216013973,-0.007017547266016262,0.01036088863730619,0.9872997511302147
2016-02-09,1,0.002077275219022905,0.0021842707741676513,-0.007017547266016262,0.009353540800380327,0.9877770228422431
2016-02-11,1,0.0020226829994530226,0.002136597113167926,-0.006710975660220497,0.007454442938056444,0.9883202595684345
2016-02-16,1,0.0014780296455215998,0.0015111266273207583,-0.0029932829758661014,0.007870792173997483,0.988725265028461
2016-02-18,1,0.002014227355911391,0.0021400287352524618,-0.0016509819156428542,0.007870792173997483,0.9891003875057739
2016-02-22,1,0.0017572338402036857,0.0018212526225835236,-0.0067134793591640115,0.007722984457952503,0.9875960090902921
2016-02-24,1,0.0021562989800256002,0.0023034161563829526,-0.0067134793591640115,0.007722984457952503,0.9876552769537562
2016-02-26,1,0.0010747116342611476,0.0010884889522613872,-0.0067134793591640115,0.005361601476281681,0.990728794536748
2016-03-01,1,0.0013971944008103906,0.0014423190055447494,-0.0067134793591640115,0.005679412234859401,0.9897769511137366
2016-03-03,1,0.0027498032129183677,0.0030184657702669714,-0.0029932829758661014,0.005577621602506615,0.9923220110838107
2016-03-07,1,0.0024702702443677076,0.002708417471686809,-0.0029932829758661014,0.005577621602506615,0.9924530483627585
2016-03-09,1,0.00279757856044554,0.0030567326425422724,-0.0029932829758661014,0.00512727203225337,0.9928473621626086
2016-03-11,1,0.0026991249714778103,0.0029805328028967757,-0.0022058790288946592,0.006955042678736626,0.992971112825467
2016-03-15,1,0.0029192355699196185,0.003229343212469634,-0.002195126946466455,0.00512727203225337,0.9932662418024887
2016-03-17,1,0.003311721815072507,0.003667590596706966,-0.002195126946466455,0.00512727203225337,0.9933487833200031
2016-03-21,1,0.002007132757059435,0.002177122174347631,-0.0002218516419616921,0.006631104376208568,0.9950181677664617
2016-03-23,1,0.001727047692071964,0.0018354320725627944,-0.002195126946466455,0.006631104376208568,0.9922588368502403
2016-03-28,1,0.0013363137111224842,0.0013774399222931473,-0.0004001768349737123,0.008279283691536708,0.9909370736411487
2016-03-30,1,0.0019407585196913116,0.0020696905427755735,0.000532778649574395,0.008385985979604549,0.9916278516508775
2016-04-01,1,0.002299961048829946,0.0024821263997915326,0.000532778649574395,0.008385985979604549,0.9920015830479864
2016-04-05,1,0.0011381237749159686,0.00117599828820506,0.000532778649574395,0.009122543006177831,0.9908615048600076
2016-04-07,1,0.0016497031864070619,0.0016999998284515621,-0.0008761360280174311,0.009122543006177831,0.9902703024254123
2016-04-11,1,0.0011496374890142865,0.001196600607236862,0.000532778649574395,0.010782562759601756,0.990108875111617
2016-04-13,1,0.00106706034893747,0.0011318496954851745,0.0005663127609332432,0.010782562759601756,0.9901519139141796
2016-04-15,1,0.0017914503502738004,0.0018508009791773957,-0.0006666893307236656,0.009122543006177831,0.9905418108550469
2016-04-19,1,0.0019408052902131355,0.0020159044702717,-0.0031780110224180623,0.009122543006177831,0.9895233265229997
2016-04-21,-1,-0.0003724205832574938,-0.00014889624190296275,-0.0006666893307236656,0.010507610834178603,0.9905856035512
2016-04-25,1,0.0011661344411967138,0.0011985572114164716,-0.0031780110224180623,0.007429183169088397,0.9925347256426291
2016-04-27,1,0.0013160562711740781,0.001355772064181494,-0.0035138532661122316,0.0066774075946963996,0.9923613025301459
2016-04-29,1,0.0016901086899371136,0.0017201249409819598,-0.0035138532661122316,0.007663342397876422,0.9922309387312493
2016-05-03,1,0.0019301381154610976,0.0019947718211819603,-0.0031873201764605697,0.007663342397876422,0.9926370143144363
2016-05-05,1,0.0007260941515789023,0.0008747202211791777,-0.0011660248851257536,0.009779994420812694,0.9928942981950961
2016-05-09,1,0.0010714796389839436,0.001176298230294152,-0.0031873201764605697,0.007307114919937746,0.9930282823608709
2016-05-11,1,0.0016249490470901379,0.0016433606485960286,-0.0031873201764605697,0.009782362024368878,0.9923156400103719
2016-05-13,1,0.0016294364368194894,0.0016555367730494792,-0.0012841784023854817,0.009782362024368878,0.992666548728386
2016-05-17,1,0.0004907583555457938,0.0006193200029813472,-0.0010716346991393043,0.009782362024368878,0.9938006128607988
2016-05-19,1,0.0008599815130143155,0.0009323569562995428,-0.0010716346991393043,0.009782362024368878,0.9939144898891079
2016-05-23,1,0.0005750303767178473,0.0006695063932420373,-0.0010716346991393043,0.009782362024368878,0.9934170155168107
2016-05-25,1,9.469253867075281e-05,0.00027434711344979555,-0.0003353288255970847,0.009599512989556271,0.9938888952719227
2016-05-27,1,0.0005036958268327838,0.0006278983329915048,-0.0003353288255970847,0.010225883132032985,0.9928492483777461
2016-06-01,1,0.0007206161214776711,0.000854110403639267,0.00015751211125075276,0.009782362024368878,0.9933964461047172
2016-06-03,1,0.0011837625037291874,0.001251042590755963,-0.0003824782941211607,0.009782362024368878,0.9928385439707315
2016-06-07,1,0.0005942409696077578,0.0007456820109693456,-0.0003824782941211607,0.009782362024368878,0.9923686686542734
2016-06-09,1,0.0012121960913327218,0.0012868155456969366,-0.003231589455212338,0.00887808464677253,0.9920729498095655
2016-06-13,1,0.0009409993168401271,0.0010539404775823952,-0.006660904097827194,0.00887808464677253,0.9907772997931724
2016-06-15,1,0.001415285114350674,0.0014186962588193424,-0.006660904097827194,0.008911955537129548,0.9905738367951121
2016-06-17,1,0.0012075141741391543,0.0012501329580100777,-0.00543807465122673,0.008700279392289097,0.9911359773515066
2016-06-21,1,0.0013724177196211243,0.0013725512866049586,-0.0036823665102320873,0.008700279392289097,0.9915938766396288
2016-06-23,1,0.0018402712085832038,0.0019336723113843937,-0.004986843657123849,0.008911955537129548,0.9907153784358717
2016-06-27,1,0.0029370458209237206,0.0031855213040730595,-0.005843985397345622,0.005725303901644896,0.9914690860641745
2016-06-29,1,0.0022444519834623772,0.002337057832168081,-0.007209192205172369,0.007393374345504618,0.9909399284385508
2016-07-01,1,0.003095611504146869,0.003358861911162769,-0.007209192205172369,0.006563130345760726,0.9921326678404471
2016-07-06,1,0.0029280218271344033,0.00315625338770565,-0.0077433989029232625,0.004070447021163213,0.9916517677773182
2016-07-08,1,0.002386041164048408,0.002507793264691421,-0.009255542536140372,0.003190039057758206,0.9912258747715433
2016-07-12,1,0.0015391694676440202,0.0015655127307399588,-0.009255542536140372,0.003190039057758206,0.9923007427742268
2016-07-14,1,0.0016768328193388594,0.001718567181680846,-0.009255542536140372,0.003190039057758206,0.9924315154782472
2016-07-18,1,0.0014304961682402788,0.0014443505374330356,-0.009615231282390318,0.003190039057758206,0.9918741628320594
2016-07-20,1,0.0005956119493784976,0.000752176339061486,-0.01067354108531699,0.003551169144529229,0.9908565885352633
2016-07-22,1,0.001363967762560541,0.0013986343029882206,-0.011325472393879491,0.003551169144529229,0.9909653690688139
2016-07-26,1,0.0018380227931334566,0.0018735195022203542,-0.011325472393879491,0.003551169144529229,0.99111275003114
2016-07-28,1,0.001447173437688063,0.0014842999796804317,-0.011325472393879491,0.0026512551363190758,0.9917519277175925
2016-08-01,1,0.0019887628557171437,0.00205800885950803,-0.012443861019891306,0.001490635285709911,0.9904503924576056
2016-08-03,1,0.000677402886480224,0.0007972676924230095,-0.012723569082605413,0.001490635285709911,0.9911223861236992
2016-08-05,-1,-0.0006978470114841591,-0.0004303030662743012,-0.011032746521409894,0.0030540287726011127,0.9918495839152327
2016-08-09,-1,-0.0006336087814490856,-0.0004093678933819514,-0.009486742627024633,0.004998939417112401,0.9915610065778907
2016-08-11,-1,-0.0016596226666655226,-0.0012402595911948022,-0.012601252129406102,0.003293478136338174,0.9898885657663585
2016-08-15,-1,-0.0025340865115152664,-0.0020092300618990326,-0.009486742627024633,0.006393571338845543,0.9895921854287646
2016-08-17,-1,-0.0024528916245234213,-0.0019204726100586216,-0.007537543686494735,0.005823398271662029,0.9904471254626575
2016-08-19,-1,-0.0024772505937076276,-0.001979794189295423,-0.004467402846354058,0.008311526084543787,0.9901122721195946
2016-08-23,-1,-0.0022280558548633048,-0.001781618079749593,-0.004467402846354058,0.00917568451545663,0.9891502470523378
2016-08-25,-1,-0.002697290958632099,-0.002173273772562205,-0.007537543686494735,0.00917568451545663,0.9882883706472273
2016-08-29,-1,-0.0029241846206486625,-0.0023945591754275276,-0.006986831393724797,0.009064787769589,0.9891197311096691
2016-08-31,-1,-0.0037332171548580375,-0.003111789624621667,-0.006986831393724797,0.009064787769589,0.9889570798548881
2016-09-02,-1,-0.0031610471502434272,-0.0026134540015905683,-0.006986831393724797,0.007832649436748497,0.9900483485841018
2016-09-07,-1,-0.002330077015103336,-0.0019047023556732013,-0.010323592283007907,0.006527634358291862,0.9895084779898421
2016-09-09,-1,-0.004119573909484421,-0.0035070649635067556,-0.008471530176392033,0.006527634358291862,0.9909198339137988
2016-09-13,-1,-0.005179084496774048,-0.004328154144416271,-0.010323592283007907,0.006527634358291862,0.9907583770333016
2016-09-15,-1,-0.004005242376224008,-0.0033594862068190732,-0.010323592283007907,0.007832649436748497,0.9904963734536041
2016-09-19,-1,-0.0028027961826920496,-0.0023322567264197815,-0.010323592283007907,0.0035112143792344823,0.9916100487270509
2016-09-21,-1,-0.0017102589513986245,-0.0013840815408319497,-0.010440229472509326,0.0035112143792344823,0.9919247506535924
2016-09-23,-1,-0.0016272358173786343,-0.001338876361687725,-0.010323592283007907,0.0015629139175862557,0.9926655775268385
2016-09-27,-1,-0.0020974864506014576,-0.0017330554630661766,-0.010323592283007907,0.006690659295727653,0.992247111837025
2016-09-29,-1,-0.002401076504900683,-0.0020305251451804424,-0.008471530176392033,0.006690659295727653,0.993001395849471
2016-10-03,-1,-0.0028389164148459227,-0.0024228447101209,-0.003931555014242517,0.007145510752091674,0.991858607417689
2016-10-05,-1,-0.004370348840313473,-0.0037821745760019433,-0.0038817845933359824,0.007145510752091674,0.9921139093304996
2016-10-07,-1,-0.005044332687319738,-0.00434179371392952,-0.0060550309972667625,0.007145510752091674,0.9914621397730431
2016-10-11,-1,-0.005043418140364149,-0.004346975367209751,-0.0033447772912916867,0.008091715569599027,0.9908265491987772
2016-10-13,-1,-0.004354287599664417,-0.003730010237175869,-0.0060550309972667625,0.007145510752091674,0.9917128688519773
2016-10-17,-1,-0.004373739455346138,-0.0037498660928789364,-0.008099421062297713,0.007145510752091674,0.9914780967305928
2016-10-19,-1,-0.00404890648071625,-0.0034894757738522814,-0.0060550309972667625,0.007145510752091674,0.9911955171750161
2016-10-21,-1,-0.0036051050298082504,-0.003130630919274427,-0.0060550309972667625,0.007145510752091674,0.9913503671831116
2016-10-25,-1,-0.0025890703910870067,-0.002265150412772616,-0.0060550309972667625,0.00906081835998173,0.9907954439437413
2016-10-27,-1,-0.002857094450119821,-0.0024908312023798444,-0.008099421062297713,0.011650809517683814,0.9884305190038347
2016-10-31,-1,-0.0012820966012120677,-0.0011410367449887907,-0.008099421062297713,0.011650809517683814,0.988649489103359
2016-11-02,-1,-0.0021260285237902563,-0.0018913948416791992,-0.00963692160479867,0.011650809517683814,0.9868870363811758
2016-11-04,-1,-0.0030442712438996378,-0.0027071233084479344,-0.004110425846673376,0.011941807521152186,0.9868768171779639
2016-11-08,-1,-0.0016408309788044646,-0.0014796469705560865,-0.00545242657486793,0.009157817694471188,0.988236075754028
2016-11-10,-1,-0.0024155040741471578,-0.002168313658803227,-0.0027019653245612418,0.009157817694471188,0.9883517452914637
2016-11-14,-1,-0.002265551457679798,-0.002058941700317848,-0.0008640018631756339,0.010183853476866928,0.988054447477239
2016-11-16,-1,-0.0005436888933749932,-0.00046993695484016896,-0.0027019653245612418,0.008834293631512724,0.9883110882724347
2016-11-18,-1,-0.0003991002380713504,-0.0002947669636988536,-0.0013422557283752,0.010183853476866928,0.9875841973132162
2016-11-22,1,0.0013005539625876206,0.001678623064498957,-0.004434692261575033,0.007911568143165614,0.9891442092895889
2016-11-25,1,0.0016074010247697748,0.002034802578907744,-0.004338810970547247,0.007095670128440725,0.9909372476938564
2016-11-29,1,0.002265400778079855,0.0027696059787244627,-0.005040944412736954,0.005948217848369665,0.9908850846217236
2016-12-01,-1,-0.0001455616773080232,-1.3272790243655877e-05,-0.004338810970547247,0.006329454930287025,0.9929824402042585
2016-12-05,1,0.0005518688306832883,0.0007983420893906963,-0.004338810970547247,0.006329454930287025,0.9932078341641161
2016-12-07,1,0.0006510502641935953,0.0009062677008224378,-0.0024638792149891267,0.006185143922812312,0.9935748853274161
2016-12-09,1,0.0009321087104372574,0.0012328886692496105,-0.005045024591138119,0.006185143922812312,0.992331384840008
2016-12-13,1,0.0019517403286670048,0.00243138665941851,-0.005045024591138119,0.002811610672127051,0.9924673943371387
2016-12-15,1,0.0008359776360442507,0.0011485097784584102,-0.0049464231811762235,0.006185143922812312,0.9934985841526072
2016-12-19,1,0.0015805643277238249,0.0019943013677664835,-0.005045024591138119,0.0031392906649239005,0.9933523352608365
2016-12-21,1,0.001554437948199035,0.00198600501522407,-0.0049464231811762235,0.0031392906649239005,0.9936429514000117
2016-12-23,1,0.0013820217710138008,0.001747012737737814,-0.003219294923437645,0.001866925791566788,0.994058913481636
2016-12-28,1,0.00029503864291612855,0.00044847487389456346,-0.00232888315212922,0.00310140014441316,0.9944848370118821
2016-12-30,1,0.00048590070917855534,0.0006537881742791653,-0.00232888315212922,0.00310140014441316,0.9939396850251587
2017-01-04,1,0.0008035964127126311,0.0010157204402187747,-0.0033645826155215518,0.00310140014441316,0.9925279540878779
2017-01-06,1,0.0005307580717180903,0.0006715433425484585,-0.006135294297246934,0.00310140014441316,0.9919419683987885
2017-01-10,-1,-0.00021361053256273386,-0.00014699136867550578,-0.003086514091258037,0.006753445827766813,0.9927348444463661
2017-01-12,-1,-0.00029519505135867414,-0.00025766673869209906,-0.003086514091258037,0.007608803012793377,0.9924231577229818
2017-01-17,1,0.000494876565086988,0.0006428937726426597,-0.0046974485551224705,0.006753445827766813,0.9930023187413651
2017-01-19,1,0.00034018004457092034,0.00046444639094911946,-0.003555136323675223,0.006055526027826424,0.9934795898015365
2017-01-23,1,0.00013436471717909027,0.00021294058086611923,-0.003555136323675223,0.006845591433621346,0.9929940613618321
2017-01-25,-1,-0.00016265635119115112,-0.00016167840351729852,-0.003555136323675223,0.007885239830356978,0.9923302734362911
2017-01-27,1,0.00033969904716373944,0.0004358352113397969,-0.003555136323675223,0.008449019259156898,0.9923340090806382
2017-01-31,1,0.0012080906960062975,0.001445015322147304,-0.0035400231681740257,0.008449019259156898,0.9926961475494231
2017-02-02,1,0.00011975255792929043,0.000126361727227201,-0.0035400231681740257,0.007885239830356978,0.99383181013879
2017-02-06,-1,-0.00021080327621987824,-0.00018546364494808666,-0.0016394893038658863,0.007885239830356978,0.9940807405804273
2017-02-08,1,0.000495946006827893,0.0005852073635187938,-0.0035400231681740257,0.007375653268481098,0.993765807046183
2017-02-10,1,0.0010243058349742992,0.0012194209324721448,-0.0035400231681740257,0.007375653268481098,0.9939227260051858
2017-02-14,1,0.0010991063933330784,0.0013487665190356011,-0.0014178800105624995,0.00791729172715204,0.9936843266226751
2017-02-16,1,0.001223759437437029,0.001468044755957226,-0.002977923567461534,0.00791729172715204,0.9927725104166133
2017-02-21,1,0.0015943915567040749,0.0018831143893982974,-0.003747179232918141,0.007656782892159762,0.992795981374088
2017-02-23,1,0.0018229367218319454,0.0021139279809518057,-0.004595209935433239,0.007656782892159762,0.99255131644297
2017-02-27,1,0.0018965688813902398,0.002175372971533399,-0.004595209935433239,0.007492422098905948,0.9923713081193261
2017-03-01,1,0.0016188546754634125,0.0017872386298107448,-0.003983461759497213,0.006398843293292322,0.9933242616275219
2017-03-03,1,0.0011878192444749545,0.0012815129133034726,-0.0033180379871998473,0.007492422098905948,0.9931613203331702
2017-03-07,1,0.0009578406776279563,0.0010183439006288845,-0.0033180379871998473,0.007600151318052595,0.9927832603417773
2017-03-09,1,0.0006644182106494211,0.0007216242552015482,-0.0033180379871998473,0.007600151318052595,0.9933022757131955
2017-03-13,1,0.0009005561501189839,0.0009825990551951965,-0.0033180379871998473,0.007411091569598641,0.9936757928790296
2017-03-15,1,0.0014139996225086982,0.0015569693545463583,-0.0033180379871998473,0.0073443070941623875,0.9941864143478961
2017-03-17,1,0.0009050757293588262,0.0009825419690711996,-0.0031895785988325194,0.007408705863238353,0.9948190228061445
2017-03-21,1,0.0011996908618127967,0.0013414355063436567,-0.0024910620424379642,0.007377831127517649,0.9951002955699558
2017-03-23,1,0.0009285500248277529,0.0010194815822588401,-0.002218217388461767,0.007377831127517649,0.9949766988930233
2017-03-27,1,0.001421824990854745,0.0016259089344439807,-0.0019690462617670437,0.006814314442110196,0.9955038294774218
2017-03-29,1,0.001097097665218781,0.0012090722722829417,-0.002218217388461767,0.006814314442110196,0.9950589341785587
2017-03-31,1,0.0008748465540579096,0.0009007315517031562,-0.003496472527310926,0.0048815592430845045,0.9946020305363127
2017-04-04,1,0.001249385096182766,0.0013864030107852234,-0.003496472527310926,0.003765442274464625,0.9945177245082872
2017-04-06,1,0.0007626567562919746,0.0007877563939010801,-0.004399735443408298,0.003765442274464625,0.9930727425318577
2017-04-10,1,0.0006807454460247318,0.0006878993601654793,-0.008347482935501903,0.003765442274464625,0.992219782908196
2017-04-12,1,0.0012448557846251069,0.0013576376851796427,-0.008347482935501903,0.003495771153500314,0.9924270439693732
2017-04-17,1,0.0012566182840068156,0.0013633396012727517,-0.008347482935501903,0.003495771153500314,0.9925723366711927
2017-04-19,1,0.0017298452273175479,0.001957453797406033,-0.008657354187347885,0.0026747431425637987,0.9921266272556052
2017-04-21,1,0.0022958375681043715,0.002603142574957314,-0.008657354187347885,0.0026747431425637987,0.9923316314919985
2017-04-25,1,0.0025578632244977135,0.0029280599406674938,-0.008657354187347885,0.00322570301268267,0.9920466741920189
2017-04-27,1,0.0013314803100784797,0.0014342621546592177,-0.008186880720427305,0.006284377322564703,0.9922501491458181
2017-05-01,1,0.0009279507377494796,0.0009950536988844573,-0.003959065922768702,0.006284377322564703,0.9929205637695881
2017-05-03,1,0.00041513957629380567,0.00041657257774814266,-0.00291857953974115,0.0069901581170545585,0.993165596410764
2017-05-05,1,0.00020313937208205545,0.00022658015212555016,-0.002447087624902999,0.006284377322564703,0.9947896672518487
2017-05-09,-1,-0.00023407057986896712,-0.00018614785801752837,-0.0011722438613955366,0.006978713922317213,0.9951040482625534
2017-05-11,-1,-0.000520456523026212,-0.0003937461342343573,-0.002447087624902999,0.0073692174336022435,0.994590242159031
2017-05-15,1,7.746531899613316e-05,0.00010847221323011911,-0.002447087624902999,0.006853106568008701,0.9946442293720724
2017-05-17,-1,-0.0005653872050824653,-0.00044471246934527466,0.0017132007423074488,0.007792142644146439,0.9938623643113991
2017-05-19,-1,-0.00032423217837620214,-0.00023628868342849668,0.0017132007423074488,0.0073692174336022435,0.9934372092091903
2017-05-23,-1,-0.00043173126370557835,-0.0003024901994737199,-0.0011722438613955366,0.0073692174336022435,0.9935782876061988
2017-05-25,1,0.00014692043553544913,0.0001986874356810986,-0.0011722438613955366,0.007020502615325679,0.9941902318335073
2017-05-30,1,0.0002054325233922639,0.00024075518124309808,-0.0011722438613955366,0.007020502615325679,0.9937352294208661
2017-06-01,1,0.0005614160497834471,0.0005649250528509929,-0.005717783411581795,0.006253503647286546,0.9931231880903605
2017-06-05,-1,-0.00016916069509986928,-4.0419096078092294e-05,-0.005717783411581795,0.006253503647286546,0.9932138524184951
2017-06-07,1,2.8646227002816836e-06,0.00011269701995883101,-0.005717783411581795,0.005669120047543014,0.9933373255530524
2017-06-09,1,0.00028370046014402484,0.0003308086572355352,-0.004295609209259455,0.005011901699679528,0.9939375590929166
2017-06-13,1,0.0004354050366812363,0.00047925967577142525,-0.004295609209259455,0.0027544540451060967,0.9939032832124465
2017-06-15,1,0.000993510789395149,0.0010118437588955587,-0.005717783411581795,0.0016700884705325501,0.9938495171393317
2017-06-19,1,0.0004339922418985705,0.0004862223111417719,-0.004295609209259455,0.002649548947972709,0.9944974855590042
2017-06-21,1,0.0003069857879917445,0.0003685682274264101,-0.0025317981173087747,0.00451739218068959,0.9941314961330419
2017-06-23,1,0.0007566295855110289,0.0007741318895116583,-0.004295609209259455,0.005471116045288887,0.9932181020924729
2017-06-27,1,3.6435644790016274e-05,0.00011940922432370467,-0.002570172705048099,0.00764091420108648,0.9934610837818415
2017-06-29,-1,-0.0012070605429146649,-0.0009506905724480613,-0.0020621835279689797,0.00764091420108648,0.9940588193963579
2017-07-03,-1,-0.0009264665781163593,-0.0007236752914975506,-0.0020621835279689797,0.00764091420108648,0.9939653329180631
2017-07-06,-1,-0.0010432743448780504,-0.0008363643579385955,-0.0016809383829405223,0.00787571086570583,0.9929421254099448
2017-07-10,-1,-0.0011868878987924233,-0.0009459991509662027,-0.0016809383829405223,0.00787571086570583,0.9926271667761841
2017-07-12,-1,-0.0007913902267858997,-0.000609107597375386,-0.0012623477085679628,0.007383816846159443,0.9930373453394646
2017-07-14,-1,-0.0005089045917106303,-0.0003802152312016353,-0.0025548495785436675,0.005825150659525959,0.993617890733192
2017-07-18,1,0.00012040754249885473,0.00015470630939054753,-0.0025548495785436675,0.005825150659525959,0.9937563226488126
2017-07-20,1,0.0007441751403082999,0.0008039161044883459,-0.0033693793785648115,0.00529825011833465,0.9943533012938839
2017-07-24,1,0.0008531439233174535,0.0009540019379627688,-0.002372068049048685,0.00529825011833465,0.9951677598047395
2017-07-26,1,0.0009643908068507835,0.001065774174216942,-0.0033693793785648115,0.004734666174082596,0.9953435470988412
2017-07-28,1,0.0006835656042218385,0.0007369830962744924,-0.0023561448808516205,0.004734666174082596,0.9955221669444128
2017-08-01,1,0.00041934135478335417,0.0004373089923047391,-0.0033693793785648115,0.004734666174082596,0.9952055937462844
2017-08-03,1,0.00022135958410382433,0.0002478045432309134,-0.0033693793785648115,0.004005145513496345,0.9960430134343484
2017-08-07,1,0.0008109053084091188,0.0008899210360377692,-0.0033693793785648115,0.0019021131321605152,0.9963054307088
2017-08-09,1,0.0006041530613528604,0.0006252670102338666,-0.0033693793785648115,0.0019021131321605152,0.9962421363718466
2017-08-11,1,0.00018324748055473185,0.00021054423354516542,-0.001711808071130566,0.005376369309185715,0.9960447101165091
2017-08-15,1,0.000578819506834856,0.0005930921405556076,-0.003576222197678793,0.0019021131321605152,0.9956687922048806
2017-08-17,1,0.000402879467700149,0.00040710133032415745,-0.0023782500758122663,0.005148766636107181,0.995231545569881
2017-08-21,1,0.0007492793202906882,0.0007981574653889511,-0.0047514801165694405,0.003909073906351758,0.9953144879229697
2017-08-23,1,0.0006924151421002049,0.0007475997337469725,-0.004908414004717782,0.003909073906351758,0.9952148914698077
2017-08-25,1,0.0006964952820055375,0.0007486959783116352,-0.004908414004717782,0.005109189940908633,0.9951228466508237
2017-08-29,1,0.0004283941628531918,0.00044715247770366095,-0.004908414004717782,0.005109189940908633,0.9945882417636003
