JNU-Tangyin/eata/results/Batch4_SP500/Batch4_SP500-LMT.csv
Date,Action,Predicted_Q25,Predicted_Q75,Actual_Q25,Actual_Q75,RL_Reward
2010-12-14,0,0.0,0.0,-0.004268523893820523,0.006725704305608657,0.9935220463626959
2010-12-16,1,0.0008846783260616847,0.0011335634918966599,-0.004544405585794943,0.006725704305608657,0.9935988125351762
2010-12-20,0,0.0,0.0,-0.0007896177317661741,0.010361948021751525,0.9918398468386249
2010-12-22,0,0.0,0.0,-0.0007443071713634304,0.015354554613314541,0.9911499748799536
2010-12-27,1,0.00044833965532671864,0.0006255382202631185,-0.0007443071713634304,0.015354554613314541,0.9901135519268208
2010-12-29,1,0.0004438187423721311,0.0006235017946226895,-0.0007443071713634304,0.015354554613314541,0.9897563488522719
2010-12-31,1,0.0008926748124966438,0.001132342064681241,-0.0007443071713634304,0.015354554613314541,0.9896595944950041
2011-01-04,1,0.0005058867030012972,0.0006254717403597037,-0.0007226261729650312,0.015354554613314541,0.9889723348631563
2011-01-06,1,0.001719846323773127,0.0019853860003273857,-0.0020248321125036226,0.012659924258585004,0.9908585742495041
2011-01-10,1,0.0023258149322066502,0.002719491738377197,-0.0021832881466936236,0.012659924258585004,0.990753531444779
2011-01-12,1,0.002476054901375673,0.002875769675602607,-0.004392654526649049,0.012659924258585004,0.9903737050168665
2011-01-14,1,0.002045272180964209,0.002332256892272227,-0.004392654526649049,0.012659924258585004,0.990175696882593
2011-01-19,1,0.0034164648343578243,0.003889947983230376,-0.004392654526649049,0.01019890085763293,0.9915132257963323
2011-01-21,1,0.003877236957609089,0.0043702433842361145,-0.004392654526649049,0.009301924823062998,0.9921610840398715
2011-01-25,0,0.0,0.0,-0.004392654526649049,0.00798530652290212,0.9927045877511478
2011-01-27,1,0.0037341201676959657,0.004213042188435857,-0.002920294094139292,0.007097356286070699,0.9926075472096597
2011-01-31,1,0.0033416066340643006,0.003706680330910662,-0.002920294094139292,0.006197206783297058,0.9931598848967564
2011-02-02,1,0.004194813569133468,0.004713250088526799,-0.002920294094139292,0.004953037524755365,0.9926963167455641
2011-02-04,1,0.00328810604322273,0.0036250287921675206,-0.005186142746875435,0.004953037524755365,0.9923623656758024
2011-02-08,1,0.0034117188322937415,0.003758244593279941,-0.005186142746875435,0.004953037524755365,0.9924091339582907
2011-02-10,1,0.003963556591732451,0.0044426352587846815,-0.007522375817919085,0.004953037524755365,0.9911934929191458
2011-02-14,1,0.003662261475344572,0.004127527174439117,-0.007620226846592161,0.004953037524755365,0.9914224573409891
2011-02-16,1,0.0038235254672663354,0.004341839548528686,-0.010241189498953581,0.005129914316757136,0.9897951719913344
2011-02-18,1,0.0037674000514133776,0.004256155620785214,-0.010241189498953581,0.005396035086503387,0.989887986544063
2011-02-23,1,0.002720695164626449,0.003034860557952508,-0.007620226846592161,0.005396035086503387,0.9912291489051367
2011-02-25,1,0.0020707251757302583,0.002243395993083793,-0.007620226846592161,0.005396035086503387,0.990939077664538
2011-03-01,1,0.0019622656559304245,0.002157096521460296,-0.005713303726609087,0.005396035086503387,0.9915734937078329
2011-03-03,1,0.002301990408790099,0.0025153187030510496,-0.0070016006041718915,0.003968206718807499,0.9915071950643799
2011-03-07,1,0.0017064334277060906,0.0018484122910562575,-0.004841137975763579,0.007416480826592044,0.9924611413680394
2011-03-09,1,0.0019794976961809863,0.0021425951329792628,-0.004841137975763579,0.005317209586803022,0.9927519540873485
2011-03-11,1,0.001815742656593063,0.0019477616107570592,-0.004841137975763579,0.003932343584809403,0.9936244822307273
2011-03-15,1,0.001353462366782899,0.0014098512216286752,-0.002474410607432008,0.003932343584809403,0.994176910567528
2011-03-17,1,0.002067587315631849,0.002267855798917353,-0.004841137975763579,0.002039585891901647,0.994138186514777
2011-03-21,1,0.002235635865572865,0.0024552341113880417,-0.005827046686782006,0.0020316414786973134,0.9933066979431115
2011-03-23,1,0.0018929308111454667,0.0020405637334656294,-0.005827046686782006,0.003932343584809403,0.9932099978600302
2011-03-25,1,0.0015350086956074788,0.0016436876729037965,-0.005114149868215266,0.003932343584809403,0.9935564768875315
2011-03-29,1,0.001276927744719281,0.0013323428538038035,-0.005114149868215266,0.004993198584073292,0.9927960056587064
2011-03-31,1,0.0017353799323071074,0.001910765404211947,-0.002396994260703832,0.003932343584809403,0.9933245583432189
2011-04-04,1,0.0016970719196042572,0.001844444420533643,-0.00488728204351096,0.003932343584809403,0.9926390664250468
2011-04-06,1,0.0012025802748298702,0.0012134185164155468,-0.00667811556106947,0.0042405803816986855,0.9916814387605856
2011-04-08,1,0.00037915241811536585,0.0004920133233320472,-0.00488728204351096,0.0032819289949527334,0.9926686714164846
2011-04-12,0,-0.00012287864494381112,7.601890955233575e-05,-0.00611281197641571,0.0032819289949527334,0.9924983720698743
2011-04-14,-1,-0.0012228315989363371,-0.0009123996249580381,-0.004777141631434575,0.006611530954035922,0.993354135361692
2011-04-18,-1,-0.0021071197932136763,-0.0016613118174028517,-0.004777141631434575,0.008875121373265925,0.9932742391593827
2011-04-20,-1,-0.0016428710624045392,-0.0012573530588555783,-0.004777141631434575,0.006415223953803206,0.9935400404074507
2011-04-25,-1,-0.0022839633422551357,-0.0017964409745903044,-0.00611281197641571,0.006415223953803206,0.9930146771062
2011-04-27,-1,-0.0010391762673789143,-0.0007378865557500489,-0.006456602159989413,0.004882312174136393,0.9940336463390598
2011-04-29,-1,-0.0015152226355172453,-0.00112337115445804,-0.006849684733639562,0.004882312174136393,0.9936327844359036
2011-05-03,-1,-0.0013946559070190758,-0.0010094771892643648,-0.007866201216024098,0.004882312174136393,0.9928919488846317
2011-05-05,-1,-0.0015902258235404843,-0.0011777788397297308,-0.006849684733639562,0.004882312174136393,0.9936184963791375
2011-05-09,-1,-0.0013522930994077518,-0.00098968181542741,-0.006849684733639562,0.00605777043920579,0.993011675765142
2011-05-11,-1,-0.0016848793445649697,-0.0012869912330725104,-0.006849684733639562,0.007517864422431562,0.9926831256674453
2011-05-13,-1,-0.001985001640453764,-0.0015280462963216323,-0.007640487668938888,0.007517864422431562,0.9920702349814692
2011-05-17,-1,-0.002280452451811542,-0.0017752298804064128,-0.0067839350607704916,0.007517864422431562,0.9923219099555394
2011-05-19,-1,-0.0020765223489950533,-0.0015879109649883007,-0.0067839350607704916,0.007517864422431562,0.992623686701108
2011-05-23,-1,-0.0028975880182419145,-0.0023024350640127355,-0.0031932066689355654,0.007517864422431562,0.9922230150717224
2011-05-25,-1,-0.0031587705242784557,-0.002552076023066463,-0.004543215303725685,0.007517864422431562,0.9921274301587564
2011-05-27,0,0.0,0.0,-0.0026494875066968597,0.007517864422431562,0.9927665909765152
2011-06-01,0,0.0,0.0,-0.0023713272055571086,0.00791966973122179,0.9938104867454398
2011-06-03,0,0.0,0.0,-0.0023713272055571086,0.009914296805654865,0.9932104930017133
2011-06-07,-1,-0.003280975617572077,-0.0027328177740265787,-0.003165015238067726,0.008493495074390693,0.992226913169842
2011-06-09,-1,-0.002873072064268579,-0.002378548194160169,-0.004536845967804627,0.0076060105355066545,0.9926511131427489
2011-06-13,-1,-0.0010836215863652423,-0.0008947911013847694,-0.004536845967804627,0.006317132544522741,0.9937999994781066
2011-06-15,0,0.0,0.0,-0.005961736521773093,0.004576898663333452,0.9939666794662579
2011-06-17,0,0.0,0.0,-0.006921142407715882,0.004576898663333452,0.9930990721674869
2011-06-21,0,0.0,0.0,-0.006921142407715882,0.006317132544522741,0.9928311797046443
2011-06-23,0,0.0,0.0,-0.006683786456425971,0.0076060105355066545,0.991918042310464
2011-06-27,0,0.0,0.0,-0.006683786456425971,0.00894750049888822,0.9913844052878833
2011-06-29,0,0.0,0.0,-0.01045546289100096,0.0076060105355066545,0.9886892042140258
2011-07-01,0,0.0,0.0,-0.010826491188685089,0.0010846525490169764,0.988552442822275
2011-07-06,0,0.0,0.0,-0.010476486378550533,-0.0008907812704477159,0.9889495144307638
2011-07-08,0,0.0,0.0,-0.010826491188685089,0.0010846525490169764,0.9871020486807826
2011-07-12,0,0.0,0.0,-0.013092631926408345,0.007482246965304917,0.9835772448619637
2011-07-14,0,0.0,0.0,-0.019581228935720445,0.014089430115896714,0.979740312977681
2011-07-18,0,0.0,0.0,-0.019581228935720445,0.01716170316706092,0.9798260374244115
2011-07-20,0,0.0,0.0,-0.019581228935720445,0.01716170316706092,0.9798367829125733
2011-07-22,0,0.0,0.0,-0.026072352367166228,0.009428113505705982,0.9800725560010746
2011-07-26,0,0.0,0.0,-0.026072352367166228,0.009851739510966868,0.9794613825351031
2011-07-28,0,0.0,0.0,-0.016682314620429205,0.017169467828494232,0.9810823092335539
2011-08-01,0,0.0,0.0,-0.01201981329299839,0.017396841824423564,0.9808236280916198
2011-08-03,0,0.0,0.0,-0.004055134793415196,0.017396841824423564,0.9813281985980777
2011-08-05,0,0.0,0.0,-0.01568771587162058,0.016568837401839488,0.9819603069248696
2011-08-09,0,0.0,0.0,-0.0054177944221512645,0.016568837401839488,0.9846829734751782
2011-08-11,0,-0.004771859245786024,0.0,-0.0072848841761078195,0.012519162829659126,0.9891981674032051
2011-08-15,0,0.0,0.0,-0.0072848841761078195,0.009819712838100798,0.9881798181932104
2011-08-17,0,0.0,0.0,-0.0072848841761078195,0.013173087619797005,0.9870069358272011
2011-08-19,0,0.0,0.0,-0.0028621117521615766,0.013173087619797005,0.9874488079067493
2011-08-23,0,0.0,0.0,-0.01412390945393285,0.011387246235644967,0.9865908991209623
2011-08-25,0,0.0,0.0,-0.013871441410167102,0.009819712838100798,0.9873093275621276
2011-08-29,0,0.0,0.0,-0.013871441410167102,0.008850983844450998,0.9872073008701509
2011-08-31,0,0.0,0.0,-0.013871441410167102,0.008850983844450998,0.9861125174040712
2011-09-02,0,0.0,0.0,-0.013020819659784829,0.008850983844450998,0.9868871813421037
2011-09-07,-1,-0.0008676349592030294,-0.0007901519665577037,-0.013020819659784829,0.008850983844450998,0.9869296521731861
2011-09-09,-1,-0.000843877517143448,-0.0007686320201759403,-0.011687980510779189,0.009995244181745393,0.9866794498408163
2011-09-13,0,0.0,0.0,-0.011687980510779189,0.011913840266578754,0.9861351008200965
2011-09-15,0,0.0,0.0,-0.011687980510779189,0.008717823108661957,0.9876484533333423
2011-09-19,0,0.0,0.0,-0.013182362982091095,0.007850760288227438,0.9873701457257209
2011-09-21,0,0.0,0.0,-0.007864306661862247,0.00959576197437827,0.9888203461787894
2011-09-23,-1,-0.0010650204344992765,-0.0010229990737197102,-0.0058006339031381445,0.013138241179736403,0.9884218065542104
2011-09-27,1,0.00015301700015067784,0.0002662174175683428,-0.0058006339031381445,0.013138241179736403,0.9892334804798517
2011-09-29,-1,-0.0006104483513758965,-0.0005933969633552888,-0.0058006339031381445,0.013138241179736403,0.9881840185640417
2011-10-03,-1,-0.0014092827258739501,-0.001321516824505419,-0.0035552938065178726,0.013138241179736403,0.9887196907565187
2011-10-05,0,0.0,0.0,-0.0058006339031381445,0.00959576197437827,0.988562166157491
2011-10-07,0,0.0,0.0,-0.0058006339031381445,0.009859307171502504,0.9882693735874146
2011-10-11,1,0.001610690041602183,0.0019311573972931803,-0.0058006339031381445,0.009588081232597934,0.9890991076933853
2011-10-13,0,0.0,0.0,-0.009540264747815459,0.009588081232597934,0.9874844880066569
2011-10-17,0,0.0,0.0,-0.007326306414900468,0.016883415632996623,0.9876971381024212
2011-10-19,0,0.0,0.0,-0.009540264747815459,0.009608513519157563,0.9873289283905758
2011-10-21,1,0.0009648591304529795,0.0010761372036285875,-0.010269722952595086,0.006638871644354812,0.9880965483063502
2011-10-25,1,0.001564397911271503,0.0017829937599785222,-0.010269722952595086,0.0062892501250494766,0.9883420267639041
2011-10-27,1,0.00033337992636003856,0.00040937760013574854,-0.008627102469856516,0.006638871644354812,0.9892994998163657
2011-10-31,1,0.0008082040331663948,0.0009633019731492113,-0.010269722952595086,0.009608513519157563,0.9871126206658888
2011-11-02,1,0.0005406189153337345,0.0006790523580592295,-0.008627102469856516,0.01757669698219109,0.9872044434584406
2011-11-04,1,0.0015320568542305688,0.0018181359016009658,-0.010269722952595086,0.012201646595807077,0.9875145045075283
2011-11-08,1,0.0021649800039022383,0.0025381072370246737,-0.010269722952595086,0.007503249336571317,0.9878768212763059
2011-11-10,1,0.0014644891634773925,0.001765673658278153,-0.008627102469856516,0.01090588132340267,0.9884063580747682
2011-11-14,1,0.0018232031221968154,0.002151839177474223,-0.008627102469856516,0.007503249336571317,0.9885803781778952
2011-11-16,1,0.001236169686585562,0.001487769383143133,-0.007267679039329612,0.008848601358662965,0.9895659779847344
2011-11-18,1,0.001197894087506404,0.0014600767372311902,-0.006880004221217188,0.008848601358662965,0.9899609043228254
2011-11-22,1,0.001329337141351168,0.001643328467523747,-0.006012258840842106,0.0123230801772136,0.9888887198593082
2011-11-25,1,0.0016119435775192865,0.0019584079704724373,-0.004706651576954701,0.0123230801772136,0.9892843240277907
2011-11-29,1,0.001855085695407821,0.002210434282325901,-0.0044412612130283035,0.01090588132340267,0.9914668818388386
2011-12-01,1,0.0026441532070174134,0.003089869153091081,-0.004938253802736205,0.007633156294182252,0.9920206370529666
2011-12-05,1,0.0021837081805476384,0.0025541901020128713,-0.004938253802736205,0.009133858051881369,0.9916403508486847
2011-12-07,1,0.0016499453570885897,0.0019113573405452112,-0.006012258840842106,0.009133858051881369,0.9914256953695889
2011-12-09,1,0.0018002145062417044,0.002101134876703752,-0.004938253802736205,0.007633156294182252,0.9923541148924736
2011-12-13,1,0.0017082388245410036,0.0020239399807115924,-0.003891939447623705,0.00900974773844313,0.9925247246852661
2011-12-15,1,0.0021135743544563926,0.0025086368471485395,-0.002468739603909342,0.008384977097802851,0.9930056059160075
2011-12-19,1,0.0008393014665768981,0.0009368743173071949,-0.0013632553122229654,0.011909955498452553,0.9919688541002067
2011-12-21,1,0.0017132399675923642,0.0019155490320275708,-0.003342634807292068,0.007528496321969633,0.9929116082891588
2011-12-23,1,0.002087980923004895,0.002327964290526876,-0.005054971387726438,0.007185897382513011,0.9930277251625927
2011-12-28,1,0.0016149772945149073,0.001766312777388326,-0.005642762613419449,0.007394621465582317,0.9929097544673653
2011-12-30,1,0.0011932098682041108,0.0012595268936725537,-0.004090125021872935,0.007394621465582317,0.9934718623144685
2012-01-04,1,0.0006602776302094859,0.0007186233415610168,-0.003773627485013721,0.007394621465582317,0.993940164619014
2012-01-06,1,0.0006670490764641399,0.0006924475676901854,-0.003083078532124998,0.00814300937286538,0.9933966918909913
2012-01-10,1,0.000901014768190905,0.0009178962563988848,-0.003083078532124998,0.011363608547717844,0.9924592367300138
2012-01-12,1,0.0007822297926605905,0.0008239108848159772,-0.003773627485013721,0.00970533320089817,0.9925369991064187
2012-01-17,1,0.0011769124818481825,0.001245107329538874,-0.003773627485013721,0.00970533320089817,0.9923560038986704
2012-01-19,1,0.0015483756176657912,0.0016413839866189352,-0.005512731918832029,0.008434277745628193,0.9922271723166637
2012-01-23,1,0.0016113259132450393,0.0017707710746810057,-0.005512731918832029,0.00970533320089817,0.9917412780402831
2012-01-25,1,0.0012278176105437136,0.0013331630345057748,-0.004507092462489514,0.00970533320089817,0.9917631448725788
2012-01-27,1,0.0005031508186775751,0.000552235665978242,-0.0020528574783939086,0.012255253138260922,0.9914716038986611
2012-01-31,1,0.0010903875791766393,0.0011489271151204521,-0.004563239308254387,0.012255253138260922,0.9911829420084831
2012-02-02,1,0.0008477205259423034,0.0008534000893073553,-0.003872322111580794,0.009085434592981001,0.9919318229663442
2012-02-06,1,0.001389922562087648,0.0014617389729632065,-0.005785090711691976,0.007791887377005771,0.9925635869366247
2012-02-08,1,0.0025335531942968503,0.0028262671002540593,-0.005785090711691976,0.004929411306725797,0.9935617552328327
2012-02-10,1,0.0024684470924623446,0.0027673547185806833,-0.003976240367146122,0.005543987005087862,0.9938258781803819
2012-02-14,1,0.001404518097028561,0.0014609860291854902,-0.003976240367146122,0.006323525404075405,0.9935804478200608
2012-02-16,1,0.0007689674967100752,0.0008012404000737312,-0.0018225517461693777,0.006323525404075405,0.9940293323119
2012-02-21,1,0.001456732445748747,0.0015608293954972013,-0.0016193256147296344,0.005543987005087862,0.9952858768329627
2012-02-23,1,0.0012920474011389473,0.0013325203838988001,-0.0016193256147296344,0.003208927450984804,0.9956560667280041
2012-02-27,1,0.0011559334129781966,0.0011609020856113718,-0.0016094313967537147,0.004297705057856949,0.9958376949258778
2012-02-29,1,0.0011122576775271275,0.0011263492771924988,-0.0007509617617855998,0.004297705057856949,0.9957571902736326
2012-03-02,1,0.0011847639178419799,0.0012366427940255814,-0.0008335430535009191,0.004297705057856949,0.9957292190743224
2012-03-06,1,0.0012869265848812882,0.0013864950711185283,-0.0007486011940871643,0.005080383825594061,0.995607032150397
2012-03-08,1,0.0013866923598013147,0.0014958886515877424,-0.001521091647987423,0.004603211969889813,0.9951735976277317
2012-03-12,1,0.0011783920311049679,0.0012242690508603657,-0.003846312828385927,0.003049870165750055,0.9939195833026112
2012-03-14,1,0.0015055260063558385,0.001605175727923253,-0.003846312828385927,0.003049870165750055,0.9932643881900699
2012-03-16,1,0.0014215271454221952,0.0015388180193869685,-0.003846312828385927,0.0033022708499821068,0.9934116234302066
2012-03-20,1,0.001530800968443663,0.0016847842572458023,-0.003907900399101558,0.0054422991406065414,0.9929791984509475
2012-03-22,1,0.0009606332306792861,0.0009840266277567592,-0.003907900399101558,0.006489298646554572,0.9927484345455057
2012-03-26,1,0.0011675069714107552,0.0012180229058797348,-0.004563387349750997,0.00580789045584834,0.9928314532401892
2012-03-28,1,0.0006187878820840849,0.0006704444321040187,-0.0027570798821438575,0.0069491544818292604,0.9931585025547998
2012-03-30,1,0.0009289790333775081,0.0009403719648845804,-0.005275450037010888,0.0069491544818292604,0.9925510917770082
2012-04-03,1,0.0013494787393360293,0.0014493451726389612,-0.005896849068305621,0.00580789045584834,0.9928742288765905
2012-04-05,1,0.0006902548582470588,0.0007208286865301609,-0.007159881064779553,0.00580789045584834,0.9923085302800374
2012-04-10,1,0.0001170976194661479,0.00020243074689665558,-0.0053730310467817195,0.00580789045584834,0.9934676321868947
2012-04-12,0,0.0,0.0,-0.00613337387963548,0.0022393408779832298,0.9940966238509931
2012-04-16,0,-6.015505899379574e-05,7.173826422676168e-05,-0.00613337387963548,0.0005773444244736527,0.9942502020469649
2012-04-18,0,-9.194093529268856e-05,5.980714307726579e-05,-0.0068687317645536716,-6.0418638416962704e-05,0.9944501008847004
2012-04-20,1,6.720689150809054e-05,0.0001975754304544779,-0.007450781133571244,-0.00048210768648151016,0.9937180598817914
2012-04-24,1,0.0002749338770989089,0.0003860966124349414,-0.007450781133571244,-6.0418638416962704e-05,0.9935695076433538
2012-04-26,1,0.0008550674118960912,0.0008614361217091392,-0.007450781133571244,-6.0418638416962704e-05,0.9934057343999075
2012-04-30,1,0.00016023554911116973,0.00026568607963375023,-0.00734886397446294,0.00014285482866665682,0.9935889005363304
2012-05-02,-1,-0.0002241816498429221,-6.835945830381307e-05,-0.008507347900280647,6.000081831779674e-05,0.9935253974781524
2012-05-04,-1,-0.0010376740393634825,-0.0007825051403029376,-0.008507347900280647,6.000081831779674e-05,0.993971753771417
2012-05-08,-1,-0.0014891225139990532,-0.0011675074943218906,-0.008507347900280647,0.000359379442753748,0.9932624743528817
2012-05-10,0,0.0,0.0,-0.00734886397446294,0.0009590551578668585,0.9931164805617589
2012-05-14,0,0.0,0.0,-0.00734886397446294,0.003599517843573331,0.9926079769091939
2012-05-16,0,0.0,0.0,-0.00803651036245983,0.008324440404071326,0.9923052592774064
2012-05-18,-1,-0.0021771757501999637,-0.0018302069548610605,-0.005026134579378829,0.009577276390142182,0.9921448050300224
2012-05-22,-1,-0.002044652532572213,-0.0017018990192525121,-0.00803651036245983,0.008324440404071326,0.9921469072259955
2012-05-24,-1,-0.0021937321646359623,-0.0018319287140130824,-0.00803651036245983,0.00976916032640732,0.9916769820330222
2012-05-29,-1,-0.0023104838680639995,-0.001915759654151676,-0.009173617258579705,0.008324440404071326,0.9916934836434915
2012-05-31,-1,-0.0028566563868306916,-0.00237883894138227,-0.008524708964392863,0.00976916032640732,0.9910190803505025
2012-06-04,-1,-0.003210751261120838,-0.002720168790053633,-0.005455628161110977,0.011180636668443765,0.9899318777479493
2012-06-06,-1,-0.0031505737970149057,-0.0026385480667440392,-0.006470037302533694,0.00976916032640732,0.9905959558952145
2012-06-08,-1,-0.0027979585594973206,-0.0023247240712580466,-0.006470037302533694,0.008746619689774741,0.9909967672031634
2012-06-12,-1,-0.0023190088726615338,-0.0019437382646517276,-0.004813520509824773,0.0067741036247878335,0.9920032798952219
2012-06-14,-1,-0.0026120734601099227,-0.0021829434350737814,-0.004813520509824773,0.007682068274294974,0.9915880466749434
2012-06-18,-1,-0.0022203226647940118,-0.0018212968175677152,-0.004813520509824773,0.006169054234737762,0.9924266130084245
2012-06-20,-1,-0.0022863318623812558,-0.0018843732983175514,-0.0042942901549450335,0.007480182184380224,0.9923324788815656
2012-06-22,-1,-0.002073965917737071,-0.0016999355630328218,-0.0066305874837450825,0.004537129077216684,0.9923600852835659
2012-06-26,-1,-0.002480064906881881,-0.002079827450349703,-0.0042942901549450335,0.00710766542079849,0.9925400672483781
2012-06-28,-1,-0.00116898702469113,-0.0009911008978077005,-0.00260985156599381,0.009973203676729431,0.9923568991434314
2012-07-02,1,0.0002577378197278832,0.00029170240817579597,-0.0046324265354192725,0.007056938290076493,0.9930770543977402
2012-07-05,1,0.00019587783388549175,0.00021921350882751008,-0.004608678557969164,0.007056938290076493,0.9930888454546623
2012-07-09,1,0.00040659462761739504,0.0004731141814960331,-0.0047893273591516315,0.009973203676729431,0.9927002179117013
2012-07-11,-1,-5.255208513896717e-05,-2.8798845529308615e-05,-0.0047893273591516315,0.010250914081035076,0.9920297377867651
2012-07-13,1,0.00018419416775667275,0.00020234098167473403,-0.004006791571878021,0.009973203676729431,0.9927397950902631
2012-07-17,1,0.0003803898408225986,0.00044198987090082276,-0.004006791571878021,0.009973203676729431,0.9928555698346895
2012-07-19,1,0.0008058478492332306,0.0009437957628763852,-0.004006791571878021,0.007213787566114485,0.9933572949612026
2012-07-23,1,0.00026463460005101563,0.00031514847973268604,-0.0018078937623905386,0.009931029903424973,0.9934694535030276
2012-07-25,1,0.0004189445885893759,0.000496089575427994,-0.0035671359480627706,0.007213787566114485,0.993449824458807
2012-07-27,1,0.0010224548787877304,0.0011674101116006838,-0.004006791571878021,0.005534212793242492,0.9944576414501594
2012-07-31,1,0.0008466808560587656,0.00097820808648618,-0.0035671359480627706,0.005534212793242492,0.9949254368643382
2012-08-02,1,0.0007228188980891081,0.0008491082713375975,-0.004006791571878021,0.005534212793242492,0.9945084199123635
2012-08-06,0,0.0,0.0,-0.004401948730735371,0.005210708188042992,0.9945170407999546
2012-08-08,1,0.0008788642920181086,0.0010243975316279667,-0.004401948730735371,0.005210708188042992,0.9946709215980817
2012-08-10,0,0.0,0.0,-0.006214816030921083,0.004137605482302313,0.9943509419983138
2012-08-14,0,0.0,0.0,-0.006214816030921083,0.004137605482302313,0.9943153259470363
2012-08-16,0,0.0,0.0,-0.006585744610868693,0.004137605482302313,0.9939901744964118
2012-08-20,0,0.0,0.0,-0.006585744610868693,0.0024099682684393707,0.9942687057356607
2012-08-22,0,0.0,0.0,-0.006585744610868693,0.0024099682684393707,0.9941075643137525
2012-08-24,0,0.0,0.0,-0.006179062060465094,0.002288755705103557,0.9944876141725676
2012-08-28,0,0.0,0.0,-0.006179062060465094,0.004623864247544192,0.9942143553351934
2012-08-30,0,0.0,0.0,-0.0037058862832609722,0.005337150880072245,0.9942584099459576
2012-09-04,0,0.0,0.0,-0.0030850718063991957,0.005337150880072245,0.9945235756734688
2012-09-06,0,0.0,0.0,-0.0030850718063991957,0.005069913700094521,0.9949755980580431
2012-09-10,1,0.0017032775373005756,0.0019741193608835157,-0.0030850718063991957,0.005069913700094521,0.9952761822046238
2012-09-12,1,0.0018779011414398656,0.00217954006618143,-0.0034666449689206916,0.005069913700094521,0.9943826792059008
2012-09-14,0,0.0,0.0,-0.003151241068996994,0.004623864247544192,0.9952298566575576
2012-09-18,0,0.0,0.0,-0.0030186186210054357,0.005069913700094521,0.9949213454070223
2012-09-20,0,0.0,0.0,-0.002803034712808495,0.005285551690380457,0.99524100193201
2012-09-24,1,0.0011724478840084377,0.0013624301080768487,-0.0030186186210054357,0.005285551690380457,0.9946687101850293
2012-09-26,1,0.0009290098664862785,0.0010417549716978743,-0.0032672854127394125,0.006464961037455413,0.9935333607008674
2012-09-28,1,0.0013998377077706415,0.0015731618935809722,-0.004191692086590901,0.002333933719070783,0.9933778162562562
2012-10-02,1,0.0010009889565575768,0.0010989155828296053,-0.004191692086590901,0.006140499587999599,0.9931317497959645
2012-10-04,1,0.0012298960704476111,0.0013470846251024656,-0.004958748024751349,0.004428813488344746,0.993442975166982
2012-10-08,1,0.0007100897656104602,0.0007375768095388037,-0.005639844085370838,0.006140499587999599,0.9915131304149484
2012-10-10,0,-3.3167008256146325e-05,5.7255948814683214e-05,-0.005639844085370838,0.006140499587999599,0.9915923665798054
2012-10-12,1,0.0002151343968652024,0.00026206104157542177,-0.005639844085370838,0.006140499587999599,0.9914063038217288
2012-10-16,1,0.00043044921741261754,0.0004600371025096226,-0.00790196222472406,0.004477741780282141,0.9906357498039126
2012-10-18,1,0.0006970980669512659,0.0006986996320986509,-0.00790196222472406,0.006209294640779344,0.9894798311825376
2012-10-22,-1,-0.00017387585178681365,-4.584927407570277e-05,-0.006408794734479039,0.006209294640779344,0.9900806797059393
2012-10-24,0,0.0,0.0,-0.005246243717314358,0.008372155380117707,0.9900038901992047
2012-10-26,0,0.0,0.0,-0.0037342443132386983,0.008372155380117707,0.9901532671350889
2012-11-01,1,2.382453721678303e-05,0.0001308488343313021,-0.005246243717314358,0.006879207591309012,0.9904437148034894
2012-11-05,0,-7.329196911591183e-05,5.0573138766393984e-05,-0.006272324414653016,0.006879207591309012,0.9899317658205153
2012-11-07,-1,-0.0014973144315458958,-0.001204050595877229,-0.003990561196274766,0.004701046097125364,0.9921504800728957
2012-11-09,-1,-0.0013178482115444932,-0.00107170266139287,-0.0023564353891385335,0.005773316830847967,0.9922316620792491
2012-11-13,-1,-0.0014849511848230457,-0.00120522221333418,-0.003595959785335096,0.005773316830847967,0.9923185246098802
2012-11-15,-1,-0.0021854441613304984,-0.0018421655344808753,-0.003595959785335096,0.005773316830847967,0.9920912287207679
2012-11-19,-1,-0.0016303337418495966,-0.0013029666938679356,-0.003595959785335096,0.005773316830847967,0.9916497318228737
2012-11-21,-1,-0.0014387758191727119,-0.001156959936611314,-0.004418881116319901,0.005773316830847967,0.9917968726798398
2012-11-26,1,7.95979042756773e-05,0.00014400321716123878,-0.004418881116319901,0.004830743835526935,0.9927471071074441
2012-11-28,1,0.00012380518692083176,0.00018862575262534138,-0.005088520181834009,0.004830743835526935,0.9923352379186626
2012-11-30,-1,-9.828658787236152e-05,-1.5321754682890858e-05,-0.005321765010109271,0.005864845397265488,0.9915688251982561
2012-12-04,-1,-0.000951318454012373,-0.00075798601511634,-0.004418881116319901,0.007281298547339528,0.9918094161487745
2012-12-06,-1,-0.0008258892056676996,-0.0006553453956925229,-0.004418881116319901,0.007281298547339528,0.9914690290155981
2012-12-10,-1,-0.0005086264424808826,-0.00037434919544195196,-0.005321765010109271,0.009119825929505089,0.9908522342164214
2012-12-12,0,0.0,0.0,-0.005303857403765289,0.009119825929505089,0.9908536193459712
2012-12-14,0,0.0,0.0,-0.003961768581269251,0.009119825929505089,0.9922282488811988
2012-12-18,1,5.5595760863847186e-05,0.00011464995801178097,-0.0042909991236317335,0.007281298547339528,0.993573062340728
2012-12-20,1,8.947408566943924e-05,9.178710532353548e-05,-0.004437488248062441,0.009119825929505089,0.9926633092065771
2012-12-24,-1,-0.0002805699730969489,-0.0002062345169882878,-0.0057433247770574125,0.009119825929505089,0.9912977765431238
2012-12-27,-1,-0.0003195689536818207,-0.0002197752686185963,-0.008479764480794282,0.008422052768620169,0.9900658813615951
2012-12-31,-1,-0.0003608742544444907,-0.0002589162700245472,-0.008479764480794282,0.006390902508644209,0.9901701050076206
2013-01-03,1,0.00030394149670678113,0.0003226407674608298,-0.010260139841646356,0.0045051703296645085,0.9899461997251877
2013-01-07,1,0.0005970130122044818,0.0006566895026636128,-0.010260139841646356,0.0045051703296645085,0.9898197138691878
2013-01-09,1,0.0005251688159396957,0.0005760627619908007,-0.008479764480794282,0.0045051703296645085,0.9905920266299507
2013-01-11,1,0.00033884945662519437,0.0003803209544631602,-0.008479764480794282,0.006079968864977119,0.9902710201790551
2013-01-15,1,0.0008404640857362698,0.0009761739312477064,-0.008479764480794282,0.006079968864977119,0.990037215418821
2013-01-17,1,0.0009226405169073604,0.0010498815178514582,-0.008479764480794282,0.006079968864977119,0.9904582074422992
2013-01-22,1,0.0011318923610126378,0.001284808922199589,-0.006777119841165953,0.004556153129872895,0.991062484694073
2013-01-24,-1,-0.00010941324021108823,-9.84665188595553e-05,-0.005740750912930897,0.004556153129872895,0.9926332135354214
2013-01-28,-1,-0.0018164613460116563,-0.00157541923132873,-0.005507224393252264,0.004556153129872895,0.9945439530294483
2013-01-30,-1,-0.0021503256694305924,-0.0018595368784170075,-0.004165498942342294,0.004671644644922954,0.995003964884745
2013-02-01,-1,-0.001630026153777366,-0.0014513002081334898,-0.004165498942342294,0.004671644644922954,0.9951795964987297
2013-02-05,-1,-0.0018920169604633018,-0.0016668208945053188,-0.0032474664576647517,0.006426443410127297,0.9948107732027962
2013-02-07,-1,-0.0015587000932022605,-0.0013781581791554797,-0.0032474664576647517,0.006426443410127297,0.9941580268691117
2013-02-11,-1,-0.0015667757797585352,-0.0013847136649146193,-0.0028138703720110535,0.006296587299903289,0.9943549699164116
2013-02-13,-1,-0.001766205706272311,-0.0015531372560505744,-0.0021342774677517626,0.0068346402921516634,0.9930987303296147
2013-02-15,-1,-0.0014302189999348398,-0.0012450194861393683,-0.0029767184493283867,0.006296587299903289,0.9934677887770542
2013-02-20,-1,-0.0016086933353582544,-0.0014029298707678467,-0.0029767184493283867,0.006296587299903289,0.9933194378461158
2013-02-22,-1,-0.001103845528090402,-0.0009781955791087033,-0.003826369841050838,0.0062792619541307965,0.9931707488726764
2013-02-26,-1,-0.0011477087436207122,-0.0010478463400520868,-0.002342204852873882,0.006782664254834186,0.9926146756588828
2013-02-28,-1,-0.000984137231982192,-0.0008903109411415356,-6.297794442296917e-05,0.00816809517566976,0.9918705754420087
2013-03-04,-1,-0.0008836925718593424,-0.0008348586918156746,-0.00039043649342468173,0.00816809517566976,0.9918036043156541
2013-03-06,-1,-0.00040471956942648773,-0.00039807369153580717,-0.00039043649342468173,0.006799219856325776,0.9925201748977225
2013-03-08,-1,-3.9374434730901945e-05,-2.8393156316025923e-05,-0.002432564004307969,0.0061654613125685445,0.992871261315595
2013-03-12,1,0.00011220066724163413,0.00015618727197340087,-0.000945397590439725,0.006062252953880229,0.9928957556283688
2013-03-14,1,0.000907391891012427,0.0010686509955421437,-0.0019493572720772337,0.006062252953880229,0.993582988411266
2013-03-18,1,0.0010445444752969965,0.0012421887180140737,-0.002442768571512454,0.006799219856325776,0.9926190196432114
2013-03-20,1,0.0005160406758578514,0.0006108755722986456,-0.005755955385649416,0.006799219856325776,0.9923957820802671
2013-03-22,1,0.0009529163209735847,0.0011391478903245177,-0.004762335158335727,0.008311266984501254,0.9922086949838241
2013-03-26,1,0.0012090127915135843,0.0013967767006620552,-0.004762335158335727,0.008311266984501254,0.9921104265019056
2013-03-28,1,0.0023911416087449406,0.002761972068632128,-0.004762335158335727,0.006648980347863639,0.9931604096339453
2013-04-02,1,0.0016934728091523269,0.0019715801075347933,-0.0020415313607535434,0.006648980347863639,0.9938711292643186
2013-04-04,1,0.0012755004253249681,0.0014325990558371113,-0.0020415313607535434,0.0074904045526320885,0.9932269421767339
2013-04-08,1,0.0011248099818390654,0.0012472240269226264,-8.120598297696761e-05,0.009599807034785733,0.9932887566341042
2013-04-10,1,0.0013789131335161819,0.0015397926503057532,-0.0020415313607535434,0.009599807034785733,0.9928580004202289
2013-04-12,1,0.001123633802785154,0.0011866680223618985,-0.004431893703377644,0.0074904045526320885,0.9929831445839693
2013-04-16,1,0.001382087685018046,0.0015469611325546577,-0.001473005156501045,0.0077470212350139915,0.9939036795620287
2013-04-18,1,0.0007841092660465098,0.0008599048038375116,0.00010698395349859454,0.01008138430383085,0.9938481150576485
2013-04-22,1,0.0015247705203024799,0.0017558185101193375,0.000757705706977074,0.01008138430383085,0.9939760618269761
2013-04-24,1,0.0022105164690669147,0.002539621980205657,0.00010698395349859454,0.0077470212350139915,0.994473269234362
2013-04-26,1,0.002502862863402903,0.002855367912145263,-0.0004830542697722811,0.007766705773148333,0.9944490380381541
2013-04-30,1,0.002111428370821183,0.0023747332703277645,-0.0008139249947278236,0.007766705773148333,0.9940499832078353
2013-05-02,1,0.002519903042497237,0.0028328823254639302,-0.002977826010385672,0.006851439291315405,0.9936927987273996
2013-05-06,1,0.0029943050681935372,0.003388194284539408,-0.0037847495402419887,0.006521774668819936,0.993577214695153
2013-05-08,1,0.0025191198178811597,0.0028286482165408152,-0.0037847495402419887,0.006621136501214167,0.9934218068705762
2013-05-10,1,0.0020674893768471607,0.0022540424926962904,-0.0037847495402419887,0.007244580207519379,0.9922378030940187
2013-05-14,0,0.0,0.0,-0.004230995517586635,0.007244580207519379,0.9920952882635329
2013-05-16,0,0.0,0.0,-0.004230995517586635,0.007244580207519379,0.9921374420119012
2013-05-20,1,0.004180775162075749,0.004712498761250433,-0.004230995517586635,0.006621136501214167,0.9926096788077096
2013-05-22,1,0.0040306568110174,0.004538444844124103,-0.0064842564089198805,0.006621136501214167,0.9909243015301697
2013-05-24,1,0.0038984424584462196,0.004372073383471926,-0.00779497049453823,0.005628998020715971,0.9903918267965148
2013-05-29,1,0.004088650117353783,0.004606990097813311,-0.00779497049453823,0.005900182868831895,0.9897979617871144
2013-05-31,1,0.00357621101893519,0.004036968598361933,-0.0064842564089198805,0.009007045004525864,0.9901337531340306
2013-06-04,1,0.0032464576510435016,0.003654072696464954,-0.007918913963811391,0.009007045004525864,0.9895607342073685
2013-06-06,1,0.002890142657668244,0.0032385544184875864,-0.0064842564089198805,0.010256150088142907,0.9898936695186996
2013-06-10,1,0.0035695242727136183,0.004009997261046386,-0.004430015638127611,0.009007045004525864,0.9916121724081898
2013-06-12,1,0.003808158869782331,0.004290359542439828,-0.00279755305348674,0.011089282026810102,0.9912909985666898
2013-06-14,1,0.003966096794574062,0.004476570164161221,-0.004025953547622034,0.013756569279713585,0.9908167293784463
2013-06-18,1,0.003705524925727421,0.00413118232253887,-0.00670672769229466,0.013756569279713585,0.9894808302430321
2013-06-20,1,0.0015792892411195334,0.0016360824135451574,-0.002077764187438998,0.013756569279713585,0.9904811566630144
2013-06-24,1,0.0007464326284216396,0.000818850232967423,0.00026380582268230627,0.014384073316880405,0.9899734191828015
2013-06-26,1,0.0009472618846556692,0.0010162629315383304,0.0012563285255829996,0.013756569279713585,0.9905679876309822
2013-06-28,1,0.0015750683041231832,0.001585511398515486,0.0006282219618382275,0.013262793079064927,0.9916978682411367
2013-07-02,1,0.0007526373227000744,0.0008573470849210102,0.0008574072660730631,0.013262793079064927,0.9924234944298578
2013-07-05,1,0.0013146740451862196,0.0013619053915452496,0.0008574072660730631,0.013399896356628464,0.9921838131847591
2013-07-09,1,0.0012244139676640135,0.0012967019464964872,0.0008574072660730631,0.013399896356628464,0.9923465236367501
2013-07-11,1,0.002217810423559148,0.0022761311595753276,0.0008257782152425851,0.011886484234436464,0.9938324453719125
2013-07-15,1,0.002306961253300368,0.0023634168570637456,0.0006646734654049745,0.010503109343539098,0.9940060703227226
2013-07-17,1,0.0020509632093516244,0.0020725584845476992,0.0006646734654049745,0.00900750718534164,0.9948099159970889
2013-07-19,1,0.001991586923275308,0.0020010696474303475,0.00016656172659404526,0.005292541896315182,0.9945376103899244
2013-07-23,1,0.002410399505990489,0.0024694598244214463,-0.0006557893198835729,0.004122064713619051,0.9951079513036063
2013-07-25,1,0.0023714888689152563,0.002394424721214962,-0.0006557893198835729,0.0042000731642891035,0.9952384946832281
2013-07-29,1,0.0024479679374197947,0.002494357069294237,-0.002666485209598229,0.004772259673141039,0.9942100350480371
2013-07-31,1,0.002506133171098862,0.0025818817245435795,-0.0039035589426895246,0.004772259673141039,0.9934123154336068
2013-08-02,1,0.0031828723439661327,0.0033463328192079073,-0.005337899102729844,0.0033280343430718605,0.9937690103425254
2013-08-06,1,0.0033520227403034584,0.003574332088206701,-0.005337899102729844,0.004480176605450159,0.9934574763040983
2013-08-08,1,0.00315586121054637,0.0033364474324802207,-0.005337899102729844,0.004480176605450159,0.9931366915470052
2013-08-12,1,0.00245545103699994,0.0025318879557898032,-0.0033636753971318396,0.005468815283712649,0.9939237702914996
2013-08-14,1,0.0023474064070381335,0.002397767134735964,-0.0026055006029500876,0.005468815283712649,0.9939190592163519
2013-08-16,1,0.002022583977502286,0.00204468011301967,-0.001377841371977379,0.006773789907080796,0.9941600644866684
2013-08-20,1,0.0022752005821599763,0.0023803309295421693,-0.00043928181166166905,0.009203355653861656,0.9938689970621054
2013-08-22,1,0.0021360464325224935,0.002181546773670842,-0.003336841084373876,0.009203355653861656,0.9928294471678536
2013-08-26,1,0.0023443477019014234,0.002410800988657145,-0.003052219104366752,0.008341394939905525,0.9937231493160253
2013-08-28,1,0.00152333827093556,0.0015740943775348734,-0.0023810075255688,0.009203355653861656,0.9937356700546368
2013-08-30,1,0.001192308164442425,0.0012755592503124922,-0.003052219104366752,0.009203355653861656,0.9931961346023737
2013-09-04,1,0.0016899458178870137,0.0017015624684002147,-0.003336841084373876,0.008341394939905525,0.9926579514736129
2013-09-06,1,0.0011055956820756024,0.0012182220222816003,-0.003753902131404464,0.008341394939905525,0.9919585341738412
2013-09-10,1,0.0009268936707122423,0.0010949312907519134,-0.005748935792756225,0.00878620128491226,0.9915678906709465
2013-09-12,1,0.0012293039376178936,0.0013588156840652634,-0.005748935792756225,0.00878620128491226,0.9900507500887156
2013-09-16,1,0.0019391335624350285,0.001971173480891315,-0.005748935792756225,0.00878620128491226,0.9897076018854603
2013-09-18,1,0.0025033267509061265,0.0025600814139422074,-0.009814160876469639,0.005219187873468284,0.9888266883114287
2013-09-20,1,0.0014459451516324994,0.0015272316862507494,-0.005748935792756225,0.009125117917872254,0.9897119893286647
2013-09-24,1,0.0014170213492352714,0.001464384954619959,-0.009814160876469639,0.010838906180963384,0.9868383887920176
2013-09-26,1,0.0017542781150641,0.001781130396650296,-0.009814160876469639,0.010838906180963384,0.986811632733982
2013-09-30,1,0.0009086715087662446,0.000997674947558607,-0.006535361727707708,0.010838906180963384,0.9871741557529837
2013-10-02,1,7.984490254820829e-05,0.0002697158803399665,-0.004456006783841486,0.010838906180963384,0.9881009591487582
2013-10-04,-1,-0.0006124799739932855,-0.0003481527898501139,-0.0036734920103780044,0.010838906180963384,0.9884516086172095
2013-10-08,-1,-0.0005827796251198864,-0.00033603138272605265,-0.0035225198039401722,0.010838906180963384,0.988775511890679
2013-10-10,1,0.0008284714621562412,0.0008788628540454759,-0.0036734920103780044,0.0104396176000058,0.9901883968228598
2013-10-14,1,0.0008489123462611345,0.0009038967016713242,-0.0038908004901626503,0.010737175993409086,0.9898789603228882
2013-10-16,1,0.0008579933529168557,0.0009081037596685255,-0.0030203514727241343,0.010352186557376315,0.991209461581752
2013-10-18,1,0.0009803352229700527,0.0010193562763912971,-0.0033551322373397427,0.009389534212719243,0.9912877091829009
2013-10-22,1,0.0008509942697629995,0.0009317739562396412,-0.0022022949952688413,0.008901884527244164,0.9940970127769075
2013-10-24,1,0.0011112788107917131,0.001179398358226941,-0.0033551322373397427,0.008901884527244164,0.9938097997033304
2013-10-28,1,0.0008831194499413048,0.0009974071338558436,-0.0022022949952688413,0.008901884527244164,0.9936282491141487
2013-10-30,1,0.0011443602743086805,0.0011943221743205747,-0.0022022949952688413,0.009098560349274806,0.9931135243174657
2013-11-01,1,0.0012055875238778093,0.0012552112645812588,-0.005189898520272214,0.008925848003117486,0.9921300014282577
2013-11-05,1,0.001319284203487338,0.0013561775514432434,-0.006730560012728789,0.008386165836759264,0.9913079407691889
2013-11-07,1,0.0014742621110234483,0.0014861987622810282,-0.006730560012728789,0.008386165836759264,0.9914835713466004
2013-11-11,1,0.0007382518904713282,0.0008957728146588008,-0.006219891827391272,0.007659183181575024,0.9922046357826712
2013-11-13,1,0.0002634986230645555,0.0005078630425245539,-0.008194930323783033,0.007659183181575024,0.9913159918471621
2013-11-15,1,0.00037496651254105204,0.0005851577498810954,-0.008194930323783033,0.007738550036758048,0.991300070158633
2013-11-19,1,0.0009586911063249421,0.0010688444673695907,-0.008194930323783033,0.007999978350136551,0.9907236031771318
2013-11-21,1,0.00025749918101869765,0.0004884370115240363,-0.0055256234916252565,0.007840384003061342,0.9910111522499209
2013-11-25,1,0.001103514829230712,0.0012088519929136965,-0.0055256234916252565,0.0074863610984363125,0.9916990704118676
2013-11-27,1,0.0015047254320580492,0.0015627077896095398,-0.0055256234916252565,0.0074863610984363125,0.9912887907788
2013-12-02,1,0.000868201966893083,0.0009540476178258794,-0.004864742977851694,0.007840384003061342,0.9917200047187174
2013-12-04,1,5.3077482798152375e-05,0.00021724304196233708,0.0008588778138765006,0.007840384003061342,0.9914919129492632
2013-12-06,1,0.0002643443607586156,0.00041071148297309144,-0.004864742977851694,0.007840384003061342,0.9912200051594214
2013-12-10,1,0.0005472468686693558,0.0006428195434894196,-0.004864742977851694,0.007840384003061342,0.9915292201199876
2013-12-12,1,0.0004705962692263184,0.0005554008246839167,-0.0017476888569414246,0.008858073527093559,0.9916645956670694
2013-12-16,1,0.0010140641026788106,0.0010186003495056568,-0.0017476888569414246,0.010234600672969154,0.9917242755244358
2013-12-18,1,0.0016607085918245756,0.0017415011416150987,-0.0017476888569414246,0.008858073527093559,0.9930287580008225
2013-12-20,1,0.001616418632050082,0.0016867767373225026,-0.00023388223380615432,0.010234600672969154,0.9929437295747399
2013-12-24,1,0.002381624585020588,0.002593611129702216,-0.004903611663094695,0.010234600672969154,0.9905078579580233
2013-12-27,1,0.0027244602600258877,0.002980476653647113,-0.005082028868520157,0.008886687188307542,0.9909690174325783
2013-12-31,1,0.002683578194575093,0.0029347652270379225,-0.005082028868520157,0.008650263721884367,0.9911687862994736
2014-01-03,1,0.002024240775750764,0.002157934460810803,-0.005082028868520157,0.009126803543322914,0.9905878674272913
2014-01-07,1,0.002262782034214852,0.0024300356254526503,-0.001807161258749912,0.009126803543322914,0.9909801900016547
2014-01-09,1,0.0019506700317735133,0.0020470791281295047,-0.0013008469384898367,0.010811215171987298,0.9897409350830041
2014-01-13,1,0.0022314411065044826,0.002359779152995775,-0.0053240086921265825,0.014031064013368667,0.9888271370286346
2014-01-15,1,0.0027395440608356312,0.002944661049683902,-0.0053240086921265825,0.010461110845671286,0.9890605738279475
2014-01-17,1,0.002767853567994052,0.002992983712734017,-0.0053240086921265825,0.014969556475722274,0.9882486632577251
2014-01-22,1,0.0028694629852068954,0.003071917606881141,-0.0053240086921265825,0.01119866066028493,0.9884729411212226
2014-01-24,1,0.000769822195039954,0.0008560681376930984,-0.0005221112099006105,0.011989390283071662,0.9903618220846147
2014-01-28,1,0.0010093592782042405,0.0010517419324002956,-0.0024428019073760333,0.011989390283071662,0.9893920203913515
2014-01-30,1,0.0008174984700898193,0.0008970185620539096,-0.0005221112099006105,0.011989390283071662,0.9897542046577331
2014-02-03,1,0.0006274420460676658,0.0007190289562784618,0.00019709488319373015,0.011455541426590356,0.9905361025718262
2014-02-05,1,0.0013066178638181662,0.0013085960932166284,1.3034669697407797e-05,0.010223677596989132,0.9911525199522185
2014-02-07,1,0.002358966072657075,0.002521255097666178,-0.0012793975289518362,0.00896375256516173,0.992227541595339
2014-02-11,1,0.002972534199906334,0.0032441885915238783,-0.0012793975289518362,0.007934249102674333,0.9930732272536926
2014-02-13,1,0.0028408742382379443,0.003046442785751749,-0.003459951062861647,0.007268394954008892,0.9927187371813542
2014-02-18,1,0.0031922389396796085,0.003436817253331577,-0.003459951062861647,0.007268394954008892,0.9931479213739455
2014-02-20,1,0.003514524860773861,0.0038160243020021233,-0.006350350911910484,0.005776277905958422,0.992021762196876
2014-02-24,1,0.0033537921120690923,0.003588812092478364,-0.00744595861694604,0.005096100700190562,0.9915465516844043
2014-02-26,1,0.0017280830604341393,0.001751274611372642,-0.006092909327059001,0.005776277905958422,0.9926900503741544
2014-02-28,1,0.0013017484562835642,0.001418677988225667,-0.006092909327059001,0.007268394954008892,0.9923745305660924
2014-03-04,1,0.0016861694843595932,0.0017677361028277242,-0.006092909327059001,0.0055453184144613945,0.9922880737474346
2014-03-06,1,0.0022748567999869383,0.0023149511299510564,-0.006092909327059001,0.005276140358417916,0.9918640678611659
2014-03-10,1,0.0018970913527649488,0.0019102708860807775,-0.00725244479480483,0.005276140358417916,0.9905501418103363
2014-03-12,1,0.0013094935506280446,0.0013968690331931126,-0.006441929356774864,0.00707514009719875,0.9903404774688802
2014-03-14,1,0.0008881610075333224,0.0010200571081056828,-0.010697707003796485,0.00707514009719875,0.989315901438728
2014-03-18,1,0.0013170064410941262,0.001421798808568049,-0.010697707003796485,0.01016877366904586,0.9887518033334878
2014-03-20,1,0.0004841054292699991,0.0006534123259428573,-0.007772200615217339,0.011086600174740033,0.989302259455187
2014-03-24,0,-8.265959786185194e-05,0.00015332338749468957,-0.007772200615217339,0.011086600174740033,0.9884713084340541
2014-03-26,1,0.00015908238256095953,0.00038084537726010574,-0.00888664343503472,0.011086600174740033,0.9874465029763515
2014-03-28,1,0.0003191313599331043,0.0005173013499518871,-0.00888664343503472,0.010807310196351496,0.9880010776079349
2014-04-01,1,0.001113863320135618,0.0012136042596974496,-0.00888664343503472,0.010807310196351496,0.9882241961454868
2014-04-03,1,0.0009929937351468143,0.001102624641541515,-0.00888664343503472,0.010807310196351496,0.9880847995161214
2014-04-07,-1,-0.0006992236138185959,-0.0004005762083556003,-0.007993353387234559,0.010807310196351496,0.9887660309980918
2014-04-09,-1,-0.0005676723528062044,-0.0002808361998808801,-0.007993353387234559,0.008322377098717419,0.9894952961478048
2014-04-11,-1,-0.002136645483960045,-0.0016630840620059553,0.0015928985279124582,0.01019025692524235,0.9893814881989222
2014-04-15,-1,-0.0009961637030477572,-0.0006736172782676019,-0.0010969206795713399,0.007517164103754408,0.990281545578319
2014-04-17,-1,-0.00045475227022175144,-0.00018347723217356502,-0.008498353520611374,0.006696574727610855,0.9905453452534163
2014-04-22,-1,-0.0010514197011277065,-0.0007519554111765544,-0.008498353520611374,0.0052160972198319455,0.9916426709710339
2014-04-24,1,0.00032360173705932874,0.00043455542977690226,-0.00809560463458021,0.0052160972198319455,0.9935828257085005
2014-04-28,-1,-0.00044589891831176834,-0.00017672344530357586,-0.00809560463458021,0.005412376151387238,0.9933392543812742
2014-04-30,-1,-0.0005802646499866216,-0.0002338583666297928,-0.00809560463458021,0.005412376151387238,0.9936576165295031
2014-05-02,-1,-0.0005290993413258806,-0.00021017744901583762,-0.006113477769844419,0.0048710305995014625,0.9940239662552022
2014-05-06,-1,-0.0006767704441073793,-0.00035029419632426014,-0.0023094957514916813,0.004458441707251784,0.994569990483509
2014-05-08,-1,-0.0009373460324716418,-0.0005530978966778108,-0.0023094957514916813,0.005054461883350991,0.9939820447038518
2014-05-12,0,-0.00010875329587947246,0.00015451057828197174,-0.004606090508209485,0.005054461883350991,0.99447355657227
2014-05-14,0,-0.00010594541163385827,0.00010781537121863562,-0.006113477769844419,0.005054461883350991,0.9939649273946268
2014-05-16,-1,-0.0010729212937291815,-0.0007485789076038718,-0.0021061032745915823,0.005702038681606994,0.993871888463754
2014-05-20,-1,-0.001309545283235124,-0.0009808685950036585,-0.0031556498121692914,0.005702038681606994,0.9940891712358727
2014-05-22,-1,-0.0007285195284520833,-0.0004938380932695824,-0.0031556498121692914,0.005702038681606994,0.9941030431588989
2014-05-27,-1,-0.00047412100787305126,-0.0002703545290877303,-0.005274672039035673,0.005702038681606994,0.9937188457175953
2014-05-29,-1,-0.0008680315736178617,-0.0005882913609707232,-0.004664494608335377,0.005148530103979864,0.9941970387916533
2014-06-02,-1,-0.000490773888208778,-0.0002687502203203404,-0.006279065312826816,0.005148530103979864,0.9937342907372838
2014-06-04,-1,-0.0005117126168797661,-0.00028352291039242467,-0.008770751338280728,0.005148530103979864,0.9934931098223615
2014-06-06,1,0.0004923563439767301,0.0005755535238302692,-0.009088934749039351,0.004369198060552399,0.9931949002181718
2014-06-10,1,0.0008572390442893089,0.0008637599461913501,-0.009088934749039351,0.004153245417476879,0.9929822270515651
2014-06-12,-1,-0.0005369525266913633,-0.000369410797348967,-0.007355879712455034,0.004881548898674242,0.9940103836333024
2014-06-16,1,0.0005972675809216997,0.0006006299362105281,-0.007355879712455034,0.00468629289865097,0.993876326445807
2014-06-18,-1,-0.0015314651814880454,-0.001151506898458756,-0.007355879712455034,0.00468629289865097,0.994096982653241
2014-06-20,-1,-0.001138506931162502,-0.0008072775373583568,-0.007355879712455034,0.00468629289865097,0.9940927489243341
2014-06-24,-1,-0.0020664481222579956,-0.0016275751743351126,-0.003491620897524062,0.00520111207081666,0.9929328490619951
2014-06-26,-1,-0.0024696418102892323,-0.001968926264275031,-0.002666288238553482,0.006137723508417485,0.992105994269552
2014-06-30,-1,-0.0024958327989754296,-0.0020277667053389906,-0.0020066526902268907,0.006137723508417485,0.9926836254667682
2014-07-02,-1,-0.0022119739064172224,-0.001845450321428548,-0.0020066526902268907,0.006137723508417485,0.9920642283078728
2014-07-07,-1,-0.0019948972592329513,-0.0016886042060581803,-0.000516853224544522,0.007048273438182361,0.9923226337967311
2014-07-09,-1,-0.001720776111545285,-0.0014776693874235065,-0.0020066526902268907,0.007048273438182361,0.9916390064021853
2014-07-11,-1,-0.0004914049440957008,-0.0004329147338586335,-0.0020066526902268907,0.007048273438182361,0.9919381288322472
2014-07-15,1,0.00037098976303896107,0.0004431243547943452,-0.0026554469956956567,0.005515033960045685,0.9925945097607402
2014-07-17,1,0.00031385478408127297,0.000407913135025574,-0.0010167281907670074,0.007048273438182361,0.9919570234314632
2014-07-21,1,2.80531455548627e-07,2.5214323348181217e-05,-0.0020611270983293055,0.008031785309060239,0.991538284221805
2014-07-23,1,0.001458052388974063,0.0016433575245294618,-0.0020611270983293055,0.008031785309060239,0.9922078131867944
2014-07-25,1,0.0023003812871325306,0.002645629773063857,-0.0020611270983293055,0.005515033960045685,0.9924732025800604
2014-07-29,1,0.002261872114812489,0.002618788726911994,-0.0013998415145415675,0.00722045724370911,0.9925779636788151
2014-07-31,1,0.001501544976091223,0.0017368278034142423,-0.0013998415145415675,0.00722045724370911,0.9928716302442607
2014-08-04,1,0.001550708890126525,0.0017668501911052344,-0.0013998415145415675,0.004637077288575603,0.9929068399917818
2014-08-06,1,8.724869377108664e-05,8.742686497206306e-05,-0.0013299068666286417,0.004637077288575603,0.9943840108806361
2014-08-08,1,0.0009554388753394265,0.0010933863150842105,-0.0013299068666286417,0.004637077288575603,0.9948281577884895
2014-08-12,1,0.00038085955055077207,0.0003810225230660234,-0.0013299068666286417,0.004637077288575603,0.9948811571257772
2014-08-14,1,0.0009573329028875214,0.001004098513330682,-0.0017947848336837833,0.0018793327341575829,0.9956860408333834
2014-08-18,1,0.0015428600907400056,0.0016863817902346332,-0.0013299068666286417,0.004344239786528368,0.9956265883218297
2014-08-20,1,0.002435287224530556,0.00270626054089618,-0.0013299068666286417,0.00490679339681313,0.9957314619271385
2014-08-22,1,0.0027393770403465263,0.003094421726127662,-0.0017947848336837833,0.0065635756323078834,0.9951757571181786
2014-08-26,1,0.0029815348328316744,0.003365554045048622,-0.0020589909743839035,0.0065635756323078834,0.9941731639411995
2014-08-28,1,0.0014604767827343535,0.0015513652507580873,-0.0020589909743839035,0.007255660801672408,0.9939666045034394
2014-09-02,1,0.0014437012972546798,0.0015421631767907741,-0.0020589909743839035,0.00809722212497312,0.9937605545314828
2014-09-04,1,0.00033751968226527633,0.00044806405905714543,-0.0030066994810299032,0.00809722212497312,0.9921264824057545
2014-09-08,1,0.0011644160171056686,0.001197872556018214,-0.0059846224116190715,0.008135952733075495,0.9916518148007232
2014-09-10,1,0.001390921387004388,0.001491509731260878,-0.008135981180076872,0.009062560118450828,0.9898400745749374
2014-09-12,1,0.0007118796766083912,0.0007441807358867685,-0.008913352260129173,0.009062560118450828,0.9893273926654835
2014-09-16,1,0.001629323807521402,0.0017691148713793131,-0.009255574276453397,0.009635801625930062,0.9886272789635078
2014-09-18,1,0.0020081215903468346,0.002205275628871776,-0.009255574276453397,0.008693371072279908,0.9884648647279054
2014-09-22,1,0.0020558799235409894,0.0022910119687293866,-0.008771071539966252,0.009345824041812808,0.988632605176399
2014-09-24,1,0.0018057472670806886,0.002002277549223627,-0.008771071539966252,0.009345824041812808,0.9882097990666174
2014-09-26,1,0.0024126470932886047,0.0026776842640226753,-0.008771071539966252,0.009345824041812808,0.9882375082103668
2014-09-30,1,0.002646388922486029,0.002949159033158844,-0.008771071539966252,0.011946852144793406,0.9877962361254977
2014-10-02,1,0.001605512526089576,0.0018000656112142895,-0.005908575245821608,0.014286052801970525,0.9889294129534973
2014-10-06,1,0.0014823342874703993,0.0016364710559545442,-0.004327475829293097,0.014286052801970525,0.9895518489673143
2014-10-08,1,0.0009481681669471411,0.000987666227446944,-0.004327475829293097,0.010390899173262292,0.9911031319583766
2014-10-10,1,0.0002428385153358584,0.0003115462954495172,-0.004327475829293097,0.010390899173262292,0.9905989336119156
2014-10-14,1,0.0007047809598937061,0.0007078090553279606,-0.0030192651793675626,0.008827173051302435,0.9918286392808342
2014-10-16,1,0.0004531018043980624,0.00047535899303824717,-0.00017676274867431342,0.008827173051302435,0.9918457963618604
2014-10-20,1,0.0005596041092684127,0.000569545825150092,-0.0023909893439581376,0.0073740685684088245,0.9918049979463427
2014-10-22,1,0.0007140537116409568,0.0007328070480012051,-0.001752456363210088,0.006105404815481794,0.9932167105435937
2014-10-24,1,0.0016969991294624154,0.0018472563312684023,-0.00252462894744416,0.006105404815481794,0.99387808147973
2014-10-28,1,0.00265239535873975,0.0029590206921711734,-0.00252462894744416,0.00497197293863395,0.9944448021503501
2014-10-30,1,0.0032275945748354113,0.0036077507905043927,-0.00252462894744416,0.004966935224874601,0.9945014763449972
2014-11-03,1,0.0028067251154091743,0.0030664688877717256,-0.0035464172468988087,0.0045683852836987116,0.9942001242402868
2014-11-05,1,0.002739160030722124,0.0030154292271561177,-0.0025513944192910787,0.0045683852836987116,0.9943962898246145
2014-11-07,1,0.0018000489319613213,0.0019292740600259579,-0.002374526347638642,0.0045683852836987116,0.9956350095265384
2014-11-11,1,0.0020170110804031962,0.002189685874214596,-0.0025513944192910787,0.004225802669458895,0.9948687863195057
2014-11-13,1,0.001670827485921094,0.0017585598242282096,-0.0035464172468988087,0.004225802669458895,0.9938851304318822
2014-11-17,1,0.001014274514548213,0.0010217850946023853,-0.0025513944192910787,0.004966935224874601,0.9942278991709036
2014-11-19,1,0.0007583237461270723,0.0008136621018573297,-0.002374526347638642,0.005153336160534627,0.9929310130383757
2014-11-21,1,0.000713181223483887,0.0007961922225412086,-0.0022967405546417572,0.006336890891661098,0.9925415783819533
2014-11-25,1,0.0005844115135818712,0.0007018955316100473,-0.002666319699870779,0.006336890891661098,0.9924973921021402
2014-11-28,1,0.0008874532978977104,0.000982336610589998,-0.003891193088637909,0.004620320913167718,0.9927220391072202
2014-12-02,1,0.000702128000155492,0.0007970142694925202,-0.0039055702726437337,0.004620320913167718,0.9923582985078265
2014-12-04,1,0.0007501342870061144,0.0008202419953373849,-0.00545262992448826,0.004620320913167718,0.9913037210526061
2014-12-08,1,0.0003988195783488044,0.0005297387737622436,-0.00545262992448826,0.006336890891661098,0.9905174792635086
2014-12-10,1,5.132930980080656e-05,0.00021140089627450268,-0.004835850726415553,0.006587032885283138,0.9902959159968358
2014-12-12,1,5.8690656647996634e-05,0.00016663793104048898,-0.003771496825617041,0.006336890891661098,0.991494507602649
2014-12-16,1,0.000252666967824291,0.0003205279968663546,-0.004513437757849064,0.0044605199621082945,0.9914979493837071
2014-12-18,1,0.0013063808075185939,0.001353292863566933,-0.004513437757849064,0.005584420826485517,0.9923407497272904
2014-12-22,1,0.001761596143961995,0.001833679283550358,-0.004513437757849064,0.004217341240663209,0.9926443756360659
2014-12-24,1,0.0017261940515914881,0.0018037244642559885,-0.004967046029779494,0.004217341240663209,0.9922135849008357
2014-12-29,1,0.0007056213490287526,0.0008178559916061738,-0.006027732271508069,0.004217341240663209,0.9912246969393951
2014-12-31,1,0.0002599788284725566,0.0003951359095772277,-0.006027732271508069,0.007046961438003178,0.9903172305233521
2015-01-05,-1,-0.0005453527256912674,-0.0003129930705286632,-0.004967046029779494,0.012347622504014413,0.9908164290870148
2015-01-07,1,9.645245932722959e-05,0.00021699341734263112,-0.0047787065082396975,0.009984024933843047,0.9910011356102832
2015-01-09,1,0.0009832387694559623,0.0009841188282535946,-0.006027732271508069,0.006874807637442113,0.9911359313538353
2015-01-13,1,0.0010942958134017877,0.0011489346763196421,-0.006027732271508069,0.009984024933843047,0.9907042861200611
2015-01-15,1,0.0006583385578331316,0.0006660161540682704,-0.004166572572004975,0.009984024933843047,0.990777089777318
2015-01-20,1,0.0012468732831266152,0.0013277236323562113,-0.004166572572004975,0.006874807637442113,0.9913927497914757
2015-01-22,1,0.0012907897453994734,0.0013445213074594338,-0.004166572572004975,0.009768832543520737,0.9908948479042731
2015-01-26,1,0.0007351958188514536,0.0007610176896927063,0.0004227927418024612,0.009768832543520737,0.9908264314845232
2015-01-28,-1,-0.0006679911927027907,-0.00046609361023796183,0.0004227927418024612,0.009768832543520737,0.9906069574076403
2015-01-30,-1,-0.0007170453123799469,-0.0005238424955928484,0.0004227927418024612,0.009768832543520737,0.9914329675609063
2015-02-03,-1,-0.00014868739157957784,-1.64462032680532e-05,-0.005190657276731905,0.008196939178332524,0.9916604401472884
2015-02-05,1,9.747271531335182e-05,0.00020612364272566425,-0.006576425899869476,0.006521345108166202,0.991845524877803
2015-02-09,1,0.00011802024757616924,0.00019982708869585743,-0.006576425899869476,0.008513389881457407,0.9916424840099712
2015-02-11,1,0.0008655505853819326,0.0008946966963851873,-0.006576425899869476,0.007872861545892507,0.9920023985633855
2015-02-13,1,0.0008194749739825595,0.0008329492304139494,-0.007524728487307293,0.00860154457196509,0.9907596521425976
2015-02-18,1,0.0009040400681484769,0.000919309528470156,-0.007524728487307293,0.009844147442433816,0.990252463110896
2015-02-20,1,0.001895503419296483,0.0020722109585885606,-0.007524728487307293,0.007872861545892507,0.9908800882543809
2015-02-24,1,0.0022945862635559288,0.002531028361415197,-0.007524728487307293,0.007851084757860251,0.9908551827448229
2015-02-26,1,0.0007731732570085121,0.0008095275008526739,-0.007151773427241036,0.007851084757860251,0.9912297415605863
2015-03-02,1,0.0010013569054311204,0.0010101148880161301,-0.007151773427241036,0.00805243124051578,0.9912593070786443
2015-03-04,1,5.421624986624634e-05,0.0001801335653468111,-0.007524728487307293,0.00805243124051578,0.9908589285532663
2015-03-06,-1,-0.0005460777174793197,-0.00032845491651685476,-0.007443943414989231,0.008522077373165482,0.9908121362272502
2015-03-10,-1,-0.0005253332805000513,-0.00031780383308978245,-0.004909760927705077,0.00805243124051578,0.9916016104177262
2015-03-12,-1,-0.0006219514421352038,-0.0003842765927946759,-0.005653363765652801,0.00794249976197584,0.9916844344652017
2015-03-16,0,-5.7007229548223506e-05,0.00011193640043985113,-0.005653363765652801,0.007757021647877163,0.9924464425749835
2015-03-18,0,-7.507842325045857e-05,9.406508918561793e-05,-0.0044192671596554505,0.004407629410832743,0.9932149457386774
2015-03-20,1,0.0006136981574559497,0.0006523022281630854,-0.00622706572179864,0.004407629410832743,0.9924953211317462
2015-03-24,1,0.0008637438891677892,0.0008927034920249874,-0.00622706572179864,0.007054490502651907,0.9923000702434849
2015-03-26,1,0.0006912543112956335,0.0007342681354270385,-0.006192134571446272,0.004179832282846892,0.9931068187535845
2015-03-30,1,0.001412870172629295,0.001562598673161082,-0.008193448384098523,0.001888084773584554,0.9934147182663619
2015-04-01,1,0.0003455046537390939,0.00034869189855261235,-0.008193448384098523,0.001888084773584554,0.993334175235563
2015-04-06,1,0.00020787880104269172,0.00026111251346278615,-0.008193448384098523,0.003177375047953796,0.9930603886926153
2015-04-08,1,0.0002779160767931708,0.0003163235666509387,-0.009876935680391677,0.001888084773584554,0.9925215574917042
2015-04-10,1,0.00021901967715529748,0.0002601413404578179,-0.009876935680391677,0.004444778269881792,0.9920157143976394
2015-04-14,-1,-0.0006486229197312621,-0.0004835237830867098,-0.008193448384098523,0.004444778269881792,0.9930352582050012
2015-04-16,-1,-0.0007031795100461432,-0.0005339226498778012,-0.008193448384098523,0.006966625058681874,0.992355896338232
2015-04-20,-1,-0.0006126207190484994,-0.0004682826403855834,-0.004638484226767315,0.004513914525897323,0.9930659545039362
2015-04-22,-1,-0.0004367065482065744,-0.00031785204595136953,-0.004638484226767315,0.0036738519869588806,0.9934237182057521
2015-04-24,-1,-0.0005700789255707853,-0.0004597584098960024,-0.0029752364090246198,0.0036738519869588806,0.9938715980090325
2015-04-28,-1,-0.0009993342855697189,-0.000825180278190563,-0.0029752364090246198,0.003909560772935391,0.9934289688188676
2015-04-30,-1,-0.0023898150199982587,-0.0020502468318234213,-0.0029752364090246198,0.003909560772935391,0.9941053718354969
2015-05-04,-1,-0.0017760034494958385,-0.0015099268545957552,-0.0029752364090246198,0.003909560772935391,0.99444146650768
2015-05-06,-1,-0.002498010801579364,-0.0021311212092997595,-0.0020711448726477956,0.004774688357614952,0.9939877108161302
2015-05-08,-1,-0.002182014868022105,-0.001825672229874847,-0.0037849324417831456,0.0024702916350035848,0.9950850344467588
2015-05-12,-1,-0.002164338684769633,-0.0018112740490736036,-0.0037849324417831456,0.0024702916350035848,0.9951472791445138
2015-05-14,-1,-0.0010664586513910944,-0.000896362962623711,-0.0037849324417831456,0.0021010789785215855,0.9954150230159838
2015-05-18,-1,-0.000519150660754473,-0.0004554785716644221,-0.004700387642344671,0.002267651508482565,0.995220010676207
2015-05-20,-1,-0.00048009335105213204,-0.0004211390710534228,-0.004700387642344671,0.004491680186328412,0.9947796354455697
2015-05-22,-1,-0.0006145024478233262,-0.0005337161070516701,-0.005769747236090483,0.004783632753170155,0.9941774147297787
2015-05-27,-1,-0.0011764239559942592,-0.00100502787119285,-0.005769747236090483,0.004783632753170155,0.9946096994835011
2015-05-29,-1,-0.0020526535439055723,-0.0017522576552852147,-0.004700387642344671,0.004783632753170155,0.9949624712684025
2015-06-02,-1,-0.0014283230419329014,-0.0012140200058388209,-0.005939147324029793,0.0027209019416745044,0.9949257047131423
2015-06-04,-1,-0.0010746797122581512,-0.0009371633358004209,-0.004855166335376869,0.0027209019416745044,0.9948183321145557
2015-06-08,-1,-0.0012706101788947345,-0.0011053161370351732,-0.004855166335376869,0.004783632753170155,0.9941704496271165
2015-06-10,-1,-0.0014461888036559503,-0.0012451942050740186,-0.004855166335376869,0.005952560710152761,0.9936216381607174
2015-06-12,-1,-0.0007909853512054086,-0.0006943224758562637,-0.004855166335376869,0.00947293905136426,0.9928312153107652
2015-06-16,-1,-0.0005685381598749599,-0.0005173949946326738,-0.002873906885141384,0.00947293905136426,0.9929174612987318
2015-06-18,-1,-0.00043896532613673105,-0.0003846021269842347,-0.002873906885141384,0.010777544984775816,0.992830599215402
2015-06-22,-1,-0.0012156407328810011,-0.0010181297821469381,-0.002873906885141384,0.010979036036703213,0.9919679416326164
2015-06-24,-1,-0.0017107233506771754,-0.0014456221274449226,-0.0018746533209959386,0.010979036036703213,0.9920919419733778
2015-06-26,-1,-0.001621291288196996,-0.0013977965573555016,-0.0018746533209959386,0.010979036036703213,0.9919378574877288
2015-06-30,-1,-0.001883493063940777,-0.0016482289730698988,-0.000876870743567226,0.011710090194333903,0.9908665728775626
2015-07-02,-1,-0.0016923340772674296,-0.0014715480295557,-0.000876870743567226,0.011197777447514937,0.991244559664631
2015-07-07,-1,-0.0007785199786367491,-0.0006941309440649976,-0.000876870743567226,0.010979036036703213,0.9917803921919399
2015-07-09,-1,-0.0003057486485199445,-0.0002831469340270396,-0.0010518119272072152,0.01081208327007292,0.992480435928294
2015-07-13,1,0.0008064113368009915,0.0009440242055130377,-0.0010523064936707295,0.008155458161299938,0.9937386911108661
2015-07-15,1,0.0014838829052525103,0.001761859731095976,-0.0018746533209959386,0.008155458161299938,0.9933980253690278
2015-07-17,1,0.0019800967536685874,0.0023481408983329474,-0.0010523064936707295,0.008155458161299938,0.993460854963028
2015-07-21,1,0.0018381777918442777,0.0021382706105938726,-0.0010200500399405693,0.0057713628370817905,0.9945618658394015
2015-07-23,1,0.0019097708006840847,0.002234353688689317,-0.00286628634848564,0.0057713628370817905,0.9938181020413784
2015-07-27,1,0.0016388004715898498,0.0018983124950812834,-0.006919725578986924,0.0057713628370817905,0.9914314143389432
2015-07-29,1,0.0015688257649679057,0.0017912084599908669,-0.006919725578986924,0.005675125341206673,0.991959410918575
2015-07-31,1,0.0013795667403862341,0.0015749148715218056,-0.0067639053637414855,0.007793943167861713,0.991340970548288
2015-08-04,1,0.001731919811496949,0.001981007427574307,-0.009375771454454661,0.005675125341206673,0.9900079862578048
2015-08-06,1,0.0018386904958540527,0.0021221901834181044,-0.009375771454454661,0.007793943167861713,0.9885821861728842
2015-08-10,1,0.0019251571511738983,0.002220740201401503,-0.010775307762185816,0.0083592145907325,0.9873424153312781
2015-08-12,1,0.0019298402606999234,0.0022366545533816684,-0.011657325632954898,0.0083592145907325,0.9871063110183131
2015-08-14,1,0.002231611046324208,0.0025744785450081335,-0.011657325632954898,0.007384666112051656,0.9872817534298334
2015-08-18,1,0.0019594161534257,0.0022443616922631564,-0.011657325632954898,0.00800628451842035,0.9871045556883479
2015-08-20,1,0.0018190036833376695,0.00211170359975974,-0.012764801112246591,0.00800628451842035,0.9869386397115967
2015-08-24,1,0.00028199305706588947,0.00033237158694452297,-0.008423856236244571,0.00800628451842035,0.9893539413659233
2015-08-26,1,0.0008467346334093478,0.0009825118812732505,-0.008423856236244571,0.007693244958485412,0.9897627448920306
2015-08-28,1,0.0010804173331468174,0.0012495153391886608,-0.011657325632954898,0.006083963328763181,0.9897156591606784
2015-09-01,1,0.0004113780724219674,0.0004902096241829949,-0.00427914610174122,0.009152522466424581,0.9896996909240915
2015-09-03,1,0.0010479983846034182,0.0011896618981211853,-0.006115535219704065,0.008970078809593524,0.9904421091891816
2015-09-08,1,0.001263655515766682,0.001431248988867937,-0.004847917505599372,0.008970078809593524,0.9905887717413626
2015-09-10,1,0.0010955275336488764,0.0012373331652549757,-0.00427914610174122,0.009266695722040294,0.990700917101513
2015-09-14,1,0.0010982033204684476,0.0012447425683815667,-0.004572010627395131,0.009266695722040294,0.9905523751173291
2015-09-16,1,0.0010847632929161586,0.0012121402182536031,-0.00745230262778558,0.009266695722040294,0.9895102184267557
2015-09-18,1,0.0004969184917718024,0.0005351282034418493,-0.005453873177754422,0.009266695722040294,0.9902478100869103
2015-09-22,0,-6.028683651423966e-05,1.618993598240644e-05,-0.006978100585780104,0.009266695722040294,0.9899854459678636
2015-09-24,1,0.0002405463279679536,0.00026341660440693795,-0.006978100585780104,0.011458175576585284,0.9888945765283177
2015-09-28,-1,-0.0005938195650051541,-0.00045070554084629914,-0.005453873177754422,0.012334508748364947,0.9887836897377966
2015-09-30,1,0.0005052605013760726,0.0005123305053629108,-0.006952945785435752,0.010158547730511083,0.9898948025121791
2015-10-02,1,0.0003756656664404663,0.0003859681978176765,-0.006952945785435752,0.010158547730511083,0.9899356880872516
2015-10-06,1,0.0008808705080663313,0.0009508780332092857,-0.007987712854634172,0.007916033914502397,0.9910996131253496
2015-10-08,1,0.0012246866018750329,0.001337688529991622,-0.007987712854634172,0.007276170744978923,0.9918364455544394
2015-10-12,1,0.0011669451036718762,0.0012702611041498645,-0.00897822607914316,0.007276170744978923,0.9913262347591842
2015-10-14,1,0.0004283679446802708,0.0004286489306682235,-0.007973271539709732,0.007276170744978923,0.9923597706746926
2015-10-16,1,0.0004319781719041839,0.0004427307858788439,-0.007973271539709732,0.007276170744978923,0.992217737712736
2015-10-20,0,-2.600012475720574e-05,6.808256651734239e-05,-0.00724979657173742,0.008222037692106762,0.99083615097813
2015-10-22,1,0.0010625799391869278,0.0011161893814566847,-0.00724979657173742,0.007276170744978923,0.9922766756122852
2015-10-26,1,0.001415772752381552,0.00150692064929712,-0.00724979657173742,0.005453497497830254,0.9926952561638964
2015-10-28,1,0.001253050293981123,0.0013112380959029132,-0.0039788675987503155,0.004013690938724347,0.9933823299629142
2015-10-30,1,0.0009996155099225123,0.0010189633914513489,-0.0039788675987503155,0.0035537764050007706,0.9928194678624697
2015-11-03,1,0.0008990299080089906,0.0009146038923070055,-0.0036312205057698007,0.003985483029897043,0.9928698797370213
2015-11-05,1,0.0007400950074217636,0.0007503708907869485,-0.0060696930707200055,0.004773568689785557,0.9915882219792497
2015-11-09,1,0.0002934455926405175,0.00034612934132728483,-0.0028202729928892183,0.004773568689785557,0.9923099577423975
2015-11-11,1,0.0001851003315083787,0.00025793731072466385,-0.003517214816879115,0.005098980636785202,0.9921052836950301
2015-11-13,-1,-0.00033459726662126273,-0.00018488062063365976,-0.003571378641875172,0.005098980636785202,0.9920111192718151
2015-11-17,1,0.0005876802541738576,0.0006430733505458196,-0.005742569955439322,0.003985483029897043,0.9931042785188181
2015-11-19,1,0.0003998963828127932,0.0005058611563870234,-0.007765108036829176,0.0037276842193439646,0.9921956389425066
2015-11-23,1,0.0005966677331521897,0.0006712740205897512,-0.007765108036829176,0.005098980636785202,0.9914069273387703
2015-11-25,1,0.0006554759269577146,0.0007090953796264635,-0.007765108036829176,0.005098980636785202,0.9914574831341375
2015-11-30,-1,-0.0001435848536714374,-6.692050538802238e-06,-0.006271975085414993,0.006977827962427054,0.992516342139749
2015-12-02,1,0.00020133332602729136,0.00026106687132847314,-0.007765108036829176,0.006977827962427054,0.9922253882152098
2015-12-04,1,0.0001807412010733978,0.00023524505446702738,-0.007765108036829176,0.006977827962427054,0.9916181122482245
2015-12-08,1,0.00030083068794667064,0.0003328712345836164,-0.008646194341454949,0.006977827962427054,0.9906811507152676
2015-12-10,1,0.00039290077612916285,0.0004009762889997156,-0.008646194341454949,0.009521980753525785,0.9905908480999491
2015-12-14,1,2.0465212583569483e-05,7.647007894089256e-05,-0.010876178858197968,0.010209475149101671,0.9898098663642209
2015-12-16,0,-5.8076735823132816e-05,1.954139333682189e-05,-0.010876178858197968,0.009521980753525785,0.990268958720559
2015-12-18,-1,-0.00022323921781421902,-0.00016939860540186475,-0.0054448245141559635,0.009521980753525785,0.9902081482988766
2015-12-22,1,0.00033364586395513365,0.0003377025188518659,-0.0054448245141559635,0.006802970076420903,0.9909898322202936
2015-12-24,1,0.0005572483408251976,0.0006059503303517235,-0.006852801341362899,0.006802970076420903,0.9906035219974202
2015-12-29,1,0.0006961944439287499,0.0007604885199804002,-0.010409408263088858,0.0028727251833627508,0.9902233877719154
2015-12-31,1,0.00039508797164749274,0.00042856485510201793,-0.0067949244201873805,0.006802970076420903,0.9898075925091381
2016-01-05,1,0.00037897947037300285,0.0003957207950896776,-0.005708667451618756,0.006802970076420903,0.9911695458067866
2016-01-07,0,-3.992909300766822e-06,7.649485944676331e-06,-0.005708667451618756,0.00852779908555312,0.9913350556638454
2016-01-11,1,0.0002682993984013421,0.00029550833237375763,-0.005708667451618756,0.00852779908555312,0.991061494953644
2016-01-13,-1,-0.00010779557969980709,-6.546832095940463e-05,-0.006679579606900269,0.007126671644100217,0.990459728254151
2016-01-15,-1,-0.0010341151899860642,-0.0007885120185823435,-0.006679579606900269,0.007126671644100217,0.9902487393825058
2016-01-20,-1,-0.001539165906655813,-0.0012664199014579228,-0.005708667451618756,0.009106573724900348,0.9900943974863233
2016-01-22,-1,-0.0011770398369223916,-0.0009574697024259823,-0.005708667451618756,0.009106573724900348,0.990135747469068
2016-01-26,-1,-0.002223610891015278,-0.001828184805942426,-0.005708667451618756,0.009106573724900348,0.9899410229687607
2016-01-28,-1,-0.0020313401082961134,-0.0017194396924064973,-0.005403808929250883,0.011857675989962587,0.9891137048411559
2016-02-01,-1,-0.0013514813620498682,-0.0011329393784387028,-0.005650686991205552,0.011067137687427514,0.9897046860806216
2016-02-03,-1,-0.0009388773713241475,-0.0007621939098366559,-0.005650686991205552,0.00888336610598571,0.9901082708384842
2016-02-05,-1,-0.0011354389921845029,-0.000933758459765316,-0.005650686991205552,0.007870212223079934,0.9904216374423512
2016-02-09,-1,-0.00039118314995303943,-0.00028689547427231414,-0.005650686991205552,0.006866840927498869,0.9911187381160459
2016-02-11,-1,-0.0022531522751330873,-0.0018962853570554463,-0.0030967059811743123,0.006866840927498869,0.9925277863248905
2016-02-16,-1,-0.001953704044987359,-0.0016331971551324597,-0.002414337690497597,0.006595858232998771,0.9933494146082931
2016-02-18,-1,-0.001021615806695207,-0.0008189476774555584,-0.002414337690497597,0.0054585278234785695,0.9942757152247798
2016-02-22,-1,-0.0013902267825251589,-0.0011076533652763605,-0.0021340633915000887,0.0054585278234785695,0.9940852716476154
2016-02-24,-1,-0.0005124254271061484,-0.0003864141794253193,-0.002336239727875913,0.005039751166871088,0.9945171632657624
2016-02-26,-1,-0.0005245193259037351,-0.0003927090339486729,-0.002336239727875913,0.00488901071875071,0.9949515140386922
2016-03-01,-1,-7.759361782262085e-05,-2.480711801077629e-05,-0.0021340633915000887,0.005039751166871088,0.9950177846441972
2016-03-03,1,0.00029178930107610034,0.0003127203508286843,-0.0021340633915000887,0.005039751166871088,0.9949717483508157
2016-03-07,-1,-0.00011850433369191544,-8.788448695317996e-05,1.5151958236492898e-06,0.005601153311778799,0.9949455057583904
2016-03-09,-1,-0.0006251231332544279,-0.0004886747665245312,0.0003543473869473195,0.005601153311778799,0.9948685647620369
2016-03-11,-1,-0.0004189307656628933,-0.00031751882988620644,-0.00111436511097105,0.005601153311778799,0.994775715212993
2016-03-15,-1,-0.0005721387866246049,-0.0004420282416623778,-0.0006951190776566175,0.006102217564069089,0.994518098802546
2016-03-17,1,0.0004127124781037421,0.0004624945544625495,-0.0011948965064585318,0.006102217564069089,0.9950289936122596
2016-03-21,1,0.000992440980988189,0.0011548289337948222,-0.002489935201839845,0.005897518915141431,0.9951936256327788
2016-03-23,1,0.0009956972386863504,0.0011593001074456234,-0.0023815375954650627,0.005897518915141431,0.995232209371061
2016-03-28,1,0.0006177451248168523,0.000721583285815638,-0.0022722638214003987,0.005897518915141431,0.9958496337000792
2016-03-30,1,0.0010362541359144363,0.0011872472709865156,-0.0022722638214003987,0.005897518915141431,0.9951949783732433
2016-04-01,1,0.0010196430558118076,0.0011653366509055572,-0.0022722638214003987,0.004901295193268532,0.9954977542982567
2016-04-05,1,0.0010200694953428264,0.001133343635731888,-0.0022722638214003987,0.004829926562269908,0.9955432407373285
2016-04-07,1,0.001116706690901078,0.0012438120476008165,-0.0022722638214003987,0.005897518915141431,0.9951976922903291
2016-04-11,1,0.0006986865948437181,0.0007523468592937177,-0.0016584346492499425,0.00600514909074099,0.9951577152171801
2016-04-13,1,0.0014631189597234888,0.0016901300829721567,-0.0022722638214003987,0.006299193806824092,0.9942968954344173
2016-04-15,1,0.00146490665219077,0.0017029340977972813,-0.0022722638214003987,0.0070390355423686195,0.9933857035868635
2016-04-19,1,0.001669859925923715,0.0019494503341482721,-0.0022722638214003987,0.0070390355423686195,0.993391170941159
2016-04-21,1,0.001601209107937609,0.0018699721986925803,-0.002747479949096086,0.0070390355423686195,0.9929351112569226
2016-04-25,1,0.0011982586896732033,0.001365225618711387,-0.002713328623161552,0.0070390355423686195,0.9927625675593018
2016-04-27,1,0.0020049109053871333,0.0022750134836112836,-0.002713328623161552,0.006105223507643821,0.9939594768998418
2016-04-29,1,0.001731578705073037,0.0019593604909127382,-0.003199925233241506,0.006105223507643821,0.9939472814026185
2016-05-03,1,0.001989799371458303,0.0022525782288212214,-0.005945784225103915,0.0064981652197286825,0.9930960779760184
2016-05-05,1,0.0023431124999371746,0.002650376739825106,-0.005945784225103915,0.005218099193637981,0.9933138836604594
2016-05-09,1,0.002358930316384547,0.002647465546238467,-0.005945784225103915,0.0046722038937865445,0.9935988022858897
2016-05-11,1,0.002494051631974499,0.0028036168522753316,-0.003199925233241506,0.0039015289545726375,0.9948010574161595
2016-05-13,1,0.0020654477966556267,0.0022734590756628105,-0.003199925233241506,0.0035515963370837717,0.9952718666714471
2016-05-17,1,0.0022714024261279173,0.0025442616153706827,-0.001360303172378105,0.0039015289545726375,0.9952832977011641
2016-05-19,1,0.0019592851977564387,0.0021948454844275943,-0.001360303172378105,0.0039015289545726375,0.9955151065242479
2016-05-23,1,0.0020684379506702775,0.002329870824415765,-0.0010447445937461757,0.0038923133321979468,0.9956054244108482
2016-05-25,1,0.0018440861841468202,0.0020492290193405505,-0.0011857948720704289,0.0038923133321979468,0.9955199736178961
2016-05-27,1,0.0017524333447359423,0.001950488849341553,-0.0013357540116447752,0.0038923133321979468,0.9956414488213231
2016-06-01,1,0.0012106512051024791,0.001293209562172715,-0.0011000535760832058,0.004555443279193619,0.9960401237903755
2016-06-03,1,0.0013864201149585691,0.0015032964664516743,-0.0010947309736042913,0.0052586457736958515,0.995395447184591
2016-06-07,1,0.0012382786362366831,0.0013283647505999826,-0.0010947309736042913,0.0052586457736958515,0.9953789206490062
2016-06-09,1,0.0014357730385962625,0.001558165041500149,-0.0012421983454331464,0.006916175245953905,0.9950342791367344
2016-06-13,1,0.0006180795470807187,0.000651234196248563,-0.0010921261835294895,0.0074367635233599065,0.9951212334629408
2016-06-15,1,0.0008501902976582256,0.0008509881507220362,-0.0005927397129705005,0.006998452438386679,0.9953512749860288
2016-06-17,1,0.0002617077335763018,0.00034969180295372213,-0.0005927397129705005,0.006998452438386679,0.9954810422762707
2016-06-21,0,-5.191618158007085e-05,0.00010042228935038086,-0.0012421983454331464,0.007894647307986351,0.9946878979810865
2016-06-23,1,0.0003185092437321087,0.00041352705135592533,-0.0012421983454331464,0.008867077196680753,0.9941525900053911
2016-06-27,1,0.00037683292020213743,0.0004458693785330403,-0.0016009559766085358,0.008867077196680753,0.9938147471265131
2016-06-29,1,0.0008346360495410076,0.0008638622451968857,-0.002437602242213218,0.005698078868447824,0.9946156792473273
2016-07-01,1,0.0016530096698970046,0.0017616301419390843,-0.002854875289571352,0.005620768291648269,0.9948028970425192
2016-07-06,1,0.0008867908641233026,0.0009568278763655967,-0.002854875289571352,0.008380605228924275,0.9944836495545649
2016-07-08,1,0.0011061915317927607,0.0011417330187643022,-0.002854875289571352,0.008380605228924275,0.994399095454863
2016-07-12,1,0.0017026797148247447,0.0017823579877263979,-0.002854875289571352,0.005620768291648269,0.9947309000666729
2016-07-14,1,0.0017488560770501662,0.0018352594721816556,-0.002854875289571352,0.005646395500629328,0.9947647417453149
2016-07-18,1,0.0017173675684616768,0.001808894956726869,-0.00260743429142546,0.008380605228924275,0.994520131466912
2016-07-20,1,0.0017277876919846043,0.0018144000137296273,-0.003623474932982499,0.006686465489466636,0.9932745395179879
2016-07-22,1,0.0017346061690599215,0.0018224092610736938,-0.003623474932982499,0.005092272889056002,0.9939076714157736
2016-07-26,1,0.0012833698251190518,0.001309942527610191,-0.002866537787199881,0.005092272889056002,0.9935420073617852
2016-07-28,1,0.0008706850745801083,0.0009254156416086401,-0.0045730061244624205,0.005092272889056002,0.9933449666696743
2016-08-01,1,0.0007981300501439916,0.0008658889792928304,-0.0045730061244624205,0.003814370830546353,0.9931937843619112
2016-08-03,1,0.000958854386546163,0.001009534968761822,-0.005448887697031131,0.003814370830546353,0.9919142630330761
2016-08-05,1,0.0012630644695872193,0.0012866969248515926,-0.005448887697031131,0.00249995051652137,0.9922151097894367
2016-08-09,1,0.0013228226748900947,0.0013272084953435174,-0.0065718693139754335,0.00249995051652137,0.9917781984899012
2016-08-11,1,0.0015630702092194345,0.0016004574308776207,-0.008848702351620849,0.0012210289242974872,0.9910602975713981
2016-08-15,1,0.0018984443561356262,0.0019709088354923515,-0.008848702351620849,0.0005054205552150929,0.9909485654651212
2016-08-17,0,-2.4435680102994272e-05,0.00016062460792719562,-0.0065718693139754335,0.0012210289242974872,0.9936961991080298
2016-08-19,0,-3.04428831043558e-05,0.00012614887432091165,-0.006745714073628171,0.0018978476591146852,0.9929400371806634
2016-08-23,-1,-0.0008043500313617754,-0.0005578193110307182,-0.0065718693139754335,0.002879140415526566,0.9931678735987558
2016-08-25,-1,-0.0008674941900005268,-0.0006291625266480092,-0.006042535672703846,0.0044798530216698385,0.9928447459014578
2016-08-29,-1,-0.0015139694347544336,-0.001203959047231718,-0.0038272586986016627,0.0044798530216698385,0.993505841614551
2016-08-31,-1,-0.00196234885000284,-0.0015833835987240242,-0.0038272586986016627,0.002879140415526566,0.9944203594649282
2016-09-02,-1,-0.0018628801542156486,-0.001504105297014194,-0.006042535672703846,0.0035942307469358403,0.9939860744092499
2016-09-07,-1,-0.0023022651933135812,-0.0018855369645869378,-0.006080410722412263,0.0035942307469358403,0.9935480433751058
2016-09-09,-1,-0.002879671748894218,-0.00239687454084765,-0.006080410722412263,0.0035942307469358403,0.9938556321979825
2016-09-13,-1,-0.0030616915704314114,-0.0025527066538378507,-0.006344224912611166,0.0016910638507609873,0.9940472561670143
2016-09-15,-1,-0.0028500472532649542,-0.0023648680397907527,-0.006344224912611166,0.0017055928332967423,0.9941817540610925
2016-09-19,-1,-0.0019585511910439977,-0.0016307816954175473,-0.005345540679868412,0.0010637543619485272,0.9951557890405892
2016-09-21,-1,-0.0016563473493504967,-0.001351681105656158,-0.005345540679868412,0.000909685086891582,0.9958313907984031
2016-09-23,-1,-0.0011648496660180026,-0.0009340625316979769,-0.0057811413421383845,0.00027939164245545514,0.9962067250753712
2016-09-27,-1,-0.0009082915688179622,-0.0007316884775971561,-0.0057811413421383845,0.0009145280810701669,0.9921595706904697
2016-09-29,-1,-0.0010307583754754074,-0.0008677704029291115,-0.0057811413421383845,0.0016411784569171067,0.9923823415553187
2016-10-03,-1,-0.0011379958618800096,-0.0009726938218739287,-0.0057811413421383845,0.0009145280810701669,0.9927865483597562
2016-10-05,-1,-0.0016637377512658926,-0.001439259856425075,-0.005658590419582703,0.0009145280810701669,0.9932767992993273
2016-10-07,-1,-0.0020868961743193385,-0.0018105339130857082,-0.0058048673748967005,0.0009145280810701669,0.9921827868803724
2016-10-11,-1,-0.0024523291584397566,-0.0021181282781931087,-0.005658590419582703,0.0016411784569171067,0.9915487322517792
2016-10-13,-1,-0.0017868340430092283,-0.001543559210399973,-0.005658590419582703,0.00427598469197943,0.9882163231500207
2016-10-17,-1,-0.001695736052831554,-0.0014707701881391693,-0.005658590419582703,0.008702624646575044,0.9863038308074917
2016-10-19,-1,-0.0018494886204795363,-0.0016021124244333727,-0.005821173523666458,0.008702624646575044,0.9858606421286868
2016-10-21,-1,-0.0021542009772851705,-0.0018615489034528535,-0.005821173523666458,0.008702624646575044,0.9859146920573549
2016-10-25,1,7.340448048408196e-05,0.00010141724318198622,-0.005821173523666458,0.005376788781837018,0.9896887065481629
2016-10-27,0,-6.6380537370946214e-06,2.8760685948963757e-05,-0.005097042983943958,0.0061580376465795,0.9898388797087441
2016-10-31,-1,-0.00019223297300379963,-0.00014053647395576512,-0.0019623099985172747,0.0061580376465795,0.990134970341966
2016-11-02,-1,-0.0005335226107568277,-0.000426750813734259,-0.0019623099985172747,0.0061580376465795,0.9899401495738069
2016-11-04,-1,-0.0014110401426613768,-0.0012097850275573463,-0.0007868631650071771,0.0061580376465795,0.9909225280764382
2016-11-08,-1,-0.0012114019019351914,-0.0010231836650611316,-0.0013813949938806854,0.0049676904935734845,0.9915164419814735
2016-11-10,1,0.0007855830129261976,0.0008387581950308976,-0.0028047268939802392,0.0043965281962309935,0.9941397591240817
2016-11-14,1,0.0016666772819675687,0.0018444366752014378,-0.0049237317072094704,0.0016824996793978618,0.9940898500363416
2016-11-16,1,0.0012125936416375425,0.001322565734702672,-0.0038602919474446783,0.0024287714068567667,0.9947020888353798
2016-11-18,1,0.0013638554005343392,0.0015201255728209146,-0.0038602919474446783,0.002917049398439286,0.9943346692164792
2016-11-22,1,0.0017259232783426583,0.0019589750774645703,-0.004823879220852112,0.002917049398439286,0.9938835510418284
2016-11-25,1,0.0018301810606598272,0.0020792961772974636,-0.005144353947123836,0.0024287714068567667,0.99341601961181
2016-11-29,1,0.0018832525627589004,0.002147526017786397,-0.005229382464448656,0.002901591442732801,0.9930147565528514
2016-12-01,1,0.0019496940397598387,0.00223660929638276,-0.005229382464448656,0.002829408211806643,0.9931262971159156
2016-12-05,1,0.002025810836442849,0.002328532841587445,-0.005229382464448656,0.003025060991918207,0.9928815172163553
2016-12-07,1,0.0019627587861237067,0.0022575129962713984,-0.005229382464448656,0.005352875469315795,0.9926809386519306
2016-12-09,1,0.0013853217001102472,0.0016055866131984716,-0.005229382464448656,0.005352875469315795,0.9936487211088486
2016-12-13,1,0.0007129371412599244,0.0008477700905781581,-0.004852222059960385,0.005352875469315795,0.9944563477365445
2016-12-15,1,0.0005026828035614658,0.0005960658545531119,-0.004237081679853865,0.006436136451911651,0.9944244834897508
2016-12-19,1,0.0006363639656844829,0.0007463787496183798,-0.004237081679853865,0.006436136451911651,0.9943750120254408
2016-12-21,1,0.0006781598978917152,0.0007951978292959025,-0.002960349891149939,0.005642596278529863,0.9947358349524626
2016-12-23,1,0.0004953579061452796,0.0005980195867226067,-0.004320488560479124,0.005642596278529863,0.9941054303188614
2016-12-28,1,0.0006852890860256265,0.0008330947595231444,-0.004486225115738695,0.007369168620740557,0.9935451204777654
2016-12-30,1,0.0007583381935929879,0.0009187344754179352,-0.005807251743511136,0.007369168620740557,0.9933630079958411
2017-01-04,1,0.0012292429262368819,0.0014625306708919892,-0.005807251743511136,0.0050248321439067215,0.9936633101359976
2017-01-06,1,0.0017742308679726069,0.002101174215863922,-0.005807251743511136,0.0035714474433310673,0.993626972436916
2017-01-10,1,0.0010715937726583108,0.001247108671371859,-0.004486225115738695,0.0041800235792678895,0.9940678049263507
2017-01-12,1,0.0007008413207190993,0.000819425997508971,-0.0019439448864162097,0.006155274001245593,0.9941842025673517
2017-01-17,1,0.0006057430087423109,0.0006886351083569594,-0.0019439448864162097,0.005992212906971,0.9942896270547481
2017-01-19,1,0.0007705948741049268,0.0008681484104292969,-0.0019439448864162097,0.005992212906971,0.9944748135769679
2017-01-23,1,0.0005695295353509393,0.0006176109007858008,-0.0019439448864162097,0.005992212906971,0.9945129879365968
2017-01-25,-1,-8.530669124437341e-05,-4.531801815540555e-05,-0.0003711438103243173,0.005992212906971,0.9952943743905548
2017-01-27,1,0.00012680805676735504,0.00014161334777439125,0.0006191814727758457,0.005992212906971,0.9956191958277061
2017-01-31,-1,-0.00021281121996252465,-0.00014820742705324558,0.0009341546925133294,0.006791330984442021,0.9950105695471867
2017-02-02,-1,-0.00037819293023291296,-0.000278462015489291,0.0009341546925133294,0.006791330984442021,0.9948141522488487
2017-02-06,-1,-0.00016048638752768742,-8.224035848791662e-05,0.0006191814727758457,0.005953145412717574,0.9953698345386361
2017-02-08,1,1.2953949611285611e-06,5.492526138172111e-05,1.923373017879961e-05,0.005953145412717574,0.9953097750783952
2017-02-10,1,0.0003771285757226411,0.00038084422054403993,-9.31526834691159e-05,0.004489180899174659,0.9960283560372
2017-02-14,1,0.0006026648398438012,0.0006417864276771943,-0.0011180130352991654,0.004489180899174659,0.9959534533781663
2017-02-16,1,0.0008605904416592101,0.0009416375792139354,-0.004123015025819158,0.004489180899174659,0.9954400531608454
2017-02-21,1,0.0008401290032720084,0.0009157631812194406,-0.004542099008358198,0.004489180899174659,0.9948600925160617
2017-02-23,1,0.0005717033823243545,0.0005922482487722871,-0.004542099008358198,0.004489180899174659,0.995016404682476
2017-02-27,1,0.000761200456709887,0.0007957180228885763,-0.004974590017743584,0.0030595083074412247,0.9952789409499132
2017-03-01,1,0.00040142609232909866,0.000433592826140306,-0.004542099008358198,0.0030595083074412247,0.9956697163700395
2017-03-03,1,7.505573819008971e-05,0.00016183497746691608,-0.004542099008358198,0.003921990951649838,0.9951702634667079
2017-03-07,0,-1.9195218229925567e-05,9.024558782864224e-05,-0.004542099008358198,0.0036983090529620136,0.9950745505474926
2017-03-09,0,-9.364449282397384e-05,2.3248438495895645e-05,-0.004707284355592096,0.0034654235132309938,0.9949938798514443
2017-03-13,-1,-0.00016987571986972627,-4.197102672394204e-05,-0.004722305509926726,0.004370153986294604,0.9942963638669499
2017-03-15,-1,-0.0002818915995755942,-0.00013550473936516127,-0.005803309064095014,0.004179146906093405,0.9942301220249917
2017-03-17,-1,-0.0002862879059930124,-0.0001270381395309783,-0.004958512486698246,0.004179146906093405,0.9948170849510027
2017-03-21,1,0.00042428257836023037,0.00043314765705636065,-0.004167107753221433,0.004179146906093405,0.9949915312997778
2017-03-23,1,0.0003776182142932803,0.00038002039267928477,-0.004167107753221433,0.0052105722361046585,0.9944551889583797
2017-03-27,1,9.78090227148732e-06,6.514225319130272e-05,-0.004167107753221433,0.007095306575456309,0.9932097735090912
2017-03-29,0,-3.4157520158127635e-05,3.390536069148781e-05,-0.004167107753221433,0.0052105722361046585,0.9935257350108708
2017-03-31,-1,-0.0006423784103595375,-0.0004624659765056754,-0.004167107753221433,0.004573255990653977,0.9939395137052662
2017-04-04,-1,-0.00042077986860734347,-0.0002740240804825377,-0.004167107753221433,0.004573255990653977,0.9941094159477915
2017-04-06,1,0.0004446332577106791,0.0004738818358133108,-0.003858147985006899,0.0052105722361046585,0.9941204116793765
2017-04-10,1,0.0011450333146445662,0.0013318076832525374,-0.002402270940369819,0.004713712592259129,0.9948058178843957
2017-04-12,1,0.0008502950686571854,0.0009730378906588125,-0.002402270940369819,0.004677853465634879,0.994810841533663
2017-04-17,1,0.0009523796721148483,0.0010862315911299221,-0.003234199269644463,0.00415402928347758,0.9949290435761281
2017-04-19,1,0.0009953007106304561,0.0011438110495303965,-0.003234199269644463,0.00415402928347758,0.994634803146456
2017-04-21,1,0.001394400527043902,0.0016027214390592873,-0.004397408719551275,0.003966227091932735,0.9937771239661911
2017-04-25,1,0.0011903138959369567,0.0013767415529542027,-0.003234199269644463,0.004213922455984261,0.99460522741306
2017-04-27,1,0.001280966240049369,0.0014774703506879846,-0.003234199269644463,0.005288449687550275,0.9941673905599526
2017-05-01,1,0.0009926632156342804,0.0011536302389653745,-0.0026903031618968837,0.005745635090924952,0.9938267897004492
2017-05-03,1,0.0010778536718426448,0.0012461378418866303,-0.0026903031618968837,0.005745635090924952,0.9938096094220364
2017-05-05,1,0.0009469656758152465,0.0010530453490516997,-0.003734079559612905,0.005179900151660061,0.9938498821160399
2017-05-09,1,0.0006276858516529351,0.0006280504453740653,-0.0061215920392269805,0.005009928117613147,0.9934408875838272
2017-05-11,1,0.00022003931481347393,0.0002777823085740686,-0.003734079559612905,0.005009928117613147,0.9937275250082824
2017-05-15,1,0.00028608876217507836,0.000327697438528715,-0.0033739707863538948,0.00539091741793582,0.9937922392823652
2017-05-17,-1,-0.00016511545182106105,-7.166275497946811e-05,-0.00101187538973326,0.005745635090924952,0.9938595222611216
2017-05-19,0,-1.6860126560546166e-05,8.722293244966097e-05,-0.0004489818241222809,0.00539091741793582,0.9950332002043033
2017-05-23,1,0.0006233669454117413,0.0006575807882880033,-0.0004489818241222809,0.004502135756997755,0.9961024621986747
2017-05-25,1,0.001013580321109053,0.0010234804173188542,-0.00101187538973326,0.003063864945160943,0.9961946795195775
2017-05-30,1,0.0009561678008199767,0.0009868242667329368,-0.002512312063678912,0.0023975684547668727,0.996517818363318
2017-06-01,1,0.0012132116614859889,0.0013060270938179204,-0.00395839216702603,0.0023975684547668727,0.9957320390847324
2017-06-05,1,0.0009024066329181421,0.0009381046812266427,-0.002512312063678912,0.003443233439720839,0.9958989200057154
2017-06-07,1,0.0001687629611594125,0.0002502963991124627,-0.002512312063678912,0.004354658306393181,0.9956075112176809
2017-06-09,1,0.00014276854500162696,0.0002210606810398027,-0.001135168126110346,0.0048664290204224565,0.9949546838261663
2017-06-13,1,0.0004748362985185449,0.0004972009616565291,-0.0009945592974426438,0.004354658306393181,0.9951630784943731
2017-06-15,1,0.000739592402405497,0.0007498626316747683,-0.0009945592974426438,0.004354658306393181,0.9953748772673646
2017-06-19,1,0.00027544982259913896,0.000380932616290179,-0.0037869112830444273,0.003564664527529073,0.99515896089881
2017-06-21,1,0.00046360674614622335,0.000529852516858792,-0.0038550352444527347,0.004733587954225818,0.99442421786823
2017-06-23,-1,-0.00020606447923438042,-4.1678569465154085e-05,-0.0033722033988428293,0.004733587954225818,0.9945425781058228
2017-06-27,-1,-0.0006822612533569824,-0.0004628966988032058,-0.001637395932243932,0.004733587954225818,0.9947913273318076
2017-06-29,-1,-0.0006473531999784095,-0.00045318334432924634,-0.001637395932243932,0.004733587954225818,0.9950754325477189
2017-07-03,-1,-0.00031038038368144655,-0.00016144339815696545,-0.001637395932243932,0.005063789129107998,0.9951898650946058
2017-07-06,1,0.00022664943144636178,0.0002866800958655926,-0.0005447528009680675,0.005063789129107998,0.9956444046503239
2017-07-10,1,0.0009256907212734794,0.0009625454529780833,-0.0005447528009680675,0.004203514984095047,0.996385389807109
2017-07-12,1,0.001141876879136335,0.0012259619122347058,-0.0003357623358085418,0.0061932532551233375,0.9953914896051913
2017-07-14,1,0.0013269686002295833,0.001433199576115611,-0.001637395932243932,0.0061932532551233375,0.9952195291205853
2017-07-18,1,0.0009963925510487574,0.0010489592267908412,-0.001637395932243932,0.007232035681899207,0.9946405665743375
2017-07-20,1,0.001578263206558383,0.0017422700367572496,-0.001637395932243932,0.0061932532551233375,0.9947267469456752
2017-07-24,1,0.0015331074490498838,0.0016783955135944305,-0.00228434068815357,0.007232035681899207,0.9941971710579212
2017-07-26,1,0.001329667034159632,0.0014396949220775934,-0.004848442839731595,0.008174116411286726,0.9935700704457068
2017-07-28,1,0.001397593855606527,0.0015242131752839915,-0.0021014501752514817,0.007493061680321121,0.9941284545483349
2017-08-01,1,0.0015508374350136807,0.00169109443392339,-0.0021014501752514817,0.00913606102199271,0.9936626599741499
2017-08-03,1,0.0018266720816507733,0.0020050521378224937,-0.0048577655091446405,0.00913606102199271,0.993395965264297
2017-08-07,1,0.001868357702235124,0.002050745788631292,-0.006086153562568389,0.00913606102199271,0.9928480402288763
2017-08-09,1,0.0028582450371540447,0.003186936816906898,-0.006086153562568389,0.0027526561471629464,0.9932817576899156
2017-08-11,1,0.0023441181094940714,0.002577354621243598,-0.0048577655091446405,0.0035432369111880625,0.9938549943912814
2017-08-15,1,0.002516448516471131,0.0027709333053410664,-0.006086153562568389,0.0027526561471629464,0.9936803259669685
2017-08-17,1,0.0016631562662786895,0.0017821458253594051,-0.0037209916233615524,0.003338660265998247,0.9947617493416323
2017-08-21,1,0.0016654408651702245,0.0017887216295217623,-0.002604064014287742,0.004088551133570603,0.9951960461008297
2017-08-23,1,0.001602302066133546,0.0017076280434498198,-0.0024678619224519785,0.004088551133570603,0.995637473293358
2017-08-25,1,0.001600113279527906,0.0017154471045750888,-0.002604064014287742,0.004088551133570603,0.9954562093550042
2017-08-29,1,0.0018531956695947206,0.0019802747473756143,-0.002604064014287742,0.004088551133570603,0.9957860386927907
2017-08-31,1,0.0016139692559227013,0.0017143510387455467,-0.0024678619224519785,0.004088551133570603,0.9960531591112999
2017-09-05,1,0.001093745226070995,0.0011163442418426967,-0.0003478211735170919,0.004926286482079994,0.9962292148590521
2017-09-07,1,0.0010808738390241672,0.0011073437831593922,0.00047289453724886287,0.0049673937616279895,0.9962759531981144
2017-09-11,1,0.0011857262669255175,0.0012182093440274873,0.00047289453724886287,0.0049673937616279895,0.9962422464679072
2017-09-13,1,0.0008087259372640869,0.0008147266288241428,0.0016135805335952276,0.0049673937616279895,0.9967338528993496
2017-09-15,1,0.0007710369211023782,0.0008033960760365033,0.0010969787421383937,0.005231834125418659,0.9963273884734551
2017-09-19,1,0.0011643406954068881,0.001183255954812341,-8.426068680409066e-05,0.004931721723791402,0.9966569706630003
2017-09-21,1,0.0010807446046424453,0.0010994043225890351,-0.0015819181248540688,0.004246920521657785,0.9963586415364144
2017-09-25,1,0.0008533157791578218,0.0008962467324131031,3.132345316814145e-05,0.004931721723791402,0.9961403886757197
2017-09-27,1,0.0012852442451051365,0.0013278291193401543,-0.0021503684042807492,0.004246920521657785,0.9952978451727342
