JNU-Tangyin/eata/results/Batch4_SP500/Batch4_SP500-RF.csv
Date,Action,Predicted_Q25,Predicted_Q75,Actual_Q25,Actual_Q75,RL_Reward
2010-12-14,0,0.0,0.0,-0.0003032892313297338,0.01656340277685329,0.9843791463300529
2010-12-16,0,0.0,0.0,7.94924610280788e-05,0.0190051049976667,0.9841867445476974
2010-12-20,0,0.0,0.0,-0.004509358017950358,0.014383261872014578,0.9823895427742585
2010-12-22,0,0.0,0.0,-0.004509358017950358,0.012342823883211384,0.9850976177292811
2010-12-27,0,0.0,0.0,-0.00667046772664292,0.012342823883211384,0.9837780020736724
2010-12-29,0,0.0,0.0,-0.007769091139425804,0.01639721142739768,0.9829691985511111
2010-12-31,0,0.0,0.0,-0.010659946329092127,0.02366321706714287,0.9805162730777485
2011-01-04,0,0.0,0.0,-0.010659946329092127,0.024486194967159154,0.9793212015667544
2011-01-06,0,0.0,0.0,-0.010550523680569617,0.027115244899880184,0.9771930525423994
2011-01-10,0,0.0,0.0,-0.0077326169232516334,0.027115244899880184,0.9778341643512348
2011-01-12,0,0.0,0.0,-0.010550523680569617,0.027115244899880184,0.9773998287390125
2011-01-14,0,0.0,0.0,-0.013564071849903657,0.027115244899880184,0.97666777482725
2011-01-19,0,0.0,0.0,-0.011031428889979369,0.027115244899880184,0.9789282105477843
2011-01-21,0,0.0,0.0,-0.011031428889979369,0.027115244899880184,0.9797971072692208
2011-01-25,0,0.0,0.0,-0.009723166493273528,0.027115244899880184,0.9797605389256747
2011-01-27,0,0.0,0.0,-0.009723166493273528,0.022928684579739407,0.9801753858701313
2011-01-31,0,0.0,0.0,-0.009723166493273528,0.01688726460153725,0.9816990900876073
2011-02-02,0,0.0,0.0,-0.00918815725954075,0.01688726460153725,0.9821681780487863
2011-02-04,0,0.0,0.0,-0.011082000288015387,0.010858583376346723,0.9844370837506806
2011-02-08,0,0.0,0.0,-0.011082000288015387,0.012777271179229303,0.9827364189544258
2011-02-10,0,0.0,0.0,-0.011082000288015387,0.01360348139155972,0.9820341204008529
2011-02-14,0,0.0,0.0,-0.010995296570380625,0.011711280068373527,0.9828180007738081
2011-02-16,1,0.00332029389057404,0.0038144329454048755,-0.014460565890132384,0.01360348139155972,0.9821271869661903
2011-02-18,0,0.0,0.0,-0.019176180673825056,0.019365895238528497,0.9801575546172165
2011-02-23,0,0.0,0.0,-0.017753571127490073,0.019365895238528497,0.981500866749128
2011-02-25,1,0.0054776778671315135,0.006259135191292127,-0.017753571127490073,0.01360348139155972,0.9824116135045132
2011-03-01,0,0.0,0.0,-0.014460565890132384,0.01360348139155972,0.98356743217071
2011-03-03,0,0.0,0.0,-0.014460565890132384,0.011336631499355196,0.9843167958229915
2011-03-07,0,0.0,0.0,-0.008423562911205091,0.011336631499355196,0.9856436709750126
2011-03-09,0,0.0,0.0,-0.013793856141759079,0.008056636953617174,0.9854378485534969
2011-03-11,0,0.0,0.0,-0.012439293163566022,0.006925579144744263,0.987833084952546
2011-03-15,0,0.0,0.0,-0.009171498493526928,0.006925579144744263,0.988682343774066
2011-03-17,1,0.003254482991282525,0.0036698330624511735,-0.008202420135497523,0.004844782456691059,0.9898960614437728
2011-03-21,0,0.0,0.0,-0.008606931906508648,0.0041522676006932185,0.9908928586228325
2011-03-23,0,0.0,0.0,-0.008606931906508648,0.0041522676006932185,0.9900169453444773
2011-03-25,0,0.0,0.0,-0.008606931906508648,0.0041522676006932185,0.9897338277430839
2011-03-29,0,0.0,0.0,-0.008606931906508648,0.006884389569945319,0.9885083630314767
2011-03-31,0,0.0,0.0,-0.010283699954596293,0.006119707832995091,0.988203942376887
2011-04-04,0,0.0,0.0,-0.010283699954596293,0.006119707832995091,0.9882733073833637
2011-04-06,1,0.0011870560405447825,0.0012850085975299667,-0.010283699954596293,0.004483034441149768,0.9887779231012513
2011-04-08,-1,-0.0009574963737520648,-0.0005262816425233559,-0.008606931906508648,0.004535851957178413,0.9896454938880013
2011-04-12,-1,-0.0034971447850856777,-0.0025791587423426693,-0.008606931906508648,0.004535851957178413,0.9893201851228941
2011-04-14,-1,-0.0026092547916632854,-0.0017231708305840854,-0.010611561654566526,0.0054897126617888484,0.989092204327115
2011-04-18,-1,-0.005213345051420811,-0.003924035459261657,-0.002795282388396989,0.008934431716382812,0.9877618888146437
2011-04-20,-1,-0.005423594101714365,-0.004108729207503117,-0.003161603337547227,0.006240087907672325,0.9891307387932012
2011-04-25,-1,-0.004797255786584967,-0.0035853712313214793,-0.014218562558352767,0.0054897126617888484,0.9891267968225982
2011-04-27,-1,-0.0016620004193988332,-0.0010012754083085777,-0.014218562558352767,0.004281291871300099,0.9906850007970395
2011-04-29,-1,-0.002364590598352066,-0.0016368498430665256,-0.01072650067350395,0.004726032404153909,0.9902115750807416
2011-05-03,-1,-0.0011444183296579616,-0.0006258453370883202,-0.016597877648351772,0.005648490356500382,0.986463098816001
2011-05-05,-1,-0.002725463416422027,-0.002096052626990622,-0.016597877648351772,0.005648490356500382,0.9867482539268856
2011-05-09,-1,-0.003575274106322388,-0.0027521553643602118,-0.016868831915330205,0.005648490356500382,0.9845870170416565
2011-05-11,-1,-0.004077298547146415,-0.0031420183333897233,-0.016868831915330205,0.006793929672861236,0.9842685796247679
2011-05-13,-1,-0.004233616406109345,-0.0033331360772388846,-0.016730324029205386,0.006793929672861236,0.9844483458561718
2011-05-17,-1,-0.0009102717969387969,-0.0005806280204961556,-0.017342604710850966,0.004764430024188207,0.9832742480415458
2011-05-19,-1,-0.002403253679631678,-0.0018551572075995366,-0.017342604710850966,0.006793929672861236,0.9831115862900788
2011-05-23,-1,-0.0033112059190950217,-0.002698900104683475,-0.013233850884829848,0.010278828553699385,0.9830476200384995
2011-05-25,-1,-0.002963102284261468,-0.002423821930629154,-0.014378785546490226,0.010278828553699385,0.9830152448247683
2011-05-27,-1,-0.002120771744618731,-0.0016494306891836385,-0.015386422391509667,0.0049505036607375985,0.9827998364494878
2011-06-01,-1,-0.004453699724678139,-0.003753464597105576,-0.014378785546490226,0.0049505036607375985,0.9847822593200427
2011-06-03,-1,-0.004760969326996252,-0.004013388207619584,-0.013140803411847929,0.01144577535163388,0.984384710058874
2011-06-07,-1,-0.0057966829752935335,-0.004979591935196963,-0.014378785546490226,0.01144577535163388,0.985013428097648
2011-06-09,-1,-0.004577423074522237,-0.003963662480477332,-0.014378785546490226,0.01653947549706922,0.9844797642347248
2011-06-13,-1,-0.005515645088430039,-0.004685297869177686,-0.015107279972563909,0.01715450686417363,0.9825063317516052
2011-06-15,-1,-0.0043191578939681735,-0.0037370604115384252,-0.013140803411847929,0.016334104737331656,0.9846291130975743
2011-06-17,-1,-0.004369289087152864,-0.0037150817888937475,-0.015873038098985034,0.016334104737331656,0.9839673980602913
2011-06-21,-1,-0.0038050298475997297,-0.0032621787240218678,-0.015873038098985034,0.016334104737331656,0.9836438962044903
2011-06-23,-1,-0.004438237050680992,-0.0037980122145407067,-0.012721752783717167,0.016956330299862037,0.9822291022818417
2011-06-27,-1,-0.005207814172044963,-0.004498089361290524,-0.008771029921812364,0.01739445719580688,0.9816955524274275
2011-06-29,-1,-0.0020860302153830976,-0.00192571312579791,-0.012721752783717167,0.016956330299862037,0.9815060534384601
2011-07-01,-1,-0.0013548414504985075,-0.0012695508095538178,-0.021554003206627634,0.016956330299862037,0.98098769128152
2011-07-06,-1,-0.002880829861311501,-0.002665473748576838,-0.01598488223834102,0.016956330299862037,0.980789783233401
2011-07-08,-1,-0.0018475494951466043,-0.0017957659112246044,-0.031050775286514953,0.013447833237127536,0.9765089883685895
2011-07-12,-1,-0.0027523738861137933,-0.002596342989488156,-0.031050775286514953,0.013455027432553507,0.97065556402902
2011-07-14,-1,-0.002228683402470545,-0.0021136046738882957,-0.037885718065451664,0.01739445719580688,0.9635857549261987
2011-07-18,-1,-0.0026133744241088634,-0.00233717228991786,-0.04456926788770222,0.022437175357574286,0.9608605302463528
2011-07-20,-1,-0.0018998553325943507,-0.0017808745145647697,-0.04456926788770222,0.03390447021271596,0.9590910478291287
2011-07-22,-1,-0.0010656226582398329,-0.0009955247507891316,-0.05250934165789279,0.017664656974987047,0.9538527039963529
2011-07-26,-1,-0.00138025681327365,-0.0013489742634709395,-0.05250934165789279,0.0177526961318289,0.9535130961105917
2011-07-28,-1,-0.0004418016667594137,-0.00043255414450863935,-0.052338740874560974,0.032735626604886256,0.9530162112796724
2011-08-01,-1,-0.0008715387553743733,-0.0008253546569981203,-0.052338740874560974,0.03529139507577951,0.9504702273194864
2011-08-03,1,0.0005605218205157645,0.0006597778923562835,-0.052338740874560974,0.03529139507577951,0.9518022380169496
2011-08-05,-1,-0.004217917258155527,-0.003768743144694716,-0.04599850093879532,0.03529139507577951,0.9527763217580799
2011-08-09,-1,-0.004938762782195478,-0.004388861826798204,-0.04599850093879532,0.03529139507577951,0.9539350453779234
2011-08-11,-1,-0.007228422137456341,-0.006438946185846204,-0.0458930986944599,0.032735626604886256,0.9576815644846399
2011-08-15,-1,-0.007622834505149145,-0.006781427367686708,-0.045168503476841274,0.021027399066466276,0.9611580658519493
2011-08-17,-1,-0.007334358320257042,-0.006546349710073677,-0.045168503476841274,0.019490330449613236,0.9623009447055015
2011-08-19,-1,-0.012065387675927247,-0.01073268694168265,-0.042192045120362065,0.019886190270282832,0.9657084642972384
2011-08-23,-1,-0.009625691678445299,-0.008609245432632088,-0.04261561779173475,0.017415827724811178,0.9670624577844747
2011-08-25,-1,-0.008992154016001523,-0.00800080834913514,-0.044483709902849514,0.014365601847873836,0.9670747765635573
2011-08-29,-1,-0.0043877446941362995,-0.003965599677563584,-0.044483709902849514,0.008404426431310414,0.9685551686235339
2011-08-31,-1,-0.003577276345842325,-0.0033183007748638174,-0.048090373164382964,0.008231255787323909,0.9656997478253563
2011-09-02,-1,-0.005831441182054982,-0.005331455227892842,-0.049955884456911154,0.008231255787323909,0.9632964009295302
2011-09-07,-1,-0.008173751751906528,-0.0073496560540795754,-0.048090373164382964,0.019886190270282832,0.9658394316893208
2011-09-09,-1,-0.007366658051449874,-0.0066317472608966276,-0.048090373164382964,0.028328621007245283,0.9615305517591933
2011-09-13,-1,-0.006747906173094179,-0.006212999201703633,-0.048090373164382964,0.037210817694724396,0.9590092435900507
2011-09-15,-1,-0.005893154849371569,-0.0054956306821257045,-0.048090373164382964,0.04530598701673189,0.9569539090080967
2011-09-19,0,0.0,0.0,-0.051208229267126454,0.04530598701673189,0.9570573197931684
2011-09-21,0,0.0,0.0,-0.051208229267126454,0.05025736204563723,0.9534747941403947
2011-09-23,0,0.0,0.0,-0.03995224769710301,0.05025736204563723,0.9546452506211244
2011-09-27,0,0.0,0.0,-0.04900383408446084,0.04600071507790748,0.9533654491164939
2011-09-29,0,0.0,0.0,-0.03966637581119409,0.05332901375859641,0.9510898333014619
2011-10-03,0,0.0,0.0,-0.03070274494757052,0.05332901375859641,0.9541919314370437
2011-10-05,0,0.0,0.0,-0.03966637581119409,0.04957188610542336,0.9538736273592147
2011-10-07,-1,-0.004611647219792537,-0.00452667362396533,-0.03070274494757052,0.038442464633090125,0.9587970897914995
2011-10-11,-1,-0.0026404589834969835,-0.0024865744370354587,-0.03070274494757052,0.038442464633090125,0.9584359579990228
2011-10-13,-1,-0.0022458498984566358,-0.002108269611605568,-0.03371994041002313,0.034879477571946774,0.9588014348736792
2011-10-17,-1,-0.0035448483473205046,-0.003519259144007172,-0.030533261168721088,0.034879477571946774,0.9596239597995462
2011-10-19,-1,-0.0008751825846211659,-0.0004900002495370824,-0.015041192590401072,0.03251600798834297,0.9662368182913949
2011-10-21,-1,-0.0008658497701036366,-0.0005724174279421151,-0.027557150214919994,0.034879477571946774,0.9646517930707792
2011-10-25,-1,-0.0013710040883095583,-0.0011777009241589393,-0.026491160799643903,0.034879477571946774,0.9659791222982193
2011-10-27,0,0.0,0.0,-0.03277327698751547,0.01811702335012319,0.9698063403057638
2011-10-31,0,0.0,0.0,-0.03277327698751547,0.025380287095544643,0.9703731495963002
2011-11-02,1,4.6996646262966206e-05,0.0003703121960440444,-0.026491160799643903,0.025380287095544643,0.9707896023365472
2011-11-04,1,0.0014941190349382976,0.002057516191961443,-0.026491160799643903,0.02430142170618515,0.9707408407090317
2011-11-08,1,0.004262383149056779,0.005228320050305947,-0.03248116738212989,0.016361164311635312,0.9725695405069943
2011-11-10,1,0.00313745877468422,0.0039737344804329725,-0.03248116738212989,0.022063244124194657,0.9735425157761761
2011-11-14,1,0.0022498207679569684,0.0029402742129804706,-0.02977146186132008,0.022063244124194657,0.9739660477385811
2011-11-16,1,0.0020910233778472986,0.002706972778417426,-0.02977146186132008,0.022063244124194657,0.9732398949236681
2011-11-18,1,0.0032322353282718246,0.0040621393942371995,-0.03248116738212989,0.010956802198217453,0.9738365277472882
2011-11-22,0,0.0,0.0,-0.030545341671210598,0.02430142170618515,0.971490527167282
2011-11-25,0,0.0,0.0,-0.01658679258631731,0.025609731560729335,0.9722685313895009
2011-11-29,0,0.0,0.0,-0.016186000444079238,0.025520933003041334,0.97406987582225
2011-12-01,0,0.0,0.0,-0.017201845272252683,0.025279360087979125,0.976942291817145
2011-12-05,0,0.0,0.0,-0.017201845272252683,0.01579637339192574,0.9784560587789245
2011-12-07,0,0.0,0.0,-0.01640516896518402,0.028543546706111256,0.9770887167893151
2011-12-09,0,0.0,0.0,-0.012745609516365233,0.028543546706111256,0.9771558417842632
2011-12-13,0,0.0,0.0,-0.012745609516365233,0.028543546706111256,0.9767947077161786
2011-12-15,1,0.007601600094216673,0.00955953389293484,-0.010258538754211637,0.028543546706111256,0.9780543826099803
2011-12-19,0,0.0,0.0,-0.00399682027394079,0.028543546706111256,0.9772780971725327
2011-12-21,0,0.0,0.0,-0.006827412727208021,0.023990187540669682,0.9818096800469964
2011-12-23,1,0.006492294433541018,0.007793645689096419,-0.006827412727208021,0.023990187540669682,0.9816460717826826
2011-12-28,0,0.0,0.0,-0.0032423244416425897,0.02711219995576898,0.9791073144166826
2011-12-30,0,0.0,0.0,-0.0032423244416425897,0.023957265035502398,0.9793962882489
2012-01-04,0,0.0,0.0,9.300693677742264e-06,0.023957265035502398,0.978065415861602
2012-01-06,0,0.0,0.0,9.300693677742264e-06,0.023957265035502398,0.9790316415212712
2012-01-10,0,0.0,0.0,-0.00677098709854658,0.021630547954132925,0.981540517679203
2012-01-12,0,0.0,0.0,-0.002838619058264117,0.02264642511123923,0.9821887200168562
2012-01-17,0,0.0,0.0,-0.00677098709854658,0.02264642511123923,0.9817986101991683
2012-01-19,0,0.0,0.0,-0.00677098709854658,0.02266949390966709,0.9810052860714307
2012-01-23,0,0.0,0.0,-0.004716297043178423,0.02266949390966709,0.9805026008442413
2012-01-25,1,0.014845860312961982,0.017096787052430267,-0.009779496213694235,0.022507556659224916,0.9837836734332168
2012-01-27,0,0.0,0.0,-0.009779496213694235,0.019990692969874515,0.9835229712145126
2012-01-31,0,0.0,0.0,-0.009650600500800428,0.019990692969874515,0.9846865606520088
2012-02-02,1,0.005564296953245224,0.006430210137635593,-0.009650600500800428,0.01884394580572644,0.9853977527272868
2012-02-06,0,0.0,0.0,-0.012135704587724951,0.016419567797616184,0.9855370256213938
2012-02-08,1,0.008770212617378738,0.009614364459117607,-0.008147494977260675,0.016419567797616184,0.9851731916736104
2012-02-10,1,0.006306084455083599,0.006964823777884634,-0.013352928596669809,0.015327575227243984,0.9848270803997357
2012-02-14,1,0.004890604298880849,0.0052726750229273815,-0.008147494977260675,0.01884394580572644,0.9824539647510864
2012-02-16,0,0.0,0.0,-0.008147494977260675,0.016419567797616184,0.9819525741848489
2012-02-21,0,0.0,0.0,-0.010021976501993997,0.017693002432024686,0.9815611831504544
2012-02-23,0,0.0,0.0,-0.010021976501993997,0.017693002432024686,0.9818589897181326
2012-02-27,0,0.0,0.0,-0.007485884186314958,0.01913354560113918,0.9815813346430119
2012-02-29,1,0.0025686302022322536,0.0025803510565075485,-0.005490458415980154,0.01913354560113918,0.9816457220984495
2012-03-02,1,0.0029972278393444168,0.0030353256269750545,-0.005490458415980154,0.0180231061002339,0.9822463670409024
2012-03-06,0,0.0,0.0,-0.004599742835321277,0.0180231061002339,0.9837662468418507
2012-03-08,0,0.0,0.0,-0.005039406853256714,0.0180231061002339,0.9831629058380956
2012-03-12,0,0.0,0.0,-0.006976872318427581,0.0180231061002339,0.9819980772147616
2012-03-14,0,0.0,0.0,-0.006976872318427581,0.017434796734638776,0.9848149230382324
2012-03-16,0,0.0,0.0,-0.012647278753059755,0.01660566109185774,0.9849067390315311
2012-03-20,0,0.0,0.0,-0.01516594614599338,0.013753475511505716,0.9849592306387623
2012-03-22,1,0.0062088125534715925,0.006657366803632476,-0.013162136202590005,0.011272775834209069,0.9842767755228756
2012-03-26,1,0.005482426569743929,0.005674713515120553,-0.013162136202590005,0.011272775834209069,0.9831349483193862
2012-03-28,1,0.004204802676690502,0.004468185004729908,-0.013162136202590005,0.015369833607565359,0.9825917411109878
2012-03-30,0,0.0,0.0,-0.015956805272206755,0.016717601894773587,0.9813886138460094
2012-04-03,0,0.0,0.0,-0.015956805272206755,0.016717601894773587,0.9810484102440469
2012-04-05,0,0.0,0.0,-0.015956805272206755,0.017850996219987276,0.9795191523165283
2012-04-10,0,0.0,0.0,-0.009307063258822612,0.017850996219987276,0.9820290088989264
2012-04-12,0,0.0,0.0,-0.013162136202590005,0.01646702540442605,0.9819421707135579
2012-04-16,0,0.0,0.0,-0.013162136202590005,0.015470262866755399,0.982665670678075
2012-04-18,-1,-0.0012041108608421103,-0.0004054534992236772,-0.015900547730552217,0.015470262866755399,0.9829521083190839
2012-04-20,0,0.0,0.0,-0.01460033304491256,0.015470262866755399,0.9824826676692879
2012-04-24,0,0.0,0.0,-0.01460033304491256,0.014887034122546793,0.9842461352123092
2012-04-26,0,0.0,0.0,-0.01460033304491256,0.012193438218700163,0.9861726625787994
2012-04-30,0,0.0,0.0,-0.010459572614787879,0.012193438218700163,0.9870223630567673
2012-05-02,0,0.0,0.0,-0.01460033304491256,0.012193438218700163,0.985366402106821
2012-05-04,0,0.0,0.0,-0.020316768218172014,0.0052395353178067965,0.9826442569381008
2012-05-08,0,0.0,0.0,-0.020316768218172014,0.014516154089778596,0.9793658353264735
2012-05-10,0,-0.0005520215408378053,0.00028562259267277037,-0.01460033304491256,0.014516154089778596,0.979994460096514
2012-05-14,-1,-0.002956367069749277,-0.001759286766013645,-0.01460033304491256,0.015391615621203657,0.978674745579867
2012-05-16,-1,-0.0019966097698186445,-0.0010775236846043267,-0.010459572614787879,0.01865589074993035,0.9786819309041794
2012-05-18,-1,-0.002605723883487964,-0.0016479750954896013,-0.00039493491963674197,0.021081447418898818,0.9768028453781818
2012-05-22,-1,-0.0028622857591656553,-0.0017941285292506419,-0.00039493491963674197,0.021081447418898818,0.9771700461672019
2012-05-24,-1,-0.0032301727565816497,-0.002145268115388021,-0.0072823695166905214,0.02284519451687458,0.9747923884793548
2012-05-29,-1,-0.002079755723813936,-0.001132238223797045,-0.02682383485371257,0.02284519451687458,0.974318102101687
2012-05-31,0,0.0,0.0,-0.010785060217582812,0.02284519451687458,0.9755391521334845
2012-06-04,0,0.0,0.0,0.0011143854401564762,0.023791489830597225,0.9790913413534282
2012-06-06,0,0.0,0.0,-0.0015624984866008389,0.02284519451687458,0.9815979494660184
2012-06-08,0,0.0,0.0,-0.00783925771807599,0.020864897830478884,0.9824173781612862
2012-06-12,-1,-0.01216426827209818,-0.010738821696162266,-0.00783925771807599,0.02023351819057055,0.9787218880495784
2012-06-14,-1,-0.0026018470420882916,-0.0019600325159167867,-0.010106435616752335,0.02023351819057055,0.9812790593645666
2012-06-18,0,0.0,0.0,-0.010106435616752335,0.02023351819057055,0.9820019523473366
2012-06-20,0,0.0,0.0,-0.014662842645667563,0.02023351819057055,0.9813839204367151
2012-06-22,0,0.0,0.0,-0.014662842645667563,0.016165537447526256,0.9823234571852313
2012-06-26,0,0.0,0.0,-0.011242350077905142,0.022342756619995983,0.9807311302311579
2012-06-28,0,0.0,0.0,-0.011242350077905142,0.024498306055148095,0.9807669252381349
2012-07-02,0,0.0,0.0,-0.013004367952612353,0.02095203466895459,0.9820728448895556
2012-07-05,0,0.0,0.0,-0.013881602259103317,0.02095203466895459,0.9813103816379009
2012-07-09,1,0.000926408831999137,0.001083452679573444,-0.013881602259103317,0.024498306055148095,0.9800919440431681
2012-07-11,1,0.004274921117391215,0.004404982260797728,-0.013004367952612353,0.024498306055148095,0.9811972910503077
2012-07-13,1,0.0037572959882791203,0.003900429420145637,-0.0110039608703954,0.0133645002120517,0.9835075316006918
2012-07-17,1,0.003424549216381417,0.003699944080923258,-0.0110039608703954,0.00896307225489075,0.984785906591181
2012-07-19,-1,-0.00037159014845300996,-0.00021259035359093265,-0.006070894023201591,0.01076725411864345,0.9858517177771172
2012-07-23,1,0.0011817859311368773,0.0012860872378809586,-0.005722490429637498,0.01076725411864345,0.9875409278731825
2012-07-25,1,0.003352704134386665,0.0036116569207466694,-0.006070894023201591,0.008547069509242933,0.9902305192535401
2012-07-27,1,0.0011396488140686285,0.0011696114543900613,-0.008102531709896024,0.008547069509242933,0.9896684984443382
2012-07-31,1,0.00010371749578482901,0.0002545526501078998,-0.007095853423753193,0.008547069509242933,0.9901997602336465
2012-08-02,0,0.0,0.0,-0.005722490429637498,0.008547069509242933,0.9912751868089605
2012-08-06,0,0.0,0.0,-0.006420043283058807,0.0071942995837998795,0.9924660731948216
2012-08-08,0,0.0,0.0,-0.0052521327863949765,0.0075527546380477675,0.9912709552854937
2012-08-10,0,0.0,0.0,-0.0052521327863949765,0.008547069509242933,0.9904839953966763
2012-08-14,0,0.0,0.0,-0.008818445236293916,0.007521662119759293,0.9901126046044153
2012-08-16,0,0.0,0.0,-0.008818445236293916,0.007521662119759293,0.9885300093336221
2012-08-20,0,0.0,0.0,-0.01117740991155083,0.007521662119759293,0.9866730468223622
2012-08-22,1,0.0026200822255179933,0.002879129486234136,-0.010253525131478163,0.010581860828580206,0.9845854606622952
2012-08-24,1,0.00330122363470138,0.0036626920591317207,-0.010127584339484427,0.006884198728396637,0.9849700818577387
2012-08-28,1,0.0021636915364195196,0.0023288122123359405,-0.010127584339484427,0.006884198728396637,0.9838087693534379
2012-08-30,1,2.0289083373012536e-05,0.0002260891204405375,-0.010725982238383714,0.009933410044535244,0.983595278370643
2012-09-04,1,0.0011295376405508668,0.0011802699426406121,-0.010725982238383714,0.009633673361894825,0.9834073926474924
2012-09-06,1,0.0018578452555820676,0.001981831169069117,-0.010725982238383714,0.018830284729074775,0.9829453319605478
2012-09-10,1,0.0020187793963080372,0.002134466009106276,-0.010725982238383714,0.01053746324167619,0.9832223997514964
2012-09-12,0,0.0,0.0,-0.009951207009148047,0.0166585505288591,0.9831856521272343
2012-09-14,0,0.0,0.0,-0.010725982238383714,0.010991309240496513,0.982761182436748
2012-09-18,0,0.0,0.0,-0.009951207009148047,0.015370079233564957,0.9823783753305911
2012-09-20,0,0.0,0.0,-0.009951207009148047,0.011161394543206212,0.9845331762568664
2012-09-24,1,0.0027118835021799252,0.0030664164054746827,-0.010038901493680176,0.011161394543206212,0.9846692755916436
2012-09-26,1,0.0010458589936288955,0.0011308604521374065,-0.011299900345922535,0.011161394543206212,0.982149756823795
2012-09-28,1,0.0013750583619460339,0.001533499645638939,-0.010349736147622609,0.011161394543206212,0.9822551773645859
2012-10-02,1,0.0013028070928557175,0.001432289171928327,-0.010058118243075153,0.015370079233564957,0.9813572186076984
2012-10-04,1,0.0017820367475639618,0.0019142384622079242,-0.012067101700692025,0.009414923197805692,0.9825360344599481
2012-10-08,1,0.0010029574644707256,0.001019776895099911,-0.012290635584207892,0.011161394543206212,0.9799497095954999
2012-10-10,1,0.000979827256023549,0.0010216217167047358,-0.015091726407351236,0.01012686861549325,0.9795578923748547
2012-10-12,0,0.0,0.0,-0.012304739471252355,0.011329594913315776,0.9811348800262164
2012-10-16,0,0.0,0.0,-0.012304739471252355,0.01012686861549325,0.9818087517709778
2012-10-18,0,0.0,0.0,-0.012304739471252355,0.011329594913315776,0.9812551578506645
2012-10-22,0,0.0,0.0,-0.012237105603431317,0.01471196856197662,0.9809327525578412
2012-10-24,0,0.0,0.0,-0.009841899540201225,0.0179476054152617,0.9841090832746247
2012-10-26,0,0.0,0.0,-0.009841899540201225,0.01348170885945604,0.9847963819892653
2012-11-01,0,0.0,0.0,-0.009769910950672004,0.011329594913315776,0.9860638975885034
2012-11-05,-1,-0.0029990711570234297,-0.0025418971184961014,-0.012561726141786196,0.011329594913315776,0.9851400441137209
2012-11-07,-1,-0.0027167111216806505,-0.0022882592445442975,-0.00982971311537276,0.011329594913315776,0.9875823470798457
2012-11-09,-1,-0.0022155713076063167,-0.0019452459931008257,-0.0067399375320654365,0.013124998777442581,0.987731597358731
2012-11-13,0,0.0,0.0,-0.004919448268095846,0.011729272400642282,0.9887000684083714
2012-11-15,0,0.0,0.0,-0.004919448268095846,0.011729272400642282,0.9900300912117798
2012-11-19,0,0.0,0.0,-0.004919448268095846,0.015647215466700743,0.9888213111473785
2012-11-21,0,0.0,0.0,-0.004919448268095846,0.015647215466700743,0.9891997214128118
2012-11-26,0,0.0,0.0,-0.007786631293410366,0.011729272400642282,0.9890074541580557
2012-11-28,0,0.0,0.0,-0.005268346188544155,0.011729272400642282,0.9892525109322482
2012-11-30,0,0.0,0.0,-0.007676915149695223,0.01607779514087975,0.9877920799362919
2012-12-04,0,0.0,0.0,-0.00448482306434566,0.018480925281697768,0.9880491910566895
2012-12-06,0,0.0,0.0,-0.005186927392234982,0.018894883850300796,0.9866148562201339
2012-12-10,0,0.0,0.0,-0.008178086568732763,0.018894883850300796,0.9868230301348669
2012-12-12,0,0.0,0.0,-0.008875077649275183,0.018894883850300796,0.9862680164145446
2012-12-14,-1,-0.003091275908701216,-0.0026755004936384027,-0.008875077649275183,0.018894883850300796,0.9857616889643959
2012-12-18,0,0.0,0.0,-0.008875077649275183,0.012736323122769084,0.9872802594040516
2012-12-20,0,0.0,0.0,-0.008875077649275183,0.012736323122769084,0.9858854805718208
2012-12-24,0,0.0,0.0,-0.008178086568732763,0.012736323122769084,0.9864901634497139
2012-12-27,-1,-0.00044357495465410476,-0.0003249783363950958,-0.008178086568732763,0.012736323122769084,0.9866370558401785
2012-12-31,1,0.0010771379779996974,0.001199836967923711,-0.0071902504698563565,0.012501814050729296,0.988128988423218
2013-01-03,0,0.0,0.0,-0.0071902504698563565,0.012472639464145114,0.9883972235365299
2013-01-07,0,0.0,0.0,-0.0071902504698563565,0.012472639464145114,0.9897839801405154
2013-01-09,0,0.0,0.0,-0.002973719707903941,0.012472639464145114,0.9906555009739253
2013-01-11,0,0.0,0.0,-0.0029556385904090862,0.012472639464145114,0.9914798419177846
2013-01-15,0,0.0,0.0,-0.0029556385904090862,0.01020021501611754,0.9919453537809462
2013-01-17,0,0.0,0.0,-0.0037869516783715636,0.003866495789054263,0.9922702698418319
2013-01-22,0,0.0,0.0,-0.004777228255979333,0.003866495789054263,0.992352951687737
2013-01-24,0,0.0,0.0,-0.004777228255979333,0.00894584313724399,0.9911192275356309
2013-01-28,1,0.0023062003051871117,0.0025879791460466403,-0.007909813545109662,0.00894584313724399,0.9893204441773548
2013-01-30,1,0.0026512923136037996,0.002977452458859213,-0.007909813545109662,0.00894584313724399,0.9891541892250874
2013-02-01,0,0.0,0.0,-0.007909813545109662,0.009385536265982404,0.9886176009553458
2013-02-05,0,0.0,0.0,-0.00472298490349477,0.0101911035791762,0.988626370567222
2013-02-07,0,0.0,0.0,-0.007817969373832463,0.014297442162945618,0.9873026179009308
2013-02-11,0,0.0,0.0,-0.008908986021164635,0.015363621602264312,0.9855383903046975
2013-02-13,0,0.0,0.0,-0.007817969373832463,0.015363621602264312,0.985019745444952
2013-02-15,1,0.004245814359830133,0.004879474033686169,-0.009078283990364155,0.015363621602264312,0.9867849974649444
2013-02-20,1,0.0021452352649024026,0.0024654408978774306,-0.0003152337352660371,0.015363621602264312,0.9876347511419588
2013-02-22,1,0.0021210534703738296,0.0023873376613480057,-0.0030414030381835174,0.014857975126987085,0.9881930700749116
2013-02-26,0,0.0,0.0,0.001507492521136666,0.014857975126987085,0.9886164328547904
2013-02-28,0,0.0,0.0,-0.004866262263909056,0.013641751409859532,0.9889414519431685
2013-03-04,1,0.0031149657462690816,0.003591723534264643,-0.00879655647679502,0.01000515393136547,0.9897081875197089
2013-03-06,1,0.003051393997517754,0.0034919630600470267,-0.009920272316900236,0.009571229866932514,0.9888920221504242
2013-03-08,1,0.003507756514589909,0.004030957955541816,-0.009920272316900236,0.007586121192838815,0.9901649313678172
2013-03-12,0,0.0,0.0,-0.005146925039421083,0.007586121192838815,0.9905508652450047
2013-03-14,0,0.0,0.0,-0.009920272316900236,0.006077027876048042,0.9909157997749328
2013-03-18,0,0.0,0.0,-0.010574425840277055,0.0068249223379262085,0.9887975883427718
2013-03-20,1,0.0029478823437488868,0.0032945673237575893,-0.01674249113905034,0.005295801325001564,0.9873639425978967
2013-03-22,1,0.001592248866017889,0.001598723985380856,-0.013887639201998293,0.0068249223379262085,0.9871762390076088
2013-03-26,0,0.0,0.0,-0.013887639201998293,0.014170928628744679,0.9846700081480666
2013-03-28,0,0.0,0.0,-0.013887639201998293,0.014170928628744679,0.9844331613325592
2013-04-02,0,0.0,0.0,-0.012924052257601269,0.014170928628744679,0.9848676773420165
2013-04-04,0,0.0,0.0,-0.00849315132815415,0.01376511243622975,0.9859953378429712
2013-04-08,1,0.0002372703144424863,0.00043988476346174335,-0.00849315132815415,0.0160047238180929,0.9851892592854605
2013-04-10,1,0.00047054520354785853,0.0006682224186695295,-0.00849315132815415,0.014426169834986364,0.985840811359338
2013-04-12,0,0.0,0.0,-0.0017667687738488792,0.014426169834986364,0.9862923214847577
2013-04-16,0,0.0,0.0,0.0,0.014426169834986364,0.9881691761764136
2013-04-18,0,0.0,0.0,0.001722115729198978,0.015252544893891481,0.9882495285218279
2013-04-22,0,0.0,0.0,0.0031279317269941364,0.014426169834986364,0.9888069638544613
2013-04-24,0,0.0,0.0,0.0008196909261273836,0.011421265442277853,0.991063987507073
2013-04-26,0,0.0,0.0,0.0,0.011438891858199235,0.9911923352053068
2013-04-30,0,0.0,0.0,0.0,0.012723010227127053,0.9910327733891837
2013-05-02,0,0.0,0.0,0.0,0.013265308845964493,0.9896114084100589
2013-05-06,0,0.0,0.0,-0.0016529910571230408,0.011438891858199235,0.9902429742991204
2013-05-08,0,0.0,0.0,-0.005278462306936153,0.012416651985159712,0.9894313470100929
2013-05-10,1,0.001280460743298647,0.001511882444743281,-0.005278462306936153,0.014603114523192573,0.9881548916237158
2013-05-14,0,0.0,0.0,-0.01503884432731648,0.01329061831885137,0.9871876584008344
2013-05-16,0,0.0,0.0,-0.01503884432731648,0.012416651985159712,0.9874117656561313
2013-05-20,0,0.0,0.0,-0.01503884432731648,0.01329061831885137,0.9876800497449484
2013-05-22,0,0.0,0.0,-0.01209114580594356,0.01329061831885137,0.9882111827489984
2013-05-24,0,0.0,0.0,-0.01209114580594356,0.01329061831885137,0.9887557641476121
2013-05-29,0,0.0,0.0,-0.01209114580594356,0.015777285103674207,0.987330823882431
2013-05-31,0,0.0,0.0,-0.01209114580594356,0.01643791477742581,0.9874373846770237
2013-06-04,1,0.0012252075670107832,0.0012825515986820569,-0.006077030083275287,0.01733921810745985,0.9869161320428539
2013-06-06,1,0.001299082611275446,0.0013568059271015817,-0.001932822653614063,0.01873293359459815,0.986640710642355
2013-06-10,1,0.0021062746240174167,0.0021510412152651605,-0.003307960466951347,0.016375965808061582,0.9879652132829382
2013-06-12,1,0.0009522333159217888,0.0010282667300332685,-0.003307960466951347,0.016375965808061582,0.9878546057874812
2013-06-14,1,0.0010931624865313692,0.001160487253270686,-0.003307960466951347,0.016375965808061582,0.9884786642822089
2013-06-18,1,0.0012142950947620968,0.001255755004822174,-0.005008760332870301,0.01873293359459815,0.9871561494583413
2013-06-20,0,0.0,0.0,-0.003925945458386012,0.019674737006537324,0.9860630730855185
2013-06-24,0,0.0,0.0,-0.003925945458386012,0.019674737006537324,0.9853752538526692
2013-06-26,0,0.0,0.0,-0.006897028850986235,0.018651597428409692,0.9865233465786144
2013-06-28,1,0.0027685578959746873,0.0030364179305135386,-0.006897028850986235,0.01375252246320202,0.9874349222471984
2013-07-02,1,0.0034635801383348947,0.0038171587834890655,-0.006897028850986235,0.007618951231600125,0.9879941752123783
2013-07-05,1,0.004841439598574495,0.005363914018426878,-0.006897028850986235,0.006731029829372289,0.9876678553924025
2013-07-09,1,0.004102540115769497,0.004466883802571141,-0.009404403559192174,0.006720071513589276,0.98681899945565
2013-07-11,1,0.002896363490791973,0.0030927003211190726,-0.007994503192809184,0.006720071513589276,0.9883511304059819
2013-07-15,1,0.0023872093151441416,0.002474866749909517,-0.00803684167720129,0.0027415363366655224,0.9888243462030744
2013-07-17,1,0.0026823492111309475,0.00282212276878638,-0.004699523066244112,0.003512122604640412,0.990611043911717
2013-07-19,0,0.0,0.0,-0.00803684167720129,0.003048762694950453,0.9917267800883215
2013-07-23,0,0.0,0.0,-0.011751150914639552,0.003048762694950453,0.9909267288393653
2013-07-25,0,0.0,0.0,-0.00803684167720129,0.0035214365343557473,0.9908639690651792
2013-07-29,0,0.0,0.0,-0.011215706330154757,0.003048762694950453,0.9906932773155241
2013-07-31,1,0.0017071788266552297,0.0017966592672210545,-0.012215980998313955,0.003048762694950453,0.9887089322680951
2013-08-02,1,0.0022016166014936405,0.002341100930725546,-0.012215980998313955,0.003048762694950453,0.9891440014464146
2013-08-06,1,0.0017158289428463925,0.0018337394846533444,-0.011215706330154757,0.0036177151209733334,0.9895435297566465
2013-08-08,1,0.0012992088870351897,0.0013356389041136868,-0.010094890581265491,0.005743720275574964,0.9897140686839633
2013-08-12,1,0.0011942597567914295,0.001239092501089106,-0.010094890581265491,0.007421221554972969,0.9895854313216398
2013-08-14,1,0.0009103527685992918,0.0009434889841886554,-0.011522474237392971,0.006079952557935982,0.989004846079492
2013-08-16,1,0.0005939570246132733,0.0006547541512271882,-0.009959544544160714,0.007622161175487028,0.9894411387803621
2013-08-20,1,0.0002727627091201213,0.0003912197751096331,-0.007868353849724065,0.00581070014907965,0.9908274420871779
2013-08-22,1,0.00036944498465586294,0.0005018388096961137,-0.009959544544160714,0.00581070014907965,0.9895431709714075
2013-08-26,-1,-0.0011036306188141492,-0.0007768311903292661,-0.007868353849724065,0.007622161175487028,0.9892390197595392
2013-08-28,-1,-0.002463674999328671,-0.001982582023778409,-0.007389316662259029,0.007622161175487028,0.9902505798568745
2013-08-30,-1,-0.002367129464235473,-0.0019432257802300418,-0.005821778663979086,0.008493989381745665,0.9901084751404825
2013-09-04,-1,-0.0023677965593386233,-0.001912011501847362,-0.007359127105194553,0.008493989381745665,0.9900158454126584
2013-09-06,0,0.0,0.0,-0.007359127105194553,0.009659302842259729,0.9895752614628841
2013-09-10,0,0.0,0.0,-0.007476965904397981,0.0076862321551766696,0.9891477486964094
2013-09-12,0,0.0,0.0,-0.00590701676205945,0.009782622371598465,0.9887435997129399
2013-09-16,-1,-0.0024110904148264964,-0.0018813274290817577,-0.00590701676205945,0.013111516347115916,0.9880877288235614
2013-09-18,-1,-0.0021498821483084338,-0.0016758480751555887,-0.007476965904397981,0.013311763111481597,0.9865135476924182
2013-09-20,0,0.0,0.0,-0.00590701676205945,0.01366147590767565,0.9874312094789424
2013-09-24,0,0.0,0.0,-0.0070545499623021835,0.01366147590767565,0.9871451958679308
2013-09-26,-1,-0.003296437220538519,-0.0027703964443545432,-0.0070545499623021835,0.01366147590767565,0.9873948349668155
2013-09-30,-1,-0.0028120416339815937,-0.0023542763104588416,-0.0070545499623021835,0.01366147590767565,0.9875916627109891
2013-10-02,-1,-0.002495282724641005,-0.0020568764887957443,-0.006438097642310468,0.013327723082811157,0.9881711092076914
2013-10-04,-1,-0.0016504018874592828,-0.0013483653250945418,-0.007269697068494566,0.012816610994918962,0.9880743053121158
2013-10-08,0,0.0,0.0,-0.007269697068494566,0.012816610994918962,0.9880345948632581
2013-10-10,0,0.0,0.0,-0.00933164667254091,0.010310764913950037,0.9879097518948861
2013-10-14,-1,-0.0009588800968685029,-0.0006935502308281776,-0.00933164667254091,0.00945644018803413,0.9865669106838977
2013-10-16,0,0.0,0.0,-0.00933164667254091,0.007890685052513828,0.9873780868804903
2013-10-18,1,0.001125183270119125,0.0011918673859126559,-0.00933164667254091,0.005001955218042629,0.9878744181097822
2013-10-22,-1,-0.0008386802086661104,-0.0006365061319299316,-0.00933164667254091,0.005001955218042629,0.9888714995533706
2013-10-24,0,0.0,0.0,-0.00858901815318022,0.007890685052513828,0.9885914290072022
2013-10-28,0,0.0,0.0,-0.00858901815318022,0.00945644018803413,0.9884077407900496
2013-10-30,0,0.0,0.0,-0.00858901815318022,0.00945644018803413,0.9883212543458787
2013-11-01,0,0.0,0.0,-0.009232233529155687,0.006991571056043177,0.9886900568451233
2013-11-05,0,0.0,0.0,-0.009232233529155687,0.00769069386082555,0.9881001160520833
2013-11-07,0,0.0,0.0,-0.008502420617242185,0.012381596009491966,0.9882209075349113
2013-11-11,0,0.0,0.0,-0.008502420617242185,0.00769069386082555,0.9903099549035905
2013-11-13,0,0.0,0.0,-0.008502420617242185,0.011041893017307892,0.990024570097062
2013-11-15,0,0.0,0.0,-0.008502420617242185,0.007264552505917954,0.9906771741335034
2013-11-19,-1,-0.0014689991696099432,-0.001332282330159457,-0.007511419825671505,0.008956452610398402,0.9912942211979963
2013-11-21,-1,-0.00010127141498270155,-2.4560476251783936e-05,-0.007511419825671505,0.006711452821917322,0.9919643801511155
2013-11-25,1,0.0009053569659809149,0.0011480540852669974,-0.007511419825671505,0.006711452821917322,0.9918348626573783
2013-11-27,0,0.0,0.0,-0.007511419825671505,0.005248789147692352,0.9918136358023558
2013-12-02,0,0.0,0.0,-0.005735665485689344,0.005911828319977138,0.9920150448502191
2013-12-04,1,0.0004235638640261444,0.0005129936141479226,-0.005101706204023339,0.00441828094555214,0.9935880898168041
2013-12-06,0,0.0,0.0,-0.0027819051780520656,0.00441828094555214,0.9936845779024527
2013-12-10,0,0.0,0.0,-0.00026042261678292536,0.008956452610398402,0.9927545306800887
2013-12-12,1,0.0009815840438332298,0.0012541870133230002,-0.00026042261678292536,0.005911828319977138,0.9936186961114266
2013-12-16,1,0.0006865921416550947,0.0008703296169305611,-0.00026042261678292536,0.010015376399374918,0.9921820574158949
2013-12-18,1,0.0007036295571041262,0.0008680037475546077,-0.00026042261678292536,0.010153712600502818,0.9917302499447463
2013-12-20,1,0.0006778345130071558,0.0008298770481237141,0.000762987967404576,0.016016629242147744,0.9899651335854935
2013-12-24,1,0.0018253357429483166,0.0021764545680934564,-0.0027819051780520656,0.014762641134453205,0.9892147676957953
2013-12-27,1,0.0013371637452124663,0.0015794558210520712,-0.0037853292808151975,0.014762641134453205,0.9882390835280902
2013-12-31,1,0.0014009166245881883,0.0016361529448111543,-0.010123376922546137,0.014762641134453205,0.9868591888527503
2014-01-03,1,0.0011561314473424386,0.0013432706100871428,-0.01463861795553844,0.014762641134453205,0.9840002540750531
2014-01-07,1,0.002023793110736075,0.0023454188612598422,-0.01463861795553844,0.014762641134453205,0.9840863144320514
2014-01-09,1,0.002894207760981425,0.003308517391975708,-0.01463861795553844,0.012412640072453194,0.9835651113856791
2014-01-13,1,0.0024309580533844475,0.0027907924004810045,-0.013480395927576282,0.012412640072453194,0.9838693044059315
2014-01-15,1,0.0036615563447066467,0.004218956803461333,-0.013480395927576282,0.011555318443743443,0.9846103758733423
2014-01-17,1,0.002856832566036618,0.003252020223500185,-0.010123376922546137,0.011555318443743443,0.9855738935067879
2014-01-22,1,0.0034860960961541404,0.003896333494203861,-0.015175786582133761,0.010234811037516013,0.9853613427001434
2014-01-24,1,0.0019607991731036035,0.0021544373208259252,-0.00858338965553732,0.011555318443743443,0.9870100710619316
2014-01-28,1,0.0020592658500583044,0.002283437476371803,-0.005396072531697294,0.010262762784043453,0.9879436180139133
2014-01-30,1,0.0017735576744029465,0.0019696161545216,-0.0041347930725735334,0.007474959867368688,0.9891579352937865
2014-02-03,1,7.712000635071084e-05,8.975603000695342e-05,-0.0031731260887773536,0.01032326344803308,0.9898755941050889
2014-02-05,0,-4.40584370217956e-05,1.325456256799095e-05,-0.0031731260887773536,0.00944076511876823,0.9902648723911223
2014-02-07,1,0.0010763580473840749,0.0011769225464720087,-0.0033589531943173565,0.00944076511876823,0.9910811996492768
2014-02-11,1,0.0012888788391585049,0.001418349172108326,-0.004692274389193542,0.007353895189974982,0.9909796571163679
2014-02-13,1,0.0006824948121709423,0.0006850915281675081,-0.005339140891171497,0.007353895189974982,0.9906196073314684
2014-02-18,1,0.0005933115989755959,0.000611503076598725,-0.005339140891171497,0.00996006941585196,0.9901144974073003
2014-02-20,1,2.388000646710121e-05,0.00012631698563489918,-0.004631794589433682,0.016728356235684305,0.9897185178125577
2014-02-24,1,0.000765981927139065,0.0007771257555199032,-0.005339140891171497,0.010987895614750345,0.9897835636016499
2014-02-26,1,0.0009474567782479152,0.0009631272031203254,-0.007874954963965194,0.010987895614750345,0.989420608541013
2014-02-28,1,0.0013197917415036684,0.001399452932026486,-0.00935593468959193,0.015119518428606357,0.9881774191090363
2014-03-04,1,0.0012365275824073112,0.0012537786926531376,-0.007874954963965194,0.01466602656421574,0.9886263175497871
2014-03-06,1,0.0016842054089518544,0.0018040316902059846,-0.00935593468959193,0.01466602656421574,0.9884005414984197
2014-03-10,1,0.0022035315272907136,0.002441408547566485,-0.00990766135624625,0.013103933179585948,0.9882591007685232
2014-03-12,1,0.0019505653776477083,0.0021639674476124906,-0.00990766135624625,0.013103933179585948,0.98870487752273
2014-03-14,1,0.0020959957724828154,0.0023831594333481266,-0.012301899541094449,0.013103933179585948,0.9868572185501648
2014-03-18,1,0.0017437168234686836,0.0018954987906564793,-0.012301899541094449,0.00978098222741518,0.9872235737236508
2014-03-20,1,0.002909530158942463,0.0031800501666263484,-0.012301899541094449,0.004414009296050413,0.9879952541930636
2014-03-24,1,0.001962380454673198,0.0021051886418335234,-0.011619502591725134,0.007322173907668501,0.9888537697199721
2014-03-26,1,0.0015228764873436314,0.0015942684531598259,-0.011619502591725134,0.007322173907668501,0.9889608316171598
2014-03-28,1,0.0013809032758652076,0.0014284899248313476,-0.011619502591725134,0.006107076513873726,0.9893401616591866
2014-04-01,1,0.002114989374640485,0.002260230467846004,-0.011619502591725134,0.0033495304808544586,0.9901735672296366
2014-04-03,1,0.0008057800499741271,0.0008930829784761564,-0.010347176342786889,0.005184262431387082,0.9908760131259486
2014-04-07,1,0.0008018009538406818,0.0008149891923736379,-0.010105920986918992,0.005184262431387082,0.9917121188563233
2014-04-09,1,0.00019096645512949696,0.0002754866308784025,-0.010105920986918992,0.006107076513873726,0.9910747625780217
2014-04-11,-1,-0.0010889715588204415,-0.0008819684233653192,-0.007824094498749632,0.007387711836433969,0.9914689624121416
2014-04-15,-1,-0.0013763943421576795,-0.0010875970519296984,-0.008312847911109611,0.006837784798468356,0.990646157392907
2014-04-17,-1,-0.0014574978008375936,-0.0011875323896889556,-0.010619212351564548,0.006128922490128882,0.9901529030334206
2014-04-22,-1,-0.0007683909072047016,-0.0005833712016487584,-0.010619212351564548,0.005442395843755396,0.9900638565805765
2014-04-24,-1,-0.0011291014444956874,-0.0009033955886274245,-0.009325967154010987,0.007389885160290747,0.9900084269842659
2014-04-28,-1,-0.0021796981328294236,-0.0018126471973705493,-0.0076600607981695,0.007389885160290747,0.9905790380640218
2014-04-30,-1,-0.0020210043691222057,-0.0016646016410811638,-0.0076600607981695,0.007389885160290747,0.9910448819925438
2014-05-02,-1,-0.0018782860619451448,-0.0015369574944997847,-0.0076600607981695,0.00968914176260948,0.9903737135002395
2014-05-06,-1,-0.002614754462518399,-0.002168042317710308,-0.005641745726519424,0.010259376486529949,0.9900191957600806
2014-05-08,-1,-0.0026317711347821687,-0.0021682731382839044,-0.0027329204234519556,0.0098749022328848,0.9901748890012554
2014-05-12,-1,-0.001300313575795432,-0.000991948376636406,-0.0027329204234519556,0.0098749022328848,0.9911611923165976
2014-05-14,-1,-0.0025386117525842584,-0.002095220736657832,-0.0027329204234519556,0.0098749022328848,0.9911434810214564
2014-05-16,-1,-0.0036645931925555087,-0.0030880786814794147,-0.001977728176495793,0.0098749022328848,0.9908028893231727
2014-05-20,-1,-0.002834812647877921,-0.0023945772418770806,-0.0012366501266296722,0.0098749022328848,0.991260757282911
2014-05-22,-1,-0.0025457603562281873,-0.0021322968548830785,-0.001977728176495793,0.009486611310675627,0.9916923985868958
2014-05-27,-1,-0.0023584204919686875,-0.001978958681411794,-0.0041886641419004635,0.009486611310675627,0.9915233922083624
2014-05-29,-1,-0.0024908118049336465,-0.0020890616881981735,-0.0041886641419004635,0.009506655074404199,0.9909240047486961
2014-06-02,-1,-0.0010451119101816194,-0.0008523919703192806,-0.004907307433503931,0.00943178820137923,0.9924385969910681
2014-06-04,1,0.00015198166229302406,0.00016387234511873767,-0.005572363788541604,0.00943178820137923,0.9922229942344407
2014-06-06,1,0.00017626222294704914,0.0001931048170653402,-0.006482080160957641,0.00943178820137923,0.9916253832301112
2014-06-10,1,0.0015267605731254952,0.0017527702911635883,-0.009695581403667693,0.007969060683426316,0.9911470309798912
2014-06-12,1,0.00048696431133634136,0.0005557971478204847,-0.006063651023365337,0.007969060683426316,0.9919446133079323
2014-06-16,1,0.0012132143462857898,0.0014670031243744703,-0.005572363788541604,0.007975741938002507,0.9924274009107673
2014-06-18,1,0.0008660449956636321,0.000982024953666457,-0.007944292058080359,0.00613629278254833,0.9906885148605127
2014-06-20,1,0.0010851070527371392,0.0012339419624056848,-0.007944292058080359,0.005679150235715547,0.9907052947170194
2014-06-24,1,0.00018127051939245394,0.0001880716111007857,-0.00785242473255626,0.005679150235715547,0.9912873505533308
2014-06-26,-1,-0.0007810424879489599,-0.000554817829608572,-0.00785242473255626,0.005966037664342455,0.990643571243731
2014-06-30,-1,-0.0010671645858006255,-0.0008202734706503937,-0.008923977494284975,0.005966037664342455,0.9900745842424666
2014-07-02,0,-3.871377858830316e-06,5.293865752073937e-05,-0.009229587493673932,0.005966037664342455,0.9895544088894633
2014-07-07,1,0.0004212715858189018,0.00043014937292885956,-0.009885458901703705,0.005679150235715547,0.9897078455341983
2014-07-09,-1,-0.0001363526984736015,-7.574466897353237e-05,-0.009120587199853303,0.004360081242056144,0.9905326500033039
2014-07-11,-1,-5.8030862134329976e-05,-1.1112797721126241e-05,-0.009885458901703705,0.004225630527770099,0.9902593768358406
2014-07-15,1,1.8891509456991207e-05,7.663899292021257e-05,-0.009885458901703705,0.0025226025612012605,0.9904879357822928
2014-07-17,-1,-0.0015148652098964364,-0.0013164105004375105,-0.008887644063011433,0.004225630527770099,0.9922755563904743
2014-07-21,-1,-0.001358053070099631,-0.0011902827468086327,-0.009686434539433079,0.005562685521484316,0.9912892098831374
2014-07-23,-1,-0.0014556016803233935,-0.0012970750332236386,-0.009686434539433079,0.007126308136121305,0.9909749832128929
2014-07-25,-1,-5.4717763633384945e-05,-1.5103925399923175e-05,-0.009686434539433079,0.005886302201461711,0.9910950787299876
2014-07-29,-1,-0.0006868512947296477,-0.0006545874251295199,-0.007539920443933204,0.009019820546620923,0.9912294711833471
2014-07-31,-1,-0.0006140471437358451,-0.0006074193651258463,-0.007539920443933204,0.005886302201461711,0.9918924438945295
2014-08-04,-1,-0.0015278898023311056,-0.0013950996939778824,-0.005449745352990565,0.005886302201461711,0.992380697446752
2014-08-06,-1,-0.0022774657539306868,-0.0020312158594622863,-0.0051644466845960635,0.005886302201461711,0.9922850833879113
2014-08-08,-1,-0.002000716294329664,-0.0018259618365352166,-0.004304087160730946,0.004991645865331881,0.9929836939229872
2014-08-12,-1,-0.0008101262951604062,-0.0007389517539676389,-0.0051644466845960635,0.009043162716861185,0.9918407173559813
2014-08-14,-1,-0.0005885752935865259,-0.0005394899705297306,-0.0051644466845960635,0.007906636985337858,0.9920018464655929
2014-08-18,-1,-0.0003197542792099647,-0.000245436910898485,-0.006111299860244301,0.007067833816787073,0.9929112488926972
2014-08-20,-1,-0.00023327991749354604,-0.00014495488124760948,-0.0051644466845960635,0.008852641526145552,0.992081761287432
2014-08-22,1,0.0008486670269667548,0.0011448340684554691,-0.0067748378267852285,0.007067833816787073,0.9922955223307064
2014-08-26,1,0.0012314588509149513,0.0015485930834846563,-0.0074789073242042155,0.0046697067667670344,0.9920424423905272
2014-08-28,1,0.0001471724658895344,0.00025263812501396876,-0.0074789073242042155,0.006175471477236879,0.9919641711686014
2014-09-02,1,0.00034330153749858726,0.0004621838965624229,-0.0074789073242042155,0.006175471477236879,0.9918399818023411
2014-09-04,-1,-0.0007788642062540174,-0.0006642065465239671,-0.009510399105156732,0.006175471477236879,0.9914724153011679
2014-09-08,-1,-0.00047175250427679706,-0.0004118296705438218,-0.01013081914264856,0.007067833816787073,0.9900115147009939
2014-09-10,-1,-0.0003430887103119838,-0.0002844229915128464,-0.01013081914264856,0.007067833816787073,0.990417758097551
2014-09-12,1,0.000465698885702027,0.0005434018184673896,-0.011916962367032106,0.003007686203011106,0.9888844861416985
2014-09-16,-1,-0.00019682894673508664,-0.00017283951921829929,-0.012361652136274562,0.006859127120740827,0.9884776402570589
2014-09-18,1,0.0004994607018293974,0.0005158000737880472,-0.013765923028678798,0.000505548619693885,0.9873855976859949
2014-09-22,-1,-0.00011573367947113373,-6.980926886884523e-05,-0.013765923028678798,0.0048022953108515214,0.9880607259145183
2014-09-24,-1,-0.00048737226283756516,-0.0004151172991342767,-0.012361652136274562,0.00612145793912952,0.9883232690478604
2014-09-26,-1,-0.0009906142577110612,-0.0008370062852973697,-0.012361652136274562,0.0073310168109759774,0.9882415533022363
2014-09-30,-1,-0.00115049732738434,-0.0009892449442144406,-0.012361652136274562,0.009887286365534815,0.9871263029489795
2014-10-02,-1,-0.0008412638677615208,-0.0007778654107926777,-0.011916962367032106,0.011562677424174014,0.9871908441280383
2014-10-06,-1,-0.001187726817781544,-0.001030083327236943,-0.0063027093096969175,0.011562677424174014,0.9872405304792099
2014-10-08,-1,-0.0017794548415375083,-0.0014989941433071422,-0.00427686321705558,0.010282094739323835,0.987837054884316
2014-10-10,-1,-0.0030107909775817917,-0.0026057709429958874,-0.002554797488120973,0.011155160617350814,0.9882721672946558
2014-10-14,-1,-0.0029762164339743246,-0.0025962933710365925,-0.002472992635440542,0.011155160617350814,0.9890272491698757
2014-10-16,-1,-0.004590601408350464,-0.004030731152331152,-0.0004984921391276799,0.011155160617350814,0.9897689595823693
2014-10-20,-1,-0.0041134497495138745,-0.0036089117171897857,-0.002472992635440542,0.011155160617350814,0.9907854357377491
2014-10-22,-1,-0.0030986803254576525,-0.002756078364250107,-0.002472992635440542,0.010520182961965083,0.9919184401391506
2014-10-24,-1,-0.0019445361847203564,-0.0017650327354658366,-0.00391197964593499,0.010010073328933623,0.9932696506036792
2014-10-28,-1,-0.0008199555978135505,-0.0007980901635131665,-0.00391197964593499,0.010010073328933623,0.9939146382555274
2014-10-30,1,8.58178194148897e-05,0.0002245907011593252,-0.00392061028014766,0.007664788534083691,0.9943478967634795
2014-11-03,1,0.0006422768439373995,0.0008156203708505446,-0.003939999657014733,0.0031944986175838387,0.9936064364711754
2014-11-05,1,0.0009326203741978024,0.0011433264490059675,-0.003939999657014733,0.007470248048194475,0.992978914990295
2014-11-07,1,0.0013657916385087499,0.0016610827082282553,-0.00392061028014766,0.007470248048194475,0.9925330620574303
2014-11-11,1,0.0015617321450076636,0.001891368251254375,-0.003939999657014733,0.008088863135398685,0.9911789181527183
2014-11-13,1,0.0012311576834963132,0.001484018729789444,-0.004699883008499135,0.008088863135398685,0.9906225698047341
2014-11-17,1,0.0012238369567834318,0.0014957231652672665,-0.004704997421790305,0.008088863135398685,0.9900755041166508
2014-11-19,1,0.0011052804865524335,0.0013558665196388357,-0.004704997421790305,0.011092584492539068,0.9879496731474189
2014-11-21,1,0.001192574202921885,0.001471626130824787,-0.004672806109068632,0.011092584492539068,0.9880046195037331
2014-11-25,1,0.0017267507903275738,0.0020945148484099595,-0.001725854194488001,0.011174541449047828,0.9883278850395497
2014-11-28,1,0.0013237470438575254,0.0016149775817658127,0.0007029214252810034,0.011174541449047828,0.9885391969005849
2014-12-02,1,0.000656061578720019,0.0008577263815243607,-0.000698968645178034,0.011174541449047828,0.9893448149250965
2014-12-04,1,0.0017699568752598904,0.0021464541067472056,-0.006822163604177251,0.006492565090918882,0.9885648070632702
2014-12-08,1,0.001802518898102192,0.002082289820855966,-0.013559309456840233,0.006092964912680047,0.9878386078406749
2014-12-10,1,0.0010021630677560741,0.0011706484741087226,-0.013559309456840233,0.006092964912680047,0.9875358059259265
2014-12-12,1,0.00038492369516175337,0.00045303953960933543,-0.015169611483448808,0.006092964912680047,0.9865488422679908
2014-12-16,1,0.0005710086701759407,0.0007193213269709056,-0.018801018739238458,0.005835288602656002,0.9854808791325869
2014-12-18,1,0.0020276464933083054,0.0023318204311313672,-0.0207689435159084,0.004946599040958236,0.9852790511842413
2014-12-22,1,0.002062063417715128,0.002360070513323606,-0.0207689435159084,0.005040220589850095,0.9826618772348487
2014-12-24,1,0.00215516312658699,0.0024226583151541452,-0.02081337670668116,0.005040220589850095,0.9819423330579281
2014-12-29,1,0.0020526053287947743,0.0022832807691431298,-0.02478091600734729,-0.0005678676232012078,0.9801174197938755
2014-12-31,1,0.0013268760716589763,0.0014404690725941865,-0.02478091600734729,0.0065293927684640565,0.9799319649040777
2015-01-05,-1,-0.00014459418572435124,-6.819203590695207e-05,-0.02081337670668116,0.009820546748913344,0.9801075854884049
2015-01-07,-1,-0.0008373268402304196,-0.0007087896774641956,-0.019542004210779042,0.013238818525487184,0.9809451936546895
2015-01-09,-1,-0.0011715762415413756,-0.0010135249170829422,-0.019542004210779042,0.01386418645057439,0.9802559814756944
2015-01-13,-1,-0.002288159720844419,-0.002002983892812246,-0.01881582980282938,0.01386418645057439,0.9819117994312148
2015-01-15,-1,-0.0033845789066986407,-0.002997090901047498,-0.013323178918807159,0.01831349908154652,0.9824834381907799
2015-01-20,-1,-0.0038553625802884885,-0.003442333153168171,-0.013323178918807159,0.01831349908154652,0.9829030116209949
2015-01-22,-1,-0.0022080451747089206,-0.0019674614202405535,-0.013323178918807159,0.017029803949531977,0.9849133146671037
2015-01-26,-1,-0.0024122187518723828,-0.002162467857296642,-0.010016214530974538,0.017029803949531977,0.9852473049348485
2015-01-28,-1,-0.0036785647920592485,-0.00327814788854007,-0.005798945544523488,0.017029803949531977,0.9862842149675504
2015-01-30,-1,-0.0036598182231399557,-0.0032678286386571267,-0.003699134717773605,0.017029803949531977,0.9869632823032757
2015-02-03,-1,-0.0018247111533419556,-0.0016592111232820656,-0.007378314399118152,0.011247307154793761,0.9894164884752988
2015-02-05,-1,-0.0010696344191428796,-0.0010183707959867227,-0.00569710678542044,0.011247307154793761,0.9894928231261795
2015-02-09,-1,-0.0006628856062513654,-0.0006385591838417173,-0.00569710678542044,0.00963628580925449,0.9913696557076225
2015-02-11,-1,-0.00015681759316960795,-5.789405231204566e-05,-0.00569710678542044,0.011247307154793761,0.9897556680651034
2015-02-13,1,0.0002119029996487811,0.00032209974384653114,-0.00569710678542044,0.00963628580925449,0.9907583570564402
2015-02-18,1,1.181325335642387e-05,7.291503413378773e-05,-0.00569710678542044,0.006980522980932726,0.9914003311064691
2015-02-20,1,0.00044795524068425024,0.0005582952971190996,-0.007519210474318654,0.006980522980932726,0.9904159757480102
2015-02-24,1,0.00035071693867188013,0.0004360932680408408,-0.00851959000321736,0.0030630484569298707,0.9902796201081528
2015-02-26,1,3.2586781181940155e-05,5.5970279822969965e-05,-0.010143444508855192,0.00626084075615814,0.98935855852171
2015-03-02,1,0.000395970122537358,0.00047865788240693144,-0.010143444508855192,0.00626084075615814,0.9888166421132126
2015-03-04,1,8.890541345637972e-06,4.713735938778016e-05,-0.010143444508855192,0.007809215131956593,0.9890124610010862
2015-03-06,-1,-6.395152491983486e-05,-2.5320928093779964e-05,-0.010143444508855192,0.007809215131956593,0.9893099039065285
2015-03-10,-1,-0.0009126089215673334,-0.0007643183280344387,-0.008778782296713437,0.008441674366590064,0.9899273240745925
2015-03-12,-1,-0.0006438385892975946,-0.00046173407479443973,-0.008778782296713437,0.006697351595331793,0.9912142987775227
2015-03-16,-1,-0.0005859394930615098,-0.0004210346766790747,-0.009595457107262537,0.006697351595331793,0.9906929365105088
2015-03-18,-1,-0.0010138099942616076,-0.0008115195585144952,-0.008778782296713437,0.008441674366590064,0.9907889500255106
2015-03-20,-1,-0.0008133213841566207,-0.0006619462858605691,-0.008778782296713437,0.006697351595331793,0.9919104905990491
2015-03-24,-1,-0.0011751755450055577,-0.0010139980370912237,-0.004416872457815906,0.008441674366590064,0.9920045963368394
2015-03-26,-1,-0.0012192234640251917,-0.0010676716574967372,-0.005186750519591488,0.008441674366590064,0.992597063855635
2015-03-30,-1,-0.000693748562277591,-0.0006441870122049639,-0.0033881221803107936,0.007589406244718232,0.9931144462998079
2015-04-01,-1,-0.00012090169932531421,-8.955066024956171e-05,-0.0033881221803107936,0.007589406244718232,0.9928242951132439
2015-04-06,1,0.0003392329027735044,0.0004396550413061612,-0.002605223253264092,0.007589406244718232,0.9928981255389092
2015-04-08,1,0.0004117819125206274,0.0005263661852518912,-0.0048719996313386325,0.006002386230114691,0.9928757028896488
2015-04-10,1,0.00034817324314174606,0.00045472364242625936,-0.003307625015697806,0.006002386230114691,0.9931424123876831
2015-04-14,1,0.00014153783437781858,0.00020990497426570431,-0.002321764844467902,0.010972550816730826,0.9927465726444836
2015-04-16,1,0.0006096117475748139,0.0007379017342843511,-0.003307625015697806,0.009119810538744067,0.9929342621185875
2015-04-20,1,0.0002443024557660743,0.00031787234763556326,-0.003307625015697806,0.010972550816730826,0.9913427847521221
2015-04-22,1,0.0009536140567974762,0.0011403677181091995,-0.004824168966578153,0.010972550816730826,0.9908130504008261
2015-04-24,1,0.0003092994999356318,0.0003997646851799617,-0.002321764844467902,0.010972550816730826,0.991266245180786
2015-04-28,1,0.0002881138327424682,0.00034683153183591594,-0.0032465975776788444,0.010972550816730826,0.9910851758833894
2015-04-30,1,0.0011450284155647742,0.001360611178495938,-0.006083061841985858,0.009849975850162056,0.9910380598497
2015-05-04,1,0.0019202961772461394,0.002274203865335165,-0.0068705058048139644,0.009849975850162056,0.9904171074689214
2015-05-06,1,0.001438195090488709,0.00169223271062461,-0.007058752040103713,0.010972550816730826,0.9897204364601631
2015-05-08,1,0.0012744222485708578,0.001487085157347369,-0.007964023858224468,0.014331501239054287,0.9882092027544181
2015-05-12,1,0.0018180886429610401,0.002093669538198257,-0.007964023858224468,0.01238647599218239,0.9883337634149305
2015-05-14,1,0.002307135375181687,0.0027179221721758675,-0.00847675878452886,0.01238647599218239,0.9885416914460426
2015-05-18,1,0.002558425359518837,0.0030108218834140783,-0.007937894382355863,0.01024366014134386,0.9898088756162765
2015-05-20,1,0.002758758766606524,0.0032592903335572744,-0.007937894382355863,0.00959866594269959,0.990244508352478
2015-05-22,1,0.002800014152302071,0.0033176221264715816,-0.007937894382355863,0.01024366014134386,0.9896642965413144
2015-05-27,1,0.00277875518035876,0.0032679304835134468,-0.008385902030240113,0.012163361561040344,0.9892242205363788
2015-05-29,1,0.0016907793973013926,0.0019761295380000786,-0.008385902030240113,0.012163361561040344,0.9894965888259081
2015-06-02,1,0.0015111527372396508,0.0017375037014445878,-0.008385902030240113,0.010019199876024615,0.9892869251757295
2015-06-04,1,0.00131380370936034,0.0014896060828611226,-0.00847675878452886,0.009489925396326005,0.9895679822820458
2015-06-08,1,0.0012061500233496731,0.0013241719982720512,-0.009463363947947308,0.007471673236361614,0.9901675732569077
2015-06-10,1,0.0011749225411633282,0.0012360299966811218,-0.010498527629953517,0.006011048009747644,0.9891817289270401
2015-06-12,1,0.0006509995167328994,0.0006965881939580423,-0.010498527629953517,0.0074829800556728936,0.988876501651784
2015-06-16,1,0.0013277658382511884,0.001450137317536739,-0.010498527629953517,0.007303587824895628,0.9892912363740676
2015-06-18,1,0.0008397838283452887,0.000861047557150654,-0.010498527629953517,0.008021156074450662,0.9886081506218948
2015-06-22,1,0.0002755052364522203,0.0003619267582223337,-0.010498527629953517,0.008130417400578589,0.9883550190339803
2015-06-24,1,0.00017479959566234628,0.0002897640521395846,-0.010498527629953517,0.008130417400578589,0.9877347262986996
2015-06-26,1,0.00041793388176991663,0.00044919999217218524,-0.012949166185243027,0.008130417400578589,0.9873852111487235
2015-06-30,1,0.00011886126726063607,0.0001764438094114911,-0.010498527629953517,0.009489343362666089,0.9882047306869315
2015-07-02,1,9.420607750355406e-05,0.0001538967031715696,-0.010498527629953517,0.009489343362666089,0.9880322799335483
2015-07-07,-1,-0.00043248814163874454,-0.00030409930912803936,-0.006106407594575203,0.009489343362666089,0.9889873944250681
2015-07-09,-1,-0.0004078020726634766,-0.00030583958462908914,-0.0028561456790486073,0.009256579875103126,0.9898697680492321
2015-07-13,0,-3.817715228324287e-05,2.310462774310026e-05,-0.0028561456790486073,0.009256579875103126,0.9898670049830407
2015-07-15,1,0.0005361186726415175,0.0005729949932926353,-0.009158621156801135,0.009092723072666268,0.9883263597187176
2015-07-17,1,3.053228753955141e-05,6.306558147220973e-05,-0.006106407594575203,0.010840252194523123,0.9890372299585629
2015-07-21,1,0.0005936175112980192,0.0006215847890566775,-0.006106407594575203,0.009092723072666268,0.9901339068709665
2015-07-23,1,0.001071622997820244,0.0011726504037958417,-0.014910766163741238,0.006494737525524836,0.9890450162802827
2015-07-27,1,0.0003929825390698475,0.00042298669104647946,-0.020712567882794,0.006494737525524836,0.9853638297413331
2015-07-29,1,0.0006802970763065759,0.0007377024879534937,-0.02215061547059733,0.006494737525524836,0.98214381214092
2015-07-31,0,-4.382880563328116e-05,1.7381680276885457e-05,-0.02215061547059733,0.009092723072666268,0.9814141343400541
2015-08-04,1,0.0003703855076777134,0.0003973160914453065,-0.02349128088369091,0.009092723072666268,0.9793996290593605
2015-08-06,1,0.000710792484228242,0.0007832202864692259,-0.02349128088369091,0.010589152934200778,0.9791690865777789
2015-08-10,1,0.0009074585093029673,0.0009880027705998187,-0.02349128088369091,0.010589152934200778,0.9778925395483722
2015-08-12,1,0.0001481858696579805,0.00016912472216045886,-0.02349128088369091,0.01361525637888877,0.9782181541139264
2015-08-14,1,0.00010347942696146089,0.00016079415505052726,-0.02349128088369091,0.010755769027320715,0.9786936250394849
2015-08-18,-1,-0.0002910025058769762,-0.00018246312366558353,-0.02349128088369091,0.014235947560967115,0.9775097701659934
2015-08-20,-1,-0.0015978923182084985,-0.0013229752904695116,-0.024084726237738087,0.014235947560967115,0.9771031801452142
2015-08-24,-1,-0.0032005692811652078,-0.002759457671342845,-0.01875330724277408,0.015143504272456285,0.9798701918095128
2015-08-26,-1,-0.0020705136900833403,-0.0017760933598722308,-0.01819615388196928,0.014235947560967115,0.983338314111305
2015-08-28,-1,-0.0014683615467135308,-0.0012403688294126266,-0.01875330724277408,0.014235947560967115,0.983057679492635
2015-09-01,-1,-0.0024393685636708894,-0.002094489230173753,-0.01819615388196928,0.015143504272456285,0.9835878633794785
2015-09-03,-1,-0.0019361111021668886,-0.0016466053229687093,-0.01819615388196928,0.015143504272456285,0.984229660623792
2015-09-08,-1,-0.001369680877043338,-0.0011672829847724133,-0.017008449135389302,0.014592389830515558,0.9853702356864074
2015-09-10,-1,-0.001411266852469615,-0.0011901871763249185,-0.014077761387916953,0.013548570744900273,0.9861909556909398
2015-09-14,-1,-0.0010928419569227067,-0.0009364521955352366,-0.016922614344527548,0.013548570744900273,0.9858599143570721
2015-09-16,-1,-0.0015475885854876986,-0.0013060986743441095,-0.017952651666146034,0.0074485727604051925,0.9860774072941494
2015-09-18,-1,-0.002929166522204652,-0.002538342368489147,-0.011582199538842913,0.013548570744900273,0.9872552643474043
2015-09-22,-1,-0.002584460673330932,-0.0022513445902562663,-0.009405271806906033,0.013548570744900273,0.9871134721017514
2015-09-24,-1,-0.0020923795039845317,-0.0018373037724941158,-0.011582199538842913,0.015427071381049096,0.9855695850977918
2015-09-28,-1,-0.002693108771215134,-0.002360667056704257,-0.011582199538842913,0.015926168063861233,0.9859336135938545
2015-09-30,-1,-0.0019229035854183229,-0.0016819533384753575,-0.011582199538842913,0.015926168063861233,0.9847399137202658
2015-10-02,-1,-0.0013052851129873638,-0.0011674777307276933,-0.011699100008845487,0.015926168063861233,0.9840567360112731
2015-10-06,-1,-0.0016009692284299673,-0.001419847521646762,-0.011699100008845487,0.021099912031627713,0.9838052573643471
2015-10-08,-1,-0.000857416839452176,-0.0007805328488485037,-0.011699100008845487,0.021099912031627713,0.9835988964467318
2015-10-12,-1,-0.001440725924866688,-0.0012890255335586635,-0.011699100008845487,0.02496381212985692,0.9818984260552053
2015-10-14,-1,-0.0019945972723467093,-0.001773485467510957,-0.009631100543294888,0.02496381212985692,0.9822322665863423
2015-10-16,-1,-0.0013572564682695458,-0.001225447335844127,-0.012376586218012053,0.021099912031627713,0.9828818061997366
2015-10-20,-1,-0.0008972218799762111,-0.0007977753965536094,-0.012376586218012053,0.015932254502468386,0.9838365363033414
2015-10-22,-1,-0.00079039538620288,-0.0007203363226515802,-0.009866909872932903,0.016521305772755738,0.984340358824135
2015-10-26,-1,-0.0007021955546850272,-0.0006413288914399866,-0.008733684526818757,0.011373644382177354,0.9859888086475749
2015-10-28,1,0.0009226925049478538,0.00109087337175693,-0.006733822924173818,0.008580675520802071,0.9883084544118249
2015-10-30,1,0.00010777544077362453,0.00020298193323034047,-0.004610821283157097,0.008580675520802071,0.9893256878359822
2015-11-03,1,0.0002619307269995201,0.00036634920098655013,-0.006733822924173818,0.008580675520802071,0.9895070648548443
2015-11-05,1,0.0009522470535173124,0.0011616544447848355,-0.009866909872932903,0.008580675520802071,0.9884492197342759
2015-11-09,1,0.0013142712511164645,0.0015702586317257782,-0.012155254175245982,0.007948476042693386,0.9880199395403066
2015-11-11,1,0.0011768960551378324,0.0014185486673805787,-0.013312000761244148,0.008521151009046775,0.9872115151707084
2015-11-13,1,0.0008125339422033123,0.0010061677413371654,-0.013312000761244148,0.008521151009046775,0.987138141143325
2015-11-17,1,0.0009791810818905867,0.0011807057493075732,-0.013312000761244148,0.012368869286908887,0.9849481914281406
2015-11-19,1,0.001931229697325166,0.002246123883737622,-0.02006389002325768,0.008658498905877303,0.9828962097621451
2015-11-23,1,0.0011851587542047203,0.0013915371891234025,-0.02006389002325768,0.011064707254998843,0.9828485970174641
2015-11-25,1,0.0011376041824090993,0.0013276653943239225,-0.02006389002325768,0.013018715030352377,0.9823306965025717
2015-11-30,1,0.0010744703624307056,0.0012338100088677831,-0.02006389002325768,0.014357419665946145,0.9817914114444963
2015-12-02,1,0.0010262379145785287,0.0011945052894723435,-0.02006389002325768,0.014357419665946145,0.9821233945292165
2015-12-04,1,0.0021255745550287294,0.0024580474998070713,-0.02006389002325768,0.012160787876973589,0.9829537373478278
2015-12-08,1,0.00025260498677959935,0.00032072413129986203,-0.01766624081796522,0.012160787876973589,0.9838191351853225
2015-12-10,1,0.0009868315877180458,0.0011934886607887192,-0.018020532574535807,0.006137191208520032,0.9838715920642617
2015-12-14,1,0.0005381486395993624,0.0007028783366823963,-0.018020532574535807,0.008112923719042466,0.9827095273852133
2015-12-16,1,0.0017844046219480385,0.002096350745019933,-0.019635745209265726,0.003770574067671834,0.9841905958856403
2015-12-18,1,0.0002839245283441564,0.00040576696852816257,-0.017523525879967902,0.003770574067671834,0.9856953372496912
2015-12-22,1,0.0006922366835064984,0.0008362757968752938,-0.017523525879967902,0.002448375251993578,0.985230258525528
2015-12-24,1,0.0007077494461350451,0.0008535004939873251,-0.019923355557998585,-0.000688591583563161,0.9824149406796654
2015-12-29,1,0.0011718443625367372,0.0014112849141696242,-0.019923355557998585,0.004429151571179311,0.9822223087772164
2015-12-31,1,0.0011854219202368848,0.0014625380489672467,-0.02219490181441564,0.007071091163023635,0.9814259432445953
2016-01-05,1,0.0005857510873795242,0.0007414747259197423,-0.022288256813181306,0.00885326208738277,0.9794577234982347
2016-01-07,-1,-0.00021360962724802543,-0.0001352221244145368,-0.02219490181441564,0.010865471792086714,0.9808382681179381
2016-01-11,-1,-0.000676936407352474,-0.000670560753626602,-0.02219490181441564,0.013011732695667102,0.97986773831415
2016-01-13,-1,-0.0023392592827385685,-0.0020896943147146784,-0.02219490181441564,0.013011732695667102,0.9791590924071453
2016-01-15,-1,-0.0020391383364527036,-0.0017202036297088335,-0.02219490181441564,0.01610817805692917,0.9750557555302333
2016-01-20,-1,-0.004110512657484765,-0.003624334995531229,-0.023019471041160762,0.01610817805692917,0.975429599040494
2016-01-22,-1,-0.004491720390919347,-0.003991184766805015,-0.023019471041160762,0.018693423391845987,0.9742785464102
2016-01-26,-1,-0.005167409299852967,-0.004533177957216465,-0.023019471041160762,0.01610817805692917,0.9754975187882422
2016-01-28,-1,-0.004446145125269217,-0.003934998916425245,-0.023019471041160762,0.01817760723521224,0.9745526073779027
2016-02-01,-1,-0.004208462872276549,-0.0037469494102986118,-0.026600968150144448,0.02657102829261773,0.9719459319722021
2016-02-03,-1,-0.0031350980790783335,-0.002811912439042004,-0.02125517459415784,0.022673056335321153,0.9729489906530259
2016-02-05,-1,-0.004350677115949171,-0.0038915268335049788,-0.02125517459415784,0.022673056335321153,0.9729061536790793
2016-02-09,-1,-0.0038625073698473357,-0.003462219152715656,-0.023164085269300635,0.022673056335321153,0.9728368652530338
2016-02-11,-1,-0.00759585987038508,-0.006665057806540564,-0.0204513751522976,0.03167357496668065,0.9724000641617995
2016-02-16,-1,-0.004235298729315473,-0.0037023391917052266,-0.0204513751522976,0.018083985902954652,0.9784221310144467
2016-02-18,-1,-0.005127884681732323,-0.004503197125246305,-0.014089003678480792,0.018083985902954652,0.9781951444262008
2016-02-22,-1,-0.004380315555649208,-0.003812852099681835,-0.014089003678480792,0.01454602767353048,0.9795973181307988
2016-02-24,-1,-0.005204914048539271,-0.004591718117492134,-0.011368062815608908,0.01454602767353048,0.9814430257655541
2016-02-26,-1,-0.003808518032189804,-0.0033737568067906155,-0.011368062815608908,0.013350512707579868,0.9841805488748289
2016-03-01,-1,-0.002200522101616723,-0.001953585732727584,-0.011368062815608908,0.012851125853158382,0.987840846577027
2016-03-03,-1,-0.0012167811317247694,-0.0011192844007842419,-0.011368062815608908,0.006938841420588402,0.9891257840758347
2016-03-07,-1,-0.0014575536558267196,-0.0012965797461778586,-0.012191482043417187,0.0012738841509227893,0.9886174032303366
2016-03-09,-1,-0.0037705113579453173,-0.003304250118621182,-0.011368062815608908,0.006938841420588402,0.9895035350114784
2016-03-11,-1,-0.0015873532292259318,-0.0014082087829878848,-0.011368062815608908,0.006124289707365846,0.9905222775332454
2016-03-15,-1,-0.0016983075827891245,-0.0015518761839706124,-0.007521181567566645,0.01191772531325554,0.9870293843233523
2016-03-17,-1,-0.0012080597561952957,-0.0011160348146690116,-0.00432282038379946,0.012187225330273846,0.9860720502158336
2016-03-21,-1,-0.001110490873150884,-0.001040391309231694,-0.00432282038379946,0.01369610091317203,0.9854008802251677
2016-03-23,-1,-0.0006409885807879416,-0.0005558807485827728,-0.0024901025976206996,0.01969783831210326,0.9850799542815373
2016-03-28,-1,-0.0012749266748259835,-0.0012057595052379236,-0.0029718016765197712,0.01969783831210326,0.9838374319886947
2016-03-30,-1,-0.0015249493512838842,-0.001452291460823556,0.0001850830787032832,0.020086639724771455,0.9829992690613163
2016-04-01,-1,-0.0005622836479770258,-0.0004724915723553977,-0.0029627090077870523,0.020086639724771455,0.983019514506948
2016-04-05,-1,-0.0012821856956888801,-0.0012434030265125028,-0.00024277405773359077,0.020086639724771455,0.982563473272909
2016-04-07,-1,-0.001228015371984047,-0.0011895155097927438,-0.0010615701042744185,0.020086639724771455,0.9837893566609343
2016-04-11,-1,-0.0008107066257964088,-0.0007443451920095146,-0.0035395216370329627,0.020086639724771455,0.9847274190892753
2016-04-13,1,0.0020784434037542103,0.0025528175250124864,-0.0035395216370329627,0.018876398692171097,0.9884958547487906
2016-04-15,1,0.0034572736892106676,0.004191478551828626,-0.0056523394573433855,0.012699150158333235,0.9886041866083664
2016-04-19,1,0.003904833817779428,0.004665169684433601,-0.0056523394573433855,0.011379383713961855,0.989099142245792
2016-04-21,1,0.004264344128476493,0.005078306182044537,-0.011154578649574502,0.011379383713961855,0.9866155732115819
2016-04-25,1,0.004894922012157205,0.005803699127744791,-0.011154578649574502,0.00828514706207346,0.9870980561165664
2016-04-27,1,0.005826740498006031,0.006850138836502604,-0.011154578649574502,0.008911904351894708,0.9864317075933671
2016-04-29,1,0.005601150342242426,0.006652887563747975,-0.010366759876540057,0.013541872980202756,0.9869102900534859
2016-05-03,1,0.004146109663730442,0.004880708538862482,-0.0055949221864551495,0.013541872980202756,0.9878222475358942
2016-05-05,1,0.003645874538608269,0.00433250663357233,-0.0055949221864551495,0.013541872980202756,0.987630175811495
2016-05-09,1,0.003285579360484821,0.0038786058164347065,-0.01033612597424728,0.015543224564964037,0.9862308941425084
2016-05-11,1,0.00460791057651723,0.005480538858979037,-0.01209092413941821,0.013541872980202756,0.9863205974224161
2016-05-13,1,0.003158927504749033,0.003725953424157217,-0.012192106382897458,0.013541872980202756,0.985749283995921
2016-05-17,1,0.004249114518000979,0.005002280267740284,-0.013366662501691131,0.011226865441605557,0.9844938526199327
2016-05-19,1,0.005043091911029015,0.0059172652849044825,-0.012736392560221514,0.01097421246521486,0.9863027247930362
2016-05-23,1,0.005176191943855153,0.006081511877351283,-0.012736392560221514,0.01097421246521486,0.9864156722821442
2016-05-25,1,0.005885597939809268,0.00685600331770409,-0.012736392560221514,0.009143898376649617,0.9855666482321774
2016-05-27,1,0.005414848929666113,0.006287338961484834,-0.017244263156571703,0.0074872037382057565,0.9781612284296958
2016-06-01,1,0.004954743904409394,0.00568422771050821,-0.017244263156571703,0.009945131976568477,0.976482497258468
2016-06-03,1,0.003974940007788861,0.00453946699696541,-0.017011701706287297,0.011361118913546521,0.976984672917893
2016-06-07,1,0.0032340136245222104,0.0036362498640136695,-0.01785895018944183,0.011361118913546521,0.97584928094994
2016-06-09,1,0.0036686478945946073,0.0041415019928567505,-0.01785895018944183,0.015332659166822703,0.9756948563469978
2016-06-13,1,0.0016592403561145348,0.0017473041888064306,-0.015120891881878444,0.021655235696200585,0.975543940334289
2016-06-15,1,0.0007146361641000587,0.0007566396900610437,-0.007660869159932656,0.023044273105879254,0.9755444005860099
2016-06-17,1,0.0004389239752046042,0.0005281115947139705,-0.001363145864745431,0.023044273105879254,0.97643565840232
2016-06-21,1,0.0008523004955476188,0.000868116325102042,-0.008496034779025647,0.023044273105879254,0.9752973313348411
2016-06-23,1,0.0014712769871895437,0.0015201832504259539,-0.0027250245459190868,0.021655235696200585,0.9770912418593993
2016-06-27,-1,-0.0036593731048335017,-0.0030964694964263264,0.0031086329244855012,0.021655235696200585,0.9814661943969664
2016-06-29,-1,-0.001981828275642577,-0.001592076414649447,0.00031547320867776445,0.016568847629868478,0.9850158462182875
2016-07-01,-1,-0.0024760842189959866,-0.00202061088901989,-0.000547303383651676,0.016568847629868478,0.9853444248745428
2016-07-06,-1,-0.0046586133483223265,-0.0038130041477488913,-0.000547303383651676,0.015484737527398148,0.9861235998638861
2016-07-08,-1,-0.00205990643219757,-0.001671494823920211,-0.0013660994301925038,0.015484737527398148,0.9866943184573984
2016-07-12,-1,-0.001307222376350283,-0.0009683730166024109,-0.002963580023834939,0.007461793630642831,0.9892857121340362
2016-07-14,0,-9.446782319748488e-05,6.0635849670464e-05,-0.005759413122156827,0.005026712020308077,0.9902486714133744
2016-07-18,-1,-0.00100833509297658,-0.0006669006952865329,-0.006865082319008998,0.007461793630642831,0.988497825805251
2016-07-20,-1,-0.0011733536844568786,-0.0008646529021588801,-0.005759413122156827,0.007461793630642831,0.9900085966632675
2016-07-22,-1,-0.00047029142151961106,-0.0002824951296045259,-0.005759413122156827,0.007039249520669505,0.98996206620727
2016-07-26,1,0.00036048079507577913,0.00040573826085556403,-0.003688060287027086,0.00632119245479924,0.9910738945867186
2016-07-28,1,0.00048354119000036265,0.0005044987550388244,-0.0033560860258479127,0.004797356166818646,0.9913484376098199
2016-08-01,-1,-0.0010331013936418255,-0.0007527124365345777,-0.0023714675459206294,0.007456830353572529,0.9909996384694363
2016-08-03,-1,-0.00033851976347439315,-0.00019568699615178994,-0.0021015670316685865,0.007456830353572529,0.9919667379105357
2016-08-05,1,0.000333838461811289,0.00042281838011742125,-0.0023714675459206294,0.00739304639268853,0.993006769022252
2016-08-09,1,0.00014173809716517855,0.000255201869024267,-0.003329009210906045,0.00739304639268853,0.9925770562528936
2016-08-11,0,-2.163785265848182e-06,0.00011788336018501885,-0.003329009210906045,0.00739304639268853,0.9926954398691031
2016-08-15,1,0.00035511304634388603,0.0004580344340294126,-0.003329009210906045,0.00739304639268853,0.9928626626115125
2016-08-17,1,0.00014125158149901269,0.0002834909237851587,-0.004055270231227719,0.008185603311932011,0.9919881589914769
2016-08-19,1,3.737917604096895e-05,0.00022416842234257027,-0.00491960536146255,0.00838027990714177,0.9918375004532406
2016-08-23,-1,-0.00023832648300696284,-5.521789092702073e-06,-0.00491960536146255,0.00838027990714177,0.9918474898275864
2016-08-25,-1,-0.0009313733815166107,-0.0005759745468232569,-0.004838374916636946,0.009191130214380037,0.9915665466683128
2016-08-29,-1,-0.0007433846220448747,-0.0003853318766853446,-0.007792979941229362,0.009191130214380037,0.9908541690890041
2016-08-31,-1,-0.00036103484353229207,-6.972950290572556e-05,-0.009541504024027073,0.009191130214380037,0.9900196121203125
2016-09-02,1,0.000604693405835798,0.0006785228015007281,-0.007792979941229362,0.009588199781653185,0.9896960643480638
2016-09-07,1,0.0012192570948594422,0.0012802870889883982,-0.007792979941229362,0.011755534315977909,0.9884873414437394
2016-09-09,1,0.0011389309007924179,0.0012259252148340365,-0.002593645152543661,0.011755534315977909,0.9892284127893534
2016-09-13,1,0.0007894620899809221,0.0008585298560611621,-0.002593645152543661,0.011755534315977909,0.9904007881854708
2016-09-15,1,0.0010298220369247676,0.0011512523394643067,-0.00327925158815781,0.010934738443250623,0.9899424474601192
2016-09-19,1,0.0014170168844431909,0.001635949808283755,-0.002457045641543321,0.01062731273430935,0.9901740266629052
2016-09-21,1,0.0011456114363883984,0.0012931380826809373,-0.002457045641543321,0.01580000617128199,0.9879020220081158
2016-09-23,1,0.001173408191187528,0.0013018497768202577,-0.002457045641543321,0.01580000617128199,0.9879546024314326
2016-09-27,1,0.0007426804477455793,0.0007771298682395204,-0.0021669250626231845,0.01330104036886089,0.9894541743315184
2016-09-29,1,0.00048641972443897087,0.00048703001801536275,0.00021955592577068165,0.01321305332941334,0.9897729536242099
2016-10-03,1,0.0013395802744804466,0.0014756753241256374,-0.0021669250626231845,0.010597983721160166,0.9901508052216097
2016-10-05,1,0.0018771815347882036,0.002046450003615797,-0.0031097338944718654,0.008791652860009835,0.9898525497077953
2016-10-07,1,0.00207879817628667,0.0023037466116764046,-0.004174419716906191,0.008791652860009835,0.9894858711661271
2016-10-11,1,0.0021166109573473126,0.0023904832180143922,-0.004174419716906191,0.010572267153445912,0.9878682466302039
2016-10-13,1,0.0015165578102891942,0.0017071018316159562,-0.0031097338944718654,0.01517479928199153,0.9839441408364933
2016-10-17,1,0.0020371280340485774,0.0023555212398008543,1.9931747944998846e-06,0.025055170223158466,0.9808023619696709
2016-10-19,1,0.0034148812025228117,0.00391635691659021,-0.0033040579801457827,0.020236620433901065,0.9803395226242291
2016-10-21,1,0.0035867134324732743,0.004126401926851495,-0.0033040579801457827,0.021833544624103675,0.9795634406290713
2016-10-25,1,0.0032408833802714584,0.0036977584081109406,-0.005164752342229268,0.021833544624103675,0.9791078325752228
2016-10-27,1,0.0037227690071793456,0.00424586899381404,-0.005164752342229268,0.021833544624103675,0.9795115628179194
2016-10-31,1,0.0031549974686562853,0.0035864717672086967,-0.005164752342229268,0.021833544624103675,0.9790320296748499
2016-11-02,1,0.0020458322474784583,0.0022664512135471522,0.001098979403574005,0.02345410621315022,0.9783593247833119
2016-11-04,1,0.001751267661778886,0.0018900474348029243,0.000691619035272679,0.02345410621315022,0.9773499921990187
2016-11-08,1,0.0024264226765604194,0.002654268149123976,0.004146204281082524,0.02215930205295141,0.9787747369175731
2016-11-10,1,0.005196506978838875,0.0057916075854903,0.0033401051845555864,0.020714441536864817,0.9852420050523804
2016-11-14,1,0.007965170308268592,0.008964283421835181,-0.005462338258798039,0.016667117396272385,0.9874649030480375
2016-11-16,1,0.004565909698657018,0.00480818647911431,0.001069669728222593,0.015510047719549981,0.9900114181985046
2016-11-18,1,0.006101170608789969,0.006642641430342253,-0.005462338258798039,0.013276606102972707,0.9896530443257446
2016-11-22,1,0.0053180991130452725,0.00572018127663796,-0.003790683954661849,0.015510047719549981,0.9894254781746309
2016-11-25,1,0.005103025592772767,0.00545687245712815,-0.003790683954661849,0.015510047719549981,0.9893009574964219
2016-11-29,1,0.004394391776562208,0.004679872852906068,-0.003790683954661849,0.015510047719549981,0.9896948003935565
2016-12-01,1,0.006136674694012899,0.006713280152598069,-0.005462338258798039,0.012766386815738794,0.9898634165643716
2016-12-05,1,0.006355564756243376,0.006982535952672319,-0.003790683954661849,0.012705987754595314,0.9907364516036055
2016-12-07,1,0.007034074082631401,0.007750800982190884,-0.00690493986475193,0.005781367371329943,0.9900272064999862
2016-12-09,1,0.006485640911867228,0.007076772512972786,-0.008946463067923101,0.007363428740596194,0.9895499219376089
2016-12-13,1,0.005642453923610478,0.0061282019018682465,-0.006547933468849281,0.007363428740596194,0.9905543477210229
2016-12-15,1,0.005784770096195585,0.006307207801010126,-0.008946463067923101,0.007517094092091866,0.9870883405902213
2016-12-19,1,0.005107135899928493,0.005519442537798803,-0.006547933468849281,0.013180744738696893,0.987678896472777
2016-12-21,1,0.004683148690744955,0.0049913318370226984,-0.008012313068541218,0.007412621024410213,0.9882366042865187
2016-12-23,1,0.004523225711345376,0.004810985657583205,-0.008012313068541218,0.0132686656590695,0.9866480156335574
2016-12-28,1,0.004454250942647393,0.004780175925948579,-0.008012313068541218,0.0132686656590695,0.9868417738207477
2016-12-30,1,0.0039522190364848974,0.004176885310946347,-0.006547933468849281,0.013180744738696893,0.9875207737399221
2017-01-04,1,0.0039094408164372565,0.004111310975940787,-0.008012313068541218,0.007409470168424293,0.9870649807994476
2017-01-06,1,0.00370987993886137,0.003943485287443314,-0.006547933468849281,0.014247774885309358,0.9867451489969505
2017-01-10,1,0.003475735038744157,0.0036412089185645646,-0.006191963125360525,0.00843521752619307,0.9869598165867796
2017-01-12,1,0.0032906759354649276,0.00344688257046822,-0.006177095426410937,0.017529321587693616,0.9860914713642579
2017-01-17,1,0.0013437832338099565,0.0014636829410182677,-0.004216066653886846,0.019217240321524477,0.9886207119371089
2017-01-19,1,0.0014501788193250424,0.0015708804110231601,-0.004106448506327297,0.013615893094338617,0.989514628612201
2017-01-23,1,0.0014420010256223797,0.0015377701400318398,-0.004106448506327297,0.013615893094338617,0.9893447217791578
2017-01-25,1,0.0028553740171892534,0.002952241538738738,-0.006177095426410937,0.004757302620130263,0.9910030294707585
2017-01-27,1,0.002169788732573394,0.0021819887180088027,-0.006177095426410937,0.005198535445646078,0.9911036550720499
2017-01-31,1,0.001668610186307876,0.0017438175333238622,-0.004106448506327297,0.008096104889423155,0.9896299172688008
2017-02-02,1,0.0005319021475140942,0.0007857836941795602,-0.004106448506327297,0.008096104889423155,0.988589371578001
2017-02-06,1,0.0007972144400976818,0.0010475357768180331,-0.006411889741781919,0.005198535445646078,0.9893779352876032
2017-02-08,1,0.0004659862689602802,0.0007503191598314646,-0.0037494634774284676,0.005198535445646078,0.9896734492260538
2017-02-10,1,0.0005809275442050058,0.0008790859003642428,-0.005236184592501661,0.003568012371729828,0.991056384757427
2017-02-14,1,0.0015168337068426556,0.0017117891921674313,-0.006255420811211361,0.002098743419103489,0.9918465002643595
2017-02-16,1,0.0013107796300277758,0.0015285833772907993,-0.006255420811211361,0.0016376617041782377,0.9919363800845393
2017-02-21,1,0.00048557397268705893,0.0008026576453997923,-0.007462644042870559,0.0013074416342523023,0.9898693466259629
2017-02-23,0,-0.00021741763060833196,0.00025858996890647484,-0.006589055899061952,0.0027915592268280944,0.9901643718330234
2017-02-27,0,-0.000285257778073154,0.00017160305107646098,-0.006589055899061952,0.0016376617041782377,0.9904527196586522
2017-03-01,1,0.0014114986145076307,0.0016202709910308546,-0.00680334572752939,0.0016376617041782377,0.9904610218116342
2017-03-03,0,-0.0003154946138671274,0.00010615106518336941,-0.00680334572752939,0.0018182573115658348,0.9913973171865244
2017-03-07,-1,-0.001030739660502669,-0.0004961636327270561,-0.006035654706097638,0.003360301891418946,0.9918231936173273
2017-03-09,-1,-0.002120953331987298,-0.0013955934186251151,-0.007241964005254445,0.0034623868662926284,0.9907884465728625
2017-03-13,-1,-0.0026514704425608885,-0.0018529723824202726,-0.010298787778480267,0.0034623868662926284,0.990114370695243
2017-03-15,-1,-0.002189243362961389,-0.0015281412188162143,-0.010729734393798344,0.0034623868662926284,0.9895650117779934
2017-03-17,-1,-0.002226329266191908,-0.0015551842282055465,-0.011734136205286872,0.004062967732003049,0.987826585847777
2017-03-21,-1,-0.0045662608236309915,-0.0036230998834853698,-0.011168184609752047,0.004062967732003049,0.9884930328095727
2017-03-23,-1,-0.004129632894963405,-0.0032614182654437706,-0.012609883004434039,0.005364451327881356,0.9876767406834777
2017-03-27,-1,-0.00462447896617299,-0.003682317507873133,-0.012609883004434039,0.01359025673319588,0.986412725305449
2017-03-29,-1,-0.0050624160852771015,-0.004030383452926943,-0.01349212637868052,0.011236740198664623,0.986470063494468
2017-03-31,-1,-0.004861417449988515,-0.00385012681070932,-0.01349212637868052,0.009329022567076668,0.9875115106237131
2017-04-04,-1,-0.004556786336027334,-0.003608786297381402,-0.01349212637868052,0.011236740198664623,0.9867540641871055
2017-04-06,-1,-0.0025481505653921284,-0.002005796973508449,-0.013052522529966578,0.010853469961298408,0.9871376216621394
2017-04-10,-1,-0.002004729589843157,-0.001640833151986907,-0.01043292801696665,0.010853469961298408,0.9872104276380811
2017-04-12,-1,-0.0032846184485430564,-0.002716044966497885,-0.010278764644217172,0.010853469961298408,0.986608625955906
2017-04-17,-1,-0.0024392095059584317,-0.002016597091830627,-0.005083610154600031,0.010853469961298408,0.9879822799437389
2017-04-19,-1,-0.00422331594517136,-0.003578872276144256,-0.005083610154600031,0.012144799207657058,0.9871562702340256
2017-04-21,-1,-0.003851538334357663,-0.00326578678989171,-0.00305701403243065,0.010853469961298408,0.9881323648335844
2017-04-25,-1,-0.003240685134997098,-0.002705072802671714,-0.00305701403243065,0.010853469961298408,0.9885258812877116
2017-04-27,-1,-0.00247919221215476,-0.0021080606108217297,-0.00305701403243065,0.010044998180288488,0.9894089868984345
2017-05-01,-1,-0.0020851214959068097,-0.0017769658274603053,-0.009943134710799828,0.010044998180288488,0.9892098991658818
2017-05-03,-1,-0.0006776190021409326,-0.0005876734701747715,-0.009943134710799828,0.006745711312769621,0.9898068600644555
2017-05-05,-1,-0.00035484422736837043,-0.0003145184741572741,-0.01070898498404515,0.0051040550807907046,0.9894765984619
2017-05-09,-1,-0.0009480884227284187,-0.0008053527383848658,-0.01070898498404515,0.005949320584396894,0.9899049276032206
2017-05-11,-1,-0.0007343889057379429,-0.0006393782323779979,-0.009605291032616509,0.008486755463454324,0.987978063896444
2017-05-15,-1,-0.0006259183837919369,-0.0005184110291937376,-0.009605291032616509,0.005949320584396894,0.9885314722707518
2017-05-17,-1,-0.0011701283916121352,-0.0010236800213315677,-0.007498849271541066,0.005588434029896627,0.9905612960618637
2017-05-19,-1,-0.0008493624792473318,-0.0007446709903465319,-0.007498849271541066,0.005827553158255455,0.9904234472233607
2017-05-23,1,7.167316232048056e-05,8.309443687557866e-05,-0.01070898498404515,0.004520687948174262,0.9898227795308038
2017-05-25,-1,-0.0005974832224747882,-0.000503219365662952,-0.01070898498404515,0.004520687948174262,0.9894314717627524
2017-05-30,-1,-0.0009759351550582024,-0.0008650006252440107,-0.008773400985309139,0.007437340417737345,0.9889235968908139
2017-06-01,-1,-0.0016321690750803089,-0.0014288853298211786,-0.007321428603651082,0.010628140059623667,0.987073615440779
2017-06-05,-1,-0.0020834837250228166,-0.001841033466711386,-0.0038074759097999475,0.014046789364306015,0.9869715626163392
2017-06-07,-1,-0.0020024879100753847,-0.0017571940845715177,-0.007321428603651082,0.014046789364306015,0.9870512397128278
2017-06-09,-1,-0.0009008940488569617,-0.0007078644317778524,-0.007321428603651082,0.007258768686412166,0.9897573681803978
2017-06-13,-1,-0.0006345338076358963,-0.0004959948037517743,-0.008250684175579299,0.007258768686412166,0.9896483687295199
2017-06-15,-1,-0.0008359067678135693,-0.0006650814984317107,-0.008803893314266375,0.010558741872769459,0.9891940215040022
2017-06-19,1,0.0003744801988068134,0.0004361270447742217,-0.009432387395463832,0.00806818279665238,0.9889984067474111
2017-06-21,-1,-0.00096579236351157,-0.0008538733467887053,-0.008803893314266375,0.00806818279665238,0.9902568171932677
2017-06-23,-1,-0.0020364099274615553,-0.0017865678938135683,-0.0062268143441544955,0.012206694140963627,0.9906447046044461
2017-06-27,-1,-0.0011947461026075071,-0.0010245140029199352,-0.007700136433129525,0.007599228504894463,0.9914523973795673
2017-06-29,1,0.000923780335538815,0.0010635735706441634,-0.007700136433129525,0.004974373213753651,0.9927550853288852
2017-07-03,1,0.0012388560909897808,0.001401376995152988,-0.007700136433129525,0.00634739090683512,0.9930350907037367
2017-07-06,1,0.0013883250166319594,0.0016356609294396443,-0.0060816646679867775,0.007083476853914561,0.9931884913747009
2017-07-10,1,0.0020864110299761846,0.0024923374200124544,-0.0060816646679867775,0.007083476853914561,0.9930983433315775
2017-07-12,1,0.0019756637460226724,0.002381048992472829,-0.0060816646679867775,0.007083476853914561,0.9928797637550436
2017-07-14,1,0.0019970604268171096,0.00238852033827426,-0.008387325943369878,0.00634739090683512,0.9916874272971509
2017-07-18,1,0.0016180969609245611,0.0019504248461962655,-0.0060816646679867775,0.007083476853914561,0.9911376382755466
2017-07-20,1,0.0010966607271198185,0.0013577349828932102,-0.008083356678120357,0.007083476853914561,0.9902075278682471
2017-07-24,1,0.002156419923155379,0.0026457986336605116,-0.008083356678120357,0.00634739090683512,0.9908705140661944
2017-07-26,1,0.0016274933699553542,0.001972769668404575,-0.005931157613927406,0.00634739090683512,0.9909467305013566
2017-07-28,1,0.0016974578151381595,0.002040906811767181,-0.005931157613927406,0.00634739090683512,0.9910514260036531
2017-08-01,1,0.0021079783656606553,0.0025011302718261587,-0.010019513317772274,0.00493773707196632,0.9903183495693623
2017-08-03,1,0.0024867364592818966,0.002919244363280745,-0.010019513317772274,0.00493773707196632,0.9899888223323389
2017-08-07,1,0.002273856475219007,0.0026623600339643954,-0.011332743414977139,0.005165143360036789,0.9879428859330853
2017-08-09,1,0.0019295238554190696,0.00228047117691612,-0.012325478096838965,0.005165143360036789,0.9869362827548298
2017-08-11,-1,-0.0006535518276433278,-0.0005498613812322127,-0.00926403286024614,0.007251443087428082,0.9879248864727342
2017-08-15,1,0.00045691916031845135,0.0005040417478995812,-0.00926403286024614,0.007251443087428082,0.9885796387030276
2017-08-17,-1,-0.0008607673522520974,-0.0007333228998978699,-0.005003587811552681,0.007251443087428082,0.9897370076175956
2017-08-21,-1,-0.00041417742317755447,-0.0003626185660631387,-0.005003587811552681,0.009400137139125166,0.9886401716734616
2017-08-23,1,0.0005168334157575914,0.0006105324967200023,-0.005003587811552681,0.009400137139125166,0.9888604143158719
2017-08-25,1,0.0008001488469800335,0.0009368955369801338,-0.005003587811552681,0.008696551003816224,0.989182417007276
2017-08-29,1,0.000254918434088465,0.0003203129953312514,-0.0008863397007293184,0.011808998322768136,0.9881656260208499
2017-08-31,-1,-0.00039411822191795585,-0.0003348469346243584,-0.0006716044051554993,0.012803103404253087,0.9879806480009568
2017-09-05,-1,-0.0018319621690890753,-0.001576745706365918,-0.0006716044051554993,0.012803103404253087,0.989524092364653
2017-09-07,-1,-0.0028093625014194066,-0.0024547593396828785,-0.00016611675672921776,0.012803103404253087,0.9896179518815784
2017-09-11,-1,-0.0031691789103156136,-0.0026787636295356257,-0.0014295184377960018,0.012104574858762632,0.9905462717927905
2017-09-13,-1,-0.002518467309551442,-0.0021153197731076643,-0.003711593210301625,0.01146272044170231,0.9909743468103731
2017-09-15,-1,-0.0018833254213637147,-0.0016059620783269765,-0.004273058769084517,0.01146272044170231,0.9910319035877734
2017-09-19,-1,-0.0007747487926502562,-0.0006196977868176507,-0.005296551252599923,0.010321853509400169,0.9917542875008938
2017-09-21,1,8.986413155115985e-05,0.0001340758464566637,-0.005296551252599923,0.00907284499957294,0.9920307494817734
2017-09-25,1,0.0005389836922691661,0.0005943522821623677,-0.005666722868260112,0.01047709653768284,0.9910864141202893
2017-09-27,1,0.0019782037505435396,0.002231823681925592,-0.005666722868260112,0.00907284499957294,0.9914992866824908
2017-09-29,1,0.002223402270780597,0.00249585191866332,-0.005912038636153899,0.00907284499957294,0.9911001978609618
2017-10-03,1,0.0019330590031069474,0.0021603033580236994,-0.0076482756077803195,0.00907284499957294,0.9905488771863382
2017-10-05,1,0.0023805816757064705,0.0026896943363922633,-0.0076482756077803195,0.008984536460493839,0.9909107225444089
2017-10-09,1,0.001143142801323761,0.001233648782588178,-0.006836140480915849,0.008984536460493839,0.9913380315393849
2017-10-11,1,0.0013286271704978949,0.0014559462778137584,-0.0072413269842443026,0.008506278219164826,0.9905241406050174
2017-10-13,1,0.0013834545381401161,0.0015802736747768651,-0.007132664524240941,0.008506278219164826,0.9906470583767447
2017-10-17,1,0.0008555784419371183,0.000946182779929534,-0.006705389350119116,0.011083634799189317,0.989975879275069
2017-10-19,1,0.0009502622082608927,0.001005081032410281,-0.006705389350119116,0.011083634799189317,0.9898526334707649
2017-10-23,1,0.0008696038297994182,0.0008832053401476862,-0.006524497456836859,0.00872479208291486,0.9905497658038451
2017-10-25,1,0.0014357737069202333,0.001472651298940339,-0.007132664524240941,0.006529806848525476,0.9909096410304591
2017-10-27,1,0.0016637784982935751,0.0017370931464245323,-0.007132664524240941,0.0063664102621989955,0.9916718511343511
2017-10-31,1,0.0021031253572348424,0.0023589548286344197,-0.006343268384435766,0.007668175024094796,0.9896373252968536
2017-11-02,1,0.002709606587850119,0.0030396563789190263,-0.006343268384435766,0.006529806848525476,0.9900657275021224
2017-11-06,1,0.0027511255497541702,0.0030767377069244577,-0.006343268384435766,0.009306083082310235,0.9891914613938998
2017-11-08,1,0.00171424418121294,0.0019162569664277784,-0.005239977069054977,0.012540118524704078,0.990211740199384
2017-11-10,1,0.0002703163763772212,0.00033717153079953035,-0.004873550180713693,0.012540118524704078,0.9900503474121903
2017-11-14,1,0.001121692043523219,0.0011384722571800906,-0.00546489794540508,0.008088885829009695,0.9901741458037838
2017-11-16,1,0.001388747100088997,0.0014703015746195137,-0.00546489794540508,0.011596877436643121,0.9897726004978762
2017-11-20,1,0.002627731943636127,0.0029624303805705215,-0.00546489794540508,0.012304412279455834,0.9894400585727844
2017-11-22,1,0.0020995992443227753,0.002394533883021626,-0.00358838096331456,0.012792317001708567,0.9898024012860692
2017-11-27,1,0.0016689130306438127,0.001870350224402875,-0.004873550180713693,0.012792317001708567,0.9894876254781019
2017-11-29,1,0.004319355517502753,0.004880121797555457,-0.004873550180713693,0.011558766219007774,0.99199951952397
2017-12-01,1,0.0043194763178139115,0.004852288110447033,-0.005439605224521489,0.011558766219007774,0.9916789135273616
2017-12-05,1,0.004435887637077779,0.004994860198417899,-0.005439605224521489,0.008865269113816205,0.9924744176219011
2017-12-07,1,0.0045374360882783765,0.005074726117480195,-0.00360601018140576,0.006873060433569562,0.9925821264703525
2017-12-11,1,0.0037308371778994754,0.004113702960092289,-0.0028839650672458335,0.012304412279455834,0.9920063953257484
2017-12-13,1,0.003901788868241343,0.0043214277161851755,-0.002858496745444263,0.009101114061420442,0.9934827769639344
2017-12-15,1,0.003938999572722048,0.00435699314262003,-0.002858496745444263,0.008787853286878583,0.9937185668633131
2017-12-19,1,0.004109343963700472,0.004557142668768648,-0.0028839650672458335,0.008787853286878583,0.9924474883305613
2017-12-21,1,0.004461039718084682,0.004974122922036615,-0.002858496745444263,0.010582154438678052,0.9919236319250969
2017-12-26,1,0.004294346087553172,0.004810726561226877,-0.002858496745444263,0.010582154438678052,0.9917749847131604
2017-12-28,1,0.004092818575887797,0.004565000229308626,-0.00357643227955842,0.01139473682137438,0.9911913928603633
2018-01-02,1,0.0036616554920702853,0.004046545468243035,-0.0035658567805562065,0.01139473682137438,0.9911527744937778
2018-01-04,1,0.0029802827717556207,0.0031733293649884374,-0.005831486717809384,0.01343455920178644,0.9897139239117289
2018-01-08,1,0.0033639191472492795,0.0036520301199728517,-0.006285070985083789,0.01343455920178644,0.9878137991901527
2018-01-10,1,0.0038591258641428733,0.004122433702704482,-0.007782938348559425,0.01166679506462851,0.9857362049233087
2018-01-12,1,0.0038728636388269295,0.004142586089753538,-0.007782938348559425,0.013287601885668722,0.9847420312570772
2018-01-17,1,0.004338943329806822,0.004706342432121633,-0.007503412247984169,0.01723402802317392,0.9837645811607819
2018-01-19,1,0.00484950109826881,0.005284763414754037,-0.005831486717809384,0.015679844675177478,0.9854448980093072
2018-01-23,1,0.005509100157140109,0.00597867061220011,-0.005831486717809384,0.013287601885668722,0.9860699971239103
2018-01-25,1,0.004423546057852021,0.0047196046793223125,-0.005831486717809384,0.015679844675177478,0.9853591068919952
2018-01-29,1,0.0037201559419188174,0.003828958909882416,-0.006556219944097741,0.015679844675177478,0.9852436235084243
2018-01-31,1,0.0024733244181351834,0.002604496370068812,-0.009493974894555333,0.015679844675177478,0.9843564503503183
2018-02-02,1,0.0026790284825334316,0.0027504930914960587,-0.008068673889324697,0.013513422487558163,0.9849553836846828
