JNU-Tangyin/eata/results/Batch4_SP500/Batch4_SP500-EA.csv
Date,Action,Predicted_Q25,Predicted_Q75,Actual_Q25,Actual_Q75,RL_Reward
2010-12-14,0,-0.0010035397267914121,0.0,-0.003246287313410203,0.003411439062627411,0.9948260046857946
2010-12-16,0,0.0,0.0,-0.003246287313410203,0.0026750283788150985,0.9947738582875607
2010-12-20,1,0.0002314803814690474,0.00024444914527808556,-0.0037062527321575604,0.0031357771752510673,0.9944185336614174
2010-12-22,0,0.0,0.0,-0.0057345092286569125,0.0013987262653030181,0.9926171998211414
2010-12-27,0,0.0,0.0,-0.0057345092286569125,0.00218998424501571,0.9925167884954835
2010-12-29,0,0.0,0.0,-0.007078682562908571,0.0009366441561664962,0.9928349654368288
2010-12-31,0,0.0,0.0,-0.0057345092286569125,0.0009366441561664962,0.9915567457733228
2011-01-04,0,0.0,0.0,-0.0057345092286569125,0.0022269220397888438,0.9865714168725721
2011-01-06,1,0.0005900886303260769,0.0007762455487117275,-0.0053815363708380895,0.003822658706791916,0.9867303773848587
2011-01-10,1,0.0004855400756527897,0.0006982774543289938,-0.005114133827826691,0.003822658706791916,0.9873364504245574
2011-01-12,0,-5.490928808926608e-05,1.4676524167869787e-05,-0.0053815363708380895,0.006071186139369949,0.986091319513894
2011-01-14,0,0.0,0.0,-0.005114133827826691,0.007326769078446177,0.9858302547470172
2011-01-19,0,0.0,0.0,-0.0032132083471446667,0.009680014680169515,0.9850768089557032
2011-01-21,-1,-0.003375271853291783,-0.0028893619216490657,-0.00023817570637679406,0.010469144654254994,0.9845465348832856
2011-01-25,-1,-0.0015908397814580716,-0.0014055927736736713,-0.0029836401342858985,0.009680014680169515,0.9852493467737502
2011-01-27,-1,-0.0018330742065650254,-0.0016454837420892385,-0.0011928175774936437,0.012878598962756853,0.9847929167281048
2011-01-31,-1,-0.000835962744818454,-0.0007496124235167181,-0.0034191134883974255,0.009680014680169515,0.9854665501525477
2011-02-02,1,0.0010550404517967434,0.0012081551104383779,-0.0034191134883974255,0.011165852875371054,0.9895301526232333
2011-02-04,1,0.0017553686474093104,0.002065078501941706,-0.010413116378923415,0.011165852875371054,0.9883689943949067
2011-02-08,1,0.0015475611880488931,0.0017896936015875243,-0.010413116378923415,0.014086409576491175,0.9873070219697375
2011-02-10,1,0.0014050526787074522,0.001619722896894544,-0.0074415035766828746,0.014086409576491175,0.9881276179656814
2011-02-14,1,0.0014980847398029249,0.0017004573750520665,-0.009816003071379538,0.014086409576491175,0.9878255602420224
2011-02-16,1,0.003005021814670941,0.003431977005638442,-0.009816003071379538,0.014086409576491175,0.9870227740551338
2011-02-18,1,0.0037018543521098813,0.004229104341397843,-0.009816003071379538,0.014086409576491175,0.9869568337053912
2011-02-23,1,0.0028823794858398137,0.0032962217286022057,-0.008773998255888007,0.015223399878139192,0.9875902005625029
2011-02-25,1,0.0038771769940491576,0.004490491422496535,-0.008773998255888007,0.015223399878139192,0.9862759293888737
2011-03-01,1,0.00273782970038588,0.0032570885809571513,-0.006964071629400367,0.015223399878139192,0.9884730189385831
2011-03-03,1,0.0040388998578680954,0.004759650659013882,-0.007197798525632752,0.006146619319811247,0.988400594873526
2011-03-07,1,0.001988257920564502,0.0023037147757945958,-0.006485203183009311,0.011399903911221669,0.9901999109113492
2011-03-09,1,0.002593516645212406,0.0029851794542758115,-0.005209100593454756,0.011957074119585371,0.9900821134605188
2011-03-11,1,0.002348025430631206,0.0025608094894077555,-0.006515986238190928,0.011957074119585371,0.9893262575405276
2011-03-15,1,0.001484168997983676,0.0015308658870719473,-0.005740154612389639,0.011957074119585371,0.9897485938322806
2011-03-17,1,0.001976734841455786,0.0021088935250783997,-0.004599106847839769,0.010426319847189374,0.9909803811608415
2011-03-21,1,0.0023926983569206445,0.002596177814679766,-0.005740154612389639,0.009327005913489304,0.9909847057436884
2011-03-23,1,0.00230643041407682,0.0024714378801074534,-0.003287956664852809,0.009327005913489304,0.9907159383772143
2011-03-25,1,0.0032536914833073485,0.0036405362240951957,-0.003000121412655578,0.007954692652575552,0.992399766927428
2011-03-29,1,0.002841246038028393,0.0030592826156369862,-0.004678086597947994,0.007954692652575552,0.9917919202838634
2011-03-31,1,0.003399108812477407,0.0037864921475631672,-0.004678086597947994,0.009327005913489304,0.9910859918544808
2011-04-04,1,0.0016646615150207602,0.0018000816712224815,-0.0058803247450927715,0.007954692652575552,0.9909860960759141
2011-04-06,1,0.003016274079112497,0.003281840832032952,-0.00814857909796438,0.006676800588592935,0.9872043673416312
2011-04-08,1,0.0008531591817957307,0.0009144535327333303,-0.0058803247450927715,0.007954692652575552,0.9876422779137041
2011-04-12,1,0.0013248900503728012,0.0013494061290488552,-0.006667000108642195,0.009854801501340243,0.9861801563598789
2011-04-14,1,0.001653997576289965,0.0016600887029280973,-0.006667000108642195,0.012597177953490055,0.9844291787122841
2011-04-18,1,0.0009859787353093457,0.0010932520447140234,-0.006667000108642195,0.012597177953490055,0.9836503228619538
2011-04-20,1,0.0020510653867899437,0.002056526053957634,-0.006667000108642195,0.012597177953490055,0.9844980583007602
2011-04-25,1,0.0019992465627185233,0.002031128313521854,-0.00814857909796438,0.012597177953490055,0.9839506147119759
2011-04-27,1,0.0017755894399945744,0.001796481866946913,-0.0068633117896222656,0.013635619302931435,0.9833019083515014
2011-04-29,1,0.0016882267542476968,0.0017176159418684088,-0.0068633117896222656,0.014136221843505969,0.9835753551330801
2011-05-03,1,0.001979694815549422,0.0020697949565872363,-0.006655930066265608,0.01624149371185136,0.9832762471695886
2011-05-05,1,0.0036792536603380346,0.0039964294992169466,-0.006981936271669077,0.014136221843505969,0.9872738810076825
2011-05-09,1,0.0038148900436042275,0.004133777090588,-0.007850052325734656,0.014136221843505969,0.9859753840213051
2011-05-11,1,0.003610889536027742,0.003939949842304909,-0.0088903537799669,0.014136221843505969,0.9858028883086035
2011-05-13,1,0.0048632891483917536,0.005344657282504242,-0.010245397341082055,0.01226260459660588,0.9862671861569138
2011-05-17,1,0.0045575687101372594,0.005010297542608341,-0.010245397341082055,0.014136221843505969,0.9862771442250889
2011-05-19,1,0.005024647741278104,0.005554445786043435,-0.012339014380348626,0.003807469531089322,0.9851275157536068
2011-05-23,1,0.0048072118359934685,0.005353144669273201,-0.010317109874303721,0.014078448132054104,0.9861917686877171
2011-05-25,1,0.0049271098696929035,0.005456572445529059,-0.012716662027782478,0.007547002303222271,0.9854501713993503
2011-05-27,1,0.004717461704764939,0.005206655573053906,-0.012716662027782478,0.0016561884719487722,0.9856481283221817
2011-06-01,1,0.005187396811495735,0.005711367785087259,-0.012716662027782478,0.007624604954632454,0.982810955538168
2011-06-03,1,0.004154516645759495,0.004479541428836956,-0.012716662027782478,0.014914791972280154,0.9831678839846537
2011-06-07,1,0.002789963156885937,0.00292364536867826,-0.00915995763917995,0.014914791972280154,0.9849618565607453
2011-06-09,1,0.0020765565613454183,0.002084955110888325,-0.006636749265143656,0.015231026871004208,0.9859881684248184
2011-06-13,1,0.0010888526349728238,0.0012214291917459845,-0.008276435212646252,0.015231026871004208,0.9850686662602006
2011-06-15,1,0.0003654695363963905,0.0006739862791085794,-0.009454333300993848,0.010222980575049126,0.9856499440841755
2011-06-17,-1,-0.0006750450310538123,-0.000263668121820902,-0.0068846249522211845,0.010222980575049126,0.9865217665952453
2011-06-21,-1,-0.0004692356735479389,-3.6088443362498716e-05,-0.0068846249522211845,0.011573293193278784,0.9863588417641117
2011-06-23,-1,-0.0019306166826648084,-0.0013690903884878976,-0.0052324730405577955,0.011573293193278784,0.9874914885646641
2011-06-27,-1,-0.000867133813191855,-0.000544871387257294,-0.0060034798986277026,0.011573293193278784,0.9870926196377084
2011-06-29,1,0.00184226545908899,0.0018445155342126998,-0.010768319198660012,0.005493157897059435,0.9884828545972989
2011-07-01,0,0.0,0.0,-0.013547611684575692,0.004214645194152177,0.9886086590521845
2011-07-06,0,0.0,0.0,-0.014488180072283106,0.004333716365435275,0.9869872344617525
2011-07-08,1,0.0025789092188499285,0.0029105565410013703,-0.017009380215304744,0.0007363986522530107,0.9840181588080645
2011-07-12,0,0.0,0.0,-0.017009380215304744,0.0022128254912030356,0.9813423290591687
2011-07-14,1,0.0016354005185596591,0.0016727606143221978,-0.02181528681201853,0.004333716365435275,0.9755620829596561
2011-07-18,1,0.001148000771694091,0.0012119239793784045,-0.02181528681201853,0.008736413416281567,0.973264725249312
2011-07-20,1,0.0017356547213938016,0.0017620045251592116,-0.02181528681201853,0.005920087300834971,0.9733032239574273
2011-07-22,1,0.0006147918773901907,0.0007958243872503236,-0.03410461991645075,0.008736413416281567,0.9704239169032647
2011-07-26,0,0.0,0.0,-0.03410461991645075,0.01824780188213764,0.9689151472617459
2011-07-28,0,0.0,0.0,-0.018734098390873522,0.01824780188213764,0.9712066030959342
2011-08-01,0,0.0,0.0,-0.01731275774511054,0.027651183834639853,0.9682455551835244
2011-08-03,0,0.0,0.0,-0.008544610093760039,0.027651183834639853,0.9694840967063485
2011-08-05,0,0.0,0.0,-0.007082399527791449,0.027651183834639853,0.9711026639594385
2011-08-09,0,0.0,0.0,-0.0047842882105994244,0.03166917132422372,0.9750128742732505
2011-08-11,0,0.0,0.0,-0.007082399527791449,0.025025707861236493,0.9791212360366222
2011-08-15,0,0.0,0.0,-0.007082399527791449,0.025025707861236493,0.9801883015111105
2011-08-17,0,0.0,0.0,-0.00047197589790105626,0.02687281849347543,0.9791696872379588
2011-08-19,0,0.0,0.0,-0.00047197589790105626,0.02687281849347543,0.9824272133072044
2011-08-23,0,0.0,0.0,-0.004931725392370048,0.016034958023838114,0.9827936575381566
2011-08-25,-1,-0.004556863075098361,-0.0028646865239153867,-0.009773849016619382,0.024147347535958836,0.9794522855477225
2011-08-29,-1,-0.0008581809099690269,-0.0005462708315622522,-0.009773849016619382,0.015490682054153174,0.9820327402374699
2011-08-31,-1,-0.0009761147376545526,-0.0005989056546760014,-0.022496397895317904,0.015490682054153174,0.9799616641700588
2011-09-02,-1,-0.0026443585189172107,-0.0020517999241266857,-0.023784072904700665,0.015490682054153174,0.9795162950141318
2011-09-07,-1,-0.0010084500568338067,-0.0006844651455583154,-0.023784072904700665,0.023702306367432945,0.978093294015489
2011-09-09,-1,-0.003359121062927949,-0.0027438460197580328,-0.010823959688753233,0.024445051939435986,0.976253494668544
2011-09-13,-1,-0.0014062720209857985,-0.0010744938254997785,-0.010823959688753233,0.024445051939435986,0.9755182686417999
2011-09-15,0,-3.5987332955369675e-05,0.00013696301665782132,-0.010823959688753233,0.023702306367432945,0.9767532231527334
2011-09-19,-1,-0.0007246008369614734,-0.0004392722423668294,-0.021155018661689208,0.02445244004901322,0.9743266931907929
2011-09-21,-1,-0.002478414637056614,-0.0019801700498995774,-0.021155018661689208,0.02649116401313055,0.9732707306320619
2011-09-23,-1,-0.0037705021066067094,-0.0031163206377016047,-0.011308749153835802,0.02649116401313055,0.9761470449573705
2011-09-27,0,0.0,0.0,-0.01863323926549468,0.028850208939918624,0.9740178618939702
2011-09-29,-1,-0.0029799258345910196,-0.002582241679646774,-0.008406022743207968,0.028850208939918624,0.9764373724656747
2011-10-03,-1,-0.0038994624954819075,-0.0034461760391835236,-0.010749737916730898,0.028850208939918624,0.9760362647901933
2011-10-05,-1,-0.0004006376438802993,-0.00034817077874860355,-0.016956205554179968,0.028850208939918624,0.9751438030283357
2011-10-07,1,0.0016928845932838456,0.001994761017254151,-0.016956205554179968,0.030754362215893026,0.9760304338068817
2011-10-11,1,0.0037127616684919044,0.00431648961007621,-0.021177618237821206,0.028850208939918624,0.9769170019401172
2011-10-13,1,0.0037578250485486003,0.004327137901790973,-0.028364079928530257,0.028850208939918624,0.9736686543710077
2011-10-17,1,0.004015333331017713,0.0046510921489211,-0.021177618237821206,0.02471959298378556,0.9754999335406984
2011-10-19,1,0.003810148257590005,0.004429636334974589,-0.021177618237821206,0.016362542404865257,0.9768194799906602
2011-10-21,1,0.004147974268156395,0.0048567908127943055,-0.02891106412409864,0.016362542404865257,0.9748561860415885
2011-10-25,1,0.00512161477825159,0.005924296463893822,-0.02891106412409864,0.011475296616655474,0.9768646935227411
2011-10-27,1,0.004564846760158738,0.005232245154068579,-0.031215091272994124,0.011475296616655474,0.9747327193668288
2011-10-31,1,0.0026111426947556552,0.002994612861810503,-0.029005823939477173,0.016362542404865257,0.9742100895482089
2011-11-02,1,0.0025001942949748135,0.0028403193942161536,-0.02062445316889963,0.016362542404865257,0.9748861400917807
2011-11-04,1,0.004651598326334011,0.0052668380677649215,-0.02062445316889963,0.0071861556176638685,0.975794187015182
2011-11-08,0,0.0,0.0,-0.019628303279996578,0.011475296616655474,0.9769809048632854
2011-11-10,0,0.0,0.0,-0.019628303279996578,0.011475296616655474,0.9770479301803533
2011-11-14,0,0.0,0.0,-0.026017374272768016,0.0071861556176638685,0.9755398967181789
2011-11-16,0,0.0,0.0,-0.024374559907328293,0.012594531845179143,0.9746168016904034
2011-11-18,0,0.0,0.0,-0.024374559907328293,0.012594531845179143,0.9743845346445273
2011-11-22,0,0.0,0.0,-0.024374559907328293,0.01967499876912642,0.9733226508602681
2011-11-25,1,0.0008168699587014575,0.001103428251585316,-0.02013546787276021,0.020964437156122707,0.9745651423325536
2011-11-29,1,0.002114111263627953,0.002646566018820279,-0.02282521072974631,0.01890759919040402,0.9763990652260264
2011-12-01,1,0.004568150621601109,0.005332562778985726,-0.02282521072974631,0.016303952948279406,0.9777791277000858
2011-12-05,1,0.0020540135164935835,0.002389766188966939,-0.024374559907328293,0.01890759919040402,0.9759360380047031
2011-12-07,1,0.0019245933897013854,0.0022506774233186683,-0.026941789191847768,0.016733765743944834,0.9754309633106613
2011-12-09,1,0.0014474808500754724,0.0017449253573400816,-0.02300972851309382,0.014759194129416096,0.9782395561013455
2011-12-13,-1,-0.00019452705800721988,-0.00011842129985800172,-0.019680524074682054,0.014759194129416096,0.9804109698399658
2011-12-15,0,-6.81345577452189e-05,1.9312581908473292e-05,-0.019680524074682054,0.012492809237030632,0.9785701977088083
2011-12-19,-1,-0.0028382403189340646,-0.002504004474233921,-0.018064897491682275,0.014759194129416096,0.9778803600240062
2011-12-21,-1,-0.002511645880954257,-0.002171401569296868,-0.018064897491682275,0.014759194129416096,0.9788240792199353
2011-12-23,0,0.0,0.0,-0.018064897491682275,0.012492809237030632,0.9794729289346037
2011-12-28,0,0.0,0.0,-0.017738420681578944,0.012766191793711825,0.9789269542302003
2011-12-30,0,0.0,0.0,-0.017738420681578944,0.014430070273319813,0.9785186429904592
2012-01-04,-1,-0.005609418049640366,-0.004684398328486285,-0.013689726213237517,0.014430070273319813,0.9791900590580355
2012-01-06,-1,-0.005286114294971031,-0.0045050995361197695,-0.013689726213237517,0.010589715235386878,0.9808213030817814
2012-01-10,-1,-0.005907855145433759,-0.005019148113740848,-0.016687966027698474,0.010589715235386878,0.9801201854274894
2012-01-12,-1,-0.006442810764419744,-0.005443962990534336,-0.02047986198398313,0.009739331759439692,0.9792392309703168
2012-01-17,-1,-0.008260347522806799,-0.007144861487224655,-0.017718163160522854,0.012848597227870897,0.9817401987392431
2012-01-19,-1,-0.00859462013200863,-0.007447595872071791,-0.014356251943946918,0.006610578929432782,0.9839096329564077
2012-01-23,-1,-0.005432998424799673,-0.004797431559620647,-0.01686751830934624,0.005215742845406442,0.9849090335249197
2012-01-25,-1,-0.0048266983964839446,-0.004291193141016079,-0.01686751830934624,0.004287831971533411,0.9849776117958502
2012-01-27,-1,-0.004917297503076528,-0.004337851950985276,-0.01555944944014479,0.0036316185213788738,0.9867124338466724
2012-01-31,-1,-0.0035720692651519965,-0.003192357805390643,-0.01686751830934624,0.00172076659231258,0.9869839752600787
2012-02-02,-1,-0.0031264274186998944,-0.002713952302623157,-0.01686751830934624,0.0036316185213788738,0.9885968302341392
2012-02-06,0,0.0,0.0,-0.016982470756453212,0.0036316185213788738,0.987988805653863
2012-02-08,-1,-0.00253526851007523,-0.0023020241196907683,-0.015564426673758083,0.004467484487192835,0.9874749647668974
2012-02-10,-1,-0.007361580739293121,-0.006617333997001181,-0.014513956414419302,0.004467484487192835,0.9881386146502811
2012-02-14,0,0.0,0.0,-0.015564426673758083,0.004467484487192835,0.984960261123399
2012-02-16,0,0.0,0.0,-0.015564426673758083,0.007226148964535974,0.982473884436069
2012-02-21,-1,-0.008230902711641869,-0.007317812987041986,-0.015496148412119529,0.007226148964535974,0.9837296133074094
2012-02-23,-1,-0.007089054332690352,-0.006203924942396494,-0.015496148412119529,0.007226148964535974,0.9839633028394958
2012-02-27,-1,-0.007943070621004225,-0.0068982100223273415,-0.011141261732222432,0.009409534940987906,0.9834484725561914
2012-02-29,0,0.0,0.0,-0.010367299054921168,0.009409534940987906,0.9838151770092418
2012-03-02,0,0.0,0.0,-0.014287448931728116,0.005269326841207935,0.9842482315218516
2012-03-06,0,0.0,0.0,-0.010367299054921168,0.009409534940987906,0.9844121034132484
2012-03-08,0,0.0,0.0,-0.014287448931728116,0.003848915883951174,0.9860684129612854
2012-03-12,0,0.0,0.0,-0.016923964129077092,0.003848915883951174,0.9854671903655333
2012-03-14,0,0.0,0.0,-0.014287448931728116,0.009409534940987906,0.9859410788381043
2012-03-16,0,0.0,0.0,-0.018546164835987464,0.0014733750278611802,0.9848282758683505
2012-03-20,0,0.0,0.0,-0.018546164835987464,0.0029235594976282342,0.9851961085824491
2012-03-22,0,0.0,0.0,-0.020573257004786842,0.005527571682092707,0.9840117752984051
2012-03-26,0,0.0,0.0,-0.020573257004786842,0.002032926960575025,0.9844723341605429
2012-03-28,0,0.0,0.0,-0.020573257004786842,0.009431830114264836,0.9817979277774488
2012-03-30,0,0.0,0.0,-0.0209389776399746,0.009431830114264836,0.9806261707958241
2012-04-03,0,0.0,0.0,-0.0209389776399746,0.010681738244891296,0.9799195658029483
2012-04-05,0,0.0,0.0,-0.0209389776399746,0.010681738244891296,0.9787847754201853
2012-04-10,-1,-0.0030897350657332788,-0.0029915350601027618,-0.020573257004786842,0.010681738244891296,0.9785967273936291
2012-04-12,0,-0.0002495929862376355,0.00022744098240001244,-0.0216513057330025,0.009153202807056754,0.9788335788203048
2012-04-16,-1,-0.004583513985281689,-0.004404042551035403,-0.015450252471519228,0.009153202807056754,0.981421216357983
2012-04-18,0,0.0,0.0,-0.014923008025342292,0.009153202807056754,0.9816895111159211
2012-04-20,0,0.0,0.0,-0.012711903305229654,0.007425201694185521,0.9821937669908398
2012-04-24,0,0.0,0.0,-0.012711903305229654,0.009153202807056754,0.9810609798484574
2012-04-26,0,0.0,0.0,-0.01599581311160792,0.007841837737727675,0.9814403584337351
2012-04-30,0,0.0,0.0,-0.012711903305229654,0.010615269989612071,0.9829335692106225
2012-05-02,0,0.0,0.0,-0.018211317189601634,0.0022430631041541805,0.9818810217617566
2012-05-04,0,0.0,0.0,-0.018211317189601634,0.0022430631041541805,0.9822272329256626
2012-05-08,0,0.0,0.0,-0.01377896699851702,0.008053996789656532,0.9819806819483307
2012-05-10,0,0.0,0.0,-0.01377896699851702,0.005763889748596658,0.9839986513829321
2012-05-14,0,0.0,0.0,-0.01728396346504402,0.005763889748596658,0.9826431427269147
2012-05-16,1,0.0004101757461962805,0.0004202600386538892,-0.02386295754547988,0.004133304036891342,0.9810971237333893
2012-05-18,-1,-0.0022170915503585374,-0.0021751469961861125,-0.02386295754547988,0.0064519324206187365,0.9818450458365405
2012-05-22,0,0.0,0.0,-0.02386295754547988,0.0064519324206187365,0.982137063814473
2012-05-24,0,0.0,0.0,-0.025042010432623298,0.0064519324206187365,0.9815754789057716
2012-05-29,0,0.0,0.0,-0.025042010432623298,0.004133304036891342,0.9809715621976528
2012-05-31,1,0.1497150703860607,0.15197564007954492,-0.018913171238888273,0.0064519324206187365,0.8640560963961158
2012-06-04,-1,-0.0037091143331272848,-0.0035166357853906333,-0.013823841726742715,0.010229151814805586,0.9816992775320357
2012-06-06,-1,-0.0017156822288887904,-0.0016501295340042772,-0.01645589315343708,0.010229151814805586,0.9824767193161043
2012-06-08,-1,-0.003674907249873742,-0.0033639580065519667,-0.01645589315343708,0.010229151814805586,0.9822655210925533
2012-06-12,-1,-0.005395347976080588,-0.004867906455353233,-0.01645589315343708,0.010229151814805586,0.9828020608442793
2012-06-14,-1,-0.005480602974415278,-0.00501159275047243,-0.013253556741787385,0.010689271214278009,0.9839073127951349
2012-06-18,-1,-0.004716790314458474,-0.004354708181562997,-0.015500029577735613,0.010689271214278009,0.9836985328304578
2012-06-20,0,0.0,0.0,-0.015500029577735613,0.01185288495042277,0.979720000767426
2012-06-22,0,0.0,0.0,-0.015500029577735613,0.010689271214278009,0.9814897424174679
2012-06-26,-1,-0.0038583046026020758,-0.003793048457344897,-0.01645589315343708,0.010689271214278009,0.9823897611779561
2012-06-28,0,0.0,0.0,-0.017822945016094806,0.01084630098297085,0.9784506191477342
2012-07-02,-1,-0.0032988222752597,-0.003201120664395022,-0.01993361153217066,0.00841243179871026,0.9801536450062528
2012-07-05,0,0.0,0.0,-0.023648376994927896,0.00841243179871026,0.976757975139136
2012-07-09,0,0.0,0.0,-0.01993361153217066,0.01404664688087762,0.9750690385683791
2012-07-11,0,0.0,0.0,-0.016506704321117723,0.024913282724399466,0.9739764135484821
2012-07-13,0,0.0,0.0,-0.016506704321117723,0.024913282724399466,0.9740285947160968
2012-07-17,-1,-0.006071892037349374,-0.00571669594740953,-0.01671624420871056,0.024913282724399466,0.9742581636764778
2012-07-19,-1,-0.002635217571315373,-0.0024802933131257044,-0.01671624420871056,0.032925579593615806,0.9741584725440288
2012-07-23,-1,-0.0034936085465793114,-0.003247895691446006,-0.01584550899404917,0.032925579593615806,0.9750229695297997
2012-07-25,-1,-0.003431450061846657,-0.0032424932585802184,-0.015381825785430008,0.032925579593615806,0.9755842341394603
2012-07-27,-1,-0.003413308035920384,-0.0032084555813437637,-0.014415292217754432,0.02188543037707872,0.9789629002025642
2012-07-31,-1,-0.0029897836992398103,-0.0029452695999436767,-0.01285821901030033,0.02188543037707872,0.978787490439641
2012-08-02,-1,-0.0025330428319653093,-0.0024872727288946174,-0.00974521452559648,0.015236450829893196,0.9820718129081868
2012-08-06,-1,-0.0005628567351313809,-0.0003812592385127291,-0.01285821901030033,0.012273506861170845,0.9835472365502038
2012-08-08,1,0.0022660084181110214,0.002945728292757303,-0.01285821901030033,0.012232436169023912,0.9841283488447466
2012-08-10,1,0.002211328091580761,0.0028379134893509205,-0.014163905661002223,0.015100993667522688,0.9827946587542734
2012-08-14,1,0.001550945637869436,0.002091638775739897,-0.010171432849429137,0.016121641844867043,0.9837152427003665
2012-08-16,1,0.0040829893864033585,0.004968305126450024,-0.010171432849429137,0.014242966308114875,0.985992450032642
2012-08-20,1,0.003630932460961923,0.004445548933422113,-0.014163905661002223,0.014242966308114875,0.9851962318149654
2012-08-22,1,0.0031330201078763244,0.003853641460384081,-0.014378332465959508,0.014242966308114875,0.9838225747093442
2012-08-24,1,0.0033475395416583016,0.004124574223545365,-0.015534780307975015,0.014242966308114875,0.9836864014228072
2012-08-28,1,0.002136454468648057,0.0027325402027121777,-0.015534780307975015,0.014242966308114875,0.9829523623083766
2012-08-30,1,0.0021011648894409653,0.0026181468390896693,-0.015534780307975015,0.015181723631014941,0.9823783742496055
2012-09-04,0,0.0,0.0,-0.015534780307975015,0.015181723631014941,0.982192052334168
2012-09-06,0,0.0,0.0,-0.015534780307975015,0.01466683115581282,0.98296030085098
2012-09-10,0,0.0,0.0,-0.015534780307975015,0.014077214010155572,0.9846962334330762
2012-09-12,0,0.0,0.0,-0.015534780307975015,0.014077214010155572,0.9848740286662226
2012-09-14,0,0.0,0.0,-0.015534780307975015,0.01281146595923794,0.9846863477105869
2012-09-18,0,0.0,0.0,-0.007587615490440187,0.01466683115581282,0.9843332978768778
2012-09-20,0,0.0,0.0,-0.007248788981983296,0.01466683115581282,0.9856213151264949
2012-09-24,0,0.0,0.0,-0.007248788981983296,0.01466683115581282,0.9840000970200318
2012-09-26,0,0.0,0.0,-0.008207185612827067,0.01466683115581282,0.9842314701088613
2012-09-28,0,0.0,0.0,-0.018045141126389462,0.014458382780895746,0.9832564441796251
2012-10-02,0,0.0,0.0,-0.011144802735632535,0.017077733268012603,0.9813993062883185
2012-10-04,1,0.005045772013476796,0.005810002931750749,-0.011144802735632535,0.017344693899501544,0.9812496325531421
2012-10-08,0,0.0,0.0,-0.018045141126389462,0.02095577634358352,0.9792685859507281
2012-10-10,0,0.0,0.0,-0.02190590361528728,0.02095577634358352,0.977858603107298
2012-10-12,0,0.0,0.0,-0.02190590361528728,0.017344693899501544,0.979143580949844
2012-10-16,0,0.0,0.0,-0.02190590361528728,0.011605580804589618,0.9791826170409373
2012-10-18,0,0.0,0.0,-0.02190590361528728,0.018007070413589704,0.977277247780643
2012-10-22,0,0.0,0.0,-0.018653629924255365,0.018007070413589704,0.9790782930239879
2012-10-24,-1,-0.0002529423070319158,-0.00024729831916823136,-0.006531254004160011,0.024805259214388715,0.9792356297897431
2012-10-26,-1,-0.0006476639560783796,-0.0006101219063566689,-0.0009642233522434658,0.024805259214388715,0.9796413731902989
2012-11-01,1,0.0020914189724381017,0.00245735156027249,-0.0019299279191891824,0.01704330203570475,0.983882290065424
2012-11-05,1,0.001653852699425031,0.0018570770664788564,-0.008304905484511044,0.016922789646736835,0.9831863995236491
2012-11-07,0,0.0,0.0,-0.0038527230788497615,0.013869849525700403,0.9849971815866041
2012-11-09,0,0.0,0.0,-0.0017788715031140305,0.013869849525700403,0.986857998656067
2012-11-13,0,0.0,0.0,-0.0003369349319073675,0.016922789646736835,0.9858369212022827
2012-11-15,1,0.000406930218871854,0.0004359473998118518,-0.0003369349319073675,0.013869849525700403,0.9875678664772105
2012-11-19,1,0.0012935182300712277,0.0013252940470959778,-0.0023154349996392255,0.013029721178568151,0.9883004553237762
2012-11-21,1,0.0015473817074134544,0.0015942334280717278,-0.008304905484511044,0.013029721178568151,0.9857557475158399
2012-11-26,1,0.0033875458167229883,0.003730016150500787,-0.008304905484511044,0.012157652472065902,0.9867528977094352
2012-11-28,1,0.004193209709660636,0.004645903302770794,-0.01107455860374061,0.008852649398393968,0.9868668643329818
2012-11-30,1,0.002804987289439198,0.0030033636271437074,-0.007821261608410502,0.012157652472065902,0.9858146689521348
2012-12-04,1,0.0016940046295186402,0.0016961702309163684,-0.005697064260193592,0.013004835710909851,0.9866477256713148
2012-12-06,1,0.0023703836584133262,0.0024612098566915183,-0.007821261608410502,0.01009379326132745,0.9858979142064487
2012-12-10,1,0.0011901597113311358,0.0013115312919436488,-0.014639689426561353,0.01009379326132745,0.9834200467417656
2012-12-12,1,0.003364234444877378,0.0036597487013011938,-0.014639689426561353,0.010388088679221934,0.9830993453707526
2012-12-14,1,0.0025034190517151966,0.002608413747937291,-0.014639689426561353,0.013129476261806692,0.9825382524446434
2012-12-18,0,0.0,0.0,-0.007821261608410502,0.013129476261806692,0.9839318654103755
2012-12-20,0,0.0,0.0,-0.00535376982305301,0.013129476261806692,0.9868754640311013
2012-12-24,0,0.0,0.0,-0.006406469037296475,0.013129476261806692,0.9858123449373919
2012-12-27,-1,-0.0013996567828891506,-0.0008659303006188896,-0.00535376982305301,0.015495676495485129,0.9839507873141116
2012-12-31,1,0.001873256790224804,0.0018898415853390918,-0.005308684538561767,0.013743706193105082,0.9857578428009248
2013-01-03,1,0.0036493457309917862,0.003997522967373895,-0.005308684538561767,0.01742719653538091,0.9833401669297382
2013-01-07,1,0.0029975967023835493,0.003280408820331721,-0.005308684538561767,0.019184653930819417,0.9818429491798423
2013-01-09,1,0.00011515752169104194,0.00027380211815636633,-0.0024174808609748726,0.019184653930819417,0.9839574795867095
2013-01-11,1,0.0025703070147213326,0.0028901368516097534,-0.0024174808609748726,0.021021084742497774,0.9845886215923407
2013-01-15,1,0.002974014180691383,0.0033002151548746934,-0.004080447531293902,0.021021084742497774,0.9841532308569227
2013-01-17,0,0.0,0.0,-0.004080447531293902,0.021021084742497774,0.9838365010469426
2013-01-22,0,0.0,0.0,-0.006051436485314304,0.029342263246289864,0.982036147208524
2013-01-24,0,0.0,0.0,-0.0023696499435213693,0.029342263246289864,0.9831218156679492
2013-01-28,0,0.0,0.0,-0.006032097737252982,0.014538781573543873,0.9854131496391931
2013-01-30,0,0.0,0.0,-0.0061955715555511515,0.025541538090281292,0.9833690627665992
2013-02-01,0,0.0,0.0,-0.0061955715555511515,0.013304778372700514,0.9850344088895941
2013-02-05,0,0.0,0.0,-0.002417694966933652,0.011486128894122441,0.987192445311663
2013-02-07,0,0.0,0.0,-0.0061955715555511515,0.011486128894122441,0.986676344094115
2013-02-11,0,0.0,0.0,-0.0061955715555511515,0.011486128894122441,0.9864849159999057
2013-02-13,0,0.0,0.0,-0.0061955715555511515,0.018054528592634473,0.9860636504000799
2013-02-15,0,0.0,0.0,-0.006427218737666,0.018054528592634473,0.985037524805187
2013-02-20,0,0.0,0.0,-0.0074621440959378085,0.012567295684764985,0.9825372222140895
2013-02-22,0,0.0,0.0,-0.0074621440959378085,0.01796502290411878,0.9817064954140998
2013-02-26,1,0.004729171503165774,0.005080093873598667,-0.010779148387192291,0.01796502290411878,0.9819357102536308
2013-02-28,1,0.003923977057864821,0.004154290072382935,-0.0074621440959378085,0.0156988502936561,0.9838015670853221
2013-03-04,1,0.005416502887937717,0.00589242371261477,-0.010779148387192291,0.013135543084633043,0.983853741650666
2013-03-06,1,0.005622378811991534,0.006098263037224922,-0.016493848270750018,0.012076625726192315,0.9829954161572492
2013-03-08,1,0.005035927796229104,0.005402411081104987,-0.016493848270750018,0.012076625726192315,0.9831751662117916
2013-03-12,0,0.0,0.0,-0.016493848270750018,0.012076625726192315,0.9835911251244001
2013-03-14,0,0.0,0.0,-0.011578871870230323,0.011298825082898626,0.9847940034020978
2013-03-18,0,0.0,0.0,-0.011578871870230323,0.012076625726192315,0.9832193471544578
2013-03-20,0,0.0,0.0,-0.011578871870230323,0.012076625726192315,0.9865958612119567
2013-03-22,0,0.0,0.0,-0.011578871870230323,0.010596447733891387,0.9873772710813161
2013-03-26,0,0.0,0.0,-0.006181914302756419,0.010596447733891387,0.9876141869568261
2013-03-28,0,0.0,0.0,-0.005845851505761184,0.010596447733891387,0.9873691708232443
2013-04-02,0,0.0,0.0,-0.0068650223732209395,0.009246748016861435,0.9882434881363948
2013-04-04,1,0.0001258426040438755,0.0004121077111172163,-0.0068650223732209395,0.010596447733891387,0.9877447100649592
2013-04-08,-1,-0.0013397124374231663,-0.0007865712257375394,-0.0068650223732209395,0.014998264426999955,0.9862208400897212
2013-04-10,0,-0.0003747023758700961,8.726063787364434e-05,-0.0068650223732209395,0.014998264426999955,0.9825776282606125
2013-04-12,0,-0.0002743597626524369,0.0002385422217765533,-0.004624419513188037,0.01923419042853319,0.9811382097341217
2013-04-16,-1,-0.00039016284688586753,-1.6958508661433147e-05,-0.004624419513188037,0.01923419042853319,0.9810961162799506
2013-04-18,-1,-0.0012387760939469726,-0.0007965190058987226,-0.004046431798525498,0.01923419042853319,0.9801637164236116
2013-04-22,1,0.00038381197530081045,0.0005603384340822568,-0.0068650223732209395,0.01923419042853319,0.9802207727369259
2013-04-24,0,0.0,0.0,-0.009256353814292932,0.014998264426999955,0.9805628604234422
2013-04-26,0,0.0,0.0,-0.009256353814292932,0.01976699135336975,0.9788607119059526
2013-04-30,0,0.0,0.0,-0.005727837883740666,0.022125940159612754,0.9783501409044988
2013-05-02,0,0.0,0.0,-0.005727837883740666,0.022125940159612754,0.9787262247471947
2013-05-06,0,0.0,0.0,-0.010446282195682654,0.013077324418515786,0.9801928247343354
2013-05-08,0,0.0,0.0,-0.010446282195682654,0.01206808742855088,0.9841496559429287
2013-05-10,1,0.006597284733001163,0.007318010485556017,-0.012662588683196925,0.011241254734136005,0.9848859356733876
2013-05-14,1,0.00571346113148552,0.0062482714203710085,-0.012708805283626017,0.009037156478689391,0.9844522149958143
2013-05-16,1,0.0033612434115280598,0.0034138490618317967,-0.011759662186443847,0.010015156246186391,0.9852661225227684
2013-05-20,0,0.0,0.0,-0.010446282195682654,0.01553862078125011,0.9838996404962721
2013-05-22,0,0.0,0.0,-0.011759662186443847,0.01553862078125011,0.9829235439089485
2013-05-24,0,0.0,0.0,-0.012708805283626017,0.014354098720029747,0.983995626432576
2013-05-29,1,0.004365573926453156,0.004608045635186908,-0.012708805283626017,0.009696680585239044,0.9841367296143589
2013-05-31,1,0.003288694196086348,0.003331252951616297,-0.011759662186443847,0.01553862078125011,0.9830989756535663
2013-06-04,1,0.0009912764814852199,0.0013515459708867235,-0.009139068320015068,0.01553862078125011,0.983151439034703
2013-06-06,1,0.002418914255102119,0.0025527509457974207,-0.009647929764769709,0.01598667755265204,0.9826007822295965
2013-06-10,1,0.0017607987798363243,0.0019353399169712113,-0.009647929764769709,0.01598667755265204,0.98411590240586
2013-06-12,-1,-0.0013957026650444472,-0.0008245558448719231,-0.007818743231826481,0.016429608157159957,0.985398239300738
2013-06-14,-1,-0.001416438578832058,-0.0008212786616658154,-0.007818743231826481,0.016429608157159957,0.9858832111068234
2013-06-18,1,4.4571370185421356e-05,0.0005074996140724951,-0.008419751979313992,0.014167589978813679,0.9881168158009593
2013-06-20,-1,-0.000810196282933994,-0.0003471568336530903,-0.005927757007772042,0.014675798194242798,0.9887663435549812
2013-06-24,-1,-0.002116260230207473,-0.0014931746309778415,-0.005883242457083164,0.014675798194242798,0.9886639683146121
2013-06-26,-1,-0.0009648086647043344,-0.0006929795949555316,-0.007854820061344728,0.014895093495147206,0.9846860862482993
2013-06-28,1,0.001288016397647928,0.0013599405251366954,-0.009374665918668397,0.014675798194242798,0.9846381811277526
2013-07-02,1,0.0018425855902894197,0.0019818060722137953,-0.009374665918668397,0.014895093495147206,0.9845685838173758
2013-07-05,1,0.0026397077132719604,0.0029355826104619604,-0.008300872555944494,0.014895093495147206,0.9853146321723713
2013-07-09,1,0.0018902447423214384,0.0020522286062427033,-0.005883242457083164,0.014895093495147206,0.9856925965593164
2013-07-11,1,0.002455545123102375,0.0026625186979924156,-0.005883242457083164,0.012217050046045903,0.9860480096271653
2013-07-15,1,0.002649090815344523,0.0029298162702077694,-0.004710844193784506,0.012217050046045903,0.9862478696739171
2013-07-17,1,0.0023143506612499673,0.0025824035281243126,-0.004054772882852918,0.012217050046045903,0.986912474466383
2013-07-19,1,0.0026929528607711555,0.002992175964045205,-0.005342377624427113,0.012412964004565725,0.9864214969773957
2013-07-23,1,0.0017715959817526878,0.0019182625328485682,-0.004054772882852918,0.012412964004565725,0.9867975504543335
2013-07-25,1,0.002919241047751284,0.0032877334646086104,-0.0034898343842860464,0.012412964004565725,0.9891664703085001
2013-07-29,1,0.004166908073184069,0.004735846246906383,-0.0034898343842860464,0.00797692558241455,0.9914222182407445
2013-07-31,1,0.004782317817398107,0.005420898708685827,-0.0038198066717905037,0.006790777811646043,0.9905034975300688
2013-08-02,1,0.005740196605654949,0.006572116529927568,-0.004167705063523165,0.006790777811646043,0.9884236149594144
2013-08-06,1,0.005434548071824112,0.006212982922364167,-0.004167705063523165,0.012412964004565725,0.9875114202290846
2013-08-08,1,0.004879810514275466,0.005508485922514808,-0.007832615824683746,0.009000396977919843,0.9856205302457488
2013-08-12,1,0.0030637105665533666,0.0032382972484432237,-0.007832615824683746,0.013680272195643712,0.9850301419867924
2013-08-14,1,0.0033751679450230196,0.003647809918169927,-0.01128160471149861,0.013680272195643712,0.984162999933682
2013-08-16,1,0.0031925157680971076,0.003410492176602978,-0.01128160471149861,0.011425011897316623,0.9845131496365503
2013-08-20,1,0.002694655864627259,0.0028279550695058547,-0.011301653962306766,0.01386398485086351,0.9829277120071929
2013-08-22,1,0.003375808920481434,0.0035678493804026145,-0.013062471953814471,0.011425011897316623,0.9841474121201358
2013-08-26,1,0.0028344739525497102,0.0029074850300938736,-0.01396782289886812,0.013245841313985929,0.9833048157669265
2013-08-28,1,0.0015096057191035985,0.0016078736179626714,-0.01396782289886812,0.013245841313985929,0.9841699714436808
2013-08-30,1,0.000993232766928336,0.001104914407665377,-0.01374432054505817,0.011425011897316623,0.9853782876742697
2013-09-04,1,0.002075784216910654,0.0020862460757624457,-0.015637818890176656,0.01067598027389425,0.9843131873349591
2013-09-06,-1,-0.00035713009883451435,-1.55186983810784e-05,-0.015637818890176656,0.011425011897316623,0.9847335524812311
2013-09-10,-1,-0.0009966447889115848,-0.0005293574958955237,-0.017637527593108993,0.01067598027389425,0.9826189083344532
2013-09-12,-1,-0.0017083140647081978,-0.0011860341748737525,-0.017637527593108993,0.011591616347471474,0.9812198823362656
2013-09-16,-1,-0.0006580155995297824,-0.00030383922357273333,-0.019804992973719997,0.0067870911370167784,0.9810468210642672
2013-09-18,-1,-0.0010756197158640721,-0.0006688346539864352,-0.019804992973719997,0.005853804066578022,0.9818858965658315
2013-09-20,-1,-0.002133751753706429,-0.0015670891907285677,-0.019804992973719997,0.013349722658493626,0.9813646642597447
2013-09-24,-1,-0.0025545291600473806,-0.0019241228752862258,-0.02013848147612194,0.015009109909665603,0.9802778276961377
2013-09-26,-1,-0.002509256020586772,-0.0019454862325544863,-0.02110164314846164,0.015009109909665603,0.9797124469514796
2013-09-30,-1,-0.001997944610450204,-0.0016729214847486934,-0.02110164314846164,0.015009109909665603,0.9801355490697675
2013-10-02,-1,-0.0011671145241380363,-0.0009751817397499369,-0.02110164314846164,0.015009109909665603,0.9781597971288521
2013-10-04,-1,-0.002060151997492085,-0.0018508494218013884,-0.021785732905033408,0.010813816117815263,0.9787997580254472
2013-10-08,-1,-0.004861704669425728,-0.004292291483706859,-0.020162806207778047,0.010813816117815263,0.9809696520663899
2013-10-10,-1,-0.003872011395795086,-0.0034040672702324135,-0.020162806207778047,0.009714665057212326,0.9826475751835384
2013-10-14,-1,-0.004596167601534889,-0.004043563219292952,-0.017240036942438478,0.011767442154812041,0.9817295220686718
2013-10-16,-1,-0.004453905553161237,-0.003981495437906889,-0.008937434938901216,0.01356511357536407,0.982198603739952
2013-10-18,-1,-0.0032345939563924635,-0.0029314564250880314,-0.01835197162842737,0.01003254040287792,0.9804313477342815
2013-10-22,-1,-0.0028777573169649264,-0.0025812803723329575,-0.018963087190030817,0.007685545359736906,0.9812325210274756
2013-10-24,-1,-0.0036291271326594713,-0.00323235232585411,-0.016299155037437615,0.01003254040287792,0.9811067110434889
2013-10-28,-1,-0.0030093777221464457,-0.0027214217315284757,-0.016299155037437615,0.01003254040287792,0.98063216943047
2013-10-30,-1,-0.002844438024471656,-0.0025436498309253566,-0.016299155037437615,0.007685545359736906,0.9845695097288946
2013-11-01,-1,-0.004255839269402241,-0.003682718983384901,-0.015650192979512385,0.004686835951636548,0.9857210500810558
2013-11-05,-1,-0.004108401861435251,-0.003569778477918337,-0.016055956913357768,0.00810270114723021,0.983603071061655
2013-11-07,-1,-0.002867122302662585,-0.0025198610388578475,-0.016681495351186966,0.01211481040700144,0.9788184657347034
2013-11-11,-1,-0.0028027916445415657,-0.002408865411148424,-0.016681495351186966,0.0025487870335551203,0.9801462108087696
2013-11-13,-1,-0.0029842618852034953,-0.0025430253059579785,-0.017609825275230327,-0.0010626696880770606,0.9791156132009816
2013-11-15,-1,-0.005971361524188886,-0.0051974070940210455,-0.015777639750762167,0.0025487870335551203,0.9809585353746044
2013-11-19,-1,-0.006124697802767529,-0.005392856839192353,-0.014180940665100906,0.007865517548380125,0.9804071404371121
2013-11-21,-1,-0.005595006676991937,-0.00495303101641279,-0.01302333541979864,0.009967124672111376,0.9798629894392763
2013-11-25,-1,-0.005970562534666259,-0.005303040158468358,-0.011604807842295197,0.01631963041159642,0.9794479031347524
2013-11-27,-1,-0.006716923505397645,-0.005955192689914008,-0.008445195161138189,0.01631963041159642,0.9793798245801636
2013-12-02,-1,-0.006367972422039611,-0.0056885428108427736,-0.008421690505620324,0.01631963041159642,0.9794604858410161
2013-12-04,-1,-0.0058463934022002055,-0.005232040612342789,-0.006835842894960238,0.0072413635204408786,0.9820478819073087
2013-12-06,-1,-0.00676690868455865,-0.006033708842748148,-0.006638859624871531,0.0072413635204408786,0.9860064436677789
2013-12-10,-1,-0.006400837082031282,-0.005738997851789726,-0.006835842894960238,0.010216619295655663,0.9847080488321379
2013-12-12,-1,-0.008071104899915506,-0.007201544622606405,-0.006835842894960238,0.0119699034319652,0.9840495989027153
2013-12-16,-1,-0.006249337546466398,-0.005589189853918405,-0.008056819973197871,0.009675297353002089,0.9866814096810813
2013-12-18,-1,-0.004921211957666084,-0.004466761488919044,-0.013509423717712793,0.009675297353002089,0.9833113294378787
2013-12-20,-1,-0.0029795000246779124,-0.002758240838894705,-0.013509423717712793,0.009100302498020726,0.9841621757136704
2013-12-24,-1,-0.0022046420909225322,-0.002102064780105353,-0.013754994528109833,0.004953680018110985,0.9842972031083325
2013-12-27,-1,-0.002798511069878026,-0.0026264403195701315,-0.012166478677132237,0.00970359692436754,0.9831952452286599
2013-12-31,-1,-0.002705187872682512,-0.00256092295296236,-0.008063317150715663,0.014641491434235413,0.981386285510591
2014-01-03,-1,-0.002703800061769426,-0.0025686126404240663,-0.012193912924385073,0.014747397372888249,0.9804055545099463
2014-01-07,-1,-0.0019749137976066457,-0.001929571372431343,-0.012193912924385073,0.01410842068925979,0.9816924801313124
2014-01-09,-1,-0.0020538057883539864,-0.002016924896497179,-0.007656110846560284,0.014747397372888249,0.981162840830631
2014-01-13,-1,-0.002375079307905774,-0.0023010932045974225,-0.0075670017763361614,0.017189279222164483,0.9814147569780184
2014-01-15,-1,-0.002201059863219328,-0.002199130243674149,-0.00731785245920541,0.017242367404242176,0.9814365881980981
2014-01-17,-1,-0.0006968789104470029,-0.0004822721136062333,-0.0024845642101725086,0.017242367404242176,0.9862466040022522
2014-01-22,-1,-0.0007244050973731261,-0.0005506506044062891,-0.005916663774799543,0.017242367404242176,0.9859758257058681
2014-01-24,-1,-0.0012116339156599146,-0.0011090430079845756,-0.0021463270871446994,0.017242367404242176,0.9859092500564267
2014-01-28,1,0.0005280335100164722,0.0009361958698163866,-0.0021463270871446994,0.014765093433580812,0.9881922445417158
2014-01-30,1,0.0010973343028368465,0.0015200846677336929,-0.0021463270871446994,0.01215447726507459,0.9900287656081984
2014-02-03,1,0.0013647164421945004,0.001836347896727103,-0.0021463270871446994,0.012705244070742775,0.9892881385777795
2014-02-05,1,0.0013543301140643426,0.001799868542469338,-0.0021463270871446994,0.012705244070742775,0.9889612005422825
2014-02-07,1,0.002620254018585284,0.00326904921637847,-0.004671184955777516,0.009592800330097922,0.9904428230909456
2014-02-11,1,0.0027772293650070827,0.003442744970822368,-0.0021463270871446994,0.009592800330097922,0.9910198721551312
2014-02-13,1,0.0028232447553505832,0.00347676351543938,-0.003851684150671126,0.00805517554250826,0.99143363196811
2014-02-18,1,0.003570693069819818,0.00432678865745189,-0.003851684150671126,0.00805517554250826,0.9923086351297106
2014-02-20,1,0.0029481613876801895,0.0036003742257481168,-0.0006051725830200857,0.00805517554250826,0.9932023571495853
2014-02-24,1,0.0029036757219993463,0.003524846983309047,-0.004223373135799532,0.006925062663119137,0.9912559735856376
2014-02-26,1,0.003289491458914523,0.003966814439454916,-0.006591193785659413,0.009592800330097922,0.9898187216883502
2014-02-28,1,0.003693005293196466,0.004432004911614391,-0.006591193785659413,0.006959927047886961,0.9897571294676615
2014-03-04,1,0.0028910634603054207,0.0033999655104085084,-0.004223373135799532,0.009789161619549607,0.9905575604249975
2014-03-06,1,0.0037564836370439975,0.004446406602889089,-0.008945591593372274,0.007030217031339893,0.9895083213852593
2014-03-10,1,0.0034001207771407367,0.0040008884515957185,-0.009156258823211279,0.007030217031339893,0.9888306719722201
2014-03-12,1,0.003780257463249512,0.0044059442023408795,-0.009898503750679806,0.005988364733195559,0.9879452690591887
2014-03-14,1,0.0038753093211959366,0.004572574427787973,-0.017356663792897215,0.005988364733195559,0.9859342572318164
2014-03-18,1,0.004313589022789537,0.005074055257680255,-0.017356663792897215,0.007723577043686607,0.9853759222167142
2014-03-20,1,0.004018865568381351,0.004706324339485221,-0.017356663792897215,0.007723577043686607,0.9856341152235906
2014-03-24,1,0.00298528436201182,0.0035426567562046266,-0.009898503750679806,0.010940385247196718,0.9876408845097634
2014-03-26,1,0.0035622452023179726,0.004183227837831302,-0.009156258823211279,0.00866393072097492,0.9888800815268783
2014-03-28,1,0.00328651820226484,0.00384356848762192,-0.009156258823211279,0.00866393072097492,0.9890907267466457
2014-04-01,1,0.00409274772591393,0.004751236718237857,-0.009156258823211279,0.005493905030352876,0.9894923338108127
2014-04-03,1,0.0033591064874712454,0.0039026659982860775,-0.008535771336800252,0.007361842277421269,0.989881893302725
2014-04-07,1,0.0032076048304724852,0.0037734386270821306,-0.00528145743495174,0.008695523140756688,0.989499243924489
2014-04-09,1,0.0028603225927979646,0.0033918871720179863,-0.0023967211374661063,0.009272140807288795,0.9860704187742872
2014-04-11,1,0.0002105383788891644,0.0002279409735196848,-0.0008095400451026865,0.01100789643319861,0.9866373589707881
2014-04-15,1,0.000403460536201296,0.00044245127081699975,-0.0023967211374661063,0.009272140807288795,0.9864620750081045
2014-04-17,1,0.0004292974037984331,0.0004619436865291491,-0.005105419665854092,0.01100789643319861,0.9852919206794508
2014-04-22,1,0.00039334796220679466,0.00046865220581799607,-0.00603368433144503,0.009272140807288795,0.9857842872004141
2014-04-24,-1,-0.00022164379478750208,-3.2295999550526876e-05,-0.00603368433144503,0.009272140807288795,0.9855729475360665
2014-04-28,-1,-0.0004640820587583481,-0.00022868111916135667,-0.00603368433144503,0.009272140807288795,0.9850657070074916
2014-04-30,-1,-0.0002672874381228783,-6.637366206775164e-05,-0.00782260948426909,0.009272140807288795,0.9850957750632665
2014-05-02,-1,-0.000391433620983698,-0.00020185932783520883,-0.00822540741183579,0.009272140807288795,0.9849208723427098
2014-05-06,-1,-0.0012111461165911224,-0.0009115818861217478,-0.00603368433144503,0.009155543898151262,0.9857810633440143
2014-05-08,1,0.00023412566175944126,0.00046257021728221613,-0.00603368433144503,0.006350710608490712,0.9911869942020133
2014-05-12,1,0.0016187395625770077,0.0016423852375413578,-0.00603368433144503,0.006350710608490712,0.9916107172432199
2014-05-14,1,0.0009345672836835677,0.0009956045397019712,-0.005365661644281868,0.006350710608490712,0.9925026548504532
2014-05-16,1,0.0014128649366364618,0.0014452401163899402,-0.004978660438461521,0.006350710608490712,0.9934172330086486
2014-05-20,1,0.0013925619718417716,0.0014319203710077522,-0.0018662996381330942,0.009171835397835984,0.9920257309472593
2014-05-22,1,0.0009338816202937688,0.0009997757772988787,-0.0028311479764416784,0.009171835397835984,0.9920653888134691
2014-05-27,1,0.0009404305743943261,0.0010259006345453747,-0.005607142375664974,0.007197283234895575,0.9915750117739761
2014-05-29,1,0.0002562088328334095,0.00044385808234818816,-0.005607142375664974,0.007197283234895575,0.9916330681897898
2014-06-02,1,0.00012943092010923277,0.00031462390789854604,-0.005607142375664974,0.005272850299514526,0.9923668471960628
2014-06-04,0,-8.37012192556638e-06,0.00022293825286229653,-0.005607142375664974,0.009655847433432903,0.9917191558625881
2014-06-06,-1,-0.0005895267847142085,-0.0002609128584352675,-0.006489854418514065,0.009655847433432903,0.9908293035603122
2014-06-10,-1,-0.000505523969601898,-0.000152339314220595,-0.006901379661221236,0.0072912358903827685,0.9905799006211128
2014-06-12,-1,-0.0003773921840434791,-0.00012784642288925013,-0.006489854418514065,0.009371038902203347,0.9904995889668696
2014-06-16,0,-0.0001607201233179787,6.448017004932879e-05,-0.007460884965876925,0.009371038902203347,0.9899027366704025
2014-06-18,1,0.00043408699002614145,0.0006120881970975507,-0.007460884965876925,0.007210681563195624,0.9905078627355216
2014-06-20,1,0.0008678140327208134,0.0009498785324873067,-0.007460884965876925,0.009371038902203347,0.9889494256019981
2014-06-24,1,0.0007571165899051159,0.0007987490517362062,-0.007460884965876925,0.009371038902203347,0.9869225391718286
2014-06-26,1,0.0006419530931761878,0.0007046912155276544,-0.010211569386138465,0.010973123650119137,0.985308147718197
2014-06-30,1,0.00022805280834147965,0.00034023046801137907,-0.020782155890127177,0.010973123650119137,0.9835172090936315
2014-07-02,1,0.0012259052213016365,0.0012788097712871343,-0.021459084417279832,0.007210681563195624,0.9831456324864307
2014-07-07,1,0.000783337150254185,0.0007844690225827613,-0.021459084417279832,0.010453485156772779,0.9835890057008344
2014-07-09,1,0.00026801738358847365,0.0003248556051634463,-0.012935720157807824,0.010453485156772779,0.9847812771056227
2014-07-11,1,0.000873913968845725,0.0009310994909483833,-0.021459084417279832,0.014487988311604189,0.9825857787454289
2014-07-15,1,0.0006483959568118133,0.0006611243077344951,-0.021459084417279832,0.01600624931039769,0.9821348085003898
2014-07-17,1,0.0012248545438813666,0.0012891823659968657,-0.021459084417279832,0.01600624931039769,0.9822452172777442
2014-07-21,1,0.002097285644799101,0.0022881672830474824,-0.021459084417279832,0.01412315452522984,0.9827666043895424
2014-07-23,1,0.00034718417805394285,0.0003708644739339877,-0.014567249903394076,0.014714100933836325,0.9844025589736894
2014-07-25,1,0.0003032227654780735,0.0003264486944945233,-0.004171731824768148,0.01412315452522984,0.9857775274042794
2014-07-29,-1,-0.0009532040052564405,-0.0008009961842078832,-0.0014958239456305433,0.01412315452522984,0.9869251671665352
2014-07-31,-1,-0.0016382050332609415,-0.0014061449830125214,-0.002002160301997099,0.01412315452522984,0.987747269072833
2014-08-04,-1,-0.000704421554868991,-0.0006150851441655448,-0.002002160301997099,0.014714100933836325,0.9875984688461499
2014-08-06,-1,-0.0008647492333121873,-0.0007394626400335009,-0.004681156801100195,0.014714100933836325,0.9870905872798815
2014-08-08,-1,-0.000550903300018878,-0.0004939653849398874,-0.003173813668396636,0.013931463566260793,0.9890298638967991
2014-08-12,1,0.0004365026724821206,0.0005035411538477727,-0.004681156801100195,0.00985794019849043,0.9898862311855525
2014-08-14,1,0.0005364342723614782,0.0005420850136738597,-0.009863755928113865,0.00935712504652269,0.9898126614807968
2014-08-18,1,0.0002549801036823968,0.00030874035518701614,-0.010286097079310207,0.00935712504652269,0.9896452909104152
2014-08-20,1,0.0008164307808047587,0.0008224078360844469,-0.014028612562547279,0.009027900702148064,0.9888391003392926
2014-08-22,1,0.001563449137431745,0.0017154851584219833,-0.01423164161675632,0.008377003378769347,0.9885269323098749
2014-08-26,1,0.0007630940095714245,0.0007719969923405038,-0.014109286734685934,0.008377003378769347,0.9892000906920098
2014-08-28,0,-2.35707966538348e-05,9.010962122182561e-05,-0.014479415318183536,0.008377003378769347,0.9882736674067305
2014-09-02,1,0.00041567305238375334,0.0004916200993759541,-0.014479415318183536,0.006618533389621866,0.9889243165537596
2014-09-04,-1,-0.0011537378618391339,-0.0008107807453480506,-0.014479415318183536,0.008377003378769347,0.9886733481587447
2014-09-08,-1,-0.0003818325132606315,-0.00016026241183967162,-0.014479415318183536,0.006965484161690742,0.988882287405897
2014-09-10,-1,-0.0006438019378944545,-0.00039189316611270046,-0.014991900647408353,0.007091080365164577,0.9881053063613502
2014-09-12,-1,-0.000988648504403159,-0.000716811624985132,-0.013906934254480531,0.006619357533626094,0.9885810085069474
2014-09-16,-1,-0.00128491924784123,-0.0009744792690422909,-0.014558913560717604,0.00429482820593557,0.9876578882986675
2014-09-18,-1,-0.0012429467106441967,-0.0009368500169983731,-0.014558913560717604,0.00429482820593557,0.9875130022971998
2014-09-22,-1,-0.0017584467882995364,-0.001387677600574879,-0.013969178941980853,0.010163737596378385,0.984781302164654
2014-09-24,-1,-0.0015696790810428506,-0.0012234118487908596,-0.01554228008750734,0.010933457555811734,0.9833240038632225
2014-09-26,-1,-0.0031681351057239637,-0.002620200305310426,-0.013969178941980853,0.014344840528130306,0.9830710344022591
2014-09-30,-1,-0.0008949134349174312,-0.0006438215810973849,-0.013969178941980853,0.01714885963187043,0.9817487554219075
2014-10-02,-1,-0.0006012222683043022,-0.00047240082101320316,-0.013969178941980853,0.02010038871543743,0.979932686963405
2014-10-06,-1,-0.0008398436579262637,-0.0006119521354276569,-0.013969178941980853,0.022357884520591714,0.9791391477794184
2014-10-08,-1,-0.0013579775655210716,-0.0010798580105814402,-0.009286958555090404,0.022357884520591714,0.9804738302303272
2014-10-10,-1,-0.0022359684586855397,-0.0018505097991581216,-0.0021362230577335476,0.022357884520591714,0.9806408204950791
2014-10-14,-1,-0.003963229991803206,-0.003384895870187619,0.001227937287386009,0.022357884520591714,0.9814369126550908
2014-10-16,-1,-0.00371025892877482,-0.0031875508817006647,0.0016535875836449563,0.022357884520591714,0.9828800130833114
2014-10-20,-1,-0.0012234795303117639,-0.0009744702592790713,0.00030085676919817527,0.017847913208077437,0.9879075750065892
2014-10-22,-1,-0.001232538721798559,-0.000972675315326596,0.0012144810325335743,0.018448044654141127,0.9873282987841053
2014-10-24,1,0.0003190887456770836,0.00038148314465487657,0.00030085676919817527,0.01486519159221216,0.9892582905369603
2014-10-28,1,0.0012173954734322984,0.0012560138457518926,0.00030085676919817527,0.0104350793155755,0.9905494300803204
2014-10-30,1,0.003573097090693889,0.003964795139687255,-0.000605089825865269,0.007890033079573238,0.993007566923462
2014-11-03,1,0.00406394527076874,0.004487651820286173,-0.0019930598666121893,0.007890033079573238,0.9928974444464453
2014-11-05,1,0.004234135799465973,0.004674806892689008,-6.0099887703104744e-05,0.009770731986453627,0.9908361368685836
2014-11-07,1,0.004871801011187202,0.0054769030078873834,-0.0019930598666121893,0.009770731986453627,0.99016442984076
2014-11-11,1,0.004846603239451533,0.005441985156591318,-0.007052915441487868,0.009770731986453627,0.9888394419187378
2014-11-13,1,0.004532078887062257,0.005039014612884687,-0.007052915441487868,0.009770731986453627,0.9884233928600544
2014-11-17,1,0.004230653571790549,0.004684502703201572,-0.007052915441487868,0.01093493998576901,0.9883267624351006
2014-11-19,1,0.005475258894163542,0.006061659014438503,-0.007052915441487868,0.01093493998576901,0.988876018310985
2014-11-21,1,0.005759278093812218,0.006418761538801856,-0.005531434625752279,0.01093493998576901,0.9894423242013256
2014-11-25,1,0.005629546335262036,0.006233173712398581,-0.005531434625752279,0.01093493998576901,0.9894019172369758
2014-11-28,1,0.005023293429834315,0.005500907539847733,-0.00599330147595572,0.01093493998576901,0.9890557005104069
2014-12-02,1,0.00475742708253062,0.005215798827221062,-0.005556410708680557,0.008881057247384737,0.9894031490762327
2014-12-04,1,0.0069536045105505415,0.0077022153605250145,-0.006700038802432678,0.0062242175143109,0.9901160104400181
2014-12-08,1,0.006901389757549442,0.007674243434237981,-0.006700038802432678,0.008086540427223598,0.9898504662584606
2014-12-10,1,0.006458888409619242,0.0072424234298982355,-0.005257038513826211,0.009225431626262475,0.9900526212523072
2014-12-12,1,0.00507759201006972,0.005610043279657992,-0.00806652310802198,0.009225431626262475,0.9893301170719053
2014-12-16,1,0.005406523212160572,0.005978437116882616,-0.00806652310802198,0.008748185990134822,0.989040527104471
2014-12-18,1,0.0056126391947719755,0.006090549260557126,-0.00806652310802198,0.0062678485614782245,0.9884475289320276
2014-12-22,1,0.005315178409523362,0.005687971761939695,-0.00806652310802198,0.006798600982887476,0.9877071550641967
2014-12-24,1,0.005380626705781485,0.005786144328430097,-0.00806652310802198,0.009118745839806642,0.9873006952078082
2014-12-29,1,0.00437973641709752,0.00466290034277851,-0.00806652310802198,0.012378930709649663,0.9825980334061962
2014-12-31,1,0.003247401166962735,0.0034008119697231535,-0.008738788618415178,0.01451191376955517,0.9826224714792061
2015-01-05,1,0.0032397716281125292,0.0034513950882869766,-0.008738788618415178,0.01451191376955517,0.9828143308739901
2015-01-07,1,0.003624534456183623,0.003932795247356565,-0.008263350193760916,0.016597286395814766,0.9827624896312693
2015-01-09,1,0.003973814772452132,0.004317143252880398,-0.008738788618415178,0.011051437607664413,0.9824993562737114
2015-01-13,1,0.00338664165764807,0.0036903189851789885,-0.006716207253528082,0.011051437607664413,0.9837993235449555
2015-01-15,1,0.003586734580182555,0.003938650389222085,-0.006716207253528082,0.015575303592782488,0.9836334251013128
2015-01-20,1,0.0038586312438978667,0.004207714083774486,-0.006716207253528082,0.01363215937820576,0.9847428605353691
2015-01-22,1,0.004403349418035821,0.004790349053450233,-0.008165319495429329,0.010252687048562359,0.9850341027153633
2015-01-26,1,0.004573265805508962,0.005019602239269878,-0.008165319495429329,0.010252687048562359,0.9852637466740491
2015-01-28,1,0.006381162854336065,0.007023985925293276,-0.005162976766955281,0.008951131533142132,0.9903006555526735
2015-01-30,1,0.006395979888693958,0.007060525971678519,-0.005162976766955281,0.0071318281145370714,0.9904367136586831
2015-02-03,1,0.005807405897195005,0.006370749428791496,-0.005162976766955281,0.008951131533142132,0.9904870743001218
2015-02-05,1,0.006223976384390685,0.006796935513060326,-0.00850051916809101,0.0071318281145370714,0.9905782154749584
2015-02-09,1,0.004593347431979531,0.0049323476068931895,-0.005162976766955281,0.0071318281145370714,0.9917404276252606
2015-02-11,1,0.004636850960248556,0.00498358827606938,-0.005162976766955281,0.00608364189186099,0.9915261167878076
2015-02-13,1,0.00474257617271341,0.005058456830514365,-0.005162976766955281,0.00608364189186099,0.9921894521605565
2015-02-18,1,0.005076288841176311,0.00543496753057335,-0.00850051916809101,0.005606328560721361,0.9898583236923348
2015-02-20,1,0.004360130361288625,0.004559299121494975,-0.0055051689827172266,0.005926288663205791,0.9899326460822425
2015-02-24,1,0.003767345776885548,0.0038521399355152105,-0.0055051689827172266,0.006787120737852121,0.9897596646739281
2015-02-26,1,0.0034320962547774144,0.003447051651448014,-0.010539588979181282,0.006787120737852121,0.9882939290694719
2015-03-02,1,0.003064409322353144,0.003097251591746658,-0.0038026730789907873,0.010064489709208533,0.9864195723895385
2015-03-04,1,0.0019640015974048035,0.0021689529060930552,-0.012641488608750355,0.010064489709208533,0.9855189612277112
2015-03-06,1,0.0004924393333815931,0.0009204986251486668,-0.009627566450267676,0.010064489709208533,0.9858849283110702
2015-03-10,-1,-0.0019119037139556918,-0.0011074007284480438,-0.0027067692742911596,0.011940617776452089,0.9860454471217727
2015-03-12,-1,-0.002561491659114011,-0.0016487798037995642,-0.009627566450267676,0.012775259610142604,0.9847841574785637
2015-03-16,-1,-0.0011738266622509596,-0.0005251189548635545,-0.010991933011573153,0.012775259610142604,0.9849541990490234
2015-03-18,-1,-0.0016654659979850783,-0.0009499162570610546,-0.009627566450267676,0.011940617776452089,0.9874671543849292
2015-03-20,0,-0.0003640027184344985,0.00015185259848118958,-0.010991933011573153,0.011940617776452089,0.9872389014962688
2015-03-24,1,0.00019834388371795073,0.0006045409488418059,-0.010991933011573153,0.013649381396007859,0.9856080783959331
2015-03-26,0,-5.2081828569131104e-05,0.00030276216729289854,-0.009627566450267676,0.013649381396007859,0.9871464387225226
2015-03-30,1,0.0022072836616967547,0.002261302336396795,-0.010991933011573153,0.007820850838374182,0.9887295295466106
2015-04-01,1,0.00041826284244565824,0.0007043105536020295,-0.009079309947467763,0.007820850838374182,0.9902458190372875
2015-04-06,1,6.076459966737873e-05,0.00039217484933760623,-0.008477558905614297,0.01223199170507384,0.9900383382779223
2015-04-08,1,0.0004237472375170406,0.000714117052257696,-0.008477558905614297,0.013649381396007859,0.9891783407555862
2015-04-10,1,0.0003354144982894504,0.0006246917203003777,-0.008477558905614297,0.015246802254887337,0.9886459522141696
2015-04-14,-1,-0.0007806282647723642,-0.00035014192900494393,-0.004832171141811357,0.015246802254887337,0.9892542022860311
2015-04-16,0,-0.00022553483687662952,6.841354975156916e-05,-0.008477558905614297,0.021517521150520434,0.987740896544166
2015-04-20,0,-0.00021113530402069479,8.754725061154182e-05,-0.004568837230157879,0.015246802254887337,0.9890659796155227
2015-04-22,1,0.0011709873478012644,0.0012977038940245578,-0.008477558905614297,0.007877971385791835,0.9899252250091811
2015-04-24,1,0.0008636464120053046,0.0010402058687638354,-0.008477558905614297,0.008290972246333706,0.9896358808160943
2015-04-28,0,-3.4373091481692424e-05,0.0002676530942142811,-0.0065046009447013355,0.013922809027721608,0.9895325885069403
2015-04-30,1,0.00039280422735970513,0.0005392014274837893,-0.006447367985264027,0.013922809027721608,0.9893887250008352
2015-05-04,1,0.0006328591800774531,0.0007721105858012446,-0.006447367985264027,0.008290972246333706,0.9903005026238173
2015-05-06,1,0.0007251864418123421,0.0009025248097732979,-0.008355285114113573,0.006817027033205214,0.9910244067155891
2015-05-08,1,0.0009993474997093336,0.0011502887086511267,-0.008355285114113573,0.006314164319102412,0.9916495984300162
2015-05-12,1,0.0012299931170521115,0.001347832260101597,-0.008355285114113573,0.006314164319102412,0.9917126326027118
2015-05-14,1,0.001949769252371125,0.0019739527961137072,-0.006447367985264027,0.004781388314787015,0.9931917040058598
2015-05-18,1,0.001991716597991454,0.002035297990998912,-0.008355285114113573,0.004781388314787015,0.9917261016989409
2015-05-20,1,0.0013501388310021717,0.0013909201796579755,-0.003570420642332079,0.008457483751401098,0.9910155310425214
2015-05-22,1,0.0010767877987849564,0.0011725303958154158,-0.0023748673157918416,0.010848663690779935,0.9905490981019873
2015-05-27,1,0.0012372431556869653,0.0013410963239187073,-0.0024655070031403326,0.010848663690779935,0.9908284359355661
2015-05-29,1,0.00020199079484585047,0.0004490376706635025,0.0005695625484481284,0.010848663690779935,0.9911126928374518
2015-06-02,1,0.00011323690204678651,0.00036666840859251215,-0.0012999241935918822,0.010848663690779935,0.9900029731177497
2015-06-04,0,-4.413616475231093e-05,0.00021216510586889942,-0.001185608406935287,0.012167827563544063,0.989569475743701
2015-06-08,-1,-0.0012113955364074168,-0.0007798193847587819,0.0005695625484481284,0.013319180848053825,0.9887137317713787
2015-06-10,-1,-0.0009252838328540646,-0.0005353272524239697,-0.001185608406935287,0.01762903521056825,0.9879531906061043
2015-06-12,-1,-0.0006141740851723851,-0.00029277471854648705,-0.001185608406935287,0.02114861550525224,0.9861545140336381
2015-06-16,0,-0.00021386589783782897,2.1185468131061647e-05,-0.001185608406935287,0.020732422683564712,0.9871698283563848
2015-06-18,1,0.0007155954723996555,0.0008459888999707832,-0.001185608406935287,0.017490304270005745,0.9886718778842402
2015-06-22,1,0.0026634639832437937,0.002865621560257906,-0.00305544737845347,0.018574097728363603,0.9886136495761
2015-06-24,1,0.0030599334003168143,0.003314426913944392,-0.010919750097320102,0.018574097728363603,0.9879962153604869
2015-06-26,1,0.0027483042476336315,0.00294025636364362,-0.01325108849105374,0.018574097728363603,0.9872006809412024
2015-06-30,1,0.0025687911877170723,0.0027965461261141946,-0.010919750097320102,0.018574097728363603,0.9880103095062703
2015-07-02,1,0.002320881993202256,0.0024392139830651397,-0.01096365469171141,0.01059948217889208,0.9884607672261259
2015-07-07,1,0.0032127618918980022,0.003464352292396947,-0.01096365469171141,0.009031631062644268,0.9889261577928397
2015-07-09,1,0.003752972889303498,0.00411359150933076,-0.011480455052548664,0.009031631062644268,0.9876463508214989
2015-07-13,1,0.005146759371305792,0.005723284267900632,-0.011480455052548664,0.007175049525432298,0.9884489802078025
2015-07-15,1,0.004458934546018382,0.004938690224656718,-0.010329538951151743,0.007175049525432298,0.9890174501085017
2015-07-17,1,0.00461048352685681,0.0051001396106889595,-0.010329538951151743,0.007049215938108605,0.9880914138498438
2015-07-21,1,0.004546403479548055,0.005019466297196996,-0.009165689004130326,0.007049215938108605,0.9892171346083826
2015-07-23,1,0.0035627758210404203,0.003883293031803534,-0.009180323868927427,0.007049215938108605,0.986564655584638
2015-07-27,1,0.003524063363615037,0.003792997353291654,-0.011605260512556795,0.0060052818246865034,0.9843185777315785
2015-07-29,1,0.0030274050888622517,0.003216998682380182,-0.011605260512556795,0.0036052658009306454,0.982578777700321
2015-07-31,1,0.0020818378229480244,0.002092112639875221,-0.01041214083594117,0.01129929769394648,0.9826987341864539
2015-08-04,1,0.0019569763602039734,0.0019766746047095948,-0.026419041078141102,0.009028215010260745,0.9802666997978148
2015-08-06,1,0.002804806243815161,0.002922549324318032,-0.026419041078141102,0.011396659306397848,0.981462497893128
2015-08-10,1,0.002444891614062318,0.0024996208104288782,-0.026419041078141102,0.01215358532463614,0.980639944572495
2015-08-12,1,0.0025968308547445434,0.002713782070892792,-0.026419041078141102,0.012811372597331026,0.9798689284504639
2015-08-14,1,0.0021682727227689737,0.002241432565871353,-0.026419041078141102,0.012811372597331026,0.9801813504497884
2015-08-18,1,0.0017132506388695787,0.0017605603983792488,-0.026419041078141102,0.0143899620289012,0.979471119786927
2015-08-20,-1,-0.00024729774876523964,-6.592901778161044e-05,-0.011366189784494753,0.0143899620289012,0.9822130857479577
2015-08-24,-1,-0.0031220765890057544,-0.0025453141564741417,-0.008722704221969902,0.0143899620289012,0.9828073943899441
2015-08-26,-1,-0.0018985157159441643,-0.0014583552091124768,-0.00964618612186411,0.013269909617908204,0.984389328329705
2015-08-28,-1,-0.0009189549881283068,-0.0006206134691433024,-0.011366189784494753,0.013269909617908204,0.9832197718538692
2015-09-01,-1,-0.003167041849901406,-0.002607866732479135,-0.008434444020726918,0.0143899620289012,0.9842695266176222
2015-09-03,-1,-0.0025412236200705873,-0.0020157403294312386,-0.00964618612186411,0.011650315500143593,0.9857769270262792
2015-09-08,-1,-0.0014337773497551996,-0.0010306837714233296,-0.010524590805786653,0.011650315500143593,0.9863750208218348
2015-09-10,-1,-0.0013804690447526888,-0.000988257421265811,-0.009659810202057698,0.01112626803855241,0.9871338417879093
2015-09-14,-1,-0.0008954976808307572,-0.0006240512567718424,-0.010811643261151343,0.011650315500143593,0.9846911607654246
2015-09-16,0,-0.00014832988812379087,4.364662234720995e-05,-0.010811643261151343,0.01112626803855241,0.9841980428188529
2015-09-18,-1,-0.0006928198544568208,-0.00040775849006561887,-0.009659810202057698,0.010622616464419558,0.984674392070204
2015-09-22,-1,-0.0018918251287056863,-0.0014319644693479687,-0.008428076149060954,0.010622616464419558,0.9858537432033141
2015-09-24,-1,-0.0015891519263990588,-0.0011938710632861571,-0.00722061368249915,0.011956137701278105,0.9852082624449865
2015-09-28,-1,-0.002426920225713989,-0.001965479004605627,-0.00722061368249915,0.011956137701278105,0.9868915788771874
2015-09-30,-1,-0.001574152952678136,-0.0012317235580683156,-0.006988236528832632,0.016183688045553438,0.9867177092585934
2015-10-02,-1,-0.0021355834094250433,-0.001740488993557739,-0.00727080317338686,0.016183688045553438,0.9844965824584078
2015-10-06,-1,-0.001982377088102983,-0.0016193736441570334,-0.005169739757628306,0.011836094129243937,0.9859981325331745
2015-10-08,-1,-0.002426397114539026,-0.0020126944146153444,-0.0018156558673265964,0.017029798144889162,0.9844078619256664
2015-10-12,-1,-0.0015890189595190497,-0.001240851180824394,-0.004634113486551727,0.011836094129243937,0.9857110841198328
2015-10-14,-1,-0.00030951832659369236,-0.0001146542814042191,-0.004634113486551727,0.00867284646605869,0.9873127826233704
2015-10-16,1,0.0005642912140486273,0.0006262819766158058,-0.009739272306853747,0.007105004775840144,0.9865565175522172
2015-10-20,1,0.00033614792218017583,0.00046788027026270815,-0.013382665036919355,0.006671039308902619,0.9855967931068977
2015-10-22,1,0.0013966280392529538,0.0014049651879951717,-0.013382665036919355,0.005482328675151075,0.9848182979623082
2015-10-26,1,0.0008203997277963183,0.0009146473544177979,-0.020592274494027923,0.00899262870153246,0.9824921993589497
2015-10-28,1,0.0016417194232709517,0.0016802160494820213,-0.02318824377787471,0.005445728388501185,0.9808546518574905
2015-10-30,-1,-0.0007342873986467988,-0.00043586017548888107,-0.020592274494027923,0.005445728388501185,0.9831949936181792
2015-11-03,-1,-0.0009479800144781586,-0.0006245263166757426,-0.020592274494027923,0.010856776316947238,0.9821170062629446
2015-11-05,1,6.623300900593051e-05,0.00027275855104345686,-0.02318824377787471,0.010856776316947238,0.9800726608841158
2015-11-09,-1,-0.0008961458728896384,-0.0006450935325775408,-0.01804343510968206,0.010856776316947238,0.9815738339337607
2015-11-11,-1,-0.00033403717615310065,-0.00018361773918492796,-0.025321422688529608,0.010856776316947238,0.9788888561556163
2015-11-13,-1,-0.0008353510860680691,-0.0006534489804914741,-0.018664827348773703,0.014006351901156705,0.9778567913244087
2015-11-17,-1,-0.0019343986916469272,-0.0016199058191989713,-0.012004960846955166,0.02327258839581604,0.9770768616174937
2015-11-19,-1,-0.0006575398381075022,-0.00045693378157010136,-0.0188269868801225,0.014006351901156705,0.9773995602539058
2015-11-23,-1,-0.001431367735930569,-0.0011761146334192199,-0.013534135529924706,0.012137965404937863,0.9801669841111088
2015-11-25,-1,-0.0003756155729228209,-0.000301727175678114,-0.01124148269145337,0.010772380133904276,0.9826576319591707
2015-11-30,-1,-0.0011857797176317547,-0.0010344134326066492,-0.007352118981738845,0.010772380133904276,0.9830527163618976
2015-12-02,1,0.0006398747095384266,0.0008050535397048161,-0.01124148269145337,0.006753901415435103,0.9835927562150212
2015-12-04,1,0.0009937529729995866,0.0011758934318466209,-0.012916113220341635,0.00538595844926301,0.9845562450424844
2015-12-08,1,0.0015839164932898461,0.0018743745643420723,-0.017951408868489706,0.004697066359742857,0.9827550450237297
2015-12-10,-1,-0.0006435298309250269,-0.0006387231628236631,-0.014401637646836059,0.009835894057270924,0.985018284183655
2015-12-14,1,0.0006769401401926277,0.0008028858787608218,-0.017951408868489706,0.006314288990731314,0.9845338422362118
2015-12-16,1,0.0017521281810919521,0.00200173768657103,-0.017951408868489706,0.009835894057270924,0.9845829584024129
2015-12-18,1,0.000446004376746686,0.0005524366696391819,-0.014401637646836059,0.01232205386371327,0.9854360197717752
2015-12-22,1,0.0003478439984162221,0.00042288922859949466,-0.014401637646836059,0.017169560222581932,0.9840848111495865
2015-12-24,1,0.00036380634185250154,0.0004490079349791247,-0.014401637646836059,0.017169560222581932,0.9836292326709193
2015-12-29,1,0.0014797811278892876,0.0017831340376017824,-0.017891479451095378,0.017169560222581932,0.9833255961628721
2015-12-31,1,0.0009109463604211387,0.0011375224287527722,-0.018978522282623436,0.017169560222581932,0.980130475579112
2016-01-05,-1,-0.0010379304963623497,-0.001006168176529514,-0.018978522282623436,0.017169560222581932,0.9790318736215993
2016-01-07,-1,-0.0027163305537769855,-0.002470793665036045,-0.017711834661680418,0.017169560222581932,0.9774951973622563
2016-01-11,-1,-0.0011561422419946541,-0.0011270620409247582,-0.017711834661680418,0.017974385490763693,0.9765139037272045
2016-01-13,-1,-0.003484023716841286,-0.0030229431239224003,-0.015399376597855882,0.015419994085044377,0.9779677361243321
2016-01-15,-1,-0.003355941512397584,-0.0027903884526754115,-0.015399376597855882,0.013454887462839703,0.9790801644320758
2016-01-20,-1,-0.0019573732432181224,-0.001632754274303361,-0.017711834661680418,0.012652867451552328,0.9788218223104858
2016-01-22,1,0.00011645657466496142,0.0001545025366622661,-0.017711834661680418,0.013454887462839703,0.9766855292967209
2016-01-26,-1,-0.0007744411303756653,-0.0004928206988128841,-0.020413884800440058,0.015635130051718786,0.9751815347631426
2016-01-28,-1,-0.0006164948143010315,-0.00042159216292506584,-0.019207126596891364,0.01888924262840603,0.9749604467270957
2016-02-01,-1,-0.0030226068015114143,-0.002630868765263752,-0.015399376597855882,0.01970410935320837,0.9775490283357416
2016-02-03,-1,-0.0058853177204215455,-0.005170465105566745,-0.013736450321904807,0.01970410935320837,0.9785492660232618
2016-02-05,-1,-0.00881232770937188,-0.007750125087272677,-0.007541790805397368,0.01970410935320837,0.9797912843002834
2016-02-09,-1,-0.005766897470679669,-0.005124201000603203,-0.010689777977419199,0.018487834620139768,0.9826979949246998
2016-02-11,-1,-0.005691269979431454,-0.005058231649930047,-0.007404822422742218,0.018487834620139768,0.9829111000100996
2016-02-16,-1,-0.005159112739303575,-0.0045541538236995045,-0.007404822422742218,0.0162823826673748,0.9830847839862265
2016-02-18,-1,-0.0057068771275225125,-0.005046894933074361,-0.007404822422742218,0.0162823826673748,0.9833738165489707
2016-02-22,-1,-0.002862229429322669,-0.0024682658826849255,-0.007404822422742218,0.014577494131346505,0.987912937603801
2016-02-24,-1,-0.002330736275962547,-0.0020410410097239312,-0.006073653858460842,0.014577494131346505,0.9894378297784026
2016-02-26,-1,-0.0019228915636570914,-0.0016423501930150951,-0.007404822422742218,0.01057530333849584,0.9898393119697243
2016-03-01,-1,-0.0011931252514776202,-0.0009998980332864673,-0.007404822422742218,0.01057530333849584,0.9894558676484314
2016-03-03,-1,-0.001968477903691951,-0.0016600435919885297,-0.006073653858460842,0.008258523389845167,0.9906747356733666
2016-03-07,-1,-0.0018728136672720936,-0.0016504334799334434,-0.0055360457472650865,0.008258523389845167,0.9912000616971425
2016-03-09,-1,-0.0006201538527784799,-0.0006186679031281685,-0.0055360457472650865,0.005911193721698238,0.990572196686856
2016-03-11,1,0.00014324097980181286,0.0002872387966247884,-0.0055360457472650865,0.00576778384652687,0.9905722544106432
2016-03-15,1,0.0011518926666056026,0.0014523526713912714,-0.0055360457472650865,0.00576778384652687,0.9897957403335417
2016-03-17,1,0.0012707518954119651,0.0016635498660206,-0.0047410954270614755,0.005911193721698238,0.9895930294552672
2016-03-21,1,0.0008432334260858338,0.0011694325536053367,-0.0045849652625137745,0.005911193721698238,0.989681138348046
2016-03-23,1,0.0024089932616937044,0.0030329785705646623,-0.0048308678188724264,0.005782783889363775,0.9900332431884776
2016-03-28,1,0.0010601912135578496,0.0013690275683809106,-0.004710005296651778,0.005760033935794762,0.9906460653404809
2016-03-30,1,0.0021491552617480224,0.0025993843888268897,-0.005193650141184418,0.0031808250406707836,0.989400048806046
2016-04-01,1,0.002580183328581674,0.0031624078569449723,-0.007931439337784542,0.0031808250406707836,0.9884092633878291
2016-04-05,1,0.0014913623692716037,0.0018310717978919206,-0.0100453016130842,0.005080520075065565,0.9879015633180838
2016-04-07,1,0.0007740035139940752,0.0010336156039926535,-0.007931439337784542,0.005080520075065565,0.9893385936010228
2016-04-11,1,2.1704917781525035e-07,0.0001155906081989266,-0.006304524406021142,0.006631034406745635,0.988726115314911
2016-04-13,1,0.0005071005990448396,0.0006296195027264122,-0.006304524406021142,0.006631034406745635,0.985378454677024
2016-04-15,1,0.002429586055996053,0.0028963000794561523,-0.006304524406021142,0.006631034406745635,0.9854938571621797
2016-04-19,1,0.0015636642920678775,0.0018547724639060787,-0.007931439337784542,0.011006952406743726,0.9844075840811689
2016-04-21,1,0.0017240410167715828,0.0020546707514190604,-0.0100453016130842,0.011006952406743726,0.9837246166897711
2016-04-25,1,0.0011550194252349505,0.0013590457160133115,-0.0100453016130842,0.011006952406743726,0.9837496577661826
2016-04-27,1,0.0002588885721271727,0.0003932115483386663,-0.007818939686116714,0.01733193158437207,0.984086528387411
2016-04-29,-1,-0.0001819853237933185,-6.765158068286459e-05,-0.005339890986950455,0.01733193158437207,0.9846674092702385
2016-05-03,1,0.0002209117313485329,0.0004111934806401399,-0.003742774795566965,0.015123701012306541,0.985516653054785
2016-05-05,-1,-0.0009117012059641112,-0.0008280797223078718,-0.0034811499985084675,0.015123701012306541,0.9854463047186187
2016-05-09,1,0.001354715130783414,0.0016629901630316616,-0.0034811499985084675,0.010919621279311984,0.9871472458880265
2016-05-11,1,0.005404535193677352,0.006320640950597521,-0.005339890986950455,0.008375314610350652,0.9899946800279099
2016-05-13,1,0.005420005302017992,0.006247572652594787,-0.009627067082963119,0.0036651169496708775,0.9890223965102642
2016-05-17,1,0.005338871972445461,0.006154835136889135,-0.006243550987017384,0.0026442265557379495,0.9904214625994474
2016-05-19,1,0.004498697796867878,0.005197398370807592,-0.005339890986950455,0.004792425783934865,0.9917888879493316
2016-05-23,1,0.004566006263873323,0.005298659473241185,-0.0035149268405822217,0.00794133151364177,0.9920627377614153
2016-05-25,1,0.004942037388717093,0.005687018649369324,-0.003754632652067938,0.00794133151364177,0.9923181080823903
2016-05-27,1,0.004023592193437545,0.004529170943844571,-0.010191199320213284,0.004878660331842987,0.9894727371774957
2016-06-01,1,0.0036083019381722885,0.003974562150867913,-0.010191199320213284,0.008634018254075018,0.9892846351335268
2016-06-03,1,0.0038118682496567874,0.004253378391981508,-0.010191199320213284,0.010102274071714209,0.9885306283263336
2016-06-07,1,0.0037381022953007375,0.0041410297327912765,-0.010191199320213284,0.010750995652328343,0.9884077843943694
2016-06-09,1,0.003833097214934458,0.004324796919300473,-0.007150712500557922,0.012246449745831313,0.9883302539443998
2016-06-13,1,0.003146675839823418,0.003567103278760835,-0.0016088588905355176,0.012567040485181988,0.9895778779037377
2016-06-15,1,0.0038173437522260757,0.004397634334551437,-0.0027727547445854676,0.012567040485181988,0.9885689305208748
2016-06-17,1,0.004183949290404249,0.004852387943604073,-0.0018774239266872502,0.012567040485181988,0.9889413947091106
2016-06-21,1,0.004327107867204876,0.0049835087154198885,-0.0044647200468632695,0.012567040485181988,0.9878942880976255
2016-06-23,1,0.003079249755704397,0.0034039575915037965,-0.006416517475956415,0.011871610375209458,0.9875820953308012
2016-06-27,-1,-0.0006835422201480499,-0.00039511009851394077,-0.0009761406573876235,0.011871610375209458,0.9894686181606128
2016-06-29,-1,-0.0012404246069831865,-0.0007721503486338187,-0.0023639546142727778,0.008400778531160181,0.9907214596273145
2016-07-01,1,0.0004897602853416001,0.0006687006920121071,-0.0023639546142727778,0.006021752503855175,0.9920832573777748
2016-07-06,1,0.0006107976096010533,0.0007903285889369257,-0.0023639546142727778,0.006021752503855175,0.9914081916853158
2016-07-08,1,0.0014168834196261924,0.0014751396160955698,-0.0033857229956546983,0.006021752503855175,0.9912867105076321
2016-07-12,1,0.0013310909077519412,0.0014359720598324647,-0.005600098338778952,0.005528602517929583,0.9911046241336683
2016-07-14,1,0.0019444221872688648,0.002055523040583073,-0.005600098338778952,0.004427576085555595,0.9917570479808855
2016-07-18,1,0.0017434653745773679,0.0018276591666169359,-0.005831043979214223,0.004913252374680223,0.9906371414756864
2016-07-20,1,0.0013334427298285086,0.0013931805954192082,-0.005831043979214223,0.0087513965204611,0.9899759660081103
2016-07-22,1,0.0013446586000867866,0.0014266785235703418,-0.005164021311104598,0.011016167961502333,0.9903654483666728
2016-07-26,1,0.0012424346384647806,0.0012904526482996205,-0.005164021311104598,0.011339109302937887,0.9901088825716731
2016-07-28,1,0.0005579301644036241,0.0006271960894255953,-0.005831043979214223,0.011339109302937887,0.9900191255289384
2016-08-01,1,0.000634497163369986,0.0006920615591160424,-0.005831043979214223,0.011339109302937887,0.9898011325225634
2016-08-03,1,0.0014050321072284011,0.0014494335961809034,-0.006373097055017959,0.009739639543583598,0.9904894701867236
2016-08-05,1,0.0019544847523345534,0.0020995953718086495,-0.006373097055017959,0.009739639543583598,0.9905418847955896
2016-08-09,1,0.001195694520465782,0.0012063871992218055,-0.005575651310141114,0.009739639543583598,0.9904718293962828
2016-08-11,1,0.0004835295435889733,0.0005801609664885927,-0.0063707445670738196,0.009739639543583598,0.9892530196873438
2016-08-15,1,0.0012864120879964801,0.0013057520259316584,-0.0063707445670738196,0.009739639543583598,0.9902666030162256
2016-08-17,1,0.0011353316270513742,0.0011508282528749024,-0.0046563784682969525,0.009739639543583598,0.9906474462918468
2016-08-19,1,0.0020985791338698186,0.0022486311648889407,-0.005847556189326524,0.00531559958719535,0.9911699410940044
2016-08-23,1,0.00200973928249469,0.002128801921164409,-0.005847556189326524,0.005130400155759663,0.9916222291077357
2016-08-25,1,0.0014686400491443132,0.0014967478507267316,-0.004566329069424177,0.005969069407207142,0.9914114999250475
2016-08-29,1,0.0008276578343731861,0.0009150318020528731,-0.005847556189326524,0.00796135614819044,0.9903858437400581
2016-08-31,1,0.0002792641536480205,0.00045581270328346347,-0.006100596370455493,0.00796135614819044,0.9902852444801794
2016-09-02,1,0.0013529163085101896,0.0013706466141655302,-0.006100596370455493,0.007405757853883378,0.9906547040570417
2016-09-07,1,0.0014198283998727123,0.0014542414307650168,-0.004134983329071733,0.007405757853883378,0.9914073278398584
2016-09-09,1,9.008092720445599e-06,0.00016346213384963012,-0.004134983329071733,0.007405757853883378,0.9924727830945169
2016-09-13,1,0.00022166893380668666,0.0003570024718022781,-0.006494594398044815,0.007112035438119378,0.991695126815001
2016-09-15,1,0.0009245897938431751,0.0009894492076939578,-0.0090407588782393,0.0034394545329587797,0.9920484145448704
2016-09-19,0,-0.00023771710288416053,2.1383765256217913e-05,-0.0090407588782393,0.006875800537032895,0.9921265411683926
2016-09-21,-1,-0.0006561048705035681,-0.0003085295415440149,-0.009160368045088864,0.0103878271219037,0.9909250750078723
2016-09-23,-1,-0.0005619182031791009,-0.000221977021925866,-0.009160368045088864,0.005719000676574506,0.9913730271355725
2016-09-27,-1,-0.0004546581941502791,-0.00011774109589127049,-0.00951632856904653,0.005719000676574506,0.9913288258827296
2016-09-29,-1,-0.00038619790320431236,-0.00010830022143867326,-0.00951632856904653,0.005719000676574506,0.9915184547355541
2016-10-03,1,0.0016070954429291124,0.0017004379026850063,-0.010736122200457502,0.002377489862665319,0.9890663306411946
2016-10-05,1,0.0018777403923016375,0.002045406643419712,-0.010736122200457502,0.005719000676574506,0.9878895632703368
2016-10-07,1,0.0012018776651111064,0.0012759539183950885,-0.010483080361963968,0.0103878271219037,0.9881193934385664
2016-10-11,1,0.0005538201761650407,0.0006003890687607835,-0.00951632856904653,0.010293825670427742,0.9888534219476444
2016-10-13,-1,-0.0002397810084036906,-0.00010019528633872896,-0.012373878030962255,0.010293825670427742,0.9870649873318547
2016-10-17,1,0.0002939617800407024,0.00034797120974272523,-0.01395628947336315,0.009126244522584594,0.9865360730260786
2016-10-19,1,0.000548343481855581,0.00055984848226107,-0.01223294991312339,0.011901860475810315,0.9867203254068443
2016-10-21,1,0.0007117704200982369,0.0007376297515983197,-0.01223294991312339,0.011901860475810315,0.9862025533468346
2016-10-25,1,0.0006098062474034814,0.0006128685641943632,-0.00985758660021235,0.010196314086103254,0.9868158439081882
2016-10-27,1,0.0006435811036635793,0.00066781809123275,-0.00985758660021235,0.011937582873298094,0.9860043850561604
2016-10-31,-1,-0.001268491149403176,-0.0010459528567271655,-0.008099538927164805,0.015750237300159807,0.9867607518092788
2016-11-02,-1,-0.0016210268056384958,-0.0013116299284381704,-0.010385057081012648,0.011937582873298094,0.9846500733740543
2016-11-04,-1,-0.0012537672870765989,-0.0009832986270563852,-0.010385057081012648,0.011937582873298094,0.9843324661593585
2016-11-08,-1,-0.0007757759358472528,-0.000561006392655454,-0.010385057081012648,0.014434402126302478,0.9840886921720066
2016-11-10,-1,-0.002590873530926297,-0.002183358397641227,-0.007594632321391154,0.014434402126302478,0.9862120083080721
2016-11-14,-1,-0.0027868649492440974,-0.0023628273839789993,-0.006759731599711785,0.015750237300159807,0.9857731049506145
2016-11-16,-1,-0.0031384300413162935,-0.0025575040307146313,-0.006759731599711785,0.012865720697981793,0.9868623405852152
2016-11-18,-1,-0.002493706174965393,-0.002039791340055527,-0.006759731599711785,0.012865720697981793,0.9866575642154488
2016-11-22,-1,-0.0024877253036945752,-0.002085574438088343,-0.003090725000814726,0.012865720697981793,0.9868185384185046
2016-11-25,-1,-0.0015930429911130085,-0.0013145910128916885,-0.003025045165776334,0.011389459371664287,0.9873939563521793
2016-11-29,-1,-0.00015551696298160225,-7.837994877535223e-05,-0.0035078032880853744,0.010285158652869098,0.9890098189253477
2016-12-01,-1,-0.0025308504165024587,-0.0022051392465644746,-0.0023198762378397676,0.010285158652869098,0.9908160941124866
2016-12-05,-1,-0.001963290609145536,-0.0016724334775869887,-0.0023198762378397676,0.010285158652869098,0.9911005319078015
2016-12-07,-1,-0.0016433472155663298,-0.0013952121450509145,-0.0023198762378397676,0.006413538087194645,0.9912087914891599
2016-12-09,-1,-0.0017463471647674597,-0.001449330612951162,-0.003223436253097549,0.005113269504647713,0.9915578139992114
2016-12-13,-1,-0.000987462978144918,-0.0007673524658716548,-0.003223436253097549,0.005113269504647713,0.9925946910301919
2016-12-15,-1,-0.0005644073293024704,-0.00040351123883369133,-0.003223436253097549,0.005113269504647713,0.9926976202140435
2016-12-19,-1,-0.0017138227260359293,-0.0014039682870625148,-0.0020812390451582998,0.005113269504647713,0.9933596497227586
2016-12-21,-1,-0.001597743072390326,-0.001307812077892042,-0.0030553232121936368,0.005113269504647713,0.9934895543450989
2016-12-23,-1,-0.0005991088399680074,-0.0004708784820727583,-0.0030553232121936368,0.005739212597593498,0.9931386193313907
2016-12-28,-1,-0.0004367650752698319,-0.0003535705150105534,-0.0028015835125823883,0.007476675983119097,0.9927511154607428
2016-12-30,-1,-0.001538566413257024,-0.0013002636284104871,-0.002145902940600006,0.007959398668323051,0.992830627763912
2017-01-04,-1,-0.000914058522627098,-0.0007285460803971885,-0.0035966719792810565,0.007476675983119097,0.9937749202158367
2017-01-06,-1,-0.0012527860639340261,-0.0010640480213615507,-0.0035966719792810565,0.007476675983119097,0.9939153985369933
2017-01-10,-1,-0.0012444545884706436,-0.0010638829899969767,-0.0036484804564035364,0.007959398668323051,0.9934183993467877
2017-01-12,-1,-0.0003153559810617808,-0.000288865042540528,-0.0036484804564035364,0.008703685833063112,0.9910947016333703
2017-01-17,1,0.00011431072992010596,0.00015525299513791563,-0.0036484804564035364,0.008248742523900275,0.9914478087540558
2017-01-19,1,2.3526083732147905e-05,3.4020331206455684e-05,-0.0036484804564035364,0.009360210053101,0.9905626571192532
2017-01-23,-1,-0.000206984379741917,-0.00018868739808941372,-0.004956171295659708,0.009360210053101,0.9903883775681256
2017-01-25,1,0.0004239287412260426,0.0004796050071786643,-0.005341415910727177,0.008248742523900275,0.990925477246945
2017-01-27,1,0.001616622526448182,0.0018863875649650832,-0.005341415910727177,0.006030817753024073,0.9915445241332665
2017-01-31,1,0.0015586677515167732,0.0018026337212182324,-0.005786242007614915,0.006102640533820987,0.991153352595177
2017-02-02,1,0.0005178637207128604,0.0005503579091680054,-0.00587549972774622,0.006102640533820987,0.9911706363948153
2017-02-06,1,0.000318961857553492,0.00035053231106589827,-0.0036958363226136173,0.009676146645915035,0.9913372891323494
2017-02-08,1,0.0008410742050929495,0.0010044616093164926,-0.002123851517758047,0.009273602233875905,0.9918850315051381
2017-02-10,1,0.0025908318486574156,0.002969938575342392,-0.002123851517758047,0.008135883281629348,0.9937226553084323
2017-02-14,1,0.0026465711255329763,0.0030482792104482097,-0.0014090558670530255,0.008135883281629348,0.9938290601085278
2017-02-16,1,0.0035078445425113366,0.00404154727098818,-0.00587549972774622,0.007014879497641354,0.9934249944613252
2017-02-21,1,0.0035356288782538636,0.004094250843793451,-0.006001033937868556,0.007014879497641354,0.9929464503684455
2017-02-23,1,0.0029540888097492456,0.003411525803688086,-0.005036452554817975,0.007014879497641354,0.993657552669005
2017-02-27,1,0.0032924549434893654,0.003821188134218953,-0.005036452554817975,0.008033408170227314,0.9933498302539714
2017-03-01,1,0.0035921099965823076,0.004160646789970298,-0.003969911328276715,0.007967634766252167,0.9939373886684854
2017-03-03,1,0.002977272153756632,0.003422808178235705,-0.003969911328276715,0.007967634766252167,0.9940176675861495
2017-03-07,1,0.0033086862569180666,0.003786406019207665,-0.004634843801211139,0.007014879497641354,0.9942242381669486
2017-03-09,1,0.0031225169193184084,0.0035315567552660293,-0.0052903600559049205,0.005687499252346538,0.9938715929246091
2017-03-13,1,0.003804195496905691,0.004313579681241744,-0.0052903600559049205,0.002372886965404474,0.9938356106511357
2017-03-15,1,0.00410614663757448,0.004663137607048182,-0.0052903600559049205,0.003191136387504154,0.9935229296192456
2017-03-17,1,0.003312777841923042,0.0037636766982354153,-0.004634843801211139,0.003191136387504154,0.9946255316139007
2017-03-21,1,0.0027473112200820586,0.003122417065618559,-0.0020220324991787574,0.004060631405720118,0.9956082734104243
2017-03-23,1,0.002711596837501766,0.0030733792624557583,-0.0010074295905743574,0.0060107161531023755,0.9949158691713779
2017-03-27,1,0.0019161502569454392,0.0020569868540849705,5.644990466068839e-05,0.0060107161531023755,0.9951961354211172
2017-03-29,1,0.002252280931361208,0.002446340439603893,5.644990466068839e-05,0.006091966758858837,0.9951140048516677
2017-03-31,1,0.002305102476412049,0.0025307117142388644,5.644990466068839e-05,0.006594492954055994,0.9954738801795376
2017-04-04,1,0.002431933235785984,0.0027040944185508548,-0.00016318327153424023,0.006594492954055994,0.9952596241267679
2017-04-06,1,0.0007770577400073922,0.0008542428106737498,5.644990466068839e-05,0.007936698059471989,0.9946814096139416
2017-04-10,1,0.0005286643063387921,0.0006503410040582223,-0.00010632388396965577,0.007936698059471989,0.9945509248074508
2017-04-12,1,0.0011060200507610985,0.001155633428719243,-0.00010632388396965577,0.007936698059471989,0.9902870229598945
2017-04-17,1,0.0008239743180114021,0.0008361171806317352,0.0014284890953369794,0.008368318879199041,0.989801618423632
2017-04-19,1,0.0005816729744146482,0.0006239971154831711,0.0014284890953369794,0.008368318879199041,0.9867265495635653
2017-04-21,1,0.0014260523250758607,0.0015111065165793985,0.0014284890953369794,0.008301471666649934,0.9872964956349444
2017-04-25,1,0.001951502581234854,0.002145900016426024,0.0021675620111188433,0.007794658457456932,0.9875587139372692
2017-04-27,1,0.0010886878293112547,0.0011142234126245223,0.0021675620111188433,0.011139905029077878,0.9855530961578466
2017-05-01,1,0.001392891359071504,0.0014358934262623207,0.0021675620111188433,0.011139905029077878,0.9849892032724566
2017-05-03,1,0.001144465477768803,0.0011596175507923023,0.004160877433022208,0.011139905029077878,0.9849838870752919
2017-05-05,1,0.0015287068624544441,0.0016045380822814362,0.0036435592940366316,0.009199556247630148,0.985766746736191
2017-05-09,1,0.0017509492838639242,0.0018893455201863677,0.004160877433022208,0.01384476201474624,0.9849413111727239
2017-05-11,1,0.004118266390613207,0.004574482657061802,-0.0010664082960559597,0.009199556247630148,0.988692474758095
2017-05-15,1,0.004232908007417269,0.004656097189181498,-0.008879667199693563,0.008295397555393139,0.9881553867189726
2017-05-17,1,0.002796937845494157,0.0030251553157988826,-0.0019070578745187076,0.007705095549751257,0.9906473659327258
2017-05-19,1,0.0033015317278366667,0.003606929161601114,-0.0023154759351450057,0.007705095549751257,0.9902233184783551
2017-05-23,1,0.0033816527591239674,0.003683024460033632,-0.004162712069771823,0.007295190053178881,0.9899649816736891
2017-05-25,1,0.003936359583646158,0.00427162483364287,-0.008879667199693563,0.005000693037536052,0.990318270196852
2017-05-30,1,0.0038209290398770884,0.004164522290259175,-0.008879667199693563,0.005000693037536052,0.9894025701828264
2017-06-01,1,0.003562784390271027,0.0038297546654425725,-0.010551585395061508,0.004903707797235106,0.9883170564672625
2017-06-05,1,0.003428614843750623,0.003664774695452248,-0.010551585395061508,0.0045515955700895635,0.987620233426948
2017-06-07,1,0.0034214939691344483,0.0036611461585596677,-0.010626053276652931,0.0045515955700895635,0.9876884410996
2017-06-09,1,0.0022199946116875603,0.0023031973606746506,-0.009114272876470216,0.005708994594050247,0.9897008134182108
2017-06-13,1,0.0019303501997750853,0.0019680136298801058,-0.005894645266658203,0.006266105895316407,0.9898240801442829
2017-06-15,1,0.0017383013933811979,0.0017442638521730231,-0.009114272876470216,0.006266105895316407,0.9891194075347617
2017-06-19,1,0.0024575269671005774,0.0025673452699545964,-0.009114272876470216,0.005952617821456611,0.9900896554775226
2017-06-21,1,0.0023906988445323357,0.0025130864828694366,-0.009114272876470216,0.007988893036870191,0.9900408354321487
2017-06-23,1,0.001713885622430879,0.0017440633866921428,-0.004378001595573791,0.009644068782946031,0.9904828956493841
2017-06-27,1,0.0006966158932556223,0.0008115892312814835,-0.0013028107684160432,0.012018927110762022,0.9903143732671181
2017-06-29,0,-0.00015860667204493461,8.287323030679893e-05,-0.0013028107684160432,0.012018927110762022,0.9908641196237845
2017-07-03,-1,-0.0007382520673956779,-0.0004164236841413553,-0.0001290119882994902,0.012018927110762022,0.9904941261022799
2017-07-06,1,0.00011444950736847197,0.0002612418602091054,-0.00012364928644662828,0.012249633097111572,0.9910010428604406
2017-07-10,1,0.00047272069013616804,0.0005868992311369662,-0.0011478998796447925,0.008703604561366644,0.9912095202219355
2017-07-12,1,0.0013624832014239243,0.0013780116818122574,-0.003358186544344938,0.006064269189175945,0.9919879270256978
2017-07-14,1,0.0006967528795730927,0.0007718913920288931,-0.003358186544344938,0.008703604561366644,0.9913137946327655
2017-07-18,1,0.0006697839995176715,0.0007686809919441205,-0.003358186544344938,0.012043185835674227,0.9910637918707308
2017-07-20,1,0.0009644369002099053,0.001030809303358303,-0.0035256227645742017,0.013014580534828075,0.9898229570120873
2017-07-24,1,0.0013841476649496397,0.0013984130451114504,-0.0035256227645742017,0.0073474512667710285,0.990247943154756
2017-07-26,1,0.002062627992620292,0.0021179167417192325,-0.004734981587099193,0.0073474512667710285,0.9907878494171237
2017-07-28,1,0.002046574895863059,0.0021111778898795044,-0.007244255750880617,0.0058421725929531255,0.9905064344406864
2017-08-01,1,0.0016449785766394955,0.001663287316003066,-0.004734981587099193,0.01320073768996989,0.9905240728641351
2017-08-03,1,0.002157479011443201,0.002262488601694048,-0.004734981587099193,0.01320073768996989,0.9900836102041619
2017-08-07,1,0.0016865437588867189,0.0017335427086525464,-0.007244255750880617,0.01320073768996989,0.9895488596476281
2017-08-09,1,0.0009177746074233908,0.0010014715430199089,-0.007970334765586755,0.014632376060890982,0.9887837207670994
2017-08-11,1,0.0003056051071867838,0.0004888819331732444,-0.007244255750880617,0.015420036635465878,0.9888837896079921
2017-08-15,1,0.0006065844546623657,0.0007598359813661955,-0.007244255750880617,0.015420036635465878,0.9889245876943519
2017-08-17,1,0.00019964589720383903,0.0004027791314439493,-0.006830555215092744,0.007006889449198736,0.9906628184771031
2017-08-21,1,0.00020390934009947013,0.0004017330889302457,-0.006830555215092744,0.007239860384626042,0.9905580420536102
2017-08-23,1,0.000250938391557039,0.0004549864477309566,-0.006933766835601282,0.004288892435926811,0.9908274120496198
2017-08-25,-1,-0.00037298211443518247,-8.216561215940925e-05,-0.007350210988781807,0.004288892435926811,0.9894493387610596
2017-08-29,0,-0.00019289366117524224,9.961920600372678e-05,-0.007350210988781807,0.0041808177148943155,0.9894120637420103
2017-08-31,1,0.00013608920872505768,0.0003944084679419369,-0.007350210988781807,0.004771063353538843,0.9898262549823167
2017-09-05,-1,-0.000724002848608604,-0.00037601691484309056,-0.005708100573180717,0.004771063353538843,0.9911033005013946
2017-09-07,-1,-0.0009405320609736638,-0.0005474263225296705,-0.003937398546218204,0.005194508645330342,0.9916939218487751
2017-09-11,-1,-0.0005351247814600541,-0.00018885754231676675,-0.004180086488347087,0.004848419687803687,0.9923883781401939
2017-09-13,-1,-0.0007359453119957916,-0.0003973957894268592,-0.004257108095490713,0.004848419687803687,0.9919207714454462
2017-09-15,-1,-0.0008172668526031277,-0.00047707802060692397,-0.0035249338986680923,0.006163287084215126,0.9910140418961101
2017-09-19,-1,-0.0006067175674968056,-0.0003028733335400922,-0.010268078315830043,0.006163287084215126,0.9903813990437769
2017-09-21,-1,-0.0012916328946585892,-0.0009074606544385139,-0.010268078315830043,0.006163287084215126,0.9901819146265926
2017-09-25,-1,-0.00263127905101407,-0.0020735266563402417,-0.007460817026966253,0.006163287084215126,0.9914910828897121
2017-09-27,-1,-0.0020044570023019922,-0.0015406373278734084,-0.007460817026966253,0.006163287084215126,0.9920096460999751
2017-09-29,-1,-0.0015747052267425286,-0.0011607759056696226,-0.007460817026966253,0.008360699143065004,0.9919932583376396
2017-10-03,1,0.00021723237022183977,0.0003006070731955112,-0.007460817026966253,0.009211608803903351,0.9910396072947381
2017-10-05,1,0.0010065182085293933,0.0010660283866637844,-0.012372607389955404,0.009211608803903351,0.988693602919247
2017-10-09,-1,-0.0004767880849464494,-0.0002556709151683651,-0.01039991931278349,0.009211608803903351,0.9891348024461829
2017-10-11,-1,-0.0009239233359135878,-0.0006910544800688961,-0.007471111982626486,0.009623942104525213,0.9887172954184997
2017-10-13,1,0.00010983973937707099,0.0002000411643931357,-0.01039991931278349,0.00805242466080813,0.9884621103462625
2017-10-17,1,0.00017133703175741297,0.00017641726596933708,-0.006611874827455584,0.00805242466080813,0.989094940360392
2017-10-19,-1,-0.0009872473881048255,-0.0008307611825052301,-0.006611874827455584,0.00805242466080813,0.9898067606955517
2017-10-23,-1,-0.0005875905156543378,-0.0004942132598006491,-0.00798831088008098,0.00805242466080813,0.9884614776545078
2017-10-25,-1,-0.0001394671710000805,-0.000111033090169733,-0.00798831088008098,0.006348786421075579,0.9888397012145945
2017-10-27,1,0.0006361946741922095,0.0007177001832807759,-0.00931182048105954,0.004838516021134396,0.9890732583303707
2017-10-31,1,0.0005545234237560712,0.000565808116233207,-0.01202017705040551,0.00287228945065118,0.987218179829318
2017-11-02,-1,-0.0017027683616833548,-0.0014169537179963708,-0.007477718453026867,0.004838516021134396,0.9899258260528705
2017-11-06,-1,-0.0017513871656868838,-0.0014653183675729768,-0.00931182048105954,0.006254387032243193,0.9868446412832323
2017-11-08,-1,-0.0005979957789268363,-0.0004955694745469349,-0.00931182048105954,0.006254387032243193,0.9873896737231339
2017-11-10,-1,-0.0011519705043771399,-0.0009770987756593402,-0.007477718453026867,0.008270105313385826,0.9870664883667625
2017-11-14,-1,-0.0017779928227982934,-0.0014929835895220352,-0.00931182048105954,0.008270105313385826,0.9866371975631849
2017-11-16,-1,-0.002578288819031817,-0.002156076053184525,-0.00931182048105954,0.00935064827878521,0.9851861857302581
2017-11-20,-1,-0.004375204270926832,-0.003712945472791492,-0.004915928076750391,0.00935064827878521,0.9854097759480055
2017-11-22,-1,-0.004767039459547855,-0.004037090395869343,-0.005519779634843302,0.012037793215042624,0.9846751830640862
