JNU-Tangyin/eata/results/Batch4_SP500/Batch4_SP500-SWK.csv
Date,Action,Predicted_Q25,Predicted_Q75,Actual_Q25,Actual_Q75,RL_Reward
2010-12-14,0,0.0,0.0,-0.00485523741220448,0.005776486835125677,0.9914608047175658
2010-12-16,1,0.0013044890116669242,0.001324155650209485,-0.0024038288817909695,0.005776486835125677,0.9914997791249938
2010-12-20,1,0.0029247434096100044,0.0031714958008451197,-0.003907159379868929,0.0038217298049346474,0.9912785729932075
2010-12-22,1,0.004488151230712927,0.005017076356057805,-0.003907159379868929,0.003414328431208726,0.9907401407233547
2010-12-27,1,0.004153532591572746,0.004605831617146721,-0.004594358747596146,0.0038217298049346474,0.9908302766790364
2010-12-29,1,0.0036082524630463055,0.00395213048646767,-0.004594358747596146,0.00560512795025121,0.9874602537979457
2010-12-31,1,0.003158175133375664,0.0034274109134254287,-0.004331767227474902,0.00560512795025121,0.9877743522583213
2011-01-04,1,0.002319853107316459,0.0023334070083832524,-0.0025694835696132155,0.004050392257825986,0.9886496166456729
2011-01-06,1,0.0012336925209237878,0.0013456437621550492,-0.0009359536697064077,0.005569559325582608,0.9888340338229873
2011-01-10,1,0.0014647448182518992,0.0014721797922580254,-0.0007397818049782513,0.007091030632189122,0.9892851214321098
2011-01-12,1,0.0017866899416805206,0.001851137783753732,-0.0009359536697064077,0.0066225203920219685,0.9901668985549468
2011-01-14,0,0.0,0.0,-0.002035519909973358,0.007091030632189122,0.9893117780304438
2011-01-19,0,0.0,0.0,-0.0013510115802450847,0.008237936696230689,0.9902789648413555
2011-01-21,1,0.0003043746720435991,0.0005123449675869098,-0.0011950879323954014,0.008761009801768267,0.9895214015381253
2011-01-25,0,0.0,0.0,-0.004254986307462892,0.008761009801768267,0.9875203440252204
2011-01-27,0,0.0,0.0,-0.004254986307462892,0.009587926386825487,0.9903695623658925
2011-01-31,1,0.003170445055668381,0.003461464541259355,-0.007780407617965373,0.009814933520323834,0.9897874754441464
2011-02-02,1,0.0030332116498800674,0.0033052946545643197,-0.007780407617965373,0.010840149671051255,0.9892851250687196
2011-02-04,1,0.0033132162684083467,0.0036697350582511096,-0.007780407617965373,0.010840149671051255,0.9895830099687493
2011-02-08,1,0.003046617230917271,0.003308430112067948,-0.007780407617965373,0.012340453039655181,0.9880835095017633
2011-02-10,1,0.0032819052120210586,0.0036198153615697973,-0.009206746455669419,0.012340453039655181,0.9876362354323738
2011-02-14,1,0.002776086002991483,0.0030081291230363042,-0.01073186124197182,0.012340453039655181,0.9874092650555637
2011-02-16,1,0.003073347093617051,0.0033653677915739025,-0.013942055214640812,0.012340453039655181,0.9864799449757148
2011-02-18,1,0.004043147179619571,0.004481041624946465,-0.013942055214640812,0.012328507766617659,0.9863854886208606
2011-02-23,1,0.002362561852220898,0.0025633119377943244,-0.009912838103681888,0.012328507766617659,0.9883102068313019
2011-02-25,1,0.0033104524773930675,0.0036482700888258567,-0.009912838103681888,0.010799454498170543,0.989053960484826
2011-03-01,1,0.0027528733062575973,0.0030107531253631714,-0.009912838103681888,0.012060039032200362,0.9892845080779654
2011-03-03,1,0.0033563243436900555,0.003710065151320632,-0.009912838103681888,0.010735144775134847,0.9894863693888416
2011-03-07,1,0.0028941008445980297,0.0031899093463577323,-0.009912838103681888,0.010735144775134847,0.9894311970730896
2011-03-09,1,0.0034634964514461994,0.003816847372334421,-0.009912838103681888,0.008193012374981046,0.9905602807385987
2011-03-11,1,0.0031272050112924055,0.0034575302074205073,-0.009912838103681888,0.008193012374981046,0.9910116977659955
2011-03-15,1,0.0019854242178676124,0.0020892459122444284,-0.010256611572590947,0.008193012374981046,0.9916450085748922
2011-03-17,1,0.0011663006107060193,0.0011689131680866543,-0.004828085033296176,0.012060039032200362,0.9921039420699276
2011-03-21,1,0.0013460744779913336,0.001370734592205753,-0.010256611572590947,0.008613207219657651,0.9917189770261999
2011-03-23,1,0.0015697951330706172,0.0015939931317975645,-0.005289786436828634,0.008919969900854592,0.9920735673241323
2011-03-25,1,0.0020576184459796054,0.002145907464450349,-0.005289786436828634,0.005642885458731104,0.9925282886705514
2011-03-29,1,0.002147054473581787,0.0022557376498880607,-0.005289786436828634,0.005642885458731104,0.9920223111088328
2011-03-31,1,0.0018896979055190975,0.0019836153309695723,-0.011670882295964361,0.005642885458731104,0.990447833998821
2011-04-04,1,0.0009903413327892062,0.0010494105913923843,-0.011670882295964361,0.005642885458731104,0.9904762417928259
2011-04-06,1,0.0007544011944021545,0.0008429340752339861,-0.011670882295964361,0.009059710522579478,0.9891752263209769
2011-04-08,-1,-0.0002572918796447313,-6.762969957587557e-06,-0.01060684830827658,0.009059710522579478,0.9893866904860765
2011-04-12,-1,-0.0010418770136170871,-0.0006684369129702438,-0.008109888423272177,0.01005502763160291,0.9884184206252155
2011-04-14,0,-0.00023952745008102346,4.439954894119077e-05,-0.009975591821953154,0.00817300381100194,0.989149847990156
2011-04-18,-1,-0.0011070638336212022,-0.0006860685545396507,-0.008027417764055023,0.005642885458731104,0.9904596834782938
2011-04-20,-1,-0.00037047028906886023,-7.322663108089427e-05,-0.008027417764055023,0.007028993741932022,0.989274819652865
2011-04-25,-1,-0.0009379307882697108,-0.0005436096542613096,-0.009975591821953154,0.007028993741932022,0.9881095800335957
2011-04-27,-1,-0.00030232206811322084,-6.492670917274015e-05,-0.009975591821953154,0.006196805170476633,0.9881489798804323
2011-04-29,-1,-0.0022064695840499967,-0.0017200827171347142,-0.007581981410844025,0.007080839314757439,0.9885249924668387
2011-05-03,-1,-0.0025125764936011355,-0.0020119403708321205,-0.007581981410844025,0.007517057902786013,0.9866364391032878
2011-05-05,-1,-0.0009304556216147609,-0.0006302810514038016,-0.008556812103103007,0.006196805170476633,0.9865412515413746
2011-05-09,-1,-0.0015614552059859596,-0.0011761144890958773,-0.008556812103103007,0.006514776202000867,0.9861483366172433
2011-05-11,-1,-0.0015225555840683385,-0.0011111611722374802,-0.011619403482652203,0.006196805170476633,0.9866036087825366
2011-05-13,-1,-0.0012634967184017676,-0.0009520422755257729,-0.018524329455430467,0.006196805170476633,0.9856446305116423
2011-05-17,-1,-0.0012811674019940235,-0.0009959235731692515,-0.018524329455430467,0.006514776202000867,0.9839145814998635
2011-05-19,-1,-0.0003037170358727077,-0.00012898911913857995,-0.018524329455430467,0.006342211366486159,0.9850328363773605
2011-05-23,-1,-0.0016263245903869335,-0.0012873055995684035,-0.014681427332743194,0.007402798779441277,0.985349921736399
2011-05-25,-1,-0.002212960946516287,-0.0017958531402484852,-0.009577486719800004,0.009757141924590818,0.9855728387362779
2011-05-27,0,0.0,0.0,-0.014681427332743194,0.007402798779441277,0.9858323870735625
2011-06-01,-1,-0.0013855555169151774,-0.001112812073360411,-0.008185623503933747,0.00830164370690632,0.9877974216614201
2011-06-03,-1,-0.0032510231415716316,-0.002723829097866509,-0.005154508597834121,0.01551129980234797,0.9864643801402536
2011-06-07,-1,-0.002573567325872082,-0.0021690391192469914,-0.004888223001946366,0.01114480514929448,0.9870626030770049
2011-06-09,0,0.0,0.0,-0.004888223001946366,0.016382102142597534,0.9875227574241099
2011-06-13,0,0.0,0.0,-0.006112080538881614,0.016382102142597534,0.9868359880414693
2011-06-15,0,0.0,0.0,-0.006112080538881614,0.01114480514929448,0.9874753863218474
2011-06-17,0,0.0,0.0,-0.01223754811372834,0.011641522866863242,0.986628596891018
2011-06-21,0,0.0,0.0,-0.01223754811372834,0.011896927627175473,0.9863631938141095
2011-06-23,0,0.0,0.0,-0.01223754811372834,0.011595350239121966,0.9866058012433094
2011-06-27,0,0.0,0.0,-0.01568679126257157,0.011595350239121966,0.986355262146989
2011-06-29,0,0.0,0.0,-0.016471201410566995,0.011595350239121966,0.9847675267416738
2011-07-01,-1,-0.000885361350692502,-0.0007729295356289846,-0.016471201410566995,0.004878173415350977,0.9864485445667474
2011-07-06,1,0.00031707360490307556,0.00034609052348370963,-0.017290732593066026,0.011156487652333858,0.9837661936663086
2011-07-08,1,0.0004079175408839117,0.00044568952038696554,-0.020235992728281367,0.002009528499637656,0.9827252565932079
2011-07-12,-1,-0.0010572766341360612,-0.0009309646288040991,-0.020257899634615693,0.011156487652333858,0.9780450679533066
2011-07-14,-1,-0.0014319231267110849,-0.0013178207021930385,-0.020709781734256832,0.014625419110955877,0.974049373466396
2011-07-18,-1,-0.0025389612404008157,-0.0022170002198354253,-0.020709781734256832,0.019999948354502247,0.9731127315607225
2011-07-20,-1,-0.001151847619607356,-0.0010525466079945992,-0.02970869808328806,0.017164030527367508,0.9726515108263941
2011-07-22,-1,-0.0008707729205034907,-0.0007848176221217513,-0.03283404649445166,0.015847442767003186,0.9699776843406149
2011-07-26,-1,-0.0017940597241220887,-0.0016361025644337215,-0.03283404649445166,0.021341389553952636,0.9693113989315612
2011-07-28,-1,-0.00372209557560314,-0.003356739775749456,-0.02970869808328806,0.021341389553952636,0.9696592312444984
2011-08-01,-1,-0.002231097481976609,-0.0020592858139508764,-0.02970869808328806,0.02668643014524924,0.9670857707548832
2011-08-03,-1,-0.0026302350778175934,-0.0023787956563170428,-0.02588782016932273,0.02668643014524924,0.9693731298673183
2011-08-05,-1,-0.004426789038108245,-0.003961311157248532,-0.026882313556530382,0.02668643014524924,0.9686155444198501
2011-08-09,-1,-0.004576776196900214,-0.004069293052426553,-0.025142953270577747,0.02576625767680793,0.9742991519506009
2011-08-11,-1,-0.003696837101088829,-0.0033457076876229203,-0.026882313556530382,0.023582280411463534,0.9767043837816805
2011-08-15,-1,-0.0023810915093068416,-0.002193116500936741,-0.026882313556530382,0.015487906872973198,0.9775785175170268
2011-08-17,-1,-0.0032232358147403694,-0.002973640364695796,-0.025142953270577747,0.019198861603986386,0.9769219315956941
2011-08-19,-1,-0.005600241961251907,-0.005088621522410736,-0.024822234558668103,0.019198861603986386,0.9790310174525335
2011-08-23,-1,-0.003107834999137001,-0.002881883618483696,-0.02517529052205647,0.015487906872973198,0.9781022461096766
2011-08-25,-1,-0.004269573832649372,-0.0038993729169494074,-0.02747643653034358,0.019198861603986386,0.9745999185193777
2011-08-29,-1,-0.0015533893923224409,-0.0015063415495290818,-0.02747643653034358,0.019056419908464933,0.9747886684123036
2011-08-31,-1,-0.0017579353866293795,-0.0016716077914568966,-0.03188916921266556,0.019056419908464933,0.973227632628152
2011-09-02,-1,-0.0041677623969746495,-0.0037943313963188473,-0.03188916921266556,0.019056419908464933,0.9736405960732974
2011-09-07,-1,-0.0025434947129026574,-0.0024197696946956565,-0.03188916921266556,0.02565521392576063,0.9694179404455202
2011-09-09,-1,-0.005283137955693783,-0.004843774246988342,-0.026336025621278368,0.027442225995386184,0.9699355763118979
2011-09-13,-1,-0.004406443687871422,-0.0041000129232917,-0.026336025621278368,0.028164202801221557,0.9688943272631
2011-09-15,-1,-0.002704852694382822,-0.002607103022743809,-0.026336025621278368,0.028164202801221557,0.9685183858494048
2011-09-19,-1,-0.0037695882936938036,-0.0035365164924085865,-0.031137317083766256,0.028164202801221557,0.9672560876543864
2011-09-21,0,0.0,0.0,-0.022328672866188594,0.030138364917822985,0.9662373565552602
2011-09-23,-1,-0.004861720316168083,-0.004372617687918174,-0.017861542517588473,0.02890408942366502,0.9688567509729207
2011-09-27,0,0.0,0.0,-0.02203332389785419,0.02890408942366502,0.9704363869453927
2011-09-29,0,0.0,0.0,-0.017861542517588473,0.03434944979221525,0.9685565708814455
2011-10-03,0,0.0,0.0,-0.017302350570992955,0.03434944979221525,0.9690078441133083
2011-10-05,0,0.0,0.0,-0.02203332389785419,0.0341369069959238,0.9711911901350118
2011-10-07,-1,-0.0010529290235182876,-0.0009656737730193518,-0.017302350570992955,0.034656851289707094,0.9717618462126812
2011-10-11,1,0.00011317977500132183,0.00042256928696165433,-0.017302350570992955,0.03411886593486762,0.973623057127461
2011-10-13,1,0.000505182073511584,0.0008081422542537433,-0.02203332389785419,0.031454420553625476,0.9732248119370621
2011-10-17,1,0.0004870401790966916,0.0007473803936798312,-0.012588208817124242,0.03411886593486762,0.9732041109750198
2011-10-19,1,0.0024822395701464424,0.0030582266158629317,-0.015110097911617968,0.031454420553625476,0.9768949701142289
2011-10-21,0,0.0,0.0,-0.01739661125316908,0.020537830010585446,0.9765374617524197
2011-10-25,1,0.0011906816618009923,0.00144968383727101,-0.01600534124201745,0.020537830010585446,0.9769261644208636
2011-10-27,1,0.005866224449959173,0.006912061681838501,-0.025503898086520937,0.014562668989350278,0.9782350431321093
2011-10-31,1,0.00315940420783453,0.0037327658335691224,-0.01600534124201745,0.01553777044760693,0.9787862867586918
2011-11-02,1,0.0023473217897815053,0.0027799961928347593,-0.01297125614211666,0.01553777044760693,0.979949754977897
2011-11-04,0,0.0,0.0,-0.01297125614211666,0.01553777044760693,0.9805659275887275
2011-11-08,0,0.0,0.0,-0.01297125614211666,0.012893804820880029,0.9809209030616891
2011-11-10,0,0.0,0.0,-0.01297125614211666,0.012296790412837249,0.9817901383216093
2011-11-14,0,0.0,0.0,-0.01297125614211666,0.008025993243324992,0.9841238859661313
2011-11-16,0,0.0,0.0,-0.01297125614211666,0.004521623696426882,0.9847418685677879
2011-11-18,1,0.0033415807626170665,0.003962872936574665,-0.009596156558542377,0.004521623696426882,0.9844661526600643
2011-11-22,1,0.0035837299006282737,0.004345497461034378,-0.004866309753805888,0.014175029991985503,0.9826942788528187
2011-11-25,1,0.0025935103730634805,0.003220378360808863,-0.0029061937705601435,0.014175029991985503,0.9850019276447758
2011-11-29,1,0.004312478931556595,0.005183005535649485,-0.007593071297853699,0.009425091327433377,0.9849907301022043
2011-12-01,0,0.0,0.0,-0.009596156558542377,0.009425091327433377,0.9854568145551341
2011-12-05,1,0.005266400672010389,0.006149486125668895,-0.009596156558542377,0.009425091327433377,0.9844071647824255
2011-12-07,1,0.0049058480021895445,0.0057314679270882175,-0.007593071297853699,0.009425091327433377,0.9849141569461547
2011-12-09,1,0.00451673694814638,0.005308720295050182,-0.005248607026144133,0.010032930788774565,0.9866566447834537
2011-12-13,1,0.004776375299431052,0.005623860423976581,-0.005248607026144133,0.012946406017444316,0.9863417026262797
2011-12-15,1,0.0033874537017144013,0.003992694757659606,-0.005837026293539704,0.012946406017444316,0.9869696120800835
2011-12-19,1,0.0024921716134588727,0.0029021907182495065,-0.005837026293539704,0.01599854837600907,0.9851257118699576
2011-12-21,1,0.004867582230486315,0.0056051577822532435,-0.005837026293539704,0.009213689149479808,0.9879916410582332
2011-12-23,1,0.005029199157748788,0.005765597938142505,-0.007926385411061549,0.012946406017444316,0.9857488160476419
2011-12-28,0,0.0,0.0,-0.006531800816449071,0.012946406017444316,0.9872834369758252
2011-12-30,0,0.0,0.0,-0.00817343115726405,0.006332059384996303,0.9881348490578322
2012-01-04,1,0.003657137961252332,0.004065416076892402,-0.00817343115726405,0.006332059384996303,0.9885887855891604
2012-01-06,1,0.0067310588840326065,0.007629741080677967,-0.00817343115726405,0.012946406017444316,0.9865554218769208
2012-01-10,1,0.007125677547140866,0.008023767130509962,-0.00817343115726405,0.006080524935573482,0.9863554716578884
2012-01-12,1,0.00396409792321585,0.004276180209117682,-0.00817343115726405,0.0064089488258844635,0.9876166293562255
2012-01-17,1,0.003865763613037249,0.00424479557677955,-0.00517849641463653,0.006456887377964194,0.9890219558093297
2012-01-19,1,0.0034482678650857666,0.0037460493231701946,-0.00517849641463653,0.004116163258609897,0.9904227702502768
2012-01-23,1,0.004122074575334473,0.004622289016816148,-0.005091960627780412,0.0051030877789385596,0.9904857792651639
2012-01-25,1,0.004630617395682668,0.005191045412353676,-0.005091960627780412,0.0051030877789385596,0.991113641058128
2012-01-27,1,0.0031106794869853356,0.0033487915622148453,-0.004841945822879147,0.005713857811923359,0.9916475946440286
2012-01-31,0,0.0,0.0,5.380055013838868e-05,0.009625057393463974,0.9913887087657918
2012-02-02,0,0.0,0.0,-0.0011586840319762494,0.008219449173729854,0.9919006243615235
2012-02-06,1,0.0021718549699385812,0.002186975324243056,-0.006489420726157962,0.005713857811923359,0.9922166503769493
2012-02-08,1,0.0024197666062740243,0.002516472481505212,-0.006489420726157962,0.008246921408728328,0.9909018696725458
2012-02-10,1,0.0021106761621393325,0.0021162450408884316,-0.006489420726157962,0.008246921408728328,0.9908602316260334
2012-02-14,1,0.00039742242600135976,0.0006991214077288269,-0.006489420726157962,0.009625057393463974,0.9892967693025642
2012-02-16,0,-0.00010744834259552162,0.0002445005074777557,-0.006489420726157962,0.009625057393463974,0.9889729534072523
2012-02-21,1,0.00028411122844347733,0.0005458144993070956,-0.007288271035456112,0.009625057393463974,0.988705647538152
2012-02-23,0,-0.0003177320951798801,5.0034081537526096e-05,-0.007288271035456112,0.008246921408728328,0.9894250131076195
2012-02-27,-1,-0.001794758685686609,-0.0011608343179395862,-0.007141991560880498,0.009625057393463974,0.9888383261301293
2012-02-29,1,0.00014168673083219752,0.0003725153104503112,-0.009342911225862451,0.0077761814553014815,0.9893876745432693
2012-03-02,-1,-0.0005878111051961245,-0.00024997177247604654,-0.01011507779930514,0.0077761814553014815,0.9892913197708909
2012-03-06,-1,-0.0009314798584225794,-0.0005933004917034655,-0.0051553380168028575,0.009179721573982865,0.9899658259451041
2012-03-08,0,-3.0881087976364005e-05,0.00018526906854415348,-0.009945788148715013,0.005900231568747189,0.9908969515471355
2012-03-12,0,-5.613406224969867e-05,0.00019621536497055076,-0.011663056989179828,0.004698530572315638,0.9899917138939872
2012-03-14,1,0.0013276605185991142,0.001345188694094539,-0.011663056989179828,0.005900231568747189,0.9896840173213391
2012-03-16,1,0.0015784917024365933,0.0016410195687833649,-0.011663056989179828,0.0062628258221351756,0.9896097526742544
2012-03-20,1,0.0008978700100718444,0.0009598097397019406,-0.011051359391714251,0.009981394599492729,0.9891339388883253
2012-03-22,1,0.001283355970370372,0.001371959032482089,-0.011051359391714251,0.009981394599492729,0.9862363426940518
2012-03-26,1,0.0009549316554418508,0.0009592388804753174,-0.01183656557985181,0.00742612427092027,0.9862344437883027
2012-03-28,1,0.0009296777492656032,0.0009315512944082695,-0.01183656557985181,0.01054905563332374,0.9861387010402509
2012-03-30,1,0.0008336638533278308,0.0008676487884492505,-0.012688805292263483,0.01054905563332374,0.985869068579769
2012-04-03,1,0.001322626163654501,0.001436011171482255,-0.012688805292263483,0.007716081236856621,0.9861776823431593
2012-04-05,1,0.0007195040844681762,0.0007428664759999916,-0.013211999912441381,0.007716081236856621,0.9854763620253704
2012-04-10,1,6.0589658223443604e-05,0.0001353266319177963,-0.011465616404996113,0.007716081236856621,0.9866201673829444
2012-04-12,1,0.000620141086762675,0.0006669685361832889,-0.011598842660332852,0.00598908773305167,0.9876009815822345
2012-04-16,0,-4.389916802642168e-05,0.000105747410616393,-0.011598842660332852,0.0054767610491901104,0.9877731729701811
2012-04-18,0,-5.571850312884941e-05,0.00010621286374336996,-0.01315131590251099,0.005089209268158319,0.9878735455496107
2012-04-20,-1,-0.0024163115851034873,-0.0019108323001666542,-0.01315131590251099,0.005089209268158319,0.9895917873063373
2012-04-24,-1,-0.002173102249447303,-0.0017444887259513366,-0.01208158127389049,0.006085740055030454,0.9882484502990886
2012-04-26,-1,-0.0012092004030404518,-0.000920697623295579,-0.015248408672100441,0.006085740055030454,0.986832186312362
2012-04-30,-1,-0.0014382059632269502,-0.0011507093663194324,-0.01208158127389049,0.006085740055030454,0.9874655462330003
2012-05-02,-1,-0.00121631052138977,-0.0009346374411942706,-0.015330028638489058,0.005088366712217497,0.9863849241043291
2012-05-04,-1,-0.0022552285941931224,-0.001837579188281878,-0.02209320586469607,0.005088366712217497,0.9848554500605429
2012-05-08,-1,-0.0025187336769560307,-0.0020487627061076133,-0.02209320586469607,0.010368752172018342,0.9832905079890023
2012-05-10,-1,-0.0038894789118242225,-0.003209619984196221,-0.02209320586469607,0.01284564105158457,0.9825002974866442
2012-05-14,-1,-0.004672507071041611,-0.0038843027582037746,-0.02209320586469607,0.01284564105158457,0.9826272443245291
2012-05-16,0,0.0,0.0,-0.017948522923849495,0.01284564105158457,0.9821738848055418
2012-05-18,0,0.0,0.0,-0.016116494881277844,0.014037709764132914,0.9833928784551091
2012-05-22,0,0.0,0.0,-0.016116494881277844,0.012107127039521114,0.9839898629898898
2012-05-24,0,0.0,0.0,-0.016116494881277844,0.006943877968286693,0.9851382525526724
2012-05-29,0,0.0,0.0,-0.016731104089568346,0.007101754748264067,0.9845353528041603
2012-05-31,0,0.0,0.0,-0.016116494881277844,0.011262044378732256,0.9855645777957596
2012-06-04,-1,-0.004787365266983324,-0.004130049953978849,-0.0152294439038181,0.012107127039521114,0.9858486620224708
2012-06-06,-1,-0.0030182499138822526,-0.002589480690968377,-0.0152294439038181,0.007535230386950838,0.9876422959376288
2012-06-08,-1,-0.0034447173964922556,-0.002926626913916825,-0.015732343086564415,0.006224177802311482,0.9879895391271051
2012-06-12,-1,-0.004273715302852964,-0.003665672637475615,-0.015921842321328032,0.006224177802311482,0.9874761623336163
2012-06-14,-1,-0.0051412446116310614,-0.004424284977331714,-0.01432204835907945,0.0074753057076394555,0.9872172039614925
2012-06-18,-1,-0.003783116437501876,-0.003280624169789419,-0.01562975700138571,0.006729185231623223,0.9873732616481696
2012-06-20,-1,-0.004197904891453628,-0.0036173267285322334,-0.01562975700138571,0.008678630530077414,0.9831711757809702
2012-06-22,-1,-0.005332223007741402,-0.0045638796340609425,-0.01562975700138571,0.008678630530077414,0.9829613594035367
2012-06-26,-1,-0.004969886597627553,-0.004278103595367247,-0.014309481059569862,0.008678630530077414,0.9838295328030534
2012-06-28,-1,-0.0033187604904813374,-0.002894380268490187,-0.014309481059569862,0.015313919661912876,0.9815060291695995
2012-07-02,-1,-0.0027357076385240483,-0.002376755370704897,-0.014309481059569862,0.008678630530077414,0.9833304313337476
2012-07-05,-1,-0.00205037434540291,-0.0017966797546626518,-0.01562975700138571,0.008678630530077414,0.9830396649947402
2012-07-09,-1,-0.0027721281599226034,-0.002447160309703591,-0.012252837684215574,0.015313919661912876,0.9820103946679342
2012-07-11,-1,-0.0040369546906842075,-0.0035424552151334765,-0.009219452156477115,0.02362924974029907,0.9819919512643682
2012-07-13,-1,-0.0032654589034703425,-0.002876140653991676,-0.010207645034264124,0.02362924974029907,0.9820185679595853
2012-07-17,-1,-0.0032505832768085245,-0.0028764022746860657,-0.010207645034264124,0.02362924974029907,0.9822922276447142
2012-07-19,1,0.0007347265007583803,0.0008424744925526601,-0.010207645034264124,0.009734166803046689,0.9858007966641584
2012-07-23,1,0.00017274385482169324,0.00024046868032656237,-0.010207645034264124,0.009734166803046689,0.9856026525161549
2012-07-25,-1,-0.00025835889722094764,-0.00024676639911824343,-0.010207645034264124,0.011841469593257894,0.9854086278677248
2012-07-27,1,0.0017064734190031068,0.0018950512103411642,-0.012179415789458973,0.009558511774639608,0.9873546626687598
2012-07-31,1,0.0010444334459626613,0.0012153533948423465,-0.011916117300148727,0.009558511774639608,0.9877720539019592
2012-08-02,1,0.0011404458720117741,0.0013645592657192897,-0.011279729870806146,0.009558511774639608,0.9881193586617789
2012-08-06,1,0.002290176904404688,0.002739237884143668,-0.01045958522058123,0.008926267772175499,0.9905563865171321
2012-08-08,1,0.0028605100946185154,0.0033774585725681455,-0.01045958522058123,0.008926267772175499,0.9879634348329684
2012-08-10,1,0.0023255436933182303,0.0027681556045906475,-0.008163163359351399,0.007466609238537334,0.9884829391934704
2012-08-14,1,0.001347310443330623,0.0016383550120364157,-0.0022828737334919915,0.009098236592921954,0.9890263785019333
2012-08-16,1,0.0022929951136571106,0.0027387638250825734,-0.0022828737334919915,0.009098236592921954,0.9875714730058542
2012-08-20,1,0.0016225164181864916,0.0019551784353009426,-0.0022828737334919915,0.009044386014969444,0.9880622450256037
2012-08-22,1,0.0018867209815558133,0.0022230430210370723,-0.0024952686315948534,0.009044386014969444,0.988111226679596
2012-08-24,1,0.0021349205989486635,0.0025351952355017237,-0.0024952686315948534,0.009044386014969444,0.9879149062191295
2012-08-28,1,0.0014232624158955621,0.0017261344351203875,-0.003198193467167357,0.009044386014969444,0.9868280678350729
2012-08-30,1,0.0005609820455675552,0.0006911744654035938,-0.0018793299964356427,0.010053112196562285,0.986400487914726
2012-09-04,1,0.0014804857143171197,0.0018120907620190441,-0.0021261647166262144,0.010053112196562285,0.9865651113629401
2012-09-06,1,0.004100319400623075,0.004767531358433887,-0.0033015129334304865,0.009044386014969444,0.9892658014885763
2012-09-10,1,0.004070263415043655,0.004759383494971741,-0.007553784605966346,0.009044386014969444,0.9889487721079663
2012-09-12,1,0.004215256000991758,0.0049346249001793446,-0.01122640022392662,0.006236845314794234,0.9872290441087062
2012-09-14,1,0.005806487210417508,0.0067159382304416764,-0.013730647905941334,0.0032237984624203177,0.9864737026783519
2012-09-18,1,0.005473611548149493,0.006383770287118715,-0.01122640022392662,0.00671749078233611,0.9870538413131185
2012-09-20,1,0.005310573076811407,0.00608594742313869,-0.015509391406393255,0.007404984363668868,0.9848329621518908
2012-09-24,1,0.005951584809035274,0.00683749394285757,-0.016707002713320866,0.004458845112740804,0.984754929655177
2012-09-26,1,0.004369718390346484,0.004992186188721293,-0.012535721695607694,0.006352226010952423,0.9868943847712722
2012-09-28,0,0.0,0.0,-0.012535721695607694,0.004458845112740804,0.9874511758779445
2012-10-02,0,0.0,0.0,-0.012535721695607694,0.009925608276773006,0.985970480047785
2012-10-04,0,0.0,0.0,-0.011857007272782346,0.009925608276773006,0.9865574535382441
2012-10-08,0,0.0,0.0,-0.012535721695607694,0.012345846297882036,0.9849637339677811
2012-10-10,1,0.0018218406560246165,0.002010972508441176,-0.011857007272782346,0.012345846297882036,0.9858772800639266
2012-10-12,1,0.0017623021228664996,0.0020113943836657443,-0.010673359852215784,0.012345846297882036,0.9868161847224657
2012-10-16,0,0.0,0.0,-0.011857007272782346,0.009443424267001909,0.9864789495286281
2012-10-18,0,0.0,0.0,-0.010673359852215784,0.00970095940975874,0.9871507817637157
2012-10-22,1,0.0004929552040713008,0.0005114642734185012,-0.009597775298041691,0.00970095940975874,0.9877281801882839
2012-10-24,-1,-0.0008562114810636592,-0.0006246577709409044,-0.007252527522342629,0.010530275750048591,0.9878273223478462
2012-10-26,-1,-0.0007098378285735831,-0.000558561312649897,-0.004417162083739641,0.013099585600670297,0.9866366672099989
2012-11-01,1,0.0005173986393464874,0.0005195986325220539,-0.007252527522342629,0.01039932883375071,0.9870864363571215
2012-11-05,1,6.116115605697123e-05,0.00016146231617598092,-0.011869485859682973,0.01039932883375071,0.9864151247259363
2012-11-07,0,0.0,0.0,-0.009747232753886996,0.00970095940975874,0.9879623213101326
2012-11-09,0,0.0,0.0,-0.007629693963079122,0.00970095940975874,0.9878849626781625
2012-11-13,0,0.0,0.0,-0.007629693963079122,0.009573838388427392,0.9876398173850899
2012-11-15,0,0.0,0.0,-0.00980400367488712,0.009573838388427392,0.9883425370578015
2012-11-19,0,0.0,0.0,-0.00980400367488712,0.010040786258740192,0.988412907697787
2012-11-21,0,0.0,0.0,-0.00980400367488712,0.010040786258740192,0.9879095372516331
2012-11-26,0,0.0,0.0,-0.011384852366158094,0.009445478541504588,0.9882415286669036
2012-11-28,0,0.0,0.0,-0.00980400367488712,0.009198797288299514,0.9899275620493052
2012-11-30,-1,-0.001408482432098653,-0.0010884950894457554,-0.009204673564945328,0.009198797288299514,0.989756213085061
2012-12-04,-1,-0.002534041189475797,-0.0020402117389778703,-0.008576667011380712,0.009445478541504588,0.9888295173807151
2012-12-06,-1,-0.0018869341561422346,-0.0014931813600857775,-0.008576667011380712,0.00944999564284572,0.9889970678779539
2012-12-10,-1,-0.001860231236766602,-0.0014551729358501637,-0.008576667011380712,0.00944999564284572,0.9893114768964835
2012-12-12,1,0.0005126523527362841,0.0005478470321735974,-0.008576667011380712,0.009586493440789342,0.9891784641235802
2012-12-14,-1,-0.00041537261003543363,-0.00028845105496306736,-0.007680934228789807,0.010013492409320954,0.9897479675933507
2012-12-18,1,0.0006716401881259207,0.0006929561443420847,-0.007680934228789807,0.009586493440789342,0.9910825517765969
2012-12-20,1,0.0011307976239033832,0.0012839125089665324,-0.005246712470304091,0.010013492409320954,0.9909941125780974
2012-12-24,1,4.60368847606529e-05,9.948019294970877e-05,-0.005246712470304091,0.010013492409320954,0.9910944316701136
2012-12-27,-1,-0.00034653717689575695,-0.00023826238603888162,-0.0043357787476460815,0.010013492409320954,0.9911876230343346
2012-12-31,1,0.0009565774038115725,0.001044148889013347,-0.00415026499551621,0.009586493440789342,0.9928083039985016
2013-01-03,1,0.000960698307620605,0.0010652076961826073,-0.003857031977346519,0.007667876378083102,0.9942206062731426
2013-01-07,1,0.0011517120125020895,0.001298832145212893,-0.00415026499551621,0.007667876378083102,0.9933001347062258
2013-01-09,1,0.0006449597869088517,0.0006787057511185759,-0.0043357787476460815,0.007667876378083102,0.992842702405813
2013-01-11,1,0.0009364541271768005,0.0010455816571681951,-0.004117108865445714,0.004499347386406256,0.9934093575816547
2013-01-15,1,0.0009147617700741521,0.0009742439821949638,-0.004117108865445714,0.004499347386406256,0.9928887280358545
2013-01-17,1,0.0015074065199067615,0.0016770781805503893,-0.004117108865445714,0.004951445535303503,0.9931443971413796
2013-01-22,1,0.0016749800782891267,0.0018606566592698002,-0.004182677516464643,0.004951445535303503,0.9925255804145997
2013-01-24,1,0.0010811279608198428,0.0011481195482710405,-0.004182677516464643,0.007359812659009681,0.9912669695406816
2013-01-28,1,0.0004000295599244212,0.00043746765871418257,-0.006315610340548387,0.008527572808818018,0.9895809470209209
2013-01-30,1,0.0007781965798045246,0.0008398880173493075,-0.006315610340548387,0.011234075229466218,0.9883391184723955
2013-02-01,1,0.0018784672200025593,0.0022273495210870828,-0.013324212357988582,0.011234075229466218,0.9879525747162812
2013-02-05,1,0.0017259905219092395,0.0020247887084835596,-0.006315610340548387,0.010576550745292929,0.9889188680351458
2013-02-07,1,0.0011831388510743274,0.0014180289733319027,-0.004323097838949241,0.0111333428001077,0.9889768888504205
2013-02-11,1,0.002020543816055078,0.0024796128882814345,-0.003206750909456487,0.0111333428001077,0.9892251304116403
2013-02-13,1,0.0019883714666029503,0.0023906765749166937,-0.003206750909456487,0.010933378622502085,0.9896001433802865
2013-02-15,1,0.0026549404287481756,0.003168795699647263,-0.005730181999367288,0.010933378622502085,0.9895499417854213
2013-02-20,1,0.001973323711689401,0.0024074476533110017,-0.003206750909456487,0.010933378622502085,0.9904576089169927
2013-02-22,1,0.001131934469792707,0.001303318771726259,-0.003206750909456487,0.010195848861181321,0.991499708351786
2013-02-26,1,0.0014267488351069803,0.0017414556996808695,-0.002823001089445464,0.009531418047888748,0.9934593418432036
2013-02-28,1,0.0024083215156847984,0.0028515621001007864,-0.003942916530608194,0.009233061925859492,0.9932619884516908
2013-03-04,1,0.0012516629054495692,0.0014289746446803438,-0.003942916530608194,0.009233061925859492,0.9931329030741588
2013-03-06,1,0.0013207003569818995,0.0014973637252396626,-0.0054596514508082564,0.005963030133199033,0.9928296115225295
2013-03-08,1,0.0013718860293020487,0.0015491309288413876,-0.006433338725497982,0.004825207471246819,0.9928628761717591
2013-03-12,1,0.0006166840437816591,0.0006391043416758336,-0.006433338725497982,0.004825207471246819,0.9923900375727578
2013-03-14,0,0.0,0.0,-0.006705815840842159,0.004488848525099834,0.9925768166090383
2013-03-18,0,0.0,0.0,-0.007040250427277871,0.005402794483110572,0.99061687054055
2013-03-20,1,0.0015320168555600236,0.0016050137766598386,-0.008762329757627472,0.004488848525099834,0.9899233639774242
2013-03-22,1,0.0013683262439115806,0.0014062180254984821,-0.008762329757627472,0.004901561687067029,0.990159168285821
2013-03-26,1,0.0005565571846395351,0.0006507978859524881,-0.008762329757627472,0.006640933969012156,0.9898299152339277
2013-03-28,1,0.0012728283079542473,0.0013309772987945131,-0.009379003442381056,0.00543177943022409,0.9889099815555574
2013-04-02,1,0.0005131632748270273,0.0005476960764211161,-0.008762329757627472,0.00543177943022409,0.9897266757156932
2013-04-04,-1,-0.00033492579291593215,-0.0001705547544388301,-0.007177959662477393,0.006640933969012156,0.9896617584661059
2013-04-08,-1,-0.0005867338747151092,-0.0003812842721723249,-0.006464651814747681,0.008120023312226823,0.989162029648004
2013-04-10,0,-4.04683719961678e-05,9.135953734216464e-05,-0.006464651814747681,0.010953291517830841,0.9884044909413564
2013-04-12,-1,-0.0010384165083653137,-0.0007283515434571457,-0.006697124636048098,0.010953291517830841,0.988259120625425
2013-04-16,-1,-0.000948755994187926,-0.0007217830030868434,-0.006179791985783068,0.011877954106956155,0.9895726993187166
2013-04-18,-1,-0.001705738547495046,-0.001377557680181776,-0.003457863507171498,0.011877954106956155,0.9897360235631111
2013-04-22,-1,-0.0010016762078210372,-0.000787110501191844,-0.003457863507171498,0.011877954106956155,0.989869167344494
2013-04-24,-1,-8.384122037595571e-05,-1.023763823334301e-05,-0.005950949708450812,0.007493495723909296,0.9903700364264407
2013-04-26,-1,-0.0020702379376017245,-0.0017268681599064049,-0.005950949708450812,0.007493495723909296,0.990818430487844
2013-04-30,-1,-0.002225524686431598,-0.0018314543220916929,-0.005950949708450812,0.012729360063091891,0.9897686604143793
2013-05-02,-1,-0.0018303782526525967,-0.001507579179580157,-0.0069392032118998056,0.012729360063091891,0.9898618666141967
2013-05-06,-1,-0.0009980155635206916,-0.0007851569359842162,-0.007476322831107475,0.007770482022669506,0.9907137977180779
2013-05-08,1,0.00025386006711482396,0.0003035670785022149,-0.007895555030191227,0.006110288799459392,0.9907942421861111
2013-05-10,-1,-0.0003906540860082273,-0.00022558709840234093,-0.007895555030191227,0.007770482022669506,0.9906485094152176
2013-05-14,1,0.0009292198156191551,0.0010033392197652121,-0.00941381090453665,0.005948196067827452,0.9908461521109747
2013-05-16,1,0.00040935219098509485,0.00041748684615360075,-0.00941381090453665,0.0071496193799282315,0.9907237006449056
2013-05-20,1,0.00044018959710419986,0.0004742167267133663,-0.00941381090453665,0.010275865199542922,0.9903008814207768
2013-05-22,1,8.786914134655807e-05,0.00017864125858447382,-0.011839822624501816,0.010275865199542922,0.9886521739803726
2013-05-24,-1,-0.000469742737809249,-0.00034420874784948886,-0.012552925611230264,0.010275865199542922,0.9888839006572495
2013-05-29,1,0.0003333506469728035,0.0003777047068434169,-0.012552925611230264,0.008301582989142913,0.9889166110256467
2013-05-31,-1,-0.00027185861058879896,-0.00017980308968424817,-0.011234123106149975,0.010275865199542922,0.9886324750008975
2013-06-04,-1,-0.0005153988314863908,-0.0003928446028519413,-0.011234123106149975,0.01220396407378222,0.9881384188314982
2013-06-06,-1,-0.0004881782191583884,-0.00036814555646422594,-0.010575545015194445,0.01220396407378222,0.9888841332513821
2013-06-10,1,0.0001334770709703337,0.00016348735793356747,-0.010575545015194445,0.01220396407378222,0.9888292220189494
2013-06-12,-1,-0.00012723173510739014,-8.917766205952292e-05,-0.008394855006058365,0.013909766746410094,0.9881554085277099
2013-06-14,1,0.00028455274923221244,0.0003111176134429471,-0.008394855006058365,0.013909766746410094,0.9882048439864088
2013-06-18,1,0.0007588305818821302,0.0008357002112983985,-0.008919740213888023,0.013909766746410094,0.9884003783142263
2013-06-20,-1,-0.0009430346018306449,-0.0007924068435708476,-0.007379845791004355,0.01516998399331336,0.9893148133929103
2013-06-24,-1,-0.001540170820475092,-0.0013258265565817809,-0.00253691933746738,0.01516998399331336,0.9898060116477653
2013-06-26,-1,-0.0009375382351339704,-0.0007993084243070163,-0.006695451912429667,0.013909766746410094,0.9904676432267016
2013-06-28,-1,-0.0006923073816072361,-0.0005883974817797281,-0.00253691933746738,0.013909766746410094,0.9908696625582024
2013-07-02,-1,-0.0008470661062357915,-0.0006974121012673189,-0.0016548722664602674,0.011224060096155359,0.9912413707827346
2013-07-05,-1,-0.00037151509655845426,-0.0002696843382210963,-0.0016548722664602674,0.011505121252990991,0.990480629841804
2013-07-09,1,0.0004843965079410589,0.0005164856880145197,-0.006800253594626681,0.009749194793745123,0.9904794134941857
2013-07-11,1,0.000969829244437221,0.001088039527373744,-0.0038561133006157714,0.009499516635469022,0.9916957842994133
2013-07-15,1,0.0008776439010907118,0.0009601040098817448,-0.0038561133006157714,0.009749194793745123,0.9907370385283588
2013-07-17,1,0.0004930833847042217,0.0005255591887401649,-0.002404891333966393,0.009749194793745123,0.9906933454261931
2013-07-19,1,0.0011013789690931678,0.0011882880946320362,-0.004341955372866921,0.007112166493713607,0.9911608749376359
2013-07-23,1,0.001586109525478717,0.0017847825901287054,-0.0074685721014409465,0.007112166493713607,0.9907178706077683
2013-07-25,1,0.0009512616773837583,0.0010390467909922136,-0.004379408460029925,0.00793469952581071,0.9909367194119308
2013-07-29,1,0.0015200418103240524,0.0016977209355861348,-0.0074685721014409465,0.007112166493713607,0.9911082068926946
2013-07-31,1,0.0017555986009442281,0.001974798917323056,-0.008617309100549116,0.006988705185542101,0.9900809517043181
2013-08-02,1,0.0028065657727458634,0.0031752631090601474,-0.008617309100549116,0.006704261747647971,0.9905190054287246
2013-08-06,1,0.0022185154298454963,0.0025355058602278898,-0.006940029195711353,0.006988705185542101,0.9914429960105163
2013-08-08,1,0.002105240575810312,0.00239575234010855,-0.006940029195711353,0.007032395411792645,0.991325418283363
2013-08-12,1,0.0033242307031012873,0.0037921065755602947,-0.006940029195711353,0.007245609942775272,0.9919119612062868
2013-08-14,1,0.0029309154707949873,0.00334505917188378,-0.004311788680475701,0.007245609942775272,0.9922855629919668
2013-08-16,1,0.0023941589629987415,0.002722663906774801,-0.0027089720933409964,0.007245609942775272,0.9929988203184641
2013-08-20,1,0.0023872063148448024,0.0027188405250534948,-0.0016586685411462915,0.008362876484221788,0.9926614167577891
2013-08-22,1,0.0022759147360584663,0.0025512542586260934,-0.0016586685411462915,0.007245609942775272,0.9925035672912943
2013-08-26,1,0.0016270888266296658,0.001788783834680576,-0.0016586685411462915,0.007245609942775272,0.992283738341299
2013-08-28,1,0.0011027841469237196,0.0011868044167273302,-0.00043162227895847285,0.007960093462121757,0.9934492490511835
2013-08-30,1,0.0012184601958011884,0.001342981013262631,-0.00013885167610726233,0.0073400287565652715,0.9941181910952244
2013-09-04,1,0.001393618504846618,0.001534961466146899,-0.00013885167610726233,0.0073400287565652715,0.9932145595391987
2013-09-06,1,0.0014208024407045244,0.001517350594804529,-0.00078035673259266,0.006439387870349556,0.9933188075189741
2013-09-10,1,0.0016561770407745855,0.0017487250282235012,-0.0065383224874540685,0.0034315648819956425,0.9929313493172904
2013-09-12,1,0.001553046365677979,0.0016465582495812942,-0.006892516809198313,0.004820497497569026,0.9919246571599796
2013-09-16,1,0.001828547047471356,0.0019856525471873866,-0.006892516809198313,0.006439387870349556,0.9915722072443578
2013-09-18,1,0.0020680510451771346,0.0021372930570426763,-0.011865340418838303,0.00377075478035113,0.9863045035788716
2013-09-20,1,0.0009224335777605794,0.0009541286885411101,-0.011865340418838303,0.006439387870349556,0.9840104862368141
2013-09-24,1,0.0007086008246367585,0.0007677084956925951,-0.011571211076289709,0.005268401492185367,0.9845939910520978
2013-09-26,1,0.0012954883765359825,0.0013410189756329707,-0.012269002817584702,0.006116159727552866,0.9834437973912216
2013-09-30,1,0.0017502196238463937,0.001914383548600683,-0.012269002817584702,0.0097574614778577,0.9830653961468502
2013-10-02,1,0.0017234147779105853,0.001871785299688935,-0.012597480823672487,0.0097574614778577,0.9829631574282394
2013-10-04,1,0.0018336223777567105,0.0020248824793781223,-0.012597480823672487,0.0097574614778577,0.9831136863354942
2013-10-08,1,0.0008657613169705993,0.0009015866106881927,-0.01282616228616877,0.0097574614778577,0.9834119349289675
2013-10-10,1,0.0015200262612188832,0.0016616659938610114,-0.01282616228616877,0.0097574614778577,0.9833538842002173
2013-10-14,1,0.0018191949250201313,0.001991446824678736,-0.01282616228616877,0.009052274448079713,0.9833893415027489
2013-10-16,-1,-0.002486901069378939,-0.002090728956040785,-0.001782585859013628,0.009052274448079713,0.9881041726070294
2013-10-18,-1,-0.0013308838583690362,-0.0011223783060833213,-0.001782585859013628,0.00847899017714691,0.9912643267920488
2013-10-22,-1,-0.002297970811285284,-0.001928681633181375,-0.002817552783784357,0.00847899017714691,0.9906363133403365
2013-10-24,-1,-0.002077500721336863,-0.001726653642888092,-0.002817552783784357,0.007576974556760752,0.991708924037236
2013-10-28,-1,-0.0020707737253180237,-0.0017264829719275264,-0.005597721455952012,0.007437220259691084,0.9910926470336204
2013-10-30,-1,-0.0018092117288856762,-0.001511856971701716,-0.002817552783784357,0.0068758463163021534,0.9923656170197946
2013-11-01,-1,-0.0018775001944154471,-0.0015447309493759834,-0.005597721455952012,0.0068758463163021534,0.9913988566427684
2013-11-05,-1,-0.0021021419425507784,-0.001756175330552853,-0.003405540218598465,0.005961518372676632,0.9920536610565587
2013-11-07,-1,-0.0006766594952943649,-0.0005315086751622967,-0.003405540218598465,0.0050126324636016505,0.9932257453828587
2013-11-11,-1,-0.0014128201936183357,-0.0011040766929554958,-0.003405540218598465,0.0038455273666117983,0.9934261145303575
2013-11-13,-1,-0.0015216652911267921,-0.0011704166329777098,-0.005597721455952012,0.0038455273666117983,0.9924441614750628
2013-11-15,-1,-0.001351496311294574,-0.0010400772837158867,-0.0060581639146587655,0.0031288837311455467,0.9928752800213666
2013-11-19,-1,-0.0017889386974687565,-0.0014303484090731268,-0.0038344833215141374,0.0038455273666117983,0.9928006610853161
2013-11-21,-1,-0.0018763374792821405,-0.0015129639474974277,-0.0029733461659385055,0.0038455273666117983,0.9930857104582104
2013-11-25,-1,-0.0018913836002629146,-0.0015528993706687834,-0.0029733461659385055,0.0038455273666117983,0.993869978414059
2013-11-27,-1,-0.0014506327526050897,-0.0011865747325898218,-0.0029733461659385055,0.004541030471522021,0.9939244410824563
2013-12-02,-1,-0.001954926361797456,-0.0016443548876521798,-0.0029733461659385055,0.003943751275442096,0.9947147245588417
2013-12-04,-1,-0.0017316377252549612,-0.0014546158413361759,-0.003363090072828359,0.0034308536211067097,0.9946256875975307
2013-12-06,-1,-0.0017347090529488897,-0.001433586467239163,-0.004177328192143434,0.0032892433964744833,0.9948291670832832
2013-12-10,-1,-0.0011274465310116152,-0.000947088592334363,-0.004177328192143434,0.0032892433964744833,0.9947504418975167
2013-12-12,-1,-0.0009376120878366611,-0.0007840548108665138,-0.004177328192143434,0.0032892433964744833,0.9948920919335552
2013-12-16,-1,-0.0015232833503166555,-0.0012836262107774243,-0.003363090072828359,0.004410871524116237,0.9934478673860944
2013-12-18,-1,-0.0008330612845235215,-0.0006971065653613459,-0.004359579230890834,0.004169541418923435,0.993489351777173
2013-12-20,-1,-0.000957878688778713,-0.0008156112207920176,-0.004359579230890834,0.004169541418923435,0.9936220000169625
2013-12-24,-1,-0.00021756555995848634,-0.0002162144783767239,-0.006542017648166037,0.003256003436287625,0.9921371676670085
2013-12-27,-1,-0.0005892706165501821,-0.00050420300788733,-0.006542017648166037,0.003256003436287625,0.9918088894707004
2013-12-31,-1,-0.0006571610988492389,-0.0005644149472210508,-0.006346700148928893,0.003094526310669975,0.9921399776264404
2014-01-03,-1,-7.362740428062141e-05,-2.985115431224748e-05,-0.007120509225710098,0.003094526310669975,0.9910830034330141
2014-01-07,-1,-0.00026746781470008254,-0.00026152741840418245,-0.006139219910172986,0.003094526310669975,0.9911658463537202
2014-01-09,-1,-0.00043435594319933763,-0.00039129462640167455,-0.006139219910172986,0.006534846769776921,0.9893837489879816
2014-01-13,-1,-0.0005206064400285005,-0.00046990794563279493,-0.006037754936060459,0.006534846769776921,0.990052276772357
2014-01-15,1,0.0005404404818576876,0.000641762032220089,-0.006037754936060459,0.006534846769776921,0.990977357896309
2014-01-17,-1,-0.00012564517430048303,-0.0001178375125962797,-0.005942797705576455,0.007529819446668757,0.9914067031516897
2014-01-22,-1,-0.0005011202880925791,-0.0004290552662859681,-0.006037754936060459,0.00798260028226021,0.9907203767597141
2014-01-24,-1,-0.0016413723856174662,-0.0014331733079258249,-0.003015788177774626,0.00798260028226021,0.9917765857347036
2014-01-28,-1,-0.001278031349263291,-0.0011302794251070443,-0.0026647895998948767,0.00798260028226021,0.992144779173462
2014-01-30,-1,-0.001007920932186284,-0.0009190480248405567,-0.0014958790398410821,0.009180228763878783,0.991655642674556
2014-02-03,-1,-0.001401868506194392,-0.00129943867107474,-0.00040212047898158026,0.009180228763878783,0.9918325545346637
2014-02-05,-1,-0.0012583392794495232,-0.00116691023878822,-0.00040212047898158026,0.009180228763878783,0.9920323087565254
2014-02-07,1,0.0002418939210337396,0.0003437576339391646,-0.0014958790398410821,0.007641602440860067,0.9940619972155402
2014-02-11,1,0.0009950113752073444,0.0012543229239791434,-0.005340167892163412,0.0050332793706935035,0.9941151224715302
2014-02-13,1,0.0007467921816863946,0.0009294172610486386,-0.006055571317789175,0.004162106068398803,0.9934182223700717
2014-02-18,1,0.0009226572847181355,0.0011237653221938138,-0.006055571317789175,0.004162106068398803,0.992927365346898
2014-02-20,1,0.0012237867719291622,0.001484773360860237,-0.006055571317789175,0.004162106068398803,0.9931356092315703
2014-02-24,1,0.0013543115694125427,0.001636840287428084,-0.006055571317789175,0.0037042832496333596,0.992835846755718
2014-02-26,1,0.0014991480288095767,0.0018119370270634218,-0.007478429067161964,0.004447350516101871,0.9920211402472253
2014-02-28,1,0.001849799994189198,0.002206559005906601,-0.007478429067161964,0.004447350516101871,0.9912428730923413
2014-03-04,1,0.0011864099813964002,0.0014179908653313613,-0.006055571317789175,0.006689275846843121,0.9917842040631861
2014-03-06,1,0.0014878475259254734,0.001795997660014138,-0.005785994277359219,0.006689275846843121,0.9919647924210286
2014-03-10,1,0.0018606562182079964,0.0022487275508524347,-0.008435406554902583,0.005622000095282978,0.9908840461933645
2014-03-12,-1,-0.0006538028995454112,-0.0005060437505747379,-0.005415037061130102,0.006689275846843121,0.9914294849225
2014-03-14,-1,-0.0011920794949216566,-0.0009972472092832653,-0.008384153528276754,0.006689275846843121,0.9908238693708652
2014-03-18,-1,-0.0008022862003987531,-0.0006472550726444671,-0.008384153528276754,0.007432304431091241,0.989971140212684
2014-03-20,-1,-0.0005664169561077408,-0.0004506034533876322,-0.006064625740888782,0.010080071691760699,0.9894843962349694
2014-03-24,-1,-0.0009535237625407232,-0.0007953720533290425,-0.005699982969298159,0.010080071691760699,0.9895548350690329
2014-03-26,-1,-0.0009463134274127644,-0.0007937146749784538,-0.003785457875594086,0.010887276649677953,0.9883774853771883
2014-03-28,1,3.8886995711707266e-05,6.221908744253159e-05,-0.005329770075012298,0.00883553626342196,0.9889594972454596
2014-04-01,1,8.415609883122669e-05,0.0001194109497288834,-0.005329770075012298,0.010114304919306111,0.9886871308350649
2014-04-03,1,0.0004908083407063699,0.0005639543685736133,-0.005329770075012298,0.010114304919306111,0.988818330092715
2014-04-07,-1,-0.00025118795930242373,-0.00024309365199829164,-0.003546129201502747,0.010114304919306111,0.9898028466503375
2014-04-09,1,0.0005448769433026406,0.0006608706938453154,-0.003546129201502747,0.009777797783370153,0.9903289699206587
2014-04-11,-1,-0.0003481128892781639,-0.0003462240337861294,-0.0011894963114896164,0.011463389786872297,0.9910892238791487
2014-04-15,1,0.0004785175825252446,0.0005681261540049077,-0.003546129201502747,0.009332576071675463,0.992052245229278
2014-04-17,1,0.0008488202723823234,0.0009795885954387341,-0.003805263815236226,0.00843721732819021,0.9921969087554556
2014-04-22,1,0.0006105568477256731,0.000691907828713949,-0.004750884807401654,0.008732389252997451,0.9910774430620244
2014-04-24,1,0.002191488814409191,0.002491372806159049,-0.004750884807401654,0.008482477554997266,0.9923095348445101
2014-04-28,1,0.0012609468180967824,0.001400120905524842,-0.002804303879394005,0.00946835675209663,0.9927018838505554
2014-04-30,1,0.0019053034590244672,0.0021330964963069262,-0.0029466059278405476,0.008482477554997266,0.9931348899648031
2014-05-02,1,0.0018896067609054188,0.00213313921578633,-0.0029466059278405476,0.008482477554997266,0.9932583297342792
2014-05-06,1,0.0015640239042617346,0.0017625109965430387,-0.004676796140341827,0.008482477554997266,0.9929411979314156
2014-05-08,1,0.002015031486411123,0.0022747743821062314,-0.004676796140341827,0.008482477554997266,0.9925787166030802
2014-05-12,1,0.0021114683544219285,0.0023613053896348922,-0.004676796140341827,0.005503014463805511,0.9929538097662611
2014-05-14,1,0.0016073335414251025,0.0018097278105268862,-0.004416212439149154,0.005503014463805511,0.9933070528125455
2014-05-16,1,0.0015470855279036768,0.0017282451571481396,-0.002859744694109656,0.005106643424701094,0.9938664064666681
2014-05-20,1,0.0011664636858911117,0.001298256825585657,-0.001151441560189284,0.0036102741363974794,0.9950645285015456
2014-05-22,1,0.0015731386855418234,0.0017636064353989704,-0.0007992828135383888,0.0036102741363974794,0.9956030549023669
2014-05-27,1,0.0018933614474212486,0.0021189401038221103,-0.004416212439149154,0.003221829026314015,0.9950265423117824
2014-05-29,1,0.0016991165289535867,0.0018862150803919914,-0.004416212439149154,0.003221829026314015,0.9950434352750864
2014-06-02,1,0.0017422747651595985,0.0019296361238324668,-0.004416212439149154,0.0036102741363974794,0.994541596720009
2014-06-04,1,0.001096669510554744,0.001199310255393925,-0.002816030327131847,0.0036102741363974794,0.9953126925818355
2014-06-06,1,0.0016079949670355378,0.0017675237067361206,-0.003797477897785622,0.0036102741363974794,0.9954294646102523
2014-06-10,1,0.002256385239885873,0.002556829331034406,-0.004382040278929432,0.002712496825645533,0.9947769955850314
2014-06-12,1,0.001474380075031975,0.0016360654790476305,-0.004292068583190112,0.002712496825645533,0.994897886656586
2014-06-16,1,0.0016152789064087711,0.001785552810357912,-0.005943943173800289,0.002712496825645533,0.9944535804456911
2014-06-18,1,0.0010715499914061908,0.001103251320416098,-0.006775197157414042,0.0033438148906952277,0.9936162301849336
2014-06-20,1,0.0011825424911760469,0.0012345809263767417,-0.006775197157414042,0.0033438148906952277,0.9935518591319138
2014-06-24,1,0.0003285075069713175,0.0003913543600996891,-0.004292068583190112,0.005851723534161963,0.9943674444096717
2014-06-26,-1,-0.00026374477904056773,-8.728680504347264e-05,-0.006540804641441878,0.006237525507444597,0.9905819249342703
2014-06-30,-1,-0.0002042182942189794,-4.04256828546022e-05,-0.00938004776408729,0.005851723534161963,0.9903863277342412
2014-07-02,1,0.0004762734082430821,0.0004972175701004866,-0.01190242278833857,0.005851723534161963,0.9893657224396818
2014-07-07,1,0.0006655040481453717,0.000681130641115969,-0.01190242278833857,0.005743514691617807,0.9897853159787691
2014-07-09,1,0.0003599722091004567,0.000377381658852676,-0.0118233409276602,0.005743514691617807,0.9897088537521699
2014-07-11,1,2.8784233893721463e-05,7.46392462826037e-05,-0.009380542316414745,0.005851723534161963,0.9895753705323117
2014-07-15,-1,-5.87910537799517e-05,-5.062884618981813e-06,-0.005113610266507552,0.005773838719980488,0.9899392681341077
2014-07-17,-1,-0.00025841709019428416,-0.00018658428742242,-0.0019877538319743185,0.006305822146892244,0.9901140137457257
2014-07-21,1,8.661849186790492e-05,0.0001199005152840668,-0.002879311421509632,0.006211323595085831,0.990153622486495
2014-07-23,1,0.0003751567774829235,0.0003943428784518095,-0.002879311421509632,0.007115571668398458,0.9898725704499078
2014-07-25,1,0.0018587798206969393,0.002048394920887232,-0.002879311421509632,0.006042466695816314,0.9935505163536269
2014-07-29,1,0.0010003647146098794,0.001070366143180852,-0.002529149065041232,0.006042466695816314,0.9942280244570078
2014-07-31,1,0.00035714168167674365,0.0003715310920814576,-0.0024148120677291367,0.006042466695816314,0.995134241011105
2014-08-04,1,0.0002403705979927888,0.00029473936057106825,-0.0024148120677291367,0.007115571668398458,0.9950126339146094
2014-08-06,-1,-0.0007036585541964769,-0.0005081404427369873,-0.0018719572446116571,0.007115571668398458,0.9953763247929487
2014-08-08,1,0.0001017047999680183,0.00018517054043067812,-0.0018719572446116571,0.007012265922958747,0.9960147404435054
2014-08-12,0,-1.1251812094198086e-05,8.455551475704482e-05,-0.0018271077706294198,0.007012265922958747,0.996120321433008
2014-08-14,1,0.0002460566259652925,0.00033179858211704447,-0.0024148120677291367,0.003961362964936299,0.996807631984406
2014-08-18,1,0.00020279415342938206,0.0002961784220627019,-0.0018271077706294198,0.002548694025004867,0.9971794206864824
2014-08-20,1,0.0008144284912256052,0.000820272055612433,-0.0018271077706294198,0.002548694025004867,0.9968963073018768
2014-08-22,1,0.0006666763913010454,0.000667251731614649,-0.002288543714298136,0.002548694025004867,0.9962488119969825
2014-08-26,1,0.000487001130767315,0.0005185724680874795,-0.0019531859298295255,0.002703657126935985,0.9962830067975754
2014-08-28,0,-0.00012785577173806821,1.7554004247145904e-05,-0.0019531859298295255,0.002703657126935985,0.9957148185218466
2014-09-02,1,0.00025792245074796527,0.0003366509412685967,-0.00255497374284843,0.0015819873804800572,0.9952324030267053
2014-09-04,-1,-0.0005913318890597051,-0.00035534940444220166,-0.002749798797673656,0.0015819873804800572,0.9948430707674347
2014-09-08,1,1.7738119510105478e-05,0.00013656717292067196,-0.002749798797673656,0.00245749600769846,0.9945136025544317
2014-09-10,1,0.00033526917790763374,0.00039718758225566926,-0.0053843196998049625,0.00245749600769846,0.9922999405307673
2014-09-12,1,0.00011455704877630054,0.00020959120380739454,-0.013551059164487603,0.00245749600769846,0.9909122594939569
2014-09-16,1,0.0008636121259731229,0.0009294597411193459,-0.014632332695796803,0.002966771418985646,0.9887636181851505
2014-09-18,1,0.001060474461650635,0.0011175657748986741,-0.015022434541722418,0.00245749600769846,0.9877330496639881
2014-09-22,1,0.0007164065437725118,0.0007591705467414832,-0.014632332695796803,0.00452533848659206,0.9880402168582149
2014-09-24,1,0.0007098668160799385,0.0007438417372076471,-0.014632332695796803,0.013782086158322285,0.986629061019831
2014-09-26,-1,-8.591061561886369e-05,-7.95159755163135e-06,-0.013551059164487603,0.015080925857960096,0.9859906128200772
2014-09-30,-1,-0.0003952007646088593,-0.00030421986362615165,-0.00888935334371157,0.015451169664158607,0.9854148923495425
2014-10-02,-1,-0.0007531459300061514,-0.0006384317095899702,-0.006496067421862412,0.015451169664158607,0.9856841884615622
2014-10-06,-1,-0.000825563692864314,-0.0006701402380041382,-0.006496067421862412,0.016117595657279223,0.9854076410121009
2014-10-08,-1,-0.0013325897986880028,-0.0011200405242449175,-0.005266720464817459,0.016117595657279223,0.9872544840407009
2014-10-10,-1,-0.002781690798764451,-0.0023829549049434505,0.0007407350814716161,0.016117595657279223,0.9869339586598205
2014-10-14,-1,-0.002840057891047754,-0.0024583912363470017,0.0007407350814716161,0.016117595657279223,0.9882166802932796
2014-10-16,-1,-0.0021898956008173094,-0.0019100270359613631,0.0007407350814716161,0.015451169664158607,0.9899192653780385
2014-10-20,-1,-0.0016825876640688556,-0.001460182175079715,-0.0008865987516564334,0.013442114617892405,0.9911529873867452
2014-10-22,-1,-0.0004523510861666859,-0.00038088809003487725,-0.0021173585560379637,0.009896513634267044,0.993291782780521
2014-10-24,1,0.0002588276362914878,0.0002781988159447352,-0.0021173585560379637,0.006486280812120106,0.9946397426872012
2014-10-28,1,0.001012028200677328,0.0011265739453884286,-0.0009682898172337662,0.004589462626947271,0.9959828510265625
2014-10-30,1,0.0012622124262192066,0.0014169457909002496,-0.00276290315072461,0.003520840267098039,0.9956278120632244
2014-11-03,1,0.001399287555254041,0.0015455315793515096,-0.00352100506382656,0.003520840267098039,0.9954726877686894
2014-11-05,1,0.0013618433628685687,0.0015159893302444131,-0.00352100506382656,0.004589462626947271,0.9950857598279531
2014-11-07,1,0.0020029318336135743,0.0022508377622563252,-0.00352100506382656,0.003520840267098039,0.9950686495380152
2014-11-11,1,0.0022617670617687676,0.0025554101203062707,-0.0040088323739439465,0.0028104343062353462,0.9947514204263123
2014-11-13,1,0.0018384855102396105,0.0020355894165086895,-0.00520457912275472,0.0028104343062353462,0.9943796417223492
2014-11-17,1,0.0015405939117802193,0.0016957061892145368,-0.005506231709742529,0.0038000310478443953,0.9942309438699991
2014-11-19,1,0.0014817475333296028,0.001635174417020769,-0.005506231709742529,0.007438190435745977,0.9932336784414892
2014-11-21,1,0.0014990789414386333,0.0016516321012774895,-0.005506231709742529,0.007438190435745977,0.9931599065283333
2014-11-25,1,0.0015060273403224701,0.0016634299755366993,-0.005506231709742529,0.007438190435745977,0.9932111619667636
2014-11-28,1,0.0009886828772696153,0.0010527774459704337,-0.0038362158761042044,0.007438190435745977,0.9932390857332315
2014-12-02,1,0.0007195272891735449,0.0007211546340693911,-0.0038362158761042044,0.005614643416403019,0.9937302463888293
2014-12-04,1,0.0006631370722491841,0.000680723793439575,-0.0041272077706723835,0.00508217677092378,0.9933164219385413
2014-12-08,1,0.0005436557875010509,0.000592141638377772,-0.007070547338038582,0.00508217677092378,0.9925565156754405
2014-12-10,1,0.00032117984146919694,0.0003792491214681522,-0.007070547338038582,0.005614643416403019,0.9914132269612463
2014-12-12,1,3.900763628186311e-05,0.00012364995637345461,-0.006410614242117537,0.005614643416403019,0.991711199233963
2014-12-16,1,0.0011888599818212376,0.0013535935588670275,-0.006410614242117537,0.0032022052554301172,0.9912740113412878
2014-12-18,1,0.0017502490655610056,0.0019352300858441283,-0.006410614242117537,0.0014014283571708594,0.9922389048979792
2014-12-22,1,0.0014243664252301426,0.001516691901783186,-0.006410614242117537,0.0016067018508368878,0.9916429679184041
2014-12-24,1,0.0015333990790215432,0.0016540127709048415,-0.006410614242117537,0.0011385499457651892,0.9913322845290015
2014-12-29,1,0.0008738687065872278,0.0008759686692072849,-0.008990406636199152,0.0011385499457651892,0.9903954007155484
2014-12-31,1,0.0007683584249642951,0.0008026266238763324,-0.012220861578709141,0.0026783493394593257,0.9871280448970087
2015-01-05,1,7.818656707257135e-06,7.015048394575955e-05,-0.008990406636199152,0.011246501476138851,0.9869042541211913
2015-01-07,1,0.0006193566414543225,0.0006608546220133167,-0.008382129661646219,0.007606247334756649,0.9875706133315363
2015-01-09,1,0.000513740717944373,0.0005440798295551885,-0.008382129661646219,0.005478080850302159,0.9888676284587683
2015-01-13,1,0.0003721468633659328,0.0004056881392402821,-0.008382129661646219,0.007606247334756649,0.9886492077452994
2015-01-15,-1,-0.0004260595667829501,-0.0003502026584206357,-0.005908094118836556,0.009552622710870224,0.9887445182484464
2015-01-20,-1,-0.00031351084693216093,-0.00024946398164687534,-0.005908094118836556,0.009552622710870224,0.9886388334016032
2015-01-22,1,0.0004207972400021989,0.0004460831360927458,-0.005908094118836556,0.007956691953585147,0.9894184868033562
2015-01-26,1,0.00028242788358275256,0.0003007343993391262,-0.004127803298339118,0.009552622710870224,0.9888273629041469
2015-01-28,-1,-0.000831360423275386,-0.0007112469479132273,-0.0032905726526276783,0.009552622710870224,0.9894841434589233
2015-01-30,1,0.00036137079244236505,0.00039129692686701756,-0.0028151753437333413,0.007956691953585147,0.9929590726504973
2015-02-03,1,0.0012975965246120992,0.0014572808248332425,-0.0050719785646101065,0.006102329064753243,0.9936167722917677
2015-02-05,1,0.0010753035063476306,0.0012004103347118605,-0.0050719785646101065,0.006102329064753243,0.9931389975441591
2015-02-09,1,0.0007956951859144164,0.0008830969458834131,-0.0050719785646101065,0.006900787185362204,0.9922505135758077
2015-02-11,1,0.0013985742539434182,0.0015960617370431617,-0.006359365026031272,0.006900787185362204,0.992005233432896
2015-02-13,1,0.001486735907007305,0.0016556327707923908,-0.009391011211490911,0.003786465084776816,0.9917580074281797
2015-02-18,1,0.0015127587228605252,0.0016873493606263056,-0.009391011211490911,0.006102329064753243,0.9903894863693689
2015-02-20,1,0.0013638741437006965,0.0014873578111809626,-0.009391011211490911,0.004994849239232935,0.9902545477620773
2015-02-24,1,0.0013666441758543519,0.001459019696359228,-0.009391011211490911,0.003485440142510604,0.9908035237111188
2015-02-26,1,0.00048763360916583785,0.0005355504141303948,-0.0094514057799195,0.003485440142510604,0.9913019670779003
2015-03-02,1,0.0007040081541071299,0.0007179183416547142,-0.0094514057799195,0.004969880789188682,0.9910216371027146
2015-03-04,-1,-0.00026502291061281986,-0.00011815596592865092,-0.008891258967313988,0.004969880789188682,0.9915690068188131
2015-03-06,-1,-0.0015708906195023317,-0.0012143380916636885,-0.00826146431974945,0.006444741953811745,0.992218539931186
2015-03-10,-1,-0.0018149529919372798,-0.0014102474897866033,-0.006358741400014029,0.005830442007618447,0.9931062666266368
2015-03-12,-1,-0.0012357731753757767,-0.0009399608881524892,-0.005172184212182828,0.004969880789188682,0.9939779821898626
2015-03-16,-1,-0.001552415941188959,-0.0012254497912931096,-0.005150010801319609,0.004969880789188682,0.9943212987363971
2015-03-18,-1,-0.00045513336577023895,-0.00030514070280848976,-0.0038779453450813123,0.004969880789188682,0.9950865532431318
2015-03-20,-1,-0.0004433738753697503,-0.0003332989179181442,-0.0038779453450813123,0.005830442007618447,0.9946573688108143
2015-03-24,-1,-0.00031570564961512894,-0.00023605561825929198,-0.0038779453450813123,0.006541917179103409,0.9941773320150686
2015-03-26,-1,-0.0004911352300062509,-0.0003974678210645245,-0.0030356787313067447,0.008941061156005004,0.9938040920754918
2015-03-30,-1,-0.00014719903580871744,-0.00010113840885401807,-0.0030356787313067447,0.0070981613174251066,0.9945680656225724
2015-04-01,-1,-0.00030274474173184974,-0.00023331045111768013,-0.0030356787313067447,0.0070981613174251066,0.9945909912499491
2015-04-06,1,0.0003769370018856734,0.00041673501802166527,-0.0030356787313067447,0.007211765429729645,0.9942555320334954
2015-04-08,1,0.0002856377474453933,0.0003192934281062861,-0.0013958352085346318,0.010719769746198062,0.994138290425144
2015-04-10,1,0.00016657168864393998,0.00018478264245730576,-0.0008268954900226583,0.010719769746198062,0.9937100027704073
2015-04-14,1,2.5569471422362083e-05,3.449957133673565e-05,-0.0005628364434056505,0.010719769746198062,0.9938612929345669
2015-04-16,1,0.0002774227409268346,0.0002984399544234198,-0.0005628364434056505,0.009685752036748829,0.9942991934009948
2015-04-20,1,0.00028831789185953654,0.0003123730274694906,-0.0005628364434056505,0.006903751584989222,0.9949417876635962
2015-04-22,1,0.0005677207708687112,0.0006300938428875513,-4.8700600495932145e-05,0.004535687894340238,0.9954814721797817
2015-04-24,1,0.0006260511554114229,0.0006847318465587954,-0.0005628364434056505,0.003972619230292153,0.9960896129851933
2015-04-28,1,0.000700717057603893,0.0007708067799034761,-0.0005880300562792206,0.004535687894340238,0.9951324940120952
2015-04-30,1,0.00034700109218858684,0.0003706265412195028,-0.000628241359803677,0.004535687894340238,0.9950625230894958
2015-05-04,1,0.0008592710023386462,0.0009545485362399844,-0.000628241359803677,0.003972619230292153,0.9956685379209311
2015-05-06,1,0.0009956631779239884,0.001094857790584557,-0.0014713426845395661,0.003972619230292153,0.9956827298822349
2015-05-08,1,0.0010990930501330784,0.0011971718053115324,-0.0014713426845395661,0.0038944033286294148,0.9960828396465714
2015-05-12,1,0.001128477269760164,0.0012341383277317426,-0.0014713426845395661,0.0040102952893927195,0.9949901333371185
2015-05-14,1,0.0014172319365583648,0.0015981512669159272,-0.0032154915893293262,0.003948279888156093,0.9948006478587138
2015-05-18,1,0.001222272848648062,0.0013791724449387327,-0.0032154915893293262,0.003948279888156093,0.9949205724003108
2015-05-20,1,0.001313581081868152,0.0014812362271842295,-0.0032154915893293262,0.004265310296983695,0.9945754946520732
2015-05-22,1,0.0011753538093770505,0.0013142062692328741,-0.0024701728779289956,0.004265310296983695,0.9945557413678221
2015-05-27,1,0.0011399216116514373,0.0012637162328844966,-0.0024701728779289956,0.004060950800666345,0.9950648331888742
2015-05-29,1,0.0005556186424615733,0.0005734785560525777,-0.0024701728779289956,0.004265310296983695,0.9948272880536121
2015-06-02,1,0.0008883327959950847,0.0009674471107191306,-0.0049696458547222044,0.004060950800666345,0.9945618664776485
2015-06-04,1,0.0006260491378618273,0.0006598155225816655,-0.0024701728779289956,0.004060950800666345,0.9939992077258543
2015-06-08,1,0.000509680202719014,0.0005187682114881785,-0.00349178656026027,0.0038258145180876313,0.9938961661832417
2015-06-10,1,0.0008970653267831078,0.0009313223931928486,-0.0049696458547222044,0.003051449569080143,0.994266549257624
2015-06-12,1,0.0006774699378876061,0.0006886010087986156,-0.004001094590716738,0.004649952674396677,0.9939316560686164
2015-06-16,1,0.0007651940321920777,0.0008159679114774415,-0.0035659413410474997,0.004649952674396677,0.994017483440457
2015-06-18,1,0.0008302501030861603,0.000874011048388538,-0.0035659413410474997,0.0031174978669056687,0.9944965717091339
2015-06-22,1,0.00038437405354100197,0.00043830644903099486,-0.004409388440546991,0.003166720062798649,0.9940372465116328
2015-06-24,1,0.0006958565566970538,0.0006969991881789859,-0.0035659413410474997,0.003166720062798649,0.9942063006701435
2015-06-26,1,0.0010826489867455861,0.0011773790128614924,-0.003951822304954211,0.002414503048871803,0.9939493139083952
2015-06-30,1,0.0006758058548735027,0.0007057906503559663,-0.0035659413410474997,0.005827103767991717,0.9932070617134935
2015-07-02,1,0.0012941980375742379,0.0013752881787405017,-0.003951822304954211,0.005827103767991717,0.9920574260624625
2015-07-07,1,0.001457724648565427,0.0015813832807212332,-0.0058531597974877635,0.005827103767991717,0.9913724590597818
2015-07-09,1,0.0010222012202216041,0.0011147896633061465,-0.003951822304954211,0.008109914497044707,0.9917576844459717
2015-07-13,1,0.0014798711744857947,0.0016343930155676594,-0.0044932968224731685,0.006186855412192439,0.9915226299085106
2015-07-15,1,0.0013438638443771325,0.0014930914054290079,-0.005923847121076397,0.006186855412192439,0.9911396087396791
2015-07-17,1,0.0015551011278828642,0.0017489122118502687,-0.005923847121076397,0.008875389768696958,0.9906645276743455
2015-07-21,1,0.001048925285858558,0.0011419435732754205,-0.0044932968224731685,0.008875389768696958,0.9913779531925215
2015-07-23,1,0.0009419732187328049,0.0010289209755424394,-0.005923847121076397,0.008875389768696958,0.9909959219982071
2015-07-27,1,0.00023672570672253915,0.00029777407692939216,-0.009700485815549817,0.008875389768696958,0.9880447220785489
2015-07-29,1,0.000984987624312682,0.0010188182574723517,-0.012657178501484434,0.0045249754921266065,0.9868367422162075
2015-07-31,1,3.4651222028445804e-05,0.00011492160953609749,-0.009700485815549817,0.0045249754921266065,0.9875954130168394
2015-08-04,-1,-0.0003247349366685026,-0.00021929470792799284,-0.009700485815549817,0.00906843184380528,0.9865807259624044
2015-08-06,-1,-0.00020141441566998164,-0.00010254436571074493,-0.009700485815549817,0.007743296750158889,0.9867316317118418
2015-08-10,1,0.0002853599150035381,0.00029302701149077335,-0.012286681230464686,0.007743296750158889,0.9855094135634632
2015-08-12,-1,-0.0002079393879113989,-0.00010504705010531918,-0.012676913498825106,0.007743296750158889,0.9854452173323403
2015-08-14,-1,-0.0002678669402987214,-0.00015594959962823704,-0.012676913498825106,0.008103559578563452,0.9849778380218909
2015-08-18,-1,-0.00047325575494494055,-0.00032717086083326166,-0.012676913498825106,0.010523881866290323,0.9839038153514864
2015-08-20,-1,-0.0008528272844117754,-0.0006623378831058522,-0.012676913498825106,0.010523881866290323,0.9838873485948768
2015-08-24,-1,-0.0016987843130530488,-0.0014068869136420546,-0.009499502303303162,0.010523881866290323,0.9866538533969587
2015-08-26,-1,-0.0016412037261137502,-0.0013826139135831603,-0.007708574591244868,0.008103559578563452,0.9889973832816357
2015-08-28,-1,-0.001527163202901455,-0.00126917572717272,-0.009499502303303162,0.00518872889315625,0.9896574808969156
2015-09-01,-1,-0.002393861697721158,-0.002024359112537871,-0.009499502303303162,0.00518872889315625,0.9898501726443873
2015-09-03,-1,-0.0021366679591176135,-0.00179882262147511,-0.009499502303303162,0.005506764241517201,0.989852638363506
2015-09-08,-1,-0.0015575679998485314,-0.001299523590368661,-0.007708574591244868,0.005506764241517201,0.9903438656010883
2015-09-10,-1,-0.002217607636582965,-0.0018792685515263688,-0.006598482604942788,0.009432327160917662,0.9898945183226471
2015-09-14,-1,-0.0019191501222109433,-0.0016370211346388834,-0.005141246115030349,0.006378538641358484,0.9908184204490653
2015-09-16,-1,-0.0010640305490640222,-0.000886589856696931,-0.008461725307681118,0.004392435264938744,0.99086365459857
2015-09-18,-1,-0.0014345662876065427,-0.0012211354657910693,-0.006487056227910222,0.004392435264938744,0.9912017634411532
2015-09-22,-1,-0.0020294360838498315,-0.0017216375853757846,-0.00415045803603037,0.004150071097435408,0.9919054694561644
2015-09-24,-1,-0.0016120719345077783,-0.0013880225794301614,-0.003925049726167855,0.006378538641358484,0.9882635355382577
2015-09-28,-1,-0.0016435260584565844,-0.0014370118705203361,-0.0029836892921812188,0.006378538641358484,0.9886526660783072
2015-09-30,-1,-0.0010861707919341546,-0.0009539039861543063,-0.0023564542192630136,0.006378538641358484,0.9900258490058074
2015-10-02,-1,-0.0007240453954015329,-0.0006413897459018412,-0.00318283524923077,0.005526103578182957,0.9902116163223759
2015-10-06,-1,-0.0006580207879827949,-0.000580423024314476,-0.00318283524923077,0.005526103578182957,0.9907526334337484
2015-10-08,-1,-3.768203976252526e-05,-2.4987341435842107e-05,-0.00318283524923077,0.003202037046454484,0.9915030708852607
2015-10-12,-1,-0.0003427784955540784,-0.00030065632794780466,-0.004522487597316508,0.00364695851912558,0.9910463862620826
2015-10-14,-1,-0.0010454992613780165,-0.0009183290561049443,-0.0023564542192630136,0.00364695851912558,0.9922340077528007
2015-10-16,-1,-0.0008057925650947568,-0.0007155317783170312,-0.004522487597316508,0.00364695851912558,0.991362601302588
2015-10-20,-1,-0.0008957773811497768,-0.0007809713417461571,-0.004771179692883938,0.004105636012708096,0.9908371818924215
2015-10-22,1,0.0009922153916354902,0.0011276215982781116,-0.004729803647136646,0.004105636012708096,0.9938111970502409
2015-10-26,1,0.0006215553895020578,0.0006973539299061929,-0.004729803647136646,0.0035654265191495645,0.9937744699969817
2015-10-28,1,0.0008754968326492064,0.000989030214430262,-0.004890238509279282,0.0035654265191495645,0.9938770852216958
2015-10-30,1,0.001020635146490661,0.0011987203348730172,-0.0023691181426269306,0.004508459533164044,0.9942650760140188
2015-11-03,1,0.0010216959187923588,0.001179968420478998,-0.004890238509279282,0.004508459533164044,0.994033625846864
2015-11-05,1,0.0008927198803007931,0.0010311547808932037,-0.0055201817174595404,0.00721694481459414,0.9929647920570659
2015-11-09,1,0.0009265211147116699,0.0010883066798249123,-0.0055201817174595404,0.00721694481459414,0.9931753383926287
2015-11-11,1,0.0010064045694283099,0.0011714342999010713,-0.006196317921292991,0.00721694481459414,0.992528962102805
2015-11-13,1,0.00038816205538688936,0.0004619338304805606,-0.005815156295947422,0.007919506218642656,0.9921173745441914
2015-11-17,1,0.000551586224577613,0.0006517237855783746,-0.007194388274539777,0.007919506218642656,0.991619260560512
2015-11-19,1,0.0008424159475747438,0.0009664850517843963,-0.010211181522753568,0.00721694481459414,0.9903858609714868
2015-11-23,1,0.00121479721514083,0.0014162055950489277,-0.010211181522753568,0.007919506218642656,0.9900255425989735
2015-11-25,1,0.0013895607893947377,0.0016231649122547772,-0.010211181522753568,0.009574914414350691,0.9899427198443973
2015-11-30,1,0.0012488119577802209,0.0014294083357965694,-0.010211181522753568,0.009574914414350691,0.9898451466880506
2015-12-02,1,0.0013661348225312568,0.0015841864124329385,-0.010211181522753568,0.009292290355188037,0.9899364343551434
2015-12-04,1,0.0016614896350028345,0.001911929207563242,-0.012189351048279427,0.005503682320142463,0.9890982180936106
2015-12-08,1,0.001478581516122466,0.0017124540846010267,-0.01509599373749513,0.005503682320142463,0.9874212456654805
2015-12-10,1,0.0012603500159689258,0.0014569586426590071,-0.017108164571294784,0.002453612383318252,0.9870782212808392
2015-12-14,1,0.0013789931451578198,0.0015830934333044332,-0.017225752596983966,0.002453612383318252,0.9868581415559603
2015-12-16,1,0.0012986386941027735,0.0014750900139223534,-0.01807494396984268,0.002453612383318252,0.9864360616273423
2015-12-18,1,0.0006791356922833103,0.0008241242449514956,-0.01807494396984268,0.002453612383318252,0.9878781816448162
2015-12-22,1,0.0006922394735243435,0.0008001379672083384,-0.01807494396984268,0.002453612383318252,0.9873724461212708
2015-12-24,1,0.0005880909119438554,0.0006632519679532875,-0.01807494396984268,0.002453612383318252,0.9865217487652066
2015-12-29,1,0.000850165260770081,0.0009711989763536465,-0.020162967840775977,-0.0008578185449686617,0.9844867507081467
2015-12-31,1,0.0005227245653665831,0.0006043063590257225,-0.020162967840775977,0.002834365130403701,0.9838846206930648
2016-01-05,-1,-2.6870391986119218e-05,-1.881169713811403e-05,-0.017873538768178314,0.013339114672400522,0.9839988759703222
2016-01-07,-1,-0.000687543931910303,-0.0006187066788432128,-0.017873538768178314,0.013339114672400522,0.9844783924991006
2016-01-11,-1,-0.0009777204785858921,-0.0008785455632178629,-0.01809526198258517,0.013339114672400522,0.9839206597634126
2016-01-13,-1,-0.0012185994051560137,-0.0010788038074302144,-0.015334578262334078,0.008365719915445281,0.9846569967665132
2016-01-15,-1,-0.0017502274311396084,-0.0015065319090754674,-0.012655040272498256,0.012505036713900769,0.9848434824189296
2016-01-20,-1,-0.0019804109900826592,-0.0017070575293970428,-0.009660804931381262,0.012505036713900769,0.9855338891189236
2016-01-22,-1,-0.0018027892756378701,-0.001569010359717975,-0.008035280775898407,0.014382941059475483,0.9851330053564022
2016-01-26,-1,-0.0016397625261879234,-0.0014020377762756797,-0.008035280775898407,0.008592895472825289,0.9863925189212499
2016-01-28,-1,-0.0023818667338712683,-0.0020661560747468307,-0.005711101789006944,0.01349107079107072,0.987229191029636
2016-02-01,-1,-0.0017836101725484936,-0.0015509146082672842,-0.008035280775898407,0.01349107079107072,0.9865614209430571
2016-02-03,-1,-0.0016218468523038834,-0.0013913258790016901,-0.005711101789006944,0.008641629822815295,0.9880652811282651
2016-02-05,-1,-0.002281136974036869,-0.001976352158060862,-0.004981471199882067,0.011603436390555697,0.9886505621296859
2016-02-09,-1,-0.0022413679916840875,-0.0019710668261562992,-0.004764777579192148,0.011603436390555697,0.9898474253289091
2016-02-11,-1,-0.0023676749628030293,-0.002071005973516008,-0.004764777579192148,0.01349107079107072,0.9896284168011884
2016-02-16,-1,-0.0019982517047621375,-0.001735550182506677,-0.004764777579192148,0.008113920824320262,0.9912962803212432
2016-02-18,-1,-0.0020743998978508533,-0.0017988098843707003,-0.0032102709097796248,0.011907943795585624,0.9904369268888426
2016-02-22,-1,-0.001989012464077936,-0.0017041152272343806,-0.0008252368725995616,0.011907943795585624,0.9908769380681397
2016-02-24,-1,-0.001964371336064476,-0.0016911486130706706,-0.002346851630829162,0.011907943795585624,0.9911511055473341
2016-02-26,-1,-0.0015326480856907203,-0.001315491483428743,-0.002346851630829162,0.008113920824320262,0.9918905541120497
2016-03-01,-1,-0.0009375339201165118,-0.0008086406349477409,-0.002346851630829162,0.008113920824320262,0.9931428439399208
2016-03-03,-1,-0.0005406643580535089,-0.00048094890656738613,-0.002346851630829162,0.011704762271589238,0.992938435288402
2016-03-07,-1,-0.00013103423178108606,-0.00011181157388203731,-0.003359651339189707,0.0074776549591263645,0.9929465337787677
2016-03-09,-1,-0.0007400476862895857,-0.0006207196492928381,-0.0034514362291467055,0.01178946170000099,0.9922889176476098
2016-03-11,-1,-0.0004962519274847204,-0.0004077740785206273,-0.0027497599071340897,0.010456798443439537,0.9927925129781504
2016-03-15,-1,-0.0005180661937484497,-0.0004280498298232039,-0.0023966451072991897,0.013223598746667604,0.9914684497805322
2016-03-17,1,0.0007862701760516721,0.000947558457727623,-0.002647149498080194,0.01166670564549854,0.9925137432290988
2016-03-21,1,0.0011577741385935714,0.001366425547481597,-0.002647149498080194,0.010456798443439537,0.9931796006474531
2016-03-23,1,0.0010461859879965301,0.0012533520882493936,-0.003199445390682728,0.01166670564549854,0.9913219565778871
2016-03-28,1,0.0011091197164959936,0.0013109890528198603,-0.005167304416056467,0.01166670564549854,0.991130493366696
2016-03-30,1,0.0014825065999663047,0.001749257769133447,-0.003258425899784888,0.011216105298314913,0.9917392670288311
2016-04-01,1,0.0018763588781339324,0.0021892804352895735,-0.0057309487531158835,0.010456798443439537,0.9916580719845881
2016-04-05,1,0.0012464540873211212,0.0014689661277319719,-0.004605380122086923,0.010456798443439537,0.992043607002422
2016-04-07,1,0.0013856132715704718,0.0016353643995351717,-0.0030121372926928797,0.005279782793987114,0.9928005849307949
2016-04-11,1,0.0013104062267913954,0.0015162672325847628,-0.004054748817709092,0.004855971870115045,0.9926630347608859
2016-04-13,1,0.0020523732998453618,0.0023640290941295693,-0.004054748817709092,0.003114940210036572,0.9927413404608576
2016-04-15,1,0.002103903814399119,0.0024485149288136308,-0.004054748817709092,0.0042313965918345355,0.9926815297762416
2016-04-19,1,0.0022431405967064627,0.002613130169742507,-0.004387646253723733,0.006281109989320209,0.9922477132346778
2016-04-21,1,0.003032771799259252,0.003511175223941377,-0.004387646253723733,0.0042313965918345355,0.9934245994280264
2016-04-25,1,0.00273158239002772,0.0031780347268420615,-0.004054748817709092,0.005777944635465525,0.9938752862721374
2016-04-27,1,0.0030634463534784055,0.0035527830944514565,-0.004054748817709092,0.005777944635465525,0.993398408460942
2016-04-29,1,0.002880914908598331,0.003359337029180001,-0.0038927595946047343,0.005777944635465525,0.9935770133371759
2016-05-03,1,0.0025688037852600928,0.002992274254874655,-0.0038718123947147865,0.005777944635465525,0.9944107476658461
2016-05-05,1,0.002401862825376917,0.0027949111276624823,-0.0038927595946047343,0.005777944635465525,0.9943466783111491
2016-05-09,1,0.00251052457628319,0.002923320031477343,-0.0038718123947147865,0.00465569642402444,0.9948418334461954
2016-05-11,1,0.0029222210564373496,0.0033949438440654305,-0.0038718123947147865,0.003983588517274132,0.9955241793676313
2016-05-13,1,0.002324349444161408,0.0026559434838308105,-0.004646455452511718,0.0035496040039896303,0.9948952039610598
2016-05-17,1,0.0024321265336779813,0.002795194650833091,-0.0052246936041270686,0.0035496040039896303,0.994603916990759
2016-05-19,1,0.002324084204226672,0.002679431419512851,-0.004195906881697022,0.003983588517274132,0.9952142863723721
2016-05-23,1,0.0025021696757173834,0.002892491224575089,-0.004195906881697022,0.003983588517274132,0.9946263270932774
2016-05-25,1,0.00244335548084996,0.00280718883398508,-0.004195906881697022,0.003983588517274132,0.9946152345685086
2016-05-27,1,0.0018588924727493332,0.002101495829181934,-0.005454597810409467,0.003983588517274132,0.9903408314157411
2016-06-01,1,0.0015022650707347922,0.0016465603275128326,-0.005454597810409467,0.005436136829708775,0.9888494163064083
2016-06-03,1,0.0011692630751266285,0.0012439663635461923,-0.004111726032273398,0.010497354012505872,0.987456826909339
2016-06-07,1,0.001163901524548397,0.0012313963625852661,-0.0060985441394227485,0.010497354012505872,0.9870081216217008
2016-06-09,1,0.0012117379794317979,0.0012707952630316211,-0.0060985441394227485,0.013124681669656028,0.9861233404051793
2016-06-13,1,0.0005369141162479035,0.0005780428837886976,-0.0026914952057305883,0.013124681669656028,0.9861703323428951
2016-06-15,1,0.0002789026575591381,0.00036094653696324796,0.0006167463656776187,0.013124681669656028,0.9867042843245998
2016-06-17,1,0.000667511204360177,0.0006771024927963208,-0.0013565730958167432,0.013124681669656028,0.9869901022552953
2016-06-21,1,0.00017345540454975002,0.00034528764848181686,-0.0016867192398547937,0.010497354012505872,0.9873430201874263
2016-06-23,1,0.0006668745564845108,0.0007394122259261656,-0.002342996849773788,0.011795428285775856,0.9850299293778978
2016-06-27,-1,-0.0017586337057967129,-0.0014302791436757634,0.0013860834283294637,0.011795428285775856,0.987785479474626
2016-06-29,-1,-0.0012506477582535918,-0.0009493731748625209,-0.0006229839873982698,0.008339194927569214,0.9899775040552323
2016-07-01,-1,-0.0007490462578172171,-0.00048346855782830647,-0.0011544395743836235,0.007746096443126306,0.9918686307810691
2016-07-06,-1,-0.0011078809414773543,-0.0007751394564963971,-0.0011544395743836235,0.007746096443126306,0.9922445011895689
2016-07-08,-1,-0.00024271435336372922,-4.534215062127042e-05,-0.0011544395743836235,0.0076765013720393625,0.9930658587180622
2016-07-12,0,-8.329450346381234e-05,0.00010340300250668839,-0.0011544395743836235,0.004030554202858581,0.9938853403281941
2016-07-14,1,6.231868468592965e-05,0.00022004752398709087,-0.0020351276960850493,0.004030554202858581,0.9937974162350908
2016-07-18,0,-0.00017312025869087148,2.198273728355434e-05,-0.0024498604362940078,0.004030554202858581,0.9936323265571625
2016-07-20,0,-0.0001392967794311942,3.502342432414474e-05,-0.0024498604362940078,0.004041075020105403,0.9933057934509895
2016-07-22,1,0.0007627441720704673,0.0008183323562876376,-0.001691059222696378,0.003360020181772562,0.9963526885818512
2016-07-26,1,0.001031177163125572,0.0010536383738809635,-0.0024498604362940078,0.003174788791447834,0.9965301949449545
2016-07-28,1,0.0010769700764175422,0.0010838072218465886,-0.0034921201220433173,0.003174788791447834,0.9963256012400448
2016-08-01,1,0.0007334637113112172,0.0007782568277094633,-0.0024498604362940078,0.004041075020105403,0.996059741613417
2016-08-03,1,0.0006603165790439918,0.0007069076539452815,-0.0024498604362940078,0.005831016846082808,0.9956685454603715
2016-08-05,1,0.0008213527291393663,0.0008560121505446964,-0.0024498604362940078,0.003360020181772562,0.996084167231768
2016-08-09,1,0.0009212553212433847,0.0009219158762766432,-0.0035123077274052793,0.003360020181772562,0.9955851432897752
2016-08-11,1,0.0009985165027023295,0.0010261185934592005,-0.0041284341922597865,0.0026265011091437646,0.9946293280341741
2016-08-15,1,0.0007627125830353913,0.0007849515625740742,-0.005892173368629402,0.004042392554788202,0.9937082448332393
2016-08-17,1,0.0005893304984014831,0.0006261990772986619,-0.0041284341922597865,0.006095340569363712,0.9939026315393372
2016-08-19,1,0.000560392545532424,0.0005881182544475293,-0.005892173368629402,0.006908869183282816,0.9930661931764632
2016-08-23,1,0.0007415459948569809,0.0007513635585477022,-0.005892173368629402,0.006908869183282816,0.9930888254124804
2016-08-25,1,0.0002108070780040861,0.00029150740546203486,-0.006176536745768634,0.006908869183282816,0.9922820953447911
2016-08-29,1,0.0004684058136760753,0.0005217361653335373,-0.006176536745768634,0.006048634361963029,0.9924187303100755
2016-08-31,1,0.0005098498006203839,0.000549690321138418,-0.008289322007679258,0.006702146928278783,0.9918144000407773
2016-09-02,1,0.000814130893575848,0.0008484979235706435,-0.008289322007679258,0.009685034895924986,0.9913857721078562
2016-09-07,1,0.0004602311747850285,0.0004812255600509412,-0.004490458486983533,0.010278161740179306,0.9912332878259028
2016-09-09,-1,-0.00015300119552252086,-6.120921923351194e-05,-0.004583221050534605,0.010278161740179306,0.9914650000465898
2016-09-13,1,0.00022858400380511252,0.0002420249109860862,-0.00621416192007573,0.009685034895924986,0.9907894675508149
2016-09-15,1,0.00030741218824711805,0.0003116804911411731,-0.00621416192007573,0.009685034895924986,0.9899629251540538
2016-09-19,1,0.0003748526942386006,0.00039319333260640446,-0.005681213235003586,0.006896677631879518,0.9903776490925008
2016-09-21,1,0.00040393737769104477,0.0004130350836338173,-0.005681213235003586,0.006791269885182001,0.9905436512073335
2016-09-23,0,-2.2663589778651423e-05,2.936745330124526e-05,-0.004450148466288224,0.006454808767095969,0.9913628458555669
2016-09-27,1,0.00015395968341320743,0.00019057797678032474,-0.005681213235003586,0.0038007473090250514,0.9907554639416638
2016-09-29,0,-3.06577834235564e-05,2.5924926001931687e-05,-0.005681213235003586,0.0033177909807101114,0.9911916406333546
2016-10-03,1,0.0003801468177431841,0.0003802114993858763,-0.00623501631434907,-0.00036277986662824565,0.9910622243545782
2016-10-05,1,0.0005875126008431807,0.0006148713968412436,-0.00623501631434907,-0.0017598779886889094,0.9913821165419432
2016-10-07,1,0.0002635485872903518,0.0002754572347211284,-0.005009957647770379,0.00010137574829612755,0.9920686307420898
2016-10-11,-1,-0.0007360817933294135,-0.0005934578208273437,-0.004445844136319384,0.0046308678924778975,0.9928875831626958
2016-10-13,-1,-0.00014762623643055394,-7.734395706148357e-05,-0.004445844136319384,0.005128833000460013,0.9912487330554786
2016-10-17,-1,-0.00014643616638271956,-8.349901806797963e-05,-0.004445844136319384,0.0053068554339099775,0.9900166992170145
2016-10-19,-1,-0.00047173991648216077,-0.00035603742657799273,-0.004445844136319384,0.0056859504480328334,0.989818290224133
2016-10-21,-1,-0.00046650691689836083,-0.00035313937667065184,-0.004997044657863858,0.0056859504480328334,0.9897356308529438
2016-10-25,-1,-0.0010816114513036831,-0.000893100329311749,-0.0040294346192140725,0.0056859504480328334,0.9906989258583658
2016-10-27,-1,-0.0014332024742957808,-0.0012119891751898103,-0.004025948758476533,0.005925850538592286,0.990684880716115
2016-10-31,-1,-0.0016655800671186935,-0.0014182135024969767,-0.003595479392940442,0.005925850538592286,0.9900964857968136
2016-11-02,-1,-0.002014897702864509,-0.0017053080627376367,-0.004025948758476533,0.005925850538592286,0.9894785708443888
2016-11-04,-1,-0.0018611244799692376,-0.0015638810963138129,-0.004837012698042372,0.0068678466933722,0.9895365082130874
2016-11-08,-1,-0.0010752085669033604,-0.0008770536030982026,-0.004837012698042372,0.0068678466933722,0.9901250318096064
2016-11-10,1,0.0005258610387727126,0.0005270940916564458,-0.004837012698042372,0.003720549692146126,0.9925732600345368
2016-11-14,0,-5.446380416327759e-05,6.895856753646063e-06,-0.004837012698042372,0.002845501995124672,0.9938909667671095
2016-11-16,-1,-0.0014109938301976543,-0.0010668824417572739,-0.005613269405393339,0.0018072158577391814,0.9944904814952346
2016-11-18,-1,-0.001251960675067098,-0.0009719014772281728,-0.005613269405393339,0.002585075034672994,0.9940468908797266
2016-11-22,-1,-0.0008373614133226892,-0.0006537625131544194,-0.005613269405393339,0.002585075034672994,0.9938842861787585
2016-11-25,-1,-0.0007988166602096431,-0.0006159129151691678,-0.007744072818096277,0.002585075034672994,0.9938198958580428
2016-11-29,-1,-0.0007990977043414171,-0.0006462523273143017,-0.007744072818096277,0.0019683447455816584,0.9941129553805576
2016-12-01,-1,-0.0008230739734499653,-0.0006851593842227481,-0.005613269405393339,0.001744621272051213,0.9944298432784197
2016-12-05,-1,-0.0006902057627484121,-0.0005736478480329599,-0.005468628556741125,0.003735802507274809,0.9941855316631887
2016-12-07,-1,-0.0004195395594511389,-0.0003335318804140527,-0.005468628556741125,0.003735802507274809,0.9942875910607326
2016-12-09,-1,-0.0005106971950475637,-0.00040946005999354014,-0.005468628556741125,0.002411962081125597,0.9943795138302233
2016-12-13,-1,-0.00045722822072258393,-0.0003955259347467836,-0.004682675662846654,0.005880049817360714,0.9944223570493149
2016-12-15,-1,-0.0003904617670631795,-0.00035922822302157783,-0.004682675662846654,0.005880049817360714,0.9940994210876597
2016-12-19,-1,-0.0005649396951365539,-0.000511512552120701,-0.004532517044726474,0.0063615466260149005,0.9939601957036551
2016-12-21,-1,-0.0007042561493558058,-0.0006344465106253683,-0.004532517044726474,0.0063615466260149005,0.9937791672468984
2016-12-23,-1,-0.0007482688954868703,-0.0006714841498573019,-0.002408600773525597,0.007205080794934587,0.992934757740834
2016-12-28,-1,-0.0008559229903974118,-0.0007865196352342678,-0.0012693707672513565,0.007931040243743985,0.9930470260469151
2016-12-30,-1,-0.0009157941173654623,-0.0008425629414393129,-0.0012693707672513565,0.007931040243743985,0.9928956907168681
2017-01-04,-1,-0.00040237684438089016,-0.0003906877925704861,-0.0029574716122204386,0.0067679995891491455,0.9932514447378097
2017-01-06,1,3.859486020230189e-05,8.50709327420228e-05,-0.004532517044726474,0.0067679995891491455,0.9933744714072735
2017-01-10,-1,-0.00017003015793805673,-0.00016501715659557824,-0.004120654171322894,0.0067679995891491455,0.9933665164951431
2017-01-12,1,5.408070691675636e-05,8.685329895833376e-05,-0.004120654171322894,0.007544495899771443,0.9932096168602171
2017-01-17,1,1.269681996463024e-09,3.0001329547314892e-05,-0.004120654171322894,0.008142127320038274,0.9925499355768366
2017-01-19,1,0.00024898071186791606,0.000304304622341234,-0.002834064145484507,0.007544495899771443,0.9931405619398866
2017-01-23,1,0.0006551704460485169,0.0007889611432149243,-0.002834064145484507,0.007544495899771443,0.9931834094612734
2017-01-25,1,0.0015222029834968218,0.0017728653042447342,-0.002834064145484507,0.005789288298237839,0.9944170364823292
2017-01-27,1,0.0016837942961872457,0.001956354911811173,-0.002834064145484507,0.005155205573288309,0.994529118217763
2017-01-31,1,0.0012987696403949625,0.00150427755771045,-0.002755588605614642,0.005789288298237839,0.9941093558665215
2017-02-02,1,0.0005622551869393165,0.0006309684011585808,-0.002755588605614642,0.005789288298237839,0.9942915890037901
2017-02-06,1,0.0005931172383126733,0.0006645935695550549,-0.002755588605614642,0.005155205573288309,0.9946760841080755
2017-02-08,1,0.0006778848498766002,0.0007822532677644725,-0.002755588605614642,0.005155205573288309,0.9945553203177999
2017-02-10,1,0.000986880560864575,0.0011300316737593089,-0.002755588605614642,0.005663363580586253,0.9940350296122926
2017-02-14,1,0.0015065211203071252,0.0017329434447790832,-0.002755588605614642,0.005663363580586253,0.9944834824651193
2017-02-16,1,0.0015106509057212728,0.0017168716072771433,-0.001922343436000723,0.004831397680031019,0.994893158045359
2017-02-21,1,0.001784664389074883,0.0020432117819836086,-0.0040094958373829625,0.004324256001713621,0.994169836328558
2017-02-23,1,0.0017094171735062792,0.001950410964040773,-0.0040094958373829625,0.0058222632820112636,0.9940039419163893
2017-02-27,1,0.0019199885403408839,0.0022016652276667784,-0.0040094958373829625,0.005203252603945994,0.9939728374361471
2017-03-01,1,0.002461312030785967,0.002836863838781953,-0.0033059403400027523,0.005203252603945994,0.9944000511969284
2017-03-03,1,0.0018914392831651762,0.002160173658435721,-0.0013714546434439555,0.005566642468951824,0.9950066225440738
2017-03-07,1,0.0014625328291870648,0.0016008286745660173,-0.002927121835759767,0.005566642468951824,0.9949208253167654
2017-03-09,1,0.0021019123880696077,0.0023742456000369156,-0.002927121835759767,0.008427445064613605,0.9944427009297998
2017-03-13,1,0.0028446670806845887,0.0032002789772977336,-0.002927121835759767,0.0044090130516526976,0.9949328855665334
2017-03-15,1,0.002737550529446568,0.0030630757474721573,-0.0024964551514769554,0.0024895257295082076,0.995478102440355
2017-03-17,1,0.00273752304402063,0.0030604264524384268,-0.002927121835759767,0.004364703796545204,0.9948215556246596
2017-03-21,1,0.001640166274990155,0.001761515884318244,-0.0024964551514769554,0.004364703796545204,0.9958126940573134
2017-03-23,1,0.0016033018969386983,0.0016761317524077084,-0.0024964551514769554,0.0046394751513360475,0.9939705963616978
2017-03-27,1,0.0010454233441270688,0.0010635775190452126,-0.0026788331606126723,0.0046394751513360475,0.9939427554735069
2017-03-29,1,0.0011489106456415656,0.0011670969704131759,-0.0034900172491760173,0.0046394751513360475,0.9938641335378077
2017-03-31,1,0.0014044497171441192,0.0014322834095382656,-0.003635452822977855,0.0025663464294026577,0.9934111118656013
2017-04-04,1,0.0016313079758187793,0.0017422375663979019,-0.0039702942951487736,0.005062723108649882,0.9932831333527089
2017-04-06,1,0.0027804203653296012,0.0031722516935796625,-0.002792745962396311,0.005062723108649882,0.9931855215254286
2017-04-10,1,0.0021494458107389515,0.00240125884562206,-0.002792745962396311,0.005062723108649882,0.9933720115896139
2017-04-12,1,0.0021474344694681407,0.0024153192800230013,-0.0039702942951487736,0.005062723108649882,0.9932086713525619
2017-04-17,1,0.0015595007193309753,0.0017222713686037283,-0.0039702942951487736,0.0040252133753652585,0.9936507798087202
2017-04-19,1,0.0013612978485961988,0.001484621084831726,-0.004364319193481996,0.0040252133753652585,0.992645722625071
2017-04-21,1,0.00303935570905963,0.003390128032440154,-0.004364319193481996,0.0033944321719130356,0.9938587835158992
2017-04-25,1,0.002469965124615977,0.0027115297217594476,-0.0056292724127488,0.0033944321719130356,0.9938558639999443
2017-04-27,1,0.0022921945557293484,0.0024842938733117656,-0.0056292724127488,0.0033944321719130356,0.994241315978522
2017-05-01,1,0.0019135270768182843,0.002053773768920918,-0.003969762691484826,0.0034057388962373657,0.9948598598929075
2017-05-03,1,0.0020068590240780314,0.002180455387363709,-0.002099700426382133,0.004326415363360317,0.9949457485418088
2017-05-05,1,0.002424509265220288,0.0026467130783660183,-0.00418210789518219,0.0034057388962373657,0.995064812592192
2017-05-09,1,0.002096599984178012,0.002246108628106412,-0.006266308023840891,0.004326415363360317,0.9943816602216318
2017-05-11,1,0.0015971350230023823,0.001658188747512711,-0.00418210789518219,0.0055864392379607756,0.9941428098351424
2017-05-15,1,0.0011320867758251927,0.0011478541553325426,-0.00418210789518219,0.005911619283060555,0.9931143339657105
2017-05-17,0,-4.150680762055959e-06,0.00016277998544210638,-0.0023031340311473565,0.005911619283060555,0.9937724158775314
2017-05-19,1,0.0003873779283555007,0.0005134694196565514,-0.0023031340311473565,0.005911619283060555,0.9942336858030268
2017-05-23,-1,-0.00043694195488163854,-0.00018586027165885268,5.245909552083151e-05,0.005911619283060555,0.9940886533496385
2017-05-25,-1,-0.0004491827415603474,-0.00018422422080696644,-0.0010947787631888346,0.006032514085889326,0.9939111614272347
2017-05-30,0,-0.00015454256603913356,4.890759210111797e-05,-0.004613927855865785,0.006032514085889326,0.9933540101259721
2017-06-01,1,0.0005284589093422746,0.000643077363660862,-0.005496847118809199,0.006032514085889326,0.9930752633501839
2017-06-05,1,0.00011614531534584515,0.0002932505816230931,-0.004613927855865785,0.006474317441634013,0.9928208532065756
2017-06-07,0,-8.776286867962608e-05,0.0001016455643574021,-0.004560400763976347,0.0068833615435184995,0.992958896333269
2017-06-09,1,0.00029420222072719973,0.0004543547572247109,-0.004560400763976347,0.006885643061011188,0.9925889421927727
2017-06-13,1,0.0008268057423040944,0.0009105411845317183,-0.004398281198938421,0.0066915366882186545,0.9935558908336941
2017-06-15,1,0.0006003412028080719,0.0007042830616624453,-0.0041024488174031815,0.0066915366882186545,0.9937158794342275
2017-06-19,1,0.0014346009772601743,0.0014878335277944247,-0.0041024488174031815,0.0066915366882186545,0.9938203760293097
2017-06-21,1,0.0015330539858412972,0.0016108848002729435,-0.0046178992025255935,0.006885643061011188,0.9931968629183383
2017-06-23,1,0.0012810815460683163,0.0013022335506943767,-0.0046178992025255935,0.006885643061011188,0.9926230973502356
2017-06-27,1,0.00012091246582667073,0.00026686708738299635,-0.005756473812454592,0.006885643061011188,0.9923239333300549
2017-06-29,-1,-0.000239521368804625,-4.6833810003095986e-05,-0.005756473812454592,0.006885643061011188,0.9925294270039713
2017-07-03,1,9.611172408600672e-05,0.0002615257006827726,-0.007952730142606489,0.006233282112805395,0.9925735791840602
2017-07-06,1,0.00035391019706205627,0.00047165466883722135,-0.007952730142606489,0.006233282112805395,0.9922858041588835
2017-07-10,1,0.0015355244833768697,0.0015850637803727185,-0.007952730142606489,0.004890024028900118,0.9931508786326115
2017-07-12,1,0.0015477403777375259,0.0016028381933080311,-0.008341804380284933,0.0032501013282241913,0.9929111961807808
2017-07-14,1,0.0015270894537761045,0.0015879790620017295,-0.008735483759647054,0.004890024028900118,0.9920374680575214
2017-07-18,1,0.0013509094001762823,0.001380280745977377,-0.009057798339470163,0.00587564513985243,0.9913211873100982
2017-07-20,1,0.0013735001723981226,0.0014076031053439297,-0.009609654811335563,0.00587564513985243,0.9908916899987499
2017-07-24,1,0.0007760400817097003,0.0008015689186749962,-0.009057798339470163,0.00587564513985243,0.9916815649308252
2017-07-26,-1,-0.000626253123378286,-0.00041390199307526226,-0.008735483759647054,0.0061344485057228506,0.9920393050145112
2017-07-28,-1,-0.0008897668998072034,-0.0006420948510138778,-0.008341804380284933,0.006833001943223532,0.99214218062428
2017-08-01,-1,-0.0011922786721656428,-0.0009009059262171851,-0.0054245831131743295,0.006833001943223532,0.9926995286349282
2017-08-03,1,0.00011844144928592964,0.00021447762672976463,-0.0054245831131743295,0.006833001943223532,0.9918216907223942
2017-08-07,1,2.45423041398393e-05,0.00012540157440386234,-0.008535027576102881,0.006833001943223532,0.9911343000897769
2017-08-09,-1,-0.0005470694712189627,-0.00038040104429421494,-0.007303637647974182,0.009545128527910124,0.9907217233182487
2017-08-11,-1,-0.0012954480479679415,-0.0010132668494643722,-0.005014119803798097,0.011614991675942226,0.9906621148331789
2017-08-15,-1,-0.0010108421394654688,-0.0007830616592785925,-0.0035120404859028797,0.009661692796763193,0.9915521827303694
2017-08-17,-1,-0.0015340613962255324,-0.0012377243182378327,-0.0031420268336503276,0.007384264887016845,0.9923007884133764
2017-08-21,-1,-0.0016855834560890147,-0.0013875148851879376,-0.0001787281099025138,0.01195836420729279,0.9912229658509774
2017-08-23,-1,-0.0015589775299327964,-0.001286663095865948,-0.0001787281099025138,0.010198208268871809,0.9919783940203126
2017-08-25,-1,-0.0012796818465115884,-0.0010247243041234398,-0.0024217032977814574,0.0076096746718144126,0.9924824521311268
2017-08-29,-1,-0.0012096021164907209,-0.000967971303997063,-0.003623632849504903,0.0076096746718144126,0.9922210352976604
2017-08-31,1,0.0001780602526728609,0.0002591723238374083,-0.003623632849504903,0.0076096746718144126,0.9933933178287334
2017-09-05,-1,-0.000624254129916879,-0.00044294247920359487,-0.0022458304992563263,0.009633563560891631,0.9925192550780946
2017-09-07,0,-8.609046571552738e-05,5.28698480202715e-05,-0.002658830558344098,0.008579529817962164,0.9931551750774175
2017-09-11,1,0.0005267133606628378,0.0006003859118715277,-0.003315115584378885,0.007750476106556975,0.9935837879831352
2017-09-13,1,0.0013697674461966515,0.0015009328325529944,-0.003800622633899535,0.007750476106556975,0.9935029457042044
