JNU-Tangyin/eata/results/Batch4_SP500/Batch4_SP500-HES.csv
Date,Action,Predicted_Q25,Predicted_Q75,Actual_Q25,Actual_Q75,RL_Reward
2010-12-14,0,0.0,0.0,-0.005226329084468943,0.014411484182550121,0.9906340836292984
2010-12-16,0,0.0,0.0,-0.0036410838422944233,0.014672508139742937,0.989376222131356
2010-12-20,0,0.0,0.0,-0.0036410838422944233,0.013015885305832555,0.9896196043138794
2010-12-22,1,0.0042341903764600486,0.00466815279779344,-0.008106290949409655,0.0060711712520910305,0.9880590681539958
2010-12-27,1,0.0037001123113187284,0.004051457365451017,-0.009894435695994765,0.0060711712520910305,0.9879568224384333
2010-12-29,1,0.003951033589120281,0.004300053639100777,-0.009894435695994765,0.0060711712520910305,0.9873705442125136
2010-12-31,0,0.0,0.0,-0.009894435695994765,0.02350481210431834,0.9854612146781501
2011-01-04,0,0.0,0.0,-0.010750385512687996,0.02350481210431834,0.9846694312800611
2011-01-06,0,0.0,0.0,-0.010750385512687996,0.017968775857830757,0.9850064464457449
2011-01-10,0,0.0,0.0,-0.009894435695994765,0.017968775857830757,0.98499672351373
2011-01-12,1,0.0019117641689455308,0.002117695411265204,-0.010750385512687996,0.014801415851242778,0.984811184967718
2011-01-14,1,0.0019001580356393646,0.002157258919910585,-0.010750385512687996,0.014801415851242778,0.9848853186271198
2011-01-19,1,0.0007479666737106201,0.001167078756561181,-0.010750385512687996,0.016603416829920187,0.9839817429817617
2011-01-21,0,-0.0002877130275241867,0.0001889303252194639,-0.00902216639381167,0.016603416829920187,0.9845498322094192
2011-01-25,0,-6.264410622115919e-08,0.0003478004144410226,-0.00902216639381167,0.023160377507246012,0.9808535938245769
2011-01-27,1,0.0013049537009503472,0.001458130064871405,-0.010678447106177616,0.016603416829920187,0.9809861647800356
2011-01-31,1,0.0029536118668291515,0.0029627036721240492,-0.013975358572223769,0.014801415851242778,0.9811182774947448
2011-02-02,1,0.0015357371891016223,0.0017337690189521754,-0.010678447106177616,0.013330175692257036,0.9822810981564074
2011-02-04,1,0.0011195057251059731,0.0013548947755980254,-0.011912373148937578,0.013330175692257036,0.9826959379483597
2011-02-08,1,0.0013284880749633268,0.0015174419073525156,-0.011912373148937578,0.013330175692257036,0.9825831413390688
2011-02-10,1,0.0007481723800059989,0.0009935186877325316,-0.011912373148937578,0.0141563922607189,0.9814282065572246
2011-02-14,1,0.0004364871791493908,0.0007612007866468793,-0.011912373148937578,0.010950670520846972,0.9818555774911516
2011-02-16,1,0.0015731611423534797,0.0017172056492959602,-0.010580697412636324,0.010950670520846972,0.9825155630118619
2011-02-18,1,0.0014868386313974637,0.0016532888238236674,-0.010580697412636324,0.0141563922607189,0.9810561119066337
2011-02-23,1,0.001914155398733808,0.002013172602618815,-0.010580697412636324,0.0093182812267384,0.9847448919661463
2011-02-25,0,0.0,0.0,-0.010338402717603754,0.018334194488198743,0.9844419776246692
2011-03-01,1,0.002671419844623828,0.002790261322880516,-0.010338402717603754,0.010695506499216481,0.9854039708567026
2011-03-03,1,0.0013251175566168748,0.001450215001792572,-0.010338402717603754,0.017100368946467964,0.9853496108862346
2011-03-07,1,0.000692420486863687,0.00090106777779928,-0.010019511091055392,0.018038735676994048,0.9847128279915729
2011-03-09,0,-0.0002314329314220911,9.899074920402019e-05,-0.010338402717603754,0.018038735676994048,0.9844501873207695
2011-03-11,-1,-0.0007092740931382705,-0.0003586165270782867,-0.010019511091055392,0.0170172581460816,0.9876230169900589
2011-03-15,-1,-0.002033297052394218,-0.0014867928189099648,-0.011555270130801362,0.0170172581460816,0.986465731781928
2011-03-17,0,0.0,0.0,-0.011555270130801362,0.008280692609406188,0.9870823153413302
2011-03-21,0,0.0,0.0,-0.01674262772505634,0.005326403331368306,0.9875961873108555
2011-03-23,0,0.0,0.0,-0.011555270130801362,0.01689954247908896,0.986406510875659
2011-03-25,0,0.0,0.0,-0.011555270130801362,0.005326403331368306,0.9881284258370763
2011-03-29,1,5.1947607401459745e-05,0.0003716625135189471,-0.009729184614420933,0.010457350142838863,0.9876488138625272
2011-03-31,1,0.0002229697290703339,0.00023001511594334049,-0.009729184614420933,0.015248679752840484,0.9866804729190288
2011-04-04,1,0.000728513072920029,0.0008589251273457056,-0.017869571921758004,0.009907062567422706,0.9844383774325504
2011-04-06,1,0.001055752582085569,0.0010901443106493686,-0.018774146945076595,0.009907062567422706,0.9833367274043416
2011-04-08,0,0.0,0.0,-0.018774146945076595,0.015248679752840484,0.9818119427066195
2011-04-12,0,0.0,0.0,-0.014107292734860362,0.015248679752840484,0.9823443615484998
2011-04-14,0,0.0,0.0,-0.014107292734860362,0.015248679752840484,0.9819301522579608
2011-04-18,-1,-0.004068924388827111,-0.003334825607593496,-0.012740294524739028,0.015248679752840484,0.9824473357223339
2011-04-20,-1,-0.0025144987152657004,-0.0019705108991905926,-0.012740294524739028,0.012937166174818597,0.9827773150456218
2011-04-25,-1,-0.002747179714162574,-0.0021923060896132216,-0.017296022747406846,0.012937166174818597,0.9823010002866797
2011-04-27,-1,-0.0004548741522893765,-0.00026559578894160387,-0.017296022747406846,0.012937166174818597,0.9823099370886643
2011-04-29,1,0.0008548078008385082,0.0009061312886774255,-0.017296022747406846,0.011563436818098936,0.9837620379540934
2011-05-03,-1,-0.0019713908058352665,-0.0015923645673743747,-0.012740294524739028,0.011563436818098936,0.985592612779068
2011-05-05,-1,-0.0033427657399706353,-0.0028026845533512057,-0.008129812805620942,0.011563436818098936,0.9865600787422409
2011-05-09,0,0.0,0.0,-0.01064054482518895,0.006685686195417669,0.9874332067741587
2011-05-11,-1,-0.00401143697239433,-0.003731173275540761,-0.009264014966240183,0.010630384970915686,0.9870107215360385
2011-05-13,0,0.0,0.0,-0.016032850115531433,0.010630384970915686,0.9863361975515096
2011-05-17,0,0.0,0.0,-0.01828442026045323,0.010630384970915686,0.9849026624555441
2011-05-19,0,0.0,0.0,-0.01828442026045323,0.005299473291630965,0.9854057519561527
2011-05-23,-1,-0.0035968180238018658,-0.003050218279163023,-0.015242356584949828,0.006685686195417669,0.9841689821720081
2011-05-25,-1,-0.002061517461125447,-0.0017137956029729673,-0.019206695960386606,0.003950794275096406,0.9845075943520794
2011-05-27,-1,-0.0018471718344921738,-0.001546609046837997,-0.019206695960386606,0.003950794275096406,0.9843878191653286
2011-06-01,0,0.0,0.0,-0.015242356584949828,0.008472942852859728,0.983242436522984
2011-06-03,0,0.0,0.0,-0.015242356584949828,0.01890540896953773,0.9820617059076683
2011-06-07,0,0.0,0.0,-0.015242356584949828,0.01890540896953773,0.9826800320846023
2011-06-09,0,0.0,0.0,-0.015242356584949828,0.017780241830569848,0.9826257294682741
2011-06-13,1,0.030767232675334696,0.03574892686761386,-0.013279015785135038,0.017780241830569848,0.9676321369756518
2011-06-15,-1,-0.004122374636791356,-0.0035836713918562992,-0.013279015785135038,0.010787247135377803,0.9851120643208255
2011-06-17,-1,-0.005021907960015164,-0.004363144871295294,-0.009870365136732985,0.017780241830569848,0.9833890003696552
2011-06-21,-1,-0.003034618384922946,-0.0026460359169260604,-0.013677980989790154,0.017780241830569848,0.9836634176756092
2011-06-23,-1,-0.002621805034701603,-0.0023900863636338683,-0.009870365136732985,0.018982004382908334,0.9834780956859486
2011-06-27,0,0.0,0.0,-0.013190521794450103,0.018982004382908334,0.9832497405999941
2011-06-29,-1,-0.0014264413828584271,-0.001302486116822053,-0.014782876136340807,0.010787247135377803,0.9840836461936222
2011-07-01,-1,-0.00032692884708274096,-0.00032548183585471413,-0.016602468150125022,0.003520032707927814,0.9842091256278577
2011-07-06,-1,-0.0011962437830505734,-0.0010839832898975163,-0.016602468150125022,0.002589723452903474,0.9833528678066367
2011-07-08,-1,-0.0006142433907887556,-0.0005954905908664779,-0.024325136656274744,-0.0007079479601701988,0.9806108636439916
2011-07-12,0,0.0,0.0,-0.024325136656274744,0.002589723452903474,0.9754543057021748
2011-07-14,0,0.0,0.0,-0.028912155729642036,0.006893400074615674,0.9726055495610929
2011-07-18,0,0.0,0.0,-0.028912155729642036,0.008797994421540587,0.9722301216785846
2011-07-20,-1,-0.0008278990594599983,-0.0007137775472330868,-0.028912155729642036,0.005709341658018407,0.9732572491473793
2011-07-22,1,0.00016255985325470425,0.0003177518588001741,-0.0352144058274293,0.0032245882352117785,0.969797591425658
2011-07-26,-1,-0.00022705613402754178,-0.00010726288663238703,-0.0352144058274293,0.005709341658018407,0.9691249339103102
2011-07-28,-1,-0.0010678767679105957,-0.0010672465844448525,-0.030143851832534735,0.008135798147871163,0.9692117696847788
2011-08-01,0,0.0,0.0,-0.030143851832534735,0.021926844736134044,0.96687531348761
2011-08-03,0,0.0,0.0,-0.0247882786690439,0.021926844736134044,0.9679579735820887
2011-08-05,0,0.0,0.0,-0.0247882786690439,0.021926844736134044,0.9700280936224018
2011-08-09,0,0.0,0.0,-0.022439132534813326,0.021926844736134044,0.9737811021724674
2011-08-11,0,0.0,0.0,-0.022439132534813326,0.019464658199427286,0.9756662525063701
2011-08-15,0,0.0,0.0,-0.022439132534813326,0.019464658199427286,0.9770050154059675
2011-08-17,0,0.0,0.0,-0.022439132534813326,0.019464658199427286,0.9768241761958087
2011-08-19,-1,-0.007838643572075725,-0.0071730625274600375,-0.008698724882899718,0.019464658199427286,0.9781160831154653
2011-08-23,-1,-0.006213933256832827,-0.005783222027092538,-0.017859932670902495,0.01591442692459147,0.977476614082536
2011-08-25,-1,-0.006798976135680623,-0.006368256416857845,-0.017859932670902495,0.015363955728478443,0.9756750646992526
2011-08-29,-1,-0.004576415410171174,-0.004341313299157128,-0.017859932670902495,0.015363955728478443,0.9744871156417562
2011-08-31,-1,-0.00252191936748781,-0.002485120127402121,-0.024113221104681497,0.014115621925344296,0.973351282928143
2011-09-02,-1,-0.004024313270531391,-0.003856257702262806,-0.03559571153836151,0.014115621925344296,0.9701452696214683
2011-09-07,-1,-0.004096884242784821,-0.003854123348159993,-0.03559571153836151,0.017882525188610242,0.9692079129695896
2011-09-09,-1,-0.00406981369848747,-0.0037876331521885104,-0.029708866399951676,0.024455395185267445,0.9689793746442105
2011-09-13,-1,-0.0023037115961470375,-0.0022628281307378348,-0.029708866399951676,0.024522480447728107,0.9678349628910573
2011-09-15,-1,-0.0013838156681401943,-0.001250379711272292,-0.029708866399951676,0.024522480447728107,0.9679874821835632
2011-09-19,-1,-0.0008297020085974442,-0.0005113180756403883,-0.029708866399951676,0.03260029603154503,0.9663876693635529
2011-09-21,-1,-0.0018074930105191137,-0.0015442000383450796,-0.020313759336579904,0.03260029603154503,0.9677554289309708
2011-09-23,-1,-0.005761959195156167,-0.005362241424655961,-0.012983590260304104,0.03260029603154503,0.9698791923853535
2011-09-27,-1,-0.0036851252484396265,-0.0035008550939551147,-0.020313759336579904,0.023371687771007094,0.9728356877927347
2011-09-29,-1,-0.0019002126961008307,-0.001811426710918868,-0.012983590260304104,0.027681731125695525,0.9707953517690184
2011-10-03,-1,-0.008002782092914459,-0.007264984454652632,-0.009245819019326872,0.027681731125695525,0.9710047433169102
2011-10-05,-1,-0.005190347027444525,-0.00477685399193175,-0.012983590260304104,0.024752232594667654,0.9721626662925462
2011-10-07,-1,-0.005142275774038587,-0.004766123826142412,-0.009245819019326872,0.02601952861160253,0.9717265065645319
2011-10-11,-1,-0.0027435052702074083,-0.002691564572619702,-0.0042277317050143075,0.024752232594667654,0.9741687601250633
2011-10-13,-1,-0.0029683150130841024,-0.0028603717225693273,-0.0042277317050143075,0.02601952861160253,0.9710083696895558
2011-10-17,-1,-0.0015262210516462248,-0.0013969724862841198,-0.005125749208751487,0.024752232594667654,0.9726231969158231
2011-10-19,-1,-0.0008917933575995257,-0.0006280086019854811,-0.01401741663843471,0.02261404158090249,0.9736594538238972
2011-10-21,-1,-0.00038555929766944394,-0.0001274924791261244,-0.019812613211526685,0.02261404158090249,0.9724791994336681
2011-10-25,-1,-0.0004925658867316726,-0.00017961981205797902,-0.016450483671557187,0.02261404158090249,0.9738551322315115
2011-10-27,1,0.0012380702985111862,0.0017399398125724974,-0.02445702877301289,0.01739772471317682,0.9750095661325001
2011-10-31,1,0.0005922855445212919,0.000989723937971102,-0.016450483671557187,0.019968434186298033,0.9756326832505514
2011-11-02,0,0.0,0.0,-0.01401741663843471,0.019968434186298033,0.9766425855711138
2011-11-04,0,0.0,0.0,-0.01401741663843471,0.01881149272020288,0.9779712391826435
2011-11-08,0,0.0,0.0,-0.01401741663843471,0.013243915759140358,0.9782921632337487
2011-11-10,0,0.0,0.0,-0.01401741663843471,0.013119046366612883,0.9799318682682752
2011-11-14,-1,-0.000835638340695196,-0.0005728096965328524,-0.01556555515893011,0.004881074371286761,0.9801529215421719
2011-11-16,-1,-0.001176423729095087,-0.0009682485416719088,-0.02445702877301289,0.012633035507223079,0.9785088862325031
2011-11-18,-1,-0.001689627121978191,-0.001476102137828783,-0.02148311288516908,0.012633035507223079,0.979392917836828
2011-11-22,-1,-0.0017100619434640574,-0.0014605967679374881,-0.014932932523646716,0.01665098553084869,0.9780231483810271
2011-11-25,-1,-0.003456466325060504,-0.0034431589532249378,-0.010602509152586991,0.01665098553084869,0.979353155110395
2011-11-29,-1,-0.002279088483072814,-0.002090435776387546,-0.014426612732335272,0.015193185206637887,0.9813738382921496
2011-12-01,-1,-0.0026277112503199987,-0.0025430601496752208,-0.012906911200121406,0.010687829270827384,0.9832657998918026
2011-12-05,-1,-0.002171117722414541,-0.002041860134702573,-0.012906911200121406,0.01142277350093618,0.9825519108689399
2011-12-07,-1,-0.0013349005661106722,-0.0010161561500105117,-0.021666802616590423,0.01142277350093618,0.9814298359137271
2011-12-09,-1,-0.0019056642632662964,-0.0016491638532777704,-0.02069954243273343,0.01142277350093618,0.9820988179117867
2011-12-13,-1,-0.0023258016901234616,-0.0020718461022021573,-0.017159848972448117,0.01142277350093618,0.9825899160053109
2011-12-15,-1,-0.0029769764011785874,-0.0028171049303772414,-0.01195338200560446,0.011418988230808787,0.9841874188906817
2011-12-19,-1,-0.0037828158434096005,-0.0037623868917291744,-0.008698427620815264,0.01752030296162777,0.9815003900539871
2011-12-21,-1,-0.0030173863211245735,-0.0029246696262294446,-0.008698427620815264,0.014857899574648708,0.9839582152689675
2011-12-23,-1,-0.0028387919541948527,-0.002802215961267999,-0.017159848972448117,0.011418988230808787,0.9820692377243265
2011-12-28,-1,-0.0044032755415348,-0.004097786587411313,-0.017159848972448117,0.011418988230808787,0.9809436744775893
2011-12-30,-1,-0.0048960463270848985,-0.0044847825084159895,-0.017159848972448117,0.01635363051245146,0.9807313276420799
2012-01-04,-1,-0.0026782686666498782,-0.002590985489914401,-0.017159848972448117,0.015899980403912755,0.9815359361613727
2012-01-06,-1,-0.002931653694250237,-0.0028998238346691326,-0.008698427620815264,0.019491228810625774,0.9802906369845688
2012-01-10,-1,-0.002054732908436956,-0.0020015669708074064,-0.010882751687854493,0.015899980403912755,0.9820386888738458
2012-01-12,-1,-0.004551835630400141,-0.004183801553150339,-0.00899370096095204,0.019491228810625774,0.979051169207875
2012-01-17,-1,-0.003563507771580666,-0.0033970390843897982,-0.007278757190149818,0.019491228810625774,0.9797869894917136
2012-01-19,-1,-0.002257211224206981,-0.0022034544005105775,-0.007278757190149818,0.013951153337484187,0.9810598374123923
2012-01-23,-1,-0.0012050901525064125,-0.0010175853748088607,-0.007278757190149818,0.013951153337484187,0.9813722642152783
2012-01-25,-1,-0.0033106522171834976,-0.0032380766297285344,-0.0025234205475872335,0.017981767479088435,0.9826454028913332
2012-01-27,-1,-0.004310417023642191,-0.004086806026957136,-0.0004976330030552785,0.017981767479088435,0.9835580597702921
2012-01-31,-1,-0.0039047359306282094,-0.0037812012771297303,-0.0045371027029587315,0.01359921626315131,0.9839092740091997
2012-02-02,-1,-0.0034388694846041517,-0.0033183947542371334,-0.007095091124201425,0.01359921626315131,0.9842518257768149
2012-02-06,-1,-0.0020240230151444393,-0.001894836091181334,-0.011309902596125625,0.009928902107846867,0.9863659454123852
2012-02-08,-1,-0.0020201043518716304,-0.0018765917130132478,-0.011064683806373243,0.010482796670036817,0.9859940821737831
2012-02-10,-1,-0.00102844226892788,-0.000726854162953408,-0.011064683806373243,0.009524835983454735,0.9882875562952295
2012-02-14,-1,-0.0016808056248653481,-0.0016599071586819408,-0.011935943819890205,0.009524835983454735,0.987471915431919
2012-02-16,-1,-0.0020123856713220303,-0.0018707658275765246,-0.011935943819890205,0.007246161650550043,0.9889642665389803
2012-02-21,0,-0.00010296085609808742,0.00011718424123574904,-0.014958281518344742,0.009524835983454735,0.9876825347290668
2012-02-23,1,0.0002153038970642507,0.00045123685613855517,-0.017397960786596656,0.007246161650550043,0.9866850211589792
2012-02-27,-1,-0.002640562896669111,-0.0024157675303904417,-0.017397960786596656,0.007430793171280026,0.9869761687195355
2012-02-29,-1,-0.0015630897995598568,-0.0015327431166445628,-0.017708632974959546,0.007430793171280026,0.9869838369892148
2012-03-02,-1,-0.0020145215656984985,-0.0019332120274440845,-0.017708632974959546,0.007135996958999208,0.9879610075420365
2012-03-06,-1,-0.0017141607609957193,-0.0016704797539803334,-0.01203991389480385,0.00919434190880223,0.9881760445070003
2012-03-08,-1,-0.0012884906515487158,-0.0012801461871151658,-0.013447456447170391,0.006293820872692017,0.9882905415972322
2012-03-12,-1,-0.0013019687612845013,-0.0012701532796742334,-0.017953478853150448,0.006293820872692017,0.9876749471101104
2012-03-14,-1,-0.0011752114845818432,-0.001041536321799597,-0.013447456447170391,0.009219182030473444,0.9877263643837175
2012-03-16,0,-0.0002646151984355259,3.430643964912961e-05,-0.01872026563610954,0.005733056860672935,0.986592750896116
2012-03-20,-1,-0.0012948589917027844,-0.0012797481394646025,-0.01768474144221307,0.005733056860672935,0.9870356567877838
2012-03-22,-1,-0.0004070552061108695,-0.00013987420160394546,-0.013447456447170391,0.005733056860672935,0.9885549727485913
2012-03-26,1,0.0007670116198365808,0.0009551511176341432,-0.01729537573295539,0.003584793106193225,0.9872343914506887
2012-03-28,-1,-0.0010194565988885132,-0.000837181029983037,-0.017550971327275088,0.009219182030473444,0.9849995252604048
2012-03-30,0,-4.0429019972284055e-05,0.00034222795249306843,-0.017550971327275088,0.010417857505516345,0.9847240319321179
2012-04-03,1,0.0004704892891077763,0.0009442124010462904,-0.017550971327275088,0.011263221125428931,0.9838574135627702
2012-04-05,0,-0.00014920107237262814,0.00032969891817094294,-0.020328683205035013,0.011263221125428931,0.9820912468849193
2012-04-10,-1,-0.0013745187308514132,-0.0010700960929726877,-0.017550971327275088,0.011263221125428931,0.9831319032752374
2012-04-12,-1,-0.0007457507186947377,-0.00040211068250305257,-0.01985668521087198,0.00414419591333206,0.9829774866040278
2012-04-16,-1,-0.0025640256856286022,-0.0025478115656077274,-0.018956128312974906,0.00414419591333206,0.9834939084124781
2012-04-18,-1,-0.0023472607486109374,-0.0023332457182347996,-0.024936284351325347,0.0005921436551227599,0.982699716886313
2012-04-20,-1,-0.003185580527504615,-0.0027408203029131374,-0.024936284351325347,0.0029231306590376573,0.9817438140855657
2012-04-24,-1,-0.0028794195090814842,-0.0027526483435816452,-0.024936284351325347,0.0029231306590376573,0.9813666018543781
2012-04-26,-1,-0.004906293329887905,-0.004559988478654922,-0.023890910130307814,0.003049194859389837,0.9846584554153697
2012-04-30,-1,-0.003983216087518264,-0.0037786641485561398,-0.023890910130307814,0.006811364186587142,0.9839268261328553
2012-05-02,-1,-0.0027840983937067777,-0.002698423227128546,-0.02761216416008087,-0.0005741235414193071,0.9821761104634777
2012-05-04,-1,-0.005474687293064179,-0.005033308943528806,-0.024038620599127813,0.0014950638781986451,0.9841909793213539
2012-05-08,-1,-0.007135826822327892,-0.0064613875165670034,-0.024038620599127813,0.009707691742526295,0.981528216546679
2012-05-10,-1,-0.009008048937590139,-0.008027444189613575,-0.02387973160735994,0.009707691742526295,0.9821478861165867
2012-05-14,-1,-0.011060384937125778,-0.009796497112047843,-0.018368206068655545,0.009707691742526295,0.9820598361409177
2012-05-16,-1,-0.011963543901826914,-0.010657247421513751,-0.013273123800319371,0.016423676039462383,0.9813963703246137
2012-05-18,-1,-0.01074080306453329,-0.009628570142342419,-0.016963275472385866,0.016423676039462383,0.9812216185677556
2012-05-22,-1,-0.009783967923269656,-0.008753990193940613,-0.016963275472385866,0.014547102792166752,0.9822598154812122
2012-05-24,-1,-0.007816830086435347,-0.007047302991407888,-0.019664939818550907,0.009345049247048917,0.9808156971313553
2012-05-29,-1,-0.0062232661380313085,-0.0056888728284346666,-0.024103171797930062,0.0026839339042481515,0.9812340802172919
2012-05-31,-1,-0.010302431492530907,-0.009215185370417855,-0.016963275472385866,0.009345049247048917,0.9814662372637086
2012-06-04,-1,-0.009963975626708255,-0.008973964011952149,-0.009790965515204772,0.015391415443459018,0.979036160318562
2012-06-06,-1,-0.008711706280797812,-0.007846859817444499,-0.016963275472385866,0.015391415443459018,0.9799945708195357
2012-06-08,-1,-0.008482053319727473,-0.00766735276538733,-0.019133362662861298,0.015391415443459018,0.979411012729595
2012-06-12,-1,-0.0073826444266216215,-0.006818520414210508,-0.02199979235575887,0.01909424171723865,0.9776353453882553
2012-06-14,-1,-0.006571733570287868,-0.006121465889099225,-0.02255190128452289,0.016982961795984616,0.9776226227220776
2012-06-18,-1,-0.008695228402972544,-0.007879881766652603,-0.02199979235575887,0.014687655469707673,0.9776083766408267
2012-06-20,-1,-0.00843524966559892,-0.00757322463029193,-0.02199979235575887,0.016683095590995227,0.9773222987653695
2012-06-22,-1,-0.010804981956494307,-0.009706919721228566,-0.021829936092317447,0.016683095590995227,0.9786217399798761
2012-06-26,-1,-0.010265362720547379,-0.00927582842171701,-0.013557825575588845,0.01991956230984397,0.9778512910730127
2012-06-28,-1,-0.009356819495512755,-0.008603567796907644,-0.013557825575588845,0.02176152937690746,0.9763905823242047
2012-07-02,-1,-0.006008554797528816,-0.005574856711312626,-0.021329515593696856,0.0171507958517462,0.9799321842527421
2012-07-05,-1,-0.004383068373851842,-0.00418622391910155,-0.021329515593696856,0.016353141075679565,0.9814256593941185
2012-07-09,-1,-0.004391761851976841,-0.0041983658398337675,-0.013398929560615766,0.0171507958517462,0.9802382545190276
2012-07-11,-1,-0.0027967768645252794,-0.0026978281727191465,-0.005493659528388491,0.0171507958517462,0.9813970731766526
2012-07-13,-1,-0.002621492642438987,-0.002473637932678611,-0.004990241955910704,0.0171507958517462,0.9829571060316121
2012-07-17,-1,-0.0013041861267724013,-0.000971856155608181,-0.00929811350381307,0.0171507958517462,0.98354755849809
2012-07-19,0,-0.0003496137650198447,0.00016997504105389395,-0.00929811350381307,0.016088190019507852,0.9838271031293968
2012-07-23,-1,-0.0007539314571863727,-0.0003317725567463293,-0.00929811350381307,0.018518693442629335,0.9833528241394701
2012-07-25,1,0.0008979653282398291,0.0015674204108857967,-0.007493181988465846,0.016088190019507852,0.985882718452441
2012-07-27,1,0.0018033468414813143,0.002552565392903839,-0.009565024308423061,0.012650097737755014,0.9877884470050217
2012-07-31,1,0.001375135258598475,0.002116074987788245,-0.007493181988465846,0.014139100603135613,0.9879444622245193
2012-08-02,1,0.0010911550121347146,0.0017113060601912109,-0.007493181988465846,0.013218388507998795,0.9885669425086462
2012-08-06,1,0.0019374123817610337,0.0026920327251673533,-0.009565024308423061,0.013218388507998795,0.988492252838531
2012-08-08,1,0.0037532048134784894,0.004754950434654908,-0.009565024308423061,0.011447268594280198,0.9877204159265
2012-08-10,1,0.0034490132759275615,0.00440229774100377,-0.008263510365553626,0.016160347181876186,0.9867319076708745
2012-08-14,1,0.0030122103012119087,0.003868084970875258,-0.006900789810620029,0.017694751584468035,0.9866255163724199
2012-08-16,1,0.003868533971879922,0.004873698716945113,-0.0064938092230575955,0.017694751584468035,0.9870174960094839
2012-08-20,1,0.00409613053899066,0.005093703320632889,-0.0064938092230575955,0.015504088650595119,0.9878905850307125
2012-08-22,1,0.004429208479399777,0.005495240866336536,-0.006937762483872927,0.015504088650595119,0.9877392533841765
2012-08-24,1,0.004498964707987687,0.005554305589680335,-0.006937762483872927,0.015504088650595119,0.9876924731292627
2012-08-28,1,0.004834673506202903,0.005925629320982625,-0.011489883159175748,0.009947315633728688,0.9862074546101347
2012-08-30,1,0.003477857671487702,0.004322614824361647,-0.00794734397428943,0.015504088650595119,0.9866930259377648
2012-09-04,1,0.004101244499194186,0.005085654616342129,-0.007490693664759216,0.009947315633728688,0.9876688654245073
2012-09-06,1,0.004172305305729329,0.005088311521166412,-0.008797720867004194,0.009947315633728688,0.9874281438072663
2012-09-10,1,0.005826930738081963,0.0069907116532492986,-0.008797720867004194,0.006696309804772917,0.9877478331979274
2012-09-12,1,0.006678600238102128,0.007955021956461696,-0.011489883159175748,0.004753738563284671,0.9868080458121902
2012-09-14,1,0.007334426979214481,0.008709866401763494,-0.011489883159175748,0.003776000793957113,0.9859759486718929
2012-09-18,1,0.0056368303933131605,0.006561351439217062,-0.010119932230585108,0.004753738563284671,0.9861144186304827
2012-09-20,1,0.005788344297007964,0.006736933367337617,-0.010119932230585108,0.006075232645793479,0.9859204361411928
2012-09-24,1,0.0058425514330331,0.006859269088106827,-0.010274497359000637,0.006075232645793479,0.985771818950215
2012-09-26,1,0.0037362920027387957,0.004352996458364886,-0.007920736875756977,0.006075232645793479,0.987116103187712
2012-09-28,0,0.0,0.0,-0.009317026613503828,0.006075232645793479,0.9868645984729685
2012-10-02,0,0.0,0.0,-0.01320236552709018,0.008461205637048544,0.9862199316225566
2012-10-04,0,0.0,0.0,-0.008896692931786824,0.012013842172121265,0.9861806962311821
2012-10-08,0,0.0,0.0,-0.013785489859850146,0.012013842172121265,0.9839763181623876
2012-10-10,0,0.0,0.0,-0.017591251013549598,0.012013842172121265,0.9828752143322025
2012-10-12,1,0.002179932383469145,0.0024410241932139322,-0.017591251013549598,0.011334075073361162,0.9827547970453617
2012-10-16,1,0.0032280788791963387,0.00366895415703955,-0.017591251013549598,0.008420371267742898,0.9834854258874326
2012-10-18,1,0.0033807880803391477,0.003863159547731324,-0.017591251013549598,0.008420371267742898,0.9827272988365763
2012-10-22,1,0.0017450884585619862,0.0018629858022734033,-0.017591251013549598,0.011148223075041312,0.9826450058034908
2012-10-24,1,0.0003995386484485735,0.00048115609039345563,-0.017591251013549598,0.011983690463099769,0.9827984384677848
2012-10-26,1,0.0011901622307949325,0.001317602727391811,-0.017591251013549598,0.011148223075041312,0.9835521891078761
2012-11-01,1,0.000944470584313649,0.0010106483205616198,-0.0173953698124115,0.01172971761818745,0.9833439254923739
2012-11-05,0,0.0,0.0,-0.0173953698124115,0.009913449031949444,0.9847884216708049
2012-11-07,0,0.0,0.0,-0.014920905671721982,0.009913449031949444,0.9864868745544814
2012-11-09,0,0.0,0.0,-0.012277237271333421,0.011277458252056612,0.9878037922614906
2012-11-13,-1,-0.002132960166538381,-0.0017286961976894705,-0.011046000337736214,0.011927015545132983,0.9865136861739445
2012-11-15,0,0.0,0.0,-0.009260291962109899,0.011927015545132983,0.9870599682877875
2012-11-19,0,0.0,0.0,-0.009260291962109899,0.012467925548282143,0.9861513557885417
2012-11-21,0,0.0,0.0,-0.009260291962109899,0.012467925548282143,0.9863027279285123
2012-11-26,0,0.0,0.0,-0.009260291962109899,0.011927015545132983,0.9877088444546643
2012-11-28,0,0.0,0.0,-0.007676222138915808,0.011927015545132983,0.988264014464102
2012-11-30,0,0.0,0.0,-0.007676222138915808,0.011927015545132983,0.987073653315709
2012-12-04,0,0.0,0.0,-0.006378553675879832,0.012748546374324779,0.9866667056429167
2012-12-06,-1,-0.002593919543824438,-0.002006858549869997,-0.004114915493561281,0.014960035653192216,0.9856420972997432
2012-12-10,-1,-0.001997671726740191,-0.001505278705164378,-0.006484410849032617,0.014960035653192216,0.9863586970799277
2012-12-12,-1,-0.000713801012244383,-0.00039128968898479366,-0.006694628020066861,0.014960035653192216,0.9873605005520412
2012-12-14,-1,-0.0019209652409456015,-0.001476884085946435,-0.006149094019040779,0.014960035653192216,0.9871450295829457
2012-12-18,0,0.0,0.0,-0.006149094019040779,0.010382732718170074,0.9894570389094741
2012-12-20,0,0.0,0.0,-0.0025017937913350075,0.014347140178962757,0.9894245894804361
2012-12-24,-1,-0.0011631406581407515,-0.0008902215191194867,0.00034379202507246265,0.014347140178962757,0.988399245585189
2012-12-27,-1,-0.0014833961911104488,-0.001127634030307635,0.003327266789925016,0.014960035653192216,0.985222447558351
2012-12-31,0,-0.0001407831508112615,2.5830899798964465e-05,0.003327266789925016,0.014960035653192216,0.9840243958694027
2013-01-03,1,0.0004875567805560142,0.0005136331224893809,0.0014224073573153935,0.015255418366483111,0.9841126507095894
2013-01-07,0,0.0,0.0,-0.006694628020066861,0.01181963626915863,0.9837488466952817
2013-01-09,0,0.0,0.0,-0.004122532483385075,0.01181963626915863,0.9837675525726196
2013-01-11,0,0.0,0.0,-0.0048705585419152675,0.010915444779817332,0.9839202915699784
2013-01-15,0,0.0,0.0,-0.0048705585419152675,0.01267089554430942,0.9833990502851662
2013-01-17,0,0.0,0.0,-0.009652475328472,0.01267089554430942,0.9829998995987052
2013-01-22,0,0.0,0.0,-0.010568456147067116,0.011792571628833782,0.9821935609479481
2013-01-24,0,0.0,0.0,-0.010568456147067116,0.01267089554430942,0.9811582393653819
2013-01-28,1,0.004239878259426399,0.004689896262208814,-0.011356755154008528,0.012425399062847698,0.9822797863020019
2013-01-30,0,0.0,0.0,-0.011356755154008528,0.012775873159894523,0.9852551782521604
2013-02-01,0,0.0,0.0,-0.011318351836709064,0.012775873159894523,0.9848221315857834
2013-02-05,1,0.0033317002699293115,0.003747393869845961,-0.005882703102293832,0.013795876787423965,0.9864219239573133
2013-02-07,1,0.004857782342826079,0.005500769521346622,-0.007194634998038364,0.013795876787423965,0.9866132343649563
2013-02-11,0,0.0,0.0,-0.005163776293574689,0.013795876787423965,0.9857796190594522
2013-02-13,0,0.0,0.0,-0.005163776293574689,0.013795876787423965,0.985571137274261
2013-02-15,0,0.0,0.0,-0.004181212060673274,0.013795876787423965,0.9859521754983716
2013-02-20,0,0.0,0.0,-0.004181212060673274,0.013795876787423965,0.9865261915504148
2013-02-22,1,0.006059088325745739,0.006804197110566806,-0.004181212060673274,0.013795876787423965,0.9891959487097778
2013-02-26,1,0.0033930812996407853,0.003784099798104278,-0.0020712774378121085,0.01292256718962998,0.9907779244955427
2013-02-28,0,0.0,0.0,-0.004181212060673274,0.010368130164340721,0.9900878077415645
2013-03-04,0,0.0,0.0,-0.004181212060673274,0.010368130164340721,0.9900905903374733
2013-03-06,0,0.0,0.0,-0.004457315262303585,0.008497006906184918,0.9894616770641969
2013-03-08,0,0.0,0.0,-0.0038099885728498763,0.009749138537758176,0.9895032557502825
2013-03-12,0,0.0,0.0,-0.004295655901027248,0.010814257840139941,0.9893075001509284
2013-03-14,0,0.0,0.0,-0.00534590038435208,0.009749138537758176,0.9893796770670209
2013-03-18,1,0.005323844017511773,0.005995281734747724,-0.006626395149633091,0.010814257840139941,0.9864769578016801
2013-03-20,1,0.0033846667440482086,0.003744395930194854,-0.006626395149633091,0.010814257840139941,0.9870471845356161
2013-03-22,1,0.00303003685698214,0.0032787072464382605,-0.00534590038435208,0.010814257840139941,0.9872233162662187
2013-03-26,1,0.0032243919501569163,0.003496137256550911,-0.00534590038435208,0.01191996181510053,0.9862857035515064
2013-03-28,0,0.0,0.0,-0.0041061836135327075,0.01191996181510053,0.9863902196144968
2013-04-02,0,0.0,0.0,-0.0041061836135327075,0.01191996181510053,0.9872563715581542
2013-04-04,0,0.0,0.0,-0.0039818019275535506,0.012756038313186776,0.9867801173790205
2013-04-08,1,0.005185576186007607,0.0056028148044467135,-0.005737498971167573,0.012756038313186776,0.9862242020213944
2013-04-10,1,0.004816568655214725,0.005131325928064968,-0.005689645518179881,0.012756038313186776,0.9862099745098006
2013-04-12,1,0.003486538764932044,0.0035661578067509112,-0.008782063364787037,0.012756038313186776,0.9856807297031117
2013-04-16,1,0.0030294041457392404,0.00305245743459866,-0.005689645518179881,0.015316679625321218,0.9867435386927448
2013-04-18,1,0.0022641520057970106,0.0023610305666485996,-0.008782063364787037,0.015316679625321218,0.9860531458851637
2013-04-22,1,0.0023535500056270364,0.0024703868136651047,-0.008782063364787037,0.011913176728096532,0.9866603832494693
2013-04-24,1,0.002595644154050046,0.002720937815977557,-0.013401502995232954,0.008920868850218916,0.9868795469353886
2013-04-26,1,0.00241811349858656,0.0025995214652184983,-0.013401502995232954,0.003035915431870169,0.9867636047610359
2013-04-30,1,0.002155644869195319,0.002404796641151667,-0.013401502995232954,0.003035915431870169,0.9870295105560982
2013-05-02,1,0.0017654137050068346,0.0020663422551721613,-0.013401502995232954,0.0015937842040775123,0.9881903991805532
2013-05-06,1,0.0013919420830700614,0.001709379762926796,-0.013401502995232954,0.0015937842040775123,0.9878876932524661
2013-05-08,1,0.001348805647385052,0.0016139331940366588,-0.0159345764790134,0.003921322852437571,0.9864804097275436
2013-05-10,0,-0.0004007828613622681,0.0001154421316241455,-0.009871989247287372,0.010038755816192482,0.9875689626714553
2013-05-14,1,0.0020837539282141057,0.0022168095229235054,-0.0159345764790134,0.003921322852437571,0.9873256641272354
2013-05-16,0,0.0,0.0,-0.009463752203158052,0.003921322852437571,0.9894426935951638
2013-05-20,-1,-0.0024344521325071512,-0.001806776862197844,-0.009463752203158052,0.00571236213281451,0.9892025249069941
2013-05-22,-1,-0.002861650681269179,-0.002215676628709208,-0.014093788588414105,0.00571236213281451,0.9877320886004762
2013-05-24,-1,-0.0031022763838486666,-0.002449643760434963,-0.017153683969370274,0.00571236213281451,0.9874707168885728
2013-05-29,-1,-0.0027636996103274983,-0.0021591412600489735,-0.017153683969370274,0.0136805985981331,0.9860219245285347
2013-05-31,-1,-0.0031034022465812232,-0.002487410869850844,-0.014093788588414105,0.01773299315577166,0.9857240108464356
2013-06-04,-1,-0.0029453593788233644,-0.0023342422440690348,-0.014093788588414105,0.0136805985981331,0.986297159884709
2013-06-06,0,0.0,0.0,-0.009554979540480894,0.012764768727609885,0.9872555956249724
2013-06-10,0,0.0,0.0,-0.009554979540480894,0.008835445812055,0.9880976238214331
2013-06-12,0,0.0,0.0,-0.005121641252443498,0.012764768727609885,0.9877775811478663
2013-06-14,0,0.0,0.0,-0.0021704120755196596,0.012764768727609885,0.9882221024802298
2013-06-18,0,0.0,0.0,-0.0041594361098151785,0.008835445812055,0.9887768769541756
2013-06-20,0,0.0,0.0,-0.0006095964555891771,0.012764768727609885,0.9893396932246228
2013-06-24,0,0.0,0.0,0.00036337599742935323,0.012764768727609885,0.9898666968590215
2013-06-26,0,0.0,0.0,-0.0006095964555891771,0.012391637988640831,0.9909136294912256
2013-06-28,-1,-0.0015393101760093812,-0.0012628607062298634,-0.002285010892739719,0.008820234074599222,0.9909120917069438
2013-07-02,-1,-0.000918905197678031,-0.0007338866214317865,-0.002285010892739719,0.012856804304271406,0.9899941932774176
2013-07-05,-1,-0.00027206170367095043,-0.0001675622523816296,-0.004533271453511733,0.013423094597857742,0.9893761096153142
2013-07-09,1,0.00010937951157457438,0.000142538970989913,-0.005732910911311843,0.013423094597857742,0.9885320304071853
2013-07-11,1,0.0011193172215287098,0.0012011433627217255,-0.005732910911311843,0.012391637988640831,0.9897608203817677
2013-07-15,1,0.00018399988609510068,0.00022823176749300406,-0.005732910911311843,0.012391637988640831,0.9893823945646727
2013-07-17,1,0.00051463084127013,0.0005287148122453542,-0.005732910911311843,0.012391637988640831,0.9898528945106501
2013-07-19,1,0.0015110509110149194,0.0015720379990145717,-0.005732910911311843,0.008064482978983782,0.9913663624163207
2013-07-23,1,0.0015306948602226511,0.0016405729336806784,-0.0058676047089472935,0.008064482978983782,0.9904869535978033
2013-07-25,1,0.0010684812236089018,0.0011735612638161383,-0.005807484226558924,0.008064482978983782,0.9902029392431406
2013-07-29,1,0.0010534683117042294,0.0011738633327353929,-0.003211096326272923,0.012015185723854425,0.9904110647640091
2013-07-31,1,0.0013061042266345282,0.0014527241720292852,-0.003211096326272923,0.008064482978983782,0.9913116261761831
2013-08-02,1,0.001933892516248488,0.0021900870995291716,-0.004635630445585331,0.0061821983897456245,0.9915558056608391
2013-08-06,1,0.0013717646791596427,0.0015938701491984611,-0.003211096326272923,0.008064482978983782,0.9923081158862777
2013-08-08,1,0.0021931015051480226,0.002528990073836848,-0.003211096326272923,0.0078609710196676,0.9923017924605502
2013-08-12,1,0.0019049894155007303,0.002135922637791207,-0.0042016722677547325,0.01087727551141268,0.9915538926179736
2013-08-14,1,0.0020171459647440127,0.0022719800033968052,-0.007327880083922718,0.01087727551141268,0.9909481557672692
2013-08-16,1,0.001774090891935092,0.001969753699542555,-0.007327880083922718,0.01087727551141268,0.9911218327180392
2013-08-20,1,0.0015647630918770757,0.0017819564025552412,-0.0042016722677547325,0.013406397025430866,0.991561638885786
2013-08-22,1,0.0019138754754271332,0.0022043288961118212,-0.0042016722677547325,0.01087727551141268,0.9922466600314099
2013-08-26,1,0.002023211090169193,0.00224828643728923,-0.0029747374369259623,0.007078486100703264,0.9928683479530668
2013-08-28,1,0.0022690418284187813,0.0025594381766754232,-0.0029747374369259623,0.005497290771811025,0.9934613165552529
2013-08-30,1,0.0016915609538672414,0.0019164818156645978,-0.0027108301268185296,0.005497290771811025,0.9935417609993963
2013-09-04,1,0.0018956217647464117,0.002143002424621539,-0.0027108301268185296,0.007078486100703264,0.9927726936778517
2013-09-06,1,0.0021430333289895083,0.002374536707161293,-0.0027108301268185296,0.005497290771811025,0.9931112206463697
2013-09-10,1,0.0018738236932793332,0.0019938722603478985,-0.006250439235616651,0.0043142095437879915,0.9930124790556016
2013-09-12,1,0.0017339119457982467,0.00187531939409155,-0.0037446868581525955,0.005497290771811025,0.9922008110240025
2013-09-16,1,0.002204508497636209,0.0024643164373017125,-0.0037446868581525955,0.004203225791997605,0.9923192195796219
2013-09-18,1,0.0028178462034125296,0.0031833391156864056,-0.0059160458275365245,0.004203225791997605,0.9919902001575862
2013-09-20,1,0.002469285174918715,0.0028161027828873305,-0.0037446868581525955,0.006912618108008955,0.9920230037108232
2013-09-24,1,0.0026734540648387733,0.003044340474535371,-0.005388166393257115,0.006912618108008955,0.9917528339009091
2013-09-26,1,0.0027143721401165005,0.003136213257483361,-0.0059160458275365245,0.014746462787707443,0.990215410899961
2013-09-30,1,0.00183798063552798,0.002122868449333931,-0.0035946447673508375,0.014746462787707443,0.9912257924316681
2013-10-02,1,0.002243298923577652,0.0025304232703914254,-0.00546591955513125,0.0038999236856822007,0.9905271401914094
2013-10-04,1,0.002917975125768753,0.003316038471516963,-0.00546591955513125,0.0058053801898985645,0.9898731123280747
2013-10-08,1,0.0011199129314269976,0.0012077608418453506,-0.0038033425277112934,0.010152877947248447,0.9898778994617562
2013-10-10,1,0.001285406014862832,0.0014003922965828823,-0.00546591955513125,0.007223444041738891,0.9897954771042822
2013-10-14,1,0.0011166297989495216,0.001185662030741023,-0.00546591955513125,0.010152877947248447,0.9887972068890594
2013-10-16,1,0.0010278094135732557,0.0010514499395988725,-0.0068035786157071305,0.010040801355774499,0.9889060283974669
2013-10-18,1,0.002495569028013788,0.0027204246073271837,-0.0068035786157071305,0.010619911370517373,0.9888315154970867
2013-10-22,1,0.0019078206088403676,0.0019911618615360933,-0.01147379912207031,0.010619911370517373,0.988477338026902
2013-10-24,1,0.0012522908284431002,0.001306859879884657,-0.00817829196162242,0.010619911370517373,0.9891561115415018
2013-10-28,1,0.0007640288619317651,0.0007909523590903579,-0.009166564316420742,0.011064339650632552,0.9881769722008308
2013-10-30,1,0.0008645522494181899,0.0008949660132373558,-0.009166564316420742,0.011506736440253875,0.9884249503688524
2013-11-01,-1,-0.00030770163942135523,-0.00012414639938546567,-0.009166564316420742,0.011506736440253875,0.9887733530380948
2013-11-05,-1,-0.0009590928682854837,-0.0006750465898802254,-0.007412118407893913,0.011931665310496796,0.9891248062523798
2013-11-07,-1,-0.001463063341428653,-0.0011326494915041008,-0.007715667236625294,0.011931665310496796,0.9900306432321458
2013-11-11,1,9.690210967790223e-05,0.00032481101657363324,-0.007715667236625294,0.011506736440253875,0.9907716116111598
2013-11-13,-1,-0.0010176506767533738,-0.0006122214069449203,-0.007715667236625294,0.011506736440253875,0.991315243792666
2013-11-15,1,0.00014441306563568886,0.0003476302037252572,-0.007715667236625294,0.00498989245448223,0.9917174179446935
2013-11-19,0,-9.977267372269876e-05,0.0001215051622890271,-0.007183877232538266,0.006764923044273343,0.9914669305926879
2013-11-21,-1,-0.0002687488318551609,-4.0349754792617584e-05,-0.00718175292290655,0.00498989245448223,0.9920613930114712
2013-11-25,1,0.0005878843688921177,0.0007123196864474955,-0.0053803487133686975,0.00498989245448223,0.9923288053125202
2013-11-27,-1,-0.0007139111653120008,-0.00044769859364617514,-0.004648979541560341,0.005222409860510643,0.9931443095853345
2013-12-02,-1,-0.00023410924739130853,-6.657770980417194e-05,-0.00499475511778061,0.005222409860510643,0.9929170949600543
2013-12-04,0,-7.187056199394577e-05,8.23502679139699e-05,-0.00718175292290655,0.00498989245448223,0.9920883765322598
2013-12-06,-1,-0.0006816988842378209,-0.00045703956051341304,-0.00499475511778061,0.005222409860510643,0.9921381226965857
2013-12-10,-1,-0.00035435576530831714,-0.00023143071494956274,-0.004648979541560341,0.00683373502373546,0.9919014191372845
2013-12-12,-1,-0.0011546736431488549,-0.0009137747519754946,-0.004797850743859247,0.00683373502373546,0.9912410907781484
2013-12-16,-1,-0.0007067717930614408,-0.0005247740897987805,-0.005441368724677327,0.008842282064489244,0.9902472033432386
2013-12-18,-1,-0.000865579215473103,-0.0006254905941940144,-0.006050966746720093,0.006359603203078252,0.9908584974526874
2013-12-20,-1,-0.0009405791308399075,-0.0007411027581802793,-0.006050966746720093,0.008836727695382456,0.9904549741610721
2013-12-24,-1,-0.00034719610127126446,-0.00022761268019644515,-0.009501223408174175,0.006359603203078252,0.9899373531591267
2013-12-27,-1,-0.00024033551066078324,-0.00010085788219197262,-0.009501223408174175,0.00563276556090038,0.9898896210893813
2013-12-31,0,-8.39236080753743e-05,1.0084101059793123e-05,-0.009501223408174175,0.004631046315886568,0.9898406871461813
2014-01-03,-1,-0.001071408284236003,-0.0008710899705597053,-0.010309817429936067,0.004631046315886568,0.9900087660902648
2014-01-07,-1,-0.0007615202317867793,-0.0005942914708412441,-0.010309817429936067,0.004631046315886568,0.9901086045347428
2014-01-09,-1,-0.0007369279336626991,-0.0005646540784203476,-0.010309817429936067,0.008836727695382456,0.9891167154971268
2014-01-13,-1,-0.002128028547786094,-0.0017650392427184444,-0.008894297214979554,0.010522767616301987,0.9896620760938082
2014-01-15,-1,-0.0024472366970536303,-0.0020704284319571103,-0.00789026868570307,0.010522767616301987,0.9906553083549621
2014-01-17,-1,-0.002390533612363737,-0.002023238454562022,-0.007355021784349859,0.011372993048924331,0.9897279860186302
2014-01-22,-1,-0.0018367167965100584,-0.0015689326048253843,-0.007355021784349859,0.011372993048924331,0.9897065207257901
2014-01-24,-1,-0.0030184658120732226,-0.002570595602144378,-0.003456519401959128,0.011372993048924331,0.989974779682986
2014-01-28,-1,-0.0023347499862543322,-0.001993094803734463,-0.0057630800036491394,0.011204212779074067,0.9903309150332763
2014-01-30,-1,-0.002139995694519222,-0.001834499992969544,-0.003456519401959128,0.011204212779074067,0.9902099613419898
2014-02-03,-1,-0.003147203340308483,-0.002729773138040391,-0.002549236263496739,0.011204212779074067,0.9903895542334714
2014-02-05,-1,-0.003008757618716929,-0.0025986711029576137,-0.002549236263496739,0.010997329458625254,0.9902949234922871
2014-02-07,-1,-0.0016188937066986485,-0.0013849034541709806,-0.002549236263496739,0.009140001908519784,0.9919693626769487
2014-02-11,-1,-0.0007844238997281313,-0.000687103822516183,-0.005042021976586735,0.008318939738533367,0.9923553225923708
2014-02-13,-1,-0.000944892052327615,-0.0008104538145979505,-0.00576173594835077,0.00716745379281791,0.9920232107839845
2014-02-18,-1,-0.00026596134402625545,-0.00020193056265183006,-0.00576173594835077,0.0057054885642906185,0.9928165911024522
2014-02-20,1,0.00021166368483880622,0.00021455782531369525,-0.0057891020332568035,0.0057054885642906185,0.9929918794665458
2014-02-24,-1,-0.00034605363955164404,-0.0002540642227084017,-0.0057891020332568035,0.006736522655092594,0.9926687668341673
2014-02-26,-1,-0.0005179666019053617,-0.0004619616631784999,-0.005051144004888746,0.006736522655092594,0.9931807091069333
2014-02-28,-1,-0.00030166859048587325,-0.00025897402026284303,-0.005051144004888746,0.007827656749863339,0.992561919764532
2014-03-04,-1,-0.0007286013864626023,-0.0006063336720180737,-0.004708661065913815,0.007827656749863339,0.9925196223537678
2014-03-06,-1,-9.012021435151951e-05,-8.891310051418521e-05,-0.004708661065913815,0.00793540577785828,0.9923243762057263
2014-03-10,1,0.0004467804443229439,0.0005267561308565092,-0.005051144004888746,0.00793540577785828,0.9918205730149765
2014-03-12,1,3.3596279434044664e-05,8.702947936993892e-05,-0.004223296612840174,0.008464687273449865,0.9917599483773039
2014-03-14,1,0.00034469197915862587,0.0004914186896252768,-0.004786477616234297,0.008464687273449865,0.9917768524823262
2014-03-18,1,0.00042729833559292,0.0005747544902461094,-0.004786477616234297,0.012190552891133112,0.9907998115877392
2014-03-20,1,0.0007200743448133036,0.0009195998199329772,-0.004223296612840174,0.012190552891133112,0.9909060661064957
2014-03-24,1,0.0006366208063375573,0.0008141194470277205,-0.0035614067568329943,0.012190552891133112,0.9912165703316517
2014-03-26,1,0.0002790329178661941,0.0003658712039811253,0.0003442074968309759,0.012190552891133112,0.9915574834960408
2014-03-28,1,0.0012670348448714799,0.0014987567416872524,-0.0035614067568329943,0.009304125517739861,0.9923926660151365
2014-04-01,1,0.0013884301232328796,0.0016101425845740122,-0.0025623006442194434,0.009769938370391317,0.9923210761113473
2014-04-03,1,0.0013824543269538524,0.0015465888817582842,-0.0030337658758084005,0.008590627084651595,0.9927079754412214
2014-04-07,1,0.0008167833630150841,0.0009512708231971501,-0.002669443168679316,0.008590627084651595,0.9933588963284188
2014-04-09,1,0.001364381670025013,0.0015786550641395014,-0.0034962939955124244,0.008590627084651595,0.9933785358809171
2014-04-11,1,0.0011874001896841446,0.0014318863927998205,-0.002669443168679316,0.008590627084651595,0.9937043475089207
2014-04-15,1,0.0018514967787144798,0.002175474630959773,-0.002669443168679316,0.006466051325393112,0.9949282051806569
2014-04-17,1,0.001995149092485571,0.0023517750543243206,-0.0059334667478485445,0.004421391508262918,0.9942735201177678
2014-04-22,1,0.0023537525636611314,0.0027596133785115656,-0.0059334667478485445,0.004505027194187012,0.9941226232820239
2014-04-24,1,0.0018956621881009521,0.002198582583937996,-0.0059334667478485445,0.00851335997679303,0.9932140377866256
2014-04-28,1,0.0012578272590176407,0.0014695028823416747,-0.004999913141644012,0.00851335997679303,0.9933679892290541
2014-04-30,1,0.0027483128094309313,0.0031877204611745697,-0.004999913141644012,0.006356657948795883,0.9937748691387311
2014-05-02,1,0.0019387373942692083,0.0022352399049269086,-0.004999913141644012,0.007127744711461794,0.9938861458285678
2014-05-06,1,0.0016875390291598636,0.0019246431804657424,-0.004768132825823182,0.007961271397131592,0.9937288336169963
2014-05-08,1,0.001449193974783541,0.0016177119723232367,-0.0020843415131011327,0.007961271397131592,0.9938786012875048
2014-05-12,1,0.0019716067280960573,0.002195854399245775,-0.0009473466811666413,0.007967769029252891,0.9943886759380322
2014-05-14,1,0.0026304030978049897,0.0029593865374603536,-0.0009473466811666413,0.008919575318814828,0.9942002680383861
2014-05-16,1,0.0015725061485068535,0.0017603348540399313,-7.42234248643222e-05,0.008919575318814828,0.9948450407011041
2014-05-20,1,0.001921575560043787,0.0021817288234301326,-7.42234248643222e-05,0.008919575318814828,0.9950589164050434
2014-05-22,1,0.0030325492668832406,0.0034826153693321535,-7.42234248643222e-05,0.007967769029252891,0.9957221171643478
2014-05-27,1,0.0026897883838944837,0.0030830537752413985,0.0004184641901569394,0.007967769029252891,0.9952246420982186
2014-05-29,1,0.0022383633650061713,0.002475877586846284,-7.42234248643222e-05,0.008916159433417226,0.9942882814508859
2014-06-02,1,0.002453981624307529,0.0027351377286239063,0.00023477190985019127,0.008916159433417226,0.9943120500895837
2014-06-04,1,0.0029337106150307507,0.003274890782822395,0.00023477190985019127,0.007550203056787822,0.9946162045940253
2014-06-06,1,0.002617987871909408,0.0028508193385459006,0.00023477190985019127,0.007199892300863636,0.9945335971148833
2014-06-10,1,0.0025628137052546704,0.002745922376825753,-0.000945841076865813,0.006570319717782123,0.9944515666211362
2014-06-12,1,0.0026179112924173444,0.0027848200032825746,-0.003152475359146695,0.006170640853474468,0.9940219211989002
2014-06-16,1,0.0027403679178020597,0.002948074698726952,-0.005516278709064373,0.006570319717782123,0.9929394172147787
2014-06-18,1,0.0023494250994431803,0.002464610820847742,-0.006182194398373669,0.007199892300863636,0.9919788953756236
2014-06-20,1,0.0028218647383266523,0.003001687161822039,-0.006182194398373669,0.006371505363657732,0.9923954000673602
2014-06-24,1,0.0018758973821205744,0.0019060963837361892,-0.005516278709064373,0.006371505363657732,0.9932837080656904
2014-06-26,1,0.0014751270171083574,0.0015659729213835993,-0.005689062173936009,0.006084427541230411,0.9936979102092837
2014-06-30,1,0.0019600761834139002,0.0019843200694782646,-0.005689062173936009,0.005294999790157875,0.9937814112382584
2014-07-02,1,0.002047602521774056,0.002120299171506948,-0.0068516953822532565,0.005294999790157875,0.9924297281079342
2014-07-07,1,0.0019785229503147058,0.002060569110542261,-0.006965552373686115,0.005862452604907734,0.9913407276493651
2014-07-09,1,0.001892346394017618,0.0019604031684868593,-0.00812835352488439,0.005862452604907734,0.9906120224247902
2014-07-11,1,0.0016093707546927347,0.0016665984511994995,-0.009277721046240889,0.008058955585893174,0.9898639342329856
2014-07-15,1,0.0016553298267912352,0.0017415209371097963,-0.009277721046240889,0.005862452604907734,0.9906017470872143
2014-07-17,1,0.001471648202762511,0.0015123578323801437,-0.009537119365890967,0.00507234214466658,0.9907474909755458
2014-07-21,1,0.0012103249102565572,0.0012440307980153187,-0.009953573584373623,0.00507234214466658,0.9898712486089812
2014-07-23,1,0.0014855194444160181,0.001502904866337784,-0.009953573584373623,0.007854754603087502,0.9894723577299672
2014-07-25,1,0.0010873319887102835,0.0011231683787762499,-0.010354539448559689,0.008567065160291336,0.9893371387793186
2014-07-29,1,0.0009624124226939451,0.0009953354614783074,-0.010354539448559689,0.013758732211568746,0.9890134346931655
2014-07-31,1,0.0011093717056899137,0.0011170166330533716,-0.009953573584373623,0.008470979815149896,0.9905595257299059
2014-08-04,1,0.0013404052370757345,0.0013524220653950284,-0.009589669271778888,0.007325993840983159,0.9915342208324155
2014-08-06,1,0.00010652163811121073,0.000282539970912497,-0.006820444363884589,0.007325993840983159,0.9920749239160381
2014-08-08,1,0.0007036766899681262,0.000801659915159036,-0.00699429570730409,0.00715216364295765,0.9926388643158194
2014-08-12,1,8.684033855133771e-06,0.00018678208208774527,-0.005717314407386767,0.00715216364295765,0.9928957286296478
2014-08-14,-1,-0.0007109490728336759,-0.00043835611389130827,-0.005717314407386767,0.00715216364295765,0.9926898560571914
2014-08-18,-1,-0.0006879992569060641,-0.0004104890049739851,-0.004047939495736243,0.008561212375683833,0.9927105059874973
2014-08-20,1,6.296113288125282e-05,0.00021360105264020947,-0.005717314407386767,0.00715216364295765,0.9927179597665606
2014-08-22,0,-0.00010601818514465583,5.7561602286665555e-05,-0.005717314407386767,0.003747349830826078,0.992965656962169
2014-08-26,1,0.0003617713713600674,0.0004492637076293128,-0.005717314407386767,0.0021914783265547157,0.9933319977345842
2014-08-28,-1,-0.00020742029123287217,-9.689800073018587e-06,-0.006601905753732812,0.0037381557754987975,0.9928998838149702
2014-09-02,1,0.00023795220619834381,0.00034881928433308355,-0.00936377580310944,0.0008590581490190257,0.9924405245958582
2014-09-04,-1,-0.0005543900358592112,-0.00028536596270663326,-0.011942190191153583,-5.220632669055138e-05,0.9916420307984242
2014-09-08,-1,-0.00020203275351088758,-2.18325492873972e-05,-0.00990200533661977,-0.0017403980334354005,0.9917029589850807
2014-09-10,-1,-0.00025694575117875056,-8.202178537995502e-05,-0.012000471942604556,-0.00047594535584648035,0.9912318788291011
2014-09-12,-1,-0.0011874214879990961,-0.0009042816653724053,-0.013333367895210876,-0.00047594535584648035,0.9894520576862095
2014-09-16,-1,-0.0003943291087741231,-0.0001965124828762297,-0.02074391803510331,-0.0026658334743914283,0.986232364559228
2014-09-18,-1,-0.0015524250514362505,-0.0011768555987482464,-0.02074391803510331,-0.00047594535584648035,0.9860878658538584
2014-09-22,-1,-0.0018277012091422525,-0.0014545870589790213,-0.02074391803510331,0.001728081253732081,0.9855806791282202
2014-09-24,-1,-0.0022975159534920314,-0.0018448770115447098,-0.02074391803510331,0.006074365219676418,0.9840384508896943
2014-09-26,-1,-0.002454195047001827,-0.001970091184114484,-0.02074391803510331,0.006074365219676418,0.9833718295902509
2014-09-30,-1,-0.0033228817223965954,-0.0027416753481449892,-0.024119044212266887,0.00897623480474944,0.9822808811663833
2014-10-02,-1,-0.004659810733472627,-0.003924362513339474,-0.01836603837303093,0.012101107034696482,0.9824966601824272
2014-10-06,-1,-0.005269826724572268,-0.004480459556831182,-0.01971759687974618,0.015516478103628505,0.980899909179675
2014-10-08,-1,-0.0057035977924992974,-0.0048357489020582935,-0.022404950882157784,0.020170149816612012,0.9795233885171244
2014-10-10,-1,-0.008482216115347978,-0.0073072704169677,-0.01692453472501037,0.020170149816612012,0.9798474988899492
2014-10-14,-1,-0.011217698957125485,-0.009771428827980155,-0.0030933391592202304,0.020170149816612012,0.9812213600183961
2014-10-16,-1,-0.009454607611088656,-0.00820465269302566,-0.016199387770436644,0.015516478103628505,0.9835305514260724
2014-10-20,-1,-0.00822327694319383,-0.0071531324069404045,-0.01647872456724638,0.020170149816612012,0.9833857914700375
2014-10-22,-1,-0.007948910461050212,-0.006928396748139217,-0.01620409711491107,0.015325087046427554,0.9837796593150975
2014-10-24,-1,-0.006265795882272893,-0.005465124934207973,-0.01620409711491107,0.01595344012312174,0.9838993412833428
2014-10-28,-1,-0.005896818719699376,-0.005167049221991462,-0.01620409711491107,0.014006227131660425,0.9850503964364166
2014-10-30,-1,-0.0056026064615998135,-0.0049278220785776835,-0.01805458798510354,0.014006227131660425,0.9812144637412002
2014-11-03,-1,-0.004088840217161396,-0.003614758181802222,-0.01686482767622629,0.014397981380842752,0.9811448726834147
2014-11-05,-1,-0.0036760535157070633,-0.003261336282768164,-0.01620409711491107,0.014397981380842752,0.9818248856628734
2014-11-07,-1,-0.0028108722060640415,-0.0025146259916628603,-0.01686482767622629,0.014397981380842752,0.9801670668484558
2014-11-11,-1,-0.002820495908826589,-0.0025521508811070168,-0.018875185723311642,0.014397981380842752,0.9777737083571167
2014-11-13,-1,-0.004036957468541594,-0.003602783008170983,-0.020089022229741234,0.014397981380842752,0.9780844250224741
2014-11-17,-1,-0.0035449860103938086,-0.003197132773867883,-0.018385365071706048,0.012715284026647962,0.9788219924059546
2014-11-19,-1,-0.0027716306640933382,-0.002548657313104597,-0.018385365071706048,0.015028849375127641,0.9762821489001171
2014-11-21,-1,-0.0013811024072225484,-0.0013267619629859116,-0.018385365071706048,0.014615691377208896,0.9746925884796159
2014-11-25,-1,-0.002503275232515845,-0.002319679172471136,-0.016670167756056994,0.017184472686747658,0.9746998429233887
2014-11-28,-1,-0.006260454897430738,-0.005644165712835115,-0.011158257443008773,0.017184472686747658,0.979350616473798
2014-12-02,-1,-0.004781606347007573,-0.004325173439573218,-0.011158257443008773,0.014573206678175271,0.981041051079632
2014-12-04,-1,-0.004269009900143818,-0.003880281554727736,-0.01391101217642662,0.011988267395811887,0.9798589871055953
2014-12-08,-1,-0.0062915614529300765,-0.005684335615600576,-0.013715208416617622,0.011988267395811887,0.981931523660098
2014-12-10,-1,-0.006905206027128941,-0.006255160218642358,-0.011158257443008773,0.014361182721190933,0.9829739418831253
2014-12-12,-1,-0.00722816497882014,-0.006561116787473562,-0.011394682966545285,0.014361182721190933,0.982026711553701
2014-12-16,-1,-0.006700603474237927,-0.00610032128436401,-0.011394682966545285,0.021773833023764073,0.9814238819279996
2014-12-18,-1,-0.004314266134729874,-0.003994155829362011,-0.011394682966545285,0.010570365565538687,0.9834262334795539
2014-12-22,-1,-0.0026783565777491244,-0.0025566166332681673,-0.011394682966545285,0.012354748409359767,0.9844358847944193
2014-12-24,-1,-0.0016650052526535422,-0.0016166713598574647,-0.011972977161408726,0.009826012941059368,0.9846270035878536
2014-12-29,-1,-0.0017739755592691,-0.0017716970018125265,-0.015888934523350186,0.009826012941059368,0.9813360446664334
2014-12-31,-1,-0.00162190162573637,-0.0015612035043051143,-0.015888934523350186,0.014407367948659554,0.9802784971728893
2015-01-05,-1,-0.0031933405237913014,-0.0030581216708664314,-0.011972977161408726,0.026647446240234865,0.9789939105553339
2015-01-07,-1,-0.003731507949868608,-0.0035115078851848526,-0.00961733489449813,0.026647446240234865,0.9784040485591139
2015-01-09,-1,-0.002256176265702288,-0.002229821552507627,-0.00961733489449813,0.023785889295811942,0.9793905431974761
2015-01-13,-1,-0.0033537095459640516,-0.003233576511686149,-0.007124635653831764,0.023785889295811942,0.9806462455124948
2015-01-15,-1,-0.0030437676608287135,-0.0029644260740516494,-0.005241931745425548,0.026647446240234865,0.9798117392059803
2015-01-20,-1,-0.0014857999124262085,-0.0013380566486758563,-0.003539117884376241,0.026289215812912527,0.9816590766899583
2015-01-22,0,-5.6374250849438754e-05,0.00028889783728858003,-0.005645619101743531,0.01864066568228429,0.9833420795962253
2015-01-26,1,0.00016904799466631033,0.0005612050859092482,-0.005044171892089576,0.01864066568228429,0.9840664721221503
2015-01-28,-1,-0.0022190955737874498,-0.0021385159144307847,-0.005044171892089576,0.01864066568228429,0.986661922022782
2015-01-30,-1,-0.0007230639260909191,-0.00043757065022516806,-0.006237099738843138,0.01235251849698943,0.9876878683168222
2015-02-03,1,0.0014996870104634474,0.002084715929470222,-0.006237099738843138,0.007021422343950898,0.9908897655346232
2015-02-05,1,0.0014070877690553556,0.0019403953534694422,-0.009260973131097121,0.005505097130480378,0.9896589121566292
2015-02-09,1,0.0022747809793859774,0.0029852408816974808,-0.013460519945803818,0.004805816699099502,0.9883980934337724
2015-02-11,1,0.0019476008477647812,0.002585834655381726,-0.013086514910057703,0.0051454359733870345,0.988565549616794
2015-02-13,1,0.003555222619802124,0.004389407657014476,-0.013086514910057703,0.004719606494016718,0.9903404407619233
2015-02-18,1,0.0037693522846532737,0.004639137486378637,-0.013086514910057703,0.004719606494016718,0.9892905163033373
2015-02-20,1,0.003545998933467034,0.004390182205186768,-0.014169645582123176,0.004868845437759415,0.9879564409503231
2015-02-24,1,0.0034718584689911133,0.0042752027037009435,-0.014169645582123176,0.004719606494016718,0.988047680073191
2015-02-26,1,0.002753317950820275,0.00341728600037384,-0.013086514910057703,0.004868845437759415,0.9883516380543889
2015-03-02,1,0.0020382911628655286,0.0025699121256279505,-0.014379667784750914,0.0051454359733870345,0.9874994627048435
2015-03-04,1,0.002363528853499542,0.0029316628494412775,-0.014379667784750914,0.00738611436295235,0.9863058425415683
2015-03-06,-1,-0.000190214240645525,-9.367371265697576e-05,-0.011635623490475745,0.014205463677777797,0.9862230955034657
2015-03-10,-1,-0.002441513913483786,-0.002142980116085411,-0.008222749293696867,0.014205463677777797,0.9871360658877104
2015-03-12,-1,-0.001605624449862107,-0.001480181629956999,-0.007085378895586596,0.014205463677777797,0.9869457827701698
2015-03-16,-1,-0.000907965670539977,-0.0008732452156539096,-0.007085378895586596,0.01565263566998546,0.985966663977246
2015-03-18,-1,-0.0005899464085806381,-0.0005831936383209938,-0.005830572681021974,0.01565263566998546,0.9851260740737924
2015-03-20,-1,-0.0006899282911086752,-0.0006419042468880876,-0.005830572681021974,0.01565263566998546,0.9869816522431059
2015-03-24,-1,-0.0007246090000537845,-0.0006795293009777075,-0.005830572681021974,0.01565263566998546,0.9855969141105095
2015-03-26,-1,-0.00016719479129182954,-2.378311055032409e-05,-0.00697754157873267,0.012083813957043308,0.9858603908528967
2015-03-30,0,-6.368076340790648e-05,9.169745220873499e-05,-0.005830572681021974,0.012493313576509835,0.9868195878815741
2015-04-01,1,0.00038548368477545666,0.0006227571496162558,-0.005830572681021974,0.011641866606172545,0.9868907882407872
2015-04-06,1,0.0024045009040285963,0.0029422032135770692,-0.007329135127116981,0.008088320210660522,0.9877019477261335
2015-04-08,1,0.001635878360218081,0.0020533055163160074,-0.008482035821352455,0.008340814921629426,0.987469803152837
2015-04-10,1,0.0018784277860457747,0.0022789568204044834,-0.01132343200862326,0.008779658974595013,0.9868695637333644
2015-04-14,1,0.002566023586960234,0.0030641757732593395,-0.013602708330400549,0.0071089819124689774,0.9862361138886586
2015-04-16,1,0.0039881515349453394,0.004699363544250505,-0.013888340644551973,0.005129585924222901,0.9862939219651907
2015-04-20,1,0.004273214179502454,0.0050765156425688265,-0.013888340644551973,0.005129585924222901,0.98601682728766
2015-04-22,1,0.0030021860193703,0.0035778210730186234,-0.013888340644551973,0.0071089819124689774,0.986265424315666
2015-04-24,1,0.0014031095924632625,0.0015794458170206014,-0.013888340644551973,0.0061338810995320864,0.9864063480037655
2015-04-28,1,0.002720767704133247,0.003139914095003626,-0.014428871923325409,0.004103206625484347,0.9855128192814533
2015-04-30,1,0.0027137586899470805,0.003147271204538802,-0.014428871923325409,0.0034639299044866927,0.9868436533222992
2015-05-04,1,0.0008103806360995988,0.0008708113055035056,-0.013256295132941229,0.004103206625484347,0.9880395368726805
2015-05-06,1,2.4317479214276813e-05,0.00011888050042659597,-0.013256295132941229,0.0034639299044866927,0.9882740858439759
2015-05-08,-1,-0.0005084789088305734,-0.0003042758388721211,-0.013989465160293119,0.0016355085786400768,0.9888734943118788
2015-05-12,-1,-0.0018666891446295821,-0.0015098382902020745,-0.012256486072633766,0.0034639299044866927,0.9904601479331518
2015-05-14,-1,-0.001476140046863493,-0.0012642027752850092,-0.011730436170233031,0.004103206625484347,0.9884802573181627
2015-05-18,-1,-0.0009178430506534753,-0.0008250140762999243,-0.011730436170233031,0.006190317465615684,0.9873521153013213
2015-05-20,-1,-0.0001403250884456806,-0.00012786387204435877,-0.009442225692308955,0.003965350233906141,0.9891993217101068
2015-05-22,-1,-0.0006214934092637985,-0.0005787482785815001,-0.009044937019263517,0.003656151797929166,0.9894915908773387
2015-05-27,-1,-0.0015136203209136713,-0.001353323945877994,-0.009044937019263517,0.005262722157684757,0.9891091657889273
2015-05-29,-1,-0.001936698201198947,-0.0016710424566184802,-0.010063977354990707,0.006394552853975139,0.9884292630810462
2015-06-02,-1,-0.002295047545853181,-0.00196347880092773,-0.011023351045564561,0.004747950768598253,0.9884242227039327
2015-06-04,-1,-0.0023928734492367465,-0.0020892244274172732,-0.01544028486524251,0.004794627309560317,0.9877233946612737
2015-06-08,-1,-0.003661803563968646,-0.0031447404509538437,-0.01544028486524251,0.006640955694448251,0.9869483739742893
2015-06-10,-1,-0.003310315855019285,-0.0028383751493874466,-0.01544028486524251,0.004794627309560317,0.9870626529446145
2015-06-12,-1,-0.0019677342598543998,-0.0016909338733886892,-0.011613460667167404,0.004386232716822147,0.9898582709270766
2015-06-16,-1,-0.0003372464667593843,-0.0003005406533437451,-0.01544028486524251,0.004386232716822147,0.98962683526235
2015-06-18,-1,-0.0007410159431466703,-0.000651446486061308,-0.01730680117911307,0.004386232716822147,0.9887403661146924
2015-06-22,-1,-0.002201854305248339,-0.0018265406389866995,-0.019863407150649808,0.004370602264147401,0.9882855573371109
2015-06-24,-1,-0.001469055132120786,-0.0012372682791392062,-0.019863407150649808,0.004370602264147401,0.9892889000181809
2015-06-26,-1,-0.0005652084281247393,-0.0005206480867542894,-0.019863407150649808,7.949991379797784e-05,0.9887065355090303
2015-06-30,-1,-0.0011524202217986618,-0.0010437657602411724,-0.0153323655376265,0.00451111744883342,0.9879171071808035
2015-07-02,-1,-0.0015025945990454937,-0.0013617907542662895,-0.0153323655376265,0.004766838624685444,0.9880081622077191
2015-07-07,-1,-0.0013347791178829897,-0.0012082403702253133,-0.015411943126932247,0.004448810455196612,0.988314280138493
2015-07-09,-1,-0.0010553698146858158,-0.0010343727737978556,-0.020546534780871754,0.004766838624685444,0.9867450701454996
2015-07-13,-1,-0.001134762980807039,-0.0011108867076559047,-0.020546534780871754,0.005257128510986411,0.9842239251392361
2015-07-15,-1,-0.0015611578175460856,-0.001479063843638045,-0.0167752689547073,0.005257128510986411,0.984217270327732
2015-07-17,-1,-0.0021966282086023046,-0.002052310470930017,-0.014302986138978999,0.005334152585407759,0.9847253366065346
2015-07-21,-1,-0.0032884835153595706,-0.00300397174658603,-0.013457038846387194,0.006732451246580376,0.9858069633503158
2015-07-23,-1,-0.0032906918486388763,-0.002990913425446868,-0.016112495616868755,0.006732451246580376,0.9836301266427604
2015-07-27,-1,-0.0040043283338452714,-0.0036484405423958754,-0.018558214767356127,0.006732451246580376,0.9808685095762536
2015-07-29,-1,-0.0024127658682165398,-0.0021596439949786686,-0.02077006114146309,0.005528475086438348,0.9805916047904712
2015-07-31,-1,-0.003306639487343932,-0.002918224548050635,-0.018188328691915195,0.018344441035398423,0.9761365912902853
2015-08-04,-1,-0.003794682411341339,-0.0033449211815614484,-0.018188328691915195,0.025830460748404862,0.9735937811402902
2015-08-06,-1,-0.003495080960562271,-0.0031040636017331835,-0.016112495616868755,0.025830460748404862,0.9750524404728442
2015-08-10,-1,-0.002359222348267795,-0.00211515403405123,-0.017661468827174988,0.012190056897264918,0.9768477088565592
2015-08-12,-1,-0.0023199454529395816,-0.00205277570163421,-0.018819595471801537,0.0074140155650657,0.976705418702832
2015-08-14,-1,-0.002910294623325897,-0.002572441487277082,-0.022420247366727666,0.0074140155650657,0.9759084844057203
2015-08-18,-1,-0.002574826680840172,-0.0022922162837425266,-0.022420247366727666,0.018094909686218377,0.9737347916372325
2015-08-20,-1,-0.0040662965238322715,-0.0036125861039550886,-0.022420247366727666,0.018094909686218377,0.9745984626553764
2015-08-24,-1,-0.0057411318446852376,-0.005106766554348377,-0.020797252370059274,0.018094909686218377,0.9773539204390248
2015-08-26,-1,-0.004317472760357696,-0.003927405322610279,-0.021332924572546506,0.009678090274230859,0.978567275639859
2015-08-28,-1,-0.0012573063055311665,-0.0011966719916012961,-0.023611479278838998,0.0034946522447912827,0.9821614629114489
2015-09-01,-1,-0.0013707542549277866,-0.001327510607018388,-0.021332924572546506,0.0034946522447912827,0.9838657765785518
2015-09-03,-1,-0.0007666161407005661,-0.0007071752363734763,-0.021332924572546506,0.0067425796485020995,0.9806898069629696
2015-09-08,-1,-0.0003671057306203489,-0.00016766608619277039,-0.021332924572546506,0.02068511257409936,0.9772645775294947
2015-09-10,-1,-0.0015027596195819678,-0.0014426594885035549,-0.012707179135387072,0.03621079660374257,0.9759635017152274
2015-09-14,-1,-0.0025717908755418933,-0.0024747958283564304,-0.013189738900647221,0.03621079660374257,0.9756961663442784
2015-09-16,-1,-0.0009609187316860287,-0.0008462848164010799,-0.013189738900647221,0.02452842121075085,0.9784831597567755
2015-09-18,-1,-0.0015863663177984372,-0.001502253559248206,-0.007399331012965603,0.02452842121075085,0.9789342261060576
2015-09-22,-1,-0.0019729833744648387,-0.0019380204112630047,-0.007399331012965603,0.02452842121075085,0.9784029908465876
2015-09-24,-1,-0.002550350906161351,-0.00248542534457428,-0.007399331012965603,0.03524110548830112,0.9765273834324583
2015-09-28,-1,-0.003438299135441281,-0.0032749030997240173,-0.007399331012965603,0.03524110548830112,0.9767961650809589
2015-09-30,-1,-0.0019700017644383306,-0.0019061494777526224,-0.012867712813906943,0.02398601534203894,0.977558752485597
2015-10-02,1,0.0002119033212588903,0.0004901585378577347,-0.017178411993361897,0.02017601610574604,0.9805246714874931
2015-10-06,1,0.0020944777497623832,0.002581697435685053,-0.017178411993361897,0.02017601610574604,0.9816633455959238
2015-10-08,1,0.0037415087947520425,0.004442321005313979,-0.017178411993361897,0.01166899818695354,0.9826994272616084
2015-10-12,1,0.0026685360621395643,0.003261703782041202,-0.013395155008494168,0.011898170638523314,0.9841345158044397
2015-10-14,1,0.0026169103180998963,0.0031825964098728026,-0.017178411993361897,0.014825644230224698,0.9824714881382826
2015-10-16,1,0.0026787601563742283,0.00320942299370987,-0.020130689099184734,0.010141280510806143,0.9823296929458177
2015-10-20,1,0.0025796739004530023,0.003108978972596801,-0.02166908610417716,0.016072691134511215,0.9806903784144451
2015-10-22,1,0.0030051305979166614,0.0035869441463613457,-0.019005367249645577,0.014294817422507865,0.9816049486694941
2015-10-26,1,0.0014835521773897556,0.0018340618191054262,-0.017944463386822262,0.014294817422507865,0.98256633037505
2015-10-28,1,0.0011693703879416578,0.001451514660398539,-0.016594894485325414,0.01975088109451223,0.9816265913030157
2015-10-30,1,0.0005713191658328061,0.0007936556581537377,-0.017944463386822262,0.01975088109451223,0.9808927076593927
2015-11-03,1,0.003190013435156732,0.003826741697441109,-0.0203620665394181,0.010258704250972816,0.9810819263202141
2015-11-05,1,0.004725537235468229,0.00562783161465149,-0.021483660212303482,0.00920459722696124,0.9798933018527728
2015-11-09,1,0.004483578563448715,0.005347552590889652,-0.02414847467868615,0.0028328130952546813,0.9778941669067805
2015-11-11,1,0.004005317813948974,0.004797222914653047,-0.021483660212303482,0.0028328130952546813,0.9795308912326424
2015-11-13,1,0.0036405461822450885,0.004393491898419477,-0.022672174589136212,0.0026192510185376735,0.9786298245942703
2015-11-17,1,0.003641138973572797,0.004376228964994146,-0.02005763499650188,0.0026192510185376735,0.9793613946023693
2015-11-19,1,0.0033933615971074105,0.0040596175499303215,-0.022947994935105187,-0.00104607860806309,0.9784756187225524
2015-11-23,1,0.0025111505100203647,0.003033361534585783,-0.023742303068552413,0.0026192510185376735,0.9782543232605062
2015-11-25,1,0.003584196453428044,0.0042417437934264,-0.023742303068552413,0.0026192510185376735,0.976854675012994
2015-11-30,1,0.0024046874318066147,0.0028811983523117255,-0.02420271916622218,0.007994910006143253,0.977290828610455
2015-12-02,1,0.001265225240476302,0.0015762969159098797,-0.022418933592402608,0.006714812081640006,0.9789305946612795
2015-12-04,1,0.00046147487945212616,0.000648420585068212,-0.022418933592402608,0.006714812081640006,0.9803717721627517
2015-12-08,-1,-0.001569040624449499,-0.0014599906289146478,-0.025892424688315204,0.006714812081640006,0.9790274039298554
2015-12-10,-1,-0.0018084281388056583,-0.0016175345222744519,-0.03147588449729953,0.0009211843088491053,0.9777354664854213
2015-12-14,-1,-0.003123217663011461,-0.0027918335563486664,-0.03147588449729953,0.0009211843088491053,0.9767645316448725
2015-12-16,-1,-0.003115480131157678,-0.0027435028984146206,-0.03147588449729953,0.0009211843088491053,0.9758813588012367
2015-12-18,-1,-0.003845788724033958,-0.003459539539350509,-0.03316281448863118,0.0009211843088491053,0.9739702855991349
2015-12-22,-1,-0.0041505879945339195,-0.003709940531233619,-0.03316281448863118,0.006714812081640006,0.9716524939920982
2015-12-24,-1,-0.002896998040746478,-0.002561303363436662,-0.037943154849766576,0.006714812081640006,0.9694309255877629
2015-12-29,-1,-0.00367851977959306,-0.0032490365743771104,-0.037943154849766576,0.014098714499664796,0.9639445404323885
2015-12-31,-1,-0.0031329875581983654,-0.0028176316587417037,-0.037943154849766576,0.02303011249970075,0.9619704074403975
2016-01-05,-1,-0.0026581868999244903,-0.0024255925847549114,-0.045059424888985636,0.04001226422349977,0.9551927894981008
2016-01-07,-1,-0.005623997852067254,-0.005012221479419618,-0.045059424888985636,0.04001226422349977,0.9543881849249072
2016-01-11,-1,-0.006201911986612119,-0.005537122744371341,-0.03963399036437289,0.04001226422349977,0.954846517079271
2016-01-13,-1,-0.008853178355891951,-0.007800660373574654,-0.03230690288079674,0.04001226422349977,0.9565103576841983
2016-01-15,-1,-0.010088155542053827,-0.008794441410261646,-0.022092522318137978,0.036119332570563226,0.9562783645724896
2016-01-20,-1,-0.011318593630599807,-0.009908157344365452,-0.011224940143013593,0.0548095894415109,0.9546890730649965
2016-01-22,-1,-0.007135377585784749,-0.006409563039802758,-0.011224940143013593,0.053571555493872686,0.9572515182478811
2016-01-26,-1,-0.010410497398745746,-0.009267061986237887,-0.011224940143013593,0.053571555493872686,0.9588858202559046
2016-01-28,-1,-0.003946560207590196,-0.0035783781958634957,-0.011224940143013593,0.03169173713266967,0.9660505192943517
2016-02-01,-1,-0.003068005565234022,-0.0027993238338939914,-0.007869033825693839,0.026712395285930796,0.9678582331370398
2016-02-03,-1,-0.0009623525210299648,-0.0008675644615256739,-0.005795479396032501,0.026712395285930796,0.9712643481665052
2016-02-05,-1,-0.006104033035248395,-0.005367950736305309,-0.0034702616192657863,0.026712395285930796,0.9732308917008273
2016-02-09,-1,-0.00358996702091403,-0.00323207553116253,-0.0034702616192657863,0.024841162523339837,0.9730918213174861
2016-02-11,-1,-0.003926737113520902,-0.0034577382865393115,0.0035591952236115653,0.03169173713266967,0.9696631813113266
2016-02-16,-1,-0.003445595214038015,-0.0030029113735390465,-0.0034702616192657863,0.027915692413319915,0.9715864643818978
2016-02-18,-1,-0.0029189084779648487,-0.0025147250002111893,-0.0011676639630955354,0.027951569278553752,0.9732954955785894
2016-02-22,-1,-0.0016262534984613618,-0.0013073381845742486,-0.001554316535246293,0.025516963395051204,0.976102593619477
2016-02-24,-1,-0.0023044081432759987,-0.001993038848935882,-0.0014849699498092742,0.025516963395051204,0.9768811940599036
2016-02-26,-1,-0.0002543314600018748,-0.00016608396987679837,-0.0014849699498092742,0.02358248095022325,0.9778378302306853
2016-03-01,1,0.0022545392189100124,0.00278538212219002,-0.00411385828405736,0.02358248095022325,0.9790098672787225
2016-03-03,1,0.00495725967933533,0.005927693019100268,-0.009434914294814094,0.020113186961530527,0.9810623088620146
2016-03-07,1,0.004537912244313425,0.005352005255674419,-0.014001658944229587,0.016853135102342095,0.9796973934773792
2016-03-09,1,0.003415631290844881,0.004088933510465202,-0.013924533229383704,0.025516963395051204,0.978866643442775
2016-03-11,1,0.006125058129366269,0.0071809278211770015,-0.013924533229383704,0.01709400290633402,0.981399612924095
2016-03-15,1,0.005545465926020964,0.0065169189672911465,-0.012231523934470728,0.027146584229953714,0.9800695870756786
2016-03-17,1,0.006894505902269437,0.008072753170363857,-0.012231523934470728,0.01557122393326021,0.980873993679676
2016-03-21,1,0.006547451835912306,0.00758814242057761,-0.012231523934470728,0.0241363360920049,0.9789140603086508
2016-03-23,1,0.005227239134375989,0.006133445210289084,-0.012231523934470728,0.0241363360920049,0.9800705820952244
2016-03-28,1,0.004249590099166308,0.004939439729868858,-0.012231523934470728,0.030640869933108283,0.9778744337829814
2016-03-30,1,0.005162228165104534,0.0060745223676956835,-0.014285031393198118,0.030640869933108283,0.9764004598939391
2016-04-01,1,0.006082884118713482,0.007158849176841209,-0.017351493607103974,0.02419554689669801,0.9766347140545745
2016-04-05,1,0.005813230473918461,0.006816973995731502,-0.017351493607103974,0.02419554689669801,0.9757032702215638
2016-04-07,1,0.005930411335886766,0.006924444260529201,-0.01821505398750283,0.022245639557992927,0.9775238480953271
2016-04-11,1,0.006204731552675464,0.007221935759038588,-0.024167998541964095,0.020667813841822612,0.976852026123402
2016-04-13,1,0.0070964446144034035,0.008232000254351007,-0.024167998541964095,0.020667813841822612,0.9770271997043144
2016-04-15,1,0.007454020539116237,0.008639902607865067,-0.024167998541964095,0.013484052592554006,0.9771376767088688
2016-04-19,1,0.008910217433063425,0.010243512482792715,-0.024167998541964095,0.01023473519521777,0.9779221222487814
2016-04-21,1,0.008456150256260054,0.009788546118466647,-0.024167998541964095,0.01023473519521777,0.9785492289491585
2016-04-25,1,0.008717132650011417,0.01002190121288906,-0.016056472130633215,0.01023473519521777,0.9817017459305813
2016-04-27,1,0.007868696091343462,0.009006674985317034,-0.012310284801603132,0.01023473519521777,0.9822324877865692
2016-04-29,1,0.0071978513855457844,0.008220908641448487,-0.011070309077011595,0.01023473519521777,0.9834261167840501
2016-05-03,1,0.004794921809271664,0.005411868661776282,-0.008011638692438924,0.01023473519521777,0.9853960846236945
2016-05-05,1,0.004585358476480189,0.005184759556769276,-0.008011638692438924,0.00788180530334989,0.9861828892816256
2016-05-09,1,0.003286615646866449,0.0036434105724459914,-0.006566078508499723,0.012602202264413115,0.9856007494285651
2016-05-11,1,0.005060397244436374,0.005647267411192903,-0.008011638692438924,0.008095927279775457,0.9870779875330105
2016-05-13,1,0.0034881824066193847,0.0037783315194413504,-0.012310284801603132,0.008095927279775457,0.9853587337750835
2016-05-17,1,0.0034544163248868397,0.0037605166615887332,-0.011710067746090087,0.006051497087324555,0.9857145080442641
2016-05-19,1,0.004085484662087774,0.004517825539796584,-0.0123628618681621,0.009071724549659151,0.9849137975496652
2016-05-23,1,0.004236591805718252,0.004643385642605906,-0.0123628618681621,0.008719289929244438,0.9845346345581967
2016-05-25,1,0.004580441745114338,0.005003324206505484,-0.0123628618681621,0.008719289929244438,0.9848255717385851
2016-05-27,1,0.003701599841934892,0.004007358720856254,-0.01723296212062626,0.008719289929244438,0.9792555983814093
2016-06-01,1,0.001439972030442931,0.0015837817754104516,-0.01560955247634628,0.02163812594502036,0.976172307987985
2016-06-03,0,-0.00012929328538009775,0.00026020329853469206,-0.013283929816252088,0.025447814910435084,0.9751471442168864
2016-06-07,1,5.050923545087127e-05,0.000516664042346556,-0.019760813310756704,0.017466438574106305,0.9751745248697832
2016-06-09,-1,-0.001140617459826093,-0.0005304205739082052,-0.013283929816252088,0.017466438574106305,0.9759966676320855
2016-06-13,-1,-0.0030435272892024175,-0.0021884491923004645,-0.011947216975221591,0.025447814910435084,0.9739601540444768
2016-06-15,-1,-0.0027232873806187045,-0.001971002772735528,-0.014362617797524752,0.025447814910435084,0.9731282855978451
2016-06-17,-1,-0.0051684379714215,-0.003984016367935857,-0.014423790239548708,0.025447814910435084,0.9730698990025735
2016-06-21,-1,-0.0014264826217332868,-0.0008952316431411228,-0.020430089354906398,0.016367108239222425,0.973505077137785
2016-06-23,-1,-0.0008229745080824476,-0.0003780354422317281,-0.025762614448192864,0.007324308177794354,0.9735940421495444
2016-06-27,-1,-0.0028587136621996486,-0.002278810807103303,-0.020014440740074017,0.012945138016128628,0.9774211135034551
2016-06-29,-1,-0.0028937338997105148,-0.0020627751590576783,-0.02458593840722675,0.007143733013210408,0.9799802474123918
2016-07-01,-1,-0.0020913564398625886,-0.0013970346656403852,-0.025762614448192864,0.007143733013210408,0.9785257939962276
2016-07-06,-1,-0.0036291343493852525,-0.002755337349297968,-0.02458593840722675,0.011227081204891243,0.9789215239456028
2016-07-08,-1,-0.0034166280268919744,-0.0026069687980519052,-0.02458593840722675,0.012400024705767013,0.9780984300401535
2016-07-12,-1,-0.0009870659319694075,-0.0004966140874865146,-0.02458593840722675,0.012400024705767013,0.9807018317138586
2016-07-14,-1,-0.001984543156195057,-0.0014460190900870426,-0.020014440740074017,0.014838792037500428,0.9801049968441403
2016-07-18,-1,-0.0031635118145198335,-0.002399623336998204,-0.016841752973612668,0.014838792037500428,0.9810390831505177
2016-07-20,-1,-0.003689234377399781,-0.002878848322362368,-0.013069872345976766,0.014838792037500428,0.9821035743179255
2016-07-22,-1,-0.004644052574242847,-0.0037706039573979647,-0.007311690791507656,0.01628782077741183,0.9823539443461416
2016-07-26,-1,-0.003054764202527256,-0.0024916756731317236,-0.007311690791507656,0.01477668830710928,0.983532642166068
2016-07-28,-1,-0.0037705261266545217,-0.00314460238734586,-0.005141032200322034,0.01477668830710928,0.9850824096239116
2016-08-01,-1,-0.005332854706639974,-0.004456410430057051,-0.00445826701966625,0.0111861533692254,0.9879457821619281
2016-08-03,-1,-0.0024206685035117973,-0.002001968744306372,-0.006211743514775551,0.008370097526928088,0.9896028113729431
2016-08-05,-1,-0.002465288001590224,-0.0020073791037850197,-0.007311690791507656,0.004579488514366847,0.9900947515334823
2016-08-09,-1,-0.0013213094871135278,-0.0010706635866414588,-0.009306405358184715,0.0013757059460149576,0.989466144895489
2016-08-11,-1,-0.0003367636552715401,-0.00021844186072447492,-0.010648097356830075,0.0013757059460149576,0.9872594374202813
2016-08-15,-1,-0.001548632851218368,-0.001218231359575075,-0.018056150687005775,0.00039709591358613673,0.9861995117311777
2016-08-17,-1,-0.0016325219205264748,-0.001275570887953108,-0.018060208763961312,-0.0011308230663480488,0.9853857870562325
2016-08-19,-1,-0.0015600407146129267,-0.0012067687572977495,-0.018060208763961312,-0.002158480764187553,0.985865357682789
2016-08-23,-1,-0.0017263829569398072,-0.0013802015869438687,-0.018060208763961312,-0.002158480764187553,0.9852945206784633
2016-08-25,-1,-0.0016275539408436813,-0.0012841096200223337,-0.018214326426711235,-0.003349253576055578,0.9840164773637391
2016-08-29,-1,-0.0015528070319449304,-0.0012496758967848545,-0.018214326426711235,-0.0029334567741095595,0.9826112328234973
2016-08-31,-1,-0.0022376503532447033,-0.0018863590095245955,-0.0180543158682644,0.015660354048968837,0.9790526898889618
2016-09-02,-1,-0.0023856819608779316,-0.0020630633825501395,-0.017412760966581148,0.01949375625566009,0.9781529784115329
2016-09-07,-1,-0.0032934734916956567,-0.002882597027805986,-0.017412760966581148,0.024702463045900958,0.9774556312749004
2016-09-09,-1,-0.0024155820232750072,-0.002212273823235698,-0.0126947215283204,0.018331954305191252,0.9807027198620164
2016-09-13,-1,-0.0037646748174901355,-0.0033771787286676633,-0.0126947215283204,0.018331954305191252,0.9807641802667776
2016-09-15,-1,-0.003749904377097573,-0.0034159622692119234,-0.011291610114401093,0.018331954305191252,0.9809041610619786
2016-09-19,-1,-0.004144932105409685,-0.003757993532145679,-0.012958015147427043,0.018331954305191252,0.9802758284319871
2016-09-21,-1,-0.0034602905314808263,-0.0031295543278501074,-0.012958015147427043,0.018331954305191252,0.9802302347081611
2016-09-23,-1,-0.004387693474697569,-0.0038799764759506966,-0.011147265129793468,0.01832158518871991,0.9810604507907493
2016-09-27,-1,-0.004647348210079241,-0.004093866396991935,-0.011147265129793468,0.01832158518871991,0.9813060517840151
2016-09-29,-1,-0.0015669576513909008,-0.0013397702003860854,-0.011846125008105984,0.005253140973765525,0.9864690802361578
2016-10-03,1,0.00045635068112487,0.000583690405259461,-0.013685626586466519,0.003397761132021351,0.9857657235972375
2016-10-05,1,8.438587944603095e-05,0.00014361123007448906,-0.013401035594338346,0.00322901984769417,0.9874996159073541
2016-10-07,-1,-0.00015934623029332433,-0.00013341581432414496,-0.014641820243554636,0.0031571336385210545,0.987540469578892
2016-10-11,-1,-0.0003731403391452863,-0.0003692468877534514,-0.012987331330217556,0.003261031041112318,0.9882138128640481
2016-10-13,-1,-0.0004260289383297011,-0.00039795725267798736,-0.012987331330217556,0.005590927058418661,0.9872042486013161
2016-10-17,-1,-0.000238566182051049,-0.00012878968835324217,-0.012987331330217556,0.007317481293840566,0.9857458164503411
2016-10-19,1,0.0005555679191758773,0.0007597374730187295,-0.012987331330217556,0.007317481293840566,0.9845238026333496
2016-10-21,1,0.0005138097718671536,0.0006826409388028121,-0.012987331330217556,0.009554816006730749,0.9840513053689173
2016-10-25,-1,-0.0005565240010499742,-0.0005460249156401257,-0.007865979813466227,0.010989102581433704,0.9837734186180715
2016-10-27,1,0.0001451518450257044,0.00034228569082193905,-0.006931198022933871,0.011532147974601174,0.9837234986428348
2016-10-31,-1,-0.00134072590678974,-0.001321432172745676,-0.010182985958620487,0.011532147974601174,0.9824247016914948
2016-11-02,-1,-0.0024207200486656344,-0.0022101537515980185,-0.006931198022933871,0.015289233551286634,0.9779231507380755
2016-11-04,-1,-0.00286677571534006,-0.0026011170969536136,-0.0042725690876271125,0.023078205025765595,0.9758083399507181
2016-11-08,-1,-0.001865296708854294,-0.0017084100120978408,-0.0042725690876271125,0.020893491815510562,0.9759094232077468
2016-11-10,0,-0.00011531821697527894,1.1457864528319791e-06,-0.0042725690876271125,0.018749917571382595,0.9770272574064557
2016-11-14,-1,-0.0004076296575964804,-0.00028831624006154415,0.0007736160948699665,0.02235976553145175,0.9775450796792331
2016-11-16,-1,-0.000899768738354688,-0.0007702433681427995,-0.006661748954698226,0.018749917571382595,0.9783933785746421
2016-11-18,1,0.0007371074354996879,0.0009798245365152385,-0.0046375904400855214,0.018749917571382595,0.9788749731273471
2016-11-22,1,0.002305377601236746,0.002810652316286232,-0.004093003958579118,0.01791765272402125,0.9812597331524605
2016-11-25,1,0.0015503932278726185,0.0018722386432074912,-0.00048122308129304654,0.01791765272402125,0.9818448887923239
2016-11-29,-1,-0.0003276989517079068,-0.000252867977902863,0.0009029463755509589,0.01791765272402125,0.9831755211604345
2016-12-01,1,0.0032108589178525184,0.003876698503836754,-0.004093003958579118,0.014858668003726622,0.988230295724859
2016-12-05,1,0.0038460872028125356,0.004509351099653199,-0.008101785958408719,0.012291898261280059,0.9891280595893346
2016-12-07,1,0.00491090918984228,0.005715106302335527,-0.008101785958408719,0.008850872191248162,0.9894671228078553
2016-12-09,1,0.0052941625268196745,0.006113870522218736,-0.009277014271962621,0.004185896136528049,0.9884701358197218
2016-12-13,1,0.005582235278356096,0.006355610077905339,-0.010815320257824276,0.003645407167341287,0.987276086845226
2016-12-15,1,0.004254290716974521,0.004847359696567412,-0.009277014271962621,0.006500492512507659,0.989928474210594
2016-12-19,1,0.004167966166212712,0.004690826067323911,-0.010815320257824276,0.003645407167341287,0.9889981208623748
2016-12-21,1,0.0035288202482397875,0.003926380366601864,-0.014204401466335932,0.004965009812246781,0.9886091498537966
2016-12-23,1,0.004295911293001695,0.0048786294853015305,-0.014346138996170744,0.006378502910653389,0.9874088396330151
2016-12-28,1,0.004167019461676161,0.004757517402013221,-0.015343534391004818,0.004965009812246781,0.9868057483931535
2016-12-30,1,0.0037804494175168618,0.004334909244243975,-0.017318967942648828,0.004965009812246781,0.9872613515656115
2017-01-04,1,0.0041033320192133405,0.004743499206629214,-0.017318967942648828,0.004965009812246781,0.9872449118547298
2017-01-06,1,0.0037907386337320513,0.004376035281580454,-0.018538280930176603,0.006378502910653389,0.986449647250678
2017-01-10,1,0.003852881961712183,0.0044553800033413265,-0.018538280930176603,0.004965009812246781,0.9862311762955552
2017-01-12,1,0.0030252815227105575,0.003531110084674928,-0.017318967942648828,0.00499689946323612,0.9885263288562692
2017-01-17,1,0.0027266362259377713,0.003165307515400358,-0.017318967942648828,0.004463183412214888,0.9880929031004385
2017-01-19,1,0.0019708839399503082,0.0023261747070668776,-0.017279180185865967,0.0046026464274788416,0.9886732084064866
2017-01-23,1,0.0016414619489662414,0.0019377493612707437,-0.017279180185865967,0.00647721106393534,0.98833535344805
2017-01-25,1,0.0006180651929334689,0.0007110653482166563,-0.017279180185865967,0.006967160893419509,0.9873736016153629
2017-01-27,-1,-0.0005293301814777537,-0.0004433265745250694,-0.013511957103940698,0.006967160893419509,0.9883826332528214
2017-01-31,-1,-0.0015278870605454254,-0.0012638168406875687,-0.013841978855699818,0.006967160893419509,0.9878832531084206
2017-02-02,-1,-0.002038958808848738,-0.0016854385305591908,-0.015144971221790694,0.005294451956663502,0.9880196747350943
2017-02-06,-1,-0.003384929469363282,-0.002815052589444189,-0.015144971221790694,0.0044319283425191865,0.9876547366262116
2017-02-08,-1,-0.004791493672661811,-0.004014451686565081,-0.015144971221790694,0.005865855997227432,0.9867780334198297
2017-02-10,-1,-0.004844235805400002,-0.004030016667938604,-0.018662676525955386,0.005623538078451136,0.9868059640963535
2017-02-14,-1,-0.004511116224249066,-0.003784840945755286,-0.018662676525955386,0.008044991070803975,0.984844244648446
2017-02-16,-1,-0.005234447215971876,-0.0044052959278903835,-0.01553840230660275,0.008044991070803975,0.9854864931734773
2017-02-21,-1,-0.004472661306600864,-0.003725742172901131,-0.01553840230660275,0.0039268562864093895,0.9866745802708252
2017-02-23,-1,-0.0020150494558121073,-0.0017606658520909388,-0.014930492084278709,0.002404325911291203,0.98751359181438
2017-02-27,-1,-0.001564933758723609,-0.0013927785816619282,-0.014930492084278709,0.0011055730998340684,0.9870825443988474
2017-03-01,-1,-0.0023253402381849296,-0.0020503955201042483,-0.013308512056318942,0.003402446371869561,0.9843654686599942
2017-03-03,-1,-0.0030311445377283882,-0.00265576370379362,-0.01568659082094817,0.0025723153598867744,0.9840637224172074
2017-03-07,-1,-0.0040092755094588445,-0.0035091939533073006,-0.01568659082094817,0.00851547962697282,0.9838938225788907
2017-03-09,-1,-0.004410643003641649,-0.0038488517751028876,-0.013701429724438738,0.009418101050590556,0.9846567118254089
2017-03-13,-1,-0.0053293195199741634,-0.004636969302886713,-0.012990987114896628,0.016152655293286113,0.9840944533619217
2017-03-15,-1,-0.0033124192425511944,-0.0029132820754388515,-0.011806165418500998,0.016152655293286113,0.9845432559743493
2017-03-17,-1,-0.00423398150208776,-0.0037382908236696117,-0.013701429724438738,0.016152655293286113,0.9842961389006223
2017-03-21,-1,-0.00528053650434837,-0.004600475267629326,-0.01614336608802562,0.016152655293286113,0.9829329219333723
2017-03-23,-1,-0.006046245237542011,-0.005275371041640114,-0.01568659082094817,0.016152655293286113,0.9825596763343335
2017-03-27,-1,-0.0072433615303375,-0.006255237001345482,-0.01568659082094817,0.020876096885284978,0.9807813108884422
2017-03-29,-1,-0.0036095254947116073,-0.003048341717087527,-0.01568659082094817,0.015169911415393054,0.9841753640141742
2017-03-31,-1,-0.006179981673161709,-0.005275155484143779,-0.017881511828252473,0.015169911415393054,0.9836920035699729
2017-04-04,-1,-0.0055077421877397555,-0.004738123846020086,-0.017881511828252473,0.011189504959164223,0.9848546958057892
2017-04-06,-1,-0.004365077676725252,-0.0037962069864610915,-0.019020372470608518,0.011189504959164223,0.9837183060097082
2017-04-10,-1,-0.003341921370979769,-0.002854210242128297,-0.019020372470608518,0.011189504959164223,0.9842891931653488
2017-04-12,-1,-0.002454035073609395,-0.0021502732799095854,-0.019020372470608518,0.011189504959164223,0.9837611308320465
2017-04-17,-1,-0.0031271754282111847,-0.0027350569941972337,-0.017881511828252473,0.011189504959164223,0.9841796317736518
2017-04-19,-1,-0.004082463149294205,-0.0036513957158509592,-0.01716438131770016,0.011189504959164223,0.9849811938158809
2017-04-21,-1,-0.0033411208114385044,-0.0029927281747683,-0.01716438131770016,0.018555445284287077,0.9846814981399584
2017-04-25,-1,-0.003941771581782855,-0.0034021111217733633,-0.01716438131770016,0.011022511173388205,0.9854326619079763
2017-04-27,-1,-0.0011461004425991693,-0.0010626949069825298,-0.017881511828252473,0.0073487118771084796,0.9848157810248327
2017-05-01,-1,-0.0018217240525388798,-0.0017427135122849201,-0.017438476393799723,0.007518359952017157,0.9846415548199773
2017-05-03,-1,-0.0014332191166902411,-0.0013913355134192364,-0.01678858229435872,0.010691235595644936,0.9839873906482483
2017-05-05,0,-0.00013890187492003635,0.00012091232314747475,-0.01678858229435872,0.008085278789260462,0.9856166071365245
2017-05-09,1,0.0006670863690383616,0.0011294838633476342,-0.017438476393799723,0.008085278789260462,0.9842696069992891
2017-05-11,1,0.0013082324686897221,0.001783043187275907,-0.018854546023366545,0.007301946962790847,0.9823245314758488
2017-05-15,1,0.0017163184081871777,0.0022880455940983216,-0.018854546023366545,0.010041996627966007,0.9815619497042353
2017-05-17,1,0.0007781340985029053,0.0012116598158004078,-0.027924364101405655,0.010041996627966007,0.9800741476315857
2017-05-19,1,0.0019304691708411598,0.0025352844458001013,-0.027924364101405655,0.007301946962790847,0.980497130408064
2017-05-23,1,0.0023637475622554673,0.00302900913655032,-0.030596121829912473,0.007301946962790847,0.9775606794123329
2017-05-25,1,0.0010794636786851644,0.0015497578608082993,-0.02956475372199169,0.011272812901712255,0.9785614560564669
2017-05-30,1,0.0006834439096210264,0.0011143159315501379,-0.027924364101405655,0.011272812901712255,0.9799130557220647
2017-06-01,1,0.0010916851498696013,0.0015737534965694936,-0.027924364101405655,0.017374992743044392,0.9797513893124445
2017-06-05,1,0.0008385931488956403,0.0013013191775584317,-0.027924364101405655,0.018558426190409934,0.9784804321892102
2017-06-07,-1,-0.00036481351248534005,-0.0001139358718032172,-0.027924364101405655,0.018111092702948858,0.9785614211672093
2017-06-09,1,0.0009521097596825272,0.0013807592098230752,-0.025082919139385814,0.017374992743044392,0.9803258455029167
2017-06-13,1,0.0010288791395393375,0.0014214239576588945,-0.025082919139385814,0.01636571005580909,0.9810429876713799
2017-06-15,-1,-0.0011614044131247575,-0.0010609548703454188,-0.012950081899533655,0.01636571005580909,0.9827688901447367
2017-06-19,-1,-0.0015999776068593822,-0.0015734389815239723,-0.009368343505189482,0.01636571005580909,0.982964649576723
2017-06-21,-1,-0.00393879236254715,-0.00365471509724297,-0.006071501423052856,0.017374992743044392,0.9825996874688633
2017-06-23,-1,-0.00278449414279288,-0.002632406815902123,-0.009368343505189482,0.01637536108725537,0.9830260132643904
2017-06-27,-1,-0.002736631984332249,-0.0025937752094336106,-0.012515882755134608,0.018111092702948858,0.980134663013459
2017-06-29,-1,-0.0013159583269343504,-0.0013141900159833804,-0.012515882755134608,0.016685582582429487,0.9807413151714031
2017-07-03,1,0.00024195065161925703,0.00040863541101871816,-0.01499644831797712,0.015110151185277646,0.981982435960863
2017-07-06,-1,-0.0016712811367729469,-0.0016177751909566191,-0.014534047288650738,0.015570515541354538,0.9827387585627402
2017-07-10,-1,-0.0014956660223565898,-0.001457198628590448,-0.014534047288650738,0.016223598619904613,0.9817987482286711
2017-07-12,-1,-0.0013917268424287713,-0.0013452774723629935,-0.014534047288650738,0.016223598619904613,0.9822727302584618
2017-07-14,0,-2.5030979407469184e-05,0.00016702689349638378,-0.015465959606420516,0.016223598619904613,0.9819310476440225
2017-07-18,-1,-0.0005064189536234867,-0.0003697182396443529,-0.018244541201011624,0.016223598619904613,0.9815624761088633
2017-07-20,1,0.00017755369718584974,0.00041589414326791444,-0.020189768845490584,0.012653272858297343,0.9813482900266908
2017-07-24,1,0.00022933731281360545,0.0004430705602559828,-0.020189768845490584,0.005893084122932676,0.9821622541806363
2017-07-26,-1,-0.0005565631570025229,-0.00047190591843224145,-0.018244541201011624,0.006624804972647646,0.9848002513649562
2017-07-28,1,0.00036597946355307055,0.0005171133594669167,-0.018244541201011624,0.003723893159604462,0.9853595830302039
2017-08-01,-1,-0.0013376975009004124,-0.0012571639053361888,-0.015465959606420516,0.003723893159604462,0.98715475928171
2017-08-03,-1,-0.0014802423736783553,-0.0013495415686131675,-0.01197311017115979,0.004190622386480804,0.9879224376525162
2017-08-07,-1,-0.0009506906383757519,-0.0009444247323394033,-0.010138365701294621,0.005658707523244584,0.9891614369791747
2017-08-09,-1,-0.0019098759691400223,-0.001748351958544214,-0.010138365701294621,0.008958365360963096,0.9880001734115873
2017-08-11,-1,-0.0029655101759369527,-0.002666313635298328,-0.009793453117253954,0.012519869446745071,0.9868499404550389
2017-08-15,-1,-0.0037591317374465697,-0.0033232216155867945,-0.006236824891254496,0.013576672014525825,0.9861137239994937
2017-08-17,-1,-0.006376752593582628,-0.005620029823004716,-0.002529799491587368,0.013576672014525825,0.9867719036827468
2017-08-21,-1,-0.003964435642967055,-0.003676975419121863,0.0016628422715891744,0.013576672014525825,0.9875001894899647
2017-08-23,-1,-0.00406725448757488,-0.0036858617535224,0.0016628422715891744,0.014469754503046793,0.9873675140294145
2017-08-25,-1,-0.00432108945890148,-0.003909955321479727,0.0036458417572908064,0.016376744525644766,0.9848090027306723
2017-08-29,-1,-0.004054757905219113,-0.003698038517406089,0.005606907083157595,0.016376744525644766,0.9837349763971666
2017-08-31,-1,-0.0021370556042579697,-0.0020873697315684074,0.004557117836895213,0.016376744525644766,0.9856504886295158
2017-09-05,-1,-0.000868282860174233,-0.0007439817837640815,0.0016628422715891744,0.016376744525644766,0.9869434993748399
2017-09-07,1,1.08137194700683e-05,0.00021433224778594608,-0.003550517926822593,0.014074090601706309,0.9882297023699051
2017-09-11,-1,-0.0012676176030668393,-0.0011970312992465079,-0.00650351667563007,0.012510504242358469,0.9885386073890683
2017-09-13,1,0.00014852548425105152,0.0002957335315187413,-0.00650351667563007,0.007393517717437294,0.990376819389673
2017-09-15,1,0.000846105885755541,0.001151312066502485,-0.00650351667563007,0.008986565668891784,0.9897710556811219
2017-09-19,1,0.0019256162383163617,0.0024424317596752235,-0.00650351667563007,0.014309844221145925,0.989204280927601
2017-09-21,1,0.001897495932501545,0.0023195048666162063,-0.008743915411233134,0.008986565668891784,0.988791085978287
2017-09-25,1,0.003515519071667509,0.0041031659643874,-0.008743915411233134,0.004960106030331761,0.9906688902608826
2017-09-27,1,0.004655726130365261,0.005441246650018546,-0.012837357698538318,0.001337867271778489,0.9867877278833868
2017-09-29,1,0.0045500464592678515,0.00532471312998245,-0.014190509383405794,0.001337867271778489,0.9839063584214077
2017-10-03,1,0.004486778490945602,0.005349253146197141,-0.011527592908386829,0.004378916843869524,0.9852984869679998
2017-10-05,1,0.004419999025268994,0.005278151955614509,-0.008842299987901201,0.0033770425323587285,0.98581094176124
2017-10-09,1,0.0028297750143254103,0.0034008794231244746,-0.002201814749866599,0.013057428495215661,0.9844843323325185
2017-10-11,1,0.0034588097358676387,0.004171957583142695,-0.008823267880374921,0.013057428495215661,0.983180012135962
2017-10-13,1,0.004332503536853852,0.005193221708414706,-0.011096514894368298,0.010031632747639782,0.9829933057102671
2017-10-17,1,0.004511256692602614,0.0053138731052269905,-0.017943420508764872,0.005387539901119392,0.9813380671066627
