JNU-Tangyin/eata/results/Batch4_SP500/Batch4_SP500-CAH.csv
Date,Action,Predicted_Q25,Predicted_Q75,Actual_Q25,Actual_Q75,RL_Reward
2010-12-14,0,0.0,0.002855853314446725,-0.00469518290844468,0.011527304577598629,0.9925732932644913
2010-12-16,1,0.005533984740585314,0.006240736551453968,-0.0044225660962612864,0.010780800653184262,0.9921439911878817
2010-12-20,1,0.00523245080571004,0.005810376753180453,-0.004485871376946955,0.010780800653184262,0.991748475615643
2010-12-22,1,0.006059834821683597,0.006786195475258156,-0.004975737081420668,0.011527304577598629,0.9905502358666841
2010-12-27,1,0.005907691700879329,0.006650484518443367,-0.004975737081420668,0.011527304577598629,0.9909500141684271
2010-12-29,1,0.005135693457357333,0.005737905648222616,-0.004191999527695458,0.012152717229885576,0.99139722117897
2010-12-31,1,0.004242565587572381,0.004673223461570516,-0.004758828290485725,0.012152717229885576,0.9904838705055371
2011-01-04,1,0.003627647577271643,0.0038921218460537393,-0.004443131571119627,0.011527304577598629,0.9905504046101723
2011-01-06,1,0.003682934946347766,0.0038855926493394557,-0.006975156033783857,0.011591611491279548,0.9898799804275618
2011-01-10,1,0.003656788119240635,0.003888845820291223,-0.004443131571119627,0.011121446563193173,0.9904848258274087
2011-01-12,1,0.004182195126057053,0.00444256633089785,-0.005333698295927319,0.010628281715169142,0.9904047397988291
2011-01-14,1,0.0033749913646221297,0.003422854019875396,-0.005333698295927319,0.010628281715169142,0.9904434866215419
2011-01-19,0,0.0,0.0,-0.004702580233906916,0.009866749101071139,0.9916863723943985
2011-01-21,0,0.0,0.0,-0.004040712860801353,0.008773830021136263,0.9927080703052144
2011-01-25,0,0.0,0.0,-0.005333698295927319,0.008773830021136263,0.9911328006864603
2011-01-27,0,0.0,0.0,-0.005333698295927319,0.008773830021136263,0.9909570567274065
2011-01-31,1,0.001953037596854973,0.001965871408488976,-0.005333698295927319,0.008670718572605362,0.9914356922025239
2011-02-02,1,0.0019225936759212597,0.001938645858802636,-0.005174115275649064,0.008670718572605362,0.9899665896066764
2011-02-04,1,0.0020389937582054422,0.0020598185665793465,-0.005790720224740777,0.007139447090076755,0.9899943974169276
2011-02-08,0,0.0,0.0,-0.005790720224740777,0.007139447090076755,0.9903310502832875
2011-02-10,0,0.0,0.0,-0.008706264145821204,0.007139447090076755,0.9887514767112487
2011-02-14,0,0.0,0.0,-0.009555222533877835,0.004627879534688635,0.9889973760716896
2011-02-16,0,0.0,0.0,-0.013128987534928204,0.00596097288727921,0.9870369645916116
2011-02-18,0,0.0,0.0,-0.013128987534928204,0.006591218092868529,0.9867432765479272
2011-02-23,0,0.0,0.0,-0.009555222533877835,0.006591218092868529,0.9877503965128324
2011-02-25,0,0.0,0.0,-0.009555222533877835,0.00968865211540441,0.9872417704623733
2011-03-01,1,0.00048229335611052655,0.0007109437382513314,-0.009555222533877835,0.007069955434308554,0.9878062407719654
2011-03-03,1,0.0009909985155721784,0.001166648191617147,-0.010860263779095006,0.004781956937791968,0.9894226840720929
2011-03-07,1,0.0008727841698329364,0.0010716617843627514,-0.008803218120782885,0.007069955434308554,0.9890807671773579
2011-03-09,0,0.0,0.0,-0.008803218120782885,0.009231298543933841,0.9888134767903318
2011-03-11,0,0.0,0.0,-0.00472568557988877,0.009231298543933841,0.99077297722399
2011-03-15,0,0.0,0.0,-0.004744983739059216,0.009231298543933841,0.9902590639177521
2011-03-17,0,0.0,0.0,-0.004744983739059216,0.0055024046410003975,0.9918558524358619
2011-03-21,0,0.0,0.0,-0.004744983739059216,0.007276727008023677,0.9918875483355449
2011-03-23,0,0.0,0.0,-0.003850605027540241,0.010133766547155688,0.9912538585469076
2011-03-25,1,0.0010838761943420647,0.0011757637136964245,-0.003850605027540241,0.008016732902307503,0.99221320656319
2011-03-29,1,0.0012929713068076136,0.0013589361559897786,-0.003850605027540241,0.008488066644661882,0.9911108892568752
2011-03-31,1,0.0010928164189172192,0.0011821590856961372,-0.003850605027540241,0.008488066644661882,0.9908811112274096
2011-04-04,1,0.0015409152846827144,0.0015804052969066705,-0.003188255485144348,0.008488066644661882,0.9915540037523404
2011-04-06,1,0.0012229757912559948,0.0013112452689110997,-0.0018896800872122879,0.00823302758866744,0.992174020209117
2011-04-08,-1,-0.0007684833559935586,-0.00043762298429801574,-0.0018896800872122879,0.009942989289966217,0.9910580767827749
2011-04-12,-1,-0.002087944753930135,-0.00157861632775188,-0.001415377424114724,0.009942989289966217,0.9910217804033752
2011-04-14,0,0.0,0.0,-0.00016882258312138248,0.009942989289966217,0.9918058919802885
2011-04-18,0,0.0,0.0,-0.001415377424114724,0.011872630497448182,0.9918239170840304
2011-04-20,0,0.0,0.0,-0.002112136572147837,0.009093932591375286,0.9922608443176675
2011-04-25,0,0.0,0.0,-0.00659925059842095,0.008876241324494761,0.9918612180491257
2011-04-27,0,0.0,0.0,-0.00659925059842095,0.006684263417527933,0.9925798020581176
2011-04-29,0,0.0,0.0,-0.0042622365250985905,0.007117498623567371,0.9931381977007018
2011-05-03,0,0.0,0.0,-0.00659925059842095,0.006671553611002976,0.9929965821185673
2011-05-05,0,0.0,0.0,-0.0074962176437036315,0.006671553611002976,0.9926301931974324
2011-05-09,0,0.0,0.0,-0.0074962176437036315,0.0028236077623863673,0.9933361329801151
2011-05-11,0,0.0,0.0,-0.00659925059842095,0.006671553611002976,0.9933400139630018
2011-05-13,0,0.0,0.0,-0.00659925059842095,0.007117498623567371,0.9920591681940175
2011-05-17,0,0.0,0.0,-0.007348925041354578,0.006671553611002976,0.9921364170209066
2011-05-19,0,0.0,0.0,-0.007348925041354578,0.006671553611002976,0.9926855447971278
2011-05-23,0,0.0,0.0,-0.0023161606972952067,0.0076783341934683925,0.9922552515739044
2011-05-25,0,0.0,0.0,-0.005249259344149804,0.007640204773893518,0.9920959893398424
2011-05-27,0,0.0,0.0,-0.0071264270603911585,0.006434408843181941,0.9920450780799128
2011-06-01,1,0.0012800667079964458,0.001291316093479907,-0.005119026453995726,0.009350865671153407,0.9916392068692901
2011-06-03,1,0.0008364838085437723,0.0008889739186329977,-0.0030168411952097543,0.009862898306863937,0.9910009521599971
2011-06-07,1,0.0010453855695164859,0.0010631641153941006,-0.0030168411952097543,0.009862898306863937,0.9908082693865449
2011-06-09,1,0.0014281682868617434,0.0015109670103812941,-0.005119026453995726,0.009350865671153407,0.9909536989090333
2011-06-13,1,0.0010140247318879518,0.0010437927282473843,-0.005119026453995726,0.010092097750606353,0.9913170516025398
2011-06-15,1,0.0011954701727471349,0.0012731350119759965,-0.004501682412598381,0.010092097750606353,0.9916088222914815
2011-06-17,1,0.0012767857366458401,0.0013579547152731588,-0.0051441620460450435,0.009675832051538377,0.991504321817313
2011-06-21,1,0.002375354898041487,0.0026340965673818063,-0.006496935032960447,0.004482295395753658,0.9921339764680579
2011-06-23,1,0.0019795544489106575,0.0021552553000728893,-0.004977742333619499,0.00793701329083623,0.9928379569026466
2011-06-27,1,0.0012286510000590746,0.0012889854111162117,-0.006776506249408115,0.00793701329083623,0.9916665273921699
2011-06-29,1,0.0013974378831059881,0.0015190272896338257,-0.009164941547217479,0.004482295395753658,0.9914381416462947
2011-07-01,1,0.0020385373514645463,0.00222429296618143,-0.01276679455686127,0.002506054616016722,0.991118140176497
2011-07-06,1,0.0018764314207623887,0.002039000300654929,-0.014328705229875428,0.0021709936993968898,0.9905854954518488
2011-07-08,1,0.0024542049316330504,0.002600385850084912,-0.015202972121259688,0.0021709936993968898,0.9881770480288213
2011-07-12,1,0.002209842200196305,0.0022766056374146555,-0.01540612082531515,0.0021709936993968898,0.9847583372834184
2011-07-14,1,0.002212520731586019,0.0023053205198657585,-0.01782333457492925,0.0021709936993968898,0.9810290544365797
2011-07-18,1,0.000827900446624542,0.0010101295914331275,-0.01782333457492925,0.008281465624379463,0.9810422897529176
2011-07-20,1,0.001018224506004663,0.00113218828433558,-0.01782333457492925,0.009636588895961664,0.9807995547436361
2011-07-22,1,0.0010404113670945004,0.0011387608982264875,-0.021395307947670736,0.008281465624379463,0.9789318902311648
2011-07-26,1,0.0008389515371637861,0.0008929725975615648,-0.021395307947670736,0.009636588895961664,0.9788918438552542
2011-07-28,-1,-0.0007446551552322099,-0.00044974189684055866,-0.019324925951678572,0.009636588895961664,0.9796127692804226
2011-08-01,-1,-0.0010021458629652959,-0.0007132614808397945,-0.01579558865972596,0.018429691671672785,0.9788741251494206
2011-08-03,-1,-0.0022400766190794597,-0.0017589322515600741,-0.01126852258595562,0.018429691671672785,0.9791639685824968
2011-08-05,-1,-0.003715880701170135,-0.0030572306468283007,-0.011256896880167601,0.018429691671672785,0.9801866790554475
2011-08-09,-1,-0.0027731901142081976,-0.002237503776063943,-0.007878093404545964,0.018429691671672785,0.983256360406094
2011-08-11,-1,-0.0023438536933024466,-0.0018899924211196546,-0.011256896880167601,0.011697804170893616,0.9847647067032667
2011-08-15,-1,-0.0022880372451544954,-0.0018472251152122899,-0.011256896880167601,0.01226599446467399,0.9849586265749906
2011-08-17,-1,-0.001551138126595656,-0.0012450148026853796,-0.011256896880167601,0.019934252985500677,0.9841739664816185
2011-08-19,-1,-0.0029061906306386805,-0.0024605844488982146,-0.006548851857221854,0.02035990143622276,0.9839836516623668
2011-08-23,-1,-0.0020512045009387645,-0.0016783311991215466,-0.010210830418827501,0.019934252985500677,0.9833134692615731
2011-08-25,-1,-0.002841121075388323,-0.00241836688018426,-0.010210830418827501,0.019934252985500677,0.9830648818211065
2011-08-29,-1,-0.0011181945391984275,-0.0009021252035486842,-0.010210830418827501,0.01832568249159735,0.9826120856969497
2011-08-31,-1,-0.0009263726777113724,-0.0007214874619225727,-0.019025444745631153,0.01832568249159735,0.9821683327515407
2011-09-02,-1,-0.0026542039242642562,-0.002200290565915676,-0.021403987270555026,0.01832568249159735,0.9800180076945496
2011-09-07,-1,-0.0021499727536766263,-0.001748634734674113,-0.021403987270555026,0.016736716518308964,0.9809704005089471
2011-09-09,-1,-0.0036073341841050648,-0.0030649859194475894,-0.014048598571696335,0.016736716518308964,0.9824769193872648
2011-09-13,-1,-0.002202364156453436,-0.0018845261761329586,-0.014048598571696335,0.016736716518308964,0.9825503191256933
2011-09-15,-1,-0.0016314590406073506,-0.001396613378095347,-0.014048598571696335,0.010640773592508812,0.9833612693925716
2011-09-19,1,0.00042167913418543923,0.0004887565463926258,-0.019054720627538196,0.00997825677025292,0.9841147980631021
2011-09-21,-1,-0.0005807489033012813,-0.0005074216457983895,-0.01328802037637974,0.00997825677025292,0.9853316790595971
2011-09-23,-1,-0.0003060310142183243,-0.0002970681411281754,-0.004175701395127367,0.014390833020230226,0.9843393002183052
2011-09-27,1,0.0009431179059787682,0.0010974708040999718,-0.01328802037637974,0.007434662713917626,0.9861356100097504
2011-09-29,1,0.00012832991096351125,0.0002136459737637947,-0.004175701395127367,0.014410469422186205,0.9850201439983224
2011-10-03,-1,-0.0029871012703546855,-0.0026880574202643123,-0.000242906420719082,0.014410469422186205,0.9852678693068124
2011-10-05,-1,-0.001251171388214155,-0.001127881084176958,-0.004175701395127367,0.01593621271175367,0.9849368641763344
2011-10-07,-1,-0.0011543768789239713,-0.001067026639436937,-0.004095731896081402,0.01593621271175367,0.9848312936896773
2011-10-11,-1,-0.0001985554226667625,-0.0001605063379712064,-0.003164540445798225,0.014236897294496823,0.9860434114326835
2011-10-13,1,0.00010247894004865118,0.00015570067371846688,-0.01304811187924184,0.014236897294496823,0.9847405228736794
2011-10-17,-1,-0.00017730914446728577,-0.0001345579617560632,-0.01159192972917856,0.01593621271175367,0.9836826987340129
2011-10-19,1,0.0005567427283856734,0.0007057707417408815,-0.01514093934917455,0.012950686392320929,0.983357684092375
2011-10-21,1,0.0013907497314208884,0.001606261651639853,-0.017327337435636227,0.01036300048301046,0.9839753169477002
2011-10-25,1,0.0003648810404741765,0.0004450220158778147,-0.01791976101538902,0.01036300048301046,0.9836222278026436
2011-10-27,1,0.0020617725198111125,0.002360123140775399,-0.01791976101538902,0.008264390402349695,0.9842486889515544
2011-10-31,1,0.000818120621526231,0.0009813152201381783,-0.015981289119757713,0.008264390402349695,0.9839642915138931
2011-11-02,1,0.0004360328361269711,0.0005318874000642825,-0.014127626128189841,0.008264390402349695,0.9841035342483879
2011-11-04,1,0.00023552033372432036,0.0002941061707259847,-0.015981289119757713,0.007570854158700034,0.9835794626375687
2011-11-08,1,0.0007425549439061464,0.0008815576845109666,-0.015981289119757713,0.007570854158700034,0.9829816939712256
2011-11-10,1,0.0005982589061472208,0.0007649713547743103,-0.014127626128189841,0.009554365693649482,0.9834809285358846
2011-11-14,1,0.0009497727739354101,0.0011426279805974192,-0.015981289119757713,0.002339617544824532,0.9846941689057449
2011-11-16,-1,-0.00022421025431201784,-0.0002092505724062548,-0.014127626128189841,0.008693816831875485,0.985738027096463
2011-11-18,-1,-0.00025582698594375656,-0.00019934919610586351,-0.013945362501054524,0.008693816831875485,0.986103568539178
2011-11-22,-1,-0.00011313896542649373,-2.1691654902284265e-05,-0.01275507765724092,0.011353546642589304,0.9868240914684842
2011-11-25,0,0.0,0.0,-0.010891648317744826,0.011353546642589304,0.9874353859050131
2011-11-29,0,0.0,0.0,-0.010891648317744826,0.007385963872104873,0.9888640245135591
2011-12-01,0,0.0,0.0,-0.010891648317744826,0.007385963872104873,0.9900900580713308
2011-12-05,0,0.0,0.0,-0.007442445089385635,0.011353546642589304,0.9902936290315527
2011-12-07,0,0.0,0.0,-0.00784093735397657,0.011353546642589304,0.9901014425350214
2011-12-09,1,0.0013666898619969128,0.0015615391007076037,-0.007386076974799736,0.007385963872104873,0.9906655185411908
2011-12-13,1,0.0005085741976182457,0.0006833572541749645,-0.006883042480680345,0.00782276551009489,0.9914847810797963
2011-12-15,1,0.00019233911920050098,0.00027981969481109256,-0.006883042480680345,0.008080785839945792,0.9911406241040545
2011-12-19,0,0.0,0.0,-0.005177678443677463,0.012127607632142006,0.9907999946711029
2011-12-21,0,0.0,0.0,-0.006883042480680345,0.010478839797615522,0.990807454291731
2011-12-23,0,0.0,0.0,-0.006883042480680345,0.010478839797615522,0.990748365094488
2011-12-28,0,0.0,0.0,-0.0043661516078633425,0.010478839797615522,0.9915265090179611
2011-12-30,0,0.0,0.0,-0.0043661516078633425,0.009972012827041781,0.9914764587776188
2012-01-04,0,0.0,0.0,-0.004498982362726987,0.007533328398746926,0.9918230254035114
2012-01-06,0,0.0,0.0,-0.004506256763867841,0.006289038446714807,0.992484845043096
2012-01-10,0,0.0,0.0,-0.00368524232117069,0.007533328398746926,0.9922203480339712
2012-01-12,0,0.0,0.0,-0.0059368360419341445,0.0070883897659380505,0.9920337604797432
2012-01-17,-1,-0.0006715418795495053,-0.0006557047060832145,-0.0059368360419341445,0.0070883897659380505,0.9923544408274629
2012-01-19,0,0.0,0.0,-0.0062880875100417176,0.005657105501949592,0.9925260415954338
2012-01-23,0,0.0,0.0,-0.006133611366784818,0.005657105501949592,0.9927551864596628
2012-01-25,0,0.0,0.0,-0.006133611366784818,0.006412768496475735,0.9923878508629843
2012-01-27,0,0.0,0.0,-0.006133611366784818,0.007945149018654837,0.9918299911963763
2012-01-31,1,0.00046115853830307175,0.0007399607891002437,-0.0068530116553969,0.006648187107969167,0.9916888970900365
2012-02-02,-1,-0.0010343328974320837,-0.0007881034789015319,-0.0068530116553969,0.006648187107969167,0.99231160548922
2012-02-06,0,0.0,0.0,-0.0068530116553969,0.007675565037573002,0.9920449157491962
2012-02-08,0,0.0,0.0,-0.007600870377392202,0.007675565037573002,0.991624106074313
2012-02-10,0,0.0,0.0,-0.007600870377392202,0.009561086313651499,0.9913245045225905
2012-02-14,1,0.12205639945524728,0.1455070260954186,-0.007137441947621505,0.007675565037573002,0.8815819382842138
2012-02-16,0,0.0,0.0,-0.006336398009923752,0.007094854866974774,0.9926579111400097
2012-02-21,0,0.0,0.0,-0.008504606327846763,0.007094854866974774,0.9923327009955534
2012-02-23,0,0.0,0.0,-0.008504606327846763,0.007094854866974774,0.9922919806839231
2012-02-27,-1,-0.0008297159565325164,-0.0006525170770833697,-0.008504606327846763,0.009576054803026948,0.9910670283157628
2012-02-29,-1,-0.0007432088173618299,-0.000643086918191466,-0.008504606327846763,0.009576054803026948,0.9915207034372937
2012-03-02,-1,-0.001157619483494271,-0.0010210546475132307,-0.006775304445405256,0.009576054803026948,0.9918301890016361
2012-03-06,0,0.0,0.0,-0.008504606327846763,0.0059597708001045205,0.99149851927636
2012-03-08,0,0.0,0.0,-0.008743186778258204,0.003890716140428786,0.9918586150921801
2012-03-12,-1,-0.0004620154854577564,-0.00037905931949509147,-0.008743186778258204,0.0032928780663567937,0.9920119409772521
2012-03-14,-1,-0.0002365743507490497,-0.0002077962464390279,-0.008743186778258204,0.003890716140428786,0.9919194444346672
2012-03-16,1,0.00031758028007588076,0.0004161059248966589,-0.009239744795765666,0.003890716140428786,0.9913065115325334
2012-03-20,0,0.0,0.0,-0.009910831243549148,0.004792114799563789,0.9901673743742392
2012-03-22,0,0.0,0.0,-0.009910831243549148,0.004792114799563789,0.990565662219521
2012-03-26,1,0.001454976199412808,0.001703126971093362,-0.009910831243549148,0.0018727144168688254,0.9918763833116108
2012-03-28,1,0.0011035542086962635,0.0014056638142200166,-0.009246253588308972,0.004792114799563789,0.9919417002830465
2012-03-30,1,0.0012565450997452056,0.0015726818501150164,-0.009246253588308972,0.006742614423135769,0.9915800542604895
2012-04-03,1,0.0009127005984604616,0.001196794420376963,-0.0036737225805859404,0.006742614423135769,0.9925458032016742
2012-04-05,1,0.00036663648334849257,0.0005678409374558276,-0.0036737225805859404,0.0076503015964693765,0.9916363288487471
2012-04-10,1,0.00021904264012008012,0.0004359406358689441,-0.0016115817603313224,0.0076503015964693765,0.992257643351549
2012-04-12,0,-1.790186308722768e-05,0.00010591699898609801,-0.0036737225805859404,0.0076503015964693765,0.9916098474437051
2012-04-16,-1,-0.0009734091557161676,-0.0009351465159560613,-0.0016115817603313224,0.0076503015964693765,0.9916241175093419
2012-04-18,-1,-0.0015200069592404416,-0.0013778742038982074,-0.002856111678904875,0.006568214534768555,0.9928161541506478
2012-04-20,-1,-0.0011852290138032065,-0.0010745167628226843,-0.005997231203047455,0.006027509548580056,0.9922463547579611
2012-04-24,-1,-0.0011651869734618787,-0.0010674698193080194,-0.0050522817075058304,0.006568214534768555,0.9919104280136475
2012-04-26,1,1.4900447550920514e-05,0.00011022228182165145,-0.007644137894969416,0.006027509548580056,0.9920146578017469
2012-04-30,-1,-0.00030300587120201875,-0.0002920775427865815,-0.007644137894969416,0.005096657376691958,0.9921850553110952
2012-05-02,1,0.00018670517641793246,0.0002786376440837557,-0.01253346555002864,0.005488408706398674,0.9916230179998882
2012-05-04,0,0.0,0.0,-0.01253346555002864,0.004953273488532134,0.9923010007441495
2012-05-08,0,0.0,0.0,-0.01253346555002864,0.006027509548580056,0.9915348094223698
2012-05-10,0,0.0,0.0,-0.007644137894969416,0.006027509548580056,0.9919528194300266
2012-05-14,0,0.0,0.0,-0.010616618343798288,0.006207849686947436,0.9916958478459723
2012-05-16,0,0.0,0.0,-0.007051432876882351,0.006923724765001478,0.9918078165345116
2012-05-18,0,0.0,0.0,-0.0033093302258277476,0.007985503210818565,0.9922917707421726
2012-05-22,0,0.0,0.0,-0.006001870727697241,0.006923724765001478,0.9923480598027649
2012-05-24,0,0.0,0.0,-0.006950941094888008,0.006024586480101906,0.9922863874171086
2012-05-29,-1,-0.0008067886452496557,-0.0007436188070391481,-0.009898643978454653,0.006024586480101906,0.9911683322131752
2012-05-31,-1,-0.0009964852731198749,-0.000927464312938566,-0.008734132501927186,0.006923724765001478,0.9908368374133308
2012-06-04,-1,-0.001957501317733527,-0.0017790100978349738,-0.006576689419074027,0.009823187856176113,0.9897392989285526
2012-06-06,-1,-0.0007784868670615659,-0.0007579076755803672,-0.0076856749053744455,0.007986097252718469,0.990376093558028
2012-06-08,-1,-0.0004914498972620343,-0.00048178525220598373,-0.008734132501927186,0.010032022634418993,0.989126075893944
2012-06-12,0,-7.235378905812135e-05,4.556982902164254e-05,-0.008064668252863465,0.010032022634418993,0.98962380638801
2012-06-14,-1,-0.00032223081038631053,-0.0002827964978973704,-0.008064668252863465,0.011642896878143627,0.9891870643677203
2012-06-18,1,0.00033455718198203494,0.0004680255665202017,-0.008064668252863465,0.010869761674750743,0.9893973806319873
2012-06-20,1,0.0001184964963308255,0.00023078742292770218,-0.007837134565257352,0.010869761674750743,0.9890649423895526
2012-06-22,-1,-0.00012062422450312947,-2.9483542434074886e-05,-0.008064668252863465,0.010869761674750743,0.9887948387387006
2012-06-26,-1,-0.001209777210838325,-0.001129719935373435,-0.007837134565257352,0.010869761674750743,0.9895338591302183
2012-06-28,-1,-0.0008102027704648169,-0.0007319965712481743,-0.007598235036952429,0.010323908681388307,0.9903627833381826
2012-07-02,1,0.00029144871164845347,0.00039300767597575054,-0.007598235036952429,0.010323908681388307,0.9906867070524946
2012-07-05,1,3.724217978221653e-05,8.017617887583117e-05,-0.00827355739046685,0.00816991000083843,0.9890839069972228
2012-07-09,1,0.0004757626012526884,0.0005695133981242868,-0.00827355739046685,0.006685195437989937,0.9887092379068815
2012-07-11,1,4.9036094644498316e-05,7.914526690612315e-05,-0.008144427893943984,0.00816991000083843,0.9885395378565112
2012-07-13,1,3.1845856565619755e-05,3.517919056280648e-05,-0.007948571531146684,0.00816991000083843,0.9888598624114758
2012-07-17,1,0.0003144294472082085,0.00036848037643488405,-0.007948571531146684,0.006685195437989937,0.9889857598911926
2012-07-19,1,0.0008768286113666645,0.001013138038436227,-0.007948571531146684,0.0018732876339548864,0.9896517816113956
2012-07-23,-1,-2.4035873483982745e-05,-1.9734330904374605e-05,-0.005739805921804125,0.003306441083654345,0.9902760506438054
2012-07-25,-1,-0.0005187172696265933,-0.0004453161479467786,-0.005444731549000264,0.003306441083654345,0.9902207061998933
2012-07-27,-1,-9.644740757267851e-05,-9.178817514975414e-05,-0.005444731549000264,0.0027765712964376026,0.9902346661817917
2012-07-31,1,0.000644754723589233,0.0007526041229116447,-0.005444731549000264,0.001889069665922135,0.9912501257477144
2012-08-02,-1,-0.001411681370846523,-0.0012643711251715847,-0.005082956567165303,0.0027765712964376026,0.9927644216051396
2012-08-06,-1,-0.0030186681242328926,-0.0026776849994127904,-0.005000999479773829,0.003729457420791847,0.9941726455273083
2012-08-08,-1,-0.0022086367647500826,-0.001962202895538613,-0.005082956567165303,0.003729457420791847,0.9942106218978451
2012-08-10,-1,-0.0021679768011872696,-0.0018947069724510011,-0.005444731549000264,0.0022066983740402163,0.9940529934741469
2012-08-14,0,0.0,0.0,-0.0052750846425010526,0.0022066983740402163,0.9937016167968721
2012-08-16,0,0.0,0.0,-0.0052750846425010526,0.003729457420791847,0.993016081591038
2012-08-20,0,0.0,0.0,-0.0052750846425010526,0.003729457420791847,0.9930163248384307
2012-08-22,0,0.0,0.0,-0.005842342664254138,0.004570643741431773,0.9928028936735985
2012-08-24,0,0.0,0.0,-0.005842342664254138,0.005803841968916732,0.9926549535635149
2012-08-28,0,0.0,0.0,-0.004817623037042954,0.005803841968916732,0.9926354270588701
2012-08-30,-1,-0.0026512204280965276,-0.0024009502497969555,-0.004817623037042954,0.005803841968916732,0.9919387909626289
2012-09-04,-1,-0.002060630552595061,-0.0018830020753064732,-0.004817623037042954,0.007167735565566014,0.9913743137859845
2012-09-06,-1,-0.002490960882560521,-0.0022417404866315127,-0.003651529737143536,0.008052832158546613,0.9909470394383961
2012-09-10,-1,-0.003565712291468412,-0.003192611886392444,-0.0033107106176724975,0.008527616813227086,0.9910365788979139
2012-09-12,-1,-0.003578640306370979,-0.0032250100113467876,-4.7943580030157095e-06,0.008527616813227086,0.9907439802519147
2012-09-14,-1,-0.003032865620434198,-0.0027310417233059898,-0.0011661814462576446,0.007669292656014294,0.9917170395532731
2012-09-18,-1,-0.0022042921882988744,-0.002035967317277679,0.0010451196118525083,0.008751644982870357,0.9910916042176184
2012-09-20,-1,-0.0017011008885752432,-0.0016002293738870423,0.0010451196118525083,0.008751644982870357,0.9914793664304894
2012-09-24,-1,-0.0014510926568631287,-0.0013893655045313824,-0.0011661814462576446,0.008751644982870357,0.9912566486853888
2012-09-26,-1,-0.0011903601587210041,-0.001144694988748728,-0.003981605752241201,0.008751644982870357,0.9909076202905776
2012-09-28,-1,-0.0012049260571807413,-0.001184723480451868,-0.003981605752241201,0.007671042096128862,0.9914636833023533
2012-10-02,-1,-0.0010355347368767665,-0.0010005429648044968,-0.003981605752241201,0.007671042096128862,0.991311329702289
2012-10-04,1,5.53668308502644e-05,0.00020025129798450006,-0.00724620295786137,0.005750005430511457,0.991889955205569
2012-10-08,-1,-0.00026267414137538374,-0.00019546047924521556,-0.00724620295786137,0.0051679551525860064,0.9921054688127384
2012-10-10,-1,-0.0008445868397918753,-0.0007909991471652419,-0.010303467542498031,0.0051679551525860064,0.9917939006987438
2012-10-12,-1,-0.000992128111326094,-0.0009868404198053026,-0.010303467542498031,0.0051679551525860064,0.9918215823730007
2012-10-16,1,0.00034778655013110603,0.0004849538437073511,-0.011312214155794566,0.00301505274348811,0.9923641729394643
2012-10-18,0,-5.981552475606332e-05,8.813785834976747e-05,-0.011312214155794566,0.004390448426900383,0.9927368178580182
2012-10-22,0,0.0,0.0,-0.008868430249287601,0.004390448426900383,0.9928001222154648
2012-10-24,0,0.0,0.0,-0.007457547400198529,0.0051679551525860064,0.993051684140618
2012-10-26,0,-4.3446260492943395e-06,5.334988943869097e-05,-0.005444934066699133,0.005539888846568418,0.9932681959845723
2012-11-01,1,0.0008945839641171648,0.0010761329076319195,-0.005444934066699133,0.005539888846568418,0.9935630484623825
2012-11-05,1,0.00023873528424713701,0.0003304691439913518,-0.002882527084589736,0.005539888846568418,0.9944674689482034
2012-11-07,1,0.0005537397806683387,0.0006856588255584211,-0.002882527084589736,0.004442608637422977,0.9946338147258565
2012-11-09,1,0.0002496862508154103,0.00037400722246325234,-0.0024768140580919053,0.008255033393233963,0.9945395137254234
2012-11-13,1,1.9464211838181723e-05,9.098498313947153e-05,-0.0025661029512920076,0.008720178749229302,0.9937260670351387
2012-11-15,-1,-0.00037654991270852784,-0.00037260414550416304,-0.0008029577466988546,0.009258005499886042,0.9937314290723313
2012-11-19,-1,-0.0007741494234991813,-0.0006804381476232613,-0.0008029577466988546,0.009258005499886042,0.9935459033045891
2012-11-21,0,0.0,0.0,-0.0008029577466988546,0.009258005499886042,0.9935511296068918
2012-11-26,0,0.0,0.0,-0.0025661029512920076,0.008894141840617781,0.9937254887267812
2012-11-28,0,0.0,0.0,-0.0026893920416266063,0.008293304862600409,0.9938516273232095
2012-11-30,0,0.0,0.0,-0.0036893425250245234,0.008293304862600409,0.9932455886649644
2012-12-04,0,0.0,0.0,-0.0036893425250245234,0.009780637191877526,0.9926994389841339
2012-12-06,0,0.0,0.0,-0.0036893425250245234,0.010161307657953488,0.9919717771946419
2012-12-10,0,0.0,0.0,-0.0036893425250245234,0.008294047280426455,0.9927697374569494
2012-12-12,0,0.0,0.0,-0.0035216171408233767,0.007900408407761985,0.993261283482749
2012-12-14,0,0.0,0.0,-0.0035216171408233767,0.007305366070282148,0.9932876287595963
2012-12-18,0,0.0,0.0,-0.0035216171408233767,0.007407999585927414,0.9929151338785736
2012-12-20,0,0.0,0.0,-0.0018344410526726026,0.008614500122592086,0.993393985889172
2012-12-24,0,0.0,0.0,-0.0007453883576778536,0.010092193941937277,0.9931220062408472
2012-12-27,1,0.0014431960986715795,0.0016661310096398084,-0.00011778832393527938,0.010092193941937277,0.9938569378130476
2012-12-31,1,0.0004622447512126277,0.00046896293794479373,-0.00011778832393527938,0.008614500122592086,0.9939370494300092
2013-01-03,0,0.0,0.0,-0.0007453883576778536,0.007764445471816714,0.9934398610773135
2013-01-07,0,0.0,0.0,-0.002429495495742267,0.007764445471816714,0.9928425569724764
2013-01-09,0,0.0,0.0,-0.005207949329493205,0.008614500122592086,0.9918999962977724
2013-01-11,0,0.0,0.0,-0.005207949329493205,0.008988733605441456,0.991911996295122
2013-01-15,0,0.0,0.0,-0.005207949329493205,0.008988733605441456,0.9919460731308456
2013-01-17,0,0.0,0.0,-0.005207949329493205,0.01090066112867367,0.9913467211757926
2013-01-22,0,0.0,0.0,-0.006010423458647621,0.009278960160853264,0.9912928743699074
2013-01-24,0,0.0,0.0,-0.006010423458647621,0.007889189966099839,0.9914772526037154
2013-01-28,1,0.0016042982666990748,0.001676103276980393,-0.00686788296275792,0.009128858571928794,0.9911907474649149
2013-01-30,1,0.0015144903506381373,0.001612441582564151,-0.005720089037608502,0.010876173683293617,0.9912446619956496
2013-02-01,1,0.0005626614962823378,0.0006036943919345215,-0.0052519565573345825,0.010876173683293617,0.9916270026824788
2013-02-05,0,0.0,0.0,-0.0052519565573345825,0.009128858571928794,0.9927431632395812
2013-02-07,0,0.0,0.0,-0.005025041025510225,0.008550749519548772,0.9932660659004828
2013-02-11,0,0.0,0.0,-0.005025041025510225,0.008972321159647287,0.9931536065019423
2013-02-13,0,0.0,0.0,-0.005025041025510225,0.008972321159647287,0.9933371816330775
2013-02-15,0,0.0,0.0,-0.006058292250562043,0.005626010109121121,0.9936851355657759
2013-02-20,0,0.0,0.0,-0.006058292250562043,0.005626010109121121,0.990076099542465
2013-02-22,1,0.0006193006308448237,0.0006338415547018389,-0.005137775429828072,0.005626010109121121,0.9904191965326357
2013-02-26,1,0.0006680890801233142,0.0006704010920476969,-0.0049657373472880685,0.0036530169734027658,0.9910846920893361
2013-02-28,1,0.001259886414328872,0.0013729921919237859,-0.005137775429828072,0.0029172654813410656,0.9908645052943378
2013-03-04,1,0.001557908341717182,0.00176571656056787,-0.0049657373472880685,0.003513435076328742,0.9910279159357731
2013-03-06,1,0.0015014836565188398,0.0017014347569249734,-0.0049657373472880685,0.004918572822560804,0.9909435806588034
2013-03-08,1,0.0013578902498909886,0.0015581802644503726,-0.004265260372863324,0.004918572822560804,0.9911575330777228
2013-03-12,1,0.0018890807932864387,0.0021382141159358397,-0.004265260372863324,0.0038492611941114193,0.9915601449787594
2013-03-14,1,0.0024166702612414947,0.0027932800735938216,-0.005040828634503458,0.0038492611941114193,0.9909210709474943
2013-03-18,1,0.0013240924077404326,0.001558446603397166,-0.004265260372863324,0.0038492611941114193,0.9916804295809544
2013-03-20,1,5.991713506217106e-05,0.00010211460442820504,-0.002626851833368739,0.0038492611941114193,0.9950083125359914
2013-03-22,-1,-0.0004582024190881726,-0.00039433609375350964,-0.0019501738386339142,0.005944038171996387,0.9944311694886424
2013-03-26,-1,-0.0004633750036197548,-0.00038501472427132996,-0.0019501738386339142,0.007615665735164879,0.9934499174898731
2013-03-28,-1,-0.0005300943610169521,-0.0004813691608180786,-0.0023681464725915486,0.007615665735164879,0.9936043527368796
2013-04-02,-1,-0.0006836235046052395,-0.0005869641279510605,-0.0023681464725915486,0.007615665735164879,0.9938135812394632
2013-04-04,-1,-9.117049613115117e-05,-7.545010341524534e-05,-0.004194074081128981,0.007819974808235902,0.9917639712493803
2013-04-08,-1,-0.0004416299863946552,-0.0003118529303037618,-0.005322370903863179,0.007564483001026557,0.9914935218819453
2013-04-10,-1,-0.0004974965838636992,-0.000346054867482757,-0.005322370903863179,0.00891926981367309,0.9911339086398895
2013-04-12,-1,-0.0005996289989968717,-0.00040729644959552815,-0.0055727925079603535,0.007564483001026557,0.9913145839035649
2013-04-16,-1,-0.0007389248565640844,-0.0005352414161917203,-0.0045924217411076615,0.007564483001026557,0.9913964591715297
2013-04-18,-1,-0.0015388633910280382,-0.0012350919392620735,-0.003950757693543808,0.00891926981367309,0.9911021618207829
2013-04-22,-1,-0.0009851981595300863,-0.0007438806990016317,-0.003950757693543808,0.009926749319124885,0.9909439333872359
2013-04-24,0,-0.0001313587900024988,1.5971040319200493e-05,-0.0045924217411076615,0.0055423401633283974,0.9918522786093598
2013-04-26,-1,-0.0011609493349564088,-0.0009129218359260926,-0.004818568928031658,0.0055423401633283974,0.9917229476928485
2013-04-30,-1,-0.0010894131072978837,-0.0008457966033826686,-0.004818568928031658,0.005529313663676162,0.9917892947476284
2013-05-02,1,0.0005225472567682773,0.0005820237617930114,-0.005068642784915601,0.005529313663676162,0.99325054567502
2013-05-06,1,0.00018840426485717342,0.0002471017062675814,-0.005068642784915601,0.006104507330136635,0.992896805197327
2013-05-08,1,0.0006874607660138957,0.0007035473661992823,-0.007427932840863761,0.005125650320877091,0.9928689688204851
2013-05-10,1,0.0007910110310278445,0.0008417520190402111,-0.005164245230703725,0.005125650320877091,0.9927159524853024
2013-05-14,1,0.0007818351634477029,0.0008535000635746912,-0.004942622728797023,0.005125650320877091,0.992790278036824
2013-05-16,1,0.0010479526584893678,0.0011334793874917958,-0.004942622728797023,0.005046930483414671,0.9926576204541415
2013-05-20,1,0.0014148341125723761,0.001506560574612696,-0.004942622728797023,0.006507453251619337,0.992772701686585
2013-05-22,1,0.0007004734035316268,0.0007300195992000344,-0.008205116585967233,0.006507453251619337,0.9914653166440826
2013-05-24,1,4.1520568644734675e-05,0.00019659433081471343,-0.008526192027404435,0.006507453251619337,0.9911315508791204
2013-05-29,1,0.00015274104510399115,0.00028777802447075006,-0.008526192027404435,0.009228274182027376,0.9900421207963418
2013-05-31,0,-0.0001107963586293521,3.0834511089416865e-05,-0.008526192027404435,0.006507453251619337,0.9905855838089034
2013-06-04,-1,-0.0005679686502856645,-0.0003784313892616514,-0.008526192027404435,0.008392289377125153,0.9906253433452802
2013-06-06,-1,-0.0005700890730492525,-0.00039819849500732885,-0.005285614565058522,0.008392289377125153,0.9905957592480116
2013-06-10,1,2.9189432606240755e-05,0.00011625765385492206,-0.005285614565058522,0.008392289377125153,0.9910186047048395
2013-06-12,1,0.00042603956660016427,0.0004436466566473556,-0.005285614565058522,0.010057245866025131,0.9898389185818877
2013-06-14,1,0.0009858353336974167,0.0010552933551731295,-0.005285614565058522,0.009057385004151793,0.9907210484920178
2013-06-18,1,0.0016653712567279012,0.0018200413128071022,-0.008612353185659142,0.007094088071105755,0.9908404918908317
2013-06-20,1,0.0006832056274185255,0.0006991514577070887,-0.0017258740303722443,0.008668613271791071,0.9915295247264627
2013-06-24,1,0.0001372643412908352,0.00018701289785325482,-0.0017258740303722443,0.008668613271791071,0.9918349062723747
2013-06-26,1,0.00102213373305061,0.0010652343065278495,-0.004880286929382185,0.007448458961979688,0.9928120361534258
2013-06-28,1,0.0008391207028980582,0.000845868165203141,-0.00445229822719051,0.008668613271791071,0.9917680457573324
2013-07-02,1,0.00013810840869980107,0.00018862077846599308,-0.00445229822719051,0.007854373434099182,0.9921590115347754
2013-07-05,1,0.0009867377743478618,0.0010186943396291298,-0.00445229822719051,0.010492469936616525,0.9917548560102384
2013-07-09,1,0.0012647781885555573,0.001335177564613604,-0.00445229822719051,0.009387626604236782,0.9917931289487001
2013-07-11,1,0.002944730318760421,0.0032806324039061307,-0.005968276118340591,0.00724043518428762,0.9922961986294491
2013-07-15,1,0.0025899646152831974,0.0028452233414997257,-0.005968276118340591,0.00724043518428762,0.992252717498786
2013-07-17,1,0.0021622077978287082,0.0023505882853395725,-0.004316044757947978,0.0076762608279216165,0.9926771389255576
2013-07-19,1,0.002773314993376183,0.0030353675252343566,-0.005968276118340591,0.0025855124801105614,0.9920260868154851
2013-07-23,1,0.0022391897747324474,0.002459293825533216,-0.004316044757947978,0.0025855124801105614,0.9923742953383355
2013-07-25,1,0.002045594800477225,0.002235077069852682,-0.004234680854774754,0.0066309161757042104,0.9921115155203687
2013-07-29,1,0.0024591242631770544,0.0026842555523102886,-0.004094007593550577,0.0066309161757042104,0.9929159457270601
2013-07-31,1,0.0018804735495506573,0.002055169346094609,-0.004094007593550577,0.0066309161757042104,0.9926917726200948
2013-08-02,1,0.002855281023449854,0.0031530591726472925,-0.004094007593550577,0.005489503838964767,0.9930452870151455
2013-08-06,1,0.0031060795564530038,0.0034476227333853065,-0.004094007593550577,0.002027333364930949,0.9930890124785529
2013-08-08,1,0.0026501286344165235,0.002843158899133113,-0.0034017961830050455,0.0018241403536417154,0.9936620310549618
2013-08-12,1,0.0021629495167232293,0.0022260851118775836,-0.0034017961830050455,0.005489503838964767,0.9935235902835521
2013-08-14,1,0.0022847174605233377,0.002349944360173506,-0.0034017961830050455,0.006397290036996189,0.9925985972768936
2013-08-16,1,0.0016911035575656683,0.0017127713074049672,-0.0012432971490170593,0.006397290036996189,0.9935232950449352
2013-08-20,1,0.0008901298939252135,0.0010357144676902553,-0.0012432971490170593,0.006397290036996189,0.9933957041799034
2013-08-22,1,0.0005947231803302066,0.0007622363379114531,-0.000448202119518669,0.00613106273878849,0.9943275432946194
2013-08-26,1,0.0008172271860445895,0.0009450031166371832,-0.0012432971490170593,0.005400761406228868,0.994161581542145
2013-08-28,1,0.0003953668250919187,0.000567535065848352,-0.0012432971490170593,0.005400761406228868,0.9950312385984147
2013-08-30,1,0.0003957311587432865,0.0005652395720679784,-0.0014267245470095645,0.0047911823723611685,0.9950777735717079
2013-09-04,1,0.00029409998403414966,0.00046572970302623945,-0.0014267245470095645,0.00613106273878849,0.9942000440618267
2013-09-06,1,0.00032207088225939145,0.0005073491063097158,-0.0009550957368620592,0.006507581238969705,0.9939415904804794
2013-09-10,1,0.00031963691831565755,0.000532432031970713,-0.0017667038625865479,0.0055899364828877985,0.9940044857584274
2013-09-12,1,0.001705136230697944,0.0017391644851436879,-0.0027537594642213694,0.004616012911838217,0.9935255233557949
2013-09-16,1,0.0020565668174277844,0.002125364186539379,-0.0027537594642213694,0.004243491930202506,0.9934557375120777
2013-09-18,1,0.0014371914023766864,0.0015044584053434391,-0.0027537594642213694,0.004243491930202506,0.9929667436617932
2013-09-20,1,0.0013452555246311593,0.0014310563628245115,-0.0038413347245604187,0.005723097386213862,0.9916078686672118
2013-09-24,1,0.0011085695518951793,0.001131240081724679,-0.004891050613395935,0.005723097386213862,0.9917061058666238
2013-09-26,1,0.00048672510873632834,0.0006000048490762892,-0.004891050613395935,0.005723097386213862,0.9917079149024757
2013-09-30,1,0.0004426951648174237,0.0005291029122090899,-0.004891050613395935,0.007636268007335165,0.9913085668432113
2013-10-02,1,0.0007608823067523916,0.0007829665568855964,-0.0056198560111261585,0.007606801030050683,0.9912539035561206
2013-10-04,1,0.0008285650809279761,0.0008430181603228798,-0.0056198560111261585,0.01258645278233491,0.9878833204159294
2013-10-08,1,0.0009408395589535433,0.000989890089805167,-0.0056198560111261585,0.017917952126673617,0.986339631716637
2013-10-10,1,0.002009189438070726,0.0021297159676064046,-0.0063151401563825045,0.012942437940631109,0.9873177288845824
2013-10-14,1,0.0019214132078366618,0.002010835187039245,-0.0063151401563825045,0.017917952126673617,0.9860062862706734
2013-10-16,1,0.0019880987789354814,0.0020697972063013336,-0.0063151401563825045,0.01579775206291906,0.9864427039250563
2013-10-18,1,0.002115933390189297,0.0022084676018713145,-0.0030221535771508337,0.012235704586046257,0.9874767785573694
2013-10-22,1,0.0014574731125246128,0.0014602948924296829,-0.0013782881794019446,0.012235704586046257,0.9880724782996398
2013-10-24,1,0.0012269933983071514,0.0012782391670793259,-0.0013782881794019446,0.012235704586046257,0.9877698060153096
2013-10-28,1,0.001296377317090772,0.0013545618194763902,-0.001888248884550899,0.012235704586046257,0.9880753313537426
2013-10-30,1,0.0014488691831510457,0.0014707075442994698,-0.002654226017515354,0.012235704586046257,0.9884037772014881
2013-11-01,1,0.004232252724630717,0.0045761996197334585,-0.002654226017515354,0.0094528132111556,0.9919407858188621
2013-11-05,1,0.004445629721832272,0.004833000479170257,-0.002654226017515354,0.008867368511918466,0.9926237381707183
2013-11-07,1,0.004679597728828346,0.005113208543500626,-0.002654226017515354,0.008867368511918466,0.9924834323487423
2013-11-11,1,0.004880025363642596,0.0052917952501081306,-0.002654226017515354,0.006188446574365692,0.9923690948849825
2013-11-13,1,0.004947341336888098,0.0053440074142923006,-0.002654226017515354,0.00516611183937938,0.9924665341096054
2013-11-15,1,0.005610384657958646,0.006135018669563621,-0.0034870124630584347,0.002323357090072113,0.9912521938980637
2013-11-19,1,0.005079203398182306,0.005492270162889155,-0.0038111685799221678,0.0028418642365502862,0.9908735347361551
2013-11-21,1,0.004888286557521139,0.005254811778703651,-0.0038111685799221678,0.0017808013302857027,0.9908602710824459
2013-11-25,1,0.004613976087301317,0.004954567603464107,-0.0033333489596133283,0.0028418642365502862,0.9914688476608909
2013-11-27,1,0.004134006911422373,0.004414867552552539,-0.0032732098960915586,0.005329578921338508,0.9921028272969453
2013-12-02,1,0.004405576891151241,0.0047743255568226,-0.00371227349728439,0.005329578921338508,0.9916604863213851
2013-12-04,1,0.003534105238561936,0.003783653794509155,-0.00371227349728439,0.005637738002720603,0.9924316765865927
2013-12-06,1,0.0036365451139820275,0.0038819115011974594,-0.0032732098960915586,0.005637738002720603,0.9927437017436658
2013-12-10,1,0.0046934829782968555,0.005100208631166864,-0.00371227349728439,0.005637738002720603,0.9925186091502289
2013-12-12,1,0.004271659841363105,0.0045972194954997814,-0.00416708118881857,0.007340355406059047,0.9913556627702264
2013-12-16,1,0.003614716284700456,0.0038247780527175985,-0.003970459359769502,0.007340355406059047,0.9918929235580456
2013-12-18,1,0.004204169867101588,0.004515398587710839,-0.003970459359769502,0.005637738002720603,0.9923709407847568
2013-12-20,1,0.0036320231384837113,0.0038379481930752813,-0.003970459359769502,0.005637738002720603,0.9928325654102894
2013-12-24,1,0.003949198425311365,0.004220901152265904,-0.005703457452483901,0.00488698011384032,0.9907232243116151
2013-12-27,1,0.003754580430926314,0.0040022375927683184,-0.005113591965336698,0.006041195278727084,0.9895839133007076
2013-12-31,1,0.003210045557896369,0.0033817125074196456,-0.008318078783126688,0.010557378381967193,0.9877866865959292
2014-01-03,1,0.0025638741281447373,0.00269366340414384,-0.013710517909857434,0.006618176117652459,0.9863360355851636
2014-01-07,1,0.0028396673595599336,0.0030225571941328872,-0.013710517909857434,0.00394141398670581,0.9863333486389734
2014-01-09,1,0.0026579082598030663,0.0027757715164694555,-0.013710517909857434,0.006988018252880529,0.9862644042859126
2014-01-13,1,0.0020844287601638,0.002125103270585884,-0.013179737856575434,0.006988018252880529,0.9854326264124375
2014-01-15,1,0.0016578925455751612,0.0016946983687576595,-0.013179737856575434,0.00830010150560623,0.9855634321736554
2014-01-17,1,0.001362209584311268,0.0014343817150714762,-0.013179737856575434,0.00909874355684186,0.9854904804268828
2014-01-22,1,0.0008900367548363135,0.001055897677822952,-0.013179737856575434,0.009468138266394347,0.9854536496608541
2014-01-24,-1,-0.000517766669075645,-0.00018710333904496863,-0.0029338801936848024,0.009468138266394347,0.9871131332549258
2014-01-28,1,0.00024336105660665468,0.0004947429842484985,-0.00363523857954733,0.007665559832421443,0.988500978850805
2014-01-30,1,0.0007451818494284472,0.0009406812347002959,-0.0033252166052819537,0.006743786211334983,0.9906964868265651
2014-02-03,-1,-0.0008519687717683012,-0.0004818925961802005,-0.0016948532221968296,0.007665559832421443,0.991305011322707
2014-02-05,-1,-0.0005931087457845564,-0.0003024237575468147,-0.0020144884009999178,0.007665559832421443,0.9909776923628504
2014-02-07,1,0.0003351988250246805,0.0005169097623232482,-0.0037315169762111083,0.005373667397321289,0.9924629178924187
2014-02-11,1,0.0011821121179869643,0.0012665019915752609,-0.001866137295570246,0.003768532774109462,0.9952108269695271
2014-02-13,1,0.0009882903050309664,0.0010999413208530602,-0.0028618762421803406,0.003242582405991167,0.9953351333410664
2014-02-18,1,0.0006897671970094004,0.0008731297308523391,-0.0028618762421803406,0.003242582405991167,0.9952104491779036
2014-02-20,1,0.0006854802982145611,0.0008804660914467177,-0.004288274751780308,0.0031053423670171785,0.994402955786454
2014-02-24,1,0.000375071208602616,0.0006251616101190662,-0.004784598035686421,0.0025315198186358708,0.9934725829247832
2014-02-26,1,0.0003947088525084623,0.0006234950428254805,-0.004784598035686421,0.0025315198186358708,0.9926136420010844
2014-02-28,1,0.0003070953934033216,0.0005392038530703872,-0.006136961171732168,0.0031467888624496475,0.9917869717319902
2014-03-04,1,0.0006804975826682513,0.0008935134763757795,-0.006136961171732168,0.0028398263769844776,0.9927358260049887
2014-03-06,1,0.00044394147043519503,0.000647773787265988,-0.004004431341556854,0.006102530712938775,0.9924667227107207
2014-03-10,1,0.00019959328138097665,0.00045595011514640434,-0.012195144521460194,0.006102530712938775,0.9904872591386077
2014-03-12,1,0.0001521414442829163,0.0004064088410447148,-0.012195144521460194,0.007829565127248275,0.9890100971228455
2014-03-14,0,-0.00015661260570904183,0.00013810623912913114,-0.015915636940660095,0.007829565127248275,0.9869038978040285
2014-03-18,0,-0.00023819911314237386,9.621172543446447e-05,-0.015915636940660095,0.007829565127248275,0.9869293794526474
2014-03-20,-1,-0.0013212338245382053,-0.000850148362665669,-0.014557509083567574,0.008107951488651443,0.9874588644210591
2014-03-24,-1,-0.0021742999778323834,-0.0016067776423736254,-0.012195144521460194,0.008107951488651443,0.9877022785390411
2014-03-26,-1,-0.0023581570504716313,-0.0017590473899119327,-0.0074087972104658955,0.007829565127248275,0.9886393444288396
2014-03-28,-1,-0.0010140405859583711,-0.0007147502062010772,-0.0074087972104658955,0.008107951488651443,0.9879408643559676
2014-04-01,-1,-0.0011720139221105897,-0.0008502341022646468,-0.0074087972104658955,0.009589914254123286,0.9871875416687207
2014-04-03,-1,-0.00033949860059844525,-0.00013052977422825073,-0.016788108587256524,0.00791672403398469,0.9843747242682521
2014-04-07,-1,-0.0012861396095916171,-0.001020653693474813,-0.007765417631561036,0.00791672403398469,0.9861099211386298
2014-04-09,-1,-0.0001668799927158972,-5.731279074942927e-05,-0.008461491242528481,0.007416202001013502,0.987410645699293
2014-04-11,-1,-0.0016825153848098887,-0.00140894185453294,-0.004562729347005946,0.00817826668715815,0.9883920248339874
2014-04-15,-1,-0.0010678875288770329,-0.0008646686635734697,-0.005216508672619025,0.008353557820580962,0.9879266456586816
2014-04-17,-1,-0.0007637019915561737,-0.0006052582613582494,-0.005216508672619025,0.008353557820580962,0.9878928616357656
2014-04-22,-1,-0.0006398933457646491,-0.00048173088164080283,-0.005462687527382653,0.010144688891003702,0.9876454403628656
2014-04-24,-1,-0.001054365034963785,-0.0008353802104204497,-0.005462687527382653,0.012282755171447713,0.9866895416193361
2014-04-28,-1,-0.0008602660037853946,-0.0006652072725707682,-0.004649700840653748,0.011451420830278388,0.9876056650198906
2014-04-30,-1,-0.0011048327491370888,-0.0008423289892038515,-0.004649700840653748,0.011451420830278388,0.9872423337458829
2014-05-02,-1,-0.0035891963349977928,-0.003053298674134194,-0.001961061533170708,0.011451420830278388,0.9898953672318557
2014-05-06,-1,-0.002399566818579488,-0.002073774233353781,-0.001961061533170708,0.011451420830278388,0.990320181699925
2014-05-08,-1,-0.0028571990106191687,-0.0024588367577060314,-0.001961061533170708,0.011451420830278388,0.990230814344635
2014-05-12,-1,-0.0024631163644007227,-0.002098569324984488,-0.0044960375808443505,0.011451420830278388,0.9910696354167585
2014-05-14,-1,-0.0019580463299044915,-0.0016890666553589827,-0.0044960375808443505,0.009915846270161054,0.9914252941226097
2014-05-16,-1,-0.00176207203852311,-0.0015001312143377299,-0.0030383488217121447,0.008217752016630872,0.9922830848608409
2014-05-20,-1,-0.0014535794266420272,-0.0012417794601620714,-0.0021755381788052903,0.008102453893506474,0.9922410584468454
2014-05-22,-1,-0.0007114996244156637,-0.0005849613584769232,-0.0021755381788052903,0.007665717639365172,0.9932319083165551
2014-05-27,-1,-0.00015384988928026513,-8.445601091553996e-05,-0.0034821197285596146,0.004383042265367456,0.9938263525968019
2014-05-29,1,0.000800362743675818,0.0008476126579047851,-0.004404938387242199,0.002094987186489693,0.9939016981181611
2014-06-02,1,0.0005571030661851888,0.0005910614613573823,-0.004404938387242199,0.002094987186489693,0.993919309275213
2014-06-04,1,0.0009037648823769238,0.0010000323927690565,-0.004404938387242199,0.002094987186489693,0.9934036252569257
2014-06-06,1,0.0006121398308246236,0.0006574776859120383,-0.0034821197285596146,0.006599913879211239,0.9931968988745435
2014-06-10,1,0.00027269604091906496,0.00027418274483231007,-0.0034821197285596146,0.0069579153085898415,0.9931037897556781
2014-06-12,-1,-0.000846337537449319,-0.0007060567760916858,-0.002676262897322479,0.0069579153085898415,0.994564101225902
2014-06-16,-1,-0.000903915026286981,-0.0007670132647720901,-0.0015574130018671346,0.0069579153085898415,0.994231626657415
2014-06-18,-1,-0.0010546726179305557,-0.0008374481719335383,-0.0034821197285596146,0.005493173952330626,0.994860597744405
2014-06-20,-1,-0.00021752957149854155,-0.00015463434334781585,-0.004404938387242199,0.005612507762123494,0.994219282391425
2014-06-24,-1,-0.00013687038175895519,-0.000118343103068146,-0.0019085888865781847,0.007419664453097664,0.9935684440705731
2014-06-26,-1,-0.0009911236348998725,-0.000782210533597068,-0.0014831730277806185,0.007419664453097664,0.9935236391546378
2014-06-30,-1,-0.001457140948165661,-0.0011872867540788762,-0.0010480866312827647,0.007419664453097664,0.9933312800730641
2014-07-02,-1,-0.00023462821877412215,-0.00016617701027192347,-0.003001626320619619,0.006752511292594898,0.9934775454695721
2014-07-07,1,0.0008846694078298192,0.0010270816623344113,-0.003960234252157302,0.006752511292594898,0.9923194366440118
2014-07-09,1,0.0013893145680455802,0.0014746171954806465,-0.0036133884842770004,0.006368201117226064,0.9925993377860322
2014-07-11,1,0.0016324304734385122,0.0017754643549657253,-0.004639838771591363,0.007419664453097664,0.9919598945341882
2014-07-15,1,0.0012447824062038193,0.001459900266461917,-0.004639838771591363,0.007419664453097664,0.9918397087399515
2014-07-17,1,0.000952724767767147,0.0011228752861416247,-0.0036133884842770004,0.009469561096686376,0.9915483717160005
2014-07-21,1,0.0007969090622278281,0.0009463351364566437,-0.0036133884842770004,0.010117233443873403,0.9915107193596081
2014-07-23,1,0.001400032452296778,0.0016314994395836848,-0.0036133884842770004,0.00718023428637204,0.9921497607783151
2014-07-25,1,0.0022054876231706886,0.0026018799929556627,-0.0036133884842770004,0.006806521968583412,0.9926042629064485
2014-07-29,1,0.001795721630417131,0.0020976453752363715,-0.003448148487335147,0.007486063068690046,0.9924535885495741
2014-07-31,1,0.001606072912306041,0.0018902080693697244,-0.003448148487335147,0.00833086493481757,0.9926328876448987
2014-08-04,1,0.00143028590504628,0.0016884050398550676,-0.002516209784166487,0.007411679339860674,0.9942951466215769
2014-08-06,1,0.0010620139998334605,0.0012629022643319237,-0.0019087947368609968,0.007549704435332933,0.9942781464055848
2014-08-08,1,0.0018398920311556355,0.0021793238844693592,-0.0016820875512785097,0.007549704435332933,0.9947862995258103
2014-08-12,1,0.0012917504491010401,0.001513198244945177,-0.0016067092599755983,0.007549704435332933,0.9947845860560542
2014-08-14,1,0.0013019986843765367,0.0014864903912516665,-0.0016820875512785097,0.007176087082975586,0.9951711087630665
2014-08-18,1,0.001419109232519377,0.001618463448135505,-0.0016820875512785097,0.007176087082975586,0.9955403447019234
2014-08-20,1,0.001294565490542536,0.0014677189584623904,-0.0019087947368609968,0.007176087082975586,0.9951717600536168
2014-08-22,1,0.0013258714481444644,0.001500017015780815,-0.002050212846273927,0.007176087082975586,0.995131093550788
2014-08-26,1,0.0018678770575028666,0.0021597402194242516,-0.0019163101331167872,0.007453313504470876,0.994457954815876
2014-08-28,1,0.0011192259527447643,0.0012293881882898922,-0.0028970954817309864,0.006430973583141269,0.9937965161128243
2014-09-02,1,0.0015884774076735443,0.0018025968513961333,-0.0036119411515037835,0.006430973583141269,0.9933922401415608
2014-09-04,1,0.0008838335001928288,0.0009204318233229314,-0.004829513542600348,0.006177938999121511,0.9933068885240576
2014-09-08,1,0.0014534417864167765,0.0015932233789415675,-0.004872670696631871,0.006177938999121511,0.9929261494809168
2014-09-10,1,0.00150152484610885,0.001654532918415004,-0.005853399936799638,0.006694209752411605,0.9908348488082862
2014-09-12,1,0.00202510456887416,0.0021386809260249243,-0.006679286073656328,0.006694209752411605,0.9900088878639395
2014-09-16,1,0.001846205071694417,0.0019236282546756293,-0.0082040367863347,0.006947370680144414,0.9892267023470672
2014-09-18,1,0.0016613665563066358,0.0017306869409922541,-0.015374996366909418,0.006947370680144414,0.9881727348426833
2014-09-22,1,0.0018750283027577771,0.002015577267848112,-0.015374996366909418,0.007258091573539739,0.9875428917000504
2014-09-24,1,0.0013264096065291747,0.0013580534369780255,-0.015374996366909418,0.007258091573539739,0.9876988139503147
2014-09-26,1,0.0004220979132259657,0.000553681654208933,-0.010796160191375536,0.00864299551406305,0.9884747858141898
2014-09-30,0,-0.00020436660859274216,1.9045634012522256e-05,-0.007202063328093278,0.010496327304764817,0.9880486876763038
2014-10-02,1,4.931808220618914e-05,0.0002155383618288491,-0.0076729709314813585,0.010496327304764817,0.9882933173103029
2014-10-06,1,0.00029687431262978223,0.0004302269320279578,-0.0076729709314813585,0.00864299551406305,0.9890803740480061
2014-10-08,1,0.0007068994651400125,0.0007846561601382848,-0.005804209021498713,0.00864299551406305,0.9905366503946922
2014-10-10,1,0.0001739795564196927,0.00030480752509163476,-0.005804209021498713,0.008824318037489658,0.9899969731354543
2014-10-14,1,0.00013280631237470267,0.00023223841139843936,-0.000540733218035342,0.009177192571548962,0.9906343050688221
2014-10-16,-1,-0.0005656572141157299,-0.00041407750193896164,0.0013751620676311865,0.009177192571548962,0.9911838463992673
2014-10-20,1,0.0007594109536959708,0.0008134229789055166,0.0007962735458684523,0.008562750217543711,0.9930505187416597
2014-10-22,1,0.0010554810066626182,0.0011485221275811235,-0.0008674776726471879,0.00819204250968653,0.9931893160992151
2014-10-24,1,0.0015051287810139509,0.0016677825596785325,-0.00418840397401495,0.00822191172795251,0.9929225619388533
2014-10-28,1,0.0018284742667001193,0.002022714270061357,-0.00418840397401495,0.00822191172795251,0.9928523916222387
2014-10-30,1,0.001489946506258057,0.001618653575107572,-0.000868192560015744,0.00850516228082878,0.9925764728719033
2014-11-03,1,0.0009957357194711736,0.0010085711051837963,-0.0026946490369209493,0.00850516228082878,0.9923380189942708
2014-11-05,1,0.0009080887717084055,0.0009188244532957469,-0.002221674980412012,0.008183037071740293,0.9929980736939287
2014-11-07,1,0.0008341446798684257,0.0008380217529244598,-0.0005479127943362078,0.00805230017375819,0.9940795633949159
2014-11-11,1,0.0012210363491449822,0.001282562270935804,-0.0026946490369209493,0.006826021034411496,0.9935697972986247
2014-11-13,1,0.0013169259351755848,0.0013720659367578445,-0.005373591511568587,0.0041679211007994875,0.9932314232457792
2014-11-17,1,0.0011689829147914321,0.0012178758978197768,-0.006921146881361013,0.0041679211007994875,0.9931007674159302
2014-11-19,1,0.0006897542914148506,0.0007214069269733256,-0.003210500826851758,0.006932544567711369,0.9923459460751475
2014-11-21,1,0.0007819731799986482,0.0007877730894379985,-0.002221674980412012,0.006727140072740192,0.9928883321092777
2014-11-25,1,0.0013701488613431494,0.0014553995283201504,-0.003210500826851758,0.0041679211007994875,0.9930717316247806
2014-11-28,1,0.0016180690812043937,0.0017238479690945773,-0.006537828611277675,0.0032225344681932593,0.9929196262339579
2014-12-02,1,0.0015277700599666561,0.0016226240634963135,-0.008814340299494917,0.0034077610598028225,0.9920733940074055
2014-12-04,1,0.0018525116979418435,0.0019472013863830275,-0.008814340299494917,0.0032225344681932593,0.9916706491503056
2014-12-08,1,0.0016881608914310498,0.0017429978816801404,-0.010159044497722924,0.004464729510892316,0.9895846442454249
2014-12-10,1,0.0004627398634818908,0.0005321401797836569,-0.008451936228453302,0.007797575420077573,0.9892730471516011
2014-12-12,1,0.00023117603313117742,0.00029909583283219707,-0.008451936228453302,0.007797575420077573,0.9892509945983926
2014-12-16,1,0.0002635238709052709,0.0003174806297988252,-0.009071832284598076,0.007797575420077573,0.9886822576755631
2014-12-18,1,0.0015133744479736012,0.001612353987286821,-0.009071832284598076,0.0032844724273423426,0.9890369909910642
2014-12-22,1,0.0013945273263647282,0.001455727132273033,-0.009071832284598076,0.0038992020970718333,0.988312619415433
2014-12-24,1,0.000678112665673881,0.0007516293732895091,-0.008451936228453302,0.0100259285585605,0.9882406184778112
2014-12-29,1,7.875797437114935e-05,0.00023100164025295194,-0.007128697449647458,0.0100259285585605,0.9885826058878041
2014-12-31,0,-7.141883977780189e-05,7.058518029848639e-05,-0.007135108097000678,0.009943530128849099,0.9883935156539573
2015-01-05,-1,-0.0004975852518637134,-0.00030230212121275864,-0.007135108097000678,0.009943530128849099,0.9883425636745194
2015-01-07,1,0.0007770399877021571,0.0008043682541059456,-0.006668840540121528,0.007470063421569494,0.9897935685246788
2015-01-09,1,0.0010868391494718583,0.0010977413017278042,-0.006668840540121528,0.007470063421569494,0.9903640661279304
2015-01-13,1,0.0005020936444117248,0.0005609933832614628,-0.006407779661288667,0.010863637074273775,0.9902510250570598
2015-01-15,-1,-0.00024394112253854118,-0.00010107747271483416,-0.004676315510776724,0.010863637074273775,0.9911402738871984
2015-01-20,1,0.00022393946843315304,0.00030655227834381737,-0.0027610565170117164,0.008781400068470243,0.9920680404256199
2015-01-22,1,0.0011610022831026288,0.0011908810540635342,-0.0027610565170117164,0.008691924554965529,0.9928092514873287
2015-01-26,1,0.001326338103777151,0.0013833371329022913,-0.0009922168182187872,0.010417889213868273,0.9927445484200228
2015-01-28,1,0.001357614262804768,0.0014236727449925862,-0.0027610565170117164,0.010417889213868273,0.9924495446880944
2015-01-30,1,0.0006975963481283863,0.000698476650444721,-0.001614610251191438,0.010863637074273775,0.9928028973042012
2015-02-03,1,0.0007652803166135827,0.0007707957603761522,-0.001614610251191438,0.010863637074273775,0.9924540762935179
2015-02-05,1,0.000997225729211303,0.001029132184094898,-0.0020808476015674424,0.010863637074273775,0.9917687905945097
2015-02-09,1,0.0008314520474794363,0.0008426481694429927,-0.0020808476015674424,0.010801776227601808,0.9919709784363365
2015-02-11,1,0.0013768587708888524,0.0014527724910496152,-0.0020808476015674424,0.010533349687087664,0.9921648686802309
2015-02-13,1,0.0012982662224444936,0.0013685887481136624,-0.0026663165156818195,0.011347567077312328,0.9910693832856851
2015-02-18,1,0.0016599220240270298,0.0018278843886440116,-0.004246252867257297,0.011347567077312328,0.9907263618930061
2015-02-20,1,0.001426334257152992,0.0015049478652877338,-0.004856535122258284,0.01222268802899806,0.9902401152307201
2015-02-24,1,0.0018059368980547082,0.001906964464767432,-0.009772282424894755,0.00973841439820465,0.9901392500020378
2015-02-26,1,0.0012772904265387643,0.0013114130880299462,-0.006225320844731468,0.00973841439820465,0.9906252128626466
2015-03-02,1,0.0018148369913248898,0.001931496288954836,-0.006225320844731468,0.009615714662031687,0.9907977055505091
2015-03-04,1,0.0018452900901787844,0.001993409473377407,-0.0067859182198268305,0.009615714662031687,0.9904907010230695
2015-03-06,1,0.0004440297414170593,0.0005207941955049672,-0.005276477414310514,0.009615714662031687,0.9912569580361903
2015-03-10,1,0.0001875754910283238,0.00031621066743507925,-0.004961571382648407,0.008648019870648125,0.9922592367051039
2015-03-12,0,-0.0001183925668037549,9.63467783534213e-05,-0.004961571382648407,0.00802111033575561,0.9926273539566691
2015-03-16,1,0.000940403869478808,0.0009893638377997194,-0.005276477414310514,0.007660967102362975,0.9929313298268367
2015-03-18,1,0.0012647619247796147,0.001281367873345729,-0.005535789957549701,0.00715330044536183,0.9931316282257168
2015-03-20,1,0.0015319697444589329,0.0016071882910456865,-0.005535789957549701,0.006693476574462131,0.9937159198630746
2015-03-24,1,0.0009561417529609814,0.0009782946254443977,-0.003724481476597932,0.00715330044536183,0.9941866127914317
2015-03-26,1,0.0008823933688797142,0.000886957017487668,-0.0020774460243652712,0.00715330044536183,0.9943324544048101
2015-03-30,1,0.001303348329955057,0.0013554811822868917,-0.003853599070998879,0.006693476574462131,0.9936170894589434
2015-04-01,1,0.0005923788478773287,0.0006242801086024395,-0.003853599070998879,0.006693476574462131,0.9913536421894164
2015-04-06,1,0.0008280592343516572,0.0008595123275415249,-0.003853599070998879,0.006693476574462131,0.9911751439353821
2015-04-08,1,0.0010412585059464293,0.001061554702092409,-0.006562143028483263,0.006693476574462131,0.9905503352423791
2015-04-10,1,0.0012927218812475703,0.0013653883698029035,-0.006562143028483263,0.006838241502017317,0.9900692615937894
2015-04-14,1,0.0010634748930025513,0.001094708511515966,-0.0038689463960082594,0.0036822344688906736,0.9905482179068755
2015-04-16,1,0.0004060411225998054,0.000471265878039109,-0.002573590715018336,0.0075940976112106925,0.9900330620836607
2015-04-20,1,0.00046825981509830055,0.0005345039942082686,-0.00378850639708476,0.00543826746166578,0.9900042087319461
2015-04-22,1,0.0012813844942613833,0.00134577534460374,-0.005400356163587748,0.004990542946810149,0.9899159153356466
2015-04-24,1,0.0012768928916419816,0.001361369438933735,-0.005400356163587748,0.007229476603197736,0.989702968773656
2015-04-28,1,0.0010426596048914408,0.0010895745984375216,-0.005400356163587748,0.007229476603197736,0.9900762859797093
2015-04-30,-1,-0.0014867565151645617,-0.0012360962958592567,-0.00378850639708476,0.007229476603197736,0.9928413751990142
2015-05-04,-1,-0.0009999309777791493,-0.0008059351336292254,-0.004586470408629404,0.0044603279460832725,0.993391923510463
2015-05-06,-1,-0.0019293732740331135,-0.0015821651630191884,-0.0044725668301117925,0.0044603279460832725,0.9938836210829625
2015-05-08,-1,-0.001521462337476348,-0.0011913582009753531,-0.0044725668301117925,0.004012542285735228,0.9948000302652523
2015-05-12,-1,-0.001971283620078751,-0.001579257769855427,-0.0044725668301117925,0.005355904621426726,0.9940700016464912
2015-05-14,-1,-0.00017733496384754824,-7.536831559173577e-05,-0.004771890949017477,0.005355904621426726,0.9943450915958596
2015-05-18,-1,-0.00034669433532502993,-0.00022692230678195185,-0.005058645428034911,0.007229476603197736,0.9939613574416896
2015-05-20,-1,-0.0004932092811897251,-0.0003350951089680821,-0.0044725668301117925,0.007431850007907308,0.9941672195133955
2015-05-22,-1,-0.0007722398212319744,-0.0005594374865082697,-0.0044725668301117925,0.0060884930268631735,0.9945306385348232
2015-05-27,-1,-0.0007499377809131159,-0.0005278644801785017,-0.005128403751149049,0.0033536034489446477,0.9941709454300707
2015-05-29,-1,-0.0013629393470485436,-0.0010525231017008024,-0.00520928887734015,0.0033536034489446477,0.9940687015476279
2015-06-02,-1,-0.000787690337835596,-0.0006026645411948209,-0.006900113858597373,0.0013940103145656663,0.9930619751630452
2015-06-04,-1,-0.000732618513717118,-0.0005731155020118323,-0.006900113858597373,0.0060884930268631735,0.9922419448282365
2015-06-08,-1,-0.0010067344398768027,-0.0007911703731181614,-0.006900113858597373,0.006488304085428618,0.9922174284476992
2015-06-10,-1,-0.001041225093988098,-0.0007881821348387044,-0.007104237552012322,0.006359084099295133,0.9916712685602874
2015-06-12,-1,-0.0009221414069368292,-0.0007043849417674586,-0.006900113858597373,0.007893526863743729,0.9913568206286621
2015-06-16,-1,-0.00014459444074532896,-6.855703941304793e-05,-0.005725617259948111,0.005952681293982139,0.991809491502882
2015-06-18,0,-2.7438650933404526e-06,4.98570779123225e-05,-0.005725617259948111,0.005102904662403564,0.9919685527887235
2015-06-22,0,-2.2026861335730735e-05,3.601711190579944e-05,-0.005725617259948111,0.005102904662403564,0.9916632098368382
2015-06-24,-1,-0.0016347236918227482,-0.0013438415648587263,-0.004702672503003305,0.00590825042316362,0.9914959146610375
2015-06-26,-1,-0.0021529170329773837,-0.001796235610097348,-0.0068802075946902365,0.00590825042316362,0.990886812263935
2015-06-30,-1,-0.0029382683655810593,-0.0025114279919358955,-0.004702672503003305,0.007617010606268888,0.9905318466155647
2015-07-02,-1,-0.0026819367074705294,-0.002277702645106585,-0.006285682164698219,0.007617010606268888,0.9900630409588407
2015-07-07,-1,-0.001955303670859691,-0.0016765124758632893,-0.006285682164698219,0.00828318650725819,0.9900266087483318
2015-07-09,-1,-0.002327920924868743,-0.0020058848074245737,-0.006285682164698219,0.007617010606268888,0.990187376015598
2015-07-13,-1,-0.0013794645794386433,-0.0011711401936175692,-0.006285682164698219,0.007392021963718978,0.99091170226949
2015-07-15,-1,-0.0009188737058559166,-0.0007832996412999215,-0.010242240544348281,0.007392021963718978,0.9907463362842263
2015-07-17,-1,-0.000266848975248216,-0.0002540800257584144,-0.01040295352779886,0.007392021963718978,0.9905404695186592
2015-07-21,-1,-0.0007817944576108649,-0.0006863693468008175,-0.01040295352779886,0.007392021963718978,0.9904515782550631
2015-07-23,-1,-0.0012287221197285385,-0.0011107867133297762,-0.01040295352779886,0.0064580471276844825,0.9901354612782689
2015-07-27,-1,-0.0023698157353586446,-0.0021116903648409424,-0.010489130317950719,0.0064580471276844825,0.9890715925457598
2015-07-29,-1,-0.0015018899234956627,-0.0013036214516451477,-0.010489130317950719,0.005694248735830635,0.98769317401652
2015-07-31,-1,-0.0010141715743119124,-0.0008784501684736647,-0.009833479527022907,0.00554952397153385,0.9890868232771964
2015-08-04,-1,-0.0006195980371973397,-0.000557151916886505,-0.014391008353073663,0.005476239869788125,0.987850515102718
2015-08-06,-1,-0.0005586332920384457,-0.0005349447187886942,-0.010853369394186215,0.005476239869788125,0.9878110885608306
2015-08-10,-1,-7.075439610614777e-05,-1.9844025240169365e-05,-0.010853369394186215,0.005476239869788125,0.9870341351692293
2015-08-12,0,-1.7454707124309383e-05,5.351140074178311e-05,-0.012567470934405285,0.00554952397153385,0.9859534442456742
2015-08-14,-1,-0.0007686023714497289,-0.0007075454740155594,-0.012567470934405285,0.008602996407667486,0.984904367101112
2015-08-18,-1,-0.0004898022527708237,-0.0004029294195898246,-0.012567470934405285,0.011274532342096494,0.9846198687985532
2015-08-20,-1,-0.0011415484642844699,-0.0010171454535701902,-0.012567470934405285,0.011274532342096494,0.9857371238828313
2015-08-24,-1,-0.0019281316091146823,-0.0016779572582845818,-0.009245699568774097,0.011274532342096494,0.9865847558525132
2015-08-26,1,0.001203963598318079,0.0013620022086293455,-0.009245699568774097,0.007252586735744258,0.9882306951364852
2015-08-28,1,0.0014341331661426797,0.001625992071426214,-0.013435211824110605,0.007252586735744258,0.9856890582613398
2015-09-01,1,0.0003562942297764874,0.0004212339744656213,-0.009245699568774097,0.007252586735744258,0.987547345934875
2015-09-03,-1,-0.0011462993658812547,-0.0010855076014905022,-0.009245699568774097,0.007252586735744258,0.9877537253239503
2015-09-08,-1,-0.0006730120454260951,-0.000651068170247665,-0.012571782713191485,0.007252586735744258,0.9876198389567457
2015-09-10,1,8.473273082245807e-06,8.972452887782463e-05,-0.009537821051200004,0.0045853990915337706,0.9887994856658139
2015-09-14,1,0.0005216083982598642,0.0007078559491279262,-0.009011898748520816,0.007252586735744258,0.988952664584863
2015-09-16,1,0.0009626047981365576,0.0012006656037912705,-0.01460418265950853,0.0045853990915337706,0.9884729786500869
2015-09-18,1,0.00027968424446204413,0.0004253187796865258,-0.01016793424756014,0.008013860538372108,0.9886959194487017
2015-09-22,-1,-0.0017305944974470278,-0.001501263772504776,-0.010102016730073524,0.008013860538372108,0.9887312824669025
2015-09-24,-1,-0.0014073215200826254,-0.0012406160475241373,-0.011193866728941959,0.008013860538372108,0.9889668011838536
2015-09-28,-1,-0.0033623995806535308,-0.0029543138893998134,-0.005682392496631961,0.01199277312150188,0.988986720081287
2015-09-30,-1,-0.0029839261353288475,-0.002662245965443667,-0.004483597198618528,0.01249030900848416,0.9878601023181302
2015-10-02,-1,-0.0017499986984508063,-0.0015614317326749319,-0.0075998100867861774,0.01199277312150188,0.9889854245109518
2015-10-06,-1,-0.0016128213658903121,-0.001476140431052038,-0.004483597198618528,0.01249030900848416,0.98782795381253
2015-10-08,-1,-0.001754598372530452,-0.0015963672845683502,-0.0008970869655170525,0.013341989780289831,0.987028579261872
2015-10-12,-1,-0.0005413150476942097,-0.0005361392380232299,-0.0049140620771352264,0.00988828519726632,0.9884368108635795
2015-10-14,-1,-0.0012587061177801353,-0.0011717968847067242,-0.0049140620771352264,0.00988828519726632,0.9884543710772365
2015-10-16,-1,-0.00033241024652386615,-0.0002899138999399078,-0.008968748792876551,0.00852390082759725,0.9887863491420348
2015-10-20,-1,-0.0010896315504730302,-0.001024680307366417,-0.0049140620771352264,0.00852390082759725,0.9887159715992944
2015-10-22,-1,-0.001196540105907304,-0.0011204331537059578,-0.002212596948863237,0.010720824997714179,0.9874323490443587
2015-10-26,0,-2.3706287050152195e-05,4.11944758756949e-05,-0.004526579847307331,0.008306293895560276,0.9896372379785514
2015-10-28,1,0.0006941380801208188,0.0008579495461599911,-0.00719556753618955,0.004617033821256073,0.9906245173189885
2015-10-30,1,0.0004891157428860828,0.0006508281826923738,-0.005412263474410541,0.004617033821256073,0.9907462596177665
2015-11-03,1,0.002009074722314306,0.0023661026483255973,-0.00719556753618955,0.004617033821256073,0.9913772867531984
2015-11-05,1,0.002682841585028715,0.003140601325478936,-0.009245673694205488,0.004617033821256073,0.9904064040529165
2015-11-09,1,0.002428944781565798,0.002856752755065787,-0.00719556753618955,0.004617033821256073,0.990799886534337
2015-11-11,1,0.0022201736850199997,0.0026212820160872166,-0.007730592468895242,0.0042103048545344985,0.9904360424494082
2015-11-13,1,0.0012930457598568524,0.0015211854728223245,-0.007730592468895242,0.006416302686081707,0.9905014430806925
2015-11-17,1,0.0015156392347436209,0.0017587909788806633,-0.007730592468895242,0.004477416633501669,0.9902445409649749
2015-11-19,1,0.0012623705836463648,0.0014254004996784816,-0.007730592468895242,0.003435061179190669,0.9909231290260369
2015-11-23,1,0.0013648639581388985,0.0015586965005133283,-0.007730592468895242,0.007741450170853382,0.9900740493856383
2015-11-25,1,0.0014269545782940316,0.0016455375381471923,-0.006615892896552176,0.008910859961176451,0.990133633810678
2015-11-30,1,0.0011169304858050324,0.0012700181070543714,-0.006006459809728164,0.008910859961176451,0.990016646000907
2015-12-02,1,0.001648251942886922,0.0019102582760141661,-0.006006459809728164,0.008715214780588024,0.9911586557406095
2015-12-04,1,0.0022543490229281365,0.0026053687363537283,-0.006107286350023194,0.008715214780588024,0.9912284477460952
2015-12-08,1,0.0020589962227692137,0.002379714083212343,-0.014077734930584763,0.008715214780588024,0.9886908954506141
2015-12-10,1,0.0014877449538971978,0.0017243123706320732,-0.014369112648387451,0.008715214780588024,0.9862053933622723
2015-12-14,1,0.0010236399117596522,0.0011612429159749828,-0.014926916738320292,0.008715214780588024,0.9858209974918876
2015-12-16,1,0.0011483337087636234,0.0012683635338437463,-0.014926916738320292,0.008715214780588024,0.9840729283134562
2015-12-18,1,0.0008386427802587401,0.000957460473727732,-0.015073778510866321,0.008715214780588024,0.9841328341950337
2015-12-22,1,0.0016557544935137075,0.0018987587223730264,-0.015073778510866321,0.008039721072827894,0.9841568707702953
2015-12-24,1,0.0015987749776111035,0.0018279361426815194,-0.015073778510866321,0.008039721072827894,0.983423596499675
2015-12-29,1,0.0016419238135319118,0.0018609318202285115,-0.01733389114089906,0.005094235811568759,0.98148784261072
2015-12-31,1,0.0013117109150365663,0.0014990502488739284,-0.01985333659497994,0.010515075265808756,0.9802170302804997
2016-01-05,1,0.0014216502771991152,0.0016201031611674612,-0.02256628184134239,0.005094235811568759,0.980197646998204
2016-01-07,1,0.00019308147898385993,0.00021348169613392927,-0.016775130456329387,0.005094235811568759,0.982728200831626
2016-01-11,-1,-0.0009672476410693845,-0.0008580438288246534,-0.012688934875380888,0.006780697623332782,0.985720357819273
2016-01-13,-1,-0.0016661160442035853,-0.0014437557003089043,-0.012220825995937682,0.009474367908215988,0.9856483676929544
2016-01-15,-1,-0.0012695538064911342,-0.001059873287455983,-0.012220825995937682,0.013399796927218054,0.9863644989343833
2016-01-20,-1,-0.0006841709488074739,-0.0006038874581110837,-0.009981780960336393,0.016025542447635162,0.9864148711428651
2016-01-22,-1,-0.0005992911389014296,-0.0005171618200376356,-0.009981780960336393,0.012542949036276986,0.9869734007812494
2016-01-26,-1,-0.000752246699412616,-0.0006111267539086109,-0.009981780960336393,0.011599214018463023,0.9874231052363344
2016-01-28,-1,-0.0017159367684740933,-0.0014735579311537812,-0.005327994987193593,0.011599214018463023,0.9888400491776858
2016-02-01,-1,-0.0011830123478671142,-0.0010188680024097022,-0.005327994987193593,0.011599214018463023,0.9898196956780279
2016-02-03,-1,-0.0017851717513137299,-0.0015626377184414647,-0.0023720013230085777,0.011599214018463023,0.9904872368512093
2016-02-05,-1,-0.0017007611114789887,-0.001505672108395366,-0.001421693899939478,0.011599214018463023,0.9904889304574287
2016-02-09,-1,-0.0014305008672990803,-0.0012818761352168361,-0.001421693899939478,0.011599214018463023,0.9900778506327517
2016-02-11,-1,-0.0015262853030442126,-0.0013468746541658145,-0.001421693899939478,0.011599214018463023,0.9903080326250492
2016-02-16,-1,-0.0019117919326668566,-0.0017519135568462754,-0.003198543660659357,0.007696334425492012,0.9901284673438235
2016-02-18,-1,-0.0017096339389840638,-0.0015817754100882501,-0.004998890929573584,0.007696334425492012,0.9898582021603017
2016-02-22,-1,-0.0021564449309099207,-0.0018998846774924076,-0.004998890929573584,0.007830359565148659,0.9894444124105569
2016-02-24,-1,-0.0019903513386350085,-0.0017506018153974567,-0.004998890929573584,0.006755223983039609,0.9897540116502819
2016-02-26,-1,-0.0013066097607450687,-0.0011611082295763966,-0.009120165403062371,0.006177826304928153,0.9900708714435494
2016-03-01,-1,-0.0011021699583365272,-0.0009251618558173897,-0.004592602362732146,0.006177826304928153,0.9909136798552344
2016-03-03,-1,-0.0010255595684690111,-0.0008537367197097937,-0.004592602362732146,0.006177826304928153,0.9911367594119846
2016-03-07,-1,-0.0008845977845233192,-0.0008131465377125936,-0.009120165403062371,0.006344440530872991,0.989897765904985
2016-03-09,-1,-0.001366482893557484,-0.0012143165347556452,-0.004855087973118696,0.009199189985770635,0.9890914209855974
2016-03-11,-1,-0.0009087108299128375,-0.0008281546317248812,-0.00880379980973266,0.004958294473909032,0.9897866207092433
2016-03-15,-1,-0.0020802190665879365,-0.001849767476959445,-0.004855087973118696,0.009199189985770635,0.9902758741121251
2016-03-17,-1,-0.0021085203860587444,-0.0018077868918286023,-0.0012588731669025079,0.0062362155272280406,0.9911123711748944
2016-03-21,-1,-0.0016956873024887823,-0.0015417717586045847,-0.0012588731669025079,0.0062362155272280406,0.9911270051313722
2016-03-23,-1,-0.0012956528796938026,-0.0012152984978767722,-0.0037660604691002113,0.011869858633986086,0.9905273255249443
2016-03-28,-1,-0.0014806455082739904,-0.00137642937708265,-0.0037660604691002113,0.011869858633986086,0.9906510081973819
2016-03-30,1,0.0002962862392905674,0.00031137992532919215,-0.0037660604691002113,0.0062362155272280406,0.9917248190506919
2016-04-01,1,0.0002574811400318407,0.00035395291219414616,-0.004879201781752331,0.0062362155272280406,0.9873607735472132
2016-04-05,0,-5.441681754494808e-06,5.013889270875235e-05,-0.0037660604691002113,0.0062999209470811016,0.9881501349064286
2016-04-07,1,0.0005776308257190428,0.0007163295991569116,-0.004879201781752331,0.0062999209470811016,0.9883420415667163
2016-04-11,-1,-2.7706426333513762e-05,-7.917081519904683e-06,-0.003542292046833623,0.012359524592485037,0.9870594164734541
2016-04-13,1,0.0006493979391131277,0.000778707323228789,-0.004879201781752331,0.006054181183630001,0.987144596678554
2016-04-15,1,0.0008455745001626453,0.0010118443253376505,-0.0072676949349911955,0.005863905695115268,0.9867744626934999
2016-04-19,1,0.0012002257800395053,0.0014134529563596342,-0.0072676949349911955,0.005311506459366771,0.986419169733138
2016-04-21,1,0.0014631738281540158,0.0017058376716064753,-0.0072676949349911955,0.004364779740610801,0.9866778090838244
2016-04-25,1,0.00131887285784705,0.0015392312976015396,-0.008926530184805628,0.004364779740610801,0.986620982367918
2016-04-27,1,0.0014271519137650688,0.0016703402636083962,-0.009503187864646096,0.009403826288655909,0.9858216454445567
2016-04-29,-1,-0.0003497869763212871,-0.0003184465422890249,-0.008847506226267746,0.009882933194435757,0.9898121167553129
2016-05-03,-1,-0.00012004769677006515,-5.5793717958102284e-05,-0.008847506226267746,0.009660366479051247,0.9900184502627322
2016-05-05,-1,-0.00034655782642003586,-0.00033249024990820644,-0.006982015135210036,0.009660366479051247,0.9909067260731796
2016-05-09,-1,-0.00043324549005193855,-0.0004313632489696501,-0.005522983560013159,0.009403826288655909,0.99234688109409
2016-05-11,-1,-0.0006119759500629743,-0.0006082322893706015,-0.004789220507591505,0.009403826288655909,0.9929002619667928
2016-05-13,-1,-0.0010523074260169478,-0.000983463194980087,-0.004789220507591505,0.009403826288655909,0.992860163201711
2016-05-17,-1,-0.00030514592578406523,-0.00024377689559256595,-0.005522983560013159,0.008267355354554879,0.9927699829335976
2016-05-19,0,-4.1057083444817405e-05,7.177778861689474e-05,-0.006080740848161232,0.007447637924084579,0.9927640913302529
2016-05-23,1,2.583661740167552e-05,0.0001686627715886849,-0.004789220507591505,0.008267355354554879,0.9923477909230373
2016-05-25,0,-8.732262176061064e-05,1.9127094691377428e-05,-0.004348659270449814,0.00848093519453386,0.9924935634613546
2016-05-27,1,0.0004916587328420093,0.0006844817370412931,-0.006313192674534252,0.005994542856279519,0.9904342480071624
2016-06-01,1,6.506562131405137e-05,0.00012950252463308874,-0.006313192674534252,0.009133267943068579,0.9888096131077426
2016-06-03,-1,-0.0007453521220741072,-0.0006512068305411455,-0.006313192674534252,0.008250663936085742,0.9890700194119001
2016-06-07,-1,-0.0008889507109856734,-0.0007658306136646175,-0.0058798543844621985,0.010198184446554015,0.9885960479769
2016-06-09,-1,-0.0002997200039594784,-0.00026617810095600836,-0.00755312540512375,0.012086072220379544,0.9879958741624941
2016-06-13,-1,-0.0008308850097874104,-0.0007212478006535742,-0.004308432581508508,0.012086072220379544,0.9877100476066214
2016-06-15,-1,-0.0011028196276511668,-0.0009811031075051188,-0.0010312030231363265,0.012086072220379544,0.9876621061071655
2016-06-17,-1,-0.001219589026546221,-0.0011047969237398632,0.0012715564885220456,0.012086072220379544,0.987364474958421
2016-06-21,-1,-0.0013635974397492143,-0.0011752081234085443,-0.0017464950027228164,0.010698585046964379,0.9878429459607063
2016-06-23,-1,-0.0008534973445888138,-0.0007402180883407121,-0.005234147646682298,0.009566816667166075,0.9882841680501964
2016-06-27,-1,-0.0031123482107481264,-0.0026906381959431267,-0.000966367840682095,0.009640221612210346,0.9894093527225788
2016-06-29,-1,-0.001793241748104336,-0.0015094721446907945,-0.003861860160853565,0.008898094830995403,0.9921875132817666
2016-07-01,-1,-0.0014433633750966133,-0.0012033095759979167,-0.005234147646682298,0.00892256314601016,0.9917336451254344
2016-07-06,-1,-0.0006200090501050171,-0.00048187789099519323,-0.005234147646682298,0.00892256314601016,0.9913001868452014
2016-07-08,1,1.0148790063773537e-05,2.6560354849722112e-05,-0.005353212589006986,0.008902290060324943,0.9911391894510112
2016-07-12,1,0.0006387029305413966,0.0007252025745380019,-0.006994504055300577,0.008622611957262275,0.9916262839708454
2016-07-14,1,0.0010782976441790332,0.001232430915575798,-0.006994504055300577,0.0065893197140864,0.9919885055698445
2016-07-18,1,0.001307814010541097,0.0015090625774420107,-0.0053970236416547995,0.004868663690961372,0.9924126317550833
2016-07-20,1,0.001400655269429841,0.0016245447312068484,-0.006316757027836428,0.0020570714333955032,0.9924899702618768
2016-07-22,1,0.0013076821092721004,0.0015208571171552642,-0.006316757027836428,0.000840943676050347,0.9923789471383923
2016-07-26,1,0.0016613304486294933,0.0019351088382431885,-0.006316757027836428,0.000840943676050347,0.992375812751462
2016-07-28,1,0.001364269081824276,0.0016070442645814268,-0.007279750344522872,0.000840943676050347,0.9915794349247413
2016-08-01,1,0.001149041446564105,0.001343984018882716,-0.006316757027836428,0.000840943676050347,0.9927587336563976
2016-08-03,1,0.002071273203979723,0.0024043575214286773,-0.006316757027836428,0.00035860449537241713,0.9935776389041504
2016-08-05,1,0.0012975104361344094,0.0014563984216602426,-0.00521083664943872,0.00037650346815091217,0.995096344955902
2016-08-09,1,0.0009387337085507476,0.0010358773595106213,-0.004487727696661658,0.000840943676050347,0.9950301924653517
2016-08-11,1,0.001080287650841896,0.001217705442952887,-0.005691137062856259,0.0005847694471777734,0.9936382165903785
2016-08-15,1,0.0009489200315273488,0.0010750123374682233,-0.0067211893678746325,0.0019899036102235543,0.9921599102914714
2016-08-17,1,0.000761895083308339,0.0008524554579406135,-0.009234924667845482,0.004563885460271417,0.9899313233159472
2016-08-19,1,0.0005631794464541894,0.0006480879325240798,-0.007053453805170432,0.005231932468026397,0.990170087839948
2016-08-23,1,0.0007359753735698347,0.0008523393954721811,-0.00884007005186477,0.005239709778542488,0.9895004767904563
2016-08-25,-1,-0.00039825039973507,-0.00035241019426063297,-0.005554599440885527,0.006279428299955376,0.9906524793924153
2016-08-29,1,0.0003038448225208391,0.0003986787244984506,-0.006179958296635531,0.00985824510678648,0.9897436988281864
2016-08-31,1,4.164233712018809e-06,2.7053724652278288e-05,-0.00848589656520305,0.00985824510678648,0.988811183605754
2016-09-02,1,0.0003588259215618045,0.0004666812940925451,-0.011877391520868658,0.01073146717763333,0.9872211905427425
2016-09-07,1,0.0009653258258373109,0.0011610063974322486,-0.011877391520868658,0.009529839131877074,0.9879115769941225
2016-09-09,1,0.0003853698154783787,0.0005321154466092786,-0.00848589656520305,0.010536882950994439,0.9886193283414443
2016-09-13,1,0.00044156559213394387,0.0006214138590081159,-0.00848589656520305,0.009529839131877074,0.9897451950428158
2016-09-15,1,6.222344784505778e-05,0.00018756906684280772,-0.0064447829569905125,0.006989735315243536,0.9917321868977734
2016-09-19,1,3.443116484082553e-05,0.00016136679069992944,-0.0064447829569905125,0.006989735315243536,0.9920046471170725
2016-09-21,-1,-0.0012325591172433741,-0.0010653463494303484,-0.006169778200764432,0.006989735315243536,0.9921282227223975
2016-09-23,-1,-0.0008028209149827908,-0.0006971288463666906,-0.006169778200764432,0.005249711040442336,0.992188158712631
2016-09-27,-1,-0.0005844352133990306,-0.0004992391125243919,-0.006169778200764432,0.005219966072069676,0.9927015193748053
2016-09-29,-1,-0.0011838007600799615,-0.0010231583943911468,-0.006155188818214857,0.005562543074681607,0.993110990363332
2016-10-03,-1,-0.00020572407686396822,-0.00017255840158864034,-0.006155188818214857,0.005562543074681607,0.9890316489537763
2016-10-05,-1,-0.00036717558105706007,-0.00031069056790911076,-0.006822787370776822,0.0061508238124529145,0.986675258115656
2016-10-07,-1,-0.0003896043736712289,-0.0003302249298434599,-0.0074644151925539705,0.005562543074681607,0.9849633161121046
2016-10-11,-1,-0.00048363274023824755,-0.00041815810649474766,-0.0074644151925539705,0.0061508238124529145,0.9846624609344644
2016-10-13,-1,-0.0003679534835398176,-0.00030591348459782785,-0.0074644151925539705,0.010888139172227914,0.9805919915835913
2016-10-17,-1,-0.0007631702122544026,-0.0006528114967971675,-0.0074644151925539705,0.012984762228234442,0.9799326894702385
2016-10-19,-1,-0.000548667507598629,-0.00047888905965391096,-0.009405622653169986,0.012984762228234442,0.9797703728203018
2016-10-21,-1,-0.0004134266327246863,-0.0003556813549301578,-0.010422403986764183,0.012984762228234442,0.9791297948290179
2016-10-25,-1,-0.00033359463872656956,-0.00029443441360621156,-0.010422403986764183,0.012984762228234442,0.9794464611165461
2016-10-27,-1,-0.0004088291115432993,-0.0003577982025690698,-0.010422403986764183,0.012984762228234442,0.9793459660891479
2016-10-31,-1,-0.00228779202431904,-0.002014121605140326,-0.008540111834020456,0.011760835605388372,0.9844388200994928
2016-11-02,-1,-0.001962802342745245,-0.0017225000235562933,-0.007909146264568375,0.008812147829417673,0.9868407737591409
2016-11-04,-1,-0.0027040737032527516,-0.00237378277820906,-0.007471824789773224,0.011760835605388372,0.9879900261274942
2016-11-08,-1,-0.001897389863262731,-0.0016588293134541456,-0.007909146264568375,0.008812147829417673,0.9883630266778883
2016-11-10,-1,-0.0014152517770624352,-0.0012464965821650594,-0.007909146264568375,0.008116321183587107,0.9912922553267405
2016-11-14,-1,-0.0015870111186449295,-0.001406379325455601,-0.007909146264568375,0.006836028093050693,0.9915770399940094
2016-11-16,1,0.0008772699762782412,0.0008845124282082773,-0.0075367692980526126,0.007469415045933374,0.9913888925045063
2016-11-18,1,0.0013007177578699654,0.0014083236681277267,-0.0031180928965424152,0.007469415045933374,0.9920484235935819
2016-11-22,1,0.0012493659212114816,0.001363775689037676,-0.005587716337586796,0.007469415045933374,0.991774231476763
2016-11-25,1,0.0016801233809280842,0.0018733481323062458,-0.007293160848014652,0.007648138293728512,0.9914537454252735
2016-11-29,-1,-0.0014537369585820577,-0.0013181577821393797,-0.007046270339003529,0.007648138293728512,0.9917245607903893
2016-12-01,-1,-0.001478342906112849,-0.0013425660275718674,-0.007046270339003529,0.007648138293728512,0.9915651178617552
2016-12-05,-1,-0.0008550584802769121,-0.0007983230044091174,-0.007046270339003529,0.009092115237114555,0.9899233501401589
2016-12-07,-1,-0.0006335092171782022,-0.0006156755496805693,-0.005694878097836557,0.010477762123259928,0.9896589592607506
2016-12-09,-1,-0.0002828628212782913,-0.00025737515737366814,-0.007046270339003529,0.008087762603870549,0.9908064828320647
2016-12-13,-1,-0.0006661038290555288,-0.0006425432345902511,-0.007228988879103483,0.008087762603870549,0.9900544572440342
2016-12-15,-1,-0.0003746935785436743,-0.0003465185234469845,-0.007046270339003529,0.010477762123259928,0.9905494052385928
2016-12-19,-1,-0.0005128458788492313,-0.0005091577177205737,-0.007046270339003529,0.008854703999053689,0.990521034366431
2016-12-21,-1,-0.0005225170447246401,-0.0005192727829166573,-0.006917908447257762,0.008854703999053689,0.9907016913052482
2016-12-23,-1,-0.00011765463148368278,-2.9416788445858343e-05,-0.005659884957738915,0.00891465305111488,0.9907662709059036
2016-12-28,-1,-0.0004588959493939672,-0.0004356479753822683,-0.0070538620444520386,0.00891465305111488,0.9890419799489626
2016-12-30,-1,-0.0004706688259394101,-0.00045462577211192285,-0.0070538620444520386,0.010973651192804532,0.987674159777161
2017-01-04,1,0.0030281557304589583,0.0034191391778159008,-0.007795683239830351,0.008668973565045375,0.9894440331067664
2017-01-06,1,0.0028151025649662,0.00316749910807786,-0.0070538620444520386,0.008668973565045375,0.9900168728017549
2017-01-10,1,0.002709756495939541,0.003039175949322726,-0.004819464968705922,0.010180841740453958,0.9895544096028309
2017-01-12,1,0.002222464486076201,0.0024703888859240425,-0.004255401807148914,0.010180841740453958,0.9903083431151134
2017-01-17,1,0.002434280569229075,0.0027107800697169088,-0.004255401807148914,0.0100451899364654,0.9900429895612651
2017-01-19,1,4.249946569296454e-05,0.00011001882994622386,-0.004255401807148914,0.011454482764839388,0.9893790265219929
2017-01-23,1,0.00014243581986107362,0.00023511256460772575,-0.0012621833110358772,0.011454482764839388,0.9893063839677453
2017-01-25,1,0.0005459679637845102,0.0006936586699886971,-0.0024777877573990475,0.0100451899364654,0.9897558141502307
2017-01-27,0,-2.49089778339917e-05,4.3741130415962074e-05,0.00032082924329694744,0.0100451899364654,0.9912937196036334
2017-01-31,1,0.0009345034269238031,0.0011491051045836418,-0.0010437022942303854,0.008431745547758763,0.9923335210323608
2017-02-02,1,0.00023388064833319654,0.0003288857093463326,-0.0010437022942303854,0.009086048436925474,0.9920701575595369
2017-02-06,1,0.0006100774243642838,0.0007614165339087302,-0.003175717052049354,0.008431745547758763,0.9921554911647508
2017-02-08,1,0.0008985988364402674,0.001110432425805176,-0.003175717052049354,0.008431745547758763,0.9928918764352496
2017-02-10,1,0.00039143083014701863,0.0004997064457298959,-0.0024708961356968108,0.008431745547758763,0.9927602508578269
2017-02-14,1,0.000967968124835676,0.0011743633691011065,-0.0024708961356968108,0.008101817085633584,0.9931432483098102
2017-02-16,1,0.0008449749428756077,0.001025244091628228,-0.003175717052049354,0.007858465740863317,0.9934391260084623
2017-02-21,1,0.001155137445974768,0.0014007906201110682,-0.006724103717784396,0.006666577350452613,0.992969219351386
2017-02-23,1,0.0008845629836556837,0.0010642707174304453,-0.007186771120935877,0.005316478225210322,0.9930536699536283
2017-02-27,1,0.0008285397525275183,0.0009967405857494907,-0.007186771120935877,0.006751602240727029,0.9928070162181677
2017-03-01,1,0.0007869959166756429,0.0009527324312949466,-0.006151748564076138,0.004089428617021723,0.993681007858245
2017-03-03,1,0.0011594835485992088,0.001383174156477388,-0.006151748564076138,0.0025946628688332863,0.9940265342551711
2017-03-07,1,0.0007940360660031853,0.0009593280230936969,-0.006628304939952229,0.0025946628688332863,0.994381447846108
2017-03-09,1,0.0010602899854785302,0.0012702850678310436,-0.006628304939952229,0.0025946628688332863,0.9935166222806602
2017-03-13,1,0.0007818932795252533,0.0008761103191446131,-0.006628304939952229,0.0017854520405926532,0.9935108816160281
2017-03-15,1,0.0008762666875826697,0.0009623363806439736,-0.006794714450724799,0.0014266248151422645,0.9936538615811616
2017-03-17,1,0.0005044960751887577,0.0006421919568754986,-0.006628304939952229,0.0014266248151422645,0.9941295770672216
2017-03-21,0,-6.291712523931437e-05,0.00013915871441215716,-0.005127140268576967,0.001651212216906651,0.9903042330115085
2017-03-23,-1,-0.0003329457381760736,-8.54116513903288e-05,-0.005141029241301575,0.001651212216906651,0.9897383594485766
2017-03-27,1,0.0003323652084677355,0.00048110144245501067,-0.005141029241301575,0.0008884519897964048,0.9900789594949497
2017-03-29,1,0.00011556719601832246,0.000282575647260958,-0.005141029241301575,0.001474817485088204,0.9897167564906862
2017-03-31,-1,-0.0008087494110405909,-0.0004982144921988953,-0.006794714450724799,0.001474817485088204,0.9896662503826825
2017-04-04,-1,-0.0011949732360067048,-0.0008322893995919081,-0.005674034429020605,0.002574895980815498,0.98947557455535
2017-04-06,1,0.0012759504988457241,0.0013211811436323279,-0.005674034429020605,0.002036107026682373,0.9898520169751862
2017-04-10,1,0.0011337095965913775,0.0011826518860251654,-0.006210750207147041,0.0032958463806292103,0.9896319904492733
2017-04-12,1,0.0003787884122229509,0.0005453988670087681,-0.005674034429020605,0.00500341157143637,0.989563364937142
2017-04-17,1,0.00019823131643102287,0.00039313531917383273,-0.005674034429020605,0.0033870447090369946,0.9899293214953633
2017-04-19,0,-8.653388015914378e-05,0.00015793087831618186,-0.005674034429020605,0.0033870447090369946,0.9940613067508145
2017-04-21,1,4.28706255841475e-05,0.000256123213309656,-0.005418186324279295,0.006017824679571691,0.9938218068592674
2017-04-25,0,-0.00022354449817317198,2.0860896963437376e-05,-0.005527308087491594,0.006017824679571691,0.9935947379919863
2017-04-27,0,-0.0001604035668356683,8.539186850817584e-05,-0.005527308087491594,0.004807664509024886,0.9938631901656345
2017-05-01,-1,-0.00044704275784555555,-0.00018454127582532274,-0.004819131640659631,0.005496758293110557,0.9939501765368017
2017-05-03,-1,-0.0006562430049594034,-0.00036472986221124375,-0.004549709476051595,0.006677079888924197,0.9937405579324056
2017-05-05,0,-3.949021345362933e-05,0.0001208817075427189,-0.004549709476051595,0.00864522538775969,0.9933951534336304
2017-05-09,0,-1.606428765859539e-05,0.00012082456572789726,-0.004549709476051595,0.00864522538775969,0.9929053468410967
2017-05-11,0,-0.00016827025391684728,8.412141444521365e-06,-0.0044953620543196635,0.008630846172134629,0.9929167143390681
2017-05-15,0,-6.54590797668609e-05,8.926568518593614e-05,-0.0044953620543196635,0.008630846172134629,0.9928691621168952
2017-05-17,-1,-0.0008157282739474453,-0.0005679251517411387,-0.0019000004543030307,0.009459016081154088,0.992947144280719
2017-05-19,0,-0.00011380185265973542,5.251438704770864e-05,-0.002819703328713074,0.009459016081154088,0.9929936522202313
2017-05-23,-1,-0.0005166764176949227,-0.0002855147644804522,-0.0017628166164009118,0.009816926759240773,0.99240186813783
2017-05-25,-1,-0.0006362486043035805,-0.00037652097438645594,-0.0017628166164009118,0.0101034169693881,0.991308868916197
2017-05-30,1,0.0002271505756683768,0.0003100335307109633,-0.002357052933508563,0.0101034169693881,0.9917779255495662
2017-06-01,1,0.00056448931983608,0.0006132877216284251,-0.0026687368944497297,0.009816926759240773,0.9921189358758836
2017-06-05,1,0.0007065467518693968,0.0007438442569891784,-0.0026687368944497297,0.009459016081154088,0.9923913264869368
2017-06-07,1,7.705010374430801e-06,0.00014806150087195226,-0.0026687368944497297,0.009459016081154088,0.9920546808883439
2017-06-09,1,0.0005191080544456362,0.0005875075798220722,-0.003130585628216426,0.006168047983561064,0.9922615464310834
2017-06-13,1,0.00040026497905715344,0.00048310663493343197,-0.003130585628216426,0.00869531501145138,0.992071896972201
2017-06-15,1,0.0004619438776741156,0.0005503709551115615,-0.003130585628216426,0.007438222340707628,0.9922476642508526
2017-06-19,1,0.0007164932504409381,0.0007740473471426156,-0.003130585628216426,0.00560475251948748,0.9928807597834031
2017-06-21,1,0.00036622502531165997,0.0005068582888679293,-0.003130585628216426,0.004838678684493564,0.9935152865051962
2017-06-23,1,0.0017756434599181241,0.0018478077433744,-0.00481473207744499,0.00430400397420689,0.9933941533440775
2017-06-27,1,0.0014036612632005105,0.0014077144162292048,-0.00481473207744499,0.004838678684493564,0.9934361079679062
2017-06-29,1,0.0012538842412270956,0.0012651904212869357,-0.00481473207744499,0.00560475251948748,0.9928722740565533
2017-07-03,1,0.0014195812288633175,0.001476160477953877,-0.005034056553899216,0.00560475251948748,0.9930170568227243
2017-07-06,1,0.0006438590079727585,0.000689625462400042,-0.008285637328702083,0.004889711078734877,0.9892191495974563
2017-07-10,1,0.0007773606634779145,0.0007843790475995603,-0.006712592961499456,0.004889711078734877,0.9894765066132646
2017-07-12,1,0.00122202792179591,0.0013008385870559936,-0.013434992207464,0.003464260862011638,0.9890037869236713
2017-07-14,1,0.0015862461564635283,0.0017337604009056472,-0.013556974116444147,0.0014447520887235906,0.988175162532037
2017-07-18,1,0.001259145864630869,0.0013670836343828152,-0.013361907187829519,0.0014447520887235906,0.988661958991757
2017-07-20,1,0.0014930442212595075,0.0016439448374398998,-0.013361907187829519,0.0010405781761150803,0.987624488767498
2017-07-24,1,0.0013513112895856163,0.0014699712775451386,-0.013028582256931391,3.3390620616158295e-05,0.9881267036953998
2017-07-26,1,0.0016753532940002468,0.0018488728275155705,-0.013028582256931391,0.0010405781761150803,0.9874926922054588
2017-07-28,1,0.0013024348054682829,0.0013942956816413135,-0.012197177140348464,0.0010405781761150803,0.9886982801311041
2017-08-01,1,0.0012561126168797157,0.0013548199462903258,-0.012197177140348464,0.0014447520887235906,0.9888082920654166
2017-08-03,1,0.00042412314779438105,0.00042574973348561063,-0.005287934489737208,0.0018872424283708283,0.9935678050370373
2017-08-07,1,0.000536060279920312,0.0005705842732007538,-0.005287934489737208,0.0035803217615096947,0.993305140456557
2017-08-09,1,6.792535313433594e-06,5.160901742131847e-05,-0.004912729052926775,0.005642070148607949,0.9931465544599261
2017-08-11,-1,-0.0009019313639702709,-0.0007213432106873912,-0.0045534159289055895,0.006709419106656852,0.9924479254489684
2017-08-15,-1,-0.0012709991707283964,-0.001040041150801572,-0.004225063383558409,0.006709419106656852,0.9924640695301059
2017-08-17,-1,-0.001588051665338101,-0.001339819402080398,-0.0026598479947986683,0.006709419106656852,0.9918439023681549
2017-08-21,-1,-0.0019246800012607613,-0.0016334979663665064,-0.004225063383558409,0.006709419106656852,0.9915903566740814
2017-08-23,-1,-0.001421895639102752,-0.001178676244984894,-0.004225063383558409,0.006616919956341294,0.9922989245625687
2017-08-25,-1,-0.0014295876005773404,-0.0011657519666940378,-0.004225063383558409,0.006616919956341294,0.9921984005189155
2017-08-29,-1,-0.0007905204992428865,-0.0006395123946603663,-0.004225063383558409,0.006875550416105341,0.9919122982396228
2017-08-31,-1,-0.00035144385924761463,-0.00024475112487463,-0.004910232912357523,0.006616919956341294,0.9919361120386094
2017-09-05,-1,-0.0005209318684713876,-0.00037998201916724733,-0.007122444891082445,0.006875550416105341,0.9910030829633811
2017-09-07,1,0.00027493240980965326,0.00033160282831100574,-0.007122444891082445,0.005236621120472492,0.9918996445522483
2017-09-11,1,0.0002651283666016286,0.00032409830246516336,-0.010053215717407816,0.0025125608841975846,0.9913597189833151
2017-09-13,0,-3.2153870476777616e-05,6.398613888625415e-05,-0.010053215717407816,0.005236621120472492,0.9910678381380822
2017-09-15,-1,-0.0009866739049701726,-0.0007739086669304515,-0.010053215717407816,0.006875550416105341,0.9910451932309196
2017-09-19,-1,-0.0014633707435999141,-0.0012114527105006557,-0.006154721862536976,0.00700410079628939,0.9911779668788373
2017-09-21,-1,-0.0014912850077858494,-0.0012122171706183704,-0.006723945438668411,0.007283152332563681,0.9903173624327711
2017-09-25,-1,-0.0011210500296918958,-0.0008890546731427818,-0.006723945438668411,0.007283152332563681,0.9904559712946975
2017-09-27,-1,-0.0006652104600561164,-0.00048632992948338097,-0.006723945438668411,0.007927720764629925,0.990500798817481
2017-09-29,-1,-0.0012790071402709751,-0.0009853256715339667,-0.01067697509458769,0.007927720764629925,0.9877209578473413
2017-10-03,-1,-0.0012844169651306686,-0.001042357178061309,-0.008022265643405488,0.007159195762691511,0.9887131386928206
2017-10-05,-1,-0.001238588415151818,-0.001004675152312937,-0.015391804004595916,0.007159195762691511,0.9877609507628617
2017-10-09,-1,-0.0033432679229588175,-0.0028220209772676693,-0.00884213393920248,0.007159195762691511,0.9884386315197581
2017-10-11,-1,-0.001952314384133432,-0.001650251844037536,-0.00884213393920248,0.007159195762691511,0.9885306696616707
2017-10-13,-1,-0.002695473898758901,-0.002290085543081229,-0.009750607920758873,0.005547818968297758,0.9881831156974042
2017-10-17,-1,-0.0024455434992210288,-0.0020839186828084597,-0.01799103731598966,0.004661594946200324,0.9877299753021228
2017-10-19,-1,-0.0016586032464539068,-0.0013903344005949502,-0.01799103731598966,0.004661594946200324,0.9882770956925655
2017-10-23,-1,-0.0006064123242996529,-0.0005075496426272567,-0.019207759516334334,0.0035619788200344435,0.986314754230443
