JNU-Tangyin/eata/results/Batch4_SP500/Batch4_SP500-MCK.csv
Date,Action,Predicted_Q25,Predicted_Q75,Actual_Q25,Actual_Q75,RL_Reward
2010-12-14,0,0.0,0.0012351021196754018,-0.002442795037555164,0.008604603931423933,0.9939037672963589
2010-12-16,1,0.004656899229346874,0.005351683706322746,-0.002442795037555164,0.008604603931423933,0.9927628214769556
2010-12-20,0,0.0,0.0,-0.0026793744044945763,0.009053757240822607,0.9922149381052029
2010-12-22,0,0.0,0.0,-0.005665467897804341,0.007467392190110296,0.992630544972875
2010-12-27,1,0.003408603731632519,0.0038401831070768834,-0.005665467897804341,0.009053757240822607,0.9916948294730947
2010-12-29,1,0.0031527370823614576,0.0035410565134120775,-0.005665467897804341,0.010474056899741799,0.9915582592780016
2010-12-31,1,0.002566213156499809,0.0028374512186067347,-0.006450560105811241,0.010835561196566531,0.99056000512389
2011-01-04,1,0.0027764710100259583,0.0030525199752487395,-0.0067132592111460235,0.01084244624992456,0.9892581722377569
2011-01-06,1,0.00383790363028717,0.004243673762316225,-0.0067132592111460235,0.010815441335186792,0.9903891909948106
2011-01-10,1,0.003542469355302907,0.003943728260486711,-0.006649961817450737,0.011739674992457512,0.9905234478292666
2011-01-12,1,0.003354498826738979,0.0037071759351270665,-0.006649961817450737,0.010815441335186792,0.9911218604470101
2011-01-14,1,0.002874887982308625,0.003118491389674132,-0.006649961817450737,0.010815441335186792,0.9912387960327996
2011-01-19,1,0.00256024302010791,0.0027383867272119623,-0.004921563428892769,0.010773133147252784,0.9915938031461116
2011-01-21,1,0.001752811679337314,0.0017980888810566814,-0.0013902059702133147,0.010773133147252784,0.9918743060888291
2011-01-25,1,0.0020409840721900625,0.002104502108554203,-0.002694261379392245,0.009675362747803189,0.9911711525371317
2011-01-27,1,0.0023725913417687165,0.0025063994157781405,-0.0038724422038077556,0.009988541724625509,0.9910517516911618
2011-01-31,1,0.0017793169503396663,0.0017816256808349247,-0.0017829329116851517,0.008542377265871808,0.9921504735550741
2011-02-02,1,0.0024232591887041366,0.002528998131332448,-0.0017829329116851517,0.008542377265871808,0.9921383654122735
2011-02-04,1,0.0025521773269595875,0.0026818023123580336,-0.0038724422038077556,0.007754118346305268,0.9912964290481001
2011-02-08,1,0.0031259800797400496,0.003407979756969325,-0.0032147918341454756,0.007754118346305268,0.9913361442096854
2011-02-10,1,0.0030788470164649843,0.003363038233949765,-0.005123263382809369,0.007754118346305268,0.9901012428037586
2011-02-14,1,0.003038817578935981,0.0032871765676920532,-0.007119396111146642,0.0062085336789359236,0.9894766661469518
2011-02-16,0,0.0,0.0,-0.009550963356078166,0.0066649433205075,0.9892365479111762
2011-02-18,1,0.0021350536855389217,0.0022931249650927675,-0.009550963356078166,0.012629306294333552,0.9880586842189543
2011-02-23,1,0.002022885187680047,0.0020997099074828228,-0.007119396111146642,0.012629306294333552,0.9890771932068088
2011-02-25,1,0.0015269682209778767,0.0015674224328136657,-0.007119396111146642,0.012913589915827157,0.9891268369184136
2011-03-01,0,0.0,0.0,-0.007119396111146642,0.012913589915827157,0.9892915795521303
2011-03-03,0,0.0,0.0,-0.007119396111146642,0.0074557466097926635,0.9906370850025661
2011-03-07,0,0.0,0.0,-0.0060920361558731515,0.009975319835036113,0.9913604314781931
2011-03-09,0,0.0,0.0,-0.006789208649969734,0.004535185342338665,0.9919485639870924
2011-03-11,0,0.0,0.0,-0.0050334365389866145,0.004535185342338665,0.9930472652789645
2011-03-15,0,0.0,0.0,-0.004962722322059153,0.004535185342338665,0.9930660939100451
2011-03-17,0,0.0,0.0,-0.002686706053789268,0.006977154802093917,0.9939295661298115
2011-03-21,0,0.0,0.0,-0.004962722322059153,0.00386899062383017,0.993649736550073
2011-03-23,0,0.0,0.0,-0.002954654506423852,0.008711060933251736,0.992680176709897
2011-03-25,0,0.0,0.0,-0.002954654506423852,0.0076005344724575765,0.9928999631971328
2011-03-29,0,0.0,0.0,-0.002954654506423852,0.008710860386348168,0.9924544550120066
2011-03-31,0,0.0,0.0,-0.002954654506423852,0.008710860386348168,0.9925033131063757
2011-04-04,0,0.0,0.0,-0.00126868623315519,0.0076005344724575765,0.9931651986311465
2011-04-06,1,0.00025231226517072607,0.00037322347870080296,-0.0010183534269364207,0.0076005344724575765,0.9935277798567496
2011-04-08,0,-0.00016855359068745587,1.0637839411140504e-05,-0.0010661306893203922,0.008710860386348168,0.9923084258602574
2011-04-12,-1,-0.0016764171094741217,-0.0011545807888927462,-0.0010253875640401254,0.008826313090747568,0.9915993972383508
2011-04-14,-1,-0.0006526834209673667,-0.00028834089865183046,-0.0015368841824366796,0.008826313090747568,0.9922993832270108
2011-04-18,-1,-0.0010680508697088994,-0.0005809054845306325,-0.0015368841824366796,0.008826313090747568,0.9931571650038736
2011-04-20,0,0.0,0.0,-0.002585216292090792,0.007639018707257377,0.9930743654159166
2011-04-25,0,0.0,0.0,-0.0044286881031739035,0.005523274630506125,0.9923373073114983
2011-04-27,0,0.0,0.0,-0.007049232214595458,0.003125632817788705,0.9922121195721134
2011-04-29,1,0.0002927121765664009,0.0003771728328429031,-0.0044286881031739035,0.008033590655759438,0.992478890234138
2011-05-03,0,0.0,0.0,-0.005463394448769196,0.008033590655759438,0.9919290936859005
2011-05-05,0,0.0,0.0,-0.005943624570123666,0.008033590655759438,0.991579784185811
2011-05-09,0,-7.13988787365157e-05,0.00011077480522469574,-0.005943624570123666,0.007016371802343993,0.9927278693429887
2011-05-11,0,0.0,0.0,-0.005182857948913728,0.007016371802343993,0.9929213475941611
2011-05-13,1,0.0004999012306806819,0.0006523645408747976,-0.005182857948913728,0.007016371802343993,0.9923538189907347
2011-05-17,1,0.0009867863423861879,0.001046174045956748,-0.006207622715029052,0.007016371802343993,0.9916560195583464
2011-05-19,1,0.0015011365463648953,0.0015102225706584435,-0.00840103263797165,0.0037477834315082508,0.9922446947470082
2011-05-23,1,0.0001577724559192411,0.00033696852375653986,-0.005182857948913728,0.0075407750650970905,0.9932104901645057
2011-05-25,0,-0.0001056579854485705,0.00011559987311612007,-0.006335363328185201,0.006877525554749126,0.9929780580719517
2011-05-27,1,0.0004929339382188146,0.0006150302437849962,-0.0065675498806283894,0.005630312837370683,0.9927531485492238
2011-06-01,1,0.001224679848522352,0.001262117155781138,-0.0065675498806283894,0.005805113924955049,0.9920282258209526
2011-06-03,1,0.00035177975590486754,0.000455463699021358,-0.0065675498806283894,0.007629082017211469,0.9921312235555513
2011-06-07,1,0.0003371834580341818,0.00043641283161651324,-0.0065675498806283894,0.007629082017211469,0.9920871313842551
2011-06-09,1,0.0004832936657201118,0.0005656222355429953,-0.0065675498806283894,0.006742587165373081,0.9920450125824813
2011-06-13,-1,-0.00024654733282208604,-7.814976988496878e-05,-0.0065675498806283894,0.006742587165373081,0.9923381542273382
2011-06-15,-1,-0.0007506182263300526,-0.0004955172943319034,-0.0058107114006368055,0.005585333374245335,0.9934994664844317
2011-06-17,-1,-0.0008885510977877191,-0.0006445546931162832,-0.0058107114006368055,0.005585333374245335,0.993366706649193
2011-06-21,-1,-0.0002298777087066704,-7.277126726338868e-05,-0.0058107114006368055,0.004213729770968848,0.9938070429936565
2011-06-23,-1,-0.001120736626138335,-0.0008557848524096451,-0.004623957191055434,0.004213729770968848,0.9946766354567137
2011-06-27,0,0.0,0.0,-0.004623957191055434,0.0038333442407812216,0.9944080595507437
2011-06-29,0,0.0,0.0,-0.006038631299699488,0.0027791698391100364,0.9945823243916434
2011-07-01,0,0.0,0.0,-0.007728442108702565,0.0020760655618496547,0.9936453894426962
2011-07-06,1,0.00026689181566289666,0.00029209089573101427,-0.00922276354843324,0.0020760655618496547,0.9923375886562118
2011-07-08,0,0.0,0.0,-0.012004272718470512,0.0020760655618496547,0.9906264993181892
2011-07-12,1,0.00019209359800631816,0.00020410087806384695,-0.012004272718470512,0.0027256290944457488,0.9849585808023532
2011-07-14,1,0.00034049858633793264,0.0003415292758153449,-0.012989690054173384,0.0036727220067883596,0.9796446076640561
2011-07-18,0,0.0,0.0,-0.012989690054173384,0.0036727220067883596,0.9802076670250564
2011-07-20,0,0.0,0.0,-0.012989690054173384,0.0027256290944457488,0.9794678020339773
2011-07-22,0,0.0,0.0,-0.017104094666497944,-5.027306168009201e-05,0.9775579441383779
2011-07-26,0,0.0,0.0,-0.017104094666497944,0.003997904040851799,0.976563410752556
2011-07-28,0,0.0,0.0,-0.0191119553642088,0.004277213242102795,0.9764972222323255
2011-08-01,0,0.0,0.0,-0.0191119553642088,0.00913086200658288,0.9758740210013925
2011-08-03,-1,-0.0025862573931221817,-0.002175774278046484,-0.012535159146158943,0.019570704543330677,0.9765162630165604
2011-08-05,-1,-0.004057743790967034,-0.0034559430020842568,-0.012535159146158943,0.019570704543330677,0.9776083339412408
2011-08-09,-1,-0.003107635641438458,-0.002617654174664238,-0.011009978564184036,0.019570704543330677,0.982128567092629
2011-08-11,-1,-0.000610156127600412,-0.000458673774817741,-0.011623644108348343,0.00775716075435206,0.9843843392056438
2011-08-15,-1,-0.0011043791062751228,-0.0008842488395328043,-0.011623644108348343,0.00775716075435206,0.984406887536659
2011-08-17,-1,-0.0015592120379203257,-0.0013103809536094226,-0.0114968751559676,0.01956075876317549,0.9840968912601202
2011-08-19,-1,-0.002932229705785468,-0.0025314885963400925,-0.009685486119145522,0.01956075876317549,0.98514984093514
2011-08-23,-1,-0.0022623640384913657,-0.0019215525830454114,-0.0114968751559676,0.01661187554399292,0.9846879351106985
2011-08-25,-1,-0.002819417338215723,-0.0024181303139723196,-0.0114968751559676,0.01661187554399292,0.984940462663905
2011-08-29,-1,-0.0012601986153615752,-0.001024338162261189,-0.0114968751559676,0.013553680609611483,0.9851777199102322
2011-08-31,-1,-0.0004977534603034376,-0.0003488845728439039,-0.014220300837592384,0.01272433062559506,0.985276143328299
2011-09-02,-1,-0.0019068453109791393,-0.001571401590236458,-0.018300463874915778,0.01272433062559506,0.9841325007719262
2011-09-07,0,0.0,0.0,-0.018300463874915778,0.01272433062559506,0.984242143109568
2011-09-09,0,0.0,0.0,-0.016117467618972512,0.01272433062559506,0.9868017995171768
2011-09-13,0,0.0,0.0,-0.016117467618972512,0.012890641347793672,0.9849004791405243
2011-09-15,-1,-0.0018861281083254894,-0.0016986501052552604,-0.016117467618972512,0.01272433062559506,0.9856747082557321
2011-09-19,-1,-0.0010213451786954657,-0.0009622740461724804,-0.016117467618972512,0.010366460627626422,0.9860702468821042
2011-09-21,-1,-0.0020088782388135787,-0.001811238797983388,-0.008167779113126796,0.006093709134601879,0.9880362415463527
2011-09-23,-1,-0.0025845246540729533,-0.0023258656104903084,-0.005505784582280276,0.010396202261994936,0.986612986476279
2011-09-27,-1,-0.0010760929357862892,-0.0009904989602428948,-0.006896244466198816,0.006093709134601879,0.9873675615591704
2011-09-29,-1,-0.0010434845339470464,-0.0009941451153568002,-0.005505784582280276,0.01336719073122323,0.9827564537827315
2011-10-03,-1,-0.00271434040263519,-0.002476308684766885,-0.005505784582280276,0.01336719073122323,0.9836909709404281
2011-10-05,0,0.0,0.0,-0.005505784582280276,0.018206549806009893,0.9821853418580057
2011-10-07,0,0.0,0.0,-0.005970372770606443,0.018206549806009893,0.9818657841760681
2011-10-11,0,0.0,0.0,-0.005970372770606443,0.015011684205184842,0.9829634122913405
2011-10-13,0,0.0,0.0,-0.007750135917716828,0.0207357578189026,0.9806047636290061
2011-10-17,0,0.0,0.0,-0.007750135917716828,0.0207357578189026,0.980383142130218
2011-10-19,0,0.0,0.0,-0.011079749295764703,0.0207357578189026,0.9795395896389208
2011-10-21,1,0.0006350885919478437,0.0008116454542403806,-0.011079749295764703,0.015011684205184842,0.9811124417625278
2011-10-25,1,0.00040362963229594934,0.000542697676969055,-0.014020000437504648,0.013885070702443431,0.9811490735128721
2011-10-27,1,0.002957333245707689,0.003431995506517186,-0.014020000437504648,0.0003583284578483691,0.98421951471574
2011-10-31,1,0.0018179631463009125,0.002152953202889843,-0.012306630687720192,0.007463923098419194,0.9856534017766451
2011-11-02,1,0.0019983123751617904,0.0023336572663519802,-0.011295319290124912,0.007463923098419194,0.9867935526167514
2011-11-04,1,0.0015046710381915458,0.0017704305402744952,-0.011295319290124912,0.007463923098419194,0.9867488051182464
2011-11-08,1,0.0017452003037608057,0.0020286427961510806,-0.011295319290124912,0.005035236080090065,0.9874387212447757
2011-11-10,1,0.0021343370942024167,0.00249563865615141,-0.011295319290124912,0.005035236080090065,0.9883812652031831
2011-11-14,1,0.0019171348750638773,0.0022175977200359544,-0.011295319290124912,0.004460373220480911,0.9884864145324722
2011-11-16,1,0.0014718719380682932,0.0017189251849412603,-0.011295319290124912,0.004460373220480911,0.9882694425678534
2011-11-18,1,0.0012824327604631313,0.0015115240320038577,-0.012629761507299888,0.005035236080090065,0.9878683370214156
2011-11-22,1,0.0010620637265710507,0.0012848104687903392,-0.011295319290124912,0.006881608908410138,0.9875339848742896
2011-11-25,1,0.000666604025420062,0.0008424606103580543,-0.007757305893040089,0.007481861419301417,0.9882277566618971
2011-11-29,1,0.0013792935238569792,0.0016536721709198379,-0.0098128343343565,0.005275553014354799,0.9884596107892546
2011-12-01,1,0.001961361110622631,0.0022879334953899008,-0.0098128343343565,0.005275553014354799,0.9892500052513514
2011-12-05,1,0.0016435092658925454,0.0019274613071106313,-0.007757305893040089,0.007481861419301417,0.9888923533072468
2011-12-07,1,0.0015793107292810526,0.0018353920408816023,-0.0098128343343565,0.010434399416832352,0.987778328387752
2011-12-09,1,0.0014269803859512467,0.0016725289930106303,-0.007757305893040089,0.010434399416832352,0.9890491308531185
2011-12-13,1,0.0011271000342142016,0.0013375518067527364,-0.009160949634230095,0.010434399416832352,0.9885608153150739
2011-12-15,1,0.0004989926666782901,0.0006061810099146347,-0.009160949634230095,0.010434399416832352,0.9893826491346864
2011-12-19,1,8.200012789584885e-05,0.0001046212700773175,-0.009160949634230095,0.0076446024234842315,0.9895323727141
2011-12-21,1,0.0005130659192258864,0.000597078334023162,-0.008758398585705988,0.006956385713123003,0.9907586742632881
2011-12-23,1,0.0006293128939723276,0.0007092639852020029,-0.008758398585705988,0.008857972298297113,0.9904111035860746
2011-12-28,-1,-0.0005458230224470193,-0.0004346910263789528,-0.0063051704069401835,0.009890788212752437,0.9908672346084771
2011-12-30,1,0.0003308294128388924,0.0003751416029455618,-0.00783076178367651,0.009890788212752437,0.9895150781898359
2012-01-04,0,0.0,0.0,-0.00783076178367651,0.009890788212752437,0.9898620482714797
2012-01-06,0,0.0,0.0,-0.00783076178367651,0.010464102915374258,0.9893580759123101
2012-01-10,0,0.0,0.0,-0.00783076178367651,0.00922677925371774,0.9897523738864279
2012-01-12,0,0.0,0.0,-0.007824617390314072,0.00922677925371774,0.9898064190438522
2012-01-17,0,0.0,0.0,-0.006211598268903376,0.00922677925371774,0.9901974692526213
2012-01-19,0,0.0,0.0,-0.005967486798185269,0.00922677925371774,0.9906758933547507
2012-01-23,0,0.0,0.0,-0.007085029555477268,0.010464102915374258,0.9894157341682677
2012-01-25,0,0.0,0.0,-0.007085029555477268,0.00922677925371774,0.9899342381398905
2012-01-27,1,0.0002494745947997224,0.0002570805056063365,-0.007085029555477268,0.00632842218689641,0.9902682191814988
2012-01-31,0,0.0,0.0,-0.005967486798185269,0.00632842218689641,0.9916795424814996
2012-02-02,1,0.0004642471154920888,0.0004812994890904856,-0.00709228297815975,0.004781450788296714,0.9914432268075045
2012-02-06,1,0.0008049296035629427,0.0008624496093710078,-0.005214516447205208,0.004564326037036742,0.9933337044152996
2012-02-08,1,0.0008803644805670593,0.0009546950809614809,-0.005214516447205208,0.005900204232381904,0.9917312391637931
2012-02-10,1,0.0006208027724285834,0.0006731851510775548,-0.0006182165994183505,0.009108568236521996,0.9921232392998067
2012-02-14,1,0.00021504681619144238,0.00025386451906606944,-0.0006182165994183505,0.009108568236521996,0.9918173290003699
2012-02-16,1,6.867762116913786e-05,0.0001214212679012929,0.0010150651510115304,0.009108568236521996,0.9921375938116185
2012-02-21,1,0.00019996083259658513,0.00021092899045568444,0.0008213919303430692,0.007320643614977309,0.9936190757637406
2012-02-23,0,-1.524656830940497e-05,4.898522046050313e-05,1.552806717263134e-05,0.007320643614977309,0.9933209543816871
2012-02-27,-1,-0.0005022043841165979,-0.0003355077539043609,1.552806717263134e-05,0.007320643614977309,0.9929484343096886
2012-02-29,-1,-0.00018367563510100624,-6.391920303911363e-05,-0.0011420650747635522,0.007128850537875603,0.9934593202572142
2012-03-02,-1,-0.0007187949592870678,-0.0005382252423210498,-0.0011420650747635522,0.007128850537875603,0.9938718981916249
2012-03-06,-1,-0.00013208608617118028,-4.761404198677809e-05,-0.0014675734900336762,0.008296805598105403,0.9935420732736843
2012-03-08,1,0.0005612665899562027,0.0005711254308055157,-0.002108514640812334,0.005188017350193392,0.9951503521990188
2012-03-12,1,0.0004585565720392593,0.000478320699393684,-0.004478360576278989,0.0029029003339060356,0.9950143183634258
2012-03-14,1,0.0004722889639876042,0.0004979791609223581,-0.004478360576278989,0.005513404677902757,0.9928723442278583
2012-03-16,0,0.0,0.0,-0.006651768575955657,0.005513404677902757,0.9921976128906539
2012-03-20,0,0.0,0.0,-0.006651768575955657,0.00864228212147286,0.9915040158635959
2012-03-22,0,0.0,0.0,-0.006761897998767076,0.00864228212147286,0.9914464923363424
2012-03-26,0,0.0,0.0,-0.006761897998767076,0.0055870373851753035,0.9918869491576136
2012-03-28,0,0.0,0.0,-0.006761897998767076,0.004674079632626626,0.9920826141320999
2012-03-30,0,0.0,0.0,-0.005844428419990427,0.004484305654706526,0.9924538766973762
2012-04-03,1,0.0015366278187895683,0.0018322795594088055,-0.006761897998767076,0.004064534409174431,0.9920033853332888
2012-04-05,1,0.0013837962995284843,0.001670403981869084,-0.006761897998767076,0.00446183963437095,0.9918203617409996
2012-04-10,1,0.0010195808892941283,0.0012551850166592983,-0.004666014552772242,0.00446183963437095,0.9924953843892231
2012-04-12,1,0.0013893236076416029,0.0016487236168872743,-0.004666014552772242,0.0037187659226610653,0.9945876895982588
2012-04-16,1,0.0009575946862240327,0.0011410910323969533,-0.003551466069045917,0.004064534409174431,0.9949711671936893
2012-04-18,1,0.001048709590099449,0.0012061200931078007,-0.0044499124372179896,0.0037187659226610653,0.9955178394614217
2012-04-20,1,0.000643836597280557,0.0007217254683593875,-0.006168113316198497,0.003006007609208571,0.9952376237571913
2012-04-24,1,0.0010188525709561912,0.0011796057080909015,-0.006168113316198497,0.0022055034909561418,0.9952985863362014
2012-04-26,1,0.0011952136009294196,0.0014147119745369107,-0.0064153193280782434,0.0022055034909561418,0.9949795402490357
2012-04-30,1,0.0010797188347654117,0.0012752840880426047,-0.0064153193280782434,0.0022055034909561418,0.9948967395131783
2012-05-02,1,0.0008912516163390091,0.0010649374775701416,-0.0064153193280782434,0.003102461415610115,0.9951532582908234
2012-05-04,1,0.00046341511673754705,0.0005464526983786445,-0.006357254043599201,0.003102461415610115,0.9953303077069048
2012-05-08,0,0.0,0.0,-0.006357254043599201,0.004029579559636634,0.9950186279738787
2012-05-10,0,0.0,0.0,-0.006357254043599201,0.004255945246866011,0.9947591592293334
2012-05-14,1,0.00036743967887942116,0.0004445991073992844,-0.006168113316198497,0.004599745255191809,0.994689407174425
2012-05-16,1,0.00024593306608385306,0.0003199841337847624,-0.0051816354095790985,0.006468880839376592,0.9943405140628692
2012-05-18,-1,-0.0009925617230949315,-0.0008625160657658074,-0.0023933991335912857,0.00756604156249394,0.9938862139233021
2012-05-22,-1,-0.0008668157697501283,-0.0006347073244179685,-0.004279450423677908,0.008126688897615553,0.9933327355830124
2012-05-24,-1,-0.0013729877495232774,-0.001177099013146299,-0.004279450423677908,0.008126688897615553,0.9932008406681415
2012-05-29,0,0.0,0.0,-0.005182761624825361,0.00849921856927265,0.9930545066853258
2012-05-31,0,0.0,0.0,-0.004279450423677908,0.009004209674216865,0.9928708402115649
2012-06-04,0,0.0,0.0,-0.002034578601973748,0.009589360776476565,0.9926186083398342
2012-06-06,0,0.0,0.0,-0.004279450423677908,0.009589360776476565,0.992161728828237
2012-06-08,0,0.0,0.0,-0.005182761624825361,0.009589360776476565,0.9919909172994973
2012-06-12,-1,-0.0005634175398328995,-0.0003774007909647111,-0.006256510083821921,0.009274332869919957,0.9921545462598228
2012-06-14,-1,-0.000643487232513831,-0.0004404913506998706,-0.006256510083821921,0.009274332869919957,0.992112528827885
2012-06-18,1,0.0003329899735651807,0.0003881170963341103,-0.006256510083821921,0.00849921856927265,0.9925829822103697
2012-06-20,1,3.924694598400841e-05,0.0001236606179612744,-0.004908821933462628,0.00727583185563173,0.9928025488659205
2012-06-22,1,0.000412997806998489,0.00045995017795013703,-0.006723650260242879,0.00727583185563173,0.9920890392749288
2012-06-26,1,0.0005238509975613633,0.0005471364799009389,-0.007314629126845641,0.005603929769465742,0.9922172804720504
2012-06-28,0,0.0,0.0,-0.007314629126845641,0.004559309376082354,0.9924424181414491
2012-07-02,0,0.0,0.0,-0.009762053011553433,0.003480832794945047,0.9927397531295483
2012-07-05,1,0.0012465023232609888,0.0012498499148014138,-0.010837616556245492,0.001465747743107113,0.9914338751453557
2012-07-09,1,0.0007035368443585466,0.0007505238515175341,-0.009915208028890385,0.0013481586999610643,0.9922162929584483
2012-07-11,0,0.0,0.0,-0.009915208028890385,0.0013481586999610643,0.992501694337911
2012-07-13,0,0.0,0.0,-0.009915208028890385,0.0025532058238775857,0.9927967972562887
2012-07-17,0,0.0,0.0,-0.009915208028890385,0.0012842177271820882,0.9936598666221047
2012-07-19,0,0.0,0.0,-0.009915208028890385,0.00047326223572647893,0.9939620604935453
2012-07-23,1,0.000442098727259327,0.0004696352847131951,-0.0070514890809651384,0.0005677836562468755,0.9937997087456376
2012-07-25,-1,-0.00020113163623035465,-1.1959411528756573e-05,-0.004807849605005746,0.0012112955793455319,0.9943258269302685
2012-07-27,-1,-0.0010398836784001513,-0.0008153069637664352,-0.002724677115303681,0.0025532058238775857,0.9942386095329597
2012-07-31,-1,-0.0006721784952546999,-0.0005475082073985435,-0.0017321897136016295,0.0027833252136535403,0.9945379672960778
2012-08-02,-1,-0.0015552626049721257,-0.0013462644057298946,-0.0014120751220516171,0.002972492471227968,0.9951777740416344
2012-08-06,-1,-0.001192204840851235,-0.001043315760828268,-0.0012667340523126367,0.0032604590791251013,0.9951732696315084
2012-08-08,-1,-0.0007767899474681748,-0.0006816953929672253,-0.0012667340523126367,0.0037387967208006674,0.9944406354740895
2012-08-10,-1,-0.0004898856584243876,-0.00042153086955924875,-0.002724677115303681,0.0032604590791251013,0.9941230295768756
2012-08-14,-1,-0.0009096001416066166,-0.0007711888022695968,-0.004455127567262213,0.0032604590791251013,0.9938608253875391
2012-08-16,-1,-0.0006015381558983985,-0.0005276617502215779,-0.004939019151956855,0.0037387967208006674,0.9931240672241234
2012-08-20,-1,-0.001094864796664525,-0.0009729837073076306,-0.004939019151956855,0.004091104020440099,0.9936905800988868
2012-08-22,-1,-0.0018561096942378709,-0.0015973703034571156,-0.006554543117616849,0.005405800531365067,0.9926916731953053
2012-08-24,-1,-0.00039731061278235297,-0.00034740027290369854,-0.006554543117616849,0.004890488569995906,0.9929399648316953
2012-08-28,-1,-0.0005662447817222761,-0.0005038654057926631,-0.006554543117616849,0.006217159315572692,0.9927157639197685
2012-08-30,-1,-0.0013041753079934988,-0.0011278853213422034,-0.007332004973225626,0.006217159315572692,0.9925424260186807
2012-09-04,-1,-0.0006771933081785842,-0.0006136591417021705,-0.007332004973225626,0.006217159315572692,0.9924818784869098
2012-09-06,-1,-0.000231874780959088,-0.00019595779282237806,-0.007332004973225626,0.006217159315572692,0.9917561469765035
2012-09-10,0,0.0,0.0,-0.004901543075976638,0.006217159315572692,0.992215611550536
2012-09-12,0,0.0,0.0,-0.006512655275888385,0.007622986962612289,0.9918012012821348
2012-09-14,-1,-0.0006468741817615767,-0.0005928103974690985,-0.005160697027846229,0.006217159315572692,0.99237276762444
2012-09-18,-1,-0.0007284304575027753,-0.0006678898288772933,-0.003962873157098014,0.008222819212244707,0.991196920920481
2012-09-20,-1,-0.0009437445660603304,-0.0008619190413887965,-0.003962873157098014,0.007622986962612289,0.9917272823517027
2012-09-24,-1,-0.0009528070998727426,-0.000852540955735043,-0.005160697027846229,0.007622986962612289,0.9913796616965814
2012-09-26,-1,-0.000781399145821616,-0.0006855304090509487,-0.0077213373543255585,0.00626011993521715,0.9913518449837628
2012-09-28,0,0.0,0.0,-0.004894634598382454,0.008402590848115303,0.9899401541636248
2012-10-02,0,0.0,0.0,-0.004894634598382454,0.010488266492255947,0.9892190252469873
2012-10-04,1,0.00023028688733637014,0.00025854184873522646,-0.006923150065934231,0.007933295081399887,0.9905009320847442
2012-10-08,-1,-0.00018193875879845967,-0.0001486940885328047,-0.006923150065934231,0.009294560340432315,0.9901645331635623
2012-10-10,-1,-0.000614901947176622,-0.000500128464160293,-0.007728601920485906,0.009149753291345326,0.989648667989713
2012-10-12,-1,-0.0005966919002111053,-0.0004787847378523723,-0.007728601920485906,0.009149753291345326,0.9894320415598342
2012-10-16,1,0.0005948077765057882,0.0006102940549881662,-0.010862380503521249,0.005696907599209714,0.9901432466792925
2012-10-18,0,0.0,0.0,-0.010403515014670859,0.007266728570762621,0.9901091004447665
2012-10-22,0,0.0,0.0,-0.007270218993647732,0.007967213914272549,0.9904704020227411
2012-10-24,0,0.0,0.0,-0.00593965977810566,0.008263662799318554,0.9903914753665658
2012-10-26,0,0.0,0.0,-0.006547572947488774,0.007967213914272549,0.9921642295818843
2012-11-01,0,0.0,0.0,-0.006547572947488774,0.008045816146671858,0.9924365756214844
2012-11-05,0,0.0,0.0,-0.0033978419620359383,0.008045816146671858,0.9930095180565479
2012-11-07,0,0.0,0.0,-0.0033978419620359383,0.007296112233310448,0.9934346684287939
2012-11-09,0,0.0,0.0,-0.0024104970255174685,0.007296112233310448,0.9942698777555895
2012-11-13,0,0.0,0.0,-0.0018584405930068396,0.008045816146671858,0.9937052473460101
2012-11-15,0,0.0,0.0,-0.001126533145895594,0.008045816146671858,0.9942519688852813
2012-11-19,0,0.0,0.0,-0.001126533145895594,0.008045816146671858,0.9943196477660586
2012-11-21,0,0.0,0.0,-0.001126533145895594,0.008045816146671858,0.993473747086054
2012-11-26,0,0.0,0.0,-0.0014240770192009515,0.006433866909455358,0.9934622191591068
2012-11-28,0,0.0,0.0,-0.0017359784080578297,0.006433866909455358,0.9934086220064444
2012-11-30,1,0.0019196612162086164,0.002262959951534779,-0.0024434456288650558,0.005563035892113918,0.9936783657743974
2012-12-04,1,0.001810336099791073,0.0021273956365187975,-0.0024434456288650558,0.007459882853881286,0.9931394250835069
2012-12-06,1,0.002234223394880522,0.002637942657555805,-0.0024434456288650558,0.010317831471299173,0.9930081709992464
2012-12-10,1,0.002812969298041355,0.0033217055749242227,-0.0024434456288650558,0.010317831471299173,0.9931215358453853
2012-12-12,1,0.003297912835780028,0.003867846073586806,-0.004511976214266989,0.008434399345247283,0.9936365962182336
2012-12-14,1,0.0032231311692686015,0.0037300957456867442,-0.004511976214266989,0.009385380374048291,0.9934461771438347
2012-12-18,1,0.003461003315251219,0.00397576334018719,-0.004511976214266989,0.00824033540823442,0.9932707282109914
2012-12-20,0,0.0,0.0,-0.003137682658718664,0.00824033540823442,0.9933989165197997
2012-12-24,0,0.0,0.0,-0.0019836405303351465,0.010366889979612744,0.9929608159282566
2012-12-27,0,0.0,0.0,-0.00013587078137429162,0.010366889979612744,0.9928214431543072
2012-12-31,0,0.0,0.0,-0.00013587078137429162,0.01011350142880915,0.9927306030857502
2013-01-03,0,0.0,0.0,-0.0030855982121035224,0.009401733210152814,0.9924803203976669
2013-01-07,0,0.0,0.0,-0.004407857277626933,0.00824033540823442,0.9924486890764949
2013-01-09,0,0.0,0.0,-0.004407857277626933,0.00824033540823442,0.9925274086238142
2013-01-11,1,0.002204981653206575,0.002498052060989977,-0.0030855982121035224,0.00824033540823442,0.9932003013254135
2013-01-15,1,0.002082311765612805,0.0023133818718045155,-0.0030855982121035224,0.008474084758045786,0.9929963092805929
2013-01-17,1,0.002060014557245469,0.0022744761210623868,-0.0068995357466552585,0.0080178368014845,0.9925778239787921
2013-01-22,1,0.0024464681158509983,0.002735583720832795,-0.0068995357466552585,0.006410552454386669,0.9927340747610078
2013-01-24,1,0.0031404554024923852,0.0035232431565208906,-0.0068995357466552585,0.004790043679260988,0.9927744964223415
2013-01-28,1,0.002545801312215313,0.0028247782818904207,-0.0068995357466552585,0.006410552454386669,0.9919704503105152
2013-01-30,1,0.0026555705702280847,0.0029505071419806375,-0.00609224851456865,0.006410552454386669,0.9921713938786805
2013-02-01,1,0.0020369343022631162,0.002289888371900382,-0.0047961665518111915,0.00758353259753449,0.9929950011936947
2013-02-05,1,0.0011928031112747367,0.0012877859456990068,-0.0030580488044658206,0.0086022868436035,0.9930230550914387
2013-02-07,1,0.0012410213578764515,0.0013180761334380612,-0.0030580488044658206,0.009922337101463376,0.9926520127236759
2013-02-11,1,0.0013101420394085815,0.001399539346203534,-0.0029765885582350134,0.009922337101463376,0.9929295980001813
2013-02-13,1,0.0015348866336026396,0.0016376668048072526,-0.0029765885582350134,0.0086022868436035,0.9930564206530594
2013-02-15,1,0.0006043237042406137,0.000642805260082454,-0.0029765885582350134,0.0086022868436035,0.9929708598905597
2013-02-20,1,0.0005326430195949825,0.000596535964630299,-0.0033441513523765516,0.0086022868436035,0.9920114433603398
2013-02-22,1,0.0006409081855771672,0.0006863486217758372,-0.002686826907789342,0.009772087522547416,0.9920140001447191
2013-02-26,1,0.00014624604336211663,0.0002957229750498691,-0.0024950670668521897,0.007516872114227144,0.9933910348393505
2013-02-28,1,0.0007055470650012305,0.0007891744025633757,-0.0024950670668521897,0.005933614660341096,0.994189217607641
2013-03-04,1,0.0015765325978041123,0.0016745609113680492,-0.0024950670668521897,0.005292720276639879,0.9945858462572741
2013-03-06,1,0.0015059308787825423,0.0015725628032230387,-0.0026942776330755123,0.004315808944741102,0.9945687174075534
2013-03-08,1,0.0016414590207013836,0.001716793646587696,-0.004013541917513829,0.003166587899218331,0.9946484945059709
2013-03-12,1,0.0016538186725745395,0.001729752675233445,-0.004013541917513829,0.003457493417005836,0.9944807829630948
2013-03-14,1,0.0024405180166649147,0.002683213588353689,-0.0044571143543660555,0.002600669359559161,0.9938396440353756
2013-03-18,1,0.001625522303570718,0.0017297893205493473,-0.003417414634837711,0.003457493417005836,0.993901623463379
2013-03-20,0,0.0,0.0,-0.004762266192197387,0.003457493417005836,0.9942455205787462
2013-03-22,0,0.0,0.0,-0.004762266192197387,0.003457493417005836,0.9944811717286592
2013-03-26,0,0.0,0.0,-0.004762266192197387,0.005272083835686157,0.9942863601142521
2013-03-28,1,0.0014335619034663292,0.0014656767414471914,-0.008012107401133775,0.005272083835686157,0.9929746838305822
2013-04-02,1,0.0011289772872852787,0.0011664721595232384,-0.008012107401133775,0.00597770585535114,0.9926460372799679
2013-04-04,1,0.001076865690856082,0.0010983724319392298,-0.007915126201707787,0.0073796603049665795,0.9923152925012291
2013-04-08,1,0.00014436373614086365,0.0003090019531322619,-0.004729939125722058,0.0073796603049665795,0.9926166058070872
2013-04-10,1,0.000237589073103623,0.0003938782729847096,-0.004729939125722058,0.007582143494011826,0.9894086233218717
2013-04-12,0,0.0,0.0,-0.004943785123180928,0.0073796603049665795,0.9897320151694956
2013-04-16,0,0.0,0.0,-0.004584129409422705,0.006722063554951892,0.9902565714435174
2013-04-18,0,0.0,0.0,-0.0032327476467877967,0.0073796603049665795,0.9904860897730864
2013-04-22,0,0.0,0.0,-0.0032327476467877967,0.00968262273249464,0.9898568802438336
2013-04-24,0,0.0,0.0,-0.004584129409422705,0.00968262273249464,0.9897959334914429
2013-04-26,0,0.0,0.0,-0.0024547713783510273,0.00968262273249464,0.9909746686518844
2013-04-30,1,0.0006118471332274173,0.0006141100112299661,-0.004584129409422705,0.007303223095910577,0.9905346961596624
2013-05-02,0,0.0,0.0,-0.0062087166803048485,0.005366675176416384,0.9906194347828066
2013-05-06,0,0.0,0.0,-0.0071709883228561425,0.004583374484933956,0.9903102550163525
2013-05-08,1,0.0019409308198367185,0.0020717324061099796,-0.0071709883228561425,0.0035909111929804715,0.992951778409177
2013-05-10,1,0.0017416073565621384,0.001860046315025622,-0.0071709883228561425,0.005273502821271756,0.9924881256161797
2013-05-14,1,0.0017071887318782163,0.0018402724975288471,-0.007779236805063594,0.005273502821271756,0.9916930886615828
2013-05-16,1,0.001561054422927697,0.00166236386563392,-0.007779236805063594,0.005273502821271756,0.9917232151397765
2013-05-20,1,0.0018143361401053771,0.0019132036431877093,-0.007779236805063594,0.003444627116969215,0.9925287588470472
2013-05-22,1,0.0012765436468737943,0.0012781087139369669,-0.008742372597711124,0.00253992670190772,0.9913980350660233
2013-05-24,1,0.0012287075790037524,0.00123311197108984,-0.008742372597711124,0.004144522256900187,0.9914211951716754
2013-05-29,1,0.000622039016057361,0.0006675655794372128,-0.007553120117257669,0.005044529799356946,0.9902660075163205
2013-05-31,1,0.0004988905582347665,0.0005501361225399073,-0.007553120117257669,0.004205230414780214,0.9904698539187287
2013-06-04,1,0.0001859967110754555,0.0002601829583874163,-0.007553120117257669,0.0054556272949118365,0.989646847442311
2013-06-06,0,-3.7539564743396044e-05,6.792413543506152e-05,-0.007553120117257669,0.007027954491642863,0.9893409863656432
2013-06-10,0,0.0,0.0,-0.007553120117257669,0.004205230414780214,0.990411571092045
2013-06-12,0,0.0,0.0,-0.0013102484153301635,0.008110191587025476,0.9906123506260235
2013-06-14,0,0.0,0.0,-0.0013102484153301635,0.007396231102628438,0.9910737935954841
2013-06-18,0,0.0,0.0,-0.006419923703280439,0.007396231102628438,0.9906188531766006
2013-06-20,0,0.0,0.0,-0.0003124668903152444,0.007396231102628438,0.9920235640625436
2013-06-24,0,0.0,0.0,-0.002449379503522319,0.007396231102628438,0.9921407671967997
2013-06-26,0,0.0,0.0,-0.0010761219147932886,0.004501454674990522,0.994481648669567
2013-06-28,0,0.0,0.0,-0.0010761219147932886,0.007396231102628438,0.9920386716274756
2013-07-02,1,0.00014329643724754482,0.00020781273027728193,-0.002449379503522319,0.004501454674990522,0.993083988022626
2013-07-05,1,0.0006071945262373703,0.0006172511889849477,-0.002449379503522319,0.004400599685676265,0.9933733476238259
2013-07-09,1,0.0006730183681545317,0.0006866596541252996,-0.002449379503522319,0.004400599685676265,0.9934136356049861
2013-07-11,1,0.0008796781645491289,0.0008911011159058806,-0.0037544843348366547,0.003490228063605215,0.9935565993814403
2013-07-15,1,0.0010790555501788447,0.0011155897222065738,-0.0042229908573453165,0.001795718782755798,0.9932347391032813
2013-07-17,1,0.0006861202071036602,0.0006963628766779466,-0.0037544843348366547,0.0030481888137462113,0.9936718662159308
2013-07-19,1,0.0008249221476317861,0.0008348658260117468,-0.0042229908573453165,0.0014793669333804905,0.9931108366385835
2013-07-23,1,0.0007592196969121228,0.000783203584656157,-0.0042229908573453165,0.003522023908161605,0.9929941938403836
2013-07-25,1,0.0009977018324502252,0.0010694520321553444,-0.0042229908573453165,0.005809852981268687,0.9925216022150275
2013-07-29,1,0.002015981468876981,0.002226439262012384,-0.004072355994626718,0.002031462012108269,0.9946309695471584
2013-07-31,1,0.0017737940424863569,0.0019673787240817257,-0.0036645224084170805,0.0035353304223170977,0.9947485270876415
2013-08-02,1,0.0019432592318989145,0.002157430546320633,-0.0036645224084170805,0.002914680284004686,0.9948572966658288
2013-08-06,1,0.002092094595016698,0.002344744115336053,-0.0036645224084170805,0.004301542091661342,0.9945561645417509
2013-08-08,1,0.001979462425149783,0.0021942540055957882,-0.0032912194731345226,0.004219423545521279,0.9950164425995214
2013-08-12,1,0.0011445959436150784,0.0012052581867028325,-0.0019675795049087204,0.005465416088891258,0.9950376350391725
2013-08-14,1,0.0013749888816271027,0.0014787404666289574,-0.0019675795049087204,0.006922487900291554,0.994482483401573
2013-08-16,1,0.0009095867371174654,0.0009408222137576171,-0.0006743158603815675,0.007115197263090584,0.9947407693003079
2013-08-20,1,0.001065860431569054,0.001120343417161357,6.109218076759629e-05,0.007383785756051604,0.9946359274727442
2013-08-22,1,0.001098662508982962,0.0011546571827494119,6.109218076759629e-05,0.007383785756051604,0.9947369919005412
2013-08-26,1,0.0007240658716375965,0.000728713926593327,-0.0006743158603815675,0.007383785756051604,0.9935328001531031
2013-08-28,1,0.00025916532214357495,0.0003317771359495969,-0.0003554064503076595,0.007383785756051604,0.9939171452880783
2013-08-30,1,0.00022613732183914397,0.00030001036048569525,-0.0003554064503076595,0.007383785756051604,0.9934077266251164
2013-09-04,1,0.0006374699271983285,0.0006583020878211844,-0.0017672293202945174,0.007383785756051604,0.9925162393519246
2013-09-06,1,0.0005847330262549919,0.000614189032619837,-0.006047999939685454,0.008797960956825453,0.9915393376962223
2013-09-10,1,0.0005579617088519842,0.0006276641516835023,-0.007408152261316019,0.008797960956825453,0.9900473262462053
2013-09-12,1,0.0008164830758354498,0.0008283799864807015,-0.007408152261316019,0.008797960956825453,0.989314186180652
2013-09-16,1,0.0010853174272104729,0.001116906363402607,-0.007408152261316019,0.007467597326951072,0.9895175218365466
2013-09-18,1,0.0008338765279639161,0.0008761582938876954,-0.007408152261316019,0.009401085333048094,0.9888350946578867
2013-09-20,1,0.0008116211087676177,0.0008345936507132663,-0.007544284532687815,0.015251785412736647,0.9880744785879053
2013-09-24,1,0.00023631417931452758,0.0003170048502812206,-0.005845588407766127,0.015251785412736647,0.9888562721805096
2013-09-26,1,0.0005004249396350661,0.0005827465387760638,-0.005845588407766127,0.018459981341743745,0.9864816490048333
2013-09-30,1,0.0010238034689549018,0.0011334589259853402,-0.005845588407766127,0.021714716584968444,0.9851405145428443
2013-10-02,1,0.0011368303030992032,0.0012444223874810195,-0.003613838834444956,0.018459981341743745,0.9859706704923864
2013-10-04,1,0.0012999097851439584,0.0014251436947237206,-0.0021061000503157243,0.02001824947559798,0.98631256327083
2013-10-08,1,0.0010081165678926802,0.0010905693855709046,-0.0021061000503157243,0.017630022964276727,0.9882298288137275
2013-10-10,1,0.0021740224392095553,0.002433502861393309,-0.003532114898699989,0.015038343031071901,0.9892729064619485
2013-10-14,1,0.002093926404650651,0.0023270425547652586,-0.003532114898699989,0.01511752177624193,0.98872335262586
2013-10-16,1,0.0023130651746574495,0.0025800354463867696,-0.003532114898699989,0.014445130999376799,0.989431129497106
2013-10-18,1,0.001892476026745074,0.002069895171430371,-0.0015749420318713547,0.01108883598776073,0.9901368862680722
2013-10-22,1,0.0019152173164377329,0.0020754319349427365,-0.0020671652016334627,0.01108883598776073,0.9901107781968126
2013-10-24,1,0.0022598547327167314,0.0024521286487452798,-0.005044207314907418,0.01108883598776073,0.991543183155925
2013-10-28,1,0.0029205567207113642,0.003187971334244751,-0.0020671652016334627,0.01108883598776073,0.9926006165296946
2013-10-30,1,0.0033097275976965634,0.003647296233543219,-0.004840030465502994,0.009499543868970612,0.9927502722182601
2013-11-01,1,0.0033268439995567836,0.003623164662048795,-0.005044207314907418,0.0075857931917853606,0.9930164167675719
2013-11-05,1,0.003272486490212301,0.0035839450415016067,-0.0054518981621068715,0.0075857931917853606,0.9926184219985382
2013-11-07,1,0.00269631542182171,0.0029271734010083974,-0.0054518981621068715,0.009499543868970612,0.9921549830800171
2013-11-11,1,0.00245688883714201,0.0026002742895594277,-0.006491035131352217,0.0075857931917853606,0.9916438696874719
2013-11-13,1,0.0023509801829058067,0.0024993043976003406,-0.007654321218945188,0.0075857931917853606,0.990994020163675
2013-11-15,1,0.002538398685364901,0.002754576540424752,-0.007654321218945188,0.004811504172550225,0.9912391193959814
2013-11-19,1,0.002105223839214379,0.0022397309810281638,-0.007010304747865503,0.0075857931917853606,0.9909875766069111
2013-11-21,1,0.0020533192891327937,0.0021737626712915923,-0.007010304747865503,0.006321855104639622,0.9916051671152061
2013-11-25,1,0.0024635575908354542,0.002655443934455658,-0.007010304747865503,0.004478854868996515,0.9919729669474968
2013-11-27,1,0.0024098782778872625,0.002577815573382506,-0.007010304747865503,0.004478854868996515,0.9921114518539695
2013-12-02,1,0.002255764782198839,0.002422459511501221,-0.006832299202917503,0.004730450990209796,0.9923480277019257
2013-12-04,1,0.001922144502241335,0.0020515301226074396,-0.007029066351955388,0.004730450990209796,0.9926649789002449
2013-12-06,1,0.0017564023159338873,0.00184676013871236,-0.0038029087072990048,0.004730450990209796,0.9937697981186863
2013-12-10,1,0.0015910639832577564,0.0016211466889504884,-0.002749356596005934,0.006288389137467349,0.9909334066205758
2013-12-12,1,0.0007106952552641527,0.0007864310544218021,-0.002495708114408874,0.006288389137467349,0.9896508641002002
2013-12-16,1,0.00082816291522577,0.0008971312209185861,-0.002495708114408874,0.006288389137467349,0.989684989951799
2013-12-18,1,0.0017279991660168845,0.0018182405196174786,-0.0026408770623616777,0.005965810665985921,0.9901366790424164
2013-12-20,1,0.0013770075709257017,0.0013955621799645267,-0.0024651920379228586,0.006743975456073729,0.9902316992885679
2013-12-24,1,0.001244953831796238,0.0012465596130386738,-0.001955268868812364,0.0075161740318185,0.9896799583182913
2013-12-27,1,0.0011368167101690493,0.0011501611453844827,-0.0020036585181299653,0.00832317536602414,0.9892662698437104
2013-12-31,1,0.0011398854753849443,0.0011485899435198957,-0.002657808366547888,0.010642646896399028,0.987902107553081
2014-01-03,1,0.0005410538230606673,0.0006396001840868121,-0.0031650528537411774,0.010642646896399028,0.986590763464822
2014-01-07,1,0.00063669506237902,0.0007281242600879303,-0.005910333951737264,0.009169195667931548,0.9864688417312601
2014-01-09,1,0.0019847957393070953,0.0020326475370286714,-0.005910333951737264,0.009169195667931548,0.9886067896618428
2014-01-13,1,0.0002896911310324353,0.000445105309161908,-0.005910333951737264,0.013184712889725989,0.9897184674426307
2014-01-15,1,0.0007684302657090124,0.0008704254856668494,-0.005910333951737264,0.013184712889725989,0.9896465085547066
2014-01-17,1,0.0005031478040676841,0.00065307063792364,-0.005910333951737264,0.013184712889725989,0.989594287248715
2014-01-22,1,0.00042473485678530315,0.0005972460937254342,-0.005910333951737264,0.013184712889725989,0.9899320007503123
2014-01-24,1,0.00043818429171602643,0.0006160130281930439,-0.007475521848454472,0.011324745111173727,0.9906411004055956
2014-01-28,1,0.0009089323426392671,0.0010238742554388059,-0.009600535390667634,0.00576312417747028,0.9907239715604238
2014-01-30,1,0.0009429726580615884,0.0010587383447761781,-0.007475521848454472,0.00576312417747028,0.9915543740130802
2014-02-03,0,-0.00013363885662211433,8.738260090777905e-05,-0.005041666242178732,0.011328750198778463,0.9919503263009024
2014-02-05,0,-0.00014181538961644338,6.916929405453723e-05,-0.000929113253957058,0.011328750198778463,0.9921430018341985
2014-02-07,1,0.0006972548845693879,0.0008069775127486065,-0.002913944764741416,0.004690588794824188,0.9933034833425767
2014-02-11,1,0.0006994571383275613,0.0007963282052217799,-0.001240072588540806,0.00656663494899929,0.9937913706375298
2014-02-13,1,0.00044084136829026843,0.0005832369385473045,-0.002913944764741416,0.00656663494899929,0.9932318392886591
2014-02-18,0,-2.728600649431394e-05,0.00020630859134442893,-0.002913944764741416,0.0065297500686932845,0.9932364453496104
2014-02-20,0,-0.00010100056099102085,0.00013805348521169056,-0.005955797873346569,0.006908037104258597,0.9920408805346669
2014-02-24,-1,-0.0005619352230868141,-0.00025573813567000023,-0.007763277728602794,0.006908037104258597,0.9902908408616008
2014-02-26,-1,-0.0008703860654308826,-0.0005314700141347408,-0.007763277728602794,0.006908037104258597,0.9899782585283589
2014-02-28,-1,-0.0004293562112347325,-0.00014707524750181677,-0.007763277728602794,0.006908037104258597,0.9899178643809119
2014-03-04,0,-0.00016242744813956976,0.00014893417568418398,-0.007763277728602794,0.006634598427998333,0.9910636802400952
2014-03-06,1,0.0005597474358756883,0.0007273287183998918,-0.010657425378101895,0.006634598427998333,0.990635719212437
2014-03-10,0,-0.00010258852360447502,0.00014814855077094683,-0.01504360262724816,0.006634598427998333,0.989662784645667
2014-03-12,1,0.0006143259059979966,0.0007724248812352185,-0.01504360262724816,0.006587569964543421,0.9887104396371125
2014-03-14,-1,-0.00038137734388345894,-9.30755284398756e-05,-0.016596613539893265,0.006587569964543421,0.9874333517436382
2014-03-18,1,0.0001670578175626894,0.00038132902389154176,-0.016596613539893265,0.006587569964543421,0.9868133691527182
2014-03-20,1,0.0012315147617663004,0.0012790780593110245,-0.016596613539893265,0.006587569964543421,0.9870586194425994
2014-03-24,0,-0.00010785140322496954,5.519725290970858e-05,-0.012260703284500747,0.006587569964543421,0.988897358473839
2014-03-26,-1,-0.0006195637433748701,-0.00042026904545789355,-0.006988583384799039,0.006587569964543421,0.989833870813724
2014-03-28,1,0.000548332906031924,0.0005672689474650769,-0.012362728892419468,0.005962447353342396,0.9895795950181034
2014-04-01,1,7.447731625218035e-05,0.00017235199583257483,-0.012362728892419468,0.005846359608731462,0.9896777903350935
2014-04-03,-1,-0.0008790334697394787,-0.000640079635884999,-0.009134072350093463,0.005846359608731462,0.9898412348916952
2014-04-07,-1,-0.0018888454605589635,-0.001560386819861459,-0.00615731289650871,0.006239306730710617,0.9904522705971058
2014-04-09,-1,-0.00037989959892818044,-0.00021677511147615404,-0.00615731289650871,0.0056960592605846475,0.9918248041294263
2014-04-11,-1,-0.002194753169559232,-0.0018402282544707203,-0.003269239309499042,0.0070787997463415365,0.9917807909808299
2014-04-15,-1,-0.0015303659770565918,-0.0012419904660532733,-0.005606493681620921,0.0070787997463415365,0.9909729472763562
2014-04-17,-1,-0.000731381826402847,-0.0005566454918696526,-0.005606493681620921,0.0057777381190863295,0.9914420744086756
2014-04-22,-1,-0.0005119305618979889,-0.00040066334841999684,-0.004949672990579169,0.007113323293717082,0.9910319638240841
2014-04-24,-1,-0.000657432169558039,-0.0005268784847240198,-0.004949672990579169,0.011099321829589812,0.9900726274762206
2014-04-28,-1,-0.0013326828571953763,-0.0011091839872863047,-0.003813742353783146,0.011099321829589812,0.9906588490265639
2014-04-30,-1,-0.0012023533813404256,-0.0009771301819212577,-0.0038208051309040043,0.015117196064846435,0.989560747507475
2014-05-02,-1,-0.00178595374621305,-0.00149614850899031,-0.00277185209468572,0.015117196064846435,0.9895123933289058
2014-05-06,-1,-0.002241419946589351,-0.0018649624262160802,-0.00277185209468572,0.015117196064846435,0.9895163111236238
2014-05-08,-1,-0.0027320863269790323,-0.0022587309288018163,-0.0035376496283573613,0.015117196064846435,0.9892972139384429
2014-05-12,-1,-0.001061606751514491,-0.000787712491788128,-0.004922907787224826,0.006626228395109392,0.9912833767547204
2014-05-14,0,-2.311564768134463e-05,9.152660949642976e-05,-0.004922907787224826,0.006370569121957903,0.9919781714302436
2014-05-16,0,-2.973332005713151e-06,0.00011000822172863153,-0.004922907787224826,0.006370569121957903,0.9921324829918505
2014-05-20,-1,-0.0002032837322525745,-4.4322254166478784e-05,-0.004137043280005685,0.006370569121957903,0.992328166171229
2014-05-22,1,0.0005231517250589679,0.0005952669497092833,-0.004137043280005685,0.0038148417522305485,0.9932606387906779
2014-05-27,1,0.0004015457470079224,0.0004857600583184994,-0.005781324231527259,0.004289300848075242,0.9927657865685553
2014-05-29,1,0.0014750106503697384,0.0015125806366264227,-0.005781324231527259,0.00438089148395348,0.9934737155951014
2014-06-02,1,0.001351983657630697,0.001373339590069915,-0.006795597614921271,0.004065528439717828,0.9927968836745176
2014-06-04,1,0.002577900606256763,0.0029115920831440465,-0.005781324231527259,0.004065528439717828,0.9927654267062875
2014-06-06,1,0.0013932704205019734,0.001459461992751663,-0.004173986284177722,0.004065528439717828,0.993051756506167
2014-06-10,1,0.0009052954388352652,0.0009238405348732195,-0.002439787265983557,0.005424479989250946,0.99311063270434
2014-06-12,1,0.00034196001979144635,0.0003871115497370669,-0.002439787265983557,0.004065528439717828,0.9942880650883332
2014-06-16,1,0.00045835340238984475,0.00047348438288259074,-0.0024751479571893053,0.005214660715749058,0.9937105983556302
2014-06-18,1,0.0012034015800806734,0.0013177459436094024,-0.0024751479571893053,0.004065528439717828,0.994258944137071
2014-06-20,1,0.001391871312289511,0.0015555739509279841,-0.004929809179173007,0.005214660715749058,0.9928556004555027
2014-06-24,1,0.001459121786968716,0.0016486136961293635,-0.0024751479571893053,0.007975836780182785,0.9928781019431159
2014-06-26,1,0.0012246069937987187,0.0012997196406875674,-0.004929809179173007,0.007975836780182785,0.9924687476402749
2014-06-30,1,0.00047911466273525263,0.0005184564610433443,-0.0024751479571893053,0.007975836780182785,0.9932177213564661
2014-07-02,1,0.001742238006716313,0.00193839666724425,-0.0024751479571893053,0.004297226769780423,0.9937467454909752
2014-07-07,1,0.0016626894644018427,0.0018454634874671603,-0.004929809179173007,0.007975836780182785,0.9926510481739023
2014-07-09,1,0.001694667465562356,0.0018832017527927757,-0.007510091949694521,0.004297226769780423,0.9924991523993215
2014-07-11,1,0.0016106708302758954,0.001802721640569299,-0.00871118082069577,0.008832748496417844,0.9910436458768561
2014-07-15,1,0.0014526391448317468,0.001621362307096359,-0.009053105362383393,0.008885831162401188,0.9907013138988077
2014-07-17,1,0.0012762372672717162,0.0014051029645752824,-0.009053105362383393,0.012501517169006045,0.989994664279736
2014-07-21,1,0.0008768300496450473,0.0009294114954320795,-0.0076082831264286934,0.009415050259591511,0.9909778131864112
2014-07-23,1,0.0015718839589267922,0.001746915765739605,-0.0076082831264286934,0.00899114288480542,0.9909286317425616
2014-07-25,1,0.0020186275093410015,0.0022912537818866804,-0.007230709841258424,0.0078674533077066,0.9915090660421437
2014-07-29,1,0.001961071753747036,0.002236203718144463,-0.007230709841258424,0.008784488238710903,0.9913896348592648
2014-07-31,1,0.0017902937003515897,0.002013908924149387,-0.007853637694553103,0.008784488238710903,0.9908012992350264
2014-08-04,1,0.0023031791497856637,0.0026323115850617326,-0.007230709841258424,0.008784488238710903,0.9917230091805067
2014-08-06,1,0.0014968220827822117,0.00167987240327719,-0.0036054720292801024,0.008784488238710903,0.9924612753406069
2014-08-08,1,0.0018027433527815705,0.0020576901687157007,-0.002039670479006181,0.008784488238710903,0.9935497293374794
2014-08-12,1,0.0015382390274650344,0.001784383215522363,-0.003538786347882302,0.008784488238710903,0.9935230873944818
2014-08-14,1,0.0013804359658637336,0.0015077437656103609,-0.005426315419909025,0.005570535573446853,0.9934318400030522
2014-08-18,1,0.0009014902652139582,0.0009246241051914368,-0.005226258375715623,0.007365003631293261,0.9928584305150329
2014-08-20,1,0.0012613140039068492,0.001356422597291958,-0.005226258375715623,0.005570535573446853,0.9934847439832925
2014-08-22,1,0.0008686607909329508,0.0009080414720187547,-0.005226258375715623,0.005570535573446853,0.9934438614781395
2014-08-26,1,0.0008467880054678507,0.0008559350462738195,-0.005226258375715623,0.005570535573446853,0.993283178085834
2014-08-28,0,-7.174705246097707e-05,8.782191321098586e-05,-0.005226258375715623,0.004680005975075093,0.9929562821986445
2014-09-02,1,0.0008982987652267088,0.0009198180101586366,-0.006575547181147066,0.004680005975075093,0.9925618676745588
2014-09-04,-1,-0.00023146068109813,-2.2596036235266685e-05,-0.008022781170581878,0.007085413425409788,0.9918000219484726
2014-09-08,1,0.0007054101714222355,0.0007750406838872481,-0.009438525717092857,0.005261393138811481,0.9907162311823501
2014-09-10,1,0.000118094619358936,0.00023098813306483688,-0.009438525717092857,0.009582142101130987,0.9895476472322488
2014-09-12,-1,-0.000571606266930655,-0.00037020216032476153,-0.009782471814632125,0.009582142101130987,0.9889442449359027
2014-09-16,1,1.0348443301253808e-05,0.00012462585114959358,-0.011823058266705443,0.005261393138811481,0.9886078828020177
2014-09-18,-1,-0.0005791805970024971,-0.00032590452195173304,-0.014961029880368097,0.005261393138811481,0.9879333684683996
2014-09-22,-1,-0.0009358764454057271,-0.0006583109416688592,-0.014961029880368097,0.010254843980815324,0.9862557961527149
2014-09-24,-1,-0.0007191578288740722,-0.00043691784223127506,-0.014961029880368097,0.010254843980815324,0.985754756831132
2014-09-26,-1,-0.0013993815487079648,-0.0010325956093650923,-0.011823058266705443,0.01294491387651259,0.9854504771506898
2014-09-30,-1,-0.0016354257893632619,-0.0012344402817448094,-0.011823058266705443,0.01294491387651259,0.9855423514711252
2014-10-02,-1,-0.0003811545649935403,-0.00023149331324959823,-0.013983472767426364,0.017166863579408616,0.9846189025522998
2014-10-06,-1,-0.00025864741184726954,-0.00012124269807062033,-0.0105026099815391,0.011914094648926187,0.9865097537418623
2014-10-08,1,0.0005903527409843967,0.0006291632138870941,-0.008816259430042883,0.009911237571619857,0.9881623639443564
2014-10-10,-1,-0.0006178816513905634,-0.00044522683592956283,-0.007701537014806734,0.009911237571619857,0.9886619998888838
2014-10-14,-1,-0.0009271506027242035,-0.0007698023303041122,-0.007029474507509515,0.009991397336561245,0.9888435679274431
2014-10-16,-1,-0.0014709323836649378,-0.0012302283399817878,-0.00198446464583525,0.009991397336561245,0.9891433254566339
2014-10-20,1,0.0004048422515164417,0.00044776712255365295,-0.004905515367796202,0.009441847710798496,0.991406510327611
2014-10-22,1,0.0002711273952783696,0.0002947143126887089,-0.005029056791757936,0.009441847710798496,0.9914387816853278
2014-10-24,1,0.000992230560130952,0.0011038241225968,-0.006467774171828016,0.008525224342226141,0.9923284171010383
2014-10-28,1,0.0006613196322329863,0.0007244070436404147,-0.0047182819225690354,0.008525224342226141,0.9919097482317459
2014-10-30,1,0.0011144840718317428,0.001215146726908581,-0.0038491065143470395,0.008525224342226141,0.9930083689343873
2014-11-03,1,0.0004313041511080398,0.00044482935715291715,-0.0047182819225690354,0.009142988968631994,0.9922261011675183
2014-11-05,1,6.872790040620167e-05,0.00012259652414038533,-0.0038491065143470395,0.009142988968631994,0.9924390421165417
2014-11-07,1,2.0105389736798645e-05,6.073348340893093e-05,-0.0034424817993572235,0.009142988968631994,0.9932703498747852
2014-11-11,1,0.0007941613856300864,0.0008265211475118159,-0.0047182819225690354,0.004947944145475713,0.9931776677024342
2014-11-13,1,0.001005255018955737,0.0010628895146958545,-0.006685157976518648,0.004633802084837312,0.9922282900259344
2014-11-17,1,0.0009795058998835844,0.001054870390542498,-0.008527134762902648,0.005674123346144295,0.9911080751323333
2014-11-19,1,0.0008518686349349524,0.000881571167044893,-0.00694265874126405,0.0075843108319951285,0.9899180251527475
2014-11-21,1,0.0009886080330058942,0.001070071897750182,-0.005332431904117834,0.0075843108319951285,0.9899983390374753
2014-11-25,1,0.001389437077827127,0.0015187253132495642,-0.00955449649111156,0.005674123346144295,0.9906444817921624
2014-11-28,1,0.001755780719942957,0.0019359044418165426,-0.00955449649111156,0.0041707636064080835,0.9913450092292182
2014-12-02,1,0.0015519573191901206,0.0016896754112495868,-0.00984325364668258,0.0037678950746680173,0.9914740987309147
2014-12-04,1,0.0014761790460452596,0.001594461711420412,-0.00984325364668258,0.0041707636064080835,0.9910893635830058
2014-12-08,1,0.0015738093643056768,0.0017063401856085502,-0.00984325364668258,0.005674123346144295,0.9896371844948415
2014-12-10,1,0.0006678893467659407,0.0006720871358357249,-0.0030364501861071154,0.0073485837353026605,0.9901327946716749
2014-12-12,1,0.00040611353496992355,0.00041915328584830544,-0.0030364501861071154,0.005959468300014974,0.9909830900272353
2014-12-16,-1,-9.038853151600317e-05,-2.5234425342557788e-05,-0.004311966093169123,0.004130356959059612,0.9917133231316217
2014-12-18,1,0.0016189933596052848,0.0017604703476527285,-0.004311966093169123,0.003119018422807339,0.9931447092344493
2014-12-22,1,0.00135585207722655,0.001469947370774781,-0.0033383860928320784,0.0051706029881578765,0.9927167019167633
2014-12-24,1,0.0011166476914265494,0.0012045279154792986,-0.0033383860928320784,0.006427059516037257,0.9928591486302277
2014-12-29,1,0.0009233479569214821,0.000959550322546597,-0.005306725700253074,0.006427059516037257,0.9926028460588507
2014-12-31,1,0.0003066937252315552,0.00034510325407951153,-0.005306725700253074,0.007522831441278701,0.9914057832754211
2015-01-05,1,0.00030655302432737685,0.00035186994958429074,-0.005584675508521055,0.008034582972559356,0.9910099921887032
2015-01-07,1,0.001396991121100641,0.0015279272416563086,-0.006191773325053631,0.008034582972559356,0.9909211357840789
2015-01-09,1,0.0013643191024654343,0.0014648228929566463,-0.008254103355824998,0.008034582972559356,0.9890326285563394
2015-01-13,1,0.0010272240096359576,0.0010936246688359056,-0.006191773325053631,0.010859556966841166,0.9884926524273986
2015-01-15,1,0.00033915642053571136,0.0003802218883080233,-0.005584675508521055,0.010859556966841166,0.9889231048060625
2015-01-20,1,0.0009138454586613534,0.0009580617662453829,-0.005584675508521055,0.008034582972559356,0.9895047748517576
2015-01-22,1,0.0016282617552771522,0.0017644870690723203,-0.005584675508521055,0.008034582972559356,0.9894971609147811
2015-01-26,1,0.0015087214737366337,0.0016362279848537169,-0.0027648201333537945,0.008034582972559356,0.9899827583855004
2015-01-28,1,0.0013197360860712278,0.001423920061565916,-0.002011928009469607,0.008034582972559356,0.990017113081698
2015-01-30,1,0.000622500536575247,0.0006669036935997063,-0.002225697934334863,0.006878478658112012,0.9914827343000777
2015-02-03,1,0.0003156847565597906,0.00035273939605087864,-0.002154679372096079,0.005307094344372397,0.9922013445620745
2015-02-05,1,0.0007124111178480133,0.0007268382137230451,-0.002154679372096079,0.005307094344372397,0.9925535602789579
2015-02-09,1,0.0009518667372699688,0.0010062006750309008,-0.002154679372096079,0.004775897254561044,0.9939720066291052
2015-02-11,1,0.0016647684913491272,0.001802285815265189,-0.002154679372096079,0.004775897254561044,0.9942205944746049
2015-02-13,1,0.0014245262498287193,0.0015053390312643625,-0.002154679372096079,0.005374101694690988,0.9932576181946595
2015-02-18,1,0.0016178886486810473,0.0017559696001625178,-0.0023933337688903378,0.004009983801211544,0.9931556928535781
2015-02-20,1,0.0019184431177945798,0.002065976814723517,-0.0027828337366404684,0.004009983801211544,0.9923954215980352
2015-02-24,1,0.0015929126175768067,0.0016868106015762812,-0.00394356160933419,0.004009983801211544,0.9920055121993419
2015-02-26,1,0.0015514446251506044,0.001650478720365489,-0.006397767001265699,0.004009983801211544,0.9916018739929087
2015-03-02,1,0.0011974716791653375,0.0012420390729090164,-0.006397767001265699,0.006196656451080106,0.9913740416508385
2015-03-04,1,0.001506068890878438,0.001637540600447652,-0.012664707653437784,0.006196656451080106,0.9901319066860268
2015-03-06,1,0.00021980716327576273,0.00031578228748783944,-0.009210723933249298,0.004558910578259701,0.9910927248373683
2015-03-10,-1,-0.0008321946497434294,-0.0005770265285892252,-0.008943453611848957,0.004558910578259701,0.9914148581685183
2015-03-12,-1,-0.0003085526865430004,-0.00010713615002622926,-0.008943453611848957,0.003745547280160549,0.9920157985974245
2015-03-16,1,0.0007653120665412553,0.0007961487185064472,-0.008943453611848957,0.003745547280160549,0.9927159638006944
2015-03-18,1,0.0004959000005992865,0.0005574619739642248,-0.008943453611848957,0.004042266724526891,0.9928791591728076
2015-03-20,1,0.0010525595247606137,0.0011023035731541919,-0.0032564024284287077,0.004240226932844629,0.9940588631541749
2015-03-24,1,0.000382372760167084,0.0004118266322049009,-0.001573737830328705,0.004876156619838184,0.9939338812137319
2015-03-26,1,0.0007154587370527761,0.0007426323392008783,-0.001573737830328705,0.004876156619838184,0.9942238081348451
2015-03-30,1,0.0007222102868747716,0.0007263056367441974,-0.0034511675344353937,0.004876156619838184,0.9941291927437758
2015-04-01,-1,-0.000489149253739264,-0.00033180782841417525,-0.0034511675344353937,0.004876156619838184,0.9942613191296209
2015-04-06,-1,-0.0002886297368492284,-0.00013734228849616515,-0.0034511675344353937,0.005432517334981648,0.9941463571049544
2015-04-08,-1,-0.0003056188786546646,-0.00018465847437404854,-0.0034511675344353937,0.005432517334981648,0.9941284177492278
2015-04-10,1,2.4851829549622296e-05,9.83430598992322e-05,-0.0034511675344353937,0.006068006430303491,0.9932297847567088
2015-04-14,1,7.871841459228962e-05,0.00015409840031425966,-0.003982191375875691,0.005432517334981648,0.9934379430630185
2015-04-16,1,0.00011394441987192769,0.00016622842962272467,-0.003982191375875691,0.006556290788045478,0.9916063149055548
2015-04-20,1,0.0002538038189224387,0.00031572524146685356,-0.003982191375875691,0.00741677652004865,0.9915588347401338
2015-04-22,1,0.000662419103936152,0.0006709231701941944,-0.004687438380980804,0.006180410526016845,0.9917952576246057
2015-04-24,1,0.000578506846286984,0.0005949420951483651,-0.004687438380980804,0.006180410526016845,0.9915767181536972
2015-04-28,1,0.0004926745829707938,0.0004943538154029484,-0.004691494973153952,0.005948538683280168,0.9914442866251794
2015-04-30,-1,-0.0002872976112117043,-0.00019759344452338834,-0.0027479694452460517,0.005948538683280168,0.9920453158261107
2015-05-04,1,0.00011590253297901848,0.0001431978118025377,-0.003894621635609948,0.005073183068171915,0.9920679120646109
2015-05-06,-1,-0.0006259250860044517,-0.00047715164070982004,-0.003894621635609948,0.005073183068171915,0.9922086444477285
2015-05-08,-1,-0.0001382535458475099,-2.4101442391115716e-05,-0.005995454867607336,0.004536148868164929,0.9930289454077382
2015-05-12,-1,-0.0004904729029040966,-0.0003176101151944569,-0.005995454867607336,0.005073183068171915,0.9928194568475126
2015-05-14,1,0.0015965336078817807,0.0017471546486369552,-0.00734916230611075,0.004509573955063141,0.9941004950138475
2015-05-18,1,0.0015162056133157836,0.001637300645142376,-0.00734916230611075,0.0034285446243882273,0.9941769753887416
2015-05-20,1,0.001079766130557752,0.0011263364503184342,-0.00734916230611075,0.004509573955063141,0.9938629228371603
2015-05-22,1,0.0009996845652379255,0.0010351113091608569,-0.006037521408674539,0.0034285446243882273,0.9944215285236616
2015-05-27,1,0.000463466951309303,0.000522629234794228,-0.006037521408674539,0.00292706038730961,0.9941818187952887
2015-05-29,1,0.00024276164971456834,0.0003100928074818533,-0.006342509676961251,0.00292706038730961,0.9940753630477521
2015-06-02,1,0.000577941011008016,0.0005948443470538188,-0.006766716572458798,0.0025801136830027574,0.9936420274448429
2015-06-04,1,0.00022401242463111342,0.00025674018417479655,-0.006294329864832986,0.00292706038730961,0.9937354039015202
2015-06-08,-1,-0.00019574317362416085,-9.802863980585251e-05,-0.005843372830790555,0.00322823282752092,0.9935377049776777
2015-06-10,0,-6.36035918769084e-05,3.6337734562175465e-05,-0.006294329864832986,0.00322823282752092,0.9927345789776341
2015-06-12,-1,-0.000163284809871027,-8.06722149387911e-05,-0.005843372830790555,0.005272569440501239,0.9926205645611388
2015-06-16,1,0.0002672683584840533,0.0002704002879496172,-0.00544112756252931,0.008547895073910964,0.9923524782444424
2015-06-18,1,0.00039959028307998644,0.0004116220084006017,-0.00544112756252931,0.005272569440501239,0.9927411727575641
2015-06-22,-1,-6.540400881914428e-05,-5.2129905241762615e-06,-0.006294329864832986,0.005272569440501239,0.9923692686434654
2015-06-24,-1,-0.001138668569450164,-0.000920460742767234,-0.006294329864832986,0.0087020845258077,0.9915992108188897
2015-06-26,-1,-0.0010335740834401287,-0.0008446537196326062,-0.008482671059771848,0.0087020845258077,0.991144575426707
2015-06-30,-1,-0.0013139141236056143,-0.0010945124733489464,-0.007144837057795921,0.009199670900005348,0.9914277138406227
2015-07-02,-1,-0.0015599659337843601,-0.0013052413896394433,-0.008482671059771848,0.010427846065809328,0.989143404647033
2015-07-07,-1,-0.0003704212522495924,-0.0002974509106218904,-0.008482671059771848,0.010427846065809328,0.9895101088616093
2015-07-09,-1,-0.00042158615426383624,-0.0003546614825175536,-0.008482671059771848,0.009199670900005348,0.9896057657126628
2015-07-13,-1,-0.0001048378744169052,-6.530391636802842e-05,-0.009162741144564383,0.00636631866723249,0.9898571560029161
2015-07-15,1,0.00056669476367925,0.0006434054033542495,-0.009162741144564383,0.003243476990770039,0.9899369264679431
2015-07-17,1,0.0005027188574200609,0.0005681197515538011,-0.009162741144564383,0.004852935775931801,0.9897610619940935
2015-07-21,1,0.00018102663869474053,0.0002002576865245295,-0.008862647199898587,0.004906639978601093,0.9898363033036351
2015-07-23,-1,-0.0003437609882270738,-0.00029004287914005596,-0.008862647199898587,0.004637834781736661,0.9904964052947017
2015-07-27,-1,-0.0010486684711664886,-0.0009042802136959705,-0.013333531542233653,0.004637834781736661,0.9886243245662245
2015-07-29,-1,-0.0009782981500025415,-0.0008204879126620701,-0.02264297117553417,0.004637834781736661,0.9844180763043247
2015-07-31,-1,-0.0015923556750045325,-0.0013462411666648427,-0.013333531542233653,0.004756710393948586,0.986469812570409
2015-08-04,-1,-0.0011091846595883256,-0.0009550830436545245,-0.017633426175418472,0.004637834781736661,0.9860214000284296
2015-08-06,-1,-0.001331611787419197,-0.0011881168114962807,-0.011737387350889918,0.004756710393948586,0.9864538445792754
2015-08-10,-1,-0.0012557016568452684,-0.0011093694049867388,-0.01227944522617569,0.004756710393948586,0.9860267555177227
2015-08-12,-1,-0.001309065420601886,-0.0011640032590261324,-0.013758671168347086,0.005272041115198179,0.9852014701574298
2015-08-14,-1,-0.0015561363392914407,-0.0013669606239801355,-0.013758671168347086,0.007099836054564359,0.9847885084550723
2015-08-18,-1,-0.001581125229788977,-0.0013930733437036245,-0.013758671168347086,0.012030952257685655,0.9831882302568086
2015-08-20,-1,-0.002164846380302095,-0.001915822081092589,-0.011520381479227711,0.012030952257685655,0.9840078902319565
2015-08-24,-1,-0.0029594462317883347,-0.002573395225858787,-0.011151760410076263,0.012030952257685655,0.98590746680302
2015-08-26,-1,-0.0030421062411901713,-0.0026839582953548363,-0.010485248289884808,0.010208385253995273,0.990502119103657
2015-08-28,-1,-0.003157859567177537,-0.0027643600492233086,-0.011625721226141573,0.007603348869491975,0.988537623404192
2015-09-01,-1,-0.003681369897688834,-0.0032429331660440664,-0.011151760410076263,0.007603348869491975,0.9890718777551798
2015-09-03,-1,-0.003984008731746706,-0.003524552030871979,-0.011151760410076263,0.007145298204797013,0.9891566296081761
2015-09-08,-1,-0.00382996700964632,-0.0033914771320540603,-0.011625721226141573,0.007145298204797013,0.9880347969072164
2015-09-10,-1,-0.003008258744200404,-0.0026875393992754604,-0.006789897902461562,0.005986025692972302,0.9882955821722309
2015-09-14,-1,-0.003176926671616118,-0.002844285701515275,-0.0065892658085367735,0.005986025692972302,0.9877454859353763
2015-09-16,-1,-0.0018032636597866913,-0.0016255412450185275,-0.011205514185318231,0.005399736895836383,0.9890948578374406
2015-09-18,-1,-0.0016611229354037086,-0.0015026454513880259,-0.011205514185318231,0.0068856270068379495,0.9878923681969045
2015-09-22,-1,-0.00291416846764245,-0.0025811224107085244,-0.006482729488711746,0.0068856270068379495,0.9873265421279177
2015-09-24,-1,-0.0028461527277975863,-0.0025394345643957434,-0.017085394723860326,0.0068856270068379495,0.9857095311112251
2015-09-28,-1,-0.005176614118239717,-0.004583340326196299,-0.0041578726282377266,0.009101556628290465,0.9853084650547386
2015-09-30,-1,-0.004083116732306272,-0.003672347912223208,-0.011902650300374431,0.009101556628290465,0.9841164787648606
2015-10-02,-1,-0.0025301260687578524,-0.002290334464912455,-0.017674475882352415,0.01459818992613996,0.9822952552726412
2015-10-06,-1,-0.003007295224645912,-0.0027910647149650353,-0.011902650300374431,0.014127980257033176,0.9829021474546465
2015-10-08,-1,-0.0018076749999400117,-0.0017405758898825967,-0.011902650300374431,0.016246383056323067,0.9825813137653235
2015-10-12,-1,-0.0013648795945742042,-0.0013438601108326244,-0.012411921308528459,0.014127980257033176,0.9832870450478243
2015-10-14,-1,-0.001424637985357454,-0.0014040236893357243,-0.012411921308528459,0.014127980257033176,0.9834377007303294
2015-10-16,-1,-0.0006161615106686345,-0.000532458918915858,-0.01532727541456849,0.011168023048340841,0.9840108974130091
2015-10-20,-1,-0.0018424625970411834,-0.0017578774523106509,-0.012411921308528459,0.014127980257033176,0.9838077966942209
2015-10-22,-1,-0.0028316734070107452,-0.0026379174068465253,-0.008956940498839551,0.01562586502412968,0.9835521673289124
2015-10-26,-1,-0.0008605469282900684,-0.0008280205162759281,-0.008956940498839551,0.01562586502412968,0.984816750361198
2015-10-28,-1,-0.001957767253695835,-0.0018564713944920238,-0.006837363138196332,0.01562586502412968,0.986730164215443
2015-10-30,-1,-0.0025088181990412873,-0.002372727368901451,-0.005590352984136726,0.014034522794842021,0.9891071593188338
2015-11-03,-1,-0.0010648989835095569,-0.001042717930589408,-0.0064802684378696745,0.010944486803455151,0.9899688451444638
2015-11-05,-1,-0.00037931753911201463,-0.0002551632072462121,-0.005590352984136726,0.008774609202913099,0.9913309965182908
2015-11-09,-1,-0.0007989303279823504,-0.0007016340677231442,-0.005590352984136726,0.008774609202913099,0.9915599283269629
2015-11-11,-1,-0.00084784284811608,-0.0007687897993217098,-0.005626332362077177,0.010944486803455151,0.9908872218242788
2015-11-13,-1,-0.0012376572478155446,-0.0012304987869642724,-0.0023894874103525168,0.010944486803455151,0.9914383596830741
2015-11-17,-1,-0.00028567210833737255,-0.00017462981302423657,-0.005626332362077177,0.005634041708948487,0.9914928341422989
2015-11-19,-1,-0.0007162862932796679,-0.0006718224157908094,-0.004079141397898097,0.005634041708948487,0.992346419542526
2015-11-23,0,-7.755961302720641e-05,5.000654776324482e-05,-0.004079141397898097,0.00987675850225466,0.9926534862517065
2015-11-25,1,0.0004545736802310375,0.0007033272569287887,-0.005338378397322317,0.010085885365432163,0.9917936166702811
2015-11-30,1,0.0003033815030131317,0.0005187609047503883,-0.004111812169681188,0.010085885365432163,0.9920261283285265
2015-12-02,1,0.000785313473034086,0.0010991135903569565,-0.005976771906256308,0.009928348461085689,0.9920937286084915
2015-12-04,1,0.0012390542644672917,0.0016391934627265426,-0.007670283876247388,0.009928348461085689,0.9912891588172661
2015-12-08,1,0.001317499562272157,0.001732311301250867,-0.00836380559596473,0.009928348461085689,0.9897618959803106
2015-12-10,1,0.0015544645664183543,0.001979328949387813,-0.012452077138946539,0.005690605684991177,0.9846536645677143
2015-12-14,1,0.001110207718063987,0.001430344502436451,-0.014234251465732246,0.005690605684991177,0.9829047446455652
2015-12-16,1,0.0013018914915849272,0.0016378435994225237,-0.012452077138946539,0.005690605684991177,0.9826054100465862
2015-12-18,1,0.0018062492846806768,0.0022245508355819895,-0.012452077138946539,0.005690605684991177,0.982318575295966
2015-12-22,1,0.0020892173766672547,0.002529375196886688,-0.012452077138946539,0.003544651466076803,0.9828358761711553
2015-12-24,1,0.002287884410776337,0.0027603613432164607,-0.012452077138946539,0.003544651466076803,0.9836209785310867
2015-12-29,1,0.0020996523008054487,0.0025125342662039585,-0.024700746577445004,0.0029356549944176673,0.9804849359809698
2015-12-31,1,0.0016789401126373546,0.002039493047890726,-0.024700746577445004,0.003544651466076803,0.9807532331981695
2016-01-05,1,0.0016194061538779816,0.0019677929799521527,-0.026956178292030165,0.0029356549944176673,0.9793046126595778
2016-01-07,1,0.0007360468165303056,0.0009724265348384104,-0.02455441419435512,0.003886583613620855,0.9809322676297665
2016-01-11,-1,-0.0022428869073666336,-0.0021046780339773986,-0.017422632820120288,0.003886583613620855,0.9855941835788784
2016-01-13,-1,-0.0032967226828723227,-0.0030040632929923166,-0.017422632820120288,0.004956809281834031,0.985661348712594
2016-01-15,-1,-0.001683774629021481,-0.001544097625955716,-0.017422632820120288,0.005694565223641869,0.9872625576801031
2016-01-20,-1,-0.0009207145390668648,-0.0008707830972464154,-0.017422632820120288,0.005694565223641869,0.9876907595827399
2016-01-22,-1,-0.0012249915528409444,-0.0011517419147688013,-0.017422632820120288,0.007361674138960652,0.9866700127710494
2016-01-26,-1,-0.0012877997328835193,-0.001177109692186238,-0.017422632820120288,0.007361674138960652,0.9860631450945735
2016-01-28,-1,-0.002597564145978202,-0.0023173318028077957,-0.012026582723754167,0.009169025058886556,0.9881471731518798
2016-02-01,-1,-0.002828886032839129,-0.0025391720421148473,-0.012026582723754167,0.009169025058886556,0.9882040657453541
2016-02-03,-1,-0.0039703805158384075,-0.0035631527509101396,-0.007197687066832402,0.0110024724694524,0.9875580453906898
2016-02-05,-1,-0.0029435864815100716,-0.0026557367823299336,-0.007197687066832402,0.0110024724694524,0.9884179507239323
2016-02-09,-1,-0.0028327242398230226,-0.0026152289398358947,-0.0015270180369724652,0.01326737540845445,0.9871907366878867
2016-02-11,-1,-0.0028958584463498597,-0.0026663897945384805,-0.0008510104190454163,0.01326737540845445,0.9871303820927306
2016-02-16,-1,-0.0024245190376773764,-0.002232405600874907,-0.00766756683075851,0.01326737540845445,0.9859518151846778
2016-02-18,-1,-0.001979499360087565,-0.0018398638714396173,-0.009064147986425998,0.01006203042070375,0.9857530644928938
2016-02-22,-1,-0.0029899913302898215,-0.002629081301424127,-0.008644922579745307,0.01006203042070375,0.9844208493291595
2016-02-24,-1,-0.0026780043720642382,-0.0023865172805779163,-0.008644922579745307,0.01006203042070375,0.9849711060728606
2016-02-26,-1,-0.0020586408016699843,-0.0018646502157054462,-0.008644922579745307,0.013411484862659785,0.9848867189808562
2016-03-01,-1,-0.0023746484050812047,-0.00210077604519899,-0.008644922579745307,0.014670638180400743,0.9845344241488257
2016-03-03,-1,-0.000653675579421196,-0.0006260852875144398,-0.008644922579745307,0.004888483175726645,0.9860391148882125
2016-03-07,-1,-0.0005544422871610268,-0.000547248844710316,-0.009391610828247417,0.007456163458947408,0.984839499180098
2016-03-09,-1,-0.0007160464796380516,-0.0006905454674474429,-0.009391610828247417,0.007456163458947408,0.9838417156120208
2016-03-11,1,0.0005162883159733276,0.0006994211449015125,-0.009391610828247417,0.005284579862366433,0.9850734837669888
2016-03-15,-1,-0.0020243428949943258,-0.0018362501383249758,-0.008488167883940214,0.012651083781352808,0.9863196057731818
2016-03-17,-1,-0.0030458361050472987,-0.002693150834143918,-0.00541777207170866,0.014670638180400743,0.985962375503602
2016-03-21,-1,-0.0009029806632828346,-0.0008875691795612157,-0.003490312170964475,0.012651083781352808,0.9879365146950361
2016-03-23,-1,-0.0018218784247420452,-0.0016572785647799941,2.3465132704520407e-06,0.012651083781352808,0.9873698912397127
2016-03-28,-1,-0.0020636990787920905,-0.0018217874875767182,2.3465132704520407e-06,0.010933230930846095,0.9878886912161136
2016-03-30,-1,-0.0010167375758840453,-0.0009655769300023411,0.0007772373091766024,0.009894569951902459,0.9890488248132955
2016-04-01,-1,-0.0005385026026955562,-0.0005079537931253846,-0.0014864352601499681,0.009894569951902459,0.9867732480113864
2016-04-05,-1,-0.0014889087099726767,-0.0013789332532701637,-0.00037328977047495625,0.009894569951902459,0.9874335896385159
2016-04-07,-1,-0.0003659724328924374,-0.000345286915484086,-0.00037328977047495625,0.009894569951902459,0.9880134835938826
2016-04-11,-1,-0.00020301261777677665,-0.00018342995454529557,-0.002775549998804557,0.010933230930846095,0.9863999943721955
2016-04-13,1,0.000989476740184719,0.0012100733451311319,-0.008482661286672832,0.0077564156630370775,0.9872693885772786
2016-04-15,1,0.001463743202681161,0.0017296359777456312,-0.009041696903682905,0.004997042408989759,0.9876580231116641
2016-04-19,1,0.001955946367977659,0.0023242684634658182,-0.009041696903682905,0.0046372624596241205,0.9862504493625464
2016-04-21,1,0.002178346279565574,0.0025791955548663684,-0.009041696903682905,0.005747140159981593,0.984749130396752
2016-04-25,1,0.0020334414474568762,0.002414326498851221,-0.009833414290673968,0.006298494103730754,0.9839036353050985
2016-04-27,1,0.0022497540041511764,0.0026598206134928674,-0.009833414290673968,0.010486748051420377,0.9830251389537064
2016-04-29,1,0.001220273064666844,0.0015060669334902802,-0.009833414290673968,0.011865973169449739,0.9846412425913789
2016-05-03,1,0.0013726527886996386,0.0016766806492072841,-0.009833414290673968,0.012920671181790617,0.9840982670895597
2016-05-05,1,0.0019533940345485903,0.0023523502296699398,-0.008606892351416564,0.011977296596643238,0.9862488352225126
2016-05-09,1,0.002172554667981867,0.002595945655529593,-0.008606892351416564,0.009540148892041363,0.9875777992222035
2016-05-11,1,0.001646546760572741,0.002010433771849687,-0.007358967031544621,0.01168999128222302,0.9876598509380092
2016-05-13,1,0.0015279467399179764,0.0018952656506036594,-0.007197973009240436,0.01168999128222302,0.9876480808147982
2016-05-17,1,0.002747980364504738,0.0032970166660184924,-0.008125434679535054,0.009540148892041363,0.9889119759674859
2016-05-19,1,0.0035759937670126227,0.0042404478741370315,-0.010140044221788491,0.0091361684962703,0.9894006270307233
2016-05-23,1,0.0032310775549113232,0.003850562742307934,-0.008125434679535054,0.009540148892041363,0.9900761405557681
2016-05-25,1,0.0035605493791085953,0.004202989913815151,-0.008125434679535054,0.010885155810868118,0.9901992592251648
2016-05-27,1,0.0034669036390379184,0.004092039621744463,-0.010140044221788491,0.010885155810868118,0.9881010962388206
2016-06-01,1,0.00344847756550256,0.004018375536455019,-0.010140044221788491,0.012856632092305602,0.9860694347684325
2016-06-03,1,0.002196419657091609,0.002445034236982809,-0.010140044221788491,0.012856632092305602,0.9862960349168818
2016-06-07,1,0.0013704275779998568,0.0014623146347061986,-0.008125434679535054,0.013948786021771043,0.9857599258278431
2016-06-09,1,0.0024215249587407244,0.002744248669162533,-0.008125434679535054,0.012856632092305602,0.9861375339802428
2016-06-13,1,0.0022493729103462952,0.0025805164320456594,-0.004288396907071317,0.012856632092305602,0.9868007053255975
2016-06-15,1,0.0017593013273498885,0.002001080817949072,-0.0033877494674338223,0.012856632092305602,0.9871439329113076
2016-06-17,1,0.0014330774936706157,0.0016419701708415763,-0.0033060535234560222,0.012856632092305602,0.9876653808521566
2016-06-21,1,0.001210707209805033,0.001307856297105915,0.00020025189969368005,0.012856632092305602,0.9881809235914253
2016-06-23,1,0.0017421863319877677,0.0018938226550287035,-0.003358111319048406,0.010054106034148863,0.9889123389857498
2016-06-27,-1,-0.0008705532182279244,-0.0006281138867385624,-0.0004450272255083228,0.010054106034148863,0.9909056771262247
2016-06-29,1,0.0012238624353971335,0.0012641528962199595,-0.002960735794347632,0.00790543245386712,0.9935823280669139
2016-07-01,1,0.001092276239311643,0.0011108262397996013,-0.003358111319048406,0.00401504581919206,0.9937838063500608
2016-07-06,1,0.001601728189091637,0.0016325118262684852,-0.0030226729727351547,0.006216537494179374,0.9945447272139915
2016-07-08,1,0.0016150477060215104,0.0016692605541986233,-0.002982243740393001,0.00401504581919206,0.9948622768390823
2016-07-12,1,0.0020427125472743893,0.0021774546798100517,-0.002982243740393001,0.0038929546485225,0.9951767890652078
2016-07-14,1,0.00214717993184528,0.002293129805842391,-0.0032909106877627515,0.003684943538035553,0.9952020166391052
2016-07-18,1,0.0018794554662436426,0.0019673008426158594,-0.0032909106877627515,0.00461987468584923,0.9949939286261883
2016-07-20,1,0.001894413765575284,0.001991616139452918,-0.003951605287486671,0.00461987468584923,0.9945712871393309
2016-07-22,1,0.0015499458206597715,0.0016001800351750784,-0.003951605287486671,0.00461987468584923,0.9945607973788352
2016-07-26,1,0.0018505774146284819,0.001996412950200626,-0.0049005973382416825,0.00461987468584923,0.9943675303287658
2016-07-28,1,0.0013159067397161208,0.0013766191271328803,-0.0059687340719838155,0.00461987468584923,0.9928312578831685
2016-08-01,1,0.0007887321314732345,0.0008117219231912757,-0.0049005973382416825,0.00461987468584923,0.9933830599255029
2016-08-03,1,0.001706132018076332,0.0018442227724261612,-0.004963055028447372,0.004088208067735804,0.9931996205466056
2016-08-05,1,0.00027049106213558084,0.00041584655509219193,-0.0059687340719838155,0.004088208067735804,0.9933093047268728
2016-08-09,0,-0.00010088824830139316,0.0001234010283860859,-0.0059687340719838155,0.004088208067735804,0.9933241077813999
2016-08-11,1,0.0003655776994528873,0.0004895942968954909,-0.007091988440723089,0.002083583564382555,0.9911317285889666
2016-08-15,0,-0.0001038882997145557,0.00010448996330970472,-0.008079374611381366,0.002083583564382555,0.9894234902273331
2016-08-17,0,-7.680675334534033e-05,0.00012347682902263946,-0.012584479722284192,0.002614585650092409,0.9872494744707322
2016-08-19,-1,-0.0004965258912987275,-0.00024315310665738927,-0.017271575778864984,0.002614585650092409,0.9867566369803252
2016-08-23,-1,-0.0008660457672858607,-0.0005673671534135895,-0.017271575778864984,0.0064476775484449585,0.9865970135500994
2016-08-25,-1,-0.0029065981770406446,-0.0023323523624801602,-0.008079374611381366,0.007851574673170441,0.9884284493864671
2016-08-29,-1,-0.0019018947187766679,-0.0015075828249054637,-0.010628484447011356,0.007851574673170441,0.9878643277407201
2016-08-31,-1,-0.0017301336256079066,-0.0013643221492471783,-0.011829809235777913,0.007251095945316981,0.9877785794250541
2016-09-02,-1,-0.001598715755156349,-0.0012923621074052392,-0.011829809235777913,0.008016134678807687,0.9869414482723469
2016-09-07,-1,-0.000806214740249119,-0.0006316807033428333,-0.011829809235777913,0.007251095945316981,0.9872659927444116
2016-09-09,-1,-0.0021497053762493585,-0.0018362651229821836,-0.009004860231861197,0.007251095945316981,0.9889624573354787
2016-09-13,-1,-0.0018640852106738635,-0.0015960156033771856,-0.008732508778759687,0.006656992622605994,0.9909633176161092
2016-09-15,-1,-0.0026779351888048305,-0.002306549738742056,-0.007289899295531495,0.002893480649621365,0.993441466164321
2016-09-19,-1,-0.003195637961476364,-0.0027749095506400608,-0.006616958018197936,0.002893480649621365,0.9941492057841158
2016-09-21,-1,-0.0034202426737547156,-0.0029120304690374195,-0.006616958018197936,0.002893480649621365,0.9941530755590885
2016-09-23,-1,-0.0034059416044869167,-0.002904922756199673,-0.006616958018197936,0.0025576601651313992,0.9944317076940496
2016-09-27,-1,-0.003577621804303422,-0.003079175115807591,-0.006616958018197936,0.001595397767624083,0.9948812979920595
2016-09-29,-1,-0.0042079378359359786,-0.003630392399885265,-0.006184821388124037,0.0025576601651313992,0.9946382204815443
2016-10-03,-1,-0.0036227618216737737,-0.003096289046159266,-0.006184821388124037,0.0025576601651313992,0.9896338210987906
2016-10-05,-1,-0.00390436850589664,-0.003321746676024432,-0.006184821388124037,0.0071275272552341245,0.9864402134612406
2016-10-07,-1,-0.0034158287179391856,-0.002943935127649876,-0.006616958018197936,0.009026546798778368,0.98434248065834
2016-10-11,-1,-0.0028269952576491877,-0.0024831896635243824,-0.006616958018197936,0.00981415392639251,0.9818388253465136
2016-10-13,-1,-0.0023661641519160744,-0.0020612235600133166,-0.006184821388124037,0.018548914562361327,0.9757822220078419
2016-10-17,-1,-0.002228147727798175,-0.0019655862278333373,-0.007295261246105165,0.018548914562361327,0.9743377325062472
2016-10-19,-1,-0.002114539041788769,-0.0018664121826871966,-0.010057812790394785,0.018548914562361327,0.9745264365026312
2016-10-21,-1,-0.001711522977082055,-0.001533324710347097,-0.010341510623416872,0.018548914562361327,0.9745612061204199
2016-10-25,-1,-0.0020958801279389273,-0.0018684327635423307,-0.009823686383578523,0.018548914562361327,0.9744803008918115
2016-10-27,-1,-0.0016215259412115392,-0.0014397837521356672,-0.009823686383578523,0.018548914562361327,0.9746022018540162
2016-10-31,-1,-0.0015611721709355253,-0.0014037846334095706,-0.009823686383578523,0.013684529162717117,0.9799234094357943
2016-11-02,-1,-0.0002966796714305793,-0.00026881098730578614,-0.009823686383578523,0.010147210532114226,0.9823455151144314
2016-11-04,-1,-0.001642241694525739,-0.001449092522251573,-0.006712365590459711,0.010708394770575062,0.9840508873056456
2016-11-08,-1,-0.00201818499357664,-0.0017662596644322014,-0.006712365590459711,0.009469482144202731,0.985415444043879
2016-11-10,1,0.0006475454189088783,0.0007244610485907619,-0.006712365590459711,0.009469482144202731,0.9903901018043272
2016-11-14,1,0.000575689069944106,0.0006794756172414257,-0.005233779542032595,0.010048762078009614,0.9916065355025133
2016-11-16,-1,-0.0009004028487599619,-0.0007549201013992494,-0.005603134487095851,0.010048762078009614,0.9901980131688548
2016-11-18,-1,-0.00023474510183149115,-0.00022819918180417347,-0.005089668825528453,0.010048762078009614,0.9906027241160811
2016-11-22,1,0.00019428408042431895,0.00027352773915442205,-0.005089668825528453,0.010048762078009614,0.9908479795709032
2016-11-25,1,0.0009072066854846285,0.0011146804663380487,-0.005643803436417836,0.006996745046980307,0.9908382477287602
2016-11-29,1,0.00037454673716172724,0.0005005117889702289,-0.005089668825528453,0.0072357514586610236,0.9909666864539557
2016-12-01,1,0.0008631363937100502,0.0010700194053194598,-0.005643803436417836,0.006065106738979459,0.9916523213365988
2016-12-05,1,0.0011916452412189195,0.0014508293603903144,-0.005643803436417836,0.006678178487774836,0.9895495173716754
2016-12-07,1,0.0007653883924392258,0.0009751471487893088,-0.005643803436417836,0.006678178487774836,0.9900625324108417
2016-12-09,1,0.0016265697446988703,0.001955288700751361,-0.005643803436417836,0.003940868655262393,0.9913904386753624
2016-12-13,1,0.0016997462542892986,0.002028976611459231,-0.007595227143882657,0.003940868655262393,0.9900670740014982
2016-12-15,1,0.0009635257065611681,0.001199388612193826,-0.00413333680390035,0.006678178487774836,0.9910228181229286
2016-12-19,1,0.0008514072095485503,0.0010682524431532166,-0.005057829188230376,0.007973531421635968,0.9901392367268265
2016-12-21,1,0.000824297075757243,0.0010139352006517072,-0.006998090916124879,0.00857620061114354,0.9891228362552908
2016-12-23,1,0.0011497733303587115,0.0014205303049534294,-0.006482029551656332,0.009203138386598789,0.9886737311349687
2016-12-28,1,0.0008867087845801616,0.001088579419990525,-0.01030152226586286,0.009203138386598789,0.9843292947530285
2016-12-30,1,0.0008601585586806245,0.001076136582069503,-0.008339010877777515,0.011471003342237121,0.9841173862103972
2017-01-04,1,0.0018509507429662737,0.0021981230924793932,-0.008782632995281136,0.009203138386598789,0.9862179311971081
2017-01-06,1,0.001624682379395238,0.0019439331814379967,-0.006911935893464226,0.009203138386598789,0.9866247784133586
2017-01-10,1,0.0016873349308914954,0.0020142278981087622,-0.006911935893464226,0.009203138386598789,0.9865272946789766
2017-01-12,1,0.0015957240784573593,0.0019009918497387651,-0.006911935893464226,0.00857620061114354,0.9875681646407586
2017-01-17,1,0.0018015910329662165,0.0021237497974213836,-0.006911935893464226,0.0076199225908367245,0.9868778100128512
2017-01-19,1,0.0009004008074758308,0.001058332110085086,-0.006482029551656332,0.009133102527301222,0.9865388970791928
2017-01-23,1,0.0014426850900772416,0.0016910947861966791,-0.0025543445756750324,0.007098414133822492,0.9875586502086181
2017-01-25,1,0.0019053721663312615,0.002221736549780499,-0.002702218614842906,0.0067083866981184695,0.9880686254489738
2017-01-27,0,-1.2448992034140571e-06,4.544344831394764e-05,-0.0007521535655093723,0.007098414133822492,0.9917531476562929
2017-01-31,1,0.0008258001362503908,0.0010015316101535904,-0.002702218614842906,0.0067083866981184695,0.9919491741199459
2017-02-02,-1,-2.4739598710732184e-05,-2.0356616804131546e-05,-0.0010393298542769938,0.0074105240875417125,0.9912824670785328
2017-02-06,1,0.00029698585315433444,0.0003441883911465216,-0.007973919681339418,0.0074105240875417125,0.9900266333735007
2017-02-08,1,0.00027778047018684154,0.00030362265267698855,-0.007973919681339418,0.008764606328089399,0.9896651556612653
2017-02-10,-1,-0.00034183549005287824,-0.00026485586642593657,-0.007973919681339418,0.008764606328089399,0.9893629476655119
2017-02-14,1,0.0009006604200423445,0.0009939231406567942,-0.007973919681339418,0.007859979014559912,0.9907967026684739
2017-02-16,1,0.0006819092536638669,0.0007386238237163877,-0.007973919681339418,0.006120427712689782,0.9917633297918548
2017-02-21,1,0.0008499859294526611,0.0009343190696044143,-0.008141406987756747,0.00495958822381733,0.9914589937494918
2017-02-23,1,0.0003182890150749645,0.0003278867553529613,-0.007782490158433905,0.00495958822381733,0.9918653945672339
2017-02-27,1,0.0006866259277097136,0.0007303360953407499,-0.007782490158433905,0.00495958822381733,0.9915961287688507
2017-03-01,1,0.0001868251681071661,0.00020492708369649666,-0.00612272768988892,0.008314391941329257,0.991541235733184
2017-03-03,1,0.0009013636094253911,0.0009783608519949149,-0.008002891941917447,0.00495958822381733,0.9916197191317453
2017-03-07,-1,-0.00015631771717678866,-8.127899343946313e-05,-0.00674941139777289,0.00495958822381733,0.9926160757910054
2017-03-09,1,0.0002908723582105133,0.0003138457441019253,-0.007235509608881142,0.002891165548615895,0.992886359542533
2017-03-13,-1,-0.0002131989402545479,-0.00011869249732527254,-0.00656495926807025,0.004837794670682774,0.9928770960517765
2017-03-15,-1,-0.0001608854103889387,-7.174390256261442e-05,-0.007235509608881142,0.0025536149301149027,0.9930296395382795
2017-03-17,-1,-0.00042595474788965936,-0.00030715106034955204,-0.007235509608881142,0.0033731869657922017,0.9930177647917932
2017-03-21,-1,-0.000887082159199773,-0.000697198839600444,-0.008683486543456412,0.0033731869657922017,0.9910222962991351
2017-03-23,-1,-0.00043409421078358123,-0.000326941266457322,-0.01043025696426934,0.0076654418049694065,0.9899447832018203
2017-03-27,1,0.000221370451207211,0.00024668339506465616,-0.01043025696426934,0.0030498390950541494,0.9902585073076725
2017-03-29,1,0.0006710790194971193,0.0007878234275335894,-0.01043025696426934,0.0030498390950541494,0.9897088566414738
2017-03-31,-1,-0.00032679269307959405,-0.0002466733307285153,-0.00889715139098541,0.0030498390950541494,0.990744775434521
2017-04-04,-1,-0.0008346195339395873,-0.0006611787795696425,-0.007499174197565717,0.0057888518659223905,0.9910222686560642
2017-04-06,1,0.0003580293083753549,0.00043992745952358,-0.007499174197565717,0.007249606408360084,0.9895553835999786
2017-04-10,1,0.00029930477785327384,0.00034816249037455683,-0.007499174197565717,0.007249606408360084,0.9896271085354053
2017-04-12,-1,-0.0005624736133671721,-0.0004642666781152845,-0.00575098780292811,0.008597225080861,0.9890741678418026
2017-04-17,-1,-0.0006195446147875426,-0.0005014465273068412,-0.007309292435503315,0.008597225080861,0.989032929876904
2017-04-19,-1,-0.0016898539018373464,-0.0014597515587319618,-0.00575098780292811,0.008597225080861,0.990665292233836
2017-04-21,-1,-0.0013635696168105595,-0.0011920007209433009,-0.004499298700585866,0.008597225080861,0.9876387941463983
2017-04-25,-1,-0.001199632858349964,-0.0010322642114312859,-0.004228379709656465,0.01612422167909694,0.986146148555069
2017-04-27,-1,-0.00033626054751977074,-0.0002832623304517835,-0.004228379709656465,0.01445650503013586,0.9865817437248936
2017-05-01,-1,-0.0004816068540550052,-0.0004293632389205218,-0.004499298700585866,0.01445650503013586,0.9861694078718661
2017-05-03,-1,-0.0009581435391056814,-0.0008228943332266002,-0.004228379709656465,0.01612422167909694,0.9855073816236221
2017-05-05,-1,-0.00010995465218001022,-0.00010545850932420192,-0.0031719175775462355,0.01445650503013586,0.9872196471483129
2017-05-09,1,0.0001355583211077287,0.00017155629019176315,-0.0031719175775462355,0.01445650503013586,0.9867954558566198
2017-05-11,1,0.00031328756015886204,0.0003302979683606581,-0.0031719175775462355,0.009241738371410655,0.9873706301138698
2017-05-15,1,1.7092268510544357e-05,3.8825730358225804e-05,-0.0031719175775462355,0.009241738371410655,0.9873454285676402
2017-05-17,-1,-0.0006367561280393715,-0.0005477565784689571,-0.001534793678954319,0.009241738371410655,0.98771515023269
2017-05-19,1,0.0006302924651883892,0.0006929088922179394,-0.001534793678954319,0.008738643772790064,0.9905975318504635
2017-05-23,1,0.0010861233838937734,0.001202037174168184,-0.0028265612284300488,0.00755474767147012,0.99179062274364
2017-05-25,1,0.0012159508578760067,0.001338490319817817,-0.0028265612284300488,0.007834264937429964,0.9916355825412045
2017-05-30,1,0.001570263593401786,0.0017927690089821653,-0.0028265612284300488,0.007834264937429964,0.9919324021965451
2017-06-01,1,0.001735291444799589,0.0019603108041444696,-0.004988917190637883,0.00755474767147012,0.9918579617431662
2017-06-05,1,0.0014073549414014529,0.0015950485137015548,-0.004988917190637883,0.00755474767147012,0.9917236790407238
2017-06-07,1,0.0010707696598844668,0.0012110645664119273,-0.004988917190637883,0.00755474767147012,0.9921874989053561
2017-06-09,1,0.0013889850441211845,0.0015841683708437478,-0.004988917190637883,0.007741738234312842,0.9922125918995391
2017-06-13,1,0.0008606018307028596,0.0009562368308071353,-0.0015205511114124827,0.007741738234312842,0.992310123836972
2017-06-15,1,0.0013468113644039576,0.0015230167299152765,-0.0015205511114124827,0.007374457668778257,0.9924992692698026
2017-06-19,1,0.0014828054942916508,0.001702558003610767,-0.0015205511114124827,0.006934091622926926,0.9933793563002603
2017-06-21,1,0.0008887264208246122,0.0009183782650018669,-0.0011613668654154188,0.005850061083207404,0.9938012098569323
2017-06-23,1,0.0013267216102924465,0.001451354957787179,-0.0011613668654154188,0.004993957465160719,0.9946288710226444
2017-06-27,1,0.001024944168894352,0.001088204604339367,-0.0011613668654154188,0.005196368070935471,0.9943914929489346
2017-06-29,1,0.00044166104681469815,0.00044554946048985897,-0.0009386883796220921,0.005196368070935471,0.9940639846759026
2017-07-03,1,0.0007864078612211247,0.0008414863624267755,-0.0038108989305887056,0.004993957465160719,0.9939347681004875
2017-07-06,1,0.0003712296163801646,0.00039232331504797304,-0.0048626259722577975,0.004993957465160719,0.9929241068782698
2017-07-10,1,0.001207654455274164,0.001366723457987334,-0.005047212232005641,0.004993957465160719,0.992858631857752
2017-07-12,1,0.0010049580247622294,0.001124339226079654,-0.008284864423420782,0.004993957465160719,0.9918038976557432
2017-07-14,1,0.0013078239723378071,0.0014765960390544044,-0.011703761610485808,0.004011643786734723,0.9905894844447138
2017-07-18,1,0.000612414046349592,0.0006686641193999848,-0.008284864423420782,0.002236461681837401,0.991385846434825
2017-07-20,1,0.0010337992490888257,0.0011668540464638338,-0.010387292535226344,0.0021410634538096595,0.9906030651603204
2017-07-24,1,0.0009744142629989175,0.001067868796041498,-0.010387292535226344,0.00014741461213759824,0.9906717394529568
2017-07-26,1,0.0011312140405430194,0.0012872070217978815,-0.010387292535226344,0.00014741461213759824,0.9901286386405591
2017-07-28,1,0.00027959728465936176,0.0002825506179404313,-0.0080711712835298,0.0010210140157309847,0.9913858178792555
2017-08-01,1,0.00028808050739606686,0.0003106329588458275,-0.008220995374310217,0.002114080455634359,0.9911753543888369
2017-08-03,-1,-0.0003465181999261553,-0.0002760412314018368,-0.007199494913029869,0.004896187088343883,0.9921226382590262
2017-08-07,-1,-5.968961329155765e-05,-2.7111740294321902e-05,-0.007400874374545265,0.002114080455634359,0.9920152642067221
2017-08-09,-1,-0.0006671010777589218,-0.000550732374341789,-0.007199494913029869,0.004896187088343883,0.9909116958106932
2017-08-11,-1,-0.0011628667176238753,-0.0009750384487498137,-0.005756379945594107,0.008954792775304077,0.9910868463354174
2017-08-15,-1,-0.0011005014043419692,-0.000925611091621159,-0.006077339365440155,0.009992376616672828,0.9901410283605779
2017-08-17,-1,-0.0008359560603445116,-0.0007237478168483473,-0.007400874374545265,0.009992376616672828,0.9884886284427951
2017-08-21,-1,-0.0009267990897704162,-0.0008065658255358356,-0.008098316526974774,0.009992376616672828,0.988347818058179
2017-08-23,-1,-0.0011584755463627584,-0.000986281171243981,-0.008098316526974774,0.012813237070637843,0.9879480569813923
2017-08-25,-1,-0.0012517121236759717,-0.001059982819172848,-0.008098316526974774,0.012813237070637843,0.9875468005003432
2017-08-29,-1,-0.0013169777378583335,-0.0011118820482883302,-0.0050336712308884785,0.012813237070637843,0.9875724496749733
2017-08-31,-1,-0.000668843135579019,-0.0005501627972913555,-0.00996633633478999,0.010128458517627448,0.9881395546597556
2017-09-05,-1,-0.001409926166717315,-0.0011851810497996475,-0.008570110364142219,0.011105890205186243,0.9875515422392788
2017-09-07,0,-5.734484513007817e-05,5.063199913864978e-06,-0.008570110364142219,0.008691056049595334,0.9903509035922596
2017-09-11,-1,-0.0007886007570828182,-0.0005821477923257175,-0.01247511348557735,0.007291893702329308,0.9897301489311695
2017-09-13,-1,-0.0010893051009189278,-0.0008400900494188951,-0.01027263020938543,0.007324642296307443,0.9903341870894594
2017-09-15,-1,-0.002324103035994044,-0.001927348218387887,-0.008570110364142219,0.007324642296307443,0.9910313688974499
2017-09-19,-1,-0.0020904212932308366,-0.0017561048220554572,-0.004898769317535079,0.007324642296307443,0.991403740332188
2017-09-21,-1,-0.0013936083047932394,-0.0011233293977110132,-0.004898769317535079,0.005378569886907353,0.991748264161208
2017-09-25,-1,-0.0015855080655440765,-0.0012788831313049116,-0.009709674645407382,0.0050184570732340235,0.9914188444555524
2017-09-27,-1,-0.0012205343362545636,-0.000979237993668965,-0.009709674645407382,0.006244303855287454,0.9908466722731049
2017-09-29,-1,-0.0015192772034628805,-0.0012570975501474332,-0.015967954652098996,0.006244303855287454,0.9864236425149353
2017-10-03,-1,-0.0017675936436275944,-0.0014655410090650904,-0.015967954652098996,0.006244303855287454,0.9860965134070437
2017-10-05,-1,-0.0019728842404233993,-0.0016321744804556454,-0.017007559775074177,0.008874114618461122,0.9847150174760592
2017-10-09,-1,-0.003955545105023971,-0.003332706858405694,-0.016695969546825996,0.008874114618461122,0.9850516833751972
2017-10-11,-1,-0.0026379889422301272,-0.002264585900239764,-0.016695969546825996,0.011343842498910111,0.9839180307410605
2017-10-13,-1,-0.0026361556860773983,-0.0023433004300593015,-0.016695969546825996,0.011343842498910111,0.9844540881320628
2017-10-17,-1,-0.0020536149866958427,-0.001873348902468221,-0.016695969546825996,0.011343842498910111,0.9838048206715845
2017-10-19,-1,-0.0008629680574245792,-0.0008218609604473155,-0.016695969546825996,0.012786199676962807,0.9827455206104749
2017-10-23,-1,-0.0007952884372798558,-0.0007736244289858725,-0.017541192207455,0.012786199676962807,0.9823611276123791
2017-10-25,1,0.00011551467499104959,0.000254698936274161,-0.017541192207455,0.019943105047121143,0.980814626788293
2017-10-27,-1,-0.005135500328902313,-0.004600508557021977,-0.00926876659958655,0.019943105047121143,0.9848016304499896
2017-10-31,-1,-0.0035294057193229144,-0.0032128957365646135,-0.00926876659958655,0.01982121944612341,0.9849598824112857
2017-11-02,-1,-0.0038862817447059585,-0.0035159348784604538,-0.008148623084819192,0.01982121944612341,0.9861075824934166
2017-11-06,-1,-0.0038807556444556187,-0.00354471530981591,-0.008148623084819192,0.020142553701017852,0.9841477014929536
