JNU-Tangyin/eata/results/Batch4_SP500/Batch4_SP500-HSIC.csv
Date,Action,Predicted_Q25,Predicted_Q75,Actual_Q25,Actual_Q75,RL_Reward
2010-12-14,0,0.0,0.0,-0.0019190679717989365,0.008627245270134589,0.9937637738651304
2010-12-16,0,0.0,0.0,-0.0019190679717989365,0.005096725727488177,0.9942966296504142
2010-12-20,0,0.0,0.0,-0.0025311481206214104,0.005096725727488177,0.9931085048733012
2010-12-22,0,0.0,0.0,-0.0019190679717989365,0.005096725727488177,0.9933150869549107
2010-12-27,0,0.0,0.0,-0.0019190679717989365,0.007741628924675559,0.9926228238900963
2010-12-29,0,0.0,0.0,-0.0019190679717989365,0.007741628924675559,0.9923541992312852
2010-12-31,0,0.0,0.0,-0.0009224995699449866,0.007741628924675559,0.9926304692519391
2011-01-04,0,0.0,0.0,-0.0009224995699449866,0.007741628924675559,0.9926009198966433
2011-01-06,0,0.0,0.0,-0.0024578737276154303,0.007747091111730065,0.9922558410017979
2011-01-10,0,0.0,0.0,-0.0016000551377099849,0.007747091111730065,0.9919057441448146
2011-01-12,0,0.0,0.0,-0.0048285551218379096,0.008249718278122235,0.9911235594351901
2011-01-14,0,0.0,0.0,-0.0048285551218379096,0.010517969181879194,0.9907194831658188
2011-01-19,0,0.0,0.0,-0.0016000551377099849,0.00975727169465551,0.991941700681198
2011-01-21,0,0.0,0.0,-0.0014807211780226669,0.00975727169465551,0.9913387298483353
2011-01-25,1,0.00028961875515574014,0.0020990954615836025,-0.0048285551218379096,0.00849740968529953,0.9910491933186745
2011-01-27,1,0.0016339250337959442,0.0017105035344431884,0.0015485860806594637,0.00975727169465551,0.9896569903085122
2011-01-31,1,0.001495565708394459,0.0015464696256352855,-0.0057993780136051595,0.00975727169465551,0.9891715938975836
2011-02-02,1,0.0017384117194327304,0.0018527712510823138,-0.0057993780136051595,0.00975727169465551,0.9895192185794186
2011-02-04,1,0.0021026090207388565,0.002286226425085618,-0.006529573427430241,0.00849740968529953,0.989611739221388
2011-02-08,1,0.002207194161058324,0.00240096469980504,-0.006529573427430241,0.00975727169465551,0.9886325735945917
2011-02-10,1,0.0020620484232559684,0.002235692440615953,-0.006529573427430241,0.00849740968529953,0.9884933079632455
2011-02-14,0,0.0,0.0,-0.008289248296020806,0.007063942799133808,0.9880066916716447
2011-02-16,1,0.0026017425949912487,0.0028383048720426766,-0.009749992859496185,0.007063942799133808,0.9875060391365882
2011-02-18,1,0.0031350294352843885,0.0034441233980470856,-0.009749992859496185,0.007392603472379225,0.9870542230365293
2011-02-23,1,0.0019316542851684692,0.0021074223548310923,-0.009173688037010798,0.007392603472379225,0.9887986131471764
2011-02-25,1,0.002453367048065724,0.002641770351366322,-0.009173688037010798,0.004896446112076621,0.9895069683278338
2011-03-01,1,0.002216749326003265,0.0024099571391999644,-0.009173688037010798,0.009963842699012867,0.9897191467271348
2011-03-03,0,0.0,0.0,-0.009173688037010798,0.009963842699012867,0.9904411295299911
2011-03-07,1,0.002544586309994735,0.0027622952590073612,-0.006913962651067231,0.01067873836364464,0.9910305097272154
2011-03-09,0,0.0,0.0,-0.009173688037010798,0.009260863964490405,0.9913796355871051
2011-03-11,0,0.0,0.0,-0.009173688037010798,0.009260863964490405,0.9919539669645773
2011-03-15,0,0.0,0.0,-0.004302247200510662,0.009260863964490405,0.992600671173146
2011-03-17,0,0.0,0.0,-0.003026333328085162,0.01067873836364464,0.9919330267691994
2011-03-21,1,0.0010547030237598922,0.0011410074804994615,-0.005345946419734299,0.006851224877034234,0.9919203386601254
2011-03-23,1,0.0007103057102655827,0.0008527738370987706,-0.003026333328085162,0.011603063519637843,0.9912888516596646
2011-03-25,1,8.117547108614422e-05,0.0002623236419066863,-0.003026333328085162,0.010283868014453246,0.9917505938083157
2011-03-29,1,0.0011132713527293296,0.0011457559849643534,-0.003026333328085162,0.011727446573148165,0.9911674985778584
2011-03-31,1,0.0014676832145210062,0.0014829537156016465,-0.003026333328085162,0.010283868014453246,0.9917168358829103
2011-04-04,1,0.0014980738223613684,0.0015037387817453808,-0.004787317188005757,0.01186173265641067,0.9911895191995285
2011-04-06,1,0.0010878963796282315,0.001139452145350699,-0.005405289896676664,0.01186173265641067,0.9908315153787779
2011-04-08,1,0.00016326346441757468,0.0003358286975891055,-0.004204285712003527,0.01186173265641067,0.9913160313469928
2011-04-12,-1,-0.0003177621328409653,-7.515854860152334e-05,-0.004204285712003527,0.01186173265641067,0.9908891691986387
2011-04-14,1,0.0005970686856480746,0.0007035855481609436,-0.005405289896676664,0.01186173265641067,0.9904400289182106
2011-04-18,-1,-0.0007812117514096261,-0.00045224822818979566,-0.005405289896676664,0.01186173265641067,0.991173572812129
2011-04-20,1,0.0003299885193154376,0.0005068493297140692,-0.005405289896676664,0.009166474426121087,0.9913159086965977
2011-04-25,1,5.729016996729576e-05,0.00026904845359414784,-0.007200465704958698,0.009166474426121087,0.9901732888880742
2011-04-27,1,0.0015775563589822508,0.0015976352753540703,-0.008191830766595878,0.006813216655846054,0.9905389945526218
2011-04-29,1,0.0012674263295396292,0.0013013632202399886,-0.008191830766595878,0.006813216655846054,0.9907362905557348
2011-05-03,1,0.001049846567309116,0.0011351945551991236,-0.010920730361272741,0.006813216655846054,0.9903755465424445
2011-05-05,1,0.0005381821722419023,0.0006471843708885643,-0.010920730361272741,0.006813216655846054,0.9905002506910707
2011-05-09,1,0.000744674438401427,0.0008379343042393338,-0.012396903454337289,0.0062837896746554935,0.9897902304214012
2011-05-11,1,0.000679303278795614,0.0007247009889941793,-0.012396903454337289,0.0062837896746554935,0.990081980509305
2011-05-13,1,0.00045609952036874317,0.0005145870472482548,-0.009312656110681983,0.0057679202015758395,0.9912434418119872
2011-05-17,1,7.709395406149005e-05,0.0001852501648967083,-0.009522093657744559,0.0057679202015758395,0.9911520612281495
2011-05-19,1,0.00041595599353808196,0.000493352942057734,-0.009522093657744559,0.005982388441458338,0.99149395277445
2011-05-23,-1,-0.0005478032953748915,-0.0003630184712358447,-0.00867690704392918,0.006755332155208163,0.9917346732441811
2011-05-25,-1,-0.0010401244619120788,-0.0007672774293332887,-0.00867690704392918,0.006330549903037172,0.9919561986340594
2011-05-27,-1,-0.0006908857328142749,-0.0004613737020687724,-0.008935896758663601,0.006330549903037172,0.9912537560487509
2011-06-01,-1,-0.0009354637026241803,-0.0006962388274375666,-0.00867690704392918,0.006330549903037172,0.991855240169189
2011-06-03,-1,-0.0013235270964771489,-0.0010286770430533536,-0.005642655287965038,0.008627669988560098,0.9910487707186625
2011-06-07,-1,-0.0014387891822606972,-0.0011568424894379896,-0.0005095674387586512,0.009773493818674662,0.9911014945571782
2011-06-09,-1,-0.0009342636918500887,-0.0007289068638136406,-0.0054599135783554185,0.009469776610201111,0.991191015638182
2011-06-13,-1,-0.0009158825017329025,-0.0007280247229866374,-0.0054599135783554185,0.009469776610201111,0.9911058916087225
2011-06-15,-1,-0.0012325545679750434,-0.0010136474318511823,-0.0054599135783554185,0.009469776610201111,0.9907292281622206
2011-06-17,-1,-0.00044567842232833026,-0.00034314114467951976,-0.008178234082772167,0.008590571425384079,0.990812771450597
2011-06-21,-1,-0.00012637597265555226,-4.410305271207286e-05,-0.008178234082772167,0.008590571425384079,0.9909295529490447
2011-06-23,-1,-0.0005471474928273168,-0.00041874833916391715,-0.005164470408985671,0.009397500411631253,0.9908762030424384
2011-06-27,-1,-0.0009224486938899146,-0.000744095936682912,-0.008986415923560797,0.009397500411631253,0.9893986250971151
2011-06-29,-1,-0.0008186093071457644,-0.0007241775374039716,-0.01270270375946957,0.008578845546919466,0.988885233830533
2011-07-01,1,0.0001820455778324769,0.00022181040464012213,-0.01270270375946957,0.0054476255074452085,0.9893266165486054
2011-07-06,1,0.0002817950754006271,0.0003483270443294214,-0.014510024626087463,0.0029610842943891802,0.9889009210680965
2011-07-08,1,0.00035471430295318875,0.0004743307676994654,-0.01685989400659771,0.0029610842943891802,0.9875439814199579
2011-07-12,1,0.00014221236900126982,0.000263302928361717,-0.019562093557892093,0.0054476255074452085,0.9841863935550303
2011-07-14,1,0.00020339149738475765,0.0003477213301788218,-0.024214418268077666,0.006296237491543887,0.9810203118753587
2011-07-18,-1,-0.00036455778037758054,-0.00027592859838583615,-0.024214418268077666,0.009618285800410359,0.9809834702796314
2011-07-20,1,0.00038805924534169754,0.00044853108165154377,-0.024214418268077666,0.0064095372394199854,0.9807142367574326
2011-07-22,1,0.00032707256638654224,0.00035506769821287687,-0.0268309821539242,0.0053041583936283354,0.9792868088492951
2011-07-26,-1,-0.0010392350052010548,-0.0009267517740357219,-0.024214418268077666,0.010298081723741017,0.9793972326076318
2011-07-28,-1,-0.0021886736578151746,-0.0018893406536510773,-0.026482499190761184,0.011936541459516342,0.9774635164264541
2011-08-01,-1,-0.002200551808756954,-0.0019264979304491575,-0.026482499190761184,0.024806032631822624,0.9756041480939314
2011-08-03,-1,-0.0035274270531512773,-0.003056109421759553,-0.02196867741114903,0.024806032631822624,0.9760595840879983
2011-08-05,-1,-0.0047900745361926355,-0.004136295952234062,-0.020454316123123206,0.024806032631822624,0.9765649997255489
2011-08-09,-1,-0.005337784535602928,-0.004591673837126143,-0.012200748953874291,0.024806032631822624,0.97827345446355
2011-08-11,-1,-0.004196349291185703,-0.003626177008500502,-0.018583664256807172,0.01878013416480614,0.9796212179661568
2011-08-15,-1,-0.00437260719264708,-0.003792010462906887,-0.018583664256807172,0.019881997657683323,0.9793725127973582
2011-08-17,-1,-0.004809492955917881,-0.004198970680727309,-0.012704584969807673,0.023360316038596632,0.9784612903347291
2011-08-19,-1,-0.005753396343428616,-0.0050780518242379185,-0.009842921580576031,0.023360316038596632,0.9785703766207423
2011-08-23,-1,-0.0033244907450162174,-0.0029670939459922763,-0.012371659464410455,0.020625513984135275,0.9808714174944189
2011-08-25,-1,-0.003947271316708449,-0.003530713967303547,-0.012371659464410455,0.018667263744928317,0.9817048189279556
2011-08-29,-1,-0.0020305101903874702,-0.0018279584009759321,-0.012371659464410455,0.01636936342857868,0.9823251383986322
2011-08-31,-1,-0.002098711038128525,-0.001857702924414489,-0.01909639578841566,0.01636936342857868,0.9810084548019374
2011-09-02,-1,-0.0037144567657820143,-0.003276349275738876,-0.021206350313807566,0.01636936342857868,0.9796443934396027
2011-09-07,-1,-0.0022268099332545645,-0.0019919206305457583,-0.021206350313807566,0.01636936342857868,0.9799809103268321
2011-09-09,-1,-0.005385889518582698,-0.004759592938675651,-0.010779484755002667,0.01636936342857868,0.9821333921336061
2011-09-13,-1,-0.00362994906410816,-0.0032621857843018647,-0.010779484755002667,0.02012904664344381,0.9815617561415616
2011-09-15,-1,-0.0022280542210321836,-0.002014763245268933,-0.010779484755002667,0.01676876881802994,0.98260676297043
2011-09-19,-1,-0.0009129103720751516,-0.0009072801968091264,-0.0194414105088993,0.013652058413856225,0.9829556205266387
2011-09-21,-1,-0.0013494719230397075,-0.001307029031821317,-0.011457424980883523,0.013652058413856225,0.9834072072615573
2011-09-23,-1,-0.0013530282763843126,-0.0013368804248659843,-0.004094009590355611,0.017669157775273708,0.9839463546508883
2011-09-27,-1,-0.00012604733674563388,-2.489874598252909e-05,-0.010251557647844965,0.017669157775273708,0.9846119853726483
2011-09-29,-1,-0.000759701986392142,-0.000717672577134142,-0.004094009590355611,0.018571025943760183,0.9836971998870401
2011-10-03,-1,-0.0034485055262099312,-0.003180188773528502,-0.002550903969168449,0.01966128678781831,0.9836296465249944
2011-10-05,1,0.001300898261305415,0.0014944020975475709,-0.004094009590355611,0.0181515392617233,0.9833709658613996
2011-10-07,1,0.0006800489525354983,0.0007768911274483319,-0.0033876160507237967,0.0181515392617233,0.9829308753608289
2011-10-11,1,0.0030037632148900294,0.0034322679857575872,-0.0033876160507237967,0.015914021826871547,0.9850293691310489
2011-10-13,1,0.0028701690750540594,0.003235376102921497,-0.008737547237202544,0.015914021826871547,0.9828165437934442
2011-10-17,1,0.0018708471128149767,0.002096549430125735,-0.007989392170814548,0.015914021826871547,0.9824168699314055
2011-10-19,1,0.0021535557054646963,0.0024182587585276118,-0.014407296655223646,0.015914021826871547,0.9811068584692383
2011-10-21,1,0.0032392773134010877,0.0036410045810172332,-0.01733393970365206,0.013522618703899753,0.9809209061444553
2011-10-25,1,0.002936062387912498,0.003267548581420401,-0.01541193568848391,0.012883381477410638,0.9814609274685591
2011-10-27,0,0.0,0.0,-0.01541193568848391,0.010173416638782809,0.9831128085321108
2011-10-31,0,0.0,0.0,-0.013766628650167596,0.010173416638782809,0.9832536158147701
2011-11-02,0,0.0,0.0,-0.012648581456768764,0.010939787616695326,0.9854387104747222
2011-11-04,1,0.00040809173355797307,0.0005098225996418887,-0.012648581456768764,0.013252138369734604,0.985154567257541
2011-11-08,1,0.0013845719652888309,0.001643123376268246,-0.012648581456768764,0.010481044035063765,0.9854370115559279
2011-11-10,1,0.0009148878284458898,0.0011460527398225923,-0.012648581456768764,0.013252138369734604,0.985478607552869
2011-11-14,1,0.0007780900640889325,0.0009801811420403917,-0.012756068518100712,0.010481044035063765,0.9855141919653659
2011-11-16,0,0.0,0.0,-0.011828115080515622,0.013097101141792692,0.9861702998900884
2011-11-18,0,0.0,0.0,-0.008374487061871633,0.013097101141792692,0.9871589904254034
2011-11-22,0,0.0,0.0,-0.0081974093857464,0.014214596300789424,0.9864914576707705
2011-11-25,0,0.0,0.0,-0.0081974093857464,0.014214596300789424,0.986685600603967
2011-11-29,0,0.0,0.0,-0.008374487061871633,0.009070601975138246,0.9876575065826583
2011-12-01,0,0.0,0.0,-0.008374487061871633,0.008180704413463951,0.9885992622469187
2011-12-05,0,0.0,0.0,-0.0081974093857464,0.008180704413463951,0.9885827544815585
2011-12-07,1,0.002870842649704509,0.0034853877454884595,-0.007539614194024377,0.010162619018368957,0.9892208087928119
2011-12-09,0,0.0,0.0,-0.0059865053375991045,0.010162619018368957,0.990258334994325
2011-12-13,0,0.0,0.0,-0.003188277126119924,0.010910156606486053,0.9905782619951478
2011-12-15,0,0.0,0.0,-0.0017796980692451059,0.010162619018368957,0.9914211044118328
2011-12-19,0,0.0,0.0,-0.0012221827534162131,0.010162619018368957,0.9914473969448646
2011-12-21,0,0.0,0.0,-0.0017796980692451059,0.009122826769108576,0.9928463612492957
2011-12-23,0,0.0,0.0,-0.0017796980692451059,0.010162619018368957,0.9923582911313258
2011-12-28,0,0.0,0.0,-0.0014795064331403467,0.010162619018368957,0.9928921272861819
2011-12-30,0,0.0,0.0,-0.0012905307534527028,0.009122826769108576,0.9936051932754648
2012-01-04,1,0.0012313118807962627,0.0014533783432524173,-0.0011993067728704023,0.009122826769108576,0.9936832065809447
2012-01-06,1,0.001736579506447192,0.0019064855994972542,-0.0011993067728704023,0.008628106352035422,0.9940714376315503
2012-01-10,1,0.0009690710749111753,0.0010740542946646749,-0.0014108784915029136,0.007461201258882957,0.9939320604636159
2012-01-12,1,0.0015767709346365226,0.0016191301492938413,-0.0019613219262159284,0.005900159474744221,0.9941646725395292
2012-01-17,1,0.0024657985377887865,0.0027504834548361824,-0.0019613219262159284,0.008628106352035422,0.9932791876071176
2012-01-19,1,0.0008148096669347605,0.0008609816416130654,-0.0019613219262159284,0.009479137338023413,0.9919286331950212
2012-01-23,1,0.00204258312518577,0.0022902186427039596,-0.00314702626128983,0.008372218845238179,0.991380490147056
2012-01-25,1,0.002384553577781052,0.002670366709682754,-0.004029861648323514,0.005900159474744221,0.9917335611914081
2012-01-27,1,0.0021436275880303336,0.002236752646045477,-0.005651221616658137,0.006184317078253891,0.9915341890244873
2012-01-31,1,0.003233178521968501,0.0036251204810595133,-0.00605319639462449,0.008762136611418659,0.9904022696842583
2012-02-02,1,0.002112062082852091,0.0021820340914645428,-0.007419082602468414,0.0032732480549423405,0.9911196365574124
2012-02-06,1,0.0011916203248083124,0.001198771246386234,-0.008941718984461096,0.0032732480549423405,0.9908630591588026
2012-02-08,1,0.0021659777116594565,0.0023387316667980084,-0.007542946129905705,0.008762136611418659,0.9907854714500234
2012-02-10,1,0.0015098377285962554,0.0015109200516353347,-0.006100472894492254,0.009449619187161749,0.990804097368703
2012-02-14,1,0.001290463595815121,0.0012949147185109772,-0.006100472894492254,0.008458019700574256,0.990704830665464
2012-02-16,1,0.002947903715233389,0.003158593005149074,-0.006100472894492254,0.008458019700574256,0.9916090580853852
2012-02-21,1,0.0037406926999041675,0.004099954027044627,-0.005769079031360812,0.008458019700574256,0.9920700870882219
2012-02-23,1,0.0033617547799480244,0.0036545169983521466,-0.00618661240613384,0.008458019700574256,0.9915242294464067
2012-02-27,0,-2.24027259652954e-05,0.000222868594700249,-0.00618661240613384,0.009304594004846973,0.9916921019064155
2012-02-29,0,-0.00016253273240743392,0.00012243418379897272,-0.004506072344051362,0.006908139344407112,0.9926966048175973
2012-03-02,-1,-0.0007771608344573764,-0.0005051616754637685,-0.004232928785503591,0.006908139344407112,0.9929469203318605
2012-03-06,1,0.0013637795628686064,0.001454079754901551,-0.002882530314927029,0.007736970345636859,0.993076863208451
2012-03-08,1,0.0013637381503022747,0.0014239248654402733,-0.004232928785503591,0.00643862870084695,0.9932326472497794
2012-03-12,1,0.0006568468049072309,0.0007641658376025934,-0.00536718173049053,0.006066391869657146,0.9924886742190033
2012-03-14,1,0.0022939088761398667,0.0024959431991621065,-0.00536718173049053,0.006066391869657146,0.9927876281730037
2012-03-16,1,0.002182236891442918,0.0023676929283036035,-0.007559374504839646,0.005980733060147835,0.9922748701754277
2012-03-20,1,0.002321606892850506,0.00260325991829054,-0.006473449862241545,0.005980733060147835,0.9916654245001251
2012-03-22,1,0.0020133449315791136,0.0022505719627393386,-0.006473449862241545,0.005980733060147835,0.9920309312906466
2012-03-26,0,0.0,0.0,-0.008398621033720114,0.005980733060147835,0.9917235976627079
2012-03-28,0,0.0,0.0,-0.008398621033720114,0.008061655564872892,0.9904694721640057
2012-03-30,0,0.0,0.0,-0.008398621033720114,0.010646218661687828,0.9899104467783233
2012-04-03,0,0.0,0.0,-0.008398621033720114,0.010646218661687828,0.9902104889909079
2012-04-05,0,0.0,0.0,-0.010090873024875312,0.010646218661687828,0.9894718792531495
2012-04-10,1,0.00046757262808795087,0.000529901342368965,-0.006166130993497408,0.011268159702373898,0.9891114504223281
2012-04-12,1,0.000500726191173829,0.0005864894813759875,-0.007476664427487704,0.010646218661687828,0.9889671450100347
2012-04-16,-1,-0.000707277698865824,-0.0004427710115532193,-0.007476664427487704,0.010646218661687828,0.9894225168641073
2012-04-18,0,0.0,0.0,-0.008242775122658872,0.007143952374098209,0.9899078676481624
2012-04-20,0,0.0,0.0,-0.008805236769530265,0.007143952374098209,0.988848846111361
2012-04-24,0,0.0,0.0,-0.008258055642619682,0.007143952374098209,0.9888780535639854
2012-04-26,0,0.0,0.0,-0.008258055642619682,0.005556258676582591,0.9897533245800041
2012-04-30,1,0.0006432128943341886,0.0007379916479045156,-0.008258055642619682,0.006131817376728521,0.9898341098935995
2012-05-02,1,0.0007905125707506789,0.0008925973748658224,-0.008805236769530265,0.006131817376728521,0.988820068680935
2012-05-04,-1,-0.00045179047884778573,-0.00018727944283692852,-0.008805236769530265,0.00643975701310559,0.9885690436664747
2012-05-08,1,0.0003913675219251628,0.0006152981016897753,-0.008805236769530265,0.00643975701310559,0.9895068118578744
2012-05-10,-1,-0.0004988549231193982,-0.00016706721806981786,-0.008258055642619682,0.00643975701310559,0.9899869100618452
2012-05-14,-1,-0.0008083696288661516,-0.00041924187341405125,-0.00844373297785534,0.007139494202158961,0.9896866247785118
2012-05-16,-1,-0.0004268078119800254,-0.00012178438483154694,-0.0076519143994567594,0.00911411745700475,0.9891614881555038
2012-05-18,-1,-0.001580937273807387,-0.0011473919426568588,-0.005337735134126707,0.012496745042333644,0.9882784712544289
2012-05-22,-1,-0.0008543438256166753,-0.0004566125288311667,-0.005700305232432052,0.01026627184320193,0.988370832420872
2012-05-24,-1,-0.0006946311936443452,-0.00032198469113985584,-0.007699664284524539,0.010967860365208106,0.9875077757967784
2012-05-29,1,9.94571503086702e-05,0.0003597077670888314,-0.01088807044913135,0.010967860365208106,0.987543422708521
2012-05-31,-1,-0.0007420631696949836,-0.0003934759294939744,-0.006318173242759993,0.012496745042333644,0.9876556884027657
2012-06-04,-1,-0.0013928374511814607,-0.0009719272726356185,-0.0035265174108246346,0.012496745042333644,0.9883424696237708
2012-06-06,-1,-0.00046235192244005496,-0.0001861088486507903,-0.004140143331099154,0.011127575042778939,0.9889565970259718
2012-06-08,-1,-0.0005241059049802566,-0.00022596917342923518,-0.00521850835534861,0.011127575042778939,0.9883575700975034
2012-06-12,0,-0.00017967308696176828,6.194466948291548e-05,-0.0031599624483541738,0.010918496040310931,0.9892667915009268
2012-06-14,1,0.00026580963883721185,0.00046159143523489296,-0.006553310488971597,0.010918496040310931,0.9886158339324398
2012-06-18,1,0.001897175365185909,0.001985187842928309,-0.0073849373047844245,0.00806085060015223,0.9902228667215353
2012-06-20,1,0.0013933850568327107,0.0014095908259186263,-0.004050797307232968,0.00806085060015223,0.9912067258647577
2012-06-22,1,0.0010123557718308234,0.0010473960798894138,-0.006952953256944691,0.005896870210968351,0.990847154760186
2012-06-26,1,0.0007242584242263684,0.000770878300981385,-0.006952953256944691,0.007918751615902732,0.9902419690598725
2012-06-28,1,0.0014308936334100288,0.0014577609717974236,-0.006952953256944691,0.009386461341150967,0.9896289788607249
2012-07-02,1,0.0016257130317876786,0.001651800149840134,-0.016376608625929857,0.007918751615902732,0.9880324219482876
2012-07-05,1,0.001419599921396979,0.001419903256274928,-0.016376608625929857,0.00633874045796793,0.9883533210535328
2012-07-09,1,0.001393172714349768,0.001474207396539738,-0.014223452578783645,0.009386461341150967,0.9885204241876467
2012-07-11,1,0.0016900004292564918,0.0018659711152101159,-0.014223452578783645,0.010313242654527712,0.9878066941406587
2012-07-13,1,0.001544084985983291,0.0016397788886027198,-0.007573541797724842,0.009386461341150967,0.9889691737014432
2012-07-17,1,0.0014144767510654434,0.0015156371106848365,-0.007573541797724842,0.007596931433360239,0.989288345038377
2012-07-19,1,0.0017340256232292815,0.001854368607235635,-0.007573541797724842,0.00988694570177922,0.9888079279300188
2012-07-23,1,0.000520513840981205,0.0005741190442675472,-0.005493019248868328,0.00988694570177922,0.9900195597881574
2012-07-25,0,-9.272184182703195e-05,2.1308470420584858e-05,-0.005493019248868328,0.0087586331033523,0.9910442904095513
2012-07-27,1,0.0007202108546993335,0.0007852298536673126,-0.005754493957227912,0.0039675007384552315,0.9918250396831269
2012-07-31,-1,-0.0007252827936817362,-0.0005284956289066836,-0.005145997167660521,0.0039675007384552315,0.9937547993200121
2012-08-02,1,2.3104485002331835e-05,0.00014539081123382644,-0.005145997167660521,0.0072208272338846,0.9934214155767975
2012-08-06,1,0.0009637732639854838,0.0010345046943312482,-0.005145997167660521,0.005667676275555312,0.9939901557439395
2012-08-08,1,0.001123371519771571,0.0012230913662805536,-0.00419405798051545,0.005667676275555312,0.9941100340220065
2012-08-10,1,0.001234654653847731,0.0013198605446931959,-0.00419405798051545,0.005253103033186544,0.994144926168825
2012-08-14,1,0.0007321472416191544,0.0007381753648851554,-0.004402540734478707,0.005253103033186544,0.9938069796828002
2012-08-16,1,0.0012596546019538113,0.001381340565892549,-0.005633361254779382,0.005253103033186544,0.9940743599001759
2012-08-20,1,0.001133983337139741,0.0012289966510107817,-0.0043175447205206175,0.004538048246892959,0.9945030329362785
2012-08-22,1,0.0008600581327539122,0.0009027540849843894,-0.003435796709099141,0.0057308773184065465,0.9938367756228291
2012-08-24,1,0.0006865864417289657,0.000726872806033676,-0.003150928330945702,0.00696164572890083,0.9944051281451357
2012-08-28,1,0.000457306870771658,0.0004988393761765042,-0.0033080864991638973,0.00696164572890083,0.9938013920862573
2012-08-30,-1,-0.00023318962178715146,-6.181009121402335e-05,-0.00352473307708662,0.0057308773184065465,0.9939079233540042
2012-09-04,1,0.00045658988147703327,0.0005175850031810237,-0.00352473307708662,0.0057308773184065465,0.9943350533629866
2012-09-06,1,0.00019414118594258928,0.00032681513584285465,-0.0030876140874854245,0.005687889325478111,0.994692429228725
2012-09-10,1,0.00030334260383816877,0.0003996482589050875,-0.002648760272079136,0.005590696184299656,0.9949506156467384
2012-09-12,-1,-0.00015281785763603632,-3.241968382429553e-05,-0.0032329500664638323,0.005590696184299656,0.9939879118875384
2012-09-14,-1,-0.00030227240548430094,-0.0001416520764676629,-0.0032329500664638323,0.005590696184299656,0.9938022059915709
2012-09-18,1,0.0005004238962531342,0.0005079086395745194,-0.0032329500664638323,0.005590696184299656,0.9938932451266379
2012-09-20,1,0.0012261971611822746,0.0013093684934704823,-0.004100819487158859,0.0033424125499784095,0.9936933864525659
2012-09-24,1,0.0014788486736150553,0.0015875054418310918,-0.005704217464005202,0.0030555972922756093,0.9934127824589578
2012-09-26,1,0.0007088826161900257,0.0007309771738883734,-0.005704217464005202,0.0030555972922756093,0.9931717483380609
2012-09-28,1,0.0012823350162942601,0.001411434830855644,-0.008439825877930643,0.0030402446217991756,0.9929369227923667
2012-10-02,1,0.0008398743952654087,0.0008446001940989866,-0.008439825877930643,0.003233821233842719,0.9913292680793876
2012-10-04,0,0.0,0.0,-0.008522081123470072,0.003233821233842719,0.9900306051583295
2012-10-08,0,0.0,0.0,-0.008522081123470072,0.008001547748777331,0.9887637619178751
2012-10-10,-1,-0.0010443294509997932,-0.00083153658179172,-0.008522081123470072,0.008001547748777331,0.9889618403619853
2012-10-12,-1,-0.0008204486085809576,-0.0006598439603123613,-0.008466609721713762,0.007613764634042641,0.9893581266237409
2012-10-16,-1,-0.0004606551792356231,-0.00036154973951358683,-0.008466609721713762,0.008539011685368757,0.9890799836506433
2012-10-18,-1,-0.0008400168614910283,-0.0007190796812376425,-0.006452849638020208,0.010054796854646332,0.9894673733626672
2012-10-22,-1,-0.001431295725440105,-0.0012056495966950099,-0.001740996267104703,0.010054796854646332,0.9894678753154222
2012-10-24,-1,-0.0019444408386001665,-0.0016350534254601947,-0.0008181471340677963,0.011635783916684534,0.9898324796792105
2012-10-26,-1,-0.0018928591438643614,-0.001614727240016843,-0.0008181471340677963,0.011635783916684534,0.9900310044471804
2012-11-01,-1,-0.0009914333161698068,-0.0008179724256689525,-4.408438246175585e-06,0.009066007372714825,0.9916525888212349
2012-11-05,-1,-0.000985938383296768,-0.000817985256408866,-0.00047776423195609565,0.008115947397822109,0.9934480517553654
2012-11-07,1,0.00011858989640358835,0.000135471768887176,-0.0014548712339375303,0.005531316342852947,0.9948795032380334
2012-11-09,1,0.00036075334698826983,0.00044932655172249636,-0.0008673358260794998,0.0037035654168764793,0.996065706781082
2012-11-13,1,0.00021582043553681807,0.00024221126844325034,-0.0012988217359964584,0.0038840513727965036,0.9956490979468612
2012-11-15,1,0.0005051603438204208,0.0005702045602242232,-0.0012988217359964584,0.0033092514933909687,0.9958026572380414
2012-11-19,1,0.0005693274721149799,0.0006131216633876082,-0.0012988217359964584,0.0033092514933909687,0.9959922702696475
2012-11-21,1,0.0010563183449406688,0.0012041894975398037,-0.0016371426878299216,0.005098257944932412,0.9955544785476811
2012-11-26,1,0.0012783511654993161,0.0014724413296538542,-0.0021727879019691363,0.0037272112423676995,0.9953549823408355
2012-11-28,1,0.0013075334968292826,0.001512591913602436,-0.003763499788265489,0.0037272112423676995,0.9950307453120606
2012-11-30,0,0.0,0.0,-0.003763499788265489,0.0037272112423676995,0.9950894919745175
2012-12-04,0,0.0,0.0,-0.003763499788265489,0.005098257944932412,0.9939396329385094
2012-12-06,0,0.0,0.0,-0.001921094422649332,0.0057048259724255465,0.9940250489577235
2012-12-10,0,0.0,0.0,-0.003331334183602414,0.0057048259724255465,0.993649203685028
2012-12-12,1,0.001064410238347944,0.0011222984565942222,-0.003509723293844252,0.005415367053585498,0.9941173860908085
2012-12-14,0,0.0,0.0,-0.003509723293844252,0.005431374873666422,0.9937563873911821
2012-12-18,0,0.0,0.0,-0.003509723293844252,0.005431374873666422,0.9938904151944443
2012-12-20,0,0.0,0.0,-0.003300561157678058,0.005431374873666422,0.9940564561665189
2012-12-24,0,0.0,0.0,-0.0015379772207387821,0.0062500818899502725,0.9938971464927921
2012-12-27,1,0.0007064002852063913,0.0007066505657116438,-0.000778146143507929,0.007902613914819608,0.993907860734629
2012-12-31,1,0.001214774172497763,0.001305578118156586,-0.0011866496876942034,0.007902613914819608,0.9941397022508935
2013-01-03,1,0.0018624455759736415,0.00204175937118562,-0.0021526912626367504,0.007902613914819608,0.9945500587778192
2013-01-07,1,0.0020367670707416895,0.002245983966697741,-0.0031972883801971797,0.007615955779289808,0.9944522971782571
2013-01-09,1,0.0018882825933455667,0.0020623813917097786,-0.0021526912626367504,0.007902613914819608,0.9944586424266746
2013-01-11,0,0.0,0.0,-0.0009945255771940161,0.007902613914819608,0.9940615643086115
2013-01-15,0,0.0,0.0,-0.0021526912626367504,0.007902613914819608,0.9935418476241954
2013-01-17,0,0.0,0.0,-0.0034517121505014976,0.007776790432313286,0.993332854883318
2013-01-22,0,0.0,0.0,-0.004543225756801392,0.007776790432313286,0.9929498733903781
2013-01-24,1,0.0022713444837970088,0.0025091473603762334,-0.005306279495533975,0.0071370783690060365,0.9932007141382764
2013-01-28,1,0.002235223705511122,0.0024703971337743783,-0.0046738471574288105,0.005724639810266418,0.9934637359592619
2013-01-30,1,0.0020032730044020693,0.002244433239793254,-0.0046738471574288105,0.00782836906582578,0.9930728491790923
2013-02-01,1,0.002639608594314699,0.002950136710378212,-0.0046738471574288105,0.0071370783690060365,0.9935592369878237
2013-02-05,1,0.0025507878609825215,0.002843830462008365,-0.0043620858592078975,0.007391432816377451,0.993433367762191
2013-02-07,1,0.0025427749726561594,0.0028114269388745286,-0.0047288770933795665,0.007391432816377451,0.9930985141485704
2013-02-11,1,0.002621644896247257,0.0028964301713470843,-0.0047288770933795665,0.007391432816377451,0.9928433933864432
2013-02-13,1,0.002182243768698608,0.0023977291961738067,-0.0044892552539144235,0.005439928934790854,0.9939264042141932
2013-02-15,1,0.002065197367169285,0.0023011942386143907,-0.0044892552539144235,0.005439928934790854,0.9938638405406611
2013-02-20,1,0.002011889478394441,0.0022484881019726945,-0.0043015685382992415,0.005839928798645045,0.9942785232666406
2013-02-22,1,0.0015918938751744067,0.001760180313135766,-0.0035400845911366784,0.005222343796308463,0.994787620750305
2013-02-26,1,0.0013831541974413425,0.0015192407731591069,-0.00314345386213379,0.008769147058331355,0.9946193124871754
2013-02-28,1,0.0018400385858740277,0.002033642729930378,-0.00314345386213379,0.0054000584466997945,0.9947998337099906
2013-03-04,0,0.0,0.0,-0.00314345386213379,0.0054000584466997945,0.9947324055793463
2013-03-06,0,0.0,0.0,-0.003582474389372187,0.003908132488087256,0.9947069025257537
2013-03-08,0,0.0,0.0,-0.003582474389372187,0.003908132488087256,0.9944861459253684
2013-03-12,0,0.0,0.0,-0.004089404096157009,0.0054000584466997945,0.9938911679537882
2013-03-14,1,0.0007572609824201884,0.0008177097049749909,-0.005106667465464733,0.006655179885591824,0.9937339060521514
2013-03-18,1,0.0007082458392617685,0.0007904134599023287,-0.005106667465464733,0.009364563533181861,0.992601406492315
2013-03-20,1,0.0007694611015298217,0.0008274047995832934,-0.006517113716863384,0.006655179885591824,0.9924567968381077
2013-03-22,1,0.0003824552105734812,0.0005071584560628233,-0.007019935702648703,0.00957511324478897,0.9916339421671208
2013-03-26,0,0.0,0.0,-0.008494571460397515,0.006928002120875442,0.9915870268291773
2013-03-28,0,0.0,0.0,-0.008494571460397515,0.0043265063010512654,0.99217200671919
2013-04-02,0,0.0,0.0,-0.008494571460397515,0.005279115590982791,0.9922261138523141
2013-04-04,1,0.48796219452312106,0.48813485839532816,-0.008475820611979703,0.005921788849033997,0.671712287115097
2013-04-08,1,0.0003532025393549621,0.00045664366339530555,-0.006837964832493724,0.005921788849033997,0.9926671583207547
2013-04-10,1,0.0004570428742500189,0.0005396311063978962,-0.0054881755378134,0.0065806969997965785,0.9925384905668065
2013-04-12,1,0.00047880416651915956,0.000553485429542588,-0.003821906413260641,0.00755224986564262,0.9923918050667713
2013-04-16,0,0.0,0.0,-0.0021119117932223504,0.006869045326863401,0.9934357935671143
2013-04-18,0,0.0,0.0,-0.0013357619352323646,0.006869045326863401,0.9934346529643492
2013-04-22,1,0.9503908176642762,0.9515477433796153,-0.0009073668293412857,0.006464842972296315,0.5132192656508399
2013-04-24,0,0.0,0.0,2.625926662785282e-05,0.006869045326863401,0.9942227282193415
2013-04-26,0,0.0,0.0,2.625926662785282e-05,0.006869045326863401,0.9939077253864013
2013-04-30,0,0.0,0.0,-0.0021444417258001027,0.00755224986564262,0.992894050402095
2013-05-02,0,0.0,0.0,2.625926662785282e-05,0.0086492006790477,0.9931504900591979
2013-05-06,-1,-0.00032893427758234927,-0.00015840225255089223,-0.0020310025925486773,0.0086492006790477,0.993425916221277
2013-05-08,1,0.0003968197848649815,0.00047095105878451154,-0.005720931251014316,0.006168968171520422,0.9936555496006935
2013-05-10,0,0.0,0.0,-0.005720931251014316,0.007239026537530242,0.9930630070134576
2013-05-14,0,0.0,0.0,-0.006186903580560912,0.006654803409687527,0.9930473264955577
2013-05-16,0,0.0,0.0,-0.005720931251014316,0.008752216942212938,0.9929852325939471
2013-05-20,0,0.0,0.0,-0.005720931251014316,0.008752216942212938,0.9924237809764561
2013-05-22,0,0.0,0.0,-0.006722319896500587,0.007667779744305079,0.9911356206379641
2013-05-24,0,0.0,0.0,-0.006382002496746312,0.007667779744305079,0.9912939627609415
2013-05-29,0,0.0,0.0,-0.003238905756966741,0.006589097204028614,0.9920812101552309
2013-05-31,0,0.0,0.0,-0.003238905756966741,0.005652019292854312,0.9923392980924746
2013-06-04,1,0.00015806718033640837,0.0001708247080655426,-0.001771284042575774,0.006589097204028614,0.9919152146039326
2013-06-06,-1,-0.0003254132849157325,-0.00015343159922475336,-0.0012375177797892128,0.007667779744305079,0.9920957273937728
2013-06-10,1,0.0005535281012557337,0.0006079856459507165,-0.0012375177797892128,0.006020670021649411,0.9929895053067159
2013-06-12,1,0.00030896687642572695,0.00038765048882660286,-0.00043845140537621683,0.008471342998002757,0.9922058400699584
2013-06-14,1,0.0007912704510309639,0.0008042310718785043,-0.0012375177797892128,0.007607699203937248,0.9925244417873748
2013-06-18,1,0.0013501876950012866,0.0014440675099386168,-0.0015489494450283844,0.006871934166236276,0.9929905353666568
2013-06-20,-1,-9.699362392383244e-05,-5.988333341239984e-06,0.00015683021316764228,0.009106350929630035,0.9941929613831896
2013-06-24,-1,-0.00016453997540856143,-5.6596900459592806e-05,0.00015683021316764228,0.009106350929630035,0.9940168962688121
2013-06-26,1,0.0003260178669047854,0.00036203971422773943,-0.0012375177797892128,0.009106350929630035,0.9944080225484919
2013-06-28,1,0.0005280224901349621,0.0005429019739019554,-0.0012375177797892128,0.009106350929630035,0.9946220559216399
2013-07-02,1,0.0008629135187764327,0.000906197919166102,-0.001241214158061462,0.009106350929630035,0.9944972852112043
2013-07-05,1,0.0013307421416702508,0.0014475113933047675,-0.0018048086003896657,0.009106350929630035,0.9938245589816106
2013-07-09,1,0.0014206277866946632,0.0015423415786566647,-0.002751291521038584,0.009106350929630035,0.9935784652990386
2013-07-11,1,0.0020253434016447155,0.002210102161238004,-0.002751291521038584,0.004954918132095439,0.9942010831803878
2013-07-15,1,0.0020085662328307736,0.0021802827075585104,-0.002751291521038584,0.003925368444862949,0.9945639699358885
2013-07-17,1,0.0017123944570769547,0.0018277117661408188,-0.0036445644955969293,0.004802803483272751,0.9939441855329227
2013-07-19,1,0.0019050321639859482,0.0020302069625363316,-0.005155417095632373,0.003925368444862949,0.9929744024954872
2013-07-23,1,0.002004753844784514,0.0021771395667207656,-0.00451652597933448,0.004511009475865364,0.9932827352186693
2013-07-25,1,0.0018048377471504232,0.0019356214722755917,-0.00451652597933448,0.004511009475865364,0.9933018190812027
2013-07-29,1,0.0018225143627367349,0.0019678614378637735,-0.004964446515544769,0.004511009475865364,0.9931642108954636
2013-07-31,1,0.0019951002683014523,0.0021721974044676875,-0.004964446515544769,0.003766469292106611,0.9931176696842521
2013-08-02,1,0.0023751533136945778,0.0025902739301568167,-0.005813723435156695,0.0028839347977500642,0.9937581154140057
2013-08-06,1,0.0020859578245789843,0.002270350499567529,-0.004964446515544769,0.004511009475865364,0.9941260867952069
2013-08-08,1,0.0020132770224132067,0.002162380225049574,-0.004964446515544769,0.003766469292106611,0.9944194460436766
2013-08-12,1,0.0023041771753318876,0.00250595496301849,-0.004964446515544769,0.005221827309460336,0.9935992799438901
2013-08-14,1,0.0018595802962601102,0.001989419051407126,-0.004309374164696978,0.005221827309460336,0.994091487341996
2013-08-16,1,0.0011095961102099638,0.0011471372322913991,-0.0028812880766689994,0.006129266391043962,0.9944261732003432
2013-08-20,1,0.0014914714361244942,0.001609280213615511,-0.0040877886239285965,0.006129266391043962,0.9943885948810113
2013-08-22,1,0.0012301641125937602,0.0012942524652868454,-0.004096363770664713,0.006129266391043962,0.9944229493834503
2013-08-26,1,0.0008691265632193889,0.0008709338523419947,-0.004096363770664713,0.006129266391043962,0.9942242011557649
2013-08-28,1,0.0003221684123185662,0.0003899213259471794,-0.004096363770664713,0.006858164818905445,0.9946090610623686
2013-08-30,0,-4.0173385220189145e-05,6.385877589175571e-05,-0.004096363770664713,0.006858164818905445,0.9946824686290398
2013-09-04,1,0.0003151268145427925,0.00038179288908202474,-0.004096363770664713,0.0068651597639573046,0.9945809250454466
2013-09-06,1,0.00019045447449150382,0.0002842751988172794,-0.004642517685968702,0.007681925896625169,0.9935256298343272
2013-09-10,1,0.0004958992646537409,0.0005833388581163931,-0.006702484383913811,0.003794184468517488,0.993414706349163
2013-09-12,1,0.000542720762141705,0.0006174345869420748,-0.006702484383913811,0.007684034895106609,0.992141730804024
2013-09-16,1,0.00018607762354807465,0.0003163251976956658,-0.006123940412147239,0.007103913112575357,0.9925047307476669
2013-09-18,0,-3.293263341290991e-05,0.00012848918548302122,-0.006123940412147239,0.009031792815447998,0.9920327712495913
2013-09-20,0,-0.00011854915444304605,4.5272800175505834e-05,-0.006123940412147239,0.011562717779878093,0.9915428319104701
2013-09-24,-1,-0.000649421834810305,-0.00041375383070250775,-0.002521866995705155,0.011562717779878093,0.9918176792318617
2013-09-26,-1,-0.0005395246339798566,-0.00032668456590387524,-0.002521866995705155,0.011562717779878093,0.9918507941125555
2013-09-30,-1,-0.00022447836732894234,-8.493109865272613e-05,-0.0008354846076042263,0.011562717779878093,0.9919264012871299
2013-10-02,1,0.0003267965073593783,0.00038422504181497805,-0.003031767884309566,0.011125721514678373,0.9917626122139074
2013-10-04,1,0.000493283376928161,0.0005199769770847479,-0.000669883691325478,0.00883280390826757,0.9927936350343348
2013-10-08,-1,-0.0004840960366762789,-0.00033428537647581,-0.00038061942074903415,0.00883280390826757,0.9922048093492941
2013-10-10,1,0.0006195731495957323,0.0006332183755424811,-0.0019133526013644768,0.006359560999144975,0.993682571244191
2013-10-14,1,0.0008949316828441038,0.0009138165498295625,-0.0019133526013644768,0.006359560999144975,0.9935329207280114
2013-10-16,1,0.001078895365599216,0.0011167953325296116,-0.0019133526013644768,0.006998024433142212,0.9933214261851477
2013-10-18,1,0.0014034606309509328,0.0014746036107913198,-0.0045641261990135885,0.006998024433142212,0.9930151422280528
2013-10-22,1,0.001367031385727659,0.0014503074715021,-0.005747822858145792,0.006998024433142212,0.9926879305181384
2013-10-24,1,0.0010445337357499881,0.001067870453139265,-0.0040118011528704894,0.009077585667713448,0.9927500553050588
2013-10-28,1,0.0009251244327096557,0.000939032989019389,-0.0040118011528704894,0.009077585667713448,0.9929323446589742
2013-10-30,1,0.0010887994713200408,0.0011280984069182401,-0.003405651187737471,0.006872862820925118,0.9936780906256271
2013-11-01,1,0.0009521848717647982,0.0009531149245318271,-0.003592033658168412,0.006872862820925118,0.9934573670587951
2013-11-05,1,0.0007542024343581264,0.0007636244958884729,-0.003592033658168412,0.006081854600737581,0.9944124530405325
2013-11-07,1,0.00034055003042376194,0.00038124649137376927,-0.0033972505405181343,0.009077585667713448,0.9938711750422303
2013-11-11,0,-5.4551525128350106e-06,0.00012667690994077588,-0.003530283987070866,0.009077585667713448,0.9938112036906647
2013-11-13,1,0.0006149912571261037,0.0006744577631525491,-0.005747822858145792,0.003373892435722654,0.9930794723025153
2013-11-15,1,0.0004888708260185851,0.0005565164817939781,-0.00398659921121248,0.0028412494825622555,0.9939396684155755
2013-11-19,1,0.00028745138923195785,0.0003708186712985558,-0.004226664870133817,0.0036652339753413653,0.9933628084217522
2013-11-21,1,0.000788798610340199,0.0008111036828527625,-0.006580183564541672,0.0036652339753413653,0.9930172159415557
2013-11-25,1,0.0009446809142635765,0.0009558764294981514,-0.006580183564541672,0.005754595132170616,0.992546541553285
2013-11-27,1,0.0007558871118059378,0.0007635444955813085,-0.006580183564541672,0.005754595132170616,0.9927083693305436
2013-12-02,1,0.0010479286667267247,0.0011174565407979446,-0.006580183564541672,0.004574951507118828,0.9929633685914963
2013-12-04,1,0.0008021987648307795,0.0008424615574687668,-0.006301570014957575,0.00458281988441522,0.9929543347486188
2013-12-06,1,0.0007743616626150686,0.0008043560156611672,-0.004173315846255608,0.00458281988441522,0.9932843848618749
2013-12-10,1,0.0013550683557210104,0.0014778888434900269,-0.0032508557896940276,0.00458281988441522,0.9933968382301783
2013-12-12,1,0.0002870503868291572,0.00031310385483400264,-0.0032508557896940276,0.00458281988441522,0.9934592216011857
2013-12-16,1,0.00035513624332036574,0.0003728915884210377,-0.0032508557896940276,0.007526057114024062,0.9930057213299982
2013-12-18,1,0.0007407808965792467,0.0007688971097145696,-0.0021427306381170234,0.00458281988441522,0.993982918409951
2013-12-20,1,0.0005032266649797299,0.0005081033838287484,-0.0006535623913422806,0.007019577042506418,0.9941026232371267
2013-12-24,1,0.0010340723200090033,0.001135728550458751,-0.0033966653569635595,0.004462616715536161,0.9934397857530658
2013-12-27,1,0.0008678584752186322,0.0009349174925154443,-0.0071966298992858935,0.007019577042506418,0.9921098749223626
2013-12-31,1,0.0008389105927769905,0.0009094168690346032,-0.0071966298992858935,0.008237557238071614,0.9917266212860469
2014-01-03,1,0.0007130977405231854,0.0007776903220795403,-0.00925620580405925,0.008237557238071614,0.9900782539950925
2014-01-07,1,0.0010771240424639304,0.0011712922500734196,-0.00925620580405925,0.007019577042506418,0.9906580594636205
2014-01-09,1,0.000895675629652736,0.000927088054048164,-0.00925620580405925,0.007019577042506418,0.9905263120912762
2014-01-13,1,0.0002602894158696367,0.0003019257629286296,-0.0020750653117675385,0.008237557238071614,0.9910387275596003
2014-01-15,1,0.0005257835505519913,0.0005407047378600679,-0.0020750653117675385,0.008244395715220423,0.9905510386999099
2014-01-17,1,0.0005502417812436242,0.0005744370441783329,-0.0020750653117675385,0.008244395715220423,0.9903620230532986
2014-01-22,1,0.0006501658677758051,0.0006860417436721692,-0.004651460533407955,0.009545349513436737,0.9901731357025091
2014-01-24,-1,-0.000493538795196033,-0.00030377646610256894,-0.00150234154394268,0.009545349513436737,0.9906201270950048
2014-01-28,-1,-0.00038762245254829177,-0.00022859428156357024,-0.0020750653117675385,0.007865470585670208,0.9916652733133725
2014-01-30,-1,-0.00033888905646547817,-0.00018604206969870767,-0.0020006964969089174,0.006702743017857839,0.992010991260133
2014-02-03,-1,-0.0011888745267933224,-0.0009717245477043832,-0.0016607666438243605,0.007935447610015366,0.99210068056914
2014-02-05,-1,-0.0008972911846494688,-0.0007155682949595354,-0.0016607666438243605,0.007935447610015366,0.9924106426691989
2014-02-07,-1,-0.000214514681469018,-0.00011345184525390125,-0.0016607666438243605,0.006702743017857839,0.9934820697535691
2014-02-11,-1,-0.0001436717059284928,-4.406118302028629e-05,-0.003804914615041623,0.006136216157348049,0.9938813497551863
2014-02-13,1,0.0004605017885143774,0.0004959930645649873,-0.004435913761900569,0.004080712618322923,0.9947540238159559
2014-02-18,1,5.154436254196167e-05,0.00014915267570604998,-0.004435913761900569,0.0038011416489250036,0.9948690232606588
2014-02-20,1,0.00017879167556741102,0.00026316768873068633,-0.004435913761900569,0.003363588509842856,0.9953647502571844
2014-02-24,1,0.0003515442777504475,0.0004200477182970632,-0.004837691920113346,0.0019553746462735028,0.9948906685716085
2014-02-26,1,0.0001431653212419654,0.00022288169648142377,-0.004837691920113346,0.002729849854752658,0.9949869427975626
2014-02-28,1,0.00023668884577554366,0.0003049595057097765,-0.004837691920113346,0.003363588509842856,0.9942087685346691
2014-03-04,-1,-0.0002952720054660783,-0.00011848481190653308,-0.004530472273434275,0.00372836118827239,0.9950249374683997
2014-03-06,1,0.0003917917147317635,0.0004346480987341444,-0.004530472273434275,0.0036566461490405468,0.9949854846744998
2014-03-10,1,0.0007509892417755896,0.000758214770662347,-0.005184791236349507,0.002475615179219447,0.9925894311689166
2014-03-12,1,0.000506545912174062,0.0005130725865801146,-0.005184791236349507,0.0050971411102571544,0.9919983707697356
2014-03-14,1,0.0005174980448007195,0.0005346190089103051,-0.009732976987847378,0.0050971411102571544,0.9904244579745953
2014-03-18,1,0.0005772518638014978,0.0005945315682298036,-0.009732976987847378,0.0062484697326018225,0.9903269532454958
2014-03-20,1,0.0003406316077444758,0.00036043950710796033,-0.009732976987847378,0.0062484697326018225,0.9905532790310041
2014-03-24,-1,-0.0001443233838373303,-8.309193622886777e-05,-0.0023421301596369074,0.0062484697326018225,0.9913197836643278
2014-03-26,-1,-8.931834021095656e-05,-3.2569952890350155e-05,-0.0049423799713335,0.005434672865300266,0.9913429073599015
2014-03-28,1,0.0003917324859698776,0.00039617224155456685,-0.002916297823849413,0.0035968444271468436,0.9920974633112011
2014-04-01,1,0.0006451632126702419,0.0006555742138832547,-0.002916297823849413,0.0029169631068839833,0.9927726244778633
2014-04-03,1,9.013881998425413e-05,0.00017686732297255748,-0.004021892061184553,0.0029169631068839833,0.9927545570479763
2014-04-07,-1,-0.0012719738734535532,-0.0010550930815151698,-0.0016015088981396934,0.0033895861658461727,0.9935180073580575
2014-04-09,1,0.00023070546489701682,0.00023409332107628822,-0.0032214764650758424,0.0027424295465300185,0.9948394286568428
2014-04-11,-1,-0.0013207875113128622,-0.0011362677164765758,-0.0003514121955524247,0.0033895861658461727,0.9949043685991653
2014-04-15,-1,-0.0009666536591167892,-0.0008066664986906035,-0.0032214764650758424,0.0029169631068839833,0.9949462473622581
2014-04-17,-1,-0.0006741437806317486,-0.0005812131665455074,-0.0032214764650758424,0.003046601405156185,0.994615573870042
2014-04-22,-1,-0.00042581371797011667,-0.00036270755101061516,-0.004543177187326398,0.00417679788372422,0.994383306443433
2014-04-24,-1,-0.0008742159916508933,-0.0007488862493704426,-0.0032214764650758424,0.006066740799795989,0.99427834063793
2014-04-28,-1,-0.000609862742389969,-0.0005207457594300446,-0.0032214764650758424,0.00834915360826283,0.9935575301645795
2014-04-30,-1,-0.0007203113217254476,-0.0006035538202710871,-0.0032214764650758424,0.00834915360826283,0.9934004029528211
2014-05-02,-1,-0.0008899012818242393,-0.0007566902142384274,-0.002824566118111384,0.00834915360826283,0.9931441517126666
2014-05-06,-1,-0.0006503125234164672,-0.0005719113910666482,-0.002824566118111384,0.006988936634254346,0.9936359833779869
2014-05-08,-1,-0.0014781513004859807,-0.0012397985661460236,-0.002181405792854326,0.006988936634254346,0.9934383497735485
2014-05-12,-1,-0.000505071040966303,-0.00038523561913031857,-0.002730386230121589,0.00610610822769205,0.994662583165577
2014-05-14,-1,-0.000798842743260853,-0.0006732779123704033,-0.002730386230121589,0.00610610822769205,0.9947703037922097
2014-05-16,-1,-0.0005403598824836437,-0.00042867639598448816,-0.0029284583558114845,0.005689504389783757,0.995353563350052
2014-05-20,-1,-0.0004131781194964277,-0.00033760255527874133,-0.002247429834750958,0.006082579470669876,0.995322975554823
2014-05-22,-1,-0.00022574324874640863,-0.00016897608316772717,-0.002247429834750958,0.005689504389783757,0.9955870852369695
2014-05-27,1,0.00037447358963555046,0.00038619768620239603,-0.002247429834750958,0.004368034646526194,0.996247671915862
2014-05-29,1,0.0005103268931196429,0.0005358946700062502,-0.0027600886686360454,0.004005782500012125,0.9963073642865274
2014-06-02,1,0.0009172326996966795,0.0010294208955254603,-0.003078766966393604,0.003818605932417318,0.9959666344698951
2014-06-04,1,0.0009255658488772208,0.0010608138944953622,-0.003078766966393604,0.003818605932417318,0.995963202786574
2014-06-06,1,0.0005053212687754776,0.0005306447436827758,-0.003078766966393604,0.003312831378858617,0.9960028820174965
2014-06-10,1,0.000682376329283897,0.0007541048564160403,-0.0029997789704535047,0.003312831378858617,0.9960824188493533
2014-06-12,1,0.00036869635128316267,0.00041007935215885534,-0.0027958161943571758,0.003312831378858617,0.9965924200087609
2014-06-16,1,0.000498050774640567,0.0005848923256708933,-0.0027958161943571758,0.003312831378858617,0.9967071591292085
2014-06-18,1,0.0004226884011972773,0.00044527783011147164,-0.0029997789704535047,0.002400400839130528,0.9963818979547003
2014-06-20,1,0.00041174582711884177,0.0004298637279131371,-0.003291498659582862,0.002400400839130528,0.9954268196868719
2014-06-24,1,0.0005579133201662637,0.0005975109204001251,-0.003291498659582862,0.002400400839130528,0.9953875044982584
2014-06-26,-1,-0.0003228673940815963,-0.0001841926488701337,-0.003772710615883556,0.0034846749368183604,0.9951561809301757
2014-06-30,-1,-0.0005734085984871015,-0.00041846036125044986,-0.003291498659582862,0.0034846749368183604,0.9954646360170928
2014-07-02,1,1.4044526079183068e-05,6.330302653199786e-05,-0.003291498659582862,0.0032342498388808726,0.9950150309494961
2014-07-07,1,0.000158708807492291,0.0001754923332068649,-0.0038633487130445635,0.0038830467703012007,0.9945501360537656
2014-07-09,1,0.0004730892035196881,0.0005428218758077154,-0.006179324126262891,0.0038830467703012007,0.9939882451186022
2014-07-11,1,0.00038026617730994253,0.0004320283372960782,-0.007084635989174158,0.004682246168081526,0.9933479826466772
2014-07-15,1,0.00047467326352420685,0.0005513214651598874,-0.007084635989174158,0.004682246168081526,0.9932553470345038
2014-07-17,1,0.0005688895731728685,0.0006774617105952593,-0.005668497955590036,0.004934745637682366,0.9933827487991486
2014-07-21,1,0.00026569309518651455,0.00031327904855674995,-0.0045070533917807,0.004934745637682366,0.9938427102921494
2014-07-23,1,0.0005311540983270963,0.0006242325998738368,-0.0045070533917807,0.004910999207749207,0.9938513003365499
2014-07-25,1,0.000487292770464183,0.000581808773027558,-0.003437493984416419,0.004910999207749207,0.994242947921585
2014-07-29,1,0.0005880909069925316,0.0007010394261296784,-0.003437493984416419,0.005664767071457237,0.993943701557515
2014-07-31,1,0.00010666358634097098,0.00016811756588963863,-0.0024830050401526685,0.005664767071457237,0.9948601681746114
2014-08-04,1,0.00015159521041252389,0.000197554715219753,-0.0016914837665735654,0.004910999207749207,0.9954787705183407
2014-08-06,-1,-0.000268002654708048,-0.0002491465567969332,-0.002190709460004904,0.004910999207749207,0.9957021344165495
2014-08-08,1,6.866107458372888e-05,0.00010802304360625736,-0.001671106180834432,0.004230949395656719,0.9963283492990735
2014-08-12,1,7.60462680955911e-05,0.00010905334447010931,-0.002321089840623767,0.004230949395656719,0.9961101258714731
2014-08-14,1,0.0002779738960957071,0.00029603539129498637,-0.003375361218072992,0.0022195035546749664,0.9961777663207059
2014-08-18,1,0.00038912611425866986,0.0004278165213148332,-0.003375361218072992,0.0022195035546749664,0.9961550822089483
2014-08-20,1,0.0007427793914649131,0.0008556291364575869,-0.003375361218072992,0.0027615328382713526,0.9961859079719637
2014-08-22,1,0.0009293665753633974,0.0010966724435194563,-0.0035472305772929836,0.0021899361402984117,0.9962176954602707
2014-08-26,1,0.0010407534742426791,0.0012158573682769036,-0.0035472305772929836,0.0021899361402984117,0.9960681653734025
2014-08-28,1,1.4338517567617803e-05,5.751409463953924e-05,-0.0045287731478288774,0.0029701462365310906,0.9954141809445655
2014-09-02,1,0.000594222601254307,0.0006750022745524385,-0.006233843065915372,0.0029701462365310906,0.9951605789614305
2014-09-04,-1,-0.000548379786626107,-0.00041411457508785113,-0.006233843065915372,0.0029701462365310906,0.9949912091907004
2014-09-08,-1,-5.594265536908104e-05,-3.503447385321711e-06,-0.006233843065915372,0.0029701462365310906,0.9945527628335294
2014-09-10,-1,-0.0004887658220056429,-0.00037822462778029436,-0.006352882911089043,0.0037707223940810497,0.9942060869352616
2014-09-12,-1,-0.0008204041681261606,-0.0006814981171009011,-0.0065576676886068145,0.0037707223940810497,0.9939184668042363
2014-09-16,-1,-0.0009003572518229275,-0.0007378417492325156,-0.0076463890150417066,0.0037707223940810497,0.9936787259472011
2014-09-18,-1,-0.0007452822776436881,-0.0006062278878475877,-0.009680831549880014,0.0024168383267174007,0.9933234945238806
2014-09-22,-1,-0.0007211759953289765,-0.000592546612303824,-0.009680831549880014,0.004725881746834025,0.99233380441348
2014-09-24,-1,-0.0004944971875848477,-0.0003814095652794632,-0.009680831549880014,0.004725881746834025,0.9913681811197405
2014-09-26,-1,-0.0009228471204392635,-0.0007565621583007932,-0.0076463890150417066,0.008001276618608309,0.9913668845113285
2014-09-30,-1,-0.0012010835359952204,-0.0009992682336050873,-0.0076463890150417066,0.008001276618608309,0.9912764398305487
2014-10-02,-1,-0.0011298827021888804,-0.0009751426314896096,-0.006143901528097556,0.00849060086248009,0.9911797334408009
2014-10-06,-1,-0.0012157717526342236,-0.0010267807073057022,-0.006143901528097556,0.008001276618608309,0.9917118979108955
2014-10-08,-1,-0.0009917353868061952,-0.000847276090760931,-0.005495338340401081,0.009473095716717419,0.9914360237867074
2014-10-10,-1,-0.0018115973426468136,-0.0015660967758272326,-0.0033440388880912426,0.009861395052660307,0.9883186044865121
2014-10-14,-1,-0.001886094615943241,-0.0016386097520329234,-0.001789507491385799,0.009861395052660307,0.9887197108632629
2014-10-16,-1,-0.0019578613128540985,-0.0017327133429046212,0.0001562853710984157,0.009861395052660307,0.9887424343613915
2014-10-20,-1,-0.0009788810046030153,-0.0008806012793188733,-0.0010376794861279826,0.009473095716717419,0.9901907450466058
2014-10-22,-1,-0.00025674836005960323,-0.00025441553227215574,-0.0010376794861279826,0.009473095716717419,0.9912116175103748
2014-10-24,1,0.0003424737835752272,0.0004136999690992476,-0.0012422475962891226,0.007703798971342806,0.991871874928114
2014-10-28,1,0.0006137292024375421,0.000725033925292867,-0.0012422475962891226,0.009949058727722072,0.9911098399861954
2014-10-30,1,0.0010321016106626653,0.0011983218216526721,-0.001423274252079224,0.011139714986347887,0.991146453038776
2014-11-03,1,0.0006408828312755399,0.0007313328627684655,-0.0010376794861279826,0.011139714986347887,0.9911932301874445
2014-11-05,1,0.0012372130028780065,0.0013987334044718255,-0.0012175534116656808,0.007726699181795221,0.9919964181140389
2014-11-07,1,0.0030450484381389833,0.0034652454243688903,-0.0012175534116656808,0.006205173491706645,0.9953247616103754
2014-11-11,1,0.0031242067380419713,0.0035573729297759277,-0.0017511171777202547,0.006205173491706645,0.9942937559906313
2014-11-13,1,0.0032969448067524196,0.003756169093565698,-0.002589160152147077,0.007726699181795221,0.9934130032831193
2014-11-17,1,0.003476715683188127,0.003956618746752254,-0.00422441468210128,0.007726699181795221,0.9925599098393261
2014-11-19,1,0.00347349719279019,0.003928319090696072,-0.00422441468210128,0.011151368436259223,0.992325636859406
2014-11-21,1,0.0034343970539676256,0.003889400605739944,-0.002589126943979426,0.011661926886201258,0.9922181367658283
2014-11-25,1,0.0042782002546119064,0.0048413128294451805,-0.002589126943979426,0.007674620526752865,0.9925464353623865
2014-11-28,1,0.004357754644843906,0.0049194874265742535,-0.003996812767750533,0.003608727171582384,0.9925419141284207
2014-12-02,1,0.004185833016605888,0.004715200204079225,-0.005953655445170862,0.003608727171582384,0.9921607079567126
2014-12-04,1,0.003974881603952719,0.004469256209634963,-0.007612392759828457,0.005435446182286833,0.9921284943210693
2014-12-08,1,0.0036948334929683847,0.004144505724991876,-0.007612392759828457,0.007674620526752865,0.9911261308548283
2014-12-10,1,0.0028622300797252497,0.0031890009989966562,-0.004067564445529702,0.011461416107246953,0.9920288756016018
2014-12-12,1,0.002887155849831729,0.0032225136251136364,-0.004067564445529702,0.008051505124058696,0.9921243763041755
2014-12-16,1,0.0024562222492237997,0.0027196647590587647,-0.004067564445529702,0.00694896777398875,0.9924711376454726
2014-12-18,1,0.003213698176236656,0.003575716876700158,-0.006161309853139808,0.005057065143883528,0.9922423256845952
2014-12-22,1,0.0031452993465875363,0.0034541713957913565,-0.006161309853139808,0.005057065143883528,0.9911961392658017
2014-12-24,1,0.0031800478538801472,0.0034971212677652914,-0.006161309853139808,0.005151255360979677,0.9912120211701977
2014-12-29,1,0.0027404381071810687,0.0029723517282350047,-0.007623114004660805,0.005151255360979677,0.9904013898609448
2014-12-31,1,0.0022780186633603807,0.002449901202709338,-0.007623114004660805,0.005151255360979677,0.9901314517799521
2015-01-05,1,0.0020418180339038558,0.0021837535052873416,-0.006231829543822704,0.005140386772599688,0.9906709598036071
2015-01-07,1,0.003017737931125161,0.003316387800450696,-0.006231829543822704,0.005581448073735849,0.9915767590492489
2015-01-09,1,0.0035159706160760463,0.0038789963239976794,-0.007623114004660805,0.005044079948065238,0.9910178710074862
2015-01-13,1,0.0029597223011512725,0.0032502691848112627,-0.006231829543822704,0.005619938071891703,0.9914594727812283
2015-01-15,1,0.0022876364719573747,0.00248296719272736,-0.004698099116368603,0.005619938071891703,0.9922163534646352
2015-01-20,1,0.0024263071435497233,0.0026448723950930246,-0.004698099116368603,0.00541405024651344,0.9925482057502361
2015-01-22,1,0.003308897979746586,0.0036310564982250442,-0.005941324735627403,0.00541405024651344,0.9931612028801405
2015-01-26,1,0.0033152996483909454,0.0036370046572340056,-0.0066689746781330135,0.005153665990531237,0.9925862055796155
2015-01-28,1,0.00216495113755912,0.002309937195675944,-0.004719814051299224,0.005153665990531237,0.9933814151629236
2015-01-30,1,0.0015162392601936647,0.0015804292316436068,-0.004104437619859747,0.005619938071891703,0.9936665611625571
2015-02-03,1,0.0014228201716956622,0.0014510527581435826,-0.004719814051299224,0.005619938071891703,0.9933658927671773
2015-02-05,1,0.001571066762195994,0.001584529269327006,-0.006460734739145833,0.003746092958924401,0.9927946085254777
2015-02-09,1,0.000819727928423758,0.000900124739527216,-0.006460734739145833,0.005153665990531237,0.9927657873857949
2015-02-11,1,0.001577102186916541,0.0015911145173235874,-0.006460734739145833,0.003746092958924401,0.9927333157248097
2015-02-13,1,0.0014098533725187658,0.001422262100665356,-0.008031770274312719,0.004417035829132327,0.9913497885927183
2015-02-18,1,0.001105040873050391,0.001139106025332577,-0.008031770274312719,0.006549248919641204,0.991369450077742
2015-02-20,1,0.0008603310128970055,0.0009512871727701084,-0.006482378464924292,0.008878929438121609,0.9912193100342409
2015-02-24,1,0.00010047370827759652,0.00029486905654212787,-0.0065184820794526935,0.008878929438121609,0.9912412785228328
2015-02-26,-1,-0.0006588868384447145,-0.0003386773995434757,-0.009730905176860394,0.008878929438121609,0.9905632403038014
2015-03-02,-1,-0.00029938842148223273,-2.776163241148663e-05,-0.009730905176860394,0.01093247436733427,0.9899568523617418
2015-03-04,-1,-0.0008427299679092896,-0.0004992817271015597,-0.010105876174290217,0.01093247436733427,0.9896061925725236
2015-03-06,-1,-0.0023457262354188357,-0.0017823562717015904,-0.00965223208091763,0.01093247436733427,0.989895013511551
2015-03-10,-1,-0.002832223956731262,-0.002197684564826571,-0.008878548755175164,0.01093247436733427,0.9907170148590562
2015-03-12,-1,-0.003014816017927791,-0.0023273807528150356,-0.008878548755175164,0.011051624361824207,0.9905398277944403
2015-03-16,-1,-0.0025570426071568177,-0.0019493135366969408,-0.008878548755175164,0.0087535047225288,0.991601505675236
2015-03-18,-1,-0.0024389410049877867,-0.0018686389502144214,-0.008878548755175164,0.0087535047225288,0.9919178061387017
2015-03-20,-1,-0.00122200167671523,-0.0008220832274272304,-0.00965223208091763,0.007552032065326732,0.9921969739249672
2015-03-24,-1,-0.0019486085807531722,-0.0014698771825460543,-0.008878548755175164,0.008059157230575889,0.9921932292911906
2015-03-26,-1,-0.002692807708057232,-0.00214919275965738,-0.0035251560700766934,0.008059157230575889,0.9922881157155703
2015-03-30,-1,-0.0020242840391321917,-0.0015398177681091143,-0.005046509175316018,0.0057280639368630475,0.9930962175217951
2015-04-01,-1,-0.0024193029880272762,-0.00192240634990837,-0.004469771949380411,0.0057280639368630475,0.9928688480847149
2015-04-06,-1,-0.0006569299264347198,-0.0004600483631942751,-0.004469771949380411,0.005916081248774989,0.9921960054333816
2015-04-08,-1,-0.000847124166639265,-0.000634250222863235,-0.011665116290775865,0.005916081248774989,0.9905117987975498
2015-04-10,-1,-0.00039295450259409264,-0.00023946836164805997,-0.011665116290775865,0.005916081248774989,0.9905149348066874
2015-04-14,-1,-0.0006620209812931025,-0.00048530963437885946,-0.008200344664480936,0.005916081248774989,0.9908024416797487
2015-04-16,-1,-0.0006054533950980816,-0.00044797326622462763,-0.008200344664480936,0.008444347311335776,0.9899729243712171
2015-04-20,-1,-0.0007864115390455937,-0.0006093899620838508,-0.0062536100508751545,0.00839788600963513,0.9904721499494166
2015-04-22,1,0.00016522523153551764,0.0001843679961350242,-0.0062536100508751545,0.006169419872104229,0.9909217785884843
2015-04-24,1,0.0006145423781543746,0.0006656108823922534,-0.0062536100508751545,0.005367983768315049,0.9911784433471175
2015-04-28,-1,-7.553147241256509e-05,-3.3952509868461893e-05,-0.005514786785256228,0.009204363181323496,0.9912419454854293
2015-04-30,-1,-0.0009555068848547987,-0.0008080083524229636,-0.0044193538176991905,0.009204363181323496,0.9917713198578378
2015-05-04,1,0.0003880694443948803,0.0003918475892596558,-0.00544608038104377,0.005367983768315049,0.9929283878117362
2015-05-06,-1,-0.0016441688346412204,-0.0013738938188427707,-0.0044193538176991905,0.005367983768315049,0.9939338762622925
2015-05-08,-1,-0.001140737342424362,-0.0009302374210656131,-0.004833581513764597,0.003186777571378855,0.9945498125707111
2015-05-12,-1,-0.0015114574218420482,-0.0012448266466852185,-0.004270608023278073,0.005018095616253184,0.9935725610099188
2015-05-14,-1,-0.00027713861856418334,-0.00019399523295538843,-0.004833581513764597,0.0038913954444427076,0.9938650892041756
2015-05-18,1,4.329040327584394e-05,7.095997866667413e-05,-0.00544608038104377,0.0038913954444427076,0.9936722544111578
2015-05-20,1,5.512831155936795e-05,7.712957840630503e-05,-0.00544608038104377,0.006898485419478597,0.9929066330972387
2015-05-22,1,0.000205451761363953,0.0002143639666206575,-0.00544608038104377,0.006898485419478597,0.9927801736316842
2015-05-27,1,0.00017036411637667468,0.00020316606810759976,-0.006193550373609745,0.006119110614562602,0.9930750762005464
2015-05-29,-1,-0.0003040704862084041,-0.00020782432161421693,-0.004999842997780415,0.00650347981523719,0.9931311140363206
2015-06-02,1,0.00031318306211143896,0.0003362900182157031,-0.005465657102891013,0.006119110614562602,0.9926860064882569
2015-06-04,1,0.00027322922831211937,0.000320281297005339,-0.0036393355718871492,0.00650347981523719,0.9926122424828999
2015-06-08,-1,-0.00023722391509655317,-0.00019781773567991023,-0.0020118221252344412,0.00650347981523719,0.9927091579073273
2015-06-10,1,0.00028513321473047176,0.0002851744091603082,-0.003141143557934086,0.006455560857289622,0.9928632508257057
2015-06-12,1,0.0001369138520407676,0.00014457746063294147,-0.0009237150278923341,0.006804705256371066,0.9925435064805922
2015-06-16,1,0.0007595399564189271,0.0008939396194092905,-0.0003301452020597549,0.0065024089851414375,0.9933248800829848
2015-06-18,1,0.0013163347922892758,0.0015286905932654497,-0.00047950239104865497,0.006118753671197351,0.9941055461481825
2015-06-22,1,0.0010038865812743833,0.0011320985919841754,-0.0006821881833601536,0.005276301424642727,0.9940674852725638
2015-06-24,1,0.00041073210590483777,0.0004293104488764558,-0.0006821881833601536,0.0065024089851414375,0.9936388166161308
2015-06-26,1,0.0007768240854920433,0.000856164385016745,-0.002410376780563925,0.005276301424642727,0.9937325080171817
2015-06-30,1,0.00031973885677395134,0.00036751887450028615,-0.002410376780563925,0.0066630900427198676,0.9928643700016776
2015-07-02,1,0.0005783793221834782,0.000631327048773933,-0.002410376780563925,0.0066630900427198676,0.9932171645335323
2015-07-07,1,0.0011684335269573779,0.0013438064101581062,-0.0035686129078448103,0.0066630900427198676,0.9928582492576327
2015-07-09,1,0.0007773889652688758,0.0009042947803284667,-0.0035686129078448103,0.005484187553438223,0.9932080352438488
2015-07-13,1,0.0012724991063751572,0.001449294645013224,-0.0035686129078448103,0.004854895892723699,0.9937857784130975
2015-07-15,1,0.00146134517560767,0.0016717452269459647,-0.0036382963743051932,0.004245857799087213,0.993417235950053
2015-07-17,1,0.001347481178777094,0.001520620419259897,-0.0036382963743051932,0.003028946812575904,0.9935639723365132
2015-07-21,1,0.0010981925047409578,0.0012261466026429932,-0.0034975922491785544,0.005550916376121054,0.9933321740531766
2015-07-23,1,0.001203597125708614,0.0013656696612379198,-0.003693718573364027,0.004334462826368093,0.9924492512919412
2015-07-27,1,0.001225498093591076,0.0013703594647288277,-0.009265380117447675,0.004334462826368093,0.9894226195655402
2015-07-29,1,0.0006264394458798791,0.0006569020830478321,-0.008056587092259804,0.004334462826368093,0.9892312688665338
2015-07-31,1,0.0006609537746340116,0.0006874268049929122,-0.008056587092259804,0.005203287934881887,0.9889465939879802
2015-08-04,1,0.00034812625795603054,0.0003506469708900214,-0.014347364717516927,0.005203287934881887,0.9871370883393482
2015-08-06,1,0.00021021679470465795,0.0002123297582465576,-0.01072098564195332,0.005550916376121054,0.9868714331255046
2015-08-10,1,0.00028546559007855887,0.000288449616262045,-0.015077760678777157,0.006413570756256883,0.9853321241844913
2015-08-12,1,0.0006581136868084523,0.0007492597327180152,-0.016889553006159533,0.006413570756256883,0.9847318940278178
2015-08-14,1,0.0002103906640648216,0.0002117679528856543,-0.016889553006159533,0.006413570756256883,0.9846722634366925
2015-08-18,1,0.00022991303108558226,0.00025928122403818805,-0.016889553006159533,0.0060539587905348155,0.9849511087144798
2015-08-20,-1,-0.0003273426216906471,-0.000271459082272976,-0.014514404293445953,0.009048273931751892,0.9857672698175052
2015-08-24,-1,-0.0012138356990278282,-0.0010296919830132044,-0.008850826304449055,0.009048273931751892,0.9883279510035207
2015-08-26,-1,-0.00047103405440446667,-0.0004057576222555991,-0.009604541913754224,0.0060539587905348155,0.9900477980827205
2015-08-28,-1,-0.0007137984981796804,-0.000601731391841642,-0.014514404293445953,0.0030807774342570104,0.9889974852001479
2015-09-01,-1,-0.0021439893919708705,-0.0018793083605947026,-0.009604541913754224,0.009189357414001127,0.9897518921215828
2015-09-03,-1,-0.0017218052029368005,-0.0014988705670946783,-0.009604541913754224,0.010450883802062869,0.9889270040349822
2015-09-08,-1,-0.0011204438234250662,-0.0009678629186153103,-0.009604541913754224,0.00906094625597133,0.9900811877264133
2015-09-10,-1,-0.0017733188698177528,-0.0015361851187804924,-0.006133611401549274,0.01094809434303299,0.9892521479738267
2015-09-14,-1,-0.0014797157482139005,-0.0012966071533425934,-0.006133611401549274,0.01094809434303299,0.9888219480976895
2015-09-16,-1,-0.0007721010080516558,-0.0006894998502677858,-0.00861507903804139,0.01094809434303299,0.9886195539983021
2015-09-18,-1,-0.0010744963461739687,-0.0009301612528952596,-0.00861507903804139,0.014030322407177172,0.9879381266669327
2015-09-22,-1,-0.0019888747409335284,-0.0016992779152951905,-0.008346245933201346,0.014030322407177172,0.9878113928263422
2015-09-24,-1,-0.001460740904808455,-0.001305298026784204,-0.0010512685023034763,0.014049844347439246,0.9874347830382582
2015-09-28,-1,-0.0034638965102839247,-0.0029997962095270492,0.0030207600234937273,0.014049844347439246,0.9875243195611657
2015-09-30,-1,-0.0019772373040617603,-0.0017118363590693376,0.001275207458977655,0.0137858919279762,0.9895301698779595
2015-10-02,-1,-0.0004409572199174901,-0.00034924980370093766,0.0005969649444979065,0.011433227476802754,0.9918736142533363
2015-10-06,-1,-0.0008614976138256573,-0.0007574164112210595,0.0005969649444979065,0.0137858919279762,0.9911865358143777
2015-10-08,1,0.0002996173986897998,0.000332855194156845,-0.0010307671973683904,0.011433227476802754,0.9923325509907187
2015-10-12,1,0.00032848462042352954,0.00035591599844245,-0.003674778436066859,0.011433227476802754,0.9925732422606485
2015-10-14,-1,-0.00022698804886386496,-0.00019911337501009638,-0.0025939163247067727,0.012416613321893508,0.9923606478776308
2015-10-16,1,0.000966942026389764,0.0011109769098620347,-0.0045921730390721,0.008880571951344028,0.9931092402441736
2015-10-20,1,0.0007824908802987198,0.0008768101656553363,-0.0045921730390721,0.010978970379248753,0.992487743648971
2015-10-22,1,0.0015568135693045512,0.0017613050035293894,-0.00505762721605015,0.010978970379248753,0.9918390107548873
2015-10-26,1,0.0012200450773357393,0.0013593778341873387,-0.00505762721605015,0.009208367233040946,0.9919769533792303
2015-10-28,1,0.0014556687353416392,0.0016089206213439084,-0.0059819602231780365,0.008214724770748362,0.9917303243073594
2015-10-30,1,0.0019008797519261631,0.0021651852531449577,-0.0059819602231780365,0.008635135523845289,0.9915729529850767
2015-11-03,1,0.0017110791268540333,0.0019204186230610794,-0.004927792812764011,0.008635135523845289,0.9919772184933916
2015-11-05,1,0.0019769564236834713,0.0022339595123546186,-0.0059819602231780365,0.008635135523845289,0.9914425196007077
2015-11-09,1,0.0021075323669168446,0.002409060029025892,-0.006393487094291706,0.008635135523845289,0.9913456586541198
2015-11-11,1,0.0020613740130483393,0.002354434224366785,-0.007039900115836495,0.0071056512039169555,0.9911030549960789
2015-11-13,1,0.001353338783119181,0.0015307233235816384,-0.006650396905978078,0.0071056512039169555,0.9915095652530633
2015-11-17,1,0.002129302502854861,0.0024296686147468544,-0.006650396905978078,0.0071056512039169555,0.991809926273218
2015-11-19,1,0.0016965873569817877,0.0018888153132978814,-0.006650396905978078,0.005962250912229046,0.9919773307966814
2015-11-23,1,0.0020473119351115615,0.0023164400878818124,-0.006650396905978078,0.006102387829928023,0.9918694000386625
2015-11-25,1,0.002212452645059827,0.002522412727714871,-0.004065566326233428,0.008039770664790181,0.9914725177406538
2015-11-30,1,0.002141785253449927,0.0024025410412909128,-0.004065566326233428,0.010061301474064244,0.9910371868137523
2015-12-02,1,0.002816800059770752,0.0032063873070834184,-0.009384212223509715,0.009079281307584357,0.9909381702378095
2015-12-04,1,0.002831964092880838,0.003228803572559854,-0.009384212223509715,0.006419355481368058,0.9913712678961958
2015-12-08,1,0.0026153431100194207,0.0029869023847252252,-0.010489930936407493,0.006419355481368058,0.9905010466713025
2015-12-10,1,0.001874765620299778,0.0021414604051659897,-0.010489930936407493,0.006419355481368058,0.9898079319962718
2015-12-14,1,0.0017495381033344785,0.0019920853671289906,-0.011105634522200123,0.006419355481368058,0.98976895998786
2015-12-16,1,0.0019381821457331255,0.00220111601341089,-0.011105634522200123,0.006419355481368058,0.9896873340736354
2015-12-18,1,0.0011713115261978038,0.0013451191078057393,-0.011105634522200123,0.009461463610541395,0.989704501016025
2015-12-22,1,0.0019233573142558658,0.0022056403151208383,-0.012351340599219322,0.009461463610541395,0.9886373406933481
2015-12-24,1,0.0017458265788438388,0.001969759461596459,-0.01280440122841494,0.009461463610541395,0.9876013832565815
2015-12-29,1,0.002098593132933741,0.002356585347820442,-0.01280440122841494,0.0014161029679413929,0.987330369158577
2015-12-31,1,0.0016564359463038815,0.0018638103886327532,-0.01280440122841494,0.011684676076457044,0.986194110066769
2016-01-05,1,0.001369795777926023,0.001540348365854446,-0.01280440122841494,0.011684676076457044,0.9861880132961398
2016-01-07,1,0.0005786847067034081,0.0006337619792167023,-0.01280440122841494,0.011684676076457044,0.9868447382289978
2016-01-11,-1,-5.43087938409458e-05,-5.075271186685034e-05,-0.0123053526736035,0.011684676076457044,0.9877241755826465
2016-01-13,-1,-0.0009152296629070007,-0.0007640850124182687,-0.011051266576423337,0.013986322909833815,0.9850404492817777
2016-01-15,-1,-0.0011383185703469944,-0.0008911162504369639,-0.011051266576423337,0.016001515167116613,0.9845691292149851
2016-01-20,-1,-0.0008317780515994543,-0.0006528317701624464,-0.00952305458648198,0.016001515167116613,0.9849026968085022
2016-01-22,-1,-0.0009269355813257995,-0.0007428386601983733,-0.007335045766515973,0.015992005150356686,0.9853768355762946
2016-01-26,-1,-0.001291250879009866,-0.0009789551675013857,-0.004465577267735699,0.013891294510850987,0.9869963191694309
2016-01-28,-1,-0.0019085147373649235,-0.001546193687733527,-0.0033071251901310044,0.013891294510850987,0.9865080616294079
2016-02-01,1,6.686776809222629e-06,0.00012962006822817083,-0.005408060892424241,0.010700003108420505,0.9872065550911737
2016-02-03,-1,-0.0011348326070662867,-0.0008534907234638293,-0.007241567184711849,0.010700003108420505,0.9874755808425977
2016-02-05,-1,-0.001903564359147279,-0.0015353929389487154,-0.005602444663517667,0.010700003108420505,0.9878593196883492
2016-02-09,-1,-0.0016760932000747487,-0.0013490051536258626,-0.0036430728433536467,0.010700003108420505,0.9886046362154991
2016-02-11,1,0.0004923947344256917,0.0005668528138442054,-0.0036430728433536467,0.009551179874760238,0.991627778457666
2016-02-16,1,0.0007666759403302749,0.0008373443091401437,-0.005602444663517667,0.007406445602003762,0.9921168880436956
2016-02-18,1,0.0005516463970957617,0.0006738571852602755,-0.007241567184711849,0.005356061142095359,0.9923310130194001
2016-02-22,1,0.00020088894818305993,0.00041948001188741603,-0.007241567184711849,0.005356061142095359,0.9927002780758568
2016-02-24,1,0.0009004539036389937,0.0009876508112775842,-0.007241567184711849,0.006038996602073744,0.9921775976321628
2016-02-26,1,0.00122301894300908,0.0012295336928147464,-0.005602444663517667,0.004955078314952306,0.9926711457550111
2016-03-01,1,0.0014845228770669408,0.0014932450761625635,-0.004562443733595436,0.005411374769667351,0.9936119436986282
2016-03-03,1,0.001234385026201029,0.0012648697010207916,-0.0035264040035280064,0.005411374769667351,0.9943413133565853
2016-03-07,1,0.0011501854421678312,0.0011819950705981887,-0.0036585876199442275,0.005411374769667351,0.9935645547597624
2016-03-09,1,0.0006667719618168874,0.0007280848353489001,-0.003962076212156242,0.007078884929217157,0.9924038623577229
2016-03-11,1,0.0014750999101724531,0.0015591155186786931,-0.005365900095994761,0.005411374769667351,0.9921538324135377
2016-03-15,1,0.0010833147035930828,0.0011202655856702127,-0.0036678041759653592,0.007401134466816655,0.9922797330991732
2016-03-17,1,0.0009499837549170093,0.0009966937917965143,-0.0036087591776707457,0.007401134466816655,0.992882628698985
2016-03-21,1,0.0011479586022008425,0.0012215104308321999,-0.0036678041759653592,0.007401134466816655,0.9927537898963418
2016-03-23,1,0.0013905417024012694,0.0015113371567910287,-0.0038202512169736007,0.006070194349441666,0.9929289355847823
2016-03-28,1,0.00143295981513715,0.0015606865031515553,-0.0038202512169736007,0.006646815935073537,0.9928882704644256
2016-03-30,1,0.00198664878403723,0.0021920628633011257,-0.0038202512169736007,0.006430247706205297,0.9933457342319119
2016-04-01,1,0.0021406019327709037,0.0023777871214674946,-0.008810205119104568,0.006430247706205297,0.991775526371696
2016-04-05,1,0.0013619371654546445,0.001482540888296611,-0.008810205119104568,0.008451117015360755,0.9916412042455395
2016-04-07,1,0.0012146494662169153,0.0013194663605214608,-0.008810205119104568,0.007909805936413678,0.9920793140125213
2016-04-11,1,0.0005497452692617079,0.0005623624125761197,-0.0054763388663750185,0.008999606808508491,0.991947464755959
2016-04-13,1,0.0012310526095959753,0.001337610622198797,-0.006305960612105283,0.008540167282272117,0.9921748009826721
2016-04-15,1,0.0013070645091683422,0.001427803986209152,-0.006305960612105283,0.008540167282272117,0.99190451588415
2016-04-19,1,0.0015146617717436833,0.0016646964279314067,-0.01049628822787447,0.008540167282272117,0.9911681130248445
2016-04-21,1,0.0012123145657166635,0.001318593464729467,-0.00638430245309064,0.008540167282272117,0.9916144235681645
2016-04-25,1,0.001587491288253511,0.0017524000260981212,-0.009447085872520146,0.008540167282272117,0.9914833680124472
2016-04-27,1,0.0020767606042936706,0.002328304281452501,-0.009447085872520146,0.008540167282272117,0.9905972637574737
2016-04-29,1,0.0010690510269379854,0.0011800579560513962,-0.005452634144186218,0.008540167282272117,0.9917358677871859
2016-05-03,1,0.0009119175717804857,0.0009917786554697555,-0.003953520774464724,0.007317665719786134,0.9927906239928277
2016-05-05,1,0.0005149587893647822,0.0005205825836715295,-0.002141219574923042,0.007399537272496837,0.9927546637852244
2016-05-09,1,0.0008059302550942925,0.0008251628404442043,-0.0038939459374997907,0.0064240482400134,0.9929800927514074
2016-05-11,1,0.0008980171419364529,0.0009387401649578996,-0.002141219574923042,0.007394136555734743,0.9924026730675644
2016-05-13,1,0.000570546566344623,0.0006064501527094582,-0.005273909633291418,0.007394136555734743,0.9916512677857173
2016-05-17,1,0.0005505167400298362,0.0005638417820898151,-0.005273909633291418,0.0064240482400134,0.9925771115615716
2016-05-19,1,0.0007658640618672844,0.0007977750911194708,-0.007173859602604542,0.0064240482400134,0.9920954240855558
2016-05-23,1,0.000693592440276325,0.0007491286730755432,-0.005273909633291418,0.007394136555734743,0.9920979050641547
2016-05-25,1,0.0007612433184641038,0.0007991856783351595,-0.0038939459374997907,0.007394136555734743,0.9927108557529142
2016-05-27,1,0.0007725025612542328,0.0007922808189502301,-0.00835113227121746,0.00577326444086472,0.9904319055525111
2016-06-01,1,0.00013921622235998384,0.00023621594046413665,-0.00835113227121746,0.012172931260616894,0.9886385929503628
2016-06-03,0,-0.0001399979414057899,4.0730252809213774e-05,-0.00835113227121746,0.0093637501528051,0.9891528509950462
2016-06-07,-1,-0.000506519092407557,-0.0002632867753580919,-0.00835113227121746,0.0093637501528051,0.9893172822921893
2016-06-09,1,0.0004275383883933839,0.0005565762945243375,-0.00835113227121746,0.008260077486877066,0.9898678190278926
2016-06-13,-1,-0.00048562704297864525,-0.00022458733797868881,-0.0025663270996920187,0.008260077486877066,0.9903627166924001
2016-06-15,-1,-0.0011048314375339881,-0.0007648546680134706,-0.0007393170053649021,0.008260077486877066,0.9905099514455955
2016-06-17,-1,-0.0012922889573262165,-0.0009512679672879648,-0.0007393170053649021,0.008260077486877066,0.9905893344508548
2016-06-21,-1,-0.0014477011946593366,-0.0010582982586999849,-0.0012401572842594107,0.006222237757123175,0.9909809748544645
2016-06-23,0,-0.00011249807613425596,4.678532560103483e-05,-0.0028982793708402918,0.005389151357457911,0.9916704795572195
2016-06-27,-1,-0.0024082004377919825,-0.0019468174692484509,-0.0012401572842594107,0.005872702413803591,0.9930342337554697
2016-06-29,-1,-0.001415393847267818,-0.0010385276292770701,-0.0028481960255634666,0.005073488972738799,0.9953026827732055
2016-07-01,-1,-0.0012722352500540604,-0.0009185561180961306,-0.004606085550705574,0.005073488972738799,0.995242590411485
2016-07-06,1,6.588929664267827e-05,0.0001618087438982215,-0.004606085550705574,0.00276178749540575,0.9954947216853649
2016-07-08,1,0.0006568161264879685,0.0006707650280970191,-0.004679734187355154,0.00276178749540575,0.9907886427170363
2016-07-12,1,0.0004979470652364548,0.0005016736864807403,-0.005003507620246319,0.0018968251792141995,0.9905489012930263
2016-07-14,1,0.0008045433539517156,0.0008654341711800347,-0.005003507620246319,0.005396408601358982,0.9898309297340404
2016-07-18,1,0.0008441281041591171,0.0009249713017628856,-0.006289953742988203,0.005396408601358982,0.9891828961403023
2016-07-20,1,0.0006506782272283781,0.0006918569248021134,-0.008897149204031436,0.005396408601358982,0.988441785610928
2016-07-22,1,0.000992471692936272,0.0011172839632628368,-0.008897149204031436,0.002604904554565091,0.9887911823981914
2016-07-26,1,0.0006727180360029564,0.0007166679954097266,-0.009125966572477774,0.002975791717981495,0.9884535548920145
2016-07-28,1,0.0003625371202191568,0.0003652988223148169,-0.008897149204031436,0.00649004128773707,0.9886399607255317
2016-08-01,1,0.0003481432755339099,0.000356243963629709,-0.008897149204031436,0.00649004128773707,0.9883427510070844
2016-08-03,1,0.0005363903038050225,0.0005750918087349045,-0.008897149204031436,0.00649004128773707,0.9882943151802819
2016-08-05,-1,-0.0011905078096373558,-0.0010062156223094166,-0.006927730729770018,0.00649004128773707,0.9934185019017042
2016-08-09,-1,-0.00193742185810397,-0.0016521936157425274,-0.005280432041364408,0.00649004128773707,0.9937865682468199
2016-08-11,-1,-0.001293623212984104,-0.0010940445272936354,-0.0069705427393979,0.001818213386256594,0.9932995328818137
2016-08-15,-1,-0.0017335260319926785,-0.0014902927056316614,-0.005965446205870135,0.00549687595996469,0.9925753165402024
2016-08-17,-1,-0.0020814124772356407,-0.0018038905985607008,-0.004177189815855504,0.00649004128773707,0.992010634737365
2016-08-19,-1,-0.0016687324990765147,-0.0014665861114370028,-0.00437540313492182,0.007542965250931696,0.9913023511296227
2016-08-23,-1,-0.00179002467800146,-0.0015782511863982416,-0.004177189815855504,0.008071117868240628,0.9913637973572451
2016-08-25,-1,-0.0019314093693455802,-0.001675181461337673,-0.00437540313492182,0.009322419581128213,0.990321895097571
2016-08-29,-1,-0.0014732547364423565,-0.0012672856647887782,-0.006177063923703863,0.008071117868240628,0.99066433972355
2016-08-31,-1,-0.001761031397234407,-0.0015068150489578422,-0.010183881633689586,0.008071117868240628,0.9899772672542452
2016-09-02,-1,-0.0013394674787835649,-0.0011577107880656524,-0.010183881633689586,0.008967292060521655,0.9895918864562301
2016-09-07,-1,-0.0013247721310077642,-0.0011492060882177324,-0.010183881633689586,0.008967292060521655,0.9889317376395276
2016-09-09,-1,-0.002015144639654782,-0.0017700654411468707,-0.009600816360943749,0.011113432728229868,0.9894937296823166
2016-09-13,-1,-0.0018924309483045732,-0.0016527240907876256,-0.009600816360943749,0.008886473876903344,0.9892693057464265
2016-09-15,-1,-0.001100780751617036,-0.0009718497378001997,-0.01018604459354946,0.008134998585128752,0.9898267668494187
2016-09-19,-1,-0.0010559096602396228,-0.0009505885364842355,-0.012132694548880243,0.007918731111835706,0.9899019486959934
2016-09-21,-1,-0.0011140636119904746,-0.0009585056845128714,-0.012132694548880243,0.007266402765021821,0.9903821446112264
2016-09-23,-1,-0.001322090699699191,-0.0011407019436691008,-0.009914804850243212,0.00519144936922099,0.9915702687686898
2016-09-27,-1,-0.0013928015259366854,-0.0012012169974034862,-0.010919489337675605,0.0031078938318554244,0.9915859599600965
2016-09-29,-1,-0.001545520717982989,-0.0013588091846302042,-0.009838816356815909,0.0031078938318554244,0.9918755512375612
2016-10-03,-1,-0.0014180630105362258,-0.0012501996288551988,-0.009163913408488298,0.002655086053550824,0.992661514580932
2016-10-05,-1,-0.0012925475557878088,-0.0011454402725588103,-0.011737338696119518,0.002655086053550824,0.9897495442982164
2016-10-07,-1,-0.0012516557840511768,-0.001100064767003613,-0.014286243652422885,0.002655086053550824,0.9896900412598401
2016-10-11,-1,-0.0016379386865816093,-0.0014471114602920647,-0.01167369107317309,0.003206291541517418,0.9903701487646992
2016-10-13,-1,-0.0022651837196376646,-0.0019866370414429223,-0.01167369107317309,0.003206291541517418,0.9901103491418436
2016-10-17,-1,-0.0024903759236143833,-0.002204532132644375,-0.00854827847015966,0.0066765505737713515,0.9896151072057843
2016-10-19,-1,-0.0020099327714386593,-0.0018004217769686053,-0.00854827847015966,0.00749940843797982,0.9895882336825341
2016-10-21,-1,-0.0021563392731452054,-0.001927983876681829,-0.011154733741234013,0.00749940843797982,0.9893361191551178
2016-10-25,-1,-0.0020984610431255316,-0.0018967043298430818,-0.011154733741234013,0.007921506120402643,0.9861705887089127
2016-10-27,-1,-0.002125421853518404,-0.001922881854151256,-0.011764473520455846,0.007921506120402643,0.9860888282440841
2016-10-31,-1,-0.001570013346316896,-0.0014699666493706944,-0.011764473520455846,0.008553048782123896,0.9856272121270554
2016-11-02,-1,-0.00036900906797551785,-0.00035090654291027127,-0.011764473520455846,0.007921506120402643,0.9881642577533746
2016-11-04,-1,-0.0008854126191551157,-0.000829370472537268,-0.004463735651949436,0.007921506120402643,0.9887449935682197
2016-11-08,-1,-0.0004594366677250957,-0.00044589503840526483,-0.005711321394451584,0.0037063174425512576,0.9896220424303134
2016-11-10,-1,-0.000822928100445977,-0.0007789437668112324,-0.0024884952967551607,0.00749940843797982,0.9893784105972423
2016-11-14,1,3.815213701350705e-05,0.00013315443486171176,-0.0044940308835715445,0.007471017171627762,0.9896073305203024
2016-11-16,-1,-0.00044018733872981317,-0.00040356374560212866,-0.0049169341750752065,0.007733024539116902,0.9892995579576598
2016-11-18,-1,-0.00016237404327978648,-9.59817386686888e-05,-0.0049169341750752065,0.007733024539116902,0.9893645509601797
2016-11-22,-1,-0.00028176225645830936,-0.00022419913513589072,-0.0038770488030918622,0.006724798863659388,0.9930731357326992
2016-11-25,-1,-0.0006045701697760445,-0.0005764286202120429,-0.0038770488030918622,0.006724798863659388,0.9932072308104914
2016-11-29,1,9.948514293355867e-05,0.00024303795779225245,-0.004303113017806035,0.0036893668815475475,0.9936502170396109
2016-12-01,-1,-0.0005518138229403958,-0.0004966719019920278,-0.004303113017806035,0.005913441894752073,0.9942614709547491
2016-12-05,-1,-0.0002589234625525151,-0.00015563470925746107,-0.004303113017806035,0.006724798863659388,0.9929924481498654
2016-12-07,-1,-0.0002479042843785303,-0.00014132023662400626,-0.004575881869415131,0.006724798863659388,0.9927618755385246
2016-12-09,1,0.00032473995808816013,0.0005096844339613185,-0.004575881869415131,0.005913441894752073,0.993235148668881
2016-12-13,1,0.000633305412425213,0.0008655783372383455,-0.004303113017806035,0.005434910067706086,0.994014341425204
2016-12-15,1,0.0008091420293553361,0.0010712253581103377,-0.0040732051733577785,0.005434910067706086,0.9939911427235476
2016-12-19,1,0.0004403394720241141,0.0006439544173027121,-0.0040732051733577785,0.005718490320988301,0.9938142112117655
2016-12-21,1,0.0007609735854687823,0.0010157185130298487,-0.00528803880187496,0.005434910067706086,0.9933558374125045
2016-12-23,1,0.0007569557710163038,0.0010138501723358524,-0.00528803880187496,0.006011153005013427,0.9922315934930984
2016-12-28,1,4.487736286111005e-06,8.822051253124305e-05,-0.00528803880187496,0.006011153005013427,0.992042406010553
2016-12-30,-1,-0.00027079681636676543,-0.0002502005611671849,-0.00528803880187496,0.007570109732942325,0.9918256046690909
2017-01-04,1,0.0008045467783955349,0.0009974106500054924,-0.00528803880187496,0.007265175920976778,0.9930874230564789
2017-01-06,1,0.0005336082649321583,0.0006615305857380774,-0.004310590817511055,0.00861354649033464,0.9930054932285716
2017-01-10,1,0.0005973568978276838,0.0007090646090941915,-0.004310590817511055,0.008644839897503656,0.9930004842900381
2017-01-12,1,0.0005150227470475236,0.0006186445877851699,-0.0030078772188980333,0.008644839897503656,0.9929769720877585
2017-01-17,1,0.000604053883809073,0.0007084097023996774,-0.0030078772188980333,0.008644839897503656,0.9932244447711552
2017-01-19,1,0.000506930963993259,0.0006071323513328957,-0.002660194791545223,0.008644839897503656,0.9935397840014122
2017-01-23,1,0.0004319110016799376,0.0005496377627642118,-0.00010758473583701374,0.00903068152788413,0.9926898822000193
2017-01-25,1,0.001254451042234768,0.001474975794878547,-0.0021681275458520187,0.008517866912067441,0.9939820365141228
2017-01-27,1,0.0011267964617383192,0.0013373530274659274,-0.0008574253196966735,0.008644839897503656,0.9939690387793387
2017-01-31,1,0.001204961894494518,0.0014231851957480488,-0.0008574253196966735,0.008517866912067441,0.9941828681099694
2017-02-02,1,0.0009678872112751218,0.001107408786226496,-0.0021681275458520187,0.007821541874347837,0.9941007122837278
2017-02-06,1,0.00119617953266728,0.0013765061272062317,-0.002660194791545223,0.007520314678062917,0.9943360756917796
2017-02-08,1,0.0015348723837580428,0.0017942250911060914,-0.002571865500216755,0.005731718744346425,0.9946742246992716
2017-02-10,1,0.0017580783029159052,0.0020338932872525023,-0.002571865500216755,0.005655408535267256,0.994603982842799
2017-02-14,1,0.002064061144494374,0.002404745191384387,-0.0038798477984575597,0.005655408535267256,0.9943157147729172
2017-02-16,1,0.0019195487109177007,0.002226461634657043,-0.00397149012731773,0.003653565071207785,0.9942594763068552
2017-02-21,1,0.0027269223636087296,0.0031387289089490986,-0.00397149012731773,0.0013433195810392301,0.9949400024011119
2017-02-23,1,0.002231869621477569,0.0025555140432715257,-0.003645289860131786,0.0027128474606020834,0.9953861072003037
2017-02-27,1,0.0024510818562014283,0.0028055231063128213,-0.003645289860131786,0.0013433195810392301,0.9954062222927268
2017-03-01,1,0.0022017705934949516,0.0025189184179836904,-0.0025917059262147695,0.0009347706922660972,0.9958844013059801
2017-03-03,1,0.0021429149971248897,0.0024536835952669684,-0.0025917059262147695,0.0005840964620630108,0.9958393413012854
2017-03-07,1,0.0016239665755885101,0.0018379807681815244,-0.0025917059262147695,0.0003362771830360393,0.9960188122972088
2017-03-09,1,0.0012529812983538568,0.0013965844928847946,-0.0036019306942432945,0.0005840964620630108,0.9960635994158833
2017-03-13,1,0.0011396715053969525,0.0012465018982918072,-0.004057366832280511,0.0005840964620630108,0.9956702800516884
2017-03-15,1,0.0012140802037177976,0.0013366928589750428,-0.004057366832280511,0.0005840964620630108,0.9956090908245723
2017-03-17,1,0.00080618121030863,0.0008711430138576795,-0.004057366832280511,0.0017560572095909346,0.995791992496006
2017-03-21,1,0.0004115799599877405,0.00041836783922904954,-0.005079549612989797,0.0023075549098869955,0.9957310206137799
2017-03-23,1,0.00031939454790649293,0.00034389985782201996,-0.005264674544393465,0.0023075549098869955,0.9953926311891687
2017-03-27,1,0.00028969820321417955,0.0003210917617786718,-0.005264674544393465,0.004685204189748076,0.9949060003768709
2017-03-29,1,0.0009680422525896628,0.0010867812287531742,-0.005264674544393465,0.006244763365316708,0.9939740561493321
2017-03-31,1,0.0005110501068444545,0.0005362064930108172,-0.005264674544393465,0.006244763365316708,0.9940268093878663
2017-04-04,1,0.0005737868057088393,0.0006277213145098092,-0.004102634815222189,0.00710574089094494,0.9939000258217086
2017-04-06,1,0.0003558111803049996,0.0003558389899875463,-0.0029401354974869006,0.008245835039059372,0.9935060640931157
2017-04-10,1,0.0004918562504351026,0.0005379148002690074,-0.0029401354974869006,0.008853256339410158,0.9927780552420542
2017-04-12,1,0.0005483084798318767,0.0006097008213722914,-0.0029401354974869006,0.008853256339410158,0.9930633253028511
2017-04-17,1,0.0002733825813997798,0.0002784029587883881,-0.0027417224592241585,0.008853256339410158,0.9931454185906599
2017-04-19,1,0.00017255587370684018,0.00019333065425323947,-0.0027417224592241585,0.008853256339410158,0.9927121089934355
2017-04-21,-1,-0.0002720753782323323,-0.00017149363150931418,-0.0014084802196972937,0.010160661592701691,0.9924820511106388
2017-04-25,1,0.00018938136344949605,0.0002200985707603331,-0.0014084802196972937,0.011263831428370678,0.9920541724770462
2017-04-27,1,0.00015600258444565184,0.00022755569480269408,-0.0022815638210142548,0.009351758415501616,0.9926221096329846
2017-05-01,1,6.128283690526093e-05,0.0001429220231603793,-0.0027270401676424963,0.009351758415501616,0.9925590825838342
2017-05-03,1,0.00014181356853169616,0.00022068820930317098,-0.0027270401676424963,0.010131654527567875,0.9922104542682216
2017-05-05,1,0.0006617546055001945,0.0006631137513605125,-0.003479145429288897,0.00717698914203568,0.9926373085257171
2017-05-09,1,0.0006106344718001194,0.0006134714398845738,-0.003479145429288897,0.006767136958453984,0.9935516518797233
2017-05-11,1,0.00046744960242853467,0.00048111581962938086,-0.003479145429288897,0.007632305869667043,0.9932441384700015
2017-05-15,1,7.662058131090575e-05,0.00015459128933336983,-0.003939512673037884,0.007632305869667043,0.9930005028283423
2017-05-17,-1,-0.00013932469692150458,-4.307919598068086e-05,-0.0027270401676424963,0.007632305869667043,0.9936375543830142
2017-05-19,1,0.00017440050263585003,0.00024171536518924051,-0.0036396534171259896,0.007632305869667043,0.9936993628105047
2017-05-23,1,0.000522435223327465,0.0005610050378845263,-0.005363592616024129,0.00656963554387246,0.9937317176969601
2017-05-25,1,0.0004721703502424357,0.0005266785191420393,-0.005363592616024129,0.006007536160372571,0.994023891613544
2017-05-30,1,0.0006970614794063764,0.000702456979264119,-0.006342470684189683,0.006007536160372571,0.9934221518312087
2017-06-01,1,0.0010433366192232106,0.001090761194594416,-0.006757649313699404,0.0056300493258084625,0.9933849079968586
2017-06-05,1,0.0007765920653132333,0.0007985111066383681,-0.006342470684189683,0.0056300493258084625,0.9933929879297273
2017-06-07,1,0.0007535952706480061,0.0007667274751944152,-0.007263693837643738,0.0056300493258084625,0.9929083211160527
2017-06-09,1,0.0006835608191788077,0.0006925944173969779,-0.009562858079372764,0.0056300493258084625,0.9925886249276968
2017-06-13,1,0.000256854774193358,0.00031104530073585823,-0.00688043493100665,0.006663518907592284,0.9925434072288186
2017-06-15,1,7.066337528910486e-05,0.0001615958087828617,-0.00688043493100665,0.00813214728209048,0.991951512404926
2017-06-19,1,0.0006631508575477515,0.0006862283641010675,-0.0071461082123322915,0.006663518907592284,0.9922510045770182
2017-06-21,1,0.00023756801046955915,0.0002818889096534533,-0.005825654156757451,0.005979039968539876,0.9929270908901225
2017-06-23,1,0.0002180404386609142,0.00026032710748187987,-0.005825654156757451,0.005951594309688181,0.9929037608371657
2017-06-27,1,6.0331544006770785e-05,0.00012343715675427363,-0.005271334212156302,0.005951594309688181,0.993393510125121
2017-06-29,0,-3.844074312894596e-06,5.7093489954125994e-05,-0.005271334212156302,0.004676775600571102,0.9937435321400525
2017-07-03,-1,-0.00014734300485912623,-6.799708783552166e-05,-0.005126787766117421,0.004676775600571102,0.9937526016632388
2017-07-06,1,2.316126736962311e-05,7.067486331221608e-05,-0.005126787766117421,0.004234820604982623,0.9943277665963304
2017-07-10,-1,-9.544228139554589e-05,-3.4704082643962296e-05,-0.004356726937006242,0.004234820604982623,0.9938772687878661
2017-07-12,1,0.00017467796309420541,0.00019135732877683116,-0.0053920148186408084,0.002992825528517724,0.9906412257395041
2017-07-14,1,0.0006582648168853035,0.0007348599805154339,-0.0071532224167233935,0.002992825528517724,0.9896214973426228
2017-07-18,1,0.0004231856527594431,0.00045024288315113307,-0.008477675046051302,0.0009787768557081148,0.9894580405766829
2017-07-20,1,0.0005180964304096962,0.0005652177351058967,-0.008477675046051302,0.0009787768557081148,0.9889412593529479
2017-07-24,1,0.0005152269501500873,0.000553672642023907,-0.008477675046051302,0.00010938957319444688,0.9887995688265899
2017-07-26,1,0.0006565450101332592,0.0007096680776336173,-0.008477675046051302,0.0010306518516740868,0.9886600313731674
2017-07-28,1,0.00016511258257954328,0.00017879068657488504,-0.007724074398100319,0.0031160671277346407,0.9890957266225334
2017-08-01,1,0.00038179613930212593,0.000389577413001299,-0.008609875211288164,0.0031160671277346407,0.988570979747052
2017-08-03,-1,-0.00023063421682219438,-0.00017381087651349703,-0.007724074398100319,0.007260709484765538,0.9877786593664563
2017-08-07,1,0.00046599172640901553,0.0004969782896848521,-0.007724074398100319,0.004406189509211564,0.9887932658481546
2017-08-09,-1,-0.0013516371421986686,-0.0011545939520791909,-0.00678609984140064,0.007260709484765538,0.9920116910152528
2017-08-11,-1,-0.001251694943283247,-0.0010597658526723484,-0.005373070180113105,0.007260709484765538,0.9927753390702531
2017-08-15,-1,-0.0016345969248671884,-0.0014020605265205304,-0.005373070180113105,0.007260709484765538,0.9910260252771473
2017-08-17,-1,-0.001789067774273176,-0.0015315317900340161,-0.00678609984140064,0.007260709484765538,0.9882461152047747
2017-08-21,-1,-0.001633897706183348,-0.0013891962710246134,-0.009868762049914992,0.004406189509211564,0.9867110998477805
2017-08-23,-1,-0.0018381340689126527,-0.0015599613750671578,-0.012026633131273485,0.008478487127410506,0.9856695952603264
2017-08-25,-1,-0.00180017250628684,-0.0015183684886666499,-0.012026633131273485,0.010151891001333494,0.9853681314020718
2017-08-29,-1,-0.0022860208760264403,-0.001950069149062813,-0.010296581596669982,0.010151891001333494,0.9853411597984026
2017-08-31,-1,-0.0012832996609816606,-0.0010640585866204162,-0.010296581596669982,0.010151891001333494,0.9863475152766009
2017-09-05,-1,-0.0017222123862355525,-0.0014484078852480986,-0.012109125232490177,0.010151891001333494,0.98568371612463
2017-09-07,-1,-0.0012873253188627292,-0.0010607274473494648,-0.012109125232490177,0.009227990283465054,0.9863667756529108
2017-09-11,-1,-0.0010894284484118289,-0.0008762309146239807,-0.012109125232490177,0.0073920111119355975,0.9864440373712546
2017-09-13,-1,-0.002614510776578871,-0.0022212353031484293,-0.0111689684089539,0.009227990283465054,0.9881945431703636
2017-09-15,-1,-0.002819471590651583,-0.002419887597275029,-0.008171386084651523,0.0073920111119355975,0.9913900777543284
2017-09-19,-1,-0.003710085495585859,-0.0032413780884085995,-0.0027982624631026714,0.009227990283465054,0.9917311844482513
2017-09-21,-1,-0.0036830685672839653,-0.003214447001932022,-0.0021429398686496123,0.009227990283465054,0.9924254560779138
2017-09-25,-1,-0.0028989263355780814,-0.00253970470885202,-0.0027982624631026714,0.009334296092975139,0.9919516851104929
2017-09-27,-1,-0.002287895475877252,-0.002024085529079906,-0.0027982624631026714,0.007521141029478287,0.9926124334587857
2017-09-29,-1,-0.002135223190356731,-0.0018861538181915586,-0.008171386084651523,0.006641371657442597,0.9899053791306488
2017-10-03,-1,-0.0026189112186618684,-0.0023076573957143557,-0.0037743055676215448,0.009732113702965423,0.9891521399146778
2017-10-05,-1,-0.0026656306229973547,-0.0023465185731497955,-0.011284233553925578,0.009732113702965423,0.988208163881343
