JNU-Tangyin/eata/results/Batch4_SP500/Batch4_SP500-IEX.csv
Date,Action,Predicted_Q25,Predicted_Q75,Actual_Q25,Actual_Q75,RL_Reward
2010-12-14,1,0.0,0.0017340529499825902,-0.0038656271892108783,0.0052797689170888595,0.9942016931890165
2010-12-16,1,0.002195619672337151,0.0023228370056328686,-0.0038656271892108783,0.005836843260853518,0.9930116384030762
2010-12-20,1,0.002125990796622469,0.0022186591740891094,-0.004641873222252974,0.005836843260853518,0.9922309140098076
2010-12-22,1,0.002429713282075851,0.0026082502781064375,-0.006551303208661222,0.005836843260853518,0.9908077573259904
2010-12-27,1,0.0019556939140731484,0.0020659535873618034,-0.005295778249333242,0.007254347915201422,0.9907765630720952
2010-12-29,1,0.0015804514569023823,0.0016364011299178072,-0.005295778249333242,0.009793242279223579,0.9907157492736439
2010-12-31,1,0.0012519447407371505,0.0012582100714297133,-0.005295778249333242,0.010925961840353344,0.9893271939790312
2011-01-04,0,-0.00022244554926892325,3.212843565127046e-05,-0.003955644466644313,0.010925961840353344,0.9903295483963618
2011-01-06,-1,-0.0007659709101994947,-0.0004211107843544147,-0.004023567785230561,0.011903604782037249,0.9895876513655412
2011-01-10,0,0.0,0.0,-0.004023567785230561,0.012439930083502478,0.9893089488370397
2011-01-12,-1,-0.00032757091873846346,-4.931363126331944e-05,-0.004023567785230561,0.013058621301559041,0.9891778121904109
2011-01-14,-1,-0.0011189822826982844,-0.0006835534375659352,-0.003241148890064817,0.013058621301559041,0.9896205586531968
2011-01-19,-1,-0.0016515179274388682,-0.0011348235800349893,-0.003241148890064817,0.013058621301559041,0.9903532183706989
2011-01-21,-1,-0.002764728754293425,-0.0021134201566609116,-0.0017057809611995525,0.013058621301559041,0.9905443653704488
2011-01-25,-1,-0.0014152453702739281,-0.0009806897571829774,-0.003241148890064817,0.012439930083502478,0.9898556756937245
2011-01-27,-1,-0.00023113453629087534,-5.305244423894255e-06,-0.003241148890064817,0.013058621301559041,0.9890896207117906
2011-01-31,-1,-0.000651534424052649,-0.00035767587688177683,-0.003241148890064817,0.006827065412351313,0.9901098859715732
2011-02-02,0,0.0,0.0,-0.003241148890064817,0.007130350655054681,0.9893041622285972
2011-02-04,0,0.0,0.0,-0.008025321845166989,0.00486528672264307,0.9885370983104802
2011-02-08,1,0.00014396005605648245,0.00018695344706880462,-0.008025321845166989,0.00486528672264307,0.9882675893198759
2011-02-10,1,0.0002707386937273675,0.00027959427750790406,-0.011687253006869281,0.00486528672264307,0.9878931967065473
2011-02-14,0,0.0,0.0,-0.011687253006869281,0.004511032674272079,0.9875414419648872
2011-02-16,0,0.0,0.0,-0.011687253006869281,0.0068219341437484,0.9868996840789424
2011-02-18,1,0.6411646640786101,0.6412565962418767,-0.011687253006869281,0.012728508820736638,0.6095634964063776
2011-02-23,0,0.0,0.0,-0.010343959609907971,0.012728508820736638,0.9874881824499031
2011-02-25,0,0.0,0.0,-0.010343959609907971,0.012612768788554468,0.9878599178372095
2011-03-01,1,0.0004273497109320431,0.0008178816598849923,-0.009998506940050727,0.012612768788554468,0.9883719163087462
2011-03-03,0,0.0,0.0,-0.009998506940050727,0.012612768788554468,0.9888333174452407
2011-03-07,0,0.0,0.0,-0.005616704327819286,0.015220753149537188,0.98932200433806
2011-03-09,0,0.0,0.0,-0.005616704327819286,0.012612768788554468,0.9896548410681062
2011-03-11,1,0.0013127634533904539,0.0013763527364988415,-0.008091633873665764,0.01168207211989832,0.990211145708964
2011-03-15,1,0.00023019892993430695,0.0003451226349354971,-0.009640383713861883,0.01168207211989832,0.9896353627176471
2011-03-17,1,0.0002581271732779339,0.0003654219284761768,-0.008091633873665764,0.011325030073301089,0.9901354401668763
2011-03-21,1,0.0011960894582844195,0.0012078936412658276,-0.009662052776590923,0.009742260745845556,0.9907330945372105
2011-03-23,1,0.0003150726486082727,0.00044177663491688573,-0.008091633873665764,0.011325030073301089,0.990066337821918
2011-03-25,1,0.0010888934145871654,0.0011309329111219538,-0.008091633873665764,0.010549352557714739,0.9890048648792107
2011-03-29,1,0.0012414560044050435,0.0012601509252953258,-0.007673223337027777,0.010549352557714739,0.9889325455946032
2011-03-31,0,0.0,0.0,-0.007673223337027777,0.00948370157398344,0.989156525868247
2011-04-04,0,0.0,0.0,-0.008406821166676964,0.008091779363581273,0.9892670397792974
2011-04-06,1,0.00299086672917667,0.003243267166602184,-0.01063941918142285,0.007563024513325047,0.9879631236406942
2011-04-08,0,0.0,0.0,-0.008406821166676964,0.008091779363581273,0.9886819450989064
2011-04-12,0,0.0,0.0,-0.007559360358542312,0.008091779363581273,0.9890147967672105
2011-04-14,0,0.0,0.0,-0.008661784709917193,0.007563024513325047,0.9882219941774224
2011-04-18,0,0.0,0.0,-0.008661784709917193,0.007563024513325047,0.9881163131991055
2011-04-20,0,0.0,0.0,-0.008661784709917193,0.006897831360183297,0.9883120207550169
2011-04-25,0,0.0,0.0,-0.011523505283979423,0.0051073329579556116,0.9896640752426772
2011-04-27,0,0.0,0.0,-0.011523505283979423,0.0051073329579556116,0.989832501324278
2011-04-29,0,0.0,0.0,-0.011523505283979423,0.0051073329579556116,0.9896146382053884
2011-05-03,0,0.0,0.0,-0.01256456845806836,0.007137585507741821,0.9880434873247235
2011-05-05,0,0.0,0.0,-0.012429088445444004,0.007137585507741821,0.9884546053110479
2011-05-09,0,0.0,0.0,-0.012429088445444004,0.0047841354486210744,0.9889666059022789
2011-05-11,0,0.0,0.0,-0.009371341099957426,0.004312915490034316,0.9895379544767795
2011-05-13,0,0.0,0.0,-0.008449954285879082,0.0034536200350379345,0.9901783417539233
2011-05-17,1,0.0007259136591145152,0.0007349242117730294,-0.008449954285879082,0.00616799297973821,0.9895549392606326
2011-05-19,1,0.0013031777444437558,0.0013359171302050879,-0.008472053234556933,0.00616799297973821,0.9897367064792392
2011-05-23,1,2.423240685222027e-05,0.00016821328435323623,-0.007000444197047153,0.009528345018483233,0.9897378402632953
2011-05-25,1,0.00016585841977503917,0.0002998934590272083,-0.007000444197047153,0.008444563522416806,0.9896649051191587
2011-05-27,1,0.0005040039549239412,0.0006037023051287205,-0.008472053234556933,0.006118856703946084,0.9895020758836454
2011-06-01,-1,-0.0016878143747124613,-0.0013119146716485982,-0.007000444197047153,0.008631417707303569,0.9902705668389252
2011-06-03,-1,-0.001659366315065878,-0.00129521925859821,-0.006814683083546519,0.014199353055642058,0.9896032514009224
2011-06-07,-1,-0.0014713769137721252,-0.0011484094967144339,-0.0034133783183996225,0.014199353055642058,0.9895802243228753
2011-06-09,-1,-0.0006493328636459851,-0.0004346143871045211,-0.0034133783183996225,0.014199353055642058,0.9896343929676548
2011-06-13,-1,-0.0021127796759085565,-0.0017088037586249175,-0.00682204939977247,0.014199353055642058,0.9881552033183293
2011-06-15,-1,-0.0021117937411894686,-0.001646533832830486,-0.00682204939977247,0.012293708223562969,0.9890455756967975
2011-06-17,-1,-0.001772892468395336,-0.0014094398599296166,-0.0052505903819585675,0.009194080127693054,0.989530973329528
2011-06-21,-1,-0.00031006203672807745,-0.0001792625433252062,-0.0052505903819585675,0.009194080127693054,0.9880730960430658
2011-06-23,-1,-0.00018173448108666851,-8.223465954986214e-05,-0.0058755913408558525,0.009194080127693054,0.9869022100587088
2011-06-27,0,0.0,0.0,-0.0058755913408558525,0.009194080127693054,0.9861620675691137
2011-06-29,0,0.0,0.0,-0.011574157135763619,0.005010265452304388,0.9859575523107591
2011-07-01,0,0.0,0.0,-0.011574157135763619,0.0030089989393715876,0.986987568163725
2011-07-06,0,0.0,0.0,-0.0209049486343086,0.0029123996386781177,0.9858603795455928
2011-07-08,0,0.0,0.0,-0.029122527683626297,-0.0003036745302877194,0.9829524549025527
2011-07-12,0,0.0,0.0,-0.029307479110736386,0.0029123996386781177,0.97806102773886
2011-07-14,-1,-0.7375500905797898,-0.7344143561601519,-0.033957711986294416,0.0033264395023141994,0.578849282998489
2011-07-18,0,0.0,0.0,-0.033957711986294416,0.0033264395023141994,0.9732920784400754
2011-07-20,1,0.00016146482649273536,0.0002433748849895402,-0.033957711986294416,-0.00019786100930684883,0.9743628530794399
2011-07-22,0,0.0,0.0,-0.03420445178080463,-0.0008163098542484913,0.971705191657663
2011-07-26,0,0.0,0.0,-0.03420445178080463,0.00431424611508404,0.9709424705315294
2011-07-28,0,0.0,0.0,-0.031572320749173634,0.01028565101454608,0.9703225999183602
2011-08-01,0,0.0,0.0,-0.031572320749173634,0.027451508912520135,0.9676148486513808
2011-08-03,-1,-0.0056204264101140265,-0.0048867105200674,-0.027980190886901013,0.027451508912520135,0.9684169746930182
2011-08-05,-1,-0.008398147823068343,-0.007334580542709811,-0.027980190886901013,0.027451508912520135,0.9684091294235266
2011-08-09,-1,-0.008090911844712318,-0.0070456649652461,-0.02691164105016733,0.025991816729029827,0.9731823062440417
2011-08-11,-1,-0.0066836830748782826,-0.00586417263168026,-0.02691164105016733,0.02281850276380409,0.9764804358947715
2011-08-15,-1,-0.006486028719241798,-0.005663651900666833,-0.02691164105016733,0.025991816729029827,0.9756799726033641
2011-08-17,-1,-0.007065003866223266,-0.006222942677286016,-0.02691164105016733,0.025991816729029827,0.9740240957093941
2011-08-19,-1,-0.010472411851604102,-0.009231378142179688,-0.017054272296702075,0.025991816729029827,0.9772936329718268
2011-08-23,-1,-0.00793883853874241,-0.007038462272418604,-0.01960830574480455,0.022451618825378855,0.9780976271738535
2011-08-25,-1,-0.006769664097757542,-0.006041076922072505,-0.01960830574480455,0.021910280568286533,0.9768880756959162
2011-08-29,-1,-0.004193698133972923,-0.003795906453680686,-0.01960830574480455,0.021696648142317337,0.9762883088257339
2011-08-31,-1,-0.0037682816888765847,-0.00339068806899803,-0.028442800610132372,0.021696648142317337,0.9751270855273668
2011-09-02,-1,-0.006616940884033571,-0.0058730763386884745,-0.03423774431057623,0.021696648142317337,0.9748013040891295
2011-09-07,-1,-0.00634537496954634,-0.005655739063117475,-0.03423774431057623,0.022714398798757557,0.9716289123539812
2011-09-09,-1,-0.008211350718025449,-0.007304148015125368,-0.03572342551093746,0.022714398798757557,0.9703776864694985
2011-09-13,-1,-0.006716536128558787,-0.006044688112059867,-0.03572342551093746,0.022714398798757557,0.9701392714098883
2011-09-15,-1,-0.00335320749656327,-0.0031821600198478584,-0.03572342551093746,0.023394230022368574,0.9702558668783332
2011-09-19,-1,-0.003961860924586828,-0.003728456273938582,-0.03572342551093746,0.023394230022368574,0.969145511935303
2011-09-21,-1,-0.005931155770885055,-0.005500159675056656,-0.02717825989637379,0.026082418714422545,0.9680601527285709
2011-09-23,-1,-0.006980132879437237,-0.006404389070139672,-0.023974939162620466,0.026082418714422545,0.9694002040492836
2011-09-27,-1,-0.005453871481682273,-0.005016278770618342,-0.023974939162620466,0.026082418714422545,0.9707871262915584
2011-09-29,-1,-0.004390006969081853,-0.004135528666424491,-0.022645962149368003,0.027404445909867667,0.970783042121218
2011-10-03,-1,-0.00767920212194006,-0.007051762718275447,-0.02050823359635818,0.027404445909867667,0.972923003535727
2011-10-05,-1,-0.004042673660423532,-0.003811129222556089,-0.021711772894602743,0.023729065868375556,0.9761728127044709
2011-10-07,-1,-0.004851814838493636,-0.004491810687523863,-0.02050823359635818,0.02460580961798396,0.9768911046529989
2011-10-11,-1,-0.0028982981638749124,-0.002811104940022453,-0.02050823359635818,0.02460580961798396,0.9782307189840048
2011-10-13,-1,-0.0015523013055158004,-0.0015096537755763038,-0.021711772894602743,0.020442500360363856,0.9779577154414997
2011-10-17,-1,-0.0013378992866558883,-0.0012369322971145689,-0.02071771357143474,0.022349045670172187,0.9778447479089188
2011-10-19,0,-8.097709676627184e-05,0.00023603284267519574,-0.017394208730236282,0.01976445961873272,0.9806496584355693
2011-10-21,0,-0.00012291060242700048,0.0001501653203168301,-0.017394208730236282,0.01827127131748163,0.9803063262439
2011-10-25,1,0.0004305216133162989,0.0007466483798792678,-0.017394208730236282,0.017044803272440172,0.9818736323929332
2011-10-27,1,0.0013963507519585182,0.001835184982665671,-0.020324450415738715,0.009524887273812096,0.981907420860164
2011-10-31,1,0.0012293684793931886,0.0016530145938960076,-0.017541778657339486,0.014719521526408028,0.9812485306872649
2011-11-02,1,0.0016705035148991282,0.0021410833437891953,-0.015393378784341926,0.014719521526408028,0.9804841172865388
2011-11-04,1,0.002102926395531622,0.0026507433577025773,-0.012550560106894669,0.012534720955967976,0.9820782030915651
2011-11-08,1,0.0025867609523631398,0.0032028849653938747,-0.012550560106894669,0.011961256502578803,0.9828556411181765
2011-11-10,1,0.00233229520990864,0.0029756952199658415,-0.012550560106894669,0.013299456703754065,0.9826981038475372
2011-11-14,1,0.0024125071449612777,0.0030610918022417194,-0.011471953969080604,0.011961256502578803,0.9832407190234387
2011-11-16,1,0.0023742333646085004,0.0029851979780762,-0.014305960243897294,0.011961256502578803,0.9826600819110096
2011-11-18,1,0.002499332683404594,0.003195072521702128,-0.013312312384728422,0.007358994432564854,0.9841354079803273
2011-11-22,1,0.0025709071421470223,0.0033220001438519983,-0.011471953969080604,0.011961256502578803,0.9834517758754386
2011-11-25,1,0.0023623239251091993,0.0031218097385156767,-0.009987398135327766,0.011961256502578803,0.9851210076269068
2011-11-29,1,0.00405148659428412,0.005062856381906504,-0.009987398135327766,0.009815171664247177,0.9860202381518552
2011-12-01,1,0.004706792087037186,0.005740569219176109,-0.00922154079542485,0.009815171664247177,0.9879486116613062
2011-12-05,1,0.004943853589084815,0.005952141486146191,-0.00922154079542485,0.005193825471377311,0.9882475463931957
2011-12-07,1,0.005423965638242464,0.00650881228274793,-0.00922154079542485,0.006117640842442219,0.9873331708071128
2011-12-09,1,0.006072554608687206,0.0073056724927699716,-0.008637601738568456,0.006117640842442219,0.9890732267482683
2011-12-13,1,0.005098027537408527,0.006159944717897487,-0.003218794846225967,0.006938563571613232,0.9908745877167743
2011-12-15,1,0.004335630077502403,0.0052581996638428954,-0.0007848983153439772,0.006938563571613232,0.9921561611185254
2011-12-19,1,0.001922730752812304,0.0024408272073068735,0.00012823775243861447,0.012616243233910283,0.9918859946709885
2011-12-21,1,0.002473659133690285,0.003060769979118929,-0.0007848983153439772,0.009965377549260173,0.993043105724567
2011-12-23,1,0.0029164881334746147,0.0035133900130796913,-0.0013499536625644142,0.011112887380694709,0.9928714234053362
2011-12-28,1,0.0020903289403253547,0.0024257032911637927,-0.0002524111739036467,0.011112887380694709,0.9936037040490221
2011-12-30,1,0.0029625474939369476,0.0033137747360174334,-0.0002524111739036467,0.011104148074544908,0.9944886034062341
2012-01-04,1,0.0039181282388779035,0.004474170257943434,-0.0002524111739036467,0.01250249228667988,0.9934961668903904
2012-01-06,1,0.004372918615651656,0.0049994325818252215,0.00013040784740809348,0.01250249228667988,0.9935732153375423
2012-01-10,1,0.004320511829770919,0.004878246975137018,-0.0004472732412188961,0.011104148074544908,0.9925405193425355
2012-01-12,1,0.0031470408489444953,0.0033770889257498235,-0.002580860267249525,0.01250249228667988,0.9907239220439896
2012-01-17,1,0.0035527267326143637,0.0039107103962378546,-0.002580860267249525,0.012616243233910283,0.9900170810142614
2012-01-19,1,0.0037895132238202375,0.004170705992747244,-0.002580860267249525,0.011104148074544908,0.9903812199206163
2012-01-23,1,0.004018162591596366,0.004516274701239132,-0.0007820418323784843,0.011104148074544908,0.991085985447013
2012-01-25,1,0.004529089760280415,0.005130732183871434,-0.001461577135076342,0.009827762223947174,0.9909943551012519
2012-01-27,1,0.003345998060482851,0.0036152794782925435,-0.004256088446249095,0.009827762223947174,0.9907288074488383
2012-01-31,1,0.003309181626164144,0.0036084290494997136,-0.006127040313890683,0.0056618781650528,0.99016436513434
2012-02-02,1,0.003284141070613195,0.0034726870499577874,-0.007218490484645104,0.003396541740560849,0.990012163049246
2012-02-06,1,0.00391556667832599,0.0042088600929060275,-0.009072962893559808,0.0018199422982211918,0.9884440550345115
2012-02-08,1,0.004453153811431309,0.004917106815404781,-0.006127040313890683,0.005579035818735681,0.9884526905041516
2012-02-10,1,0.0036283293510704475,0.003933377335380148,-0.0051176790356485735,0.005579035818735681,0.9901141459601722
2012-02-14,1,0.002513770587560649,0.0025798194420078528,-0.005487660323494418,0.005579035818735681,0.9898477574409008
2012-02-16,1,0.001974328328190376,0.0020174925731889074,-0.006009091795168462,0.004812086366090209,0.9898635148266232
2012-02-21,1,0.0021743765991229435,0.0022437339414196813,-0.006655482537483798,0.004812086366090209,0.9892121032363137
2012-02-23,1,0.0017645717806237323,0.0017907672048603756,-0.009091207327172082,0.002730142372757675,0.9882949826130668
2012-02-27,0,-0.0003675757109976084,3.19952716261074e-05,-0.009091207327172082,0.011132309325304839,0.9884037148075044
2012-02-29,1,0.0006035870924961408,0.000724951813907687,-0.006870726406349197,0.011132309325304839,0.9883670194765055
2012-03-02,-1,-0.000280577382177244,-3.149310181451825e-05,-0.005663807731358789,0.011132309325304839,0.9891808442347877
2012-03-06,-1,-0.0008085959451557118,-0.0005316351095940133,-0.004180688889646848,0.011132309325304839,0.9903779954289798
2012-03-08,0,0.0,0.0,-0.005663807731358789,0.007068661783416421,0.9914372659389895
2012-03-12,0,0.0,0.0,-0.009203043463998027,0.006124322365940115,0.9900950318421605
2012-03-14,1,0.0028362770635491667,0.003141945084937514,-0.009203043463998027,0.007068661783416421,0.989828678947631
2012-03-16,1,0.00089306537600081,0.0009017204478642135,-0.013231853692189292,0.008222129915301444,0.9891446163997705
2012-03-20,1,0.0006540469392769223,0.0006689857574902373,-0.013231853692189292,0.010027249607361913,0.9879617250343874
2012-03-22,1,0.0004991374198499054,0.0005004125176911457,-0.013231853692189292,0.011132309325304839,0.9877479917236379
2012-03-26,1,0.00048535040188611115,0.0005056473776646927,-0.01348754791225875,0.010933450391268291,0.9875497064673641
2012-03-28,1,0.0006251443805433897,0.000644565123853275,-0.01348754791225875,0.014378923787259537,0.9867373827058795
2012-03-30,1,0.0007465968426411282,0.0007521645565547513,-0.013743037919359918,0.016565336361937542,0.984957600393514
2012-04-03,1,0.0009301079361700481,0.000961545494799761,-0.013743037919359918,0.016565336361937542,0.9852652825093697
2012-04-05,1,6.910934755267818e-05,0.00018951667782030269,-0.014701358826400505,0.016565336361937542,0.9849215202092422
2012-04-10,0,0.0,0.0,-0.013408788658489752,0.016565336361937542,0.986575327702624
2012-04-12,0,0.0,0.0,-0.013408788658489752,0.014378923787259537,0.9874927112891275
2012-04-16,0,0.0,0.0,-0.013743037919359918,0.00936021864988042,0.987722768234756
2012-04-18,0,0.0,0.0,-0.013814264352480177,0.0049765014688256904,0.9883379309882332
2012-04-20,0,0.0,0.0,-0.013814264352480177,0.003835255063407825,0.9882909693099192
2012-04-24,0,0.0,0.0,-0.013688020809964337,0.003835255063407825,0.9887230130991095
2012-04-26,0,0.0,0.0,-0.013688020809964337,0.0020266377767013347,0.9889924283828339
2012-04-30,0,0.0,0.0,-0.013221634094538323,0.0020266377767013347,0.9897704808042517
2012-05-02,0,0.0,0.0,-0.013812080686498043,0.0020266377767013347,0.9885129141828637
2012-05-04,-1,-0.00023614412163102224,-8.088524567354287e-05,-0.01405023014076739,0.0020266377767013347,0.9874886075846065
2012-05-08,0,0.0,0.0,-0.01405023014076739,0.007983982430079266,0.9864524140201628
2012-05-10,0,0.0,0.0,-0.01405023014076739,0.007983982430079266,0.9869207200873558
2012-05-14,0,0.0,0.0,-0.01405023014076739,0.009910836081727447,0.9864374062569448
2012-05-16,0,0.0,0.0,-0.014312093118067302,0.009910836081727447,0.9867295503360585
2012-05-18,-1,-0.004653271120221892,-0.003965457872896577,-0.012814047299101307,0.013145631331039576,0.9865427127866183
2012-05-22,-1,-0.004433535150091119,-0.003728686446020215,-0.013383142842021932,0.013145631331039576,0.9856809541140813
2012-05-24,-1,-0.003088575147836351,-0.002548043127176117,-0.014312093118067302,0.009261938521663616,0.985150091702078
2012-05-29,-1,-0.0013525883399739644,-0.0009956571348547342,-0.016475685516612753,0.008129072768839063,0.984892112091905
2012-05-31,-1,-0.0019017264957762797,-0.0015084388427556439,-0.016475685516612753,0.008532624544817378,0.9851710380593903
2012-06-04,-1,-0.0028039235055716837,-0.0023281959228843036,-0.008436493789377891,0.010308791840437028,0.9851307093851047
2012-06-06,0,0.0,0.0,-0.008436493789377891,0.010308791840437028,0.9857583738878825
2012-06-08,0,0.0,0.0,-0.02001142664621663,0.010308791840437028,0.9838863126628067
2012-06-12,0,0.0,0.0,-0.020637284179044466,0.008478023875096868,0.9835751379305583
2012-06-14,0,0.0,0.0,-0.02006818097823601,0.010308791840437028,0.983526873583364
2012-06-18,-1,-0.005599493086077081,-0.004859296231381929,-0.020511681114357135,0.008478023875096868,0.9839464729648063
2012-06-20,0,0.0,0.0,-0.020511681114357135,0.008478023875096868,0.9828763438229348
2012-06-22,0,0.0,0.0,-0.020511681114357135,0.008012822341019025,0.9839052200139115
2012-06-26,-1,-0.0022146726146272415,-0.002058110189128313,-0.02006818097823601,0.008012822341019025,0.9852670321386973
2012-06-28,-1,-0.0014033042082834141,-0.0013435776638640517,-0.02006818097823601,0.022961384501598778,0.9820892936969144
2012-07-02,0,0.0,0.0,-0.02006818097823601,0.01103634038535272,0.9827018480860431
2012-07-05,0,0.0,0.0,-0.02006818097823601,0.0008452693749378809,0.9830947061981463
2012-07-09,0,0.0,0.0,-0.015768825845309864,0.01103634038535272,0.9824978319019676
2012-07-11,0,0.0,0.0,-0.012675430484869129,0.02083328302711513,0.9830010320263739
2012-07-13,0,0.0,0.0,-0.012675430484869129,0.010756251380749239,0.9839452414415564
2012-07-17,0,0.0,0.0,-0.007095592875142188,0.010756251380749239,0.9853294423831246
2012-07-19,0,0.0,0.0,-0.007095592875142188,0.005954453392373631,0.9869289825894673
2012-07-23,0,0.0,0.0,-0.004432271770436778,0.00893452154945713,0.98731404023459
2012-07-25,0,0.0,0.0,-0.0025799114651937653,0.00893452154945713,0.9875903426589586
2012-07-27,0,0.0,0.0,-0.0046023170385375185,0.0039889862675336705,0.9909272912977896
2012-07-31,-1,-0.0007783777793223574,-0.0007240052983962361,-0.0035292769479296736,0.0039889862675336705,0.9913551754224974
2012-08-02,-1,-0.0007583407747407948,-0.000738431108014459,-0.002620889679622421,0.0039889862675336705,0.9921074627411258
2012-08-06,1,0.001049359296196275,0.0013080551095263969,-0.002620889679622421,0.005954453392373631,0.993824143829545
2012-08-08,1,0.0013035707546573956,0.0015894323098361225,-0.002620889679622421,0.005954453392373631,0.9932537931905349
2012-08-10,1,0.001410192174378158,0.0016986691307796585,-0.0033542523397076893,0.007698064019006317,0.9927390493010017
2012-08-14,1,0.001043146533803415,0.0012318086445506815,-0.0033542523397076893,0.007698064019006317,0.9926578213666487
2012-08-16,1,0.001800670216370879,0.002132665034209696,-0.004768536415412203,0.008571420315408848,0.9919881587114322
2012-08-20,1,0.0023266047726008387,0.002747242034148367,-0.006211581541591254,0.008276357210581165,0.9917785453385936
2012-08-22,1,0.0018637427065811027,0.002219139878177667,-0.004768536415412203,0.008571420315408848,0.9915319645164082
2012-08-24,1,0.0021996512625997687,0.0026298481238632328,-0.004768536415412203,0.008571420315408848,0.9911594349849623
2012-08-28,1,0.0005313120986579851,0.0006833019504274194,-0.004932828886706385,0.008571420315408848,0.9916588775227295
2012-08-30,-1,-3.306137548329315e-05,-3.23255847087342e-05,-0.004932828886706385,0.009502452768327684,0.9908810730317864
2012-09-04,1,0.0010139922600134086,0.001236171913921941,-0.006112434248384625,0.0084996408893779,0.9910975670609162
2012-09-06,1,0.0012533019855459648,0.0015039769058063572,-0.004932828886706385,0.005502619365732686,0.9929153470553324
2012-09-10,1,0.001425973887684913,0.0016916890864634429,-0.004932828886706385,0.002597564970278292,0.993221550055988
2012-09-12,1,0.0013555234996057474,0.0016042683531382065,-0.006112434248384625,0.002597564970278292,0.992019023736571
2012-09-14,1,0.0017797604559084857,0.002076983827903071,-0.006230056708359272,0.0013846824304749137,0.9920408006903664
2012-09-18,1,0.002151037978004172,0.002564477570160471,-0.0049720363733646005,0.002597564970278292,0.991570124031828
2012-09-20,1,0.0028625802127086606,0.0033271870898566322,-0.006230056708359272,0.002597564970278292,0.9911191271979739
2012-09-24,1,0.0026035298186589933,0.003079568580017659,-0.006417950039275726,0.002597564970278292,0.9907179794944271
2012-09-26,1,0.0016676782590860186,0.001999193149490621,-0.006384495978030132,0.006318104145552152,0.990500261609513
2012-09-28,1,0.001970978402099019,0.002342448963005778,-0.006384495978030132,0.006318104145552152,0.9905921323902722
2012-10-02,1,0.0014733284133592846,0.0017498956402423687,-0.004897971145756827,0.012285864960892269,0.9896108445453828
2012-10-04,1,0.001987836181192412,0.002331934926499643,-0.006384495978030132,0.012285864960892269,0.9883089012015394
2012-10-08,1,0.0009927228931783543,0.0011349211325460964,-0.007374415461928614,0.012285864960892269,0.9871387420456166
2012-10-10,-1,-2.9036626909617573e-05,-5.639814636246201e-07,-0.007374415461928614,0.012285864960892269,0.9872056528983096
2012-10-12,-1,-0.00012907149114169727,-0.00012056431532255895,-0.007374415461928614,0.012285864960892269,0.9874985270838583
2012-10-16,1,0.0012003321134669974,0.00141450332242387,-0.01002981654683879,0.00963131302350376,0.9878794192016875
2012-10-18,1,0.0011088686996224074,0.0013086965331462848,-0.008550373705917873,0.00963131302350376,0.9880819948500306
2012-10-22,1,2.0922183996154983e-05,2.4854710516568537e-05,-0.001782859289419198,0.00963131302350376,0.9885122694440455
2012-10-24,-1,-0.00013788021828050297,-6.287632117410851e-05,-0.0040537251309088525,0.00963131302350376,0.9886700038392361
2012-10-26,1,0.0009666802168372682,0.001074574173669184,-0.0040537251309088525,0.00963131302350376,0.989248908563737
2012-11-01,1,0.0019612592298559493,0.002218370416735776,-0.0040537251309088525,0.00932020956962033,0.9908346018088592
2012-11-05,1,0.0017335123193043707,0.0019648497971544877,-0.004028209650701296,0.007703251740581725,0.9917742907256156
2012-11-07,1,0.0004461191845800325,0.0004521293849038626,-0.0018789958030170453,0.007428271894898066,0.9926315310917514
2012-11-09,1,0.0010807186684399775,0.0012134371229176996,1.9703526864110863e-05,0.007428271894898066,0.9932672230485938
2012-11-13,1,0.0007442253164980897,0.0008352731480332002,0.00017008948672208354,0.007428271894898066,0.9927659742311554
2012-11-15,-1,-0.0001987488021824691,-0.00011729149382683267,-0.0014434030429784663,0.007428271894898066,0.992859620969218
2012-11-19,1,0.0004242486402365582,0.0004909436390176038,-0.0014434030429784663,0.008354787967480461,0.9932985854311319
2012-11-21,1,0.00048790633340023036,0.0005549182533779559,-0.0014434030429784663,0.009199597950879431,0.9933627233448197
2012-11-26,1,0.0006971176062580608,0.0007131359393537608,-0.0014434030429784663,0.008281616891167713,0.9942904079955203
2012-11-28,1,0.0020530986855022584,0.002299063482286907,-0.0014434030429784663,0.006491961555766111,0.9947783456230943
2012-11-30,1,0.000930995793994323,0.0009317501144984828,-0.0022999914984012963,0.006491961555766111,0.9944713646333113
2012-12-04,-1,-0.0006437408779222159,-0.00037676674118487384,-0.0012551661525863993,0.008281616891167713,0.9931947365866021
2012-12-06,1,0.0009033177179320869,0.0009091528988392158,-0.0012551661525863993,0.008281616891167713,0.9933751729759893
2012-12-10,0,-7.982078426050038e-05,0.00014004298068083477,-0.0022999914984012963,0.005898942866929954,0.9938922987731396
2012-12-12,1,0.0004595572055622081,0.0005208769824181299,-0.0022999914984012963,0.005898942866929954,0.9937235088026678
2012-12-14,-1,-0.0005057717092610528,-0.00029101320593974357,-0.0010811232960156539,0.007352650697893118,0.9935248699212933
2012-12-18,1,0.0010604992304983525,0.0011351149448031055,-0.0010811232960156539,0.006317368931180867,0.9935908867171236
2012-12-20,1,0.002349671382345955,0.0025636804320953934,-0.0017804942125408964,0.0054099905301425505,0.9934081601625518
2012-12-24,1,0.0013694893540440165,0.0013837482570221366,-0.0007579152741536817,0.006159829111932693,0.9934598970995511
2012-12-27,1,0.0005214991441169574,0.0006761035976674355,-0.0005275891064086832,0.006159829111932693,0.992813346774052
2012-12-31,1,0.0012470622510402077,0.0012575504995504078,-0.00039330370532019126,0.006159829111932693,0.9931977391805411
2013-01-03,1,0.001848542378090187,0.0019382942588822404,-0.00039330370532019126,0.006159829111932693,0.9942208325965312
2013-01-07,1,0.002164702025548129,0.002306787975246493,-0.006095444132859949,0.006159829111932693,0.9928281958120978
2013-01-09,1,0.001714332400834052,0.0018053768535698004,-0.007269879600353791,0.006159829111932693,0.9926718528626294
2013-01-11,1,0.001491757489414185,0.0015758704725819413,-0.005093883953180414,0.006664243618323617,0.9926770540875601
2013-01-15,1,0.001882547219444217,0.0020396283690544397,-0.005093883953180414,0.008907082241440155,0.9922243535878732
2013-01-17,1,0.0018842088240270997,0.0020017516843243025,-0.005093883953180414,0.007044313741331333,0.9931904427847678
2013-01-22,1,0.0015358098271692443,0.001577392639981165,-0.005093883953180414,0.008907082241440155,0.9926895478291924
2013-01-24,1,0.0016481139004267307,0.001677178079813906,-0.007269879600353791,0.009670809753379375,0.9917037629544102
2013-01-28,1,0.0010965968889881637,0.001131540857432558,-0.007290833706471766,0.009819390863362573,0.9902120019680889
2013-01-30,1,0.001790071178357849,0.0018746201941078136,-0.007290833706471766,0.009940244941642822,0.9899103942403714
2013-02-01,1,0.0022411336844495315,0.00239025686965581,-0.0073995610390216494,0.009670809753379375,0.9898917086642455
2013-02-05,1,0.0002462628098498825,0.00034881342854587414,-0.005093883953180414,0.010257000701511355,0.9900496500701497
2013-02-07,1,0.0006522573553937861,0.0007055889568997181,-0.00432684013721373,0.011154906068786722,0.9899160376507533
2013-02-11,1,0.0005952581952752374,0.0006349432923120344,-0.003278130917531999,0.011154906068786722,0.9902441416692875
2013-02-13,1,0.001243946264733971,0.0012815218985102212,-0.003278130917531999,0.011106555043464304,0.9908479142750236
2013-02-15,1,0.0011354517151882734,0.001157212511871177,-0.004979937160631838,0.011106555043464304,0.9902241413869953
2013-02-20,1,0.0018260222563898636,0.00198398633121633,-0.003278130917531999,0.011745317042698126,0.9906486433675483
2013-02-22,1,0.001405265447670198,0.001467857407283708,-0.003278130917531999,0.011106555043464304,0.9910684499377619
2013-02-26,0,0.0,0.0,-0.003278130917531999,0.008891433082668146,0.9922430762854592
2013-02-28,0,0.0,0.0,-0.003278130917531999,0.008240243964638917,0.9930728123251505
2013-03-04,0,0.0,0.0,-0.004922524740620027,0.008240243964638917,0.9923622024986666
2013-03-06,0,0.0,0.0,-0.0070564253165235945,0.008240243964638917,0.9922855758630966
2013-03-08,0,0.0,0.0,-0.0070564253165235945,0.008240243964638917,0.9921559112024957
2013-03-12,1,0.000749587431328085,0.0009227391366156498,-0.0070564253165235945,0.008704004158479703,0.9916118026891111
2013-03-14,0,0.0,0.0,-0.0070564253165235945,0.008240243964638917,0.9922679835470802
2013-03-18,0,0.0,0.0,-0.0070564253165235945,0.008704004158479703,0.9900686679786298
2013-03-20,0,0.0,0.0,-0.008861867648723648,0.007150491585124534,0.9892178239050358
2013-03-22,1,0.0018935817813983652,0.0019695582279425842,-0.008861867648723648,0.0038773133013882384,0.9891953688780464
2013-03-26,1,0.0019121272006230598,0.001997666298354842,-0.007180979228487686,0.00893822235175111,0.9887113294954778
2013-03-28,1,0.0026361372297651112,0.002725009887814901,-0.008475618030418141,0.00893822235175111,0.9882844388736746
2013-04-02,1,0.0014053712034829274,0.0015026115159138256,-0.006378988416846133,0.009018447178579013,0.9893082083427863
2013-04-04,1,0.0008252026625811449,0.0010270602120185436,-0.006378988416846133,0.009018447178579013,0.9885182844575002
2013-04-08,1,0.0005082943165384495,0.0007573586957406734,-0.002901225082778132,0.01116212252589651,0.9878840136686702
2013-04-10,1,0.0009697516651223589,0.001176628391497655,-0.0023195525340439864,0.011174636759399151,0.9879048048606212
2013-04-12,1,0.00042859051276808945,0.0007506855706338188,-0.0032764557709229767,0.011174636759399151,0.9875798724180996
2013-04-16,-1,-0.0006646199222926758,-0.00025336435888768114,-0.0024305703437641248,0.011174636759399151,0.9889919519767706
2013-04-18,-1,-0.0019901756402236205,-0.0014534227191353509,0.00018742079843496343,0.014912861989552701,0.9890331430363352
2013-04-22,-1,-0.0012402725973228047,-0.0007887597235099759,0.0004143467486766127,0.014912861989552701,0.9887020819973807
2013-04-24,-1,-0.0005875861753471352,-0.00023997557081351204,-0.004803626994476559,0.011757471385076998,0.989448382187488
2013-04-26,-1,-0.0012988637154148059,-0.0008841427369744828,-0.005375100405928887,0.011757471385076998,0.989357689661706
2013-04-30,-1,-0.000688043510817379,-0.00032647430572270864,-0.005375100405928887,0.011757471385076998,0.989725767729452
2013-05-02,-1,-0.0006869675252895884,-0.0003424395602023689,-0.005375100405928887,0.009170044773585762,0.9911122969055414
2013-05-06,0,-0.00020150330671740366,5.978571292013669e-05,-0.006720289392596834,0.007201102015845965,0.9920705120359715
2013-05-08,1,0.00025970425438960935,0.00048638296973834935,-0.0067850667243369665,0.006251655966005879,0.9923729225956907
2013-05-10,-1,-0.0003386868574578424,-1.7310975286042663e-05,-0.0067850667243369665,0.007201102015845965,0.9920859766310316
2013-05-14,1,0.0005973044460548921,0.0007789821434587034,-0.008556609176945477,0.006251655966005879,0.9915566123774179
2013-05-16,1,0.0005501687860093043,0.0006720653314300215,-0.008556609176945477,0.006251655966005879,0.9920412123829184
2013-05-20,1,0.0008849228921369448,0.0010199029092749427,-0.008556609176945477,0.00380273160101191,0.9924707268273275
2013-05-22,1,0.00014382350749362976,0.0003628738271605062,-0.008556609176945477,0.00380273160101191,0.9923724648898603
2013-05-24,-1,-0.0003190159822418899,-0.00010451382632213721,-0.009916979723494687,0.00380273160101191,0.992116404425127
2013-05-29,1,0.0002599589851377544,0.0004149368768997849,-0.009916979723494687,0.004677789243382502,0.9914210235205915
2013-05-31,1,0.0003386504918111039,0.0004764705748525297,-0.009916979723494687,0.004677789243382502,0.9910331487551839
2013-06-04,1,0.00022611272972830197,0.0003869613757046604,-0.009916979723494687,0.007597956005741958,0.9903913472695517
2013-06-06,1,8.583431969639806e-05,0.0002983674999246246,-0.007888636665629011,0.011658031292566616,0.9899523116845482
2013-06-10,1,0.0008771781492067823,0.0009872497545719834,-0.007888636665629011,0.011647306195160639,0.98980741824419
2013-06-12,1,0.000141080621950613,0.00028727802836045393,-0.0007871238777326916,0.014451421842550967,0.9903071357880595
2013-06-14,1,0.0001038712996285808,0.00028637759844459215,-0.001971245969110059,0.014451421842550967,0.9903900927852267
2013-06-18,1,0.0004953350568953758,0.0006061637476577796,-0.0038253429225510852,0.014451421842550967,0.9903020614300728
2013-06-20,-1,-0.0003490382570641836,-0.0001288718132594238,-0.0037225977590584795,0.016141592446229723,0.9903833393105125
2013-06-24,-1,-0.0004788932847081608,-0.00023029061295360385,-0.0007192322146324166,0.01679257078216484,0.989639045207547
2013-06-26,1,5.1877083458480285e-05,0.00019615676278372102,-0.0037225977590584795,0.01679257078216484,0.990118405080069
2013-06-28,0,-0.0001168633369570761,0.00011035102803859745,-0.004689129784903617,0.01465521676371472,0.9909323922978082
2013-07-02,0,0.0,0.0,-0.0037225977590584795,0.008698204642518196,0.9915289248940897
2013-07-05,0,0.0,0.0,-0.0037225977590584795,0.008698204642518196,0.9912835632757504
2013-07-09,0,0.0,0.0,-0.004689129784903617,0.0064020424637157005,0.9916030964449937
2013-07-11,0,0.0,0.0,-0.005178038090297822,0.005854658050187392,0.992118557199423
2013-07-15,1,0.0004942621228891216,0.0005991585780400381,-0.005178038090297822,0.00603585003876662,0.9920872324581885
2013-07-17,1,0.00022821606903347894,0.0003042073768483437,-0.005915256602151744,0.00603585003876662,0.9918612449243145
2013-07-19,1,0.0004560844788796912,0.0005215347690387402,-0.00658101117100564,0.005600498046735869,0.9921309090042215
2013-07-23,1,0.0005942249189487592,0.0007342870362526013,-0.005915256602151744,0.004692547939890075,0.9935362483253294
2013-07-25,1,0.000415792929799732,0.000511722798824148,-0.004159557780492387,0.004692547939890075,0.9935767922455601
2013-07-29,1,0.0002798844674273171,0.0003777584373319081,-0.0034003106639906478,0.004692547939890075,0.9936476879379478
2013-07-31,1,0.000673442754159339,0.0008416046331314301,-0.004354757847597144,0.004692547939890075,0.9923439679214727
2013-08-02,1,0.001194545248232925,0.0014351942079835066,-0.00658101117100564,0.004349546373249045,0.99300500038635
2013-08-06,1,0.0013278604603142873,0.0016067722710155028,-0.004354757847597144,0.0046375190908863285,0.9928433146120258
2013-08-08,1,0.0012855431742640417,0.0015307466447547994,-0.0034003106639906478,0.0063196535014300274,0.9930884652599871
2013-08-12,1,0.001795081613264909,0.0021169909816678035,-0.0034003106639906478,0.00884704809637461,0.9920437627232747
2013-08-14,1,0.001773057914045818,0.0020799988603327703,-0.0034003106639906478,0.00884704809637461,0.9922281749953678
2013-08-16,1,0.001269659930347557,0.0014811019460759692,-0.0024167650113337946,0.009445303804534476,0.9924670975387786
2013-08-20,1,0.0012744024039458139,0.0015076127891690632,-0.0003105602403912313,0.011334912405175068,0.9918150083852881
2013-08-22,1,0.001277128529741242,0.0014505299168023037,-0.002403066199729703,0.009895091463643743,0.9920904913492422
2013-08-26,1,0.0012617036670521198,0.0014107935772490583,-0.0031262942057197203,0.009895091463643743,0.9917387046745123
2013-08-28,1,0.0007335640246508893,0.0008268640641527173,-0.002403066199729703,0.01029222615405021,0.992847726020521
2013-08-30,1,0.0005417826382278079,0.0006337531187779555,-0.002403066199729703,0.01029222615405021,0.992978338781777
2013-09-04,1,0.00087536692859225,0.000991512062266612,-0.0031262942057197203,0.01029222615405021,0.992604391713533
2013-09-06,1,0.0005897552908366499,0.0006187435543652407,-0.003898816952389682,0.01029222615405021,0.992253405545474
2013-09-10,1,0.000730845454378875,0.0007390468823597631,-0.0048348669199696345,0.007793231024985045,0.9933439266864988
2013-09-12,1,0.0005129133053349809,0.0005453359662096578,-0.0051283848222841094,0.009577682034669965,0.9917955013599388
2013-09-16,1,0.0013832297734041427,0.0014045767539800247,-0.0051283848222841094,0.01029222615405021,0.991485507596556
2013-09-18,1,0.0017515319555192158,0.0018076452845725334,-0.0058113042885982995,0.0073478681483203166,0.9918527905514066
2013-09-20,1,0.0016005396689000601,0.0016533574412473276,-0.0058113042885982995,0.008241593404675781,0.9913181473883118
2013-09-24,1,0.0012149882183514532,0.0012284566838417315,-0.0051283848222841094,0.008576336315898922,0.991392020969123
2013-09-26,1,0.0018303704815800406,0.0019380784942457869,-0.0051283848222841094,0.008661886589476222,0.9912494081074118
2013-09-30,1,0.002098511089851292,0.0022676411608057935,-0.0051283848222841094,0.010479037920076472,0.9911832902078836
2013-10-02,1,0.002193505457179365,0.0023743982768565236,-0.004609114726341916,0.009959910275369906,0.9918542469216775
2013-10-04,1,0.0019365963121294285,0.0021019359741981073,-0.002973521565204282,0.010479037920076472,0.9922008369272223
2013-10-08,1,0.001683032724610878,0.001819300838094594,-0.0014895004866137841,0.010479037920076472,0.9921375371539655
2013-10-10,1,0.002053789778461136,0.0022628362761062887,-0.0014895004866137841,0.009959910275369906,0.9929941145846284
2013-10-14,1,0.002138738962860191,0.0023218086516482153,-0.0014895004866137841,0.009206336870136889,0.9933617367429872
2013-10-16,1,0.001618005052832287,0.0017007473438562367,-0.0007470776435141559,0.009959910275369906,0.9932618032917879
2013-10-18,1,0.0021142007195955126,0.0022573833984936543,-0.0007346001156721847,0.009206336870136889,0.9943280552034689
2013-10-22,1,0.002181928083172567,0.0023280199799180184,-0.0014895004866137841,0.009206336870136889,0.9943400949509948
2013-10-24,1,0.002054579032446085,0.0021657144255462636,-0.001188250488365788,0.009206336870136889,0.9944594568640233
2013-10-28,1,0.0019859556197466288,0.0020682584948840386,-0.001188250488365788,0.007508642734468243,0.9946681340840052
2013-10-30,1,0.0022292377377432643,0.0023577342633334976,-0.0004249251218348884,0.006597821713159832,0.9951759165144324
2013-11-01,1,0.0019296273911718308,0.001959520894689319,-0.0014454426217211333,0.005821012127965711,0.995076943448976
2013-11-05,1,0.0018498917391408104,0.0018807725979672475,-0.0014454426217211333,0.00429939607158474,0.9950784892638866
2013-11-07,1,0.0011944635650349802,0.001247487209970978,-0.0014454426217211333,0.005821012127965711,0.9955427247843447
2013-11-11,1,0.0008226228493981032,0.0009704132774950825,-0.0014454426217211333,0.004021386687647398,0.9957786618303983
2013-11-13,1,0.0006013792663131392,0.0008237680681697899,-0.0019929058857330274,0.0028833313293903243,0.9950390041485143
2013-11-15,1,0.000769107002762166,0.0009459696375881002,-0.0019929058857330274,0.004021386687647398,0.9945475257193176
2013-11-19,1,0.0007832111844618777,0.0009335444567163027,-0.0014454426217211333,0.005821012127965711,0.9940515653443399
2013-11-21,1,0.0009987343266541823,0.0011175645271895092,-0.0019929058857330274,0.005821012127965711,0.9938307259642922
2013-11-25,1,0.0013497538290622147,0.0013994652899768554,-0.0013648862277462247,0.005434191684937724,0.9940146381523747
2013-11-27,1,0.0015544618400777275,0.0015630801685942238,-0.0013648862277462247,0.005846943131670043,0.9936768472317107
2013-12-02,1,0.0017058347395081661,0.001742288869679672,-0.0012113303381044692,0.0061363703262225285,0.9939053380930964
2013-12-04,1,0.0012707417922672051,0.001290654961851244,-0.0012113303381044692,0.0066100193993065565,0.9933855414764091
2013-12-06,1,0.0012881509331130203,0.0013180373910105867,-0.0012113303381044692,0.0061363703262225285,0.9934587848571516
2013-12-10,1,0.001389141047426224,0.0013944955173471399,-0.001189260094456402,0.0061363703262225285,0.9936173994885165
2013-12-12,1,0.0007450189319681028,0.0008223790225477843,-0.001189260094456402,0.0066100193993065565,0.9937597621794841
2013-12-16,1,0.0009709165046528871,0.0010307255705002678,-0.001189260094456402,0.006764340116890897,0.9933081587973717
2013-12-18,1,0.001150189280727612,0.001207448268655068,-0.003992771183970704,0.0066100193993065565,0.9934052128773461
2013-12-20,1,0.0014437543534417702,0.0014547438849239805,-0.0021053926516025265,0.0061363703262225285,0.9942028592060984
2013-12-24,1,0.0021161015986012038,0.0022330056814998034,-0.006700464987712169,0.0061363703262225285,0.9914985848088523
2013-12-27,1,0.0020815036171386242,0.0021797178222556952,-0.006700464987712169,0.0052138480040530445,0.9914022401754696
2013-12-31,1,0.001780315096595848,0.0018136723369999205,-0.006831497691811298,0.00540208213133334,0.9890173758526535
2014-01-03,1,0.0012900764376058205,0.0012961451027648197,-0.007359068483049286,0.004380106117997286,0.9879827440373702
2014-01-07,1,0.0010831366945648138,0.0011141559958524686,-0.009113322863416328,0.004796539821062352,0.9876565654139331
2014-01-09,1,0.0007071865784898661,0.0008110820275158152,-0.009113322863416328,0.007002785157030234,0.9868486652028226
2014-01-13,1,0.00017209238683484507,0.00034395050236565053,-0.007359068483049286,0.007634415069628228,0.9872884273851499
2014-01-15,1,0.0009601062735582293,0.0010304030810334233,-0.007359068483049286,0.006854346771769765,0.9875212538420594
2014-01-17,1,0.000458731152470825,0.0005845231677053771,-0.006504896534237237,0.008172254766650521,0.987645061621361
2014-01-22,1,2.6861713965949823e-05,0.00024201619838475064,-0.007583193121233554,0.008172254766650521,0.9871453242546233
2014-01-24,-1,-0.002488872958775118,-0.0019487469346730817,-0.005569276337368921,0.008172254766650521,0.9891488341816083
2014-01-28,-1,-0.002342422465434043,-0.0018433714923365345,-0.0029623541685218657,0.010050550228884762,0.9887542295897819
2014-01-30,-1,-0.0007714640866398553,-0.0004677414643531738,0.0003564580780798367,0.008172254766650521,0.9916372643639008
2014-02-03,-1,-0.001616741473640641,-0.0012751061068114198,0.0020252034641880857,0.010050550228884762,0.991765458353197
2014-02-05,-1,-0.0019578122409283543,-0.0015679745513430838,0.0009492770348737431,0.010050550228884762,0.9922602987397381
2014-02-07,-1,-0.00122181746460007,-0.0009247024452121611,0.00026564556121883644,0.0060260417765811225,0.9933101480842491
2014-02-11,-1,-0.00047501657492359493,-0.00030092589545344464,-0.0014758814237027804,0.004464130647835523,0.9938637478716285
2014-02-13,0,-0.00013536522070922057,1.4343546287130977e-05,-0.005171415133427275,0.003487776865142246,0.9939711002229363
2014-02-18,1,4.743199096413314e-05,0.00018736029911035055,-0.005171415133427275,0.003487776865142246,0.9939392569912311
2014-02-20,1,3.546865299312662e-05,0.00015824095273464907,-0.005171415133427275,0.003322151936247449,0.9940629751939644
2014-02-24,1,8.534275185893776e-05,0.00020073335665445573,-0.007779156590464132,0.003322151936247449,0.993311271972004
2014-02-26,1,0.0005717364208237912,0.000622828289897077,-0.00827661472979113,0.0031291193641620253,0.992803707757756
2014-02-28,1,0.0004008245228285897,0.0004996516925366157,-0.00827661472979113,0.0030772776427721703,0.9929539561211984
2014-03-04,1,0.00014255318996864765,0.00029660119438712637,-0.007779156590464132,0.003314839533617791,0.9929294850245608
2014-03-06,1,0.00014999970407659428,0.0002934930591993728,-0.007779156590464132,0.00364732378951075,0.9926089431627522
2014-03-10,1,0.0001478481106525725,0.0002654557436972255,-0.008673111623606948,0.00364732378951075,0.9912506795980406
2014-03-12,-1,-0.0005944481231507932,-0.0003691959421263447,-0.008673111623606948,0.004538099847470047,0.9912464102491999
2014-03-14,-1,-0.0007276214818734562,-0.0005169246238304735,-0.011422756823321991,0.004538099847470047,0.9907548631123267
2014-03-18,-1,-0.00028459910995670874,-0.0001373157182682879,-0.011422756823321991,0.004538099847470047,0.9907910194162277
2014-03-20,-1,-0.00044262286377960735,-0.0002831854848024377,-0.011422756823321991,0.009431819837685984,0.9892572730138159
2014-03-24,-1,-0.0009755841321351108,-0.0007649386880309557,-0.005010306363479539,0.009431819837685984,0.9899982080084885
2014-03-26,-1,-0.0012954326089479975,-0.0010635446007756294,-0.004011077690945091,0.010415338079628307,0.9898671294574476
2014-03-28,-1,-0.0009235376183505339,-0.0007578159170023558,-0.00812095391221657,0.010415338079628307,0.9893296336084487
2014-04-01,1,9.146794015219535e-05,0.00014122167493811085,-0.00812095391221657,0.009557680536600907,0.9899663326847175
2014-04-03,-1,-0.0002430275172931599,-0.00012712807368424193,-0.00812095391221657,0.009557680536600907,0.990268904620026
2014-04-07,-1,-0.0014497595427720885,-0.00121098840874319,-0.001715586753026584,0.009557680536600907,0.991684146303093
2014-04-09,-1,-0.0007299652746306953,-0.0006004942828806868,-0.002411090595272775,0.00857742163552892,0.9921752434935593
2014-04-11,-1,-0.0017042760397318539,-0.0014641998747254282,-0.0004709534888740827,0.010965490953772106,0.9921050737826511
2014-04-15,-1,-0.001497030342576978,-0.0012743025958443632,-0.0017057809412946725,0.008749992412927952,0.9921215590003484
2014-04-17,1,0.00011642469154495635,0.00013574223468279368,-0.0035730852513603906,0.005983351161278875,0.9936912485623574
2014-04-22,1,0.00019374639389635906,0.00019742473389003086,-0.0070967963010347595,0.006988562521020024,0.9923627062492998
2014-04-24,1,0.0005046236493940324,0.0005462070123389105,-0.0035730852513603906,0.006988562521020024,0.9930041044250755
2014-04-28,1,0.00016222980817383998,0.0001669848474928003,-0.0017057809412946725,0.008832013736152881,0.992506886996748
2014-04-30,1,0.0005663792019188846,0.0005958644368815039,-0.0017057809412946725,0.007022601628007059,0.9932077410088642
2014-05-02,1,0.0006762951116418756,0.000733453402817898,-0.0017057809412946725,0.00813309565629396,0.9927449399368301
2014-05-06,1,0.0006386112767817175,0.0006936445178633277,-0.002673722366589442,0.00813309565629396,0.9924916028618906
2014-05-08,1,0.0001871371548101902,0.00023573969114457262,-0.0019471233678133586,0.009635863979938129,0.9916754043514665
2014-05-12,1,0.0009532164546484925,0.0010210813302048332,-0.004112868912029407,0.009635863979938129,0.991701151836108
2014-05-14,1,0.0005724990696993027,0.0006142944542603496,-0.004059195703247112,0.009635863979938129,0.9919257053260093
2014-05-16,1,0.0005772916147385746,0.0006347106501974478,-0.0019471233678133586,0.009635863979938129,0.9926424795351705
2014-05-20,1,0.00024354240368610228,0.0002704671359772937,-0.000660813362243378,0.009635863979938129,0.9936112344723149
2014-05-22,1,0.0006534040464372659,0.000743991812943664,-0.0006424162560123689,0.008717079950418951,0.9941856302680908
2014-05-27,1,0.0015027355394241324,0.0017127055334980176,-0.0019471233678133586,0.004713026067410347,0.9951998152789542
2014-05-29,1,0.0014928652215049846,0.0016814650399640263,-0.0025596290893299435,0.0043016515898047294,0.9951393098961955
2014-06-02,1,0.001630093356960472,0.0018323704458102622,-0.0025596290893299435,0.0043016515898047294,0.9952633575856732
2014-06-04,1,0.001658774868498323,0.0018703768652648081,-0.0025625232086497677,0.005000741780546429,0.9950317820089455
2014-06-06,1,0.00214889204576475,0.0024044545046572486,-0.004067878061206585,0.0043016515898047294,0.9948565338752453
2014-06-10,1,0.002667768522077541,0.003032495942461061,-0.004067878061206585,0.003985749913588785,0.9952190461601979
2014-06-12,1,0.0020076975265628256,0.0022597544637614157,-0.0025625232086497677,0.003985749913588785,0.9953515090162436
2014-06-16,1,0.0021179441342385075,0.0023894051054848993,-0.003984454249499425,0.003623799635278031,0.9951733798155733
2014-06-18,1,0.0012796561763430158,0.0013373601698545038,-0.005611326930548529,0.003394748175206491,0.994907030828285
2014-06-20,1,0.0012523058097213017,0.0012997577586613372,-0.005611326930548529,0.003677604097134429,0.9945048533578821
2014-06-24,1,0.001961118716647766,0.002164862256151407,-0.005611326930548529,0.0064928466827725104,0.9941143477821837
2014-06-26,1,0.0010633707885161945,0.001068920425522818,-0.006417968857929366,0.0064928466827725104,0.9937044349364543
2014-06-30,1,0.0011998030939738332,0.00120698588389379,-0.007309609253422389,0.0029405772251108993,0.9932058629952193
2014-07-02,1,0.0014098419656432641,0.001480897155890129,-0.008001317275877835,0.00018878176350397446,0.9923445765077461
2014-07-07,1,0.0013841728791915333,0.0014676254646179363,-0.007309609253422389,0.00018878176350397446,0.9928514443395854
2014-07-09,1,0.001326419758398797,0.0014327192625071096,-0.0077335267579827565,0.00018878176350397446,0.9925472809119051
2014-07-11,1,0.0011184907424927853,0.0012182787163070195,-0.00693215295330164,0.0034558627772112867,0.992419774812614
2014-07-15,1,0.0008630793451975396,0.0009161454134254588,-0.00693215295330164,0.002624599525655822,0.9925469829222792
2014-07-17,1,0.0006096102808837957,0.0006340675600951822,-0.005817078632480937,0.008285000479081844,0.9925141896576507
2014-07-21,1,0.0010148151962944565,0.0011159996848269967,-0.005817078632480937,0.008285000479081844,0.9921065193137822
2014-07-23,1,0.0016324562414652072,0.0018257344407651074,-0.005817078632480937,0.002638330015164867,0.992571418640159
2014-07-25,1,0.001281367415008125,0.001431088090366774,-0.005238298246809121,0.002638330015164867,0.9929711777941154
2014-07-29,1,0.0006959727719498438,0.0007665763436125968,-0.00476936568165774,0.0045112047721971305,0.9933455386824618
2014-07-31,-1,-0.0003829192907521365,-0.00030604456130144754,-0.00473841307227626,0.0045112047721971305,0.994332370560379
2014-08-04,-1,-0.0005425496860939792,-0.00042447835495941266,-0.004487991363354832,0.004468274603989709,0.9945275615523778
2014-08-06,-1,-0.0013917821891175062,-0.0011531203848193145,-0.00402235478389624,0.004468274603989709,0.994970645391379
2014-08-08,-1,-0.0006758359439896584,-0.0005383514030512745,-0.00402235478389624,0.0035586392885991955,0.9953378593880905
2014-08-12,-1,-0.0010028828907355312,-0.0008174874566465775,-0.00402235478389624,0.0037700022229997495,0.9951945030310668
2014-08-14,-1,-0.0009229923328512624,-0.0007159879374411519,-0.004487991363354832,0.0031688001235782837,0.9952030634845296
2014-08-18,-1,-0.000939512305716135,-0.0007086028797112376,-0.004203515825304255,0.002718065470759627,0.9958188286339618
2014-08-20,-1,-0.0007884051017883696,-0.0005778977374680819,-0.004675421905867658,0.0027885197822264778,0.9950558393990114
2014-08-22,-1,-0.00047615094734565526,-0.0003521178479373854,-0.005347457854215147,0.0027885197822264778,0.9940847582460844
2014-08-26,-1,-0.00026065459086126885,-0.00016137112584091218,-0.005347457854215147,0.0027885197822264778,0.9942196542991975
2014-08-28,-1,-0.0013916089388851729,-0.001095974205150486,-0.006822864865002889,0.003648939737841924,0.993625223111177
2014-09-02,-1,-0.001001145549256212,-0.000769614176622382,-0.008489580172901204,0.0027885197822264778,0.9933024549361762
2014-09-04,-1,-0.0020421067622108545,-0.001633841247312701,-0.009892045342837797,0.0027885197822264778,0.9927992550603871
2014-09-08,-1,-0.0017648552698583005,-0.0013996824285459294,-0.009892045342837797,0.0027885197822264778,0.9925540005670893
2014-09-10,-1,-0.0010804843335865478,-0.0008630677868949746,-0.012980671825667398,0.003057296462089565,0.9910334109345964
2014-09-12,-1,-0.0015276077536192222,-0.0012535125400333917,-0.014834769917716912,0.002803521080717331,0.9897322074947604
2014-09-16,-1,-0.0016899532020485844,-0.0014083190007719648,-0.016084311091947613,0.0048831713296276676,0.9877937326779346
2014-09-18,-1,-0.00177062938241982,-0.0014615417169791746,-0.016084311091947613,0.0048831713296276676,0.987400017237003
2014-09-22,-1,-0.002417844604605303,-0.0020626831093938734,-0.015691406915349565,0.008332370679866277,0.9872175868901005
2014-09-24,-1,-0.0023762917333635235,-0.0020276827498728464,-0.01879577501742358,0.010444361321608399,0.9847530545981606
2014-09-26,-1,-0.0027637127831876065,-0.0023719859857864733,-0.015691406915349565,0.012750483549799923,0.9846703860391208
2014-09-30,-1,-0.0032166781956305293,-0.002778069940548422,-0.01481491977933521,0.014864890862500393,0.9841035676918133
2014-10-02,-1,-0.003364471844111693,-0.0029440213968718347,-0.009555777390314518,0.014864890862500393,0.9850504232767915
2014-10-06,-1,-0.0032481450251733626,-0.002811536506625317,-0.009555777390314518,0.015738854249777695,0.9849238010168685
2014-10-08,-1,-0.003713057887233357,-0.0032186587354233157,-0.009077784678097786,0.015738854249777695,0.9859418607475938
2014-10-10,-1,-0.0056475502406249725,-0.004904168507588868,-0.0038587681509331855,0.015738854249777695,0.98615453705257
2014-10-14,-1,-0.005143514076687566,-0.004481813928632228,-0.003498161123249998,0.013204835541364469,0.9874600914795788
2014-10-16,-1,-0.003979556022111174,-0.003504071343885382,-0.003498161123249998,0.009137307169812809,0.9887021519097952
2014-10-20,-1,-0.002976025823433758,-0.0026326580360560535,-0.003498161123249998,0.007311395619690101,0.989616658602905
2014-10-22,-1,-0.0020131626617320548,-0.001797221396791247,-0.003498161123249998,0.006500015000615228,0.9920925846493498
2014-10-24,-1,-0.001313554635955806,-0.0011821181268366148,-0.001474553320843492,0.006500015000615228,0.992997987237288
2014-10-28,0,-1.2292281344750052e-05,6.078892547384268e-05,-0.001474553320843492,0.006229231755887146,0.9940998262878705
2014-10-30,0,-3.306733575887712e-05,5.5188029676218095e-05,-0.0016279932006782703,0.006229231755887146,0.993766520265747
2014-11-03,1,0.00024043983799013096,0.00034239032288897926,-0.005222306203622126,0.0057920533313169965,0.993689035248669
2014-11-05,1,0.00013688071293796315,0.00023533316067345762,-0.004215810546415735,0.006229231755887146,0.9935284430180196
2014-11-07,1,0.0006193735731929027,0.0007986158862830762,-0.004215810546415735,0.006229231755887146,0.9938553317364454
2014-11-11,1,0.0011507445694870415,0.001411529506474558,-0.005543092769310033,0.005709395862811632,0.9931805627559627
2014-11-13,1,0.0010481929660441805,0.0012848170091996085,-0.005543092769310033,0.00502531161141546,0.9930596986086153
2014-11-17,1,0.0014787104353015611,0.001779303781158708,-0.008839418120576467,0.004853239773716649,0.992424338600999
2014-11-19,1,0.00167157384713455,0.0020241058557313885,-0.005819931148957294,0.005342637737825907,0.9916473362719161
2014-11-21,1,0.0020274897723829184,0.0024264654395072865,-0.005819931148957294,0.006220866410832033,0.9914221636904484
2014-11-25,1,0.0023240855437690116,0.002759416832130386,-0.005819931148957294,0.007062098444413619,0.9910989686484788
2014-11-28,1,0.0017506511983555115,0.00209500152103577,-0.004058081385830895,0.007062098444413619,0.9916923891306867
2014-12-02,1,0.001298832722060792,0.0015650308910221192,-0.004672616476346939,0.007062098444413619,0.99174446642598
2014-12-04,1,0.0015816018976160635,0.0018789138290972605,-0.005374419758384338,0.0053466493031030324,0.9913431871621545
2014-12-08,1,0.001372449904233403,0.0016255301418838597,-0.008000370505816791,0.006356818261793993,0.9902329261892485
2014-12-10,1,0.0009122193863374645,0.001120924299145724,-0.0077830163353001715,0.007433849909805364,0.9901084894365462
2014-12-12,1,0.001028399886413677,0.0012943836830683142,-0.010712193667365305,0.007433849909805364,0.9895959006653783
2014-12-16,1,0.0004293530900976946,0.000591659959561185,-0.010712193667365305,0.007433849909805364,0.9895150650007992
2014-12-18,1,0.0014117995379932633,0.0016733529244148055,-0.010712193667365305,0.006356818261793993,0.9905329878224471
2014-12-22,1,0.0015147738028100971,0.0017357471814113713,-0.010712193667365305,0.007433849909805364,0.9903098224569538
2014-12-24,1,0.0018214707961674093,0.0020891489128125407,-0.010712193667365305,0.007473608722773646,0.9900222460948461
2014-12-29,1,0.0017256212607095977,0.0019472471776559841,-0.013064334712077949,0.007473608722773646,0.9889119363142194
2014-12-31,1,0.0015619719287546573,0.001788935922060687,-0.013064334712077949,0.007473608722773646,0.9894262178144896
2015-01-05,1,0.0005944136998291675,0.000682670360822457,-0.010712193667365305,0.009947987537679224,0.9894227859990498
2015-01-07,1,0.00036181496755239006,0.00044809356667235476,-0.010067403488659235,0.010058886193872607,0.9897064353726224
2015-01-09,1,0.0006653502535781221,0.0008105941904159848,-0.007744399129081364,0.009947987537679224,0.9908149994397473
2015-01-13,-1,-0.00013951368631017058,-8.80086721812479e-05,-0.0055601468091548666,0.009947987537679224,0.9918964596480088
2015-01-15,-1,-0.0010463137365749246,-0.0009747098979234431,-0.0016312084357089282,0.010135265076530934,0.9914776155229968
2015-01-20,-1,-0.00043606702697066604,-0.0004185667460252773,-0.003098056546864595,0.010721323306655617,0.9912922864012478
2015-01-22,1,0.00018177971139663048,0.0002667453900233233,-0.003098056546864595,0.012035771011220837,0.9917922284048272
2015-01-26,1,0.00045846331820969177,0.0005956795643112115,-0.003098056546864595,0.012035771011220837,0.9919170431396461
2015-01-28,-1,-0.0004482527102341153,-0.0004470100520787263,-0.0016312084357089282,0.012035771011220837,0.9924255514314597
2015-01-30,-1,-0.000169792051580853,-0.00011598568327984498,-0.003063434839448592,0.012060617593051711,0.9917302396286433
2015-02-03,1,0.0009526751258300175,0.0011503673809456915,-0.006491941281505306,0.010562874497416367,0.9924155646517493
2015-02-05,1,0.0008747391927438873,0.001042502347529221,-0.006491941281505306,0.0067671935289712395,0.9926196258408865
2015-02-09,1,0.000920316965093464,0.0010792111478333337,-0.007186994297661124,0.0067671935289712395,0.9918981314811339
2015-02-11,1,0.0010164721879386655,0.0011966953770192693,-0.007186994297661124,0.010562874497416367,0.991304403297505
2015-02-13,1,0.0013350077353755918,0.0015057185648302256,-0.009288670078125097,0.007231059959696297,0.9911316055102044
2015-02-18,1,0.0014744071136509255,0.001662611906260493,-0.009288670078125097,0.007231059959696297,0.9907070015103623
2015-02-20,1,0.0015549048818805295,0.001724466948013925,-0.009288670078125097,0.0060198641519481145,0.9907394071040827
2015-02-24,1,0.0011014091914465184,0.0011794631957210125,-0.008538281653598871,0.005455634970227596,0.9908264381533586
2015-02-26,1,0.0006338105312317149,0.0006525372672913725,-0.01006018521517572,0.005455634970227596,0.9907222442797196
2015-03-02,1,0.000828563824920317,0.000850084709217317,-0.008984315100258298,0.0062992009226057015,0.9906783060366424
2015-03-04,-1,-0.0003258958257890349,-0.0001851374601064216,-0.007840556512355244,0.0062992009226057015,0.9914201253956875
2015-03-06,-1,-0.002018515468909605,-0.0015977999098816106,-0.007668414509705798,0.007231059959696297,0.9909089055422106
2015-03-10,-1,-0.002531590654516847,-0.0020486322037218526,-0.007668414509705798,0.007231059959696297,0.9914319982164916
2015-03-12,-1,-0.0014998708347469824,-0.0011688985168235777,-0.007668414509705798,0.006153817977565691,0.992260949148463
2015-03-16,-1,-0.0015315777416703346,-0.0012286587306684729,-0.006238861099978599,0.0056489997646074035,0.9930609024399045
2015-03-18,-1,-0.00035099785012362484,-0.00021538349952562907,-0.007631487243984216,0.0056489997646074035,0.9933647103641872
2015-03-20,-1,-0.0003685656049099293,-0.0002581416556109837,-0.007631487243984216,0.006153817977565691,0.9921181622937708
2015-03-24,-1,-0.0003904878388670757,-0.00031288023524969155,-0.007631487243984216,0.006153817977565691,0.9921265581503598
2015-03-26,-1,-0.000961631397903091,-0.0008050073216953023,-0.006620362117430514,0.006153817977565691,0.9921526102095778
2015-03-30,1,9.317846006027095e-05,0.00010519895299989989,-0.006620362117430514,0.004436968653179269,0.9931181417966706
2015-04-01,-1,-0.0005607328304732518,-0.0004594574472050576,-0.006620362117430514,0.004436968653179269,0.9932123010448728
2015-04-06,1,0.0004666408075291275,0.0005042828951284085,-0.006620362117430514,0.002918644280139145,0.9940169501415035
2015-04-08,1,0.00031158461216216596,0.00035087026386343455,-0.0055010365786634895,0.004153929120192233,0.9938829241417972
2015-04-10,1,0.00018874624061280876,0.00020982380968673594,-0.004450968170076696,0.004671361932545343,0.9935916851128489
2015-04-14,1,0.0005090660892651203,0.0005915495818290669,-0.004450968170076696,0.004153929120192233,0.9938446052623472
2015-04-16,1,0.0005811110333311283,0.0006686258647113376,-0.0036230007113941445,0.005666856332472762,0.993513848061737
2015-04-20,1,0.0006884657940892941,0.0008096271542218888,-0.0036230007113941445,0.004153929120192233,0.9947255497181434
2015-04-22,1,0.00063315148640183,0.0007637844218646053,-0.0028966244992737217,0.004698054685822048,0.9948385426744665
2015-04-24,1,0.0003459974371984448,0.0004130718021273023,-0.0028297372012164174,0.006000946122371693,0.994772015222715
2015-04-28,1,0.00023310339371166724,0.0002673341626546927,-0.0033501570065391025,0.007663507853171395,0.9935307400878542
2015-04-30,1,1.632862444340784e-07,2.1678055595260754e-05,-0.0036230007113941445,0.007663507853171395,0.9935306157792722
2015-05-04,1,0.00019002396592554606,0.00023353243890143286,-0.0036230007113941445,0.007663507853171395,0.9937868925833586
2015-05-06,1,9.522698812477926e-05,9.813130605346084e-05,-0.004069028107106446,0.007663507853171395,0.9935337637463376
2015-05-08,1,0.00011322691556190016,0.00012891984952705348,-0.005047129624518065,0.007663507853171395,0.9934546778682684
2015-05-12,-1,-0.00015824684334693817,-9.07013489722192e-05,-0.005047129624518065,0.009449816523232414,0.9928170015966213
2015-05-14,1,0.0012202522203072345,0.0013878474851788392,-0.005047129624518065,0.007663507853171395,0.9931904471258532
2015-05-18,1,0.0013603504576845215,0.0015749317134555792,-0.005047129624518065,0.007663507853171395,0.9929692472751914
2015-05-20,1,0.0015711306328804802,0.0018276004050605023,-0.005047129624518065,0.008182863724603563,0.993008261845609
2015-05-22,1,0.0018019019873099125,0.002102958422863406,-0.005047129624518065,0.008182863724603563,0.9931424176183825
2015-05-27,1,0.0013685120666126148,0.0015918317499500527,-0.005047129624518065,0.004496925199935789,0.9940521928808731
2015-05-29,1,0.0006009683762695886,0.0006775590113996283,-0.00432213529718677,0.00669625921592958,0.9941344489071513
2015-06-02,1,0.00036850639644507376,0.0003883963631383662,-0.004612963752862243,0.00669625921592958,0.9929727594062252
2015-06-04,1,0.00045155106551676217,0.00048805460412264923,-0.00432213529718677,0.006093755865501482,0.9936431666202167
2015-06-08,1,7.164391622066933e-05,0.0001231216993112509,-0.00432213529718677,0.005990178533327363,0.9935370037672787
2015-06-10,0,-3.6867189758703106e-05,5.712578333392636e-05,-0.005180474234872967,0.005803483285387266,0.9932720657898553
2015-06-12,1,0.00036803073788477687,0.0004036083458494709,-0.006415678967616615,0.005803483285387266,0.9932407426054644
2015-06-16,1,0.0003938781838230294,0.00039960863827939925,-0.006415678967616615,0.005803483285387266,0.9933432815141958
2015-06-18,1,0.0006439732406211954,0.0006722636187822724,-0.006415678967616615,0.003979361783494897,0.9934238781412126
2015-06-22,1,0.00018364612558661203,0.0002466748639621917,-0.007768150959301068,0.003760422074076546,0.9930647670184279
2015-06-24,0,-2.202603976679654e-05,6.396182834850857e-05,-0.007058833741614949,0.005686757507276745,0.9929900217846024
2015-06-26,1,0.0005029818124211232,0.0005206504457380475,-0.010248152247026139,0.003741257681460033,0.9916826759642208
2015-06-30,1,0.00013919882979345584,0.00016419298891684204,-0.009737842343221049,0.005686757507276745,0.99108196734853
2015-07-02,1,0.00036572717381702495,0.00037355218258763466,-0.009737842343221049,0.003741257681460033,0.9910994513785305
2015-07-07,1,0.00023106172403906976,0.00024091421215084865,-0.010127471061251198,0.0026249791093233485,0.991015135134767
2015-07-09,1,0.00019110087914368782,0.000212468634023676,-0.009789774825973603,0.0032670909203900817,0.9910106330418363
2015-07-13,1,0.00044412866475167223,0.0005074055587042302,-0.009789774825973603,0.0032670909203900817,0.9904356908984607
2015-07-15,1,0.0003828234025349624,0.000455273298084955,-0.010403949695283804,0.0032670909203900817,0.9902957223272607
2015-07-17,1,0.0001413249918081951,0.00017638917629394672,-0.010403949695283804,0.0050255651974695165,0.9904759180995519
2015-07-21,-1,-0.00014178438954210267,-0.00013766494701535948,-0.007834988516647767,0.005846875186437883,0.9908069348542455
2015-07-23,-1,-6.358939467924831e-05,-5.354336951162422e-05,-0.010403949695283804,0.005204847269247167,0.9894238583541598
2015-07-27,-1,-0.001723974465302432,-0.0015085841496540737,-0.011107008307595369,0.005204847269247167,0.9895625045735369
2015-07-29,-1,-0.0006076891586419784,-0.0005019381953888533,-0.011107008307595369,0.0017041224529043958,0.9908954515972361
2015-07-31,-1,-0.0009594435621862353,-0.0007969060737582845,-0.011107008307595369,0.004903633143090655,0.9898317379976405
2015-08-04,-1,-0.0011304242307621976,-0.0009768055904201456,-0.011107008307595369,0.004903633143090655,0.9884150898638825
2015-08-06,-1,-0.00123653674462512,-0.0010573078784906133,-0.010716285643885957,0.0054810790233012965,0.9882745978109158
2015-08-10,-1,-0.0003494098891819941,-0.00030642268285615876,-0.014333261165856401,0.0054810790233012965,0.9878872759470344
2015-08-12,-1,-0.0008467517739656214,-0.0007348751481876816,-0.010820273959379508,0.0054810790233012965,0.9882077323114395
2015-08-14,-1,-0.0009204771626058963,-0.0007848749268344811,-0.010820273959379508,0.0054810790233012965,0.9879944579665711
2015-08-18,-1,-0.0010299340075915092,-0.0008660561885793451,-0.010820273959379508,0.008891827100457533,0.9865237844265752
2015-08-20,-1,-0.0017664717379430595,-0.0015456540889139854,-0.010247079380277042,0.008891827100457533,0.987287972250553
2015-08-24,-1,-0.0030666085848287906,-0.0026782848828703146,-0.0071779012795911675,0.008891827100457533,0.9879827379431054
2015-08-26,-1,-0.0024759317191760076,-0.0021922945868793945,-0.010247079380277042,0.008891827100457533,0.9874218197842092
2015-08-28,-1,-0.0018735249798928467,-0.0016477167588910702,-0.010247079380277042,0.005475075789989802,0.9883186378788416
2015-09-01,-1,-0.002907765795159652,-0.002558913084499401,-0.0071779012795911675,0.014157195706394898,0.9887405648219331
2015-09-03,-1,-0.0022390461433995186,-0.0019772957049910157,-0.010247079380277042,0.015008568599366737,0.9879831474273644
2015-09-08,-1,-0.0019914522273495484,-0.001766791197749781,-0.0071779012795911675,0.015008568599366737,0.9879334600972106
2015-09-10,-1,-0.002364543924493305,-0.0020953815698694176,-0.0071779012795911675,0.018477431572295908,0.9850867262662363
2015-09-14,-1,-0.0026430024962050018,-0.002332738990999988,-0.012740367513944244,0.018477431572295908,0.9840157244018598
2015-09-16,-1,-0.0013400200544554123,-0.001180001828889793,-0.014773799397543398,0.015008568599366737,0.9852818492402594
2015-09-18,-1,-0.0019989762420714865,-0.0017663125064556525,-0.014773799397543398,0.015008568599366737,0.9858908842052799
2015-09-22,-1,-0.002676823735178668,-0.002344948374377257,-0.008106199647856867,0.015008568599366737,0.9866706271264917
2015-09-24,-1,-0.003003869952405143,-0.002647860422053077,-0.004653331276841137,0.01744190982875912,0.9865256419578075
2015-09-28,-1,-0.002847667542335883,-0.0025239150415919823,-0.002049258725433768,0.01744190982875912,0.9864531444704752
2015-09-30,-1,-0.0015466878599833837,-0.0013873150626482645,-0.004575901651114277,0.009265272845505284,0.9880865711173134
2015-10-02,-1,-0.0010018566856935132,-0.0009096920870298832,-0.0031959749571467775,0.005836382861332538,0.9899970553886118
2015-10-06,1,0.0006980414351209955,0.0008708049267417026,-0.0031959749571467775,0.005836382861332538,0.9916351563251207
2015-10-08,1,0.0024746859378151505,0.0028768896366368145,-0.0031959749571467775,0.0029280437063357685,0.9936312671059115
2015-10-12,1,0.0013929905504992302,0.0016577999816284046,-0.003115048253692459,0.0029280437063357685,0.99539056785929
2015-10-14,1,0.0008587886829400592,0.001061732910679083,-0.0028478513254320357,0.005233224141849941,0.9959451900514796
2015-10-16,1,0.0008294083240806579,0.0010141155391161206,-0.003115048253692459,0.005233224141849941,0.9948587818434382
2015-10-20,1,0.0006119772729534039,0.0007452925321767428,-0.003115048253692459,0.005836382861332538,0.9944586736046628
2015-10-22,1,0.0012066185302821075,0.0014214782516745583,-0.003115048253692459,0.006047188949567216,0.9943334046593169
2015-10-26,1,0.0015004646077877233,0.001758855530634687,-0.0038899051857281524,0.006047188949567216,0.9941918809575168
2015-10-28,1,0.0016195291672270388,0.001904514067670502,-0.003115048253692459,0.0061814776871303104,0.9943430858187934
2015-10-30,1,0.001813554967033342,0.002148014066050247,-0.00309867320631021,0.0061814776871303104,0.994382743567481
2015-11-03,1,0.002311149753381928,0.0027357143509327553,-0.0038899051857281524,0.005318369787359062,0.9940226325955506
2015-11-05,1,0.0022677864337331904,0.0026720317141893622,-0.0042122234488525066,0.0062634428611897525,0.9936788615897294
2015-11-09,1,0.0022020811916952077,0.0026206802807059305,-0.005155516954283618,0.0062634428611897525,0.992659565358012
2015-11-11,1,0.00222757404593597,0.00264891069464537,-0.0042122234488525066,0.004947037001325696,0.99305644907193
2015-11-13,1,0.0014962619673952362,0.0018105276957090714,-0.0042122234488525066,0.005045030697484992,0.9937288529622937
2015-11-17,1,0.0018560480262117443,0.0022234136245023487,-0.0042122234488525066,0.005045030697484992,0.9938533582482002
2015-11-19,1,0.0025623966912951173,0.003001038538871745,-0.007851631568439056,0.0028027153957222925,0.9932141638299976
2015-11-23,1,0.0026822885970926155,0.003150080278751419,-0.007851631568439056,0.003919400671078776,0.9931320846917634
2015-11-25,1,0.0029555637105919265,0.0034516502821833376,-0.007851631568439056,0.003919400671078776,0.9927671190069671
2015-11-30,1,0.0027152419582442125,0.003151083407658142,-0.007851631568439056,0.004953558898045925,0.992610710613831
2015-12-02,1,0.0026458492610662784,0.0030868111842723266,-0.00803461429179612,0.004953558898045925,0.9922139634855374
2015-12-04,1,0.0026751999946940065,0.003103685061958391,-0.009844007978402295,0.003919400671078776,0.9915992104532669
2015-12-08,1,0.001508407483734739,0.0017670604349967407,-0.009844007978402295,0.003919400671078776,0.991890899377808
2015-12-10,1,0.0013412791840842994,0.0015550542026507232,-0.010315659466911764,0.003919400671078776,0.9910005841038115
2015-12-14,1,0.0011554256994571865,0.0013463042362278342,-0.01113908220445995,0.004057687169256228,0.9902910644910365
2015-12-16,1,0.0008104349333077727,0.000882440628261732,-0.011856956220196061,0.004057687169256228,0.9889160633765242
2015-12-18,1,0.0006471688921853745,0.0007698287019588527,-0.01113908220445995,0.004057687169256228,0.9896534425052476
2015-12-22,1,0.0010242262705854421,0.0011870448983791672,-0.011694077073139837,0.002616390422215374,0.9883804243123586
2015-12-24,1,0.0012081145972716307,0.0013613945054664696,-0.012870420712658662,-0.0013565700378440765,0.986502412213559
2015-12-29,1,0.0012179038518916416,0.001372045350973516,-0.014752144969810081,-0.0013565700378440765,0.9855601692177293
2015-12-31,1,0.0010654975667722636,0.0012273168859308005,-0.015696909657700583,0.0062731410898311645,0.9836343782699062
2016-01-05,1,0.0001706013586065017,0.0001879570611676886,-0.015696909657700583,0.012188235361234232,0.983410440392108
2016-01-07,-1,-0.0008334542961517516,-0.0007386332227862075,-0.013731653828266249,0.017764791961102797,0.9841458152896035
2016-01-11,-1,-0.0013045684548673954,-0.0011616839716571167,-0.013731653828266249,0.017764791961102797,0.9842094973274945
2016-01-13,-1,-0.002686808403659562,-0.0023211088159606633,-0.01288964541659491,0.017764791961102797,0.9858255231161426
2016-01-15,-1,-0.003548789068422891,-0.003013264831942789,-0.01059855800922552,0.017837741539953513,0.9860655658475561
2016-01-20,-1,-0.0038267301203572532,-0.003265888546400513,-0.01059855800922552,0.017837741539953513,0.9849521422854022
2016-01-22,-1,-0.0029252631725999625,-0.0025110656775373364,-0.008408090840476735,0.014886502092988588,0.985707393576471
2016-01-26,-1,-0.0037155009013317844,-0.003139824898054982,-0.008408090840476735,0.012930832899242906,0.9875056483999967
2016-01-28,-1,-0.003716728512676305,-0.003175397886069982,-0.005978037744566341,0.012930832899242906,0.9881237389075271
2016-02-01,-1,-0.002543497795809356,-0.0021530133484920634,-0.005848880061027901,0.012930832899242906,0.9897178122476529
2016-02-03,-1,-0.002519577976684678,-0.0021159757303614926,-0.0047195005144503146,0.010853740475026295,0.9904658193961067
2016-02-05,-1,-0.002138199203130026,-0.0017736814245448707,-0.0036419974433579885,0.010070390352218135,0.9910213288273914
2016-02-09,-1,-0.0019637784911319387,-0.0016866155674428104,-0.00046941004021859876,0.010070390352218135,0.990927062422604
2016-02-11,-1,-0.0027267749529545134,-0.002323002259500484,0.0010042321724533622,0.010725850597075412,0.9900232344091445
2016-02-16,-1,-0.0018552129583292707,-0.0015290991537594719,-0.00024381147085080667,0.00980067164469962,0.9921079780322088
2016-02-18,-1,-0.001535973833564163,-0.001219171067959551,-0.00024381147085080667,0.01051065233773185,0.9915183515416008
2016-02-22,-1,-0.0011228400300866675,-0.000847809246236773,-0.00024381147085080667,0.01041273667664484,0.9914828683828656
2016-02-24,-1,-0.0009388837902184126,-0.0007366934971490493,-0.00024381147085080667,0.01041273667664484,0.9913515905392953
2016-02-26,-1,-0.00034828049878294823,-0.00023944113805573575,0.0005237313660585345,0.01041273667664484,0.9917871805823313
2016-03-01,1,0.0007591199319402645,0.0008472342329796858,0.0005237313660585345,0.01041273667664484,0.992868982252078
2016-03-03,1,0.002022394242352732,0.0023830835646193376,-0.0022134246646807144,0.011752889570355531,0.9930432896262426
2016-03-07,1,0.0016809553370177792,0.001930384747786387,-0.003561476479085392,0.011752889570355531,0.9911789689706267
2016-03-09,1,0.0009434268218110334,0.0010574349697936674,-0.0031123704625286327,0.011752889570355531,0.9914688165617191
2016-03-11,1,0.0012270411814847802,0.0013814338756191914,-0.0031123704625286327,0.008849189575179607,0.9919179512644593
2016-03-15,1,0.0011717702944171306,0.0013148930913676677,-0.0031123704625286327,0.012149787744511807,0.9908363499643501
2016-03-17,1,0.002367593786650686,0.002698083441901585,-0.0048487869078666515,0.008050201657466925,0.9922714237394316
2016-03-21,1,0.0030461612939312573,0.003477807673134402,-0.0048487869078666515,0.007590599995102875,0.9923510272394923
2016-03-23,1,0.002788088877267206,0.003183408977919736,-0.0048487869078666515,0.007590599995102875,0.9924942893603671
2016-03-28,1,0.0028956255696771568,0.003301291501754706,-0.005777268095680405,0.007590599995102875,0.9918474001951549
2016-03-30,1,0.00329839935651017,0.0037690558071995354,-0.005777268095680405,0.007590599995102875,0.9915307363678765
2016-04-01,1,0.0034955513116776008,0.0039935184423632196,-0.005855926337076938,0.003536193106405601,0.9909319216123215
2016-04-05,1,0.002219398629733587,0.002529709395503458,-0.005747947045594385,0.007045058806380013,0.99261853838292
2016-04-07,1,0.0020677664049171466,0.0023565630457442702,-0.005855926337076938,0.007045058806380013,0.9922828051976045
2016-04-11,1,0.0019596198590733395,0.002194683239155867,-0.006586861684328134,0.0073345328874849835,0.991588464374657
2016-04-13,1,0.0028172215974946804,0.003178165994000521,-0.006586861684328134,0.006660077774575385,0.9917330562955292
2016-04-15,1,0.0029741242875156947,0.0033992294790525968,-0.008595155390424927,0.006660077774575385,0.9912860389461037
2016-04-19,1,0.003132000092426668,0.003575841318971226,-0.008595155390424927,0.006660077774575385,0.9907870529000221
2016-04-21,1,0.0029317360570068926,0.0033641142625157085,-0.008595155390424927,0.006660077774575385,0.9911476789357658
2016-04-25,1,0.0026474015643410333,0.0030396088750592417,-0.007139905335925808,0.006803097011897727,0.9916829055115607
2016-04-27,1,0.002898845770215035,0.003312017377248775,-0.007139905335925808,0.006803097011897727,0.9920271891074798
2016-04-29,1,0.002267580937793431,0.00260392684417992,-0.0058638212576662945,0.006803097011897727,0.9929178012124528
2016-05-03,1,0.0015922556729674729,0.0017846797584931645,-0.005151907496508892,0.006833041625939324,0.993293157513051
2016-05-05,1,0.001498264043099714,0.0016786412245300042,-0.0031119522787438616,0.007454259144761513,0.9935007533635989
2016-05-09,1,0.0014226424433961182,0.0015803127426923457,-0.0024157862323586745,0.007454259144761513,0.9936000293817325
2016-05-11,1,0.001622172148417581,0.0018227475670679373,-0.002343592129599909,0.007454259144761513,0.9938597757690927
2016-05-13,1,0.0009877330756553687,0.0010601683974190506,-0.0024157862323586745,0.007454259144761513,0.9938848802665167
2016-05-17,1,0.0013253386533210111,0.0014657680380798527,-0.0024157862323586745,0.006833041625939324,0.9945959822405532
2016-05-19,1,0.001436720079994513,0.0016205624541678907,-0.0024157862323586745,0.006833041625939324,0.9947938568549883
2016-05-23,1,0.0016829145991311887,0.001899763491052316,-0.0029660308961227035,0.007454259144761513,0.993848099279779
2016-05-25,1,0.0019513513248103844,0.0021763010524598783,-0.0029660308961227035,0.007454259144761513,0.9941793787038201
2016-05-27,1,0.0012858645521355767,0.0013896625779673158,-0.004543513342291302,0.007454259144761513,0.9902014520221611
2016-06-01,1,0.0008550248617794877,0.0008608777933849104,-0.004543513342291302,0.008009221749095267,0.9899357976051231
2016-06-03,1,0.0005884047507999203,0.0006527565943519243,-0.004543513342291302,0.008186384365894386,0.989541262140525
2016-06-07,1,0.0006622637802909413,0.0007504669111269074,-0.00621558142897432,0.008186384365894386,0.9891361199174395
2016-06-09,1,0.0007594626822713519,0.0008582620316424107,-0.00621558142897432,0.008249965043172672,0.9883296598768428
2016-06-13,0,-0.00010622137059049502,0.00011583648135359568,-0.001491029702181863,0.009785884784010067,0.9879753581733681
2016-06-15,0,-0.0002219524307416925,8.960350949499844e-06,-0.0016380986163690972,0.009785884784010067,0.9878437881084499
2016-06-17,-1,-0.0002944084006402957,-5.0053636508933116e-05,-0.006381689649401967,0.009785884784010067,0.9875289599140998
2016-06-21,-1,-0.0007182811514411336,-0.00040642242814548676,-0.001901924657582858,0.010546853955690307,0.986447869426714
2016-06-23,1,4.3746473657105506e-05,0.00021655564802814102,-0.006381689649401967,0.009785884784010067,0.9865759971732079
2016-06-27,-1,-0.002693369044478357,-0.002197944451556001,-0.00181647260286777,0.011159730240403978,0.9886385405066586
2016-06-29,-1,-0.002028726293924768,-0.0016298373632931125,-0.00181647260286777,0.011159730240403978,0.989216476352537
2016-07-01,-1,-0.0018619443346159677,-0.0014507286022315575,-0.00181647260286777,0.009785884784010067,0.9897811812116348
2016-07-06,-1,-0.002434069582200539,-0.0019383208756030895,-0.0013609938928658897,0.009427583518303351,0.9905773962956365
2016-07-08,-1,-0.0010278983256826542,-0.0007448473404523571,-0.0013609938928658897,0.008910437541229558,0.9919626258442952
2016-07-12,-1,-0.0002064799176685468,-4.255952660040522e-05,-0.0013609938928658897,0.006356049980184984,0.9927856165557905
2016-07-14,-1,-0.0001404901697942558,-1.5924108332524218e-06,0.0009427246917417946,0.007073226889281664,0.9927537055968798
2016-07-18,-1,-0.0007691327556593358,-0.0005390557530964947,0.002126954791343836,0.007223840421498178,0.9923607714483315
2016-07-20,1,0.0006608014978230826,0.0007134707895931286,0.00028526690877926707,0.005906065441151184,0.9947702523839858
2016-07-22,1,0.00043555258113241635,0.0004995635336208353,0.0018079148792893855,0.0066734468609867025,0.9948562164675231
2016-07-26,1,0.0008754708831746557,0.0008789632624331858,0.0018079148792893855,0.005982741070979485,0.9956553306672011
2016-07-28,1,0.0011344950240352804,0.0011818476466539845,-0.0005576019527100256,0.0061511350826217726,0.9954823407231175
2016-08-01,1,0.0011124472510719988,0.0011286856437366473,-0.0005576019527100256,0.0061511350826217726,0.995424153149193
2016-08-03,1,0.0011396135726513626,0.001169148272235272,-0.0024548464561202814,0.0061511350826217726,0.9948152891411828
2016-08-05,1,0.0013462101692225275,0.0013980212441370545,-0.0024548464561202814,0.006020040149906517,0.9950682429400479
2016-08-09,1,0.001955547592415132,0.002143402321186008,-0.003208937658710652,0.006020040149906517,0.9950758248266776
2016-08-11,1,0.002372268967943977,0.002644233620840061,-0.004431171662012429,0.005825371981770787,0.9935487653763816
2016-08-15,1,0.0022716275894272644,0.0025133674998745695,-0.005146438477277972,0.005825371981770787,0.9930732352938391
2016-08-17,1,0.0022184211115765487,0.002459237774000901,-0.003999985780935004,0.006020040149906517,0.9930495400764447
2016-08-19,1,0.0025288526491978195,0.0028294746429095843,-0.005714018600407291,0.006020040149906517,0.9924964527085607
2016-08-23,1,0.002590456262380235,0.002907280152892035,-0.005714018600407291,0.006708305219841295,0.9923578817025858
2016-08-25,1,0.0018589894196115418,0.0020191496882674756,-0.006749155129388672,0.008551009404083236,0.9911580842867133
2016-08-29,1,0.0020384661042146405,0.0022103954116613708,-0.006749155129388672,0.006708305219841295,0.9910719225230706
2016-08-31,1,0.0015989156313807353,0.0017224614072679119,-0.0046120715052858,0.008546652678976268,0.9917647265047205
2016-09-02,1,0.002060825017607075,0.0022873845840001216,-0.006607202155059516,0.008546652678976268,0.9910981483577342
2016-09-07,1,0.0017734581979358174,0.0019499610963434437,-0.00999254256032735,0.008718767162875386,0.990553002364626
2016-09-09,1,0.0009556986461693774,0.0010347879697983784,-0.00999254256032735,0.008718767162875386,0.990883033801397
2016-09-13,1,0.0006922678100134921,0.0007166183454231701,-0.00999254256032735,0.008546652678976268,0.9901738049603498
2016-09-15,1,0.000752616281101673,0.0007691811381683939,-0.01101577190986465,0.007624525703173811,0.9900660891874178
2016-09-19,1,0.00076742927042447,0.0008065002355671693,-0.009959572087906559,0.006777463681564842,0.9907461167111313
2016-09-21,1,0.0006295274934055316,0.000645073323477274,-0.009959572087906559,0.0056242181196051125,0.9909468312872924
2016-09-23,1,0.0004993848886647084,0.0005406345169916727,-0.006444749015845785,0.004103753165290357,0.992357961357447
2016-09-27,1,0.0003110061673829141,0.0003800133722095696,-0.009569629329915664,0.0055969694253574275,0.9920343176712929
2016-09-29,1,0.0004746226137881387,0.0005248682296842189,-0.009569629329915664,0.002632360982335805,0.9922130697021108
2016-10-03,1,0.00030730136814635255,0.0003757814601569002,-0.006428460246464075,0.002410942334077998,0.9929660332621569
2016-10-05,1,9.298389874443856e-05,0.00020147720953078588,-0.006428460246464075,0.0018886450545853085,0.9931513381012329
2016-10-07,-1,-0.0005959838057882955,-0.0004143513761060433,-0.005322270920142083,0.0023912474635079477,0.994456848197219
2016-10-11,-1,-0.0016706389333879927,-0.0013595626275996386,-0.004226727545682329,0.00305748233286322,0.9942874757672866
2016-10-13,-1,-0.002046369099227157,-0.0016933300854811888,-0.0026202671795156804,0.0055969694253574275,0.9920056645204878
2016-10-17,-1,-0.0015190976935138675,-0.0012567259926530374,-0.0026202671795156804,0.004494610217790046,0.9922900271025299
2016-10-19,-1,-0.0015435088524884304,-0.0012708097585810495,-0.003476875286691176,0.0035700188590772884,0.992548459992392
2016-10-21,-1,-0.0018212202058910756,-0.0015219447955905534,-0.0024653991103405727,0.0035700188590772884,0.9927356969343772
2016-10-25,-1,-0.0018336706918049255,-0.0015409349190015837,-0.001924788673763538,0.004664615693704539,0.9925248902067064
2016-10-27,-1,-0.0015018579997616603,-0.0012764711248726274,-0.0012503012965866,0.004664615693704539,0.9925442216725047
2016-10-31,-1,-0.0012176753319850214,-0.0010366177948920978,-0.0018539140740746812,0.004664615693704539,0.9929639213296511
2016-11-02,-1,-0.0019882938195372965,-0.001696458431109394,-0.0009931179188948118,0.007133206072937823,0.9919996985781213
2016-11-04,-1,-0.001995449408137268,-0.0016982236851309199,-0.0011869106498541126,0.007133206072937823,0.9917825680137733
2016-11-08,-1,-0.000977173237111479,-0.0008018909885023277,-0.0018539140740746812,0.004008533989783945,0.9937004625107779
2016-11-10,1,0.0005320510724181123,0.000533962360096372,-0.0032735009134255916,0.0023411210345362287,0.9956724241452166
2016-11-14,1,0.0007417725490165132,0.0007825318925475196,-0.0032735009134255916,0.001658007427050832,0.995643628103626
2016-11-16,-1,-0.0012020775153409834,-0.0008606580752933485,-0.0036702558794726066,0.001658007427050832,0.9954472239269773
2016-11-18,-1,-0.0011780501112484082,-0.0008608743173489005,-0.005071279415083086,0.0023411210345362287,0.9948392287597064
2016-11-22,-1,-0.0003290399069510625,-0.0001400753644199889,-0.005572367322316,0.0006106857259096703,0.9951667910641229
2016-11-25,-1,-0.0005742139822497978,-0.0003403405327670392,-0.005572367322316,7.874522251617227e-05,0.9953659131868953
2016-11-29,-1,-0.00022113805778712319,-7.264794330948956e-05,-0.006152728572484452,0.0006106857259096703,0.9943665421824703
2016-12-01,1,0.0008415644019891719,0.0008450753789356879,-0.006152728572484452,0.0006254688539899828,0.9947831707608987
2016-12-05,1,0.0005287114479252613,0.0005708451126030923,-0.005572367322316,0.0019485975434926383,0.9946324698137463
2016-12-07,1,4.31371625141843e-05,0.000162957584552752,-0.006177315010169861,0.0019485975434926383,0.9945092497160616
2016-12-09,1,0.00046762277796705075,0.0004698373986830008,-0.007230474926649506,0.003196305461117264,0.9936290660295712
2016-12-13,1,8.210100930412819e-05,0.0001451822799084405,-0.007709662556045553,0.0037118928554937107,0.993133773953064
2016-12-15,-1,-0.00037477141503569075,-0.00027526627531624997,-0.007709662556045553,0.0050499205198786335,0.9928031937828679
2016-12-19,-1,-0.00022868896158745195,-0.00016000977926877502,-0.007643272190033993,0.0037118928554937107,0.9933254119073088
2016-12-21,-1,-0.0003750632765345761,-0.0003056234002116497,-0.008738008655821207,0.004374193781296059,0.9931475671955515
2016-12-23,-1,-0.0004420963542757896,-0.0003636976729819593,-0.008738008655821207,0.007042249389976583,0.9917037512640158
2016-12-28,-1,-0.0006267317796877956,-0.0005463108863008586,-0.0047484737567351975,0.007042249389976583,0.992417914721452
2016-12-30,-1,-0.00029289685117770943,-0.00026566431859340696,-0.008738008655821207,0.007042249389976583,0.9914879862429885
2017-01-04,1,0.00038652536455668766,0.00046066662910143846,-0.008738008655821207,0.004819880982550373,0.9918393838052884
2017-01-06,1,0.00011625706654816766,0.0001592767744529651,-0.008744128071516278,0.007042249389976583,0.9910321501733619
2017-01-10,1,0.0001910200188951076,0.00024306870138152893,-0.007906814350599211,0.004819880982550373,0.9922413397903721
2017-01-12,1,0.00029325317235638957,0.0003774475844013322,-0.005805191108330846,0.0054141741716215615,0.9925329704297758
2017-01-17,1,0.0003318076148469399,0.0004269536011177009,-0.0053055681104989955,0.0054141741716215615,0.9929947097989473
2017-01-19,1,0.000418213651447871,0.0005230909942632848,-0.0053055681104989955,0.00882512895719015,0.9924817550783468
2017-01-23,1,0.0004931377858785923,0.0006280820324902523,-0.003878781770402174,0.009380707734587077,0.9924283466008109
2017-01-25,1,0.0010522431163841692,0.001233061606641588,-0.0053055681104989955,0.003492242612279766,0.9929856091338293
2017-01-27,1,0.0010251332962076694,0.0012139195560446517,-0.0053055681104989955,0.009197785502795618,0.9926783906888311
2017-01-31,1,0.00026685023670222695,0.0003487105686132686,-0.0042175858720006655,0.010705853337691596,0.9911913617102076
2017-02-02,-1,-0.0004179146973970684,-0.0003654642546552432,-0.005373940375570578,0.010705853337691596,0.9906432757558414
2017-02-06,-1,-0.00021298821218784846,-0.0001811803369898069,-0.005070106864767248,0.009197785502795618,0.9917273816408274
2017-02-08,-1,-9.727704654322973e-05,-9.070685720514092e-05,-0.0057287078567174075,0.009197785502795618,0.9908978946504483
2017-02-10,1,0.00010509345651208498,0.00011872133594453959,-0.0057287078567174075,0.0069340697513346015,0.9908714069751818
2017-02-14,1,0.0003764120711613286,0.0004420851469010558,-0.006553983777961172,0.0069340697513346015,0.9902771254270107
2017-02-16,1,0.0006211275163680678,0.0007230221179951816,-0.007630812662221814,0.004456999398827291,0.990375501873428
2017-02-21,1,0.0009683531639859366,0.0011146540569517752,-0.00893998629525943,0.0005203248994490401,0.989868560473896
2017-02-23,1,0.0007905445742202809,0.0009260577586726292,-0.008207994118087336,0.004364781218660544,0.990312170911813
2017-02-27,1,0.001061146497750492,0.001227017378955805,-0.008207994118087336,0.0033183366367479476,0.9906533385935671
2017-03-01,1,0.0017546719062958294,0.0020130207059240505,-0.0063808523805443905,0.0033183366367479476,0.992711480676282
2017-03-03,1,0.000873123182556424,0.000977836001746187,-0.0059746654224749,0.005469212670811402,0.993458191480952
2017-03-07,1,0.0001893825589810557,0.00022203915784466783,-0.00624519383906696,0.005469212670811402,0.9934767903608557
2017-03-09,-1,-0.0005543934261365005,-0.0004167222312336888,-0.00624519383906696,0.005923861850932797,0.9933171292405131
2017-03-13,-1,-0.00023727187776685036,-0.00014250453839564654,-0.00624519383906696,0.005647207310432556,0.9936051022176255
2017-03-15,0,-4.157848911491162e-05,2.8378685481311543e-05,-0.00624519383906696,0.005647207310432556,0.993556285351255
2017-03-17,-1,-0.0005498348740768927,-0.0004012695750205077,-0.006185834359291096,0.006793575910098481,0.9928550205370483
2017-03-21,-1,-0.0012479706579411525,-0.001011247641177794,-0.0016289602719794418,0.006793575910098481,0.9932325439275497
2017-03-23,-1,-0.0010231138386754247,-0.0008136080159653237,-0.0016289602719794418,0.009141637574129042,0.9897549434595242
2017-03-27,-1,-0.001110858069431504,-0.0008942409559373441,-0.0012894766768269542,0.010697296235607438,0.988779743962017
2017-03-29,-1,-0.0012359771908499965,-0.0009787449995024042,0.0014823171354340036,0.01179978127991642,0.9882866757121384
2017-03-31,-1,-0.0008508415596761291,-0.0006370364081009441,-0.003570623306483568,0.01179978127991642,0.9889415824774724
2017-04-04,-1,-0.00048756200172506733,-0.0003587651717626343,-0.0027689682767927564,0.01179978127991642,0.9892267161264238
2017-04-06,1,0.0004465185954833173,0.0005098725908700941,-0.0027689682767927564,0.0118718526260936,0.9897190663951951
2017-04-10,1,0.0005070236501224567,0.0005816246035683875,-0.0037517258182695797,0.0118718526260936,0.9893362383848684
2017-04-12,1,9.565307427514398e-05,0.00010749895912582217,-0.003086106271755943,0.0118718526260936,0.9903239601112586
2017-04-17,1,0.00029203560085359513,0.0003236694608929427,-0.003086106271755943,0.008194681173724768,0.9908469263598967
2017-04-19,1,0.0007015720441691245,0.0008122111721313945,-0.0037517258182695797,0.0118718526260936,0.990035557060529
2017-04-21,1,0.0027175005655596554,0.0030964230341778533,-0.0037517258182695797,0.008039801149305456,0.9934438142472928
2017-04-25,1,0.0030817430726094936,0.003501685864125607,-0.0037517258182695797,0.008039801149305456,0.9932860876687798
2017-04-27,1,0.0038387367020101502,0.004392021354839898,-0.004069231328040997,0.0050680133457723375,0.9928958301090673
2017-05-01,1,0.003521101089770135,0.0040230859774253915,-0.0037517258182695797,0.0050680133457723375,0.9934632391233944
2017-05-03,1,0.003381999572340533,0.003855249200194762,-0.0037517258182695797,0.005534469331044085,0.9938597945917639
2017-05-05,1,0.0033815610443574894,0.003832894470279144,-0.0031007739512030025,0.005534469331044085,0.9940310758810467
2017-05-09,1,0.002957651835237619,0.003345296096629307,-0.0024305514039879993,0.005534469331044085,0.994526145873995
2017-05-11,1,0.0025863734929898125,0.002891909503240638,-0.00237390362029985,0.006432531476140901,0.9944798907951139
2017-05-15,1,0.0024717202061768943,0.0027577897026823056,-0.0015653623791444917,0.006546456733803622,0.9948208801661923
2017-05-17,1,0.0024372325903882323,0.0026980122482050026,-5.419248595832317e-05,0.006546456733803622,0.9956898254591169
2017-05-19,1,0.002728613150105271,0.0030199472604547006,-5.419248595832317e-05,0.006546456733803622,0.9955458644841617
2017-05-23,1,0.0028748580285328173,0.0031598758570380234,-0.00237390362029985,0.006288440159483864,0.994373047618661
2017-05-25,1,0.0025995164771072357,0.0028492095719123292,-5.419248595832317e-05,0.006546456733803622,0.9946074511221091
2017-05-30,1,0.002742599783839997,0.003033123723185447,-0.0013239185074160218,0.006546456733803622,0.9940700455571831
2017-06-01,1,0.002656870624083743,0.00291207588248443,-0.002411430334191182,0.0075906661976225046,0.9933014967487466
2017-06-05,1,0.002804136978412583,0.003074410718269616,-0.0013239185074160218,0.0075906661976225046,0.9934040484696594
2017-06-07,1,0.0025673100903102165,0.0027950132939441492,-0.0025165028119824837,0.0075906661976225046,0.9931155849224346
2017-06-09,1,0.0027760971922062656,0.0030213392242737385,-0.0030330089096328363,0.009409860739975327,0.9927400031502719
2017-06-13,1,0.0028433782385242717,0.0030957245810154434,-0.0031009792499756047,0.009409860739975327,0.9927533014289102
2017-06-15,1,0.00290544528336192,0.003150633369535252,-0.00757424073349023,0.0074138965253531764,0.9923387818912628
2017-06-19,1,0.003526237897485099,0.003896615135490774,-0.007606598826952709,0.005085407827712253,0.9923451569932826
2017-06-21,1,0.0023882293413303294,0.0025933230954378692,-0.0031009792499756047,0.007284937379633424,0.9938501136188198
2017-06-23,1,0.0023312842486339445,0.002473127337145888,-0.0038843860206488677,0.005085407827712253,0.9938777889681331
2017-06-27,1,0.0016902047287671263,0.0017228259517250472,-0.0037244316184943385,0.007284937379633424,0.9926672088707539
2017-06-29,1,0.0017975782048108427,0.0018368403382524735,-0.0037244316184943385,0.007284734999564333,0.9924914316665949
2017-07-03,1,0.0021133035893463577,0.0021819881970764066,-0.006658003942169836,0.005085407827712253,0.9924705682519067
2017-07-06,1,0.001830209899162323,0.0018713085741801762,-0.0037244316184943385,0.005085407827712253,0.9929313908586791
2017-07-10,1,0.002075991720407011,0.002150597810325691,-0.0037244316184943385,0.005085407827712253,0.9932447223903739
2017-07-12,1,0.0020965955068891927,0.0021819690346080735,-0.006668789973323996,0.004962198583498392,0.9927909027669708
2017-07-14,1,0.0020866750231593153,0.002189719826932049,-0.006668789973323996,0.0027475002005533417,0.9922506716836904
2017-07-18,1,0.0015072720949425443,0.001510346214926276,-0.0037244316184943385,0.005155632923575185,0.9921068573449782
2017-07-20,1,0.0017444282148636864,0.0017909567091506388,-0.006911473850938998,0.005155632923575185,0.9909736001411886
2017-07-24,1,0.00210896841131533,0.0022314149642068846,-0.006911473850938998,0.005155632923575185,0.9908531835554988
2017-07-26,1,0.002530406378509644,0.002654432469560148,-0.007010421157100582,0.005155632923575185,0.9919298211409786
2017-07-28,1,0.002035111667125361,0.002069767539735462,-0.005817173976097304,0.005108998714618677,0.9926307377275922
2017-08-01,1,0.0010037144563975779,0.001133819028264834,-0.0026380028345563515,0.005209398402408414,0.9931178567060861
2017-08-03,1,0.0009924031716168327,0.0011164457185707864,-0.0026380028345563515,0.007259861624710523,0.9923637973793874
2017-08-07,1,0.0013349651070773713,0.0014156155424531471,-0.004825179949873337,0.00649081492540103,0.9925431319959083
2017-08-09,1,0.00039197704018818205,0.0006061085204572631,-0.0023976498597557826,0.007243767000790374,0.9927397031255208
2017-08-11,-1,-0.001255378890937619,-0.0007995372253565823,-0.00041714770532919694,0.007910813078451229,0.9922714992754217
2017-08-15,-1,-0.0006198493715122268,-0.0002470649160342111,-0.0023976498597557826,0.007552089271761292,0.9924830777071059
2017-08-17,-1,-0.0015363255180393537,-0.001041834976265545,-0.00041714770532919694,0.007243767000790374,0.9931036324021123
2017-08-21,-1,-0.001682108391819464,-0.0011771552359772517,-0.00030364681352005316,0.007552089271761292,0.9926135127319403
2017-08-23,-1,-0.0014203580340457537,-0.0009679857566597077,-0.00030364681352005316,0.007243767000790374,0.9934752179489803
2017-08-25,-1,-0.0015654819770987308,-0.0010804162620507575,-6.0898860993024034e-05,0.006613663387811885,0.9935124526849533
2017-08-29,-1,-0.0015100620041296573,-0.0010305601408657189,-0.001034717071747039,0.006613663387811885,0.9938670248514787
2017-08-31,-1,-0.0009396086974861214,-0.0005207733099198595,-0.0025316840146091387,0.0053991159336821,0.9947132762581115
2017-09-05,-1,-0.0016432764117704792,-0.0011122301621942355,-0.0014379005934721544,0.006613663387811885,0.9940034525196402
2017-09-07,-1,-0.0014498154114997938,-0.0009460156818902078,-0.0025316840146091387,0.006830366903673728,0.9938983735259872
2017-09-11,-1,-0.0006966038713202222,-0.00029058945811603356,-0.004018665438215394,0.0053991159336821,0.9948316938180404
2017-09-13,1,0.0008563938294724538,0.0009650575417266178,-0.0025316840146091387,0.004070753149093487,0.9955729849364116
2017-09-15,1,0.0016303424375718953,0.0016435937238076675,-0.0025316840146091387,0.003254733995641956,0.9952456269790757
2017-09-19,1,0.002354743133004526,0.0025048645566609078,-0.004018665438215394,0.003254733995641956,0.9952742197824564
2017-09-21,1,0.0018447916036380765,0.0019042205662115417,-0.004018665438215394,0.003254733995641956,0.9956349146747181
2017-09-25,1,0.0017564948347638287,0.0017940629152975887,-0.0048809911533740456,0.0034048528463,0.9949964440371474
2017-09-27,1,0.0015559397360512452,0.0015843788713912619,-0.0048809911533740456,0.005519017263488673,0.9946590572395948
2017-09-29,1,0.0005521245296626358,0.0006717730228421401,-0.001592631545461695,0.009113064492538004,0.9942032877649059
2017-10-03,1,0.0009439474981851177,0.0010239031452328117,-0.0037945814087262902,0.005519017263488673,0.9946194689808681
2017-10-05,1,0.0008881940872445175,0.000985274134166556,-0.001929115227227887,0.0037202481157563617,0.9950690122766771
2017-10-09,1,0.0006694451430113121,0.0007803505695592524,-0.001929115227227887,0.0037202481157563617,0.9950845165408179
