JNU-Tangyin/eata/results/Batch4_SP500/Batch4_SP500-LH.csv
Date,Action,Predicted_Q25,Predicted_Q75,Actual_Q25,Actual_Q75,RL_Reward
2010-12-14,0,0.0,0.0023176726087650364,-0.0022854259930052876,0.005998199705947579,0.9938992549460567
2010-12-16,1,0.0011464560839897417,0.0012178782762509296,-0.006288967080387857,0.0048680553241133165,0.9940051384177627
2010-12-20,0,0.0,0.0,-0.006288967080387857,0.004618476062274889,0.9939114284943396
2010-12-22,0,0.0,0.0,-0.006288967080387857,0.004618476062274889,0.9939835616144258
2010-12-27,1,0.001139852190569311,0.0012976192458829198,-0.005647485086581916,0.005998199705947579,0.9935571446556142
2010-12-29,1,0.0010907680494817282,0.0012361930357253966,-0.005647485086581916,0.006466363544226054,0.9927217732788487
2010-12-31,1,0.0011840263117368144,0.0013187325204506264,-0.0063700723292384395,0.0062194962164089495,0.9920174736945739
2011-01-04,1,0.0012332214825679822,0.0013815834226600155,-0.007106908453307177,0.004490381328914092,0.9922568382570921
2011-01-06,0,0.0,0.0,-0.006397341636021662,0.005816182786262086,0.9923429132476793
2011-01-10,0,0.0,0.0,-0.005911276665793644,0.005816182786262086,0.9924380913209082
2011-01-12,1,0.0016706649359989815,0.00179360114746857,-0.0072133216319559545,0.005186765770928572,0.9916756463415181
2011-01-14,1,0.002165324973442447,0.002308827927293179,-0.0059358819240927525,0.004434464954372134,0.9920278084550294
2011-01-19,1,0.0015327221044690853,0.0015772611136507058,-0.00307613963582363,0.005186765770928572,0.9926495156674495
2011-01-21,1,0.0010328460326286155,0.001076499115754461,-0.0034052067568069865,0.005816182786262086,0.9921484005052249
2011-01-25,1,0.0012870259468655922,0.0013100145842077039,-0.005473281521054176,0.005816182786262086,0.9915065173800881
2011-01-27,1,0.0017379936745547176,0.0017881529608994046,-0.005473281521054176,0.005816182786262086,0.991519477117685
2011-01-31,1,0.0005982698905080535,0.0007086275090118398,-0.003839587123831157,0.005816182786262086,0.9922322919381725
2011-02-02,1,0.0008124275262548777,0.0008580186362169239,-0.0016208547846543074,0.00714414819685721,0.9918668437399935
2011-02-04,1,0.0005759476282295692,0.0006881632131493894,-0.003839587123831157,0.008470280754620273,0.9911692984892823
2011-02-08,1,0.0004030617947755759,0.0005479001439592097,-0.003839587123831157,0.011468851447576775,0.9907133170771119
2011-02-10,-1,-0.00029719357570597113,-0.00010623168214580754,-0.003839587123831157,0.011468851447576775,0.9912508549574413
2011-02-14,-1,-0.0005227443444629077,-0.00029466464990969944,-0.0068135947627843965,0.011468851447576775,0.9904554839552705
2011-02-16,-1,-0.0003192808561407244,-0.0001236041929858631,-0.012869059713552606,0.011468851447576775,0.9900358554328739
2011-02-18,1,0.00011477061011824828,0.0002355643313092351,-0.012869059713552606,0.006616425019696903,0.990522334401408
2011-02-23,0,-6.049555184117029e-05,7.951225256953945e-05,-0.006576455053714098,0.0056079466979839,0.9913559662346231
2011-02-25,1,3.514617985175524e-05,0.00017861902573908586,-0.006576455053714098,0.005833060733245302,0.9912875138424936
2011-03-01,0,-4.7008988725875174e-05,8.618148661084982e-05,-0.0038010234650320833,0.009099534555843572,0.9911060799044543
2011-03-03,1,0.0006880582503504907,0.0007360937516995992,-0.0038010234650320833,0.008505417238521185,0.9916404604812243
2011-03-07,1,0.0005308853067789683,0.0006000215498042806,-0.0033287389393791534,0.008024872152879165,0.9921947257576631
2011-03-09,1,0.0005069941153022829,0.0005928444178170398,-0.0032909203172685883,0.0076345532369818244,0.9927586209979419
2011-03-11,0,-2.3658089026429318e-05,0.00011118433132646129,-0.0032909203172685883,0.0076345532369818244,0.9931072555581604
2011-03-15,-1,-0.0011349305035351911,-0.0008336682041173057,-0.0012259893207273692,0.0076345532369818244,0.9931768991641108
2011-03-17,-1,-0.0014313545535341986,-0.0011101836600089683,0.0005618750697619113,0.007957548789698544,0.9929805075122433
2011-03-21,-1,-0.0017355682239642261,-0.00137693024729929,0.002488882160290573,0.007957548789698544,0.9920095694644541
2011-03-23,-1,-0.0014810849907121602,-0.0011674981189408518,0.0033121924851627236,0.008126649792033789,0.9914211858515294
2011-03-25,-1,-0.0005339281927277012,-0.00036113893123507744,0.0005618750697619113,0.007957548789698544,0.9924558624095338
2011-03-29,1,4.0867635712265097e-05,0.00015132302209246298,-0.0010212657816328322,0.007573496488242538,0.9932987354765362
2011-03-31,1,0.0006621409476420055,0.0006838351571128161,-0.0010212657816328322,0.007287575246777945,0.9938247178068129
2011-04-04,1,0.001001681844639822,0.0010146247826938585,-0.0022562842242755525,0.006764736899208991,0.9926647354480772
2011-04-06,1,0.0011309309526745161,0.0011676555304712707,-0.0028741771993369475,0.006764736899208991,0.9923604277726343
2011-04-08,1,0.0004564946304976412,0.000521091422843389,-0.0022562842242755525,0.007774378543480686,0.9919340181933802
2011-04-12,1,0.00028206349566628074,0.0003980623567143185,-0.0028741771993369475,0.007774378543480686,0.9919250151252771
2011-04-14,1,0.0010147749320997066,0.0010193173841856918,-0.003011980676031695,0.008039511718624425,0.9917378662376093
2011-04-18,1,0.00027226479880309543,0.000404088101687441,-0.0028522129157152686,0.007682990859306063,0.9922347808333613
2011-04-20,1,0.000774813249636767,0.0008593874162333763,-0.0028522129157152686,0.006974475026115744,0.9929565662396088
2011-04-25,1,0.0003745335559687129,0.0004833228254386446,-0.0028522129157152686,0.006974475026115744,0.9928507309692827
2011-04-27,1,0.0009242131986248803,0.0009405478702618428,-0.0034687201311853133,0.006974475026115744,0.9928689288443219
2011-04-29,1,0.0008186082514437622,0.0008692952001677777,-0.0034687201311853133,0.007453431116156431,0.9927183917378966
2011-05-03,1,0.0006571082918550046,0.0007257172684073524,-0.0034687201311853133,0.007298887531992759,0.9933319593014122
2011-05-05,1,0.0008393600193999512,0.0008667195055437513,-0.004194978598074042,0.007298887531992759,0.9927277813039334
2011-05-09,1,0.0015548238563720055,0.0016350156937067514,-0.004923756528541822,0.004707655420098127,0.9929294852007567
2011-05-11,1,0.0019540168447953954,0.0021489770671771435,-0.004923756528541822,0.004086384386103771,0.9930528130105868
2011-05-13,1,0.002124588002884637,0.00233223169272546,-0.007126960599126185,0.0033697764388226237,0.9931660960306343
2011-05-17,1,0.002169565453032675,0.002391311920843011,-0.007126960599126185,0.0033697764388226237,0.9928399012914784
2011-05-19,1,0.0021484643778217865,0.002349590333885794,-0.007126960599126185,0.0033697764388226237,0.9928800556044629
2011-05-23,1,0.001537616299644398,0.00165037299681187,-0.005948686315019803,0.004183558653114755,0.9937931413647186
2011-05-25,1,0.0013973841207838935,0.0014827051971355973,-0.007126960599126185,0.004183558653114755,0.9931520100740561
2011-05-27,1,0.0020599900334325283,0.002273278394299599,-0.008610707534550718,0.004183558653114755,0.9925987396815211
2011-06-01,1,0.0016099760435201082,0.001751835187390114,-0.007294481085177912,0.003968134874555071,0.993454356047123
2011-06-03,1,0.000831986468483388,0.0008534872604067433,-0.006432049792422756,0.006489167508525113,0.9931647624524069
2011-06-07,1,0.0008306641988011666,0.0008918841472092883,-0.005852079466005352,0.007021834633884635,0.9931573901174168
2011-06-09,1,0.0008608370875165295,0.000923321665678288,-0.006432049792422756,0.007021834633884635,0.9928684113224217
2011-06-13,1,0.000211539619477893,0.00025643954987394457,-0.006432049792422756,0.007021834633884635,0.9926030128122407
2011-06-15,1,0.00023959297787222566,0.0002870195279875155,-0.007160786645782606,0.006489167508525113,0.9924488782942799
2011-06-17,1,0.0006570982848127634,0.0006819468086850657,-0.007869644292078173,0.00586088043391811,0.9920358457566901
2011-06-21,1,0.00104081041756647,0.001141659134769496,-0.007869644292078173,0.006265010398850111,0.9910635673196575
2011-06-23,0,-7.604258236881573e-05,9.852851751987707e-06,-0.008209624216364803,0.006265010398850111,0.9903910158314495
2011-06-27,-1,-0.00031798581389260095,-0.0001909686083426471,-0.008612798097657881,0.0055906214278345495,0.9906268089324901
2011-06-29,-1,-0.00019141896521158406,-9.713151286551105e-05,-0.010922063020923429,0.003081902075366267,0.9901995106270326
2011-07-01,1,0.0009391120327839159,0.000984331237483503,-0.012707578198203354,0.002054580443621815,0.9901229087975472
2011-07-06,1,0.00052845867669273,0.0006120015569890964,-0.013260380306551642,0.002054580443621815,0.9899583557397043
2011-07-08,1,3.3562615259868716e-05,0.0001727150547691509,-0.015068176113845488,0.0027703720958934027,0.988754845560262
2011-07-12,-1,-0.0005510536850401799,-0.0003603529433951803,-0.017068015307911563,0.00473828433070177,0.9850895606758879
2011-07-14,-1,-0.0009586504868724204,-0.0007358296661163373,-0.018965972400013034,0.00588136718800716,0.9819211952440013
2011-07-18,-1,-0.0012379261083972043,-0.0009706222830488435,-0.018965972400013034,0.006547580342336928,0.9814148035055791
2011-07-20,-1,-0.0004898665136571711,-0.0003270173491041275,-0.018965972400013034,0.004946777249588569,0.9817240248272171
2011-07-22,-1,-0.002004269611279381,-0.0016476211524895728,-0.019043011165915242,0.004946777249588569,0.9813861942806552
2011-07-26,-1,-0.0020098547421510994,-0.0016947109375568155,-0.022350500461145055,0.006547580342336928,0.979409986621169
2011-07-28,-1,-0.0026080959506460622,-0.0022208159418558937,-0.022350500461145055,0.007958320171654227,0.9791917383788721
2011-08-01,-1,-0.0031553189035845404,-0.0027167009263754614,-0.016753338734352644,0.018272574526511997,0.9780900692182513
2011-08-03,-1,-0.0037439507163547904,-0.0032039529507887207,-0.016753338734352644,0.018272574526511997,0.9783632394492386
2011-08-05,-1,-0.005056123124229807,-0.004330278946513691,-0.014913876816958306,0.018272574526511997,0.9792562422333583
2011-08-09,-1,-0.006322098464614527,-0.0054205776616483535,-0.01303638699280393,0.01905984826458074,0.9805140825393069
2011-08-11,-1,-0.006666764106949398,-0.005719946019010651,-0.01303638699280393,0.017801849054415397,0.9822490334306577
2011-08-15,-1,-0.005937460715200034,-0.00507665895007665,-0.01303638699280393,0.01456758398619826,0.9828623283860336
2011-08-17,-1,-0.0060965714932338325,-0.005256671171842279,-0.01303638699280393,0.01527965410464929,0.9819908311016735
2011-08-19,-1,-0.007308445444497713,-0.006372471754941449,-0.01303638699280393,0.01527965410464929,0.9822222056969041
2011-08-23,-1,-0.006447701620034264,-0.005646345629308366,-0.01303638699280393,0.01381432719606164,0.9831644156315075
2011-08-25,-1,-0.006218498754461999,-0.005477076724592899,-0.013156598900651047,0.01381432719606164,0.9832364703749736
2011-08-29,-1,-0.004247869140773077,-0.003749547176042792,-0.013156598900651047,0.01304937896385961,0.9835695819775151
2011-08-31,-1,-0.00401266027947658,-0.0035222395928364296,-0.015356770657017333,0.01304937896385961,0.9828496984864613
2011-09-02,-1,-0.0047750181854297365,-0.004216983114642466,-0.01703496758095779,0.01304937896385961,0.9813632745149933
2011-09-07,-1,-0.0019125146444288533,-0.0017213286277398096,-0.020176444678742578,0.012318112057118073,0.9821678759881641
2011-09-09,-1,-0.0042606486271064775,-0.0037921809662996605,-0.01703496758095779,0.01304937896385961,0.9829495786660898
2011-09-13,-1,-0.0030240939384642233,-0.002748340944314299,-0.017208241887505513,0.013286735670009955,0.9817984048698479
2011-09-15,-1,-0.002914398512308047,-0.0026279237036285295,-0.019492064534924677,0.013700133084591858,0.9811585047747224
2011-09-19,-1,-0.0028050859701555138,-0.002542765298983928,-0.019492064534924677,0.017531120569055918,0.9813318509735051
2011-09-21,-1,-0.0033768044570044583,-0.00306669805401204,-0.017208241887505513,0.022009982234305822,0.9811846259855823
2011-09-23,-1,-0.0033501622602294303,-0.0030467471874224047,-0.017208241887505513,0.022009982234305822,0.9814097182700607
2011-09-27,-1,-0.001253430682547726,-0.0012016200197976815,-0.017208241887505513,0.017531120569055918,0.9827458302847323
2011-09-29,0,0.0,0.0,-0.01063217020996373,0.022009982234305822,0.9827187370694666
2011-10-03,-1,-0.004142092411532974,-0.003814726116868911,-0.008143361902450325,0.022009982234305822,0.9822898527824446
2011-10-05,-1,-0.0035139031466761435,-0.003290056503775706,-0.008143361902450325,0.017531120569055918,0.9826677168165703
2011-10-07,-1,-0.0019918688772022955,-0.001958012703471885,-0.009038858115018374,0.01570622380206959,0.9836275915150711
2011-10-11,-1,-0.0012610010670262353,-0.001179502417198387,-0.008143361902450325,0.015578786925374545,0.9842826396227997
2011-10-13,0,0.0,0.0,-0.008143361902450325,0.015578786925374545,0.9834369135524431
2011-10-17,1,0.0005529705478084757,0.0006021678228002508,-0.008143361902450325,0.015578786925374545,0.9835610530329885
2011-10-19,1,0.00030568043557147886,0.0005206076812080918,-0.009038858115018374,0.014243887626890045,0.9844808573306437
2011-10-21,0,0.0,0.0,-0.011347965351654325,0.014243887626890045,0.9838804727702464
2011-10-25,0,0.0,0.0,-0.016398691389457657,0.014243887626890045,0.9832889180728938
2011-10-27,0,0.0,0.0,-0.016398691389457657,0.013572065605695094,0.9847184236295672
2011-10-31,0,0.0,0.0,-0.011347965351654325,0.013572065605695094,0.9854920493982794
2011-11-02,1,0.0017775253769988508,0.0019981640210380617,-0.004325114317362864,0.01427437180711856,0.9867975360329466
2011-11-04,1,0.001971777478742929,0.002233179721780693,0.0003617141117716752,0.01427437180711856,0.9878479488565919
2011-11-08,1,0.0032613290095170134,0.003711606799531271,-0.006231244411162637,0.00907562965659954,0.9880946659406641
2011-11-10,0,0.0,0.0,-0.006231244411162637,0.006513687531440811,0.9888712055197245
2011-11-14,0,0.0,0.0,-0.009642197500706093,0.005447259860791224,0.9890484923277477
2011-11-16,1,0.0016061111380410921,0.0020202515130540617,-0.008466497138748145,0.005447259860791224,0.9901342349692772
2011-11-18,1,0.0011297697182306252,0.001483198817288968,-0.006231244411162637,0.004862387372439481,0.9914902171243487
2011-11-22,1,0.0016208589662701114,0.0021114137082989585,-0.003577288726668487,0.005544084215988477,0.991521105141106
2011-11-25,1,0.0020444645234822855,0.0026125288215746393,-0.003577288726668487,0.006513687531440811,0.9902067872349543
2011-11-29,1,0.0031189655435062817,0.0038177537917058143,-0.006231244411162637,0.005220572924089836,0.9902537499848237
2011-12-01,1,0.0038827237963860862,0.004651313848764403,-0.006364226095734552,0.005220572924089836,0.9905350365006923
2011-12-05,1,0.00372644110578415,0.004444463116675817,-0.006364226095734552,0.005220572924089836,0.9906972957278036
2011-12-07,1,0.0033077246673828913,0.0039691005787503945,-0.0036216159548591253,0.005544084215988477,0.9916814451931618
2011-12-09,1,0.0030202908183928926,0.0036823930143711553,-0.0030914230045669504,0.005560499974994728,0.9927544333712774
2011-12-13,1,0.001754197651415821,0.0021800208075361165,-0.0008267548388694535,0.005560499974994728,0.9936113272025154
2011-12-15,1,0.0015591305633446697,0.0019352655883677684,-0.000975515003021325,0.006384300674089162,0.9925345513223031
2011-12-19,1,0.0013785997381999023,0.001700916925444217,-0.0014766372307102448,0.006384300674089162,0.9923165125003693
2011-12-21,1,0.00230794077837592,0.0027187334801368254,-0.0024878958383365056,0.005439138081321949,0.9939615960685574
2011-12-23,1,0.0031063072350288237,0.00360821975631584,-0.0024878958383365056,0.00630724000493748,0.9940049281627743
2011-12-28,1,0.001094570747648238,0.001326299336487478,-0.0024878958383365056,0.00630724000493748,0.9942938122958151
2011-12-30,1,0.001911167858489195,0.0021655967442958087,-0.0024878958383365056,0.005431093765174904,0.9946693888107656
2012-01-04,1,0.0018191930698575253,0.002031777951349227,-0.0024878958383365056,0.00630724000493748,0.9941615015517414
2012-01-06,1,0.002566266528998807,0.0029255319454459445,-0.0035377034970225647,0.0066574343488284,0.9931056637433914
2012-01-10,1,0.002272093955881578,0.002552432769100799,-0.0024878958383365056,0.006747653615685684,0.9930859328575397
2012-01-12,1,0.0013732550078158568,0.0014438281336769821,-0.002699262907616553,0.006747653615685684,0.9920017710762294
2012-01-17,1,0.0016617923104722378,0.0017797551579636023,-0.002699262907616553,0.005522138323421317,0.9924472901111446
2012-01-19,1,0.0015608559359707363,0.001655417614327343,-0.005246378603890414,0.006678936264608388,0.9913715176293754
2012-01-23,1,0.0022435167521257784,0.002512192939257658,-0.005246378603890414,0.006678936264608388,0.9913025854116929
2012-01-25,1,0.0031896848459869597,0.0035951381913342227,-0.005246378603890414,0.004246753029348405,0.9922406979449611
2012-01-27,1,0.0023686050943856358,0.0026087250655241643,-0.002715498345603897,0.007043341370480697,0.9921301044079366
2012-01-31,1,0.003060379613333377,0.0034853712826759154,-0.004153199528712298,0.007738421364284733,0.9916211959942687
2012-02-02,1,0.0016511091848519198,0.001822386477046242,-0.009457901776172496,0.007043341370480697,0.9916844266547227
2012-02-06,1,0.0015710435228699733,0.0017535674724679308,-0.007757757705176879,0.004698060733031876,0.9927125074543868
2012-02-08,1,0.0014454604446016083,0.0016115215979343243,-0.007757757705176879,0.0035489302235630128,0.9929747026184187
2012-02-10,1,0.0012806670391356163,0.001416276301779147,-0.0052816042923728695,0.0035489302235630128,0.9938638413155751
2012-02-14,1,0.00016674416361490036,0.00020302189835270598,-0.0036848696087635065,0.00632874236565651,0.9936258232908681
2012-02-16,-1,-9.96085150316146e-05,-2.9617788440419626e-05,-0.003078345263749061,0.0044369366974521575,0.9945881532083161
2012-02-21,1,3.8398416599899496e-05,8.959680361335818e-05,-0.0036848696087635065,0.0044369366974521575,0.9943542942022566
2012-02-23,-1,-0.0006468713824599774,-0.0004558971848040692,-0.005018450886671218,0.0068863876573059535,0.9930791596576514
2012-02-27,-1,-0.001076150343756846,-0.0007640025219206423,-0.006352856743543748,0.0044369366974521575,0.9925835734913852
2012-02-29,-1,-0.0012873557508495512,-0.0009398952578198937,-0.005319262052231039,0.003159078053743892,0.9933052230379175
2012-03-02,-1,-0.0009505733353124087,-0.0006919299058903395,-0.004720464693057281,0.002779737835091795,0.9935397656878802
2012-03-06,-1,-0.001178784561494806,-0.0008923367678069503,-0.0036848696087635065,0.007728235482433225,0.9924475978650711
2012-03-08,-1,-0.00153860654218201,-0.0011934174709481553,-0.004720464693057281,0.007728235482433225,0.9921135588312741
2012-03-12,-1,-0.0013840227849007153,-0.0010879624282095451,-0.006352856743543748,0.007728235482433225,0.9903410773172743
2012-03-14,-1,-0.0005785152465486742,-0.0003968159294134094,-0.006352856743543748,0.0039740670564629025,0.9911459352909825
2012-03-16,-1,-0.0005774353124989521,-0.0004004922597566562,-0.007384619509526033,0.0028757054553098915,0.9907680612732205
2012-03-20,-1,-0.0003237898003600461,-0.0002007587956521101,-0.009189507203812756,0.006339626559465459,0.9887781106522604
2012-03-22,1,4.776430641192396e-05,9.409603917210548e-05,-0.009676595638201174,0.0028757054553098915,0.9884907893767507
2012-03-26,1,0.00013825103298141777,0.0002174920356699701,-0.009676595638201174,0.0028732951163120157,0.989613912015987
2012-03-28,-1,-0.00036835479195520356,-0.00025472473941615174,-0.009676595638201174,0.0039007497604037094,0.9898154983735828
2012-03-30,-1,-0.00030826213248156967,-0.00020248670935992414,-0.009676595638201174,0.004254738900123564,0.9897877603072762
2012-04-03,1,0.0010610419826914855,0.0011675474825340857,-0.009676595638201174,0.0039007497604037094,0.9903329477301642
2012-04-05,1,0.0005131208242392011,0.0005132797539735275,-0.009710059243246201,0.0039007497604037094,0.9900366948972903
2012-04-10,-1,-0.00045165794608680124,-0.0003647212968567283,-0.007260841415022962,0.003917440067905207,0.9922948898207268
2012-04-12,0,0.0,0.0,-0.00967638363382415,0.003789120262663549,0.9917195075063828
2012-04-16,0,0.0,0.0,-0.01035712732135826,0.003917440067905207,0.9912052138240307
2012-04-18,0,0.0,0.0,-0.008439686735709148,0.003917440067905207,0.9927365760879853
2012-04-20,0,0.0,0.0,-0.008439686735709148,0.003917440067905207,0.9930268971126434
2012-04-24,0,0.0,0.0,-0.0070886876748496724,0.003997350085715237,0.9926353342001252
2012-04-26,0,0.0,0.0,-0.007967618610535885,0.003997350085715237,0.9924653461119592
2012-04-30,0,0.0,0.0,-0.007967618610535885,0.007006150254327525,0.9918922353281275
2012-05-02,0,0.0,0.0,-0.013939346477440242,0.004516552236805854,0.9906061060322678
2012-05-04,0,0.0,0.0,-0.012424803760611872,0.007461249420307344,0.9901960287395993
2012-05-08,-1,-0.0022190823075053986,-0.0017838325692097682,-0.012424803760611872,0.008915517388687238,0.9898062707245069
2012-05-10,-1,-0.0028783679068034086,-0.0023629976555569407,-0.011179005328382844,0.008915517388687238,0.9897992369970573
2012-05-14,0,0.0,0.0,-0.0072259392391695555,0.007790683690917408,0.9908307290318622
2012-05-16,0,0.0,0.0,-0.0072259392391695555,0.007790683690917408,0.9907716858272336
2012-05-18,0,0.0,0.0,-0.004413643296018252,0.007790683690917408,0.9917201480238607
2012-05-22,0,0.0,0.0,-0.0009008408061477894,0.007790683690917408,0.9919374555921595
2012-05-24,-1,-0.0022176712464925703,-0.0012898594521516874,-0.0009008408061477894,0.008647250627006768,0.9904416860618186
2012-05-29,-1,-0.0017107438005038935,-0.0014558833392511227,-0.006757869061520397,0.008647250627006768,0.9899389153236591
2012-05-31,-1,-0.002794624053604029,-0.00243265187622286,0.0021626881774553133,0.009341519532950818,0.989159452022933
2012-06-04,-1,-0.0025432434499378298,-0.0022166461419266554,0.0021626881774553133,0.008647250627006768,0.9901899873416996
2012-06-06,-1,-0.0019972045731099625,-0.0017324398412917846,-0.0005845963292549025,0.00822394692425688,0.9903785057598782
2012-06-08,-1,-0.0014100064264642195,-0.0012359257644824597,-0.00029111342453029543,0.00822394692425688,0.9908418896452683
2012-06-12,0,0.0,0.0,0.0020206263724093336,0.00822394692425688,0.9913843190153456
2012-06-14,0,0.0,0.0,0.0020206263724093336,0.00822394692425688,0.9911409897972739
2012-06-18,1,0.0007308304671968737,0.000905620623107506,-0.004730935279563716,0.00822394692425688,0.9905894630934376
2012-06-20,1,0.0009470291054290347,0.0011354582049929742,-0.007847699759767533,0.008739867532885028,0.9878305418800223
2012-06-22,1,0.0009431968121033216,0.0011294671500340914,-0.0109800345975153,0.007944636147105232,0.9872707207630503
2012-06-26,0,0.0,0.0,-0.007658256005422007,0.006624312848364171,0.9879523088978036
2012-06-28,0,0.0,0.0,-0.007658256005422007,0.006624312848364171,0.988981590423533
2012-07-02,0,0.0,0.0,-0.010290354961348953,0.0063278959873395,0.9888408266917276
2012-07-05,0,0.0,0.0,-0.010290354961348953,0.0063278959873395,0.9866781443152147
2012-07-09,0,0.0,0.0,-0.010290354961348953,0.008224186027206443,0.9860318583465648
2012-07-11,0,0.0,0.0,-0.010290354961348953,0.009800541247172266,0.9858072287772538
2012-07-13,0,0.0,0.0,-0.010290354961348953,0.004343765166959628,0.9865651668634889
2012-07-17,1,0.0008757175289787317,0.0009879042325399443,-0.007249982966799502,0.004343765166959628,0.9879721384627785
2012-07-19,1,7.71914683383922e-05,0.00010345332309718953,-0.0038615094725387164,0.003753277166311245,0.990995663840507
2012-07-23,-1,-0.0012235659124912516,-0.0010963466247520947,-0.0012315230045301404,0.003753277166311245,0.9927180686900466
2012-07-25,-1,-0.00132923735514667,-0.0011815734454821245,-0.00350303548324298,0.003753277166311245,0.992394154101173
2012-07-27,-1,-0.0010328369074745695,-0.000912419525605929,-0.005159663346297703,0.003753277166311245,0.9920981184384874
2012-07-31,-1,-0.001451636742621337,-0.0012805934645039212,-0.004084850743727157,0.003753277166311245,0.9923552493548968
2012-08-02,0,0.0,0.0,-0.004084850743727157,0.0025677609261739107,0.9951230637554999
2012-08-06,0,0.0,0.0,-0.004084850743727157,0.002762836119628137,0.9954789519146605
2012-08-08,0,0.0,0.0,-0.004084850743727157,0.0041304860074823195,0.99552389753758
2012-08-10,0,0.0,0.0,-0.004084850743727157,0.0041304860074823195,0.9953980878592485
2012-08-14,1,0.0005175395608472244,0.0006144615649298461,-0.004084850743727157,0.0041304860074823195,0.9954129478572397
2012-08-16,1,0.0009984750668796008,0.0011941671190500232,-0.004084850743727157,0.005881091512807764,0.9946628007536149
2012-08-20,0,0.0,0.0,-0.004084850743727157,0.005881091512807764,0.9945302958887383
2012-08-22,0,0.0,0.0,-0.002651655352896428,0.005881091512807764,0.9947668563029369
2012-08-24,1,0.0008592785935638042,0.0011273986075656757,-0.0019571734839772927,0.005881091512807764,0.9953966450283009
2012-08-28,0,0.0,0.0,-0.001993898384991012,0.005881091512807764,0.9950097780085383
2012-08-30,0,0.0,0.0,-0.0009572093895096206,0.006672630914392904,0.9943818219226506
2012-09-04,0,0.0,0.0,-0.001993898384991012,0.006672630914392904,0.9943328173400947
2012-09-06,0,0.0,0.0,-0.001993898384991012,0.007051150197169733,0.9944269957213766
2012-09-10,0,0.0,0.0,-0.0018727750328376702,0.007051150197169733,0.994505895085776
2012-09-12,1,0.0007217381793956281,0.000785417178222234,-0.0028528861713819926,0.007051150197169733,0.9936973887152762
2012-09-14,1,0.0009157894032328306,0.0010221996027171489,-0.00432766916913402,0.006975752097762586,0.9939889227459637
2012-09-18,1,0.000981956682589475,0.0010986012753426517,-0.004923222900232614,0.009133066981568325,0.9933848570015978
2012-09-20,1,0.0008510363271862481,0.0009550382726538282,-0.006158217452299876,0.009133066981568325,0.9914817300824349
2012-09-24,1,0.0011430250708155281,0.0012959820292672123,-0.00718909299498465,0.006975752097762586,0.9906142743904789
2012-09-26,1,0.00048710494464860286,0.0005181554136135004,-0.007973113262987665,0.006975752097762586,0.9905905593812937
2012-09-28,1,0.001119531288017209,0.0012394278881907236,-0.00887367911395491,0.005018274306203104,0.9908271229191764
2012-10-02,1,0.0009235109646419284,0.000990708714833976,-0.00887367911395491,0.005018274306203104,0.9909247007556347
2012-10-04,1,0.001061755870369102,0.0011336412674196814,-0.00887367911395491,0.005018274306203104,0.9908263116639163
2012-10-08,1,0.001329527958768778,0.0014604151969985924,-0.012828604911141694,0.002998247540100001,0.9900913500532121
2012-10-10,1,0.0003182300357548335,0.0003652830588160592,-0.009683593387318312,0.002998247540100001,0.9908451078082186
2012-10-12,1,0.0005064383768751432,0.000517608799010695,-0.009683593387318312,0.002210456264253041,0.9911365808325406
2012-10-16,1,0.0004424386641927505,0.00046957283421547987,-0.01532360100485144,0.002210456264253041,0.9907752785824502
2012-10-18,-1,-0.0007086021045139335,-0.0005707665776502148,-0.00785551034360947,0.002998247540100001,0.9921881909378613
2012-10-22,-1,-0.0021233558688072687,-0.0017704485621600334,-0.00785551034360947,0.0037149460160774677,0.9926550469354823
2012-10-24,-1,-0.002527342510456493,-0.002134448921321961,-0.00785551034360947,0.005308831811730535,0.9923724294810248
2012-10-26,-1,-0.002366862485496035,-0.0020130909187641003,-0.007727890338087409,0.006584019149033829,0.9924169424462325
2012-11-01,-1,-0.0020824359887998333,-0.001773580439332326,-0.007727890338087409,0.006584019149033829,0.9920419240749211
2012-11-05,-1,-0.0017723579084322216,-0.001497551442737389,-0.007727890338087409,0.00498287209894676,0.9927302490576705
2012-11-07,-1,-0.001932751112130949,-0.001664823802256661,-0.006358503172841366,0.00498287209894676,0.9933080630719733
2012-11-09,-1,-0.0019146879005964828,-0.0016626318771712262,-0.003863892551122597,0.00498287209894676,0.993461032831148
2012-11-13,-1,-0.0018055433177190093,-0.001588017009152507,-0.0029220000259971273,0.007312904529474983,0.9921540570230597
2012-11-15,-1,-0.002030680227288216,-0.0017893299366033674,-0.0029220000259971273,0.006742851541275554,0.9929615473659409
2012-11-19,-1,-0.0017649832200128685,-0.0015554078267509758,-0.0011538328940188971,0.006742851541275554,0.9934413204841992
2012-11-21,0,0.0,0.0,-0.0027521801387982324,0.006742851541275554,0.9944639710355314
2012-11-26,-1,-0.0011762250971994361,-0.001085161499806634,-0.0027521801387982324,0.00498287209894676,0.9948036647468573
2012-11-28,-1,-0.0009415217919958956,-0.0008748944008352159,-0.0027521801387982324,0.0037045357944953256,0.9950958819503659
2012-11-30,0,0.0,0.0,-0.0029220000259971273,0.0034263956156236615,0.9950730046131935
2012-12-04,0,0.0,0.0,-0.0028369904950988224,0.004523762311921502,0.9946264849793038
2012-12-06,1,0.0003047785359404538,0.0005575718660911959,-0.0028369904950988224,0.004514942080383214,0.9948700689582365
2012-12-10,1,1.702519258323608e-05,0.00018365029912672138,-0.0028439779036182316,0.005059030364424591,0.994374991311852
2012-12-12,-1,-0.00018897613481807466,-7.535313348130843e-05,-0.0038827559467750493,0.0028690387608878236,0.9949915922500152
2012-12-14,-1,-0.0015954933053095924,-0.0014539269937409742,-0.003522353121416747,0.0034474735544684043,0.9946725800954456
2012-12-18,-1,-0.0011923948641986077,-0.001098765324797306,-0.003522353121416747,0.004211081735448472,0.9945772422853189
2012-12-20,-1,-0.0012416921340959973,-0.001154459748241243,-0.002212276074211616,0.0047637287726943756,0.993614995970939
2012-12-24,-1,-0.0016392808588967904,-0.0014871138191706107,0.0001235012054582237,0.006170439349320273,0.9918584820971672
2012-12-27,-1,-0.0009633052467346653,-0.0008335498324053492,0.0004585546179058492,0.007749851801801965,0.9909845041722772
2012-12-31,-1,-0.0006368402043203229,-0.0005730631262941843,-0.002063329340886439,0.007196618031927132,0.9917212377839358
2013-01-03,1,4.224061966862913e-05,8.996518454563893e-05,-0.0023479269285167706,0.007196618031927132,0.9919268919086954
2013-01-07,0,0.0,0.0,-0.0031147875090384225,0.007196618031927132,0.9916730454573414
2013-01-09,0,0.0,0.0,-0.0021351145670575984,0.00779619590171911,0.9914840607802007
2013-01-11,0,0.0,0.0,-0.002136833861837951,0.00779619590171911,0.9913606857761879
2013-01-15,0,0.0,0.0,-0.0031147875090384225,0.00779619590171911,0.991181676128743
2013-01-17,0,0.0,0.0,-0.004998366082107917,0.007340818330830743,0.9912589732891005
2013-01-22,0,0.0,0.0,-0.006005090320329509,0.007143543603910959,0.991764655990544
2013-01-24,0,0.0,0.0,-0.005189009719190038,0.007014221031346125,0.9933767239647711
2013-01-28,0,0.0,0.0,-0.005893753026348335,0.0036569631589698378,0.9943107343499282
2013-01-30,0,0.0,0.0,-0.005893753026348335,0.0051140641682996075,0.9941379431227716
2013-02-01,0,0.0,0.0,-0.005893753026348335,0.004942981956768688,0.9943106049823275
2013-02-05,0,0.0,0.0,-0.005893753026348335,0.005250140737340706,0.9938082604307629
2013-02-07,0,0.0,0.0,-0.005893753026348335,0.004845969142086903,0.9945058173214493
2013-02-11,0,0.0,0.0,-0.005189009719190038,0.004942981956768688,0.9949629484790448
2013-02-13,1,4.405440162176155e-05,6.59633141195902e-05,-0.005189009719190038,0.005234677219204091,0.9949003361122672
2013-02-15,1,0.0007045065218151146,0.0008339311427983272,-0.006071921406784502,0.004942981956768688,0.9947633463319585
2013-02-20,1,0.0008504230008980007,0.001005012546064602,-0.005271633507703271,0.004891327998433936,0.9951805236437006
2013-02-22,0,0.0,0.0,-0.004874812584707984,0.004891327998433936,0.9951856728021645
2013-02-26,0,0.0,0.0,-0.0041004523057701515,0.005106088782972739,0.9950607350124703
2013-02-28,1,0.0008258391968268682,0.0010042752925368415,-0.0026596664824431507,0.005106088782972739,0.9950951995994044
2013-03-04,0,0.0,0.0,-0.0026596664824431507,0.005315767990692951,0.9940773939712673
2013-03-06,0,0.0,0.0,-0.0015750699454493778,0.005315767990692951,0.9944952315857194
2013-03-08,0,0.0,0.0,-0.0026596664824431507,0.005315767990692951,0.9942667829277817
2013-03-12,1,0.0012012394264394918,0.0014293223226641758,-0.002362561920633346,0.004951188417021473,0.9945870114660537
2013-03-14,1,0.001920540818041808,0.0022770377937134266,-0.002362561920633346,0.004951188417021473,0.9939734231418966
2013-03-18,1,0.0002551867513971602,0.0002982037680294412,-0.0014760350915127762,0.0062700621782751775,0.9936552447860997
2013-03-20,-1,-0.0001376855147562736,-0.00010715675208040914,-0.0039833077949245135,0.0062700621782751775,0.9929760399911387
2013-03-22,-1,-0.0002965556192814524,-0.00023082808468027625,-0.0023767330302572323,0.008420919015089474,0.9929326693981975
2013-03-26,-1,-6.311003359408193e-05,-1.7549387751632754e-05,-0.0027662772921261867,0.008420919015089474,0.9932165844155062
2013-03-28,1,0.00031069710324215205,0.00031740744003247245,-0.0027662772921261867,0.005589137852620473,0.9937025717473608
2013-04-02,1,0.001063591368098138,0.0011864619827464014,-0.0027662772921261867,0.0033205213934020105,0.9947155738770984
2013-04-04,1,0.0009839497698191947,0.0010606203169367734,-0.004753607885681575,0.0032430221142466056,0.9945557203276231
2013-04-08,1,0.0006339195241113005,0.0006616575273389633,-0.0027662772921261867,0.003428182366447749,0.9947369445165405
2013-04-10,1,0.0006662450487772918,0.0006861502047053725,-0.003411610614764085,0.0045063468500835015,0.9943112500785466
2013-04-12,1,0.0009763285712384439,0.0010432329616186472,-0.003411610614764085,0.0045063468500835015,0.994564415379421
2013-04-16,1,0.0010843136686067543,0.0011788642638371435,-0.0025615404557821574,0.00423514436738346,0.9951015530818998
2013-04-18,1,0.0002889917309640769,0.00032400806108702534,-0.0016287425219794738,0.007993750771396227,0.9947253943384798
2013-04-22,1,0.00010758577525504397,0.00018368979344965842,-0.0016287425219794738,0.008339245570110704,0.9942289788871846
2013-04-24,1,0.0001882871263404574,0.00024600592406669283,-0.0016287425219794738,0.009587010320082209,0.9935977276379071
2013-04-26,1,0.00023697717227597227,0.0002737532569710256,-0.002084834664060411,0.009587010320082209,0.9930883421386885
2013-04-30,0,-1.814882850805985e-05,5.597702736714278e-05,-0.0032491537971787235,0.009587010320082209,0.9925140112981775
2013-05-02,-1,-0.00022294146630895759,-0.0001324527081653047,-0.0032491537971787235,0.009587010320082209,0.9927521083779086
2013-05-06,0,-2.7197320206610512e-05,4.231277867956695e-05,-0.0032491537971787235,0.009587010320082209,0.9928740286250622
2013-05-08,1,0.00041482313844899124,0.0004405514471210876,-0.004105119804617781,0.009347931752603417,0.9929597266847346
2013-05-10,1,0.0004632590767507606,0.0004920075691304002,-0.002119296967802367,0.009418252156663556,0.9928647284231391
2013-05-14,1,0.0008359618475302017,0.000931634890412049,-0.004105119804617781,0.009418252156663556,0.9928196685585718
2013-05-16,1,0.0011077692598227009,0.0012196752852313252,-0.004105119804617781,0.007281034595243097,0.9937998134437358
2013-05-20,1,0.0013374258413046585,0.0014624593497901681,-0.004105119804617781,0.005163433522551559,0.9943806030158107
2013-05-22,1,0.0012256981709342148,0.00133748531824315,-0.006311569987668228,0.004531311665872385,0.9942790593940363
2013-05-24,1,0.001233390867363787,0.0013422449707231067,-0.006311569987668228,0.004487010003762979,0.9944505548552841
2013-05-29,1,0.0011524562956808893,0.0012588737330118398,-0.0047402129889138325,0.003638807848037025,0.9950942674863491
2013-05-31,1,0.0008569292363630257,0.0009209259130393639,-0.0047592853184751155,0.004487010003762979,0.9944880606450304
2013-06-04,1,0.0007360215196478121,0.0007677525348328343,-0.006488075585817495,0.003638807848037025,0.9942069880902297
2013-06-06,1,3.344427615492235e-05,0.00010407422645325795,-0.006488075585817495,0.004487010003762979,0.9937116205891208
2013-06-10,1,0.0006858810479123888,0.0007000032116429359,-0.00704454896697361,0.0027231440963831535,0.9925092818528894
2013-06-12,1,0.0006657365848947011,0.0006907868726199614,-0.00704454896697361,0.003638807848037025,0.9924569712945255
2013-06-14,1,0.0010786828643170926,0.0011769451886345826,-0.00704454896697361,0.004487010003762979,0.9923656983722166
2013-06-18,1,0.0011768156849295585,0.0012551949739262383,-0.00704454896697361,0.005215575415341964,0.9919652788729966
2013-06-20,1,0.0008673885859186237,0.0009421718162637084,-0.005868749716699684,0.005215575415341964,0.9920141322629955
2013-06-24,1,0.0008858739379665568,0.0009404459945817335,-0.005868749716699684,0.006965234797631468,0.9918614091792162
2013-06-26,1,0.0010439000316557127,0.0011271633472942012,-0.005868749716699684,0.006965234797631468,0.9916490423610552
2013-06-28,1,0.0010642737207341624,0.0011378868683961858,-0.004669536804701753,0.005912468838097908,0.9923231329022193
2013-07-02,1,0.0010262467124741922,0.0011194458393288405,-0.00571291216980616,0.005912468838097908,0.9921665629817334
2013-07-05,1,0.0009337483589293268,0.0009822319130559196,-0.004669536804701753,0.005912468838097908,0.9929570926231418
2013-07-09,-1,-0.0003940152506618774,-0.0002731208857558355,-0.004661616516440721,0.005912468838097908,0.9946883664254992
2013-07-11,-1,-0.00017578838853239638,-8.140384885163473e-05,-0.005519258286078569,0.005912468838097908,0.9945079983833032
2013-07-15,-1,-0.00010334740173298054,-1.0430326720495188e-05,-0.005519258286078569,0.005420964116124177,0.9947365241881733
2013-07-17,1,5.500806217112155e-05,0.00014181580104193054,-0.005519258286078569,0.005420964116124177,0.9947988885873759
2013-07-19,-1,-0.0006379859080634442,-0.000460040592617393,-0.00559594110238248,0.005420964116124177,0.9944589270577399
2013-07-23,-1,-0.00029936603315415745,-0.00016026011169720966,-0.00559594110238248,0.002807048735282449,0.9948967661723168
2013-07-25,-1,-0.0002712746426137978,-0.00014735584049399678,-0.00559594110238248,0.002807048735282449,0.9951394496210383
2013-07-29,-1,-0.00039325522295586917,-0.00025136235949302734,-0.00559594110238248,0.0019677831280547377,0.9953847673208385
2013-07-31,-1,-0.0008036394465727954,-0.0006158674094443478,-0.004413431988178408,0.0019677831280547377,0.9956813665919609
2013-08-02,-1,-0.0006065152210181183,-0.0004446691992883831,-0.004413431988178408,0.0015961904811090488,0.9960056757122681
2013-08-06,-1,-0.000687535795662463,-0.0005146683644120227,-0.002436199535498165,0.0019677831280547377,0.995827321903263
2013-08-08,-1,-0.0009270029055722514,-0.0007012295220921325,-0.0017199914785934703,0.002826742983215491,0.995929169072939
2013-08-12,-1,-0.001031990488363044,-0.0007873059573627817,-0.0017199914785934703,0.0035953149543850515,0.9950250399665517
2013-08-14,-1,-0.0007721397822498485,-0.0005554264465903927,-0.0017199914785934703,0.003347694186248781,0.9956497962189735
2013-08-16,-1,-0.0013797498078645235,-0.0011013929828828312,-0.001085575922997935,0.003978826985859764,0.9959198264002712
2013-08-20,-1,-0.0013197736635867491,-0.0010632504563523547,-0.001085575922997935,0.003978826985859764,0.9956448070400258
2013-08-22,-1,-0.0009317928048999151,-0.0007597630684061927,-0.0017199914785934703,0.003978826985859764,0.9954225478509015
2013-08-26,-1,-0.0007724332618926791,-0.0006308176760184781,-0.0018815229117237406,0.003978826985859764,0.9954635181034747
2013-08-28,-1,-0.0010997224691406458,-0.0009062965316465525,-0.0018815229117237406,0.003978826985859764,0.9954744793954152
2013-08-30,-1,-0.001132326758816789,-0.0009420965945015653,-0.0020353179143961235,0.004515207924370195,0.9951574973071147
2013-09-04,-1,-0.0006395126769265615,-0.000516942696754921,-0.0020442511481147604,0.004515207924370195,0.9954078145157133
2013-09-06,-1,-0.0003147497234023551,-0.00022718000036343287,-0.0020442511481147604,0.004197378450431221,0.995696015516142
2013-09-10,0,-8.854019502127703e-06,6.68273480990699e-05,-0.0024994260997655646,0.003193983119096289,0.9964216513331737
2013-09-12,1,5.075511164759355e-05,0.00011104862142568447,-0.0030815195526138492,0.003193983119096289,0.9959180217974795
2013-09-16,1,0.00032426978067024955,0.0003521781143991543,-0.0030815195526138492,0.0018615009217926933,0.9955758047775787
2013-09-18,1,2.4114983026810933e-05,9.192743603731666e-05,-0.0030815195526138492,0.0024122957806050798,0.994807814008921
2013-09-20,-1,-0.00042557060272742305,-0.00029536595744691305,-0.0030815195526138492,0.0055564988138580886,0.9934763388401738
2013-09-24,-1,-0.0007815294071500124,-0.0005942454291887963,-0.004194033894728361,0.007258413754820496,0.9923936372431091
2013-09-26,-1,-0.000797128187645833,-0.0006189639126541574,-0.005330852547783382,0.007258413754820496,0.9918028487572307
2013-09-30,-1,-0.0006334216903004558,-0.00048333803962130286,-0.005330852547783382,0.007258413754820496,0.9921333455430758
2013-10-02,-1,-0.00041765150519955933,-0.00029286570178103493,-0.005330852547783382,0.008227073131861242,0.9919202616306736
2013-10-04,0,-5.038327714530381e-05,1.691963988908232e-05,-0.005330852547783382,0.007355418000607832,0.9920272282802122
2013-10-08,1,0.0002699731445146564,0.00028304258826340127,-0.004707147908935216,0.013086398381596509,0.9913271139859344
2013-10-10,1,0.00026675738918056446,0.0003163318289544024,-0.0031005986976460937,0.013086398381596509,0.9910371380236409
2013-10-14,1,0.0007785275437418648,0.0008986973063968945,-0.0031005986976460937,0.011698207246791265,0.9912968966138254
2013-10-16,1,0.0010413688363296399,0.0012072621703083774,-0.0029039008557626696,0.008328024256937657,0.9925295897104466
2013-10-18,1,0.0007133372438088483,0.0008304553904381441,-0.0029039008557626696,0.008328024256937657,0.992922934948618
2013-10-22,1,0.0008441736059334498,0.0009672669667202046,-0.0031005986976460937,0.006760873206108209,0.9929391371433383
2013-10-24,1,0.0006903362074551918,0.0007987847823459152,-0.0029039008557626696,0.006760873206108209,0.9934617490446366
2013-10-28,1,0.0004740634211648398,0.000530587725001792,-0.0029039008557626696,0.006760873206108209,0.9930584707879697
2013-10-30,1,0.001135462478011467,0.001321044419902152,-0.004077783914045764,0.006540118071417319,0.9922748072099428
2013-11-01,1,0.000977695493697859,0.001124260475591279,-0.0073091099550655824,0.006540118071417319,0.9913408262319381
2013-11-05,1,0.0014015357370596802,0.0016062012184514382,-0.007648024417523515,0.006481962222976677,0.991686048191438
2013-11-07,1,0.002123086334534558,0.002437523636024336,-0.007648024417523515,0.00621734828339354,0.9919551984643649
2013-11-11,1,0.0021732701791131797,0.002456080562673606,-0.008617633349086159,0.003037015698663775,0.9916057715398279
2013-11-13,1,0.0017881028612550354,0.002019208296584518,-0.010269311427394023,0.003037015698663775,0.9866815798587464
2013-11-15,1,0.0020448312515194012,0.0023144935692974633,-0.009016402224862106,0.003977545215629415,0.9870448253521127
2013-11-19,1,0.0014600201240458298,0.0016624949382242557,-0.007648024417523515,0.006306663429998418,0.9879587813163491
2013-11-21,1,0.0015150367901023672,0.0017075227598221975,-0.007648024417523515,0.004827505044686934,0.9877132773938049
2013-11-25,1,0.0018583415448294779,0.00210623958912352,-0.007648024417523515,0.004827505044686934,0.9875798968694368
2013-11-27,1,0.00014273470429658467,0.00019053336935049968,-0.005578010857468523,0.004827505044686934,0.9891403122854547
2013-12-02,-1,-0.00045105584336643865,-0.0003472316774788555,-0.0041060924278862486,0.004827505044686934,0.9899208671815672
2013-12-04,-1,-0.0006635997708921549,-0.0005442043094677564,-0.0041060924278862486,0.006051838889311505,0.9893726619149569
2013-12-06,-1,-0.00017365802631049681,-0.00013000753547351513,-0.004857487993495891,0.006051838889311505,0.9886730292444024
2013-12-10,-1,-0.0008363950751637918,-0.0006864900567314894,-0.004744977853034649,0.00668156726836009,0.9886058233745192
2013-12-12,-1,-0.004098344682396312,-0.003592052797653606,-0.004744977853034649,0.00668156726836009,0.9922514228733247
2013-12-16,-1,-0.00324340999669831,-0.0028364052891510123,-0.004744977853034649,0.004760297276319718,0.9934361942473647
2013-12-18,-1,-0.0030688798661158458,-0.0026844911914443567,-0.004744977853034649,0.0044169671215276655,0.9932418090854891
2013-12-20,-1,-0.003303351999398461,-0.002872104604028514,-0.004744977853034649,0.0049546406565681295,0.9930862424881818
2013-12-24,-1,-0.002708912885706025,-0.0023607794124912568,-0.005607335072402325,0.003611869033294825,0.9933399149597767
2013-12-27,-1,-0.00268000315352353,-0.002336644595982809,-0.005607335072402325,0.004489881455446566,0.9933029446512859
2013-12-31,-1,-0.002378421686111439,-0.0020783854358081486,-0.005923496476126846,0.004489881455446566,0.9932982250403688
2014-01-03,-1,-0.0024963316932915345,-0.002186454713768972,-0.005923496476126846,0.004489881455446566,0.9926948515018823
2014-01-07,-1,-0.001680509870974194,-0.0014875062339815073,-0.005923496476126846,0.004489881455446566,0.9930860148135204
2014-01-09,-1,-0.0018948912469281547,-0.001641666651392368,-0.007714813207034534,0.004489881455446566,0.9923271477934951
2014-01-13,-1,-0.0024288077201541644,-0.0021123065795233403,-0.005607335072402325,0.005074577948605673,0.9915578448459798
2014-01-15,-1,-0.0023236471503526035,-0.0020168822784029017,-0.00607645944942561,0.007009761450733669,0.9912180901611038
2014-01-17,-1,-0.0020341013787552676,-0.001763884071586638,-0.00607645944942561,0.007009761450733669,0.9913148114029553
2014-01-22,-1,-0.0020797717645276367,-0.0017977879805561826,-0.00591030442300333,0.007048050189085766,0.9914637576511625
2014-01-24,-1,-0.002736950323396153,-0.0023736210512429936,-0.0026428876069600604,0.008765133722170072,0.9912526228109289
2014-01-28,-1,-0.0023646534069494047,-0.002066420957333653,-0.0037913833984952916,0.008765133722170072,0.9914219766343524
2014-01-30,-1,-0.0025069400910863794,-0.002212334111255354,-0.0026428876069600604,0.008765133722170072,0.9913542629128473
2014-02-03,-1,-0.002448259686134378,-0.002191585398803309,-0.0026428876069600604,0.007167278975604548,0.9922033534774545
2014-02-05,-1,-0.0020367988284221905,-0.0018309531095057697,-0.0013480639003720144,0.00565851637575218,0.9923545535104761
2014-02-07,-1,-0.0015852505830981972,-0.0014499549425481286,-0.0013480639003720144,0.00565851637575218,0.9925040729281996
2014-02-11,-1,-0.00074627500792402,-0.0007026694339914352,-0.0013480639003720144,0.006723470675814489,0.9929737906664994
2014-02-13,-1,-0.0007861820360776328,-0.0007262961953377608,-0.0014073440907547618,0.00565851637575218,0.9936649220720072
2014-02-18,-1,-0.0006232313000275459,-0.0005780898172374693,-0.0014073440907547618,0.006723470675814489,0.9927748261305025
2014-02-20,-1,-0.000524210727240539,-0.0004879024766852465,-0.0014073440907547618,0.0058665551113360765,0.9924607246420406
2014-02-24,-1,-9.915048531595565e-05,-7.866895554345395e-05,-0.003557419225506882,0.005271224267571695,0.9919861021270422
2014-02-26,-1,-0.0001706613102930108,-0.00014633986404105913,-0.0017328680701418212,0.0058665551113360765,0.9902198479831832
2014-02-28,1,0.00010452955012968585,0.0001750795662508074,-0.0038291178862704003,0.0058665551113360765,0.9901076359995499
2014-03-04,0,-4.248310258286411e-05,4.155691794283117e-06,-0.0017328680701418212,0.008886545031295328,0.9886041482748181
2014-03-06,1,0.00012693066683327518,0.0001809955731657544,-0.0017328680701418212,0.008886545031295328,0.9889337613098217
2014-03-10,1,0.0002695717837489312,0.00037013129819481606,-0.0038291178862704003,0.00440688748977614,0.9889839295699226
2014-03-12,1,0.0010472476839428725,0.0012606345628629714,-0.0038291178862704003,0.003515163501553079,0.9895890604236581
2014-03-14,1,0.0008356502278468513,0.001006330676390956,-0.008318239025955135,0.003515163501553079,0.9890183097317516
2014-03-18,1,0.001591345157598333,0.0018732883706520792,-0.008318239025955135,0.004845437697488117,0.9892785360793571
2014-03-20,1,0.001216240824562632,0.0014387528068801796,-0.006659718401259021,0.004889985956197025,0.9895503137954317
2014-03-24,1,0.0006760325955741533,0.0008277497302420932,-0.006365795485252043,0.004889985956197025,0.990103244365194
2014-03-26,1,0.001856812809414154,0.0021796849180239783,-0.006365795485252043,0.0043072064247545545,0.9916996520457881
2014-03-28,1,0.0017115687201855307,0.002015271327615368,-0.006365795485252043,0.0043072064247545545,0.9914154283118458
2014-04-01,1,0.003001344533062581,0.0034953695903113743,-0.006365795485252043,0.0037955403492435716,0.9926102076998534
2014-04-03,1,0.0032999784822147597,0.003862388055831917,-0.0072175808672311015,0.0039439109628696956,0.9921226629331878
2014-04-07,1,0.0026955277745247504,0.003199051409615939,-0.005529338482849512,0.0039439109628696956,0.9937992399641331
2014-04-09,1,0.003091672723924324,0.003645013895260506,-0.005529338482849512,0.0039439109628696956,0.9939771980401353
2014-04-11,1,0.002870226590298819,0.0034091732823376903,-0.004420119568562971,0.004489777439320989,0.9943455104993126
2014-04-15,1,0.003087337821688676,0.003618759494870535,-0.004420119568562971,0.0027833446357949775,0.9944615245900966
2014-04-17,1,0.0031420065119695272,0.0036938381243580786,-0.0032948788668126843,0.0007604513656594387,0.9944488655489349
2014-04-22,1,0.003056080205853003,0.0036123498684246676,-0.003112511445385046,0.002887166990712194,0.9948794210996211
2014-04-24,1,0.0025555620437122794,0.0029908978220780985,-0.002924932002770646,0.002887166990712194,0.9952808881560588
2014-04-28,1,0.0019448156135916767,0.002266152709803778,-0.0018051487893822448,0.0043382058715820395,0.9962207361923742
2014-04-30,1,0.0016915866716556696,0.001965153852101267,-0.0018051487893822448,0.0047382609712030704,0.9954578044169381
2014-05-02,1,0.0016875100995216183,0.001973197582647945,-0.0020247333688242315,0.0047382609712030704,0.995539624649023
2014-05-06,1,0.0014724590982185754,0.0017136606504511644,-0.0020247333688242315,0.005253703306635703,0.9948275077519895
2014-05-08,1,0.00019158013410822258,0.0002756706742379621,-0.0027308111698006476,0.004798988603418856,0.9943924802671229
2014-05-12,1,0.0007608770056773686,0.0007748434077074688,-0.002888644812432384,0.0044526126519166135,0.9946401590473414
2014-05-14,1,0.0006289640643102531,0.0006306903150640219,-0.0031833713397352217,0.0044526126519166135,0.9943616027396154
2014-05-16,1,0.0004359408354055367,0.0004650267926554039,-0.0035681314441119564,0.0044526126519166135,0.9940491239238538
2014-05-20,1,0.0005970610475847658,0.0006007633118734947,-0.0042394888557025145,0.0036522649379525885,0.9938788762578349
2014-05-22,1,0.0007072775719517826,0.0007207037394007236,-0.0042394888557025145,0.0044526126519166135,0.9933774305478515
2014-05-27,1,0.0008504464615024672,0.0008857117640512496,-0.0042394888557025145,0.0036522649379525885,0.9932736863051566
2014-05-29,1,0.0011889614173962683,0.001255010164257046,-0.006965670692686651,0.0031245829733458235,0.9934643837420193
2014-06-02,1,0.0010854244604906554,0.0011599514094679294,-0.006965670692686651,0.004751175575817558,0.9931231471724938
2014-06-04,1,0.0016463261123576076,0.001797439703725283,-0.006965670692686651,0.006006960978192382,0.9928024142503329
2014-06-06,1,0.0010162952156315165,0.0010473968746069575,-0.006965670692686651,0.006015576380459919,0.9927835662832103
2014-06-10,1,0.0007896564247730797,0.0007932369928539628,-0.008012537348923238,0.006015576380459919,0.9924606488560224
2014-06-12,1,0.0005437348518807984,0.0005606016093347137,-0.008012537348923238,0.006143663852854058,0.9924533025580758
2014-06-16,1,0.00016774380892878215,0.00023160903357970092,-0.005447793259032427,0.006143663852854058,0.992699637582576
2014-06-18,-1,-0.00040506626843826526,-0.00024451811671052215,-0.005447793259032427,0.0068792557238137745,0.9920912223395956
2014-06-20,1,7.923904341500422e-05,0.0001850598477000515,-0.008352778496196948,0.0068792557238137745,0.9915422846634065
2014-06-24,-1,-0.0003127306781533203,-0.0001343918663206433,-0.008352778496196948,0.0068792557238137745,0.9914470826225957
2014-06-26,-1,-0.0012184489083306885,-0.0009132740702238961,-0.001431623463702594,0.0068792557238137745,0.9917026492272981
2014-06-30,-1,-0.0005743761072009892,-0.0003530219591675542,-0.0035609247662862524,0.0061406568830903625,0.9927462308390879
2014-07-02,1,0.00025550174763082546,0.0003932067943951106,-0.005795777126853787,0.005490826985165747,0.9929900676430085
2014-07-07,1,0.0005415229760316754,0.0006117679496577057,-0.004548429986684178,0.005533522809297127,0.9930378339228537
2014-07-09,1,0.000271768831288813,0.0003733062967835607,-0.004548429986684178,0.005147955739942424,0.9932420287434796
2014-07-11,1,0.00029763313323284506,0.0003911541179295899,-0.005682214074874213,0.005325401024415984,0.992760022608037
2014-07-15,1,0.00041224619868543926,0.0004913880866256365,-0.005682214074874213,0.005155666379720363,0.9927606163787187
2014-07-17,1,0.0006022474176105115,0.0006436078795268363,-0.0035452482720971868,0.007022642578920226,0.9928066428287643
2014-07-21,1,0.00014812752320961914,0.00025991967107264423,-0.0035452482720971868,0.007022642578920226,0.9933588447232995
2014-07-23,1,0.00035994949221436744,0.00044248663288080296,-0.0035452482720971868,0.0055053162221295445,0.9932936330106019
2014-07-25,1,0.00024916854259879735,0.00036076450036651733,-0.004803792969575507,0.006751752190321174,0.9929678121883647
2014-07-29,1,9.588514296571694e-05,0.00021066769239328712,-0.0049111950149826125,0.007031071696607508,0.9927520631953983
2014-07-31,-1,-0.0007195494349351553,-0.0004944482484481619,-0.0049111950149826125,0.007031071696607508,0.9935147378508989
2014-08-04,-1,-0.00012893720298013013,-1.2916367195802488e-05,-0.0057630069091977165,0.007031071696607508,0.9929748675279026
2014-08-06,-1,-0.0007183692646938848,-0.0005242658366895556,-0.0049111950149826125,0.008823023630032966,0.9927504276528626
2014-08-08,-1,-0.00017776228358126658,-8.928889805832928e-05,-0.0038634955228164353,0.007031071696607508,0.9936532649680484
2014-08-12,-1,-0.0006045658498078926,-0.00044347296506813477,-0.0049111950149826125,0.007031071696607508,0.9931945565072442
2014-08-14,-1,-0.000399038167144036,-0.00022106990124908438,-0.0057630069091977165,0.0047815910473100855,0.9938171825529293
2014-08-18,1,0.0005876330876138776,0.0005898982747209336,-0.0049111950149826125,0.0047815910473100855,0.9941291323327458
2014-08-20,1,0.0006490783080081898,0.0006595288543494642,-0.0057630069091977165,0.002619768565793974,0.9939395032915539
2014-08-22,1,0.0015338116839392086,0.0017332096845502692,-0.006236347964144483,0.0011796229172002797,0.9933733633974877
2014-08-26,1,0.001613069859791056,0.0018259317881065351,-0.006835377128117477,0.0011796229172002797,0.9927198803893281
2014-08-28,1,0.0005053278259414746,0.0005141281064188278,-0.0083818484967483,0.002953016797166393,0.9924455079302429
2014-09-02,1,0.0011946466742048345,0.0013101385942162111,-0.008949666882326474,0.0018442727728740515,0.9926645926608478
2014-09-04,1,0.0013071693211630315,0.001400765532263466,-0.008949666882326474,0.0018442727728740515,0.9926506685155957
2014-09-08,1,0.0017283789636679137,0.001923458360478937,-0.010283100263364936,0.0032883206026938913,0.991866982541066
2014-09-10,1,0.001265160787579037,0.0013898656270921452,-0.011562693206096398,0.004554061072308775,0.9905317493661299
2014-09-12,1,0.0007007613363823992,0.0007258438282583406,-0.013791829047826495,0.006558705170064646,0.9896739420799855
2014-09-16,1,0.0008879527753727575,0.0009351189443886716,-0.013791829047826495,0.004192029969929662,0.9896987917708938
2014-09-18,1,0.00011198624123265449,0.00018846259541802093,-0.013791829047826495,0.005076408287557378,0.9899886193619308
2014-09-22,-1,-0.0007494806475953096,-0.0005608944048861561,-0.011562693206096398,0.006330997077979587,0.9903734359814591
2014-09-24,-1,-0.001178651951525915,-0.0009293189090756578,-0.010096023131259272,0.006330997077979587,0.9902846004674043
2014-09-26,-1,-0.0016837157612534914,-0.0013731225714006547,-0.006656425466624904,0.007471910028319913,0.9901303451169376
2014-09-30,-1,-0.00197540078489821,-0.0016453269245991777,-0.005623442327494409,0.009820799933313296,0.9885773613624926
2014-10-02,-1,-0.0015932353225576862,-0.0013260709965935182,-0.006149468869637327,0.007606968174938805,0.9886424801623075
2014-10-06,-1,-0.0018562788275612663,-0.0015582982786055243,-0.006149468869637327,0.01165187074527987,0.9848856094501981
2014-10-08,-1,-0.00190538858565706,-0.0016067390018748167,-0.0034664246723586853,0.01050953278607351,0.9862870959087711
2014-10-10,-1,-0.0024459758636384017,-0.0020875528230490503,-0.0034664246723586853,0.01050953278607351,0.986148177174408
2014-10-14,-1,-0.002715438627740542,-0.002338316631548761,-0.0034062574090343734,0.01050953278607351,0.9857750284328874
2014-10-16,-1,-0.0025072238627029024,-0.002164802187198076,-0.006149468869637327,0.01050953278607351,0.9853511924926974
2014-10-20,-1,-0.001733814735825007,-0.001515573034813973,-0.007307432077983221,0.011656552060441973,0.9851821035090234
2014-10-22,-1,-0.0011437830142215838,-0.0009816719607182102,-0.007307432077983221,0.011083445696211284,0.9858327247186743
2014-10-24,1,0.00018088607054836148,0.00021377038953469173,-0.007307432077983221,0.008031047288749855,0.9868873690156167
2014-10-28,1,0.001138837063591267,0.0012818019676387564,-0.007854097148885186,0.008031047288749855,0.9880632530152975
2014-10-30,1,0.0009662077098452841,0.0010717951938982514,-0.0076272982539967935,0.011506430626822174,0.9868713359234987
2014-11-03,-1,-0.0011092453778695148,-0.000943385400022721,-0.006108405915636656,0.011083445696211284,0.9907115811679715
2014-11-05,-1,-0.00098776650669976,-0.0008194609117600673,-0.0076272982539967935,0.009328614651564588,0.9904665904978451
2014-11-07,-1,-0.0016776730673708352,-0.0014204078690302085,-0.007355284970575513,0.011229668298249333,0.9909959502884375
2014-11-11,-1,-0.001445939102522307,-0.0012466220167037883,-0.007355284970575513,0.011229668298249333,0.9910436739537197
2014-11-13,-1,-0.0016053311378237082,-0.0013877402995909106,-0.007355284970575513,0.011229668298249333,0.9908462701936657
2014-11-17,-1,-0.0017565705769174802,-0.0014928760855442845,-0.006231858439858412,0.009328614651564588,0.9913222776046028
2014-11-19,-1,-0.0010600683807449754,-0.0009101454500733918,-0.006231858439858412,0.01217954732486078,0.9895929934304741
2014-11-21,-1,-0.0006408640248981034,-0.0005871368318326052,-0.0064409890952861,0.012719752086446294,0.9888069987761913
2014-11-25,-1,-0.0006557572946930689,-0.0005955459085833124,-0.005803640623873518,0.012719752086446294,0.9896241148302222
2014-11-28,1,0.0005973434698824572,0.0006866861535049818,-0.005803640623873518,0.008032688280076472,0.9914799053881604
2014-12-02,1,0.0006754824842859313,0.0007773816301964737,-0.0064409890952861,0.009302219634426144,0.9908709068026393
2014-12-04,1,0.0007297831608987834,0.0008482163891265467,-0.005624054049131084,0.01133055150069584,0.9898189794902157
2014-12-08,1,0.0009205815426075994,0.0010689832475262186,-0.005624054049131084,0.01133055150069584,0.989244552760346
2014-12-10,1,0.0003907487990906075,0.00045999586723403625,-0.0014436372308960638,0.013571639007920772,0.9883827510117582
2014-12-12,-1,-3.9905393925983594e-05,-1.3964845252876308e-05,-0.00041485229981146754,0.013571639007920772,0.9891831557768375
2014-12-16,1,5.289944531367466e-05,9.972980796118619e-05,-0.00041485229981146754,0.013571639007920772,0.9892208652685525
2014-12-18,1,0.0013246360471518598,0.0015281829218491685,-0.00041485229981146754,0.01133055150069584,0.9908802655069152
2014-12-22,1,0.0012364568087731452,0.001397306045988419,-0.00041485229981146754,0.012549386007883937,0.9900074230702403
2014-12-24,1,0.001440029819282764,0.001633849646462462,-0.003429639796366315,0.012549386007883937,0.9894935586498053
2014-12-29,1,0.0013932803359421719,0.0015576481545846988,-0.008155020128357206,0.012549386007883937,0.9888075361401182
2014-12-31,1,0.001212439782622786,0.0013541256787790003,-0.008155020128357206,0.010914534104905468,0.9892471544469226
2015-01-05,1,0.0023837364218438697,0.0026710140183693145,-0.008155020128357206,0.007713317092415144,0.9902528598293612
2015-01-07,1,0.002691129414955383,0.003054953228006331,-0.007981161625821919,0.005659515232793107,0.9912051745971094
2015-01-09,1,0.003630567133405159,0.0041220656568814636,-0.009058957933651423,0.0025813131353126044,0.9906560012609708
2015-01-13,1,0.0036014631837633405,0.004099596799794878,-0.009058957933651423,0.007607866866371179,0.9901933376111614
2015-01-15,1,0.003298011250461497,0.003754168489683481,-0.007981161625821919,0.007607866866371179,0.9907377788812209
2015-01-20,1,0.003868276377637481,0.004399827699767247,-0.007981161625821919,0.005659515232793107,0.9910373015269266
2015-01-22,1,0.00405302863954637,0.004585965383831468,-0.007479831628365989,0.005659515232793107,0.9911108503317113
2015-01-26,1,0.0036016968863047585,0.004091804617039176,-0.0070128244377412885,0.007607866866371179,0.9913543539361453
2015-01-28,1,0.0032971722849979702,0.0037689822758226648,-0.00306656990357179,0.011718276072071026,0.991742539545711
2015-01-30,1,0.0030589239074180186,0.0034989054340291495,-0.00306656990357179,0.011718276072071026,0.9918259598766942
2015-02-03,1,0.0033773352404178514,0.0038394883707753586,-0.00306656990357179,0.005943089714948744,0.9920845152253214
2015-02-05,1,0.002947498551351387,0.003335134811459111,-0.005156628309241123,0.005943089714948744,0.9917290254326386
2015-02-09,1,0.0023298190852575045,0.002644213517967481,-0.002751725138175442,0.005943089714948744,0.9927623827375228
2015-02-11,1,0.0029285330170868568,0.003301966586697045,-0.002751725138175442,0.0033229646850458615,0.9923460404041056
2015-02-13,1,0.002588504933195909,0.0028860405625422644,-0.004372584498994445,0.006797728618698321,0.9917019931883798
2015-02-18,1,0.002366290132015465,0.0026196337845283907,-0.004372584498994445,0.012977935710883782,0.9912408462424122
2015-02-20,1,0.0031036915908329026,0.003430429041870329,-0.004372584498994445,0.006281035552084057,0.9922306859783016
2015-02-24,1,0.0030406616447502194,0.0033339786566631627,-0.004341611355149708,0.0059284717699661935,0.9926885429242419
2015-02-26,1,0.003481811755040305,0.0038334085418590316,-0.004570104932688002,0.004109107287955838,0.9920882954005913
2015-03-02,1,0.0028601309068556845,0.0031109917106342047,-0.004372584498994445,0.005890498894820905,0.992587410978641
2015-03-04,1,0.002711094354820744,0.0029229200407899767,-0.004570104932688002,0.005890498894820905,0.9919751032600405
2015-03-06,1,0.001712819322249119,0.0017550909481133501,-0.004372584498994445,0.006396604152005927,0.9928718815171824
2015-03-10,1,0.0011796829003008723,0.0012317149944699938,-0.004649719268827021,0.008944874815795225,0.992397764384481
2015-03-12,1,0.0017938773002573564,0.0018090426162921322,-0.004649719268827021,0.005801126702231899,0.9933459027076414
2015-03-16,1,0.002061758812325859,0.002120134944651653,-0.006018760239156439,0.004445597890450443,0.9934662701745347
2015-03-18,1,0.0024577712950769634,0.002599649417882697,-0.006018760239156439,0.004445597890450443,0.9938066799230957
2015-03-20,1,0.0026515296271828474,0.0028594980354811972,-0.0074421960932136095,0.005581697936076232,0.993398181021812
2015-03-24,1,0.0032676311462355363,0.003617207733871509,-0.0074421960932136095,0.004588575137558217,0.9937463841060644
2015-03-26,1,0.002538320757775269,0.0027845402457679254,-0.005409842530777999,0.004588575137558217,0.9949142143433714
2015-03-30,1,0.0022669777576913132,0.002331539845522898,-0.007446228288924206,0.004380867115800428,0.993747821417755
2015-04-01,1,0.001831139471839675,0.001849392873358183,-0.008713270487273259,0.004380867115800428,0.9927902509901944
2015-04-06,1,0.0011956513149195729,0.0012932866865788882,-0.008713270487273259,0.0038945306520524092,0.993128466849308
2015-04-08,1,0.0007407639474132972,0.0009055328586497442,-0.008713270487273259,0.003020325337763505,0.9932409680398054
2015-04-10,1,0.0004858612479667375,0.0007048178679307091,-0.008713270487273259,0.0031728080088203963,0.9929964888016309
2015-04-14,0,-0.00019746379526010846,9.894322107302999e-05,-0.009244739505401296,0.0031728080088203963,0.9928375907501356
2015-04-16,1,5.04836598635859e-05,0.0003077034925147834,-0.009244739505401296,0.0031728080088203963,0.9926222757277942
2015-04-20,-1,-0.00038237802735178994,-5.678035910411405e-05,-0.009244739505401296,0.0031728080088203963,0.9926881292063917
2015-04-22,-1,-0.0003624016896458036,-3.0484584382941236e-05,-0.009244739505401296,0.002764657392102898,0.9923964390968664
2015-04-24,1,0.0005140844661912258,0.0006723014051077546,-0.009244739505401296,0.007283263455109197,0.9916712963796811
2015-04-28,-1,-0.000748919000287304,-0.00044038864309358934,-0.008213014726267964,0.007283263455109197,0.9924714571287341
2015-04-30,-1,-0.002182614445625392,-0.00170047075730936,-0.005616727478373986,0.007283263455109197,0.9935268251227276
2015-05-04,-1,-0.0023248147833687203,-0.0018328637826874202,-0.006282074313893554,0.007283263455109197,0.9932694299924042
2015-05-06,-1,-0.0034942351629100817,-0.002831357884454193,-0.005436643793439346,0.00902882419847318,0.9928366682920238
2015-05-08,-1,-0.0037821611722865306,-0.0030391379269891225,-0.005436643793439346,0.00902882419847318,0.9929867687143151
2015-05-12,-1,-0.004684892523975477,-0.0038310365101876195,-0.004676474683086589,0.00902882419847318,0.9926277531395405
2015-05-14,-1,-0.0032121830909087115,-0.00261725725005131,-0.005192670273060789,0.007283263455109197,0.9931486797684622
2015-05-18,-1,-0.0028095581989805475,-0.002272594011034743,-0.005192670273060789,0.007283263455109197,0.9931246475389645
2015-05-20,-1,-0.0025642802071142983,-0.0020611759898046074,-0.005192670273060789,0.00657249800627416,0.993525814061472
2015-05-22,-1,-0.0019699479485433286,-0.0015426584022229495,-0.005192670273060789,0.006268035907396677,0.99393345390077
2015-05-27,-1,-0.002883116884927272,-0.002333142205960382,-0.005436643793439346,0.006268035907396677,0.9940627749244011
2015-05-29,-1,-0.0025511012677571577,-0.002112652937322688,-0.005192670273060789,0.006521201379711733,0.9929008563206279
2015-06-02,-1,-0.002421688907068687,-0.002007378243104216,-0.005192670273060789,0.007399373006156871,0.991829316933149
2015-06-04,-1,-0.0012607081215355884,-0.0010334392568698552,-0.005638322419346936,0.006928147973968446,0.9920114158986061
2015-06-08,-1,-0.0010830199454072752,-0.000872199231702878,-0.005638322419346936,0.006521201379711733,0.9922986810629719
2015-06-10,-1,-0.0012595881747357787,-0.0010126450856723442,-0.007941477868424812,0.006928147973968446,0.9912706565508935
2015-06-12,-1,-0.0010894641826425092,-0.0008989418553275461,-0.005471560454633376,0.008495419867096841,0.9907237826827717
2015-06-16,-1,-0.000606920905755087,-0.0004978449500435776,-0.007321125648556666,0.008988029031874676,0.9904332624978864
2015-06-18,-1,-0.0010099365323675284,-0.000828553123759799,-0.008587897044001052,0.008988029031874676,0.9897401490884988
2015-06-22,-1,-0.0012263262344175002,-0.000991801628507653,-0.010721245080261042,0.008988029031874676,0.9895836283800723
2015-06-24,-1,-0.002071645576049325,-0.001725977739942886,-0.008716946492080746,0.01219306225454802,0.9893532636242599
2015-06-26,-1,-0.0007795146170772521,-0.0006162393239513505,-0.008716946492080746,0.008988029031874676,0.9905660400994748
2015-06-30,-1,-0.0010879569294660438,-0.0008748384267584094,-0.005645032128813155,0.008988029031874676,0.9902642728340496
2015-07-02,-1,-0.0017638707612552173,-0.0014322027080075708,-0.005050447201422515,0.01219306225454802,0.9902487227706438
2015-07-07,-1,-0.001290261026517474,-0.001059874692423152,-0.005050447201422515,0.01219306225454802,0.9904732486610816
2015-07-09,-1,-0.001620989304122869,-0.0013538523962881791,-0.005050447201422515,0.00891527229329953,0.9912098609036016
2015-07-13,-1,-0.0007974715179586099,-0.0006267961097827009,-0.005670041832330574,0.0049750344103794125,0.992026285004301
2015-07-15,1,0.00010131971465141294,0.00010710946497315463,-0.005553977697552276,0.003732686751001331,0.9925496659222238
2015-07-17,1,0.00014415285817843355,0.0001620262308373536,-0.005050447201422515,0.0028505162788465674,0.993328155127123
2015-07-21,1,0.00014956127781618633,0.00020766394546095857,-0.004474973176836946,0.003732686751001331,0.9935303352644209
2015-07-23,1,0.00047204398444046893,0.0005537525246596031,-0.005050447201422515,0.003306511087768366,0.9929722377523551
2015-07-27,1,0.00028031134659785127,0.00034796790957221293,-0.005707601509852222,0.003306511087768366,0.990634566377533
2015-07-29,1,0.0010576167538052118,0.0011899441062792507,-0.005707601509852222,0.002750173185866421,0.9907324670507506
2015-07-31,1,0.001177446731499633,0.001318604407751643,-0.005707601509852222,0.002750173185866421,0.9906968536632906
2015-08-04,1,0.0015296628917856733,0.0017605938866983957,-0.01459934128678708,0.002750173185866421,0.9891358707815803
2015-08-06,1,0.001300398643917683,0.0015201814351157588,-0.008304079033526503,0.004066340487597381,0.9894318202490906
2015-08-10,1,0.0013308670629274518,0.0015693695363206963,-0.010973754737029072,0.005492672660533609,0.9885112603529225
2015-08-12,1,0.0010735903014215883,0.0012796932165629257,-0.010973754737029072,0.005492672660533609,0.9885930855443712
2015-08-14,1,0.001295600149412125,0.001551144149819164,-0.010973754737029072,0.00635914861055442,0.988212647671059
2015-08-18,1,0.0012887633657568509,0.0015112150630715107,-0.010973754737029072,0.008830765749853392,0.9877892453867338
2015-08-20,1,0.0007710077172210881,0.0009468324323669579,-0.009297316040922082,0.008830765749853392,0.9885301612003105
2015-08-24,-1,-0.0010824175011176769,-0.0010039242640423687,-0.008835779448088141,0.008830765749853392,0.9906546320022546
2015-08-26,-1,-0.0003249454048020183,-0.0003122542204573226,-0.009297316040922082,0.00620935317974291,0.9912750941263968
2015-08-28,1,0.00013081327861520276,0.00020390448674358603,-0.011519750775412244,0.0048638812346151914,0.9890814379352898
2015-09-01,-1,-0.0007458582509432939,-0.0007159876208296119,-0.009988363396591194,0.00620935317974291,0.9894437521387932
2015-09-03,-1,-0.0004092198966651857,-0.00039962452344856765,-0.009988363396591194,0.009869088317041298,0.9884379119976122
2015-09-08,1,5.169743511836185e-05,0.00012065228404456094,-0.011519750775412244,0.008919962312559726,0.9879164745722725
2015-09-10,-1,-0.0001919714088568261,-0.00015398778244689424,-0.011519750775412244,0.01074231959051046,0.9877642705653196
2015-09-14,1,0.00018201888480873745,0.0002851902477479848,-0.011519750775412244,0.01074231959051046,0.9879028205467459
2015-09-16,1,0.0007301104656507691,0.0009172787581578089,-0.012823412464619278,0.0068349056560783345,0.9877529002253906
2015-09-18,1,0.00019197379060825664,0.0002584710527536798,-0.012823412464619278,0.013150943518569467,0.9858823940099303
2015-09-22,-1,-0.0009371782628821496,-0.0008112954309165666,-0.012823412464619278,0.013150943518569467,0.9863280630335269
2015-09-24,-1,-0.0016589392234344004,-0.0014440770072957946,-0.013153477900273845,0.013150943518569467,0.9837229270596144
2015-09-28,-1,-0.004249698302600531,-0.003704643787005816,-0.0033835251745870857,0.016222062481956123,0.9817756420726726
2015-09-30,-1,-0.0038175260656599587,-0.0033437490444807156,0.00022605994394958514,0.01808835558639169,0.9808686237278891
2015-10-02,-1,-0.002882321800252694,-0.002489027503020984,-0.0013641053877906828,0.01762914777905481,0.9828737436580733
2015-10-06,-1,-0.003210870772050402,-0.002800864680907571,-0.0009312587847759521,0.01762914777905481,0.9837187212007541
2015-10-08,-1,-0.002499701975030932,-0.002189670939299516,-0.005663663843263564,0.01762914777905481,0.9842711055241896
2015-10-12,-1,-0.002026123207569272,-0.001784635259780946,-0.005663663843263564,0.01762914777905481,0.9843822213394172
2015-10-14,-1,-0.001962480580528467,-0.0017575132146561787,-0.005663663843263564,0.01762914777905481,0.983727147410674
2015-10-16,-1,-0.00040555784059676995,-0.0003555007763850131,-0.008220097199640838,0.01027895760260708,0.9859597531635365
2015-10-20,-1,-0.0006184483072842618,-0.000521762269516751,-0.008220097199640838,0.014943606810654705,0.9845366846883828
2015-10-22,-1,-0.003175932007126051,-0.0027818651948087014,-0.005663663843263564,0.014943606810654705,0.9855297630484967
2015-10-26,-1,-5.598798524385635e-05,-5.342166098597189e-05,-0.005663663843263564,0.00972115996707499,0.989061022885478
2015-10-28,1,0.0014259600262874644,0.0016314445178954645,-0.005663663843263564,0.008485117078359512,0.9909027711715515
2015-10-30,1,0.0013961219300081158,0.0015989629000151512,-0.00521102268172347,0.008485117078359512,0.9910492477655687
2015-11-03,1,0.001587985838194277,0.0018014153912769611,-0.008138282404209449,0.008485117078359512,0.989908569667613
2015-11-05,1,0.0010876818519486718,0.0012435530259406649,-0.005530497736327694,0.009198532216824878,0.9881249900874401
2015-11-09,1,0.0012808603935713459,0.0014572351537329496,-0.005530497736327694,0.008649496413925793,0.9884803516773252
2015-11-11,1,0.0008645517308251048,0.000993472277126152,-0.005530497736327694,0.007163206569033743,0.9888883074072858
2015-11-13,1,0.0001580620799231476,0.00015851824785737342,-0.009718358662321864,0.007163206569033743,0.9882551286491241
2015-11-17,1,0.0015903642553483444,0.001828606405188188,-0.009718358662321864,0.005541142228355604,0.9880596869877993
2015-11-19,1,0.000690585521185365,0.0008028016258126899,-0.006734482535184311,0.0036657864009098083,0.989850470343792
2015-11-23,1,0.0008493314251602905,0.0009746506637809695,-0.006734482535184311,0.0036657864009098083,0.9892846282899223
2015-11-25,1,0.000998908975644626,0.0011400079010352236,-0.006734482535184311,0.002651716867528544,0.9893735810159087
2015-11-30,1,0.0007281498297770663,0.0008134182989745474,-0.006734482535184311,0.003953145593347113,0.9893155698301241
2015-12-02,1,0.0018371295162083038,0.0021139403054795066,-0.00647706788649876,0.002651716867528544,0.9902047279418963
2015-12-04,1,0.0020921022392054794,0.002412449780654949,-0.006360059625429387,0.0011164093575581366,0.9920009231559175
2015-12-08,1,0.002113513229386647,0.0024283389594302266,-0.008427343414610296,0.00046518412257884746,0.9905320886406553
2015-12-10,1,0.0012062351288373483,0.0013791471031718936,-0.008427343414610296,0.00046518412257884746,0.9908136354722384
2015-12-14,1,0.0006503981310590789,0.0007784205055065841,-0.0074484454197506446,0.00046518412257884746,0.9906709348850076
2015-12-16,1,0.0011485080734152148,0.0013241169095807078,-0.0074484454197506446,-0.0004365061811637582,0.9914899668705498
2015-12-18,1,0.001757648385986028,0.00209150346982834,-0.008427343414610296,-0.0010224771932515267,0.9905518332057371
2015-12-22,1,0.002606981400610026,0.003068733159977299,-0.008427343414610296,-0.0018163169711172757,0.988951414304728
2015-12-24,1,0.002666534901850046,0.0031317033655989075,-0.009697118088480424,-0.0023500999194464352,0.9874779973043204
2015-12-29,1,0.0025905796011785514,0.0030215206587147596,-0.012057797265481111,-0.0037891804348611914,0.9864002672424891
2015-12-31,1,0.0021173895351495314,0.002480363723696445,-0.012057797265481111,-0.0007147969933044434,0.9864729819961578
2016-01-05,1,0.0014811419163318746,0.001739181411140738,-0.017734775217612433,-0.0007147969933044434,0.9860746312583132
2016-01-07,1,0.0005817853725514976,0.0007235170707250578,-0.01801281422501369,-0.0007147969933044434,0.9868317927862349
2016-01-11,0,-4.1867831443058456e-05,3.9768446892374644e-05,-0.018064636614821064,-0.0002678580906530293,0.9852601244830124
2016-01-13,-1,-0.0017130291008021809,-0.0015488516383647289,-0.018064636614821064,0.004650294964515663,0.9849309778858744
2016-01-15,-1,-0.0033556762205957454,-0.0028942069509270904,-0.018064636614821064,0.015493062884369614,0.9837456994936637
2016-01-20,-1,-0.0033173982178936016,-0.002903154910605485,-0.018064636614821064,0.01580799212637854,0.9819166893949851
2016-01-22,-1,-0.0016324950753678902,-0.0014477145684830403,-0.018064636614821064,0.01580799212637854,0.9829970890915436
2016-01-26,-1,-0.002464048185086787,-0.0021194534911127636,-0.012920913776794031,0.01580799212637854,0.9836615521154073
2016-01-28,-1,-0.0031488509873666675,-0.002755282799901093,-0.006228268067363499,0.01580799212637854,0.984240664868207
2016-02-01,-1,-0.0019409779699020337,-0.0017082010426811064,-0.01061559817717023,0.01471260545740441,0.9846614692440425
2016-02-03,-1,-0.0033422757876403995,-0.002930335373300381,-0.01061559817717023,0.01580799212637854,0.984187118359862
2016-02-05,-1,-0.004112465357906551,-0.0036267447985083093,-0.004918689550113765,0.01580799212637854,0.9844547299631683
2016-02-09,-1,-0.004969272550375884,-0.004415819238508344,-0.004918689550113765,0.01476870240413302,0.9862208864618043
2016-02-11,-1,-0.005356943985936316,-0.004755751353106288,-0.00013636750531019308,0.01476870240413302,0.9860982031037425
2016-02-16,-1,-0.004304892237178599,-0.003799999339015794,-0.005632644617557822,0.01225975479242062,0.987710835473103
2016-02-18,-1,-0.0030406460555496033,-0.002648756367134542,-0.01061559817717023,0.008624589627927197,0.9889705171440297
2016-02-22,-1,-0.0037792473282346256,-0.003179486304770701,-0.01061559817717023,0.008624589627927197,0.9888649478638786
2016-02-24,-1,-0.00396296262723009,-0.0033426609829270283,-0.006276710795753521,0.008624589627927197,0.9894199489428095
2016-02-26,-1,-0.0027716816915734225,-0.0023604387230776926,-0.006276710795753521,0.008624589627927197,0.9898931419410517
2016-03-01,-1,-0.0031415803021826606,-0.002652372955391647,-0.0041863488237522525,0.013452941779751806,0.9891049936418891
2016-03-03,-1,-0.002539329493768447,-0.002146066512964994,-0.0041863488237522525,0.011632857505510423,0.9898751292287803
2016-03-07,-1,-0.0024029923095386513,-0.0020405495735387087,-0.005124617170404863,0.011632857505510423,0.9898102844516979
2016-03-09,-1,-0.0028833283589716797,-0.0024464740070140553,-0.005124617170404863,0.013452941779751806,0.9893215512313659
2016-03-11,1,1.4367530385186388e-06,4.179844663307556e-06,-0.006438324768749353,0.011632857505510423,0.991105266491053
2016-03-15,-1,-0.000977645995632053,-0.000869045516698102,-0.005124617170404863,0.011632857505510423,0.9919639247015649
2016-03-17,-1,-0.0027495228733354416,-0.0022982667701701796,-0.0027106718860506526,0.007595010894367734,0.992206238044022
2016-03-21,-1,-0.0003349131746805583,-0.0003096606515572934,-0.0030389567014748927,0.006008792996487218,0.9937209915801147
2016-03-23,1,0.0005128832715472488,0.0006934862278109354,-0.0024773057925362085,0.007595010894367734,0.99326997021942
2016-03-28,1,0.0006524523283484042,0.0008550309369906113,-0.0024773057925362085,0.011850785610226594,0.9917265119669659
2016-03-30,1,0.0020808059319400527,0.0024957053521797367,-0.0024773057925362085,0.007595010894367734,0.9927242771090382
2016-04-01,1,0.001952718487783025,0.0023133528550922274,-0.0030405268647586566,0.006379476309326718,0.9926908941631254
2016-04-05,1,0.0017739773047731626,0.0021284048019985704,-0.0025459456542393697,0.006379476309326718,0.9929643148485657
2016-04-07,1,0.0018562861077206288,0.002189850922163246,-0.0025459456542393697,0.005992925307544023,0.9938070404905782
2016-04-11,1,0.0013945022827457636,0.0016421237869818366,-0.001702628043445929,0.005992925307544023,0.9939151039717491
2016-04-13,1,0.0021518756096858688,0.0025652702304691426,-0.001702628043445929,0.006379476309326718,0.9936947040918617
2016-04-15,1,0.0021133432752822624,0.0024698912596126995,-0.0025459456542393697,0.0068798898713547905,0.9931887335274202
2016-04-19,1,0.002091565491757222,0.0024606879175708782,-0.0025459456542393697,0.0068798898713547905,0.9929330381072197
2016-04-21,1,0.0028022759151452034,0.0032780648670960597,-0.0025459456542393697,0.005513189875895682,0.9934062778693157
2016-04-25,1,0.003932665105406795,0.004552142852950818,-0.0025459456542393697,0.004453942383298575,0.9942019714949505
2016-04-27,1,0.004879948058916618,0.005671681472025817,-0.00428966559704858,0.004453942383298575,0.9933314077848588
2016-04-29,1,0.004435675674430728,0.00517744425856176,-0.0026400190745890398,0.004974059590806575,0.9944459367453721
2016-05-03,1,0.00446545351993966,0.0052162981108052914,-0.0017339858502291524,0.004974059590806575,0.9945126578226451
2016-05-05,1,0.0038196057049322213,0.004440685561883324,-0.0017339858502291524,0.005296879193712216,0.994772629312857
2016-05-09,1,0.0035004560046534823,0.004027300756646985,-0.0023566018893836126,0.006218425082417654,0.9945941135839522
2016-05-11,1,0.00432043447291376,0.00499610005834419,-0.0024235431639799063,0.006218425082417654,0.9942622370570591
2016-05-13,1,0.004263339848053894,0.0049249947564264625,-0.0034394140414322986,0.005041221823452389,0.9932100738331153
2016-05-17,1,0.004384929415884378,0.005104931803154434,-0.0034394140414322986,0.004407911114477284,0.9929574737652361
2016-05-19,1,0.004443864157127135,0.005178658966544217,-0.0046677536818669286,0.006022657022401696,0.9924614059239837
2016-05-23,1,0.004513974507331871,0.005261666135055132,-0.0046677536818669286,0.007791298474673765,0.9922637550252921
2016-05-25,1,0.004519798774815676,0.0052405940499458264,-0.0035815605566213767,0.00885723647499279,0.9924469070144152
2016-05-27,1,0.004168670419329518,0.004809313473589441,-0.007826908084533202,0.00885723647499279,0.9902325566300189
2016-06-01,1,0.003678716119144777,0.004194996124660362,-0.007826908084533202,0.010455670015237981,0.9894791301330925
2016-06-03,1,0.003271092857261653,0.0036779311188212616,-0.007826908084533202,0.009019768554424535,0.9897941355909239
2016-06-07,1,0.002686473255469818,0.002944034284645172,-0.007826908084533202,0.009849747185788547,0.9895410096475401
2016-06-09,1,0.002849452961927533,0.003107743951960709,-0.007826908084533202,0.009849747185788547,0.9891480004787739
2016-06-13,1,0.001507907802207205,0.0015583935688232445,-0.001066337091992407,0.009849747185788547,0.9901811332350785
2016-06-15,1,0.0015957933352531385,0.001711356059453211,-0.0006422130339736238,0.009849747185788547,0.9906124780355238
2016-06-17,1,0.0012437132095924547,0.0013037352105305115,-0.00023841856629177867,0.009849747185788547,0.9913185254370841
2016-06-21,1,0.0012977071209695405,0.001309150087977259,-0.00023841856629177867,0.00952619677003514,0.9916832188005056
2016-06-23,1,0.0023115991384514848,0.0024938963281002577,-0.0011496429035870452,0.0075736537996265165,0.992547897237846
2016-06-27,0,-2.279932787792099e-06,0.0001698348676534751,-0.00023841856629177867,0.0075736537996265165,0.9937136744012467
2016-06-29,1,0.0003887727937503751,0.0005628897973893597,-0.0011496429035870452,0.0068328940170855074,0.9948662321849109
2016-07-01,0,-8.796310137907238e-05,0.00019351205847687911,-0.0011496429035870452,0.006664350628270149,0.9951144571003089
2016-07-06,-1,-0.00039241765110371233,-5.2172649680668056e-05,-0.0011496429035870452,0.005689051398911978,0.9953570421250596
2016-07-08,1,0.0008179095144622532,0.0009733824920226101,-0.0011496429035870452,0.005218335753901331,0.9966015583194336
2016-07-12,1,0.0015484928803820301,0.0015576328929518325,-0.0017507731432792714,0.0049322132623956915,0.9960957635489228
2016-07-14,1,0.0016649429681745054,0.0016927612895488585,-0.0011496429035870452,0.005516289395817756,0.9961562804572937
2016-07-18,1,0.0013662972398105968,0.001383960453074011,-0.0018426538898165183,0.005516289395817756,0.9957192301069696
2016-07-20,1,0.0016740458934337817,0.0017002727451784802,-0.0033438595311738057,0.0049322132623956915,0.9954294651726704
2016-07-22,1,0.0016828282166587185,0.001699341250865963,-0.004699477637017303,0.004532551691305103,0.9954433595101473
2016-07-26,1,0.0013537579380859003,0.0013690028511968762,-0.0033438595311738057,0.004532551691305103,0.9957031745504096
2016-07-28,1,0.0012512003178081171,0.0012886342804643905,-0.005142639118123153,0.0036622180474543495,0.9951212059238441
2016-08-01,1,0.00116464782731513,0.0012314333169590513,-0.005142639118123153,0.004481473206224887,0.9947750119322216
2016-08-03,1,0.0017327095357164831,0.001798117774332727,-0.005388664834050844,0.0036622180474543495,0.9945569895710986
2016-08-05,1,0.001220321294327575,0.0012676273702510786,-0.005955757431432146,0.0036622180474543495,0.9940881324387606
2016-08-09,1,0.0007570125308415088,0.0008649397736921916,-0.005275219794053182,0.004631883590708092,0.9940174641279618
2016-08-11,1,0.0010719742851444934,0.0011236659072178057,-0.006371226570550491,0.003694497927294026,0.9921733272282347
2016-08-15,1,0.0005310179453386257,0.0006506366228858835,-0.006372614283943024,0.004631883590708092,0.9908259630796636
2016-08-17,1,1.6161101695254536e-05,0.00018912058556687714,-0.006032279163950039,0.0064960882678304546,0.9907471975207458
2016-08-19,1,0.0003763244410974072,0.00046799181799322487,-0.006032279163950039,0.006799838486725373,0.9906854179456556
2016-08-23,1,0.00030734613669416977,0.0004030641852249601,-0.006032279163950039,0.011829027935471206,0.990086523412384
2016-08-25,-1,-0.0005863058638802526,-0.0003658517351294117,-0.003665814276036802,0.011829027935471206,0.9905768656706545
2016-08-29,0,-2.5811211288285737e-05,0.00012053420266906902,-0.003665814276036802,0.008990731877935873,0.9909632305749974
2016-08-31,-1,-0.0004823561562115479,-0.00026807497200406793,-0.006014642959547455,0.008990731877935873,0.9904950335584065
2016-09-02,-1,-0.00036115568451371973,-0.0001641101828252986,-0.006989928231371814,0.009265996849732446,0.9901893850107638
2016-09-07,1,0.00029432325527262225,0.0004026733468220751,-0.006989928231371814,0.006244349740221356,0.9906782134138076
2016-09-09,-1,-0.0011378326590274573,-0.0008503369667597975,-0.002847932211388162,0.008616729832021547,0.9919559685385714
2016-09-13,-1,-0.0013067571070378898,-0.0010227218663931945,-0.002847932211388162,0.00669553237325899,0.9929614446432998
2016-09-15,-1,-0.0005122852591479962,-0.0003630657728550548,-0.002847932211388162,0.005769931429393962,0.993579114385376
2016-09-19,-1,-0.0002238865383019685,-0.00012907719913998012,-0.0034575541522472537,0.005769931429393962,0.9936669433528976
2016-09-21,-1,-0.00014746318983119798,-3.9168802125016976e-05,-0.0034575541522472537,0.005769931429393962,0.9936002305073591
2016-09-23,0,-8.598895282698832e-05,1.849619412222335e-05,-0.004822769990797509,0.005769931429393962,0.9931424366250657
2016-09-27,-1,-0.00022029164792627352,-8.74128936882363e-05,-0.006794042765644633,0.006305363685577955,0.9927989227533027
2016-09-29,-1,-0.0008020262687132803,-0.000601851744764948,-0.007777152536646608,0.006305363685577955,0.9884565186320818
2016-10-03,-1,-0.0004130355116632263,-0.00027602773231354583,-0.005085178092555774,0.006305363685577955,0.9889794486995924
2016-10-05,-1,-0.0004120605911086966,-0.00027332150584829964,-0.007941256602599417,0.006305363685577955,0.9886613431109935
2016-10-07,0,-5.915407367114049e-05,4.9327152577232204e-05,-0.009777715912259528,0.0017766403454968958,0.9884319115763479
2016-10-11,-1,-0.0007330543029522868,-0.0005432761798680295,-0.007941256602599417,0.006756522272728491,0.9877502452585316
2016-10-13,-1,-0.0007753952525620211,-0.0005832142154584188,-0.009777715912259528,0.00821541908933793,0.9843481424107277
2016-10-17,-1,-0.0007673489379905693,-0.0005890544209428617,-0.011271836232781428,0.011346880895025306,0.9830394869597998
2016-10-19,-1,-0.00030190080558572635,-0.00018011030427995825,-0.011271836232781428,0.00821541908933793,0.9833969759976992
2016-10-21,-1,-0.00018427728229337314,-7.628884184023764e-05,-0.011271836232781428,0.006756522272728491,0.9839267543430725
2016-10-25,-1,-0.000245117267046788,-0.00013605166860215844,-0.011277730407094323,0.00495557773468263,0.9840960245519078
2016-10-27,-1,-0.0035907531115413767,-0.003098258330989432,-0.00936129198355751,0.010398222682096106,0.9873956519210958
2016-10-31,-1,-0.002929832206780451,-0.00253535234189995,-0.011015350349772891,0.010672571401046495,0.9868845299012046
2016-11-02,-1,-0.003739294315122697,-0.00320898405926037,-0.011795074287114989,0.010672571401046495,0.9862509566895816
2016-11-04,-1,-0.00439821650156972,-0.0037788995048866473,-0.011015350349772891,0.010672571401046495,0.9862430064816462
2016-11-08,-1,-0.003448294417037064,-0.002930534440317652,-0.011015350349772891,0.010178819188757368,0.987584795222984
2016-11-10,-1,-0.003025115658870158,-0.0025865633802429414,-0.00936129198355751,0.0075721422981097734,0.9902782302644025
2016-11-14,-1,-0.002262081336176672,-0.0019480754635674727,-0.00817779098920468,0.0075721422981097734,0.9911051241207379
2016-11-16,-1,-0.00332731618286161,-0.0028166150285166775,-0.009363256708328474,0.0075721422981097734,0.9905384369268129
2016-11-18,-1,-0.0029899080820022152,-0.0025683041628436097,-0.0035936308295150847,0.0075721422981097734,0.9906277931861442
2016-11-22,-1,-0.0030165982593079333,-0.0026166947109810728,-0.00010276864121578632,0.0075721422981097734,0.9906553014081186
2016-11-25,-1,-0.0021140753014528236,-0.0018290721718245539,-0.003972309172863195,0.006317406552746033,0.9912519522525249
2016-11-29,-1,-0.0014900477977182979,-0.001320444240949775,-0.0030335269045215253,0.005855434155923836,0.9923580873105051
2016-12-01,-1,-0.0023812545969542284,-0.0021213020095648847,0.0004110989995220977,0.005855434155923836,0.9927665962502812
2016-12-05,-1,-0.0018425695931291429,-0.001648920764103411,0.0004110989995220977,0.0054717864715622825,0.9930754214700307
2016-12-07,-1,-0.0014348709464799218,-0.0012922995199696166,0.0004110989995220977,0.005376166005018779,0.9934523227961528
2016-12-09,-1,-0.0007351426436090394,-0.0006967866652828731,0.0004110989995220977,0.00602605479586319,0.9933178590058294
2016-12-13,-1,-0.0001300977819004929,-8.161933363648287e-05,-0.0003606203892554909,0.00602605479586319,0.993214468186897
2016-12-15,-1,-0.0007195931673170755,-0.0006859600367890009,-0.002205993174945702,0.00602605479586319,0.99361494184793
2016-12-19,-1,-0.00045688075870522446,-0.0004510713889784531,-0.0024151179167861826,0.00602605479586319,0.9931633011191218
2016-12-21,-1,-0.00011364059024749124,-4.5040878689456336e-05,-0.002538661029350368,0.00602605479586319,0.9933702438716266
2016-12-23,0,-2.4129534218456322e-05,6.57330792823699e-05,-0.0024151179167861826,0.00602605479586319,0.9936210699345664
2016-12-28,0,-3.506826649483344e-05,6.48958679523545e-05,-0.0024151179167861826,0.00602605479586319,0.9937015853902048
2016-12-30,1,0.00014081948220331388,0.0002565807872088261,-0.002538661029350368,0.008528530584800163,0.9929907686910343
2017-01-04,1,0.0007335055558322742,0.0009443136724465372,-0.002538661029350368,0.010316957075556635,0.9929242960301911
2017-01-06,1,0.0004783861485468041,0.0006415391231022584,-0.002538661029350368,0.010316957075556635,0.9901066176429104
2017-01-10,1,0.0009965041130258977,0.0012109709259140082,-0.002538661029350368,0.0073089798323287165,0.9905719715476193
2017-01-12,1,0.0016082482654084175,0.0019022470880934424,-0.002538661029350368,0.008798147939025544,0.9905921657168453
2017-01-17,1,0.0014777213173941045,0.0017555442000313937,-0.0017611791793687845,0.008798147939025544,0.9906072742546983
2017-01-19,1,0.0008762293229044086,0.0010382808332488535,-0.0008180243180538236,0.009839253695866147,0.9901399174843063
2017-01-23,1,0.0011104654893002238,0.001335117239700649,0.00012051971779259601,0.009839253695866147,0.9902803156082945
2017-01-25,1,0.0016142002181315502,0.0018950926122057047,-0.0008180243180538236,0.008860703867934224,0.9905804039154121
2017-01-27,1,0.0013968064083565463,0.0016605511401111188,0.00014620233973821646,0.009970061564258476,0.9902613463641476
2017-01-31,1,0.0018861714636042688,0.002252857913162866,0.00014620233973821646,0.008860703867934224,0.9911593136908589
2017-02-02,1,0.001765546218186366,0.0020434243471830586,-0.0005155144207324992,0.008798147939025544,0.9914129343453102
2017-02-06,1,0.00010197583626187076,0.0001381641133027838,-0.0005155144207324992,0.007484859272964989,0.9938152039649238
2017-02-08,1,0.0006777352182510197,0.0008098053828968436,-0.0005155144207324992,0.007587451731381817,0.9942708254162155
2017-02-10,1,0.0015615986729586445,0.0018152294116109348,-0.0005155144207324992,0.006004574925121149,0.9953865827179824
2017-02-14,1,0.0019506039817088596,0.0022790788668294436,-0.0009641518371796683,0.0060387724112600915,0.9950409150281495
2017-02-16,1,0.0027742512297422766,0.003220725729470757,-0.002535917085409645,0.003945429257056812,0.995444351967102
2017-02-21,1,0.002914961446681976,0.003384672700695184,-0.0032170266156705046,0.003945429257056812,0.9947858473307039
2017-02-23,1,0.002742283834584068,0.003155377453020647,-0.0032170266156705046,0.002745894828232195,0.9948568341913019
2017-02-27,1,0.003379553626530281,0.0038875373983015076,-0.0032170266156705046,0.0034140280594627042,0.9954147095878669
2017-03-01,1,0.00335534610144729,0.0038623985976713043,-0.002535917085409645,0.0028829969728704948,0.9956879005214656
2017-03-03,1,0.0034814316168161716,0.004034731553219729,-0.002535917085409645,0.0035832731208693056,0.9957132667346309
2017-03-07,1,0.0031177218170846685,0.0035885200814643158,-0.0031222795099185427,0.0041785638448072066,0.9956096364035926
2017-03-09,1,0.0032804835092165377,0.0037691067228428064,-0.0031222795099185427,0.0035832731208693056,0.995695128981669
2017-03-13,1,0.003401534843067631,0.0038977755325507405,-0.0037501969943441547,0.0033389889383285375,0.995223074793064
2017-03-15,1,0.0036175299518851384,0.004169527185286022,-0.0037501969943441547,0.0028181369841154607,0.9951254620690752
2017-03-17,1,0.00357133082755362,0.004126306815489823,-0.0037501969943441547,0.0029824399733735987,0.9953196662254195
2017-03-21,1,0.003135855693640598,0.0036252314894668408,-0.003358006105100709,0.0033389889383285375,0.9961683318393019
2017-03-23,1,0.0010992264617382963,0.0011095719967699742,-0.003358006105100709,0.0035832731208693056,0.9951402393750781
2017-03-27,1,0.0013158840223091084,0.0013774790283080797,-0.0037501969943441547,0.0035281063821249814,0.9929830307952422
2017-03-29,1,0.0010278857579785333,0.0010406562366665456,-0.0037501969943441547,0.004596803527369541,0.9926917847884292
2017-03-31,1,0.0006163702581861683,0.0006816592740960046,-0.003566082513464107,0.004751600803991693,0.9928326480516624
2017-04-04,1,0.0010721021831036335,0.0011080223906269103,-0.003305397905690504,0.003596141786289194,0.993253075899515
2017-04-06,1,0.0011044877827377305,0.0011408333918355306,-0.003305397905690504,0.004751600803991693,0.9928826869594448
2017-04-10,1,0.001037612683160326,0.0010786518258651787,-0.0025082093042124976,0.004751600803991693,0.9929514621659947
2017-04-12,1,0.0006835751639714832,0.0006981085276484825,-0.002566757930614138,0.004751600803991693,0.9929775693701043
2017-04-17,1,0.000400748554371308,0.00046410430344525375,-0.0025755212248306154,0.006386753231176908,0.9922729503019315
2017-04-19,1,0.000146927669157756,0.00025994148676577273,-0.0041570517775742066,0.006386753231176908,0.9915395707028879
2017-04-21,1,0.0005350215467268681,0.0005717833901587044,-0.0035043975944403193,0.006386753231176908,0.9926378614888975
2017-04-25,-1,-0.0005151798839894408,-0.0003542441280192683,-0.0035043975944403193,0.006306551418769239,0.9945748243276953
2017-04-27,-1,-0.0010361899694796208,-0.0007635612288888884,-0.0035043975944403193,0.006866758554396677,0.9942262103892013
2017-05-01,-1,-0.0006329555515276858,-0.00042058648557044933,-0.00434760176283901,0.006866758554396677,0.9936561854532981
2017-05-03,-1,-0.0006723748963949974,-0.0004668372439296703,-0.00434760176283901,0.007232196729223467,0.9925270808821977
2017-05-05,-1,-0.00017608900515908544,-4.075633539952605e-05,-0.006239887402414857,0.006866758554396677,0.9923843308136453
2017-05-09,0,-9.167181938849313e-05,1.5545202049823813e-05,-0.006239887402414857,0.007232196729223467,0.9918369576608503
2017-05-11,-1,-0.0007289483818658622,-0.0005183502804549206,-0.006239887402414857,0.007232196729223467,0.9917291164730134
2017-05-15,-1,-0.0008965739800360444,-0.0006686265194732733,-0.004517112409189962,0.006866758554396677,0.9923581531943003
2017-05-17,-1,-0.0015957009945269146,-0.0012899126048887305,-0.004333097208544854,0.006866758554396677,0.9929634191373286
2017-05-19,-1,-0.0012729731129003856,-0.0010007222088516288,-0.004333097208544854,0.006866758554396677,0.9931117688957547
2017-05-23,-1,-0.001388843242506345,-0.0010918077915521203,-0.004329215526948261,0.007957505523742438,0.9920450048934316
2017-05-25,-1,-0.0009255421004246838,-0.0006836380251241852,-0.004329215526948261,0.008482200421976208,0.9910324223650736
2017-05-30,-1,-0.0015406982796636727,-0.0012454204031826829,-0.0038742586878747517,0.008482200421976208,0.991076296352626
2017-06-01,-1,-0.0008703196832625855,-0.0006428907639103968,-0.004329215526948261,0.008482200421976208,0.9913992893866402
2017-06-05,-1,-0.0010436450906878263,-0.000827471683530167,-0.004329215526948261,0.009431573863222192,0.9905221401324071
2017-06-07,-1,-0.0005747314185912209,-0.00044317022004015764,-0.004461459372869538,0.011604739299230147,0.9899362881974703
2017-06-09,-1,-0.0006869666469668746,-0.0005330979924686844,-0.004064299976445211,0.011604739299230147,0.990148355182903
2017-06-13,-1,-0.000688106386927869,-0.0005174778907781975,-0.004064299976445211,0.011604739299230147,0.9902163171172498
2017-06-15,-1,-0.0010729709143262219,-0.0008533523006258464,-0.0002300857640898485,0.011604739299230147,0.9900414168181694
2017-06-19,-1,-0.00041414812989349974,-0.0002999986727341889,-0.0008493993165849974,0.011604739299230147,0.9906845473177087
2017-06-21,1,0.00028223917851272077,0.00033466869033063596,-0.0008493993165849974,0.009157676255294345,0.9914676712496113
2017-06-23,1,0.0013440150283570344,0.0014293504105670153,-0.0008493993165849974,0.007510509912321395,0.992965465874851
2017-06-27,1,0.0012592139447282378,0.0013588242224575621,-0.0008493993165849974,0.009191812604618809,0.992194626023628
2017-06-29,1,0.0006957439430765912,0.0007523158542294902,-0.0008493993165849974,0.007510509912321395,0.9928224797766755
2017-07-03,1,0.000674022066755134,0.0007177347045896522,-0.0008493993165849974,0.007510509912321395,0.9934652151809046
2017-07-06,1,0.0008705865728326323,0.0008916352403382205,-0.0008493993165849974,0.006642632966053831,0.9943821620876623
2017-07-10,1,0.000984309413959866,0.0010254979007620032,-0.0030303834451408315,0.006642632966053831,0.9937086079053404
2017-07-12,1,0.00146617561283438,0.0016072978835967706,-0.004083741757940923,0.006120372611206256,0.9937524975204337
2017-07-14,1,0.001597770368733686,0.001759548702601435,-0.005217739720178091,0.005121415957168973,0.9934089894499858
2017-07-18,1,0.0015853101977058484,0.0017498747428979276,-0.005217739720178091,0.005121415957168973,0.9936430464243992
2017-07-20,1,0.0022738048628002413,0.0025588654874937437,-0.00621989458931959,0.0022131076573530797,0.9932323099846715
2017-07-24,1,0.002541028879991373,0.0028566430827514032,-0.00621989458931959,0.0017100881142400027,0.9928293571100884
2017-07-26,1,0.002997039440072566,0.003363421382541195,-0.006790890641952651,0.0017100881142400027,0.9930579700162477
2017-07-28,1,0.0026672206954173345,0.002983154028654459,-0.005509396496993714,0.0020911683714171093,0.9937946577169892
2017-08-01,1,0.0027794300400490277,0.0031186267340733796,-0.005837154327833495,0.0019004981610219061,0.9936502549571773
2017-08-03,1,0.0028408582463121035,0.003197879561686416,-0.005837154327833495,0.0020911683714171093,0.9930535803942189
2017-08-07,1,0.0023475497837443155,0.002635771667133771,-0.0043866465002140795,0.0028792682498547844,0.9939057395094962
2017-08-09,1,0.0021086508946701874,0.002355342607566993,-0.0039540992710380436,0.004774474936067589,0.9937902193289322
2017-08-11,1,0.0015826740262572976,0.0017404198448586886,-0.003292893586628944,0.005279306270366054,0.9938833261413265
2017-08-15,1,0.0014711661185673516,0.0015988277999560007,-0.0039540992710380436,0.005279306270366054,0.9924937716577159
2017-08-17,1,0.0011213193046991222,0.0012102721309883901,-0.0039540992710380436,0.005279306270366054,0.9927276935982743
2017-08-21,1,0.0009606159582788822,0.0010339882626379116,-0.004366142200955749,0.005279306270366054,0.9927744783662511
2017-08-23,1,0.0009049260954943877,0.0009718989179105751,-0.003511429371720669,0.005279306270366054,0.9933621664177513
2017-08-25,1,0.0010198549478919845,0.0011019705727244276,-0.004366142200955749,0.006626500633790913,0.991710422126341
2017-08-29,1,0.0005940046624883658,0.0006282160853036114,-0.004366142200955749,0.006626500633790913,0.9918440319948838
2017-08-31,1,0.0011729072894106584,0.0012748187266133127,-0.004366142200955749,0.005454954308198477,0.992577870078587
2017-09-05,1,0.001027512537124561,0.001096258344878493,-0.004007254917709674,0.004411644464483043,0.9927328603602746
2017-09-07,1,0.001119435077098336,0.0011954207849020344,-0.004007254917709674,0.004411644464483043,0.992745660724599
2017-09-11,1,0.0012608594996254977,0.0013551760170048084,-0.006194238237704168,0.002868405984962816,0.9924827006027741
2017-09-13,1,0.00056219332118661,0.0005665455740467896,-0.003927591975128553,0.002868405984962816,0.9937827337680412
2017-09-15,-1,-0.0004737359214573477,-0.00028558713375383886,-0.003562264643688806,0.004135881903818345,0.9938873908329084
2017-09-19,-1,-0.0006559147799104663,-0.0004528019452765778,-0.003100461842278467,0.004135881903818345,0.9941143976659568
