JNU-Tangyin/eata/results/Batch4_SP500/Batch4_SP500-UEEC.csv
Date,Action,Predicted_Q25,Predicted_Q75,Actual_Q25,Actual_Q75,RL_Reward
2010-12-14,0,0.0,0.0,0.0,0.0,0.9863429717554381
2010-12-16,0,0.0,0.0,0.0,0.0,0.9863429444976796
2010-12-20,0,0.0,0.0,0.0,0.0,0.9767092418028999
2010-12-22,-1,-0.0013797804564883022,-0.0011894807177869637,0.0,0.0,0.9712954695524533
2010-12-27,-1,-0.0016944433782167519,-0.001378648642265024,-0.01923076592429854,0.0,0.9666601146179377
2010-12-29,-1,-0.0021996036706663736,-0.0019009162569525698,-0.08269229777289562,0.0,0.9619693073410797
2010-12-31,-1,-0.002169943510869737,-0.0019390167002020136,-0.03729510674575043,0.0,0.9601173292254824
2011-01-04,-1,-0.0017117101365465327,-0.0013991704274950952,-0.03729510674575043,0.0,0.9603346502474087
2011-01-06,-1,-0.00217557885144685,-0.0019283455838062214,-0.1,0.0,0.9557334370622973
2011-01-10,-1,-0.0035188403036164814,-0.0034799864815529304,-0.1,0.0,0.950705095737529
2011-01-12,-1,-0.003177965924643043,-0.0030473612788064768,-0.1,0.0,0.9481959597264364
2011-01-14,-1,-0.0034308083378864094,-0.0032892998362326446,-0.1,0.004999991431832343,0.942815083582374
2011-01-19,0,0.0,0.0,-0.1,0.017711834167503427,0.947503363331666
2011-01-21,0,0.0,0.0,-0.07857145708130306,0.017711834167503427,0.9492329835163169
2011-01-25,0,0.0,0.0,-0.06401096478827835,0.017711834167503427,0.9537596842696011
2011-01-27,0,0.0,0.0,-0.027679710888365096,0.03139340415374729,0.9553280653887046
2011-01-31,1,0.0012337459319132532,0.0014375280688731125,-0.015384604142614666,0.03139340415374729,0.9557997590810133
2011-02-02,1,0.0010372291418698555,0.0012179970715336056,-0.015384604142614666,0.03139340415374729,0.9558467039276649
2011-02-04,-1,-0.0018907757610518348,-0.0016366638373365144,-0.054858251203431824,0.03139340415374729,0.953138127303554
2011-02-08,-1,-0.0003861713309231215,-0.0003277699679727072,-0.01315788235360572,0.017711834167503427,0.962715783093697
2011-02-10,-1,-0.0034405619860332043,-0.0030236188100943424,0.0,0.017711834167503427,0.9688496895446883
2011-02-14,1,0.0010061531978139526,0.0011340163727216238,0.0,0.0,0.9730226646520767
2011-02-16,1,0.0017363711085712518,0.001958313688544105,0.0,0.0,0.9769937433346653
2011-02-18,1,0.0004447011618265521,0.0004473505597561378,0.0,0.0,0.9761891987545451
2011-02-23,1,0.00040224298298232436,0.0004049099103389354,0.0,0.0,0.9738833186152697
2011-02-25,1,0.0007718230670374633,0.0009051607762689713,0.0,0.0,0.9766558643321327
2011-03-01,1,0.0033350470094262387,0.003617561215726102,0.0,0.0,0.9790895813714905
2011-03-03,1,0.00449175333532864,0.0051135861735591304,0.0,0.0,0.9737279484115009
2011-03-07,1,0.00304549697918694,0.003340904645843857,0.0,0.0,0.9821990252008674
2011-03-09,1,0.002589521746884331,0.002819565397949853,0.0,0.0,0.9769647506235497
2011-03-11,1,0.0032779103733882415,0.003571365451205212,-0.00416665968174712,0.0,0.9752929826728006
2011-03-15,1,0.0021990184760502926,0.0023457074555613446,-0.00416665968174712,0.0,0.9779631477112611
2011-03-17,1,0.0020054502705659652,0.0021613104845127204,-0.00416665968174712,0.0,0.973558301285091
2011-03-21,0,-1.4818967940241298e-05,0.00020943900385006595,0.0,0.0,0.974915129732261
2011-03-23,1,0.00458784629148265,0.004909485409873604,-0.018452349966369803,0.0,0.9657347156275525
2011-03-25,1,0.0037107502351197835,0.00392790196106707,-0.023954685927630344,0.0,0.9580291290281301
2011-03-29,1,0.0032389577547948765,0.0034586168641749467,-0.02829272098285092,0.0,0.9564559736948617
2011-03-31,1,0.0037521201579518975,0.004028720014545746,-0.02829272098285092,0.0,0.959809056445837
2011-04-04,1,0.0045908878107371095,0.005081112159843871,-0.05000000745057985,0.005102051289341875,0.9543098270650401
2011-04-06,1,0.004054846127431256,0.004408460500563532,-0.05000000745057985,0.005102051289341875,0.9552958477983637
2011-04-08,1,0.004451156741536102,0.00480732014556644,-0.05000000745057985,0.005102051289341875,0.9562026248341381
2011-04-12,1,0.004137615536150167,0.004423946976957799,-0.05000000745057985,0.020514478308521843,0.9532928208184036
2011-04-14,1,0.004988944417236792,0.005327558761213021,-0.05000000745057985,0.020514478308521843,0.9529949531579814
2011-04-18,1,0.0053463270536872505,0.005707189202025636,-0.05000000745057985,0.005102051289341875,0.9569095621433933
2011-04-20,1,0.0026223808198945274,0.0026297300795013563,0.0,0.005102051289341875,0.9664450015796378
2011-04-25,1,0.004319575859429178,0.004536601348797067,0.0,0.0,0.9693249131551316
2011-04-27,1,0.004372238063376701,0.004581866165371015,0.0,0.0,0.971177685025111
2011-04-29,1,0.004081852152292817,0.004237195994276624,0.0,0.0,0.9719208380933898
2011-05-03,1,0.0005139253625235814,0.0008076589588552388,0.0,0.0,0.9752446718452018
2011-05-05,-1,-0.0005493131752608979,-0.00021572408838164026,0.0,0.0,0.9753139192552037
2011-05-09,1,0.0003144347033959024,0.0003368477668914249,0.0,0.0,0.9754310047234549
2011-05-11,1,0.0019221437275467876,0.0021266088274325334,0.0,0.0,0.9790846175220962
2011-05-13,1,0.003197032223183017,0.003574470970589965,0.0,0.0,0.9826685890281724
2011-05-17,1,0.003798931301807779,0.004250470509295924,0.0,0.0,0.982188786289998
2011-05-19,1,0.0036517555539683304,0.004105828119450843,0.0,0.0,0.9735445847787488
2011-05-23,1,0.003204377880736723,0.0035562980753832425,0.0,0.0,0.975378524662744
2011-05-25,1,0.0026140210941696996,0.0028509951824667538,0.0,0.0,0.9757115957301365
2011-05-27,1,0.0024480795258342456,0.002657107650596377,0.0,0.0,0.9758054116983236
2011-06-01,1,0.0048560830225503815,0.005301297126757194,0.0,0.0,0.9721496926884646
2011-06-03,1,0.005994635674136368,0.0065437578456917465,0.0,0.0,0.9756174066754727
2011-06-07,1,0.007162663275268546,0.008000993869414975,0.0,0.0,0.9734617355565941
2011-06-09,1,0.00847647353521036,0.009452758613442143,0.0,0.0,0.967873692591686
2011-06-13,1,0.007287554312108325,0.00817682120384109,0.0,0.0,0.9686606105210616
2011-06-15,1,0.006776193466923874,0.007420637595813402,-0.007142844978644126,0.0,0.9657658701858672
2011-06-17,1,0.008735248915145485,0.009584895203516264,-0.02053572884950903,0.0,0.9705507725927003
2011-06-21,1,0.006827718240978817,0.007307592503756559,-0.02053572884950903,0.0,0.9665001921346885
2011-06-23,1,0.006592762558917348,0.007268182851595062,-0.02053572884950903,0.0,0.9666389447093567
2011-06-27,1,0.0062636511104390445,0.0068563958372268065,-0.03809518918496409,0.0,0.9582410582620604
2011-06-29,1,0.0054958067591001965,0.005930142723599673,-0.02053572884950903,0.0,0.9649647338486146
2011-07-01,1,0.005492990563886406,0.005912797856306092,-0.02053572884950903,0.0,0.9649676731200173
2011-07-06,1,0.002972051290794444,0.003074325957406656,-0.030059538119896614,0.0,0.9633122388280112
2011-07-08,1,0.0030244992276868736,0.003195470131289087,-0.017622167001842114,0.0,0.9635724923250253
2011-07-12,1,0.003099923346527202,0.0033394617423858197,-0.030059538119896614,0.0,0.9589131007003777
2011-07-14,1,0.0008141856798510403,0.0008962992420964771,-0.017622167001842114,0.0,0.9594576051338952
2011-07-18,1,0.0008668768273042125,0.0009088780382627077,-0.024999994412064564,0.024390247226612382,0.9521040192177995
2011-07-20,1,0.0020633251449302934,0.0022763011165367166,-0.024999994412064564,0.0,0.955924064961182
2011-07-22,1,0.0026608588387392732,0.003074235474215574,-0.024999994412064564,0.024390247226612382,0.9513402342587401
2011-07-26,-1,-0.001131562998961231,-0.0008790172427522755,-0.025,0.024390247226612382,0.9521261404011423
2011-07-28,0,0.0,0.0,-0.025,0.1,0.9435047744628177
2011-08-01,-1,-0.0007461716161430511,-0.000638293065476155,-0.1,0.1,0.9388725888536803
2011-08-03,1,3.0310424013549694e-05,5.170704503838592e-05,-0.1,0.1,0.9346882472127577
2011-08-05,-1,-0.00011339916894540853,-0.00010245856102489935,-0.1,0.1,0.9346524783332715
2011-08-09,1,0.0007621988954194429,0.0008654201788422512,-0.025,0.1,0.9389771365290647
2011-08-11,-1,-2.7319713168024826e-05,-1.940003804257179e-05,-0.025,0.1,0.9434971599650223
2011-08-15,1,1.3400715684107545e-05,2.6710954375673427e-05,-0.025,0.1,0.947865377863839
2011-08-17,0,0.0,0.0,0.0,0.1,0.9480122289320106
2011-08-19,0,0.0,0.0,0.0,0.09758070330838067,0.9511948584021547
2011-08-23,0,0.0,0.0,0.0,0.04625235262804228,0.9603294628767595
2011-08-25,0,0.0,0.0,0.0,0.0,0.9649628742704802
2011-08-29,0,0.0,0.0,0.0,0.0,0.9696412131306487
2011-08-31,0,0.0,0.0,0.0,0.00735292828619402,0.9727853888530351
2011-09-02,-1,-0.001756228339875603,-0.0016177387961646675,0.0,0.0,0.9717042811352572
2011-09-07,-1,-0.00029109263029933894,-0.00028011646559504566,0.0,0.0,0.9725990230280421
2011-09-09,-1,-0.0016931505718786957,-0.0015427096021290482,0.0,0.00735292828619402,0.9670542640773145
2011-09-13,-1,-0.001638022154497572,-0.001415901056870896,0.0,0.02941171314477608,0.9702840467963681
2011-09-15,1,0.0009223525607268569,0.0010829350157278482,0.0,0.00735292828619402,0.9755661912379816
2011-09-19,-1,-0.0010687606707259069,-0.0009006687281401503,0.0,0.0,0.9766643865117617
2011-09-21,-1,-0.0017638780298432678,-0.0014926003913699956,0.0,0.00735292828619402,0.9714505790309884
2011-09-23,-1,-0.0018072495283556142,-0.001487015225635456,0.0,0.00735292828619402,0.9760023962975489
2011-09-27,-1,-0.00153482521708701,-0.0012850919180252874,0.0,0.00735292828619402,0.9694082008101099
2011-09-29,-1,-0.0012813953075813973,-0.001088950853679207,0.0,0.0,0.9711108589532651
2011-10-03,-1,-0.0022412990558264975,-0.0019640472603970277,0.0,0.0,0.9750388183312396
2011-10-05,-1,-0.002310611145261803,-0.002018720200604209,0.0,0.0,0.9749943082919501
2011-10-07,-1,-0.0008570441141431599,-0.0008017976440864523,0.0,0.0,0.973336900733467
2011-10-11,-1,-0.00048803049789694213,-0.00046189120880619106,0.0,0.0,0.974960479938147
2011-10-13,-1,-0.00046874915277669664,-0.000442452234959449,0.0,0.0,0.9749734022596946
2011-10-17,1,0.0002833246089543002,0.0004120859106258504,0.0,0.0,0.9750713500306202
2011-10-19,-1,-0.0009818969297765501,-0.0009504608428498123,0.0,0.0,0.9794079182628138
2011-10-21,-1,-0.000880399305211217,-0.0008618957273765076,0.0,0.0,0.9765638324957846
2011-10-25,-1,-0.0008228612074959677,-0.0006858961538459189,0.0,0.0,0.983710058261152
2011-10-27,1,0.0013049182091120633,0.0013630895722924988,0.0,0.0,0.9879695608975476
2011-10-31,1,0.003164406936170809,0.003598370718586959,0.0,0.0,0.9862108004365374
2011-11-02,1,0.003080253030677528,0.0034995597509884808,0.0,0.0,0.9862894603497069
2011-11-04,1,0.0020861086140797724,0.002371067339376222,0.0,0.0,0.9946749170664944
2011-11-08,1,0.003754116881743827,0.004321202339403839,0.0,0.0,0.9928882759968097
2011-11-10,1,0.00282944418708708,0.0031765114903245877,0.0,0.0,0.9939093423223271
2011-11-14,1,0.0028997196528242272,0.003200220447321207,0.0,0.0,0.984407064705136
2011-11-16,1,0.002651950343715856,0.0028928902889283725,0.0,0.0,0.9832634538702343
2011-11-18,1,0.0036642624767003725,0.0040446265266784595,0.0,0.0,0.9854783605450333
2011-11-22,1,0.0011754030056058465,0.0012209980042293645,0.0,0.0,0.9874845617950969
2011-11-25,1,0.0010814077297247697,0.0011058022460261952,0.0,0.0,0.9875622459170212
2011-11-29,1,0.0011897890920092912,0.0012417957809371096,0.0,0.0,0.9874720231060091
2011-12-01,1,0.0013499252926753638,0.00136652104571872,0.0,0.0,0.9778321179294105
2011-12-05,1,0.0013372626557614062,0.001367326610757548,0.0,0.0,0.9778395426530756
2011-12-07,1,0.0002760895860643538,0.00046174337818413085,0.0,0.0,0.9737737942064678
2011-12-09,-1,-0.00047706564226641,-0.00015108778337320316,0.0,0.0,0.9720762766156367
2011-12-13,1,0.0013076108036455514,0.0013142448864761809,0.0,0.0,0.9768537443870529
2011-12-15,1,0.0033874833515087632,0.00380108435772595,0.0,0.0,0.9726983390199536
2011-12-19,1,0.0014738137367797173,0.0015616510663949612,0.0,0.0,0.972469639295284
2011-12-21,1,0.001573883905349426,0.001677937811392442,-0.009615385993080972,0.0,0.9676971934865936
2011-12-23,1,0.0021757170762705027,0.002416863521732575,-0.009615385993080972,0.0,0.9672923843475021
2011-12-28,1,0.0029623037422884368,0.003282250664822151,-0.04884616095947565,0.0,0.962120714548328
2011-12-30,1,0.004996331662472577,0.005467617798262126,-0.04884616095947565,0.0,0.960793122509533
2012-01-04,1,0.004231068785122662,0.004588866928906439,-0.08500000894069822,0.0,0.956698082702257
2012-01-06,1,0.005144690024935228,0.005692143749472587,-0.04884616095947565,0.0,0.9566287946218502
2012-01-10,1,0.003755476361328635,0.004139848878635092,-0.08500000894069822,0.010000001490116386,0.9504168182674345
2012-01-12,1,0.0031062685361358854,0.003357358200352122,-0.025,0.051739138426200745,0.9500920951291317
2012-01-17,1,0.002337581414117714,0.0024158898707147746,-0.1,0.05500000447034916,0.9452545665965635
2012-01-19,1,0.0025247666525316354,0.0026798637959235955,-0.1,0.025,0.9422939779849989
2012-01-23,1,0.00043074892902714406,0.0005521528836480946,-0.1,0.025,0.9476896154531718
2012-01-25,-1,-0.0015428909533264335,-0.0010641304485380753,-0.1,0.06071429204981457,0.9454559874240296
2012-01-27,-1,-0.0016805762908172488,-0.0011865206894230886,-0.05909091486357067,0.06071429204981457,0.9478595043202667
2012-01-31,-1,-0.0010641784348034327,-0.0006331194302553285,-0.01136363828785689,0.06071429204981457,0.9524645424317629
2012-02-02,-1,-0.003274138984331189,-0.002629841722254146,0.0,0.1,0.9501568155450941
2012-02-06,-1,-0.002414695477644652,-0.001879578865663239,-0.006097573164245017,0.06071429204981457,0.9542116428607145
2012-02-08,-1,-0.000828811159213343,-0.0005741755236699309,0.0,0.030654802433661543,0.9638941431436073
2012-02-10,-1,-0.0028331932388492567,-0.002319185339427969,0.0,0.030654802433661543,0.9629312195836481
2012-02-14,-1,-0.002955322096262923,-0.002424126425549354,0.0,0.006250012805685562,0.9675314788386536
2012-02-16,-1,-0.004810023621809588,-0.004066767795578012,0.0,0.006250012805685562,0.9666170347012869
2012-02-21,-1,-0.00484913210768549,-0.0041004652969056435,0.0,0.006250012805685562,0.9665983302018084
2012-02-23,-1,-0.003680906561517889,-0.0031160808770046957,-0.006097573164245017,0.006250012805685562,0.960413176629007
2012-02-27,-1,-0.005976198754973903,-0.005018882658175261,-0.006097573164245017,0.006250012805685562,0.9605313836178123
2012-02-29,-1,-0.005347442219520276,-0.004462045311511165,-0.006097573164245017,0.0,0.9654164762127037
2012-03-02,-1,-0.0036694344943518425,-0.003060457159559007,-0.006097573164245017,0.0,0.9719007933525753
2012-03-06,-1,-0.002954136838464176,-0.0024453660755199315,0.0,0.0,0.9718356938644424
2012-03-08,-1,-0.0029632542627683104,-0.0024480961530536725,0.0,0.0,0.971834369043803
2012-03-12,-1,-0.002099780416237597,-0.0017184794982196402,0.0,0.0,0.9769927138254327
2012-03-14,-1,-0.0017216311380810923,-0.0013846617421366797,0.0,0.0,0.980776364205152
2012-03-16,-1,-0.0016275567707792593,-0.0013001298976065413,0.0,0.0,0.9854946549983415
2012-03-20,-1,-0.001931493170474096,-0.0015349594837333362,0.0,0.0,0.9853295608663765
2012-03-22,-1,-0.003155791635509938,-0.0027018650129705317,0.0,0.0,0.9939971514086647
2012-03-26,-1,-0.002808232150974339,-0.002449785530672319,0.0,0.0,0.9905233286632236
2012-03-28,-1,-0.0024007062283025,-0.0020910835777905824,0.0,0.0,0.9908150478421989
2012-03-30,-1,-0.0025056781741020634,-0.002188276356340747,0.0,0.0,0.9907371137550589
2012-04-03,-1,-0.000211084015686625,-0.0001998635892336828,0.0,0.0,0.9936286040191109
2012-04-05,-1,-7.988690923370456e-05,-4.6624598200746e-05,0.0,0.0,0.9888405892136171
2012-04-10,1,0.0018250005366173966,0.002109150363267452,0.0,0.0,0.9869553388883305
2012-04-12,1,0.0008121535077366156,0.0009630735920261817,0.0,0.0,0.9892296498602372
2012-04-16,1,0.0015228245951814223,0.001838554407617419,0.0,0.0,0.988454173710525
2012-04-18,1,0.0011698698208866655,0.0013769803692604806,0.0,0.0,0.981715189402865
2012-04-20,1,0.0011489298969445234,0.001355113574544195,0.0,0.0,0.981733665444263
2012-04-24,1,0.0014102030665495402,0.001650665461998213,0.0,0.0,0.9837824210379061
2012-04-26,1,0.001408344001612797,0.001648460854961426,0.0,0.0,0.9824417837216912
2012-04-30,1,0.0014052647026534175,0.0016450281362650203,0.0,0.0,0.982444578023744
2012-05-02,1,0.0014026234578812698,0.0016419615277653361,-0.006944432946634249,0.0,0.9776445960349984
2012-05-04,1,0.0015712481122856035,0.001846187822371108,0.0,0.0,0.982288533523357
2012-05-08,1,0.0010716460090047213,0.0013083055951966644,-0.006944432946634249,0.0,0.9733045849405314
2012-05-10,1,0.001654288206887216,0.0020130258004973454,-0.033333301168209595,0.0,0.9636624721259205
2012-05-14,1,0.001744029600940365,0.002090770949154344,-0.05065790430160336,0.0,0.9589846356297517
2012-05-16,1,0.0014110545557889178,0.0017153429020253567,-0.03399119615658557,0.0,0.965984432380255
2012-05-18,1,0.001458268971043097,0.0017704968823036096,-0.03399119615658557,0.0,0.9618971558810953
2012-05-22,1,0.0014067498330571303,0.0017104473039762141,-0.006944432946634249,0.0,0.9643723790938221
2012-05-24,1,0.0010883054991654352,0.0013749007934153157,0.0,0.0,0.9640680151802483
2012-05-29,1,0.0012136531820146814,0.001513613273035244,-0.025,0.0104166682835464,0.954934538021182
2012-05-31,1,0.001292295725749181,0.0015955417495318908,0.0,0.0104166682835464,0.9594801496976632
2012-06-04,1,0.0020915391908083152,0.002443630155620825,0.0,0.09318182972713791,0.9504434676398408
2012-06-06,1,0.0009076532577809367,0.001109469916458319,0.0,0.05397728142635184,0.9551618475170061
2012-06-08,-1,-0.00042783868973317925,-0.0003610782006611018,0.0,0.0104166682835464,0.9644252552883662
2012-06-12,0,-0.00011993347621639208,1.5581609065544065e-05,0.0,0.0104166682835464,0.9693246975803791
2012-06-14,-1,-0.0013235214121799892,-0.0011909337042597286,0.0,0.05397728142635184,0.9637537522733528
2012-06-18,-1,-0.00042481768582537476,-0.00040506415824325515,0.0,0.0104166682835464,0.9686059848701211
2012-06-20,-1,-0.0009678294353040443,-0.0009148687175770863,0.0,0.0104166682835464,0.9636435944911914
2012-06-22,1,0.00038622101613273953,0.0005531368916274131,0.0,0.0,0.9613299425318685
2012-06-26,-1,-0.0015000879202429918,-0.001326380034444075,0.0,0.0,0.9699860731119735
2012-06-28,-1,-0.0005714135765503758,-0.0005710312882089396,0.0,0.0,0.9704971269671704
2012-07-02,1,0.0018980269874316377,0.0022568414265198167,0.0,0.0,0.9786327197801166
2012-07-05,1,0.0005948865843788923,0.0007158032085907917,0.0,0.0,0.9846612243879529
2012-07-09,1,0.0005722579628698124,0.0006433273039153252,0.0,0.0,0.9751599758439761
2012-07-11,-1,-0.0007218451048792726,-0.0006133910529652422,0.0,0.0,0.9705307660126193
2012-07-13,1,0.001328776629867652,0.0014663411197131597,0.0,0.0,0.969845578489221
2012-07-17,1,0.0004386008360834723,0.0005543879638100441,-0.025,0.0,0.9658333955053314
2012-07-19,-1,-3.9066045923093475e-05,-3.311372028842792e-05,0.0,0.0,0.9661652327354685
2012-07-23,-1,-0.0010313165059132614,-0.0009303540534810606,0.0,0.0,0.9690471482208635
2012-07-25,1,0.000923702144797359,0.0010904353252558572,0.0,0.037980751300055085,0.9612046592071428
2012-07-27,1,0.0005205196623766571,0.0006709501363915083,0.0,0.08125004540197708,0.9561070829613266
2012-07-31,1,0.0005123651736670374,0.0006705534886127691,-0.0038461331256037646,0.08125004540197708,0.9547540925916778
2012-08-02,1,0.00029638745636803685,0.0006386184709170019,-0.0365383993768113,0.08125004540197708,0.9458301016147717
2012-08-06,1,0.00036194964030465487,0.0006883219936660915,-0.015384532502415059,0.08125004540197708,0.9503066824006889
2012-08-08,-1,-0.001554555334312857,-0.001521485474232235,-0.015384532502415059,0.1,0.9456284515087983
2012-08-10,-1,-0.001036505572268383,-0.0009270992644865503,-0.02153840086692716,0.08125004540197708,0.9486411866943174
2012-08-14,-1,-0.0028186495608226495,-0.002655747840011231,-0.015384532502415059,0.08125004540197708,0.9505672714494986
2012-08-16,-1,-0.003284724149508586,-0.0030385263670738172,-0.015384532502415059,0.05000001998462998,0.9549854766090157
2012-08-20,-1,-0.0031517352987745152,-0.0029521613580679924,-0.015384532502415059,0.08125003981404168,0.9516277751558879
2012-08-22,0,-5.133807464235431e-05,0.00014024639612117298,-0.02153840086692716,0.02213535416417327,0.9561306574438984
2012-08-24,-1,-0.002248351122910262,-0.002225975665963462,-0.0527272725794918,0.0039062286268758,0.956169486060845
2012-08-28,-1,-0.0014789499373404342,-0.0013725956495058325,-0.05844156015895692,0.0,0.9556697916769661
2012-08-30,-1,-0.005349209643909791,-0.005094223500283605,-0.010000001490115866,0.010416668283545873,0.9582950519282231
2012-09-04,-1,-0.0036599335414834048,-0.0034799217085601433,-0.041111116961195585,0.0,0.9619266094402392
2012-09-06,-1,-0.006025647082286326,-0.005593539339240542,-0.041111116961195585,0.0,0.966220168155522
2012-09-10,-1,-0.006680377599252403,-0.006175996149429579,-0.04523810148914819,0.0,0.9600613157548364
2012-09-12,-1,-0.00487143326239115,-0.004584496860667424,-0.04523810148914819,0.0249999944120646,0.9531880906349722
2012-09-14,-1,-0.00522796177854633,-0.004880591925896045,-0.053156165610865405,0.0249999944120646,0.9490680147256513
2012-09-18,-1,-0.003267692597022176,-0.003016339500298325,-0.06976749424421075,0.025,0.9451678311262404
2012-09-20,-1,-0.006246863181671975,-0.005662883073621932,-0.053156165610865405,0.025,0.9490134607047365
2012-09-24,-1,-0.006109326505709061,-0.005551953946810366,-0.04523810148914819,0.025,0.9530052501661217
2012-09-26,-1,-0.006869778055952369,-0.0061781714207198414,-0.02986108105871001,0.043750038417056686,0.9532863025909237
2012-09-28,-1,-0.002572821248684006,-0.002340470379519298,-0.05077521103359664,0.043750038417056686,0.9502770550045219
2012-10-02,-1,-0.003936236952525143,-0.0035941485439358674,-0.06976749424421075,0.043750038417056686,0.9474699311515993
2012-10-04,-1,-0.004991541306161962,-0.004538782501215309,-0.07107561253408554,0.043750038417056686,0.9476927853494302
2012-10-08,-1,-0.004319678621457475,-0.003931995290558816,-0.059290538514113734,0.04017859996220442,0.9492463111697386
2012-10-10,-1,-0.0024126255585664555,-0.0022782613547376084,-0.059290538514113734,0.006250012805685562,0.9554308996151109
2012-10-12,-1,-0.0029797186955279175,-0.002770429645379312,-0.05405406221758168,0.006250012805685562,0.9574198306095484
2012-10-16,-1,-0.005238343799168358,-0.004747593420692982,-0.05298720750444389,0.006250012805685562,0.9630673697691737
2012-10-18,-1,-0.0050631486107273315,-0.004606314097404465,-0.05405406221758168,0.006250012805685562,0.9610735820857875
2012-10-22,-1,-0.004842294659372282,-0.0043732957654202785,-0.05405406221758168,0.025694497233763564,0.9565449749556068
2012-10-24,-1,-0.0030738328551352632,-0.0029414603934578296,-0.05405406221758168,0.006944458816706879,0.9579825692438259
2012-10-26,-1,-0.004870577702706603,-0.004401104335899349,-0.05405406221758168,0.0,0.9581192699796697
2012-11-01,-1,-0.009035899597917773,-0.00810621495358237,-0.05405406221758168,0.0,0.9614021257309827
2012-11-05,-1,-0.008877345111218453,-0.007980203500669542,-0.05298720750444389,0.0,0.964091157189942
2012-11-07,-1,-0.0071849682204087615,-0.0065319224081314,-0.013157897316682824,0.006944458816706879,0.9611184692384024
2012-11-09,-1,-0.00658279269872384,-0.006071327478036144,-0.01351351555439542,0.0,0.9604079640189791
2012-11-13,-1,-0.007169493063220185,-0.0066054504763647425,0.0,0.014285716566503962,0.9573937418313341
2012-11-15,-1,-0.004973996489453505,-0.004742336681438738,0.0,0.0,0.9610398571640886
2012-11-19,-1,-0.008390245802148158,-0.007715500501882814,0.0,0.015957459878225982,0.9581780322857723
2012-11-21,-1,-0.009353354657765095,-0.008588344932015917,0.0,0.004999991431832343,0.9575642818986306
2012-11-26,-1,-0.0069675195471307835,-0.006622175800672172,0.0,0.004999991431832343,0.9586329992652006
2012-11-28,-1,-0.010614380537661599,-0.009726320532251448,0.0,0.03095743417372301,0.9575941433266695
2012-11-30,-1,-0.00753261459053131,-0.007023887413294223,0.0,0.051671751928040556,0.9571740690403039
2012-12-04,-1,-0.006880240042672648,-0.006468388927681359,0.0,0.051671751928040556,0.9540208291993216
2012-12-06,-1,-0.001871675685639284,-0.0015468492520136043,-0.006097573164245017,0.02124998710118259,0.9638320006988034
2012-12-10,-1,-0.005519571191209808,-0.00528624260234412,0.0,0.02124998710118259,0.9662190961910615
2012-12-12,-1,-0.003679952709801341,-0.0036790521603157766,0.0,0.004999991431832343,0.9718114439114554
2012-12-14,-1,-0.003675606937248829,-0.0035631652199841217,-0.006097573164245017,0.02124998710118259,0.9687546250642944
2012-12-18,-1,-0.0012929733876120642,-0.0009365920861969669,-0.030487843106040968,0.02124998710118259,0.9637767485299075
2012-12-20,-1,-0.0020113448411580954,-0.0017368859062529126,-0.006097573164245017,0.025000051222742247,0.9676412552131661
2012-12-24,1,0.0005357155748957848,0.0011650186248395775,-0.030487843106040968,0.025328999329643557,0.9605647704256307
2012-12-27,1,0.00038992020709111854,0.00102256768328113,-0.030487843106040968,0.025328999329643557,0.9612630335252993
2012-12-31,1,0.0007829190086261657,0.0015940127046006006,-0.04908537316822459,0.025328999329643557,0.9564325899302761
2013-01-03,1,0.000499136224505845,0.0011767860066414881,-0.030487843106040968,0.03037518271811993,0.9587807414452353
2013-01-07,1,0.00048000356025703164,0.0010952661347669963,-0.04908537316822459,0.03037518271811993,0.9571944068209343
2013-01-09,1,0.001504602230755137,0.002266083408248507,-0.04908537316822459,0.03037518271811993,0.9569569066879694
2013-01-11,1,0.0007595946841244625,0.0014333536415066348,-0.04908537316822459,0.048960346789651284,0.9531965699484205
2013-01-15,1,0.0016768673418404156,0.00238256129809521,-0.05494188054597322,0.048960346789651284,0.9524841760986978
2013-01-17,1,0.0010243219294799022,0.0018286014536707295,-0.012500002328306845,0.03037518271811993,0.9616953911609613
2013-01-22,1,0.001897110730870071,0.002575104321195862,-0.05494188054597322,0.010638299980359317,0.9571150390555992
2013-01-24,1,0.0026321135269001166,0.0035799225252852378,-0.029166702108663407,0.0,0.964308963166633
2013-01-28,1,0.00013209635393968404,0.0004101588277693252,-0.005555566593452187,0.0,0.9726842663757467
2013-01-30,-1,-0.0013375570589740518,-0.0010656830325495752,-0.005555566593452187,0.0,0.9747677278925114
2013-02-01,-1,-0.003141434080979638,-0.002994827369188369,-0.005555566593452187,0.0,0.9758568496800091
2013-02-05,-1,-0.004340292102013306,-0.004026000306976616,-0.005555566593452187,0.0,0.9751950727274175
2013-02-07,-1,-0.004247453716289323,-0.0040388244301764135,-0.02276427294460158,0.0,0.9696942563544811
2013-02-11,-1,-0.0033238660205276408,-0.0032574065825225294,-0.038700867630352194,0.0,0.9670656800232712
2013-02-13,-1,-0.001158369773771949,-0.0009224130305991443,-0.039721281037883485,0.0,0.9669140897327637
2013-02-15,-1,-0.005511163928908874,-0.005050510899587595,-0.039721281037883485,0.0,0.961184891933696
2013-02-20,-1,-0.006903405579152569,-0.00634080119750751,-0.031450616809417874,0.0,0.9584106692289548
2013-02-22,-1,-0.0036683937593669875,-0.0034532314966876764,-0.06090225349519691,0.0,0.955147111077414
2013-02-26,-1,-0.001127739596151335,-0.000778696984916291,-0.06090225349519691,0.014285716566503962,0.9513727309020599
2013-02-28,-1,-0.0005307561198488312,-0.00015233364309817144,-0.05870447587624282,0.06785714969951188,0.9480817847659798
2013-03-04,0,-8.014353596022018e-06,0.0004471711242878852,-0.05870447587624282,0.06785714969951188,0.9481129110810105
2013-03-06,-1,-0.0034006355442350923,-0.0033155442717272593,-0.031450616809417874,0.06785714969951188,0.9506968509847933
2013-03-08,-1,-0.005870014054908591,-0.00554206812121124,-0.05822368380097595,0.03455595214177685,0.9509557352928303
2013-03-12,-1,-0.005166957054747902,-0.0050165423121236365,-0.032894706528972605,0.006756745191757628,0.9570613729191136
2013-03-14,-1,-0.006011552416681757,-0.00568352018324815,-0.006578936404096593,0.06554054666318809,0.9538418240054387
2013-03-18,-1,-0.005500676731592723,-0.00525565831844086,-0.006578936404096593,0.06554054666318809,0.9540255652368802
2013-03-20,-1,-0.0037070023507887527,-0.003634846188690877,-0.006578936404096593,0.06554054666318809,0.952586916165357
2013-03-22,-1,-0.003830664873739127,-0.003760859269692844,-0.006578936404096593,0.06554054666318809,0.9516045066182486
2013-03-26,-1,-0.0030033750847372016,-0.002905500468898846,-0.03084792170313776,0.06554054666318809,0.9502567841569693
2013-03-28,-1,-0.002249938831152369,-0.002234965012202564,-0.006578936404096593,0.033783751129668915,0.9583337706659576
2013-04-02,-1,-0.0016752288305088628,-0.0016254104005445332,-0.04444444996339193,0.033783751129668915,0.9523302282817732
2013-04-04,-1,-0.0008071112382016086,-0.000549598891761712,-0.04444444996339193,0.06554054666318809,0.9460823468275448
2013-04-08,-1,-0.0008467057299921381,-0.000627933886470627,-0.03084792170313776,0.06554054666318809,0.9505638971217478
2013-04-10,-1,-0.0008882806505274126,-0.0006957787393176009,-0.011111112490847983,0.09575470305605221,0.9447062096382653
2013-04-12,1,0.0009143175942466428,0.0014676654808117827,-0.011111112490847983,0.09575470305605221,0.945605128912622
2013-04-16,-1,-0.0015772294671287995,-0.0014724930018984775,-0.04444444996339193,0.09534487074480198,0.9404711976830082
2013-04-18,-1,-0.003394825022970922,-0.0031763537119899976,-0.011111112490847983,0.06858487978453026,0.9485058991720539
2013-04-22,-1,-0.003630646402348898,-0.0033898490474195257,0.0,0.06858487978453026,0.9514959905997883
2013-04-24,-1,-0.0031936159231833417,-0.0028790307594258185,0.0,0.06285713112628055,0.9547981987085417
2013-04-26,-1,-0.004877072692559978,-0.0045118392723872665,0.0,0.07715635809998714,0.9468302747028509
2013-04-30,-1,-0.0066301531898105785,-0.0061054911269766395,0.0,0.09877050306624928,0.942130778404798
2013-05-02,-1,-0.001567478042291278,-0.0014024274373560263,0.0,0.1,0.9436280703469693
2013-05-06,-1,-0.0028324227313513955,-0.002717891703770623,0.0,0.1,0.937129285947088
2013-05-08,1,0.00010942444177380547,0.00045007358144286917,0.0,0.1,0.9390977320888761
2013-05-10,-1,-0.0005251986942302544,-0.0002568412203198761,0.0,0.1,0.9426434944254488
2013-05-14,1,0.0019178114801132028,0.0025668174278061576,0.0,0.1,0.9479660842558694
2013-05-16,-1,-0.0007929243292526066,-0.000573030124897717,0.0,0.1,0.9423159865682967
2013-05-20,-1,-0.0006667644498436543,-0.00030949739526965397,0.0,0.1,0.9397376512591927
2013-05-22,1,0.0029307199344752056,0.003719123396196641,-0.01388889578757432,0.1,0.9360261336734695
2013-05-24,1,0.0040240950958566075,0.005021348346910785,-0.01388889578757432,0.1,0.9343871437354454
2013-05-29,1,0.005308165416553018,0.006464076639927433,-0.022870883227768667,0.07338712235891326,0.9399180963828735
2013-05-31,1,0.006056246976638913,0.007285006093841131,-0.05595238826780244,0.05926917036116104,0.9452741322433983
2013-06-04,1,0.004388772037014644,0.0054291922091761705,-0.022870883227768667,0.05926917036116104,0.9487458729806287
2013-06-06,1,0.00924957088821741,0.010936400688726892,-0.05595238826780244,0.053362573061195594,0.9518376351447928
2013-06-10,1,0.008721596734932575,0.010337019211897405,-0.05595238826780244,0.04043061304944335,0.9521169196652529
2013-06-12,1,0.006517676162204344,0.007813956500780395,-0.05595238826780244,0.04043061304944335,0.9512739822141039
2013-06-14,1,0.007570196284429101,0.009105213640248504,-0.05595238826780244,0.039020021443897365,0.9513372721850433
2013-06-18,1,0.007069482149549895,0.008500774705326394,-0.03634450316553291,0.03281423250181772,0.9547867869872189
2013-06-20,1,0.00540808000780906,0.006595868698100448,-0.026010743594153563,0.04086210225245754,0.9584045979740057
2013-06-24,1,0.007763940642498747,0.009098584130721902,-0.028781485444437087,0.03079175852584339,0.9614868006915899
2013-06-26,1,0.007539417588266541,0.008815952094784679,-0.028781485444437087,0.03079175852584339,0.9612166652796964
2013-06-28,1,0.004578232785242404,0.00540765002488746,-0.029871294984495644,0.03079175852584339,0.9594810825898626
2013-07-02,1,0.006586629916253056,0.0076565853094408085,-0.037723179077206154,0.03281423250181772,0.9526765554893576
2013-07-05,1,0.006299847631860033,0.007411170459812567,-0.038143368259234395,0.04086210225245754,0.9508305813273826
2013-07-09,1,0.005640516495694326,0.006689872211494915,-0.05974265570940776,0.04086210225245754,0.9452715688368448
2013-07-11,1,0.003372660112786459,0.00398550779326499,-0.055090459842426234,0.03919350526004656,0.9509696783873582
2013-07-15,1,0.002947649079507944,0.003324344483307438,-0.05974265570940776,0.03079175852584339,0.9492455139694524
2013-07-17,1,0.003074239528978631,0.0036204995504167305,-0.05974265570940776,0.038856290936060967,0.9469879449252856
2013-07-19,1,0.005389600549757992,0.006233268490163856,-0.05974265570940776,0.02081100511002456,0.9518828122496621
2013-07-23,1,0.002552734090421695,0.0029885843656463165,-0.055090459842426234,0.038856290936060967,0.9538055721544773
2013-07-25,1,0.005829685156943736,0.006690891422421146,-0.05974265570940776,0.0229691367879959,0.9498162090819366
2013-07-29,1,0.003009436107687532,0.0032508941913832754,-0.06610572226855227,0.0229691367879959,0.9509902141106129
2013-07-31,1,0.002548324620490348,0.0026452369406293175,-0.06610572226855227,0.017666129199315195,0.9541571110215281
2013-08-02,-1,-0.0005160290167751279,-0.00020625973931456126,-0.07692306369719416,0.01111017071968988,0.9555530754207514
2013-08-06,-1,-0.0022123426692938226,-0.001650063822054596,-0.04342431867242723,0.023857016046445564,0.960322348793779
2013-08-08,-1,-0.003409736768121948,-0.0027417268173059433,-0.04342431867242723,0.03966553428683656,0.9565602193966632
2013-08-12,-1,-0.0043772902888090225,-0.0036353952773339176,-0.07595347472994549,0.03966553428683656,0.9539258882985145
2013-08-14,-1,-0.003411836956305113,-0.002701755908548405,-0.07692306369719416,0.03966553428683656,0.9495857380048591
2013-08-16,-1,-0.0042719082427218665,-0.0035415458341725263,-0.07692306369719416,0.03966553428683656,0.949364630413397
2013-08-20,-1,-0.0010546297638594515,-0.0007873203283873482,-0.07692306369719416,0.023857016046445564,0.9537475843351976
2013-08-22,-1,-0.0006430795412090966,-0.00044732162217387935,-0.0785256272257181,0.004807684041515681,0.9543400808078856
2013-08-26,-1,-0.001390711232144357,-0.001075601468683198,-0.07755603825846942,0.02324657741142297,0.956048589777429
2013-08-28,-1,-0.0026057680476570455,-0.002129737959009616,-0.05640758915965599,0.0359045397825263,0.9554209926794789
2013-08-30,-1,-0.005523249575086299,-0.004659175789922764,-0.012500006519257893,0.04145979372609231,0.9547608051662629
2013-09-04,-1,-0.002257106508945108,-0.0018634175988875253,-0.012500006519257893,0.05936006759333382,0.9535509901732034
2013-09-06,-1,-0.0008072791606051279,-0.0005191518424982481,-0.012500006519257893,0.07757870246915911,0.9505914203513524
2013-09-10,-1,-0.008192009846211098,-0.006949351522703803,0.0,0.07757870246915911,0.9505981881183744
2013-09-12,-1,-0.006462950184125522,-0.005327218111428462,0.0,0.07280223733364158,0.953052550934056
2013-09-16,-1,-0.006367732106855264,-0.00526733402392144,0.0,0.07280223733364158,0.9504531891218588
2013-09-18,-1,-0.008218249367855777,-0.0068105151640006625,-0.012500006519257893,0.07280223733364158,0.9476084014159861
2013-09-20,-1,-0.015369792406838553,-0.013011874129341327,-0.01315788235360572,0.07280223733364158,0.9448375799319685
2013-09-24,-1,-0.014284931435447006,-0.012241318775092953,-0.05469103653420934,0.07757870246915911,0.9408233078355169
2013-09-26,-1,-0.011592356463032829,-0.009864439701708222,-0.05469103653420934,0.07280223733364158,0.9474939908211043
2013-09-30,-1,-0.009652977549848204,-0.008318868670201924,-0.05469103653420934,0.06938389010602042,0.9516389417646169
2013-10-02,-1,-0.0058902905783799215,-0.0049861314404685735,-0.06103677256279121,0.03106444418364789,0.9532774230556622
2013-10-04,-1,-0.0020851975373352405,-0.0016774751588340016,-0.06103677256279121,0.0,0.9592587541326397
2013-10-08,-1,-0.0053675910649524615,-0.004499974161735319,-0.06103677256279121,0.0,0.9606819459749766
2013-10-10,-1,-0.0033181817471085134,-0.002674922855013455,-0.05469103653420934,0.0,0.9648406236307445
2013-10-14,-1,-0.003276238320457335,-0.0027723071726989228,-0.0506579019113794,0.0,0.966816113849317
2013-10-16,-1,-0.003903408583711327,-0.003379997008855269,-0.0506579019113794,0.0,0.9633976149315359
2013-10-18,-1,-0.0036079889091678715,-0.003209375591135332,-0.04354274898276696,0.019265199760678434,0.9626966265425441
2013-10-22,-1,-0.003859100881213771,-0.003520977312841236,-0.04354274898276696,0.019265199760678434,0.9655555996939473
2013-10-24,-1,-0.0038251764350565394,-0.003336632716163325,-0.046788476386621376,0.028628992369484338,0.9576622243702306
2013-10-28,-1,-0.0006648881583698758,-0.0004322517195801364,-0.046788476386621376,0.05336258097270847,0.9495650928615542
2013-10-30,-1,-0.0026555869038688167,-0.002637422080439538,-0.04354274898276696,0.05336258097270847,0.9518968153959265
2013-11-01,-1,-0.004244878838139007,-0.003971633178108852,-0.036500325210682166,0.05336258097270847,0.951611706234479
2013-11-05,-1,-0.0041837445597369075,-0.00393728545760114,-0.028754950141412258,0.061666628254786846,0.9467778581627979
2013-11-07,-1,-0.0035957384445244253,-0.003423661942035007,-0.028754950141412258,0.0850000089406967,0.9453111548575265
2013-11-11,-1,-0.002616576709006292,-0.002414909147502982,-0.03748995353351151,0.09117647252177721,0.9384208238950487
2013-11-13,-1,-0.0028784649143773645,-0.002877562829778496,-0.026891018685446938,0.09117647252177721,0.9418328404816589
2013-11-15,-1,-0.001008248661516135,-0.000739632906668721,-0.030679483942352676,0.08205883311462243,0.94452158295554
2013-11-19,-1,-0.000932746402598765,-0.000757290769039068,-0.027623184764619602,0.08205883311462243,0.9474145336687163
2013-11-21,-1,-0.001670241069163796,-0.0014598761203208927,-0.026891018685446938,0.05487132155458055,0.9539589120758976
2013-11-25,1,0.0023319266065557134,0.0030067666870716315,-0.027413101130341556,0.033664749276641474,0.9592569218059349
2013-11-27,1,0.002931311373556027,0.003616222342752863,-0.027413101130341556,0.033664749276641474,0.9589432373762095
2013-12-02,1,0.001910393816379768,0.0024276348952531283,-0.026493573756342183,0.033664749276641474,0.9595339818207727
2013-12-04,1,0.0057796689167068874,0.006893555326372359,-0.027413101130341556,0.028186246724095147,0.9606500234664879
2013-12-06,1,0.007168564150503919,0.008524549438055435,-0.027413101130341556,0.028186246724095147,0.9623499862002927
2013-12-10,1,0.006834660240419515,0.008279795971728822,-0.026493573756342183,0.0277777501830364,0.9707736796526386
2013-12-12,1,0.005404370414192818,0.006500726254550437,-0.023919952886445776,0.0287815493065575,0.97150887515707
2013-12-16,1,0.008509673643789347,0.010339594260040132,-0.0013811977306766837,0.0287815493065575,0.9764425351818998
2013-12-18,1,0.008390707362991546,0.010105359298272129,-0.009923930428577726,0.027976184377190516,0.9750884855632541
2013-12-20,1,0.008609741401296594,0.01040828095897916,-0.023919952886445776,0.027976184377190516,0.9718962721115129
2013-12-24,1,0.007731971501885608,0.00919789259636341,-0.023919952886445776,0.027976184377190516,0.9736298735788123
2013-12-27,1,0.006144758346443192,0.007424804353125539,-0.027089757617226057,0.027413122417714673,0.9721281036141782
2013-12-31,1,0.00379343834663496,0.004677359608078798,-0.024693945796460833,0.0287815493065575,0.9738450875913497
2014-01-03,1,0.0014935554554051883,0.001868583330840448,-0.024693945796460833,0.029634552310372392,0.9736304485614791
2014-01-07,1,0.002848053403621125,0.003531536401280493,-0.0073529340868178075,0.029634552310372392,0.9753602279708229
2014-01-09,1,0.0031025237234187184,0.0037200398086824618,-0.03178104379899487,0.030303000199675387,0.9709445331394626
2014-01-13,1,0.006498643209073144,0.007755270970222895,-0.03315971971066812,0.030303000199675387,0.9703902301183274
2014-01-15,1,0.005241382167251671,0.00631866587596723,-0.03315971971066812,0.030303000199675387,0.9704932886722198
2014-01-17,1,0.00386658463705436,0.004678436040272365,-0.029871294984495644,0.030539766156863605,0.9714010026529207
2014-01-22,1,0.002909921254888817,0.0035494738376391907,-0.02941173634727123,0.030303000199675387,0.9731305920564384
2014-01-24,1,0.0038038103595164985,0.004430754260911418,-0.030539810606346952,0.030303000199675387,0.9696074780773524
2014-01-28,1,0.005230353898093789,0.006083861588153048,-0.029634574887888333,0.030539766156863605,0.9713400540307285
2014-01-30,1,0.007090570602021433,0.008294907074839705,-0.029634574887888333,0.030539766156863605,0.9684142811702944
2014-02-03,1,0.004223548450720354,0.004750023748744518,-0.0073529340868178075,0.031502056397408044,0.9700845783673793
2014-02-05,1,0.002474079757009917,0.0028189572292547883,-0.029634574887888333,0.030539766156863605,0.9684814351599133
2014-02-07,1,0.0002981963688375079,0.00033646861863366895,-0.0073529340868178075,0.0258684013971019,0.9728982956438581
2014-02-11,-1,-0.002209818605183076,-0.001802440202953637,0.0,0.0258684013971019,0.9725439338703045
2014-02-13,-1,-0.005316259755734278,-0.004405770291087171,-0.020358676718947092,0.0258684013971019,0.9674867305533286
2014-02-18,-1,-0.006751823914190452,-0.005640356578571796,-0.020358676718947092,0.031347957523313714,0.9653318933958024
2014-02-20,-1,-0.00480986192397106,-0.004071788054849184,-0.004335247544043095,0.02691335872074023,0.9672818474564027
2014-02-24,-1,-0.007724392910451949,-0.006568539019443853,0.0,0.034482829494228706,0.963654189490489
2014-02-26,-1,-0.004201830340077107,-0.003664991663333446,-0.004335247544043095,0.02691335872074023,0.963118741823914
2014-02-28,-1,-0.0004771241151769575,-0.00031150511096202235,-0.03808242091583527,0.018413378853978132,0.965561788283967
2014-03-04,-1,-0.0022716229231163525,-0.0020418795863485066,-0.04450112672151364,0.018413378853978132,0.9647482507518492
2014-03-06,-1,-0.003031137819570771,-0.0028800064364454363,-0.034397602106240724,0.022951874944987023,0.9638994849472394
2014-03-10,-1,-0.0047269979517135415,-0.004292344755790295,-0.04227889594492139,0.022951874944987023,0.961858522213199
2014-03-12,-1,-0.005781975102103581,-0.005162760859135662,-0.04227889594492139,0.022951874944987023,0.9613156002355685
2014-03-14,-1,-0.007265665623585783,-0.006369963690047057,-0.034397602106240724,0.036500414933767794,0.962538231272766
2014-03-18,-1,-0.006493443871916358,-0.005731365273461606,-0.04999999999999975,0.018413378853978132,0.9593279861116941
2014-03-20,-1,-0.007279744161896011,-0.006553620388942467,-0.06021740437455281,0.004545440998944951,0.9567376337202741
2014-03-24,-1,-0.008949749108877216,-0.008045168281765516,-0.05071425773659391,0.0,0.9618795478540113
2014-03-26,-1,-0.010243312271108824,-0.009024701140155092,-0.04690474595612633,0.0,0.963940806940085
2014-03-28,-1,-0.01335657220069466,-0.011729492963026208,-0.04291663590715089,0.03383415781779738,0.9624195353456392
2014-04-01,-1,-0.012535869323197325,-0.010987641285685967,-0.04291663590715089,0.007731955001567038,0.9650957028254818
2014-04-03,-1,-0.010415281985921222,-0.00910342998739151,-0.04291663590715089,0.020092542154888895,0.9658586538560878
2014-04-07,-1,-0.012281054879036898,-0.01085729808815256,-0.032916646348312734,0.028186491219855704,0.9649904756432868
2014-04-09,-1,-0.015913347355491634,-0.013947446313356279,-0.032916646348312734,0.03189151844619877,0.9624567329751897
2014-04-11,-1,-0.014770482964716268,-0.013027086567236671,-0.04315472181934894,0.03189151844619877,0.9593305363199461
2014-04-15,-1,-0.01628961981422384,-0.01446519514394529,-0.02833337147386658,0.04315478612495753,0.9567375383984458
2014-04-17,-1,-0.01772373763722035,-0.015620792837278073,-0.006944458337630736,0.048214293880781606,0.9521142558077592
2014-04-22,-1,-0.015005865921061267,-0.013462034304883885,0.0,0.048214293880781606,0.9528137748483929
2014-04-24,-1,-0.014586524267723236,-0.013108909052688973,0.0,0.048214293880781606,0.953823906282062
2014-04-28,-1,-0.014624137512859604,-0.013078464419073045,0.0,0.03650363281192604,0.9563715523125814
2014-04-30,-1,-0.012998224558173708,-0.011867971538836907,-0.010937499126885153,0.04645272560735436,0.9500294146356
2014-05-02,-1,-0.010191642731781726,-0.009498550671613027,-0.04947917232574465,0.04645272560735436,0.9487002776483393
2014-05-06,-1,-0.008969720201418816,-0.008392029717578695,-0.04947917232574465,0.04645272560735436,0.950677395519428
2014-05-08,-1,-0.010204771385750797,-0.009466001606040575,-0.06797386910897513,0.029533875716484997,0.9492959612410081
2014-05-12,-1,-0.01338716537872632,-0.012304625550423056,-0.05078634165436303,0.05091701413303011,0.9485853826730495
2014-05-14,-1,-0.007948578713582895,-0.007529868419033775,-0.05078634165436303,0.026235936234088167,0.9522031508880591
2014-05-16,-1,-0.007936243166313662,-0.007552041686241888,-0.030005286908084766,0.03776689078332985,0.953846872190166
2014-05-20,-1,-0.006208919536387347,-0.00600006633258202,-0.030005286908084766,0.03776689078332985,0.9523991212554086
2014-05-22,-1,-0.006449065246991074,-0.006238855051099277,-0.024648648753135462,0.0402067138078269,0.9515086639969884
2014-05-27,-1,-0.008555665499432265,-0.008071680661172014,-0.024648648753135462,0.0402067138078269,0.9512541712303235
2014-05-29,-1,-0.009284064837603991,-0.008594998753270971,-0.02427942747008908,0.035296103835727725,0.9585406074546758
2014-06-02,-1,-0.010082707227053117,-0.009368015005889596,-0.024648648753135462,0.035296103835727725,0.9598682656462327
2014-06-04,-1,-0.00890181598064298,-0.008373093399209584,-0.026626069382913994,0.03721173189809197,0.9549702960327502
2014-06-06,-1,-0.008301419973157632,-0.007910796944726763,-0.026626069382913994,0.0402067138078269,0.9522048683719035
2014-06-10,-1,-0.006072293410769039,-0.0059442301499601875,-0.026626069382913994,0.03512137218168346,0.9594078260800631
2014-06-12,-1,-0.006580568361042584,-0.006397241104500944,-0.03741139568923022,0.03512137218168346,0.9558330364258322
2014-06-16,-1,-0.005150691782015258,-0.005038906592599378,-0.0543147719003339,0.034259225225744684,0.9533455155612198
2014-06-18,-1,-0.002004943975594363,-0.0013788993688657494,-0.06848356489654514,0.009259250061011925,0.9530073088510096
2014-06-20,-1,-0.000747414118465368,-8.97976886519423e-05,-0.07236628299007593,0.009259250061011925,0.9475773688939209
2014-06-24,0,-5.7425741436809355e-06,0.0009035179487438577,-0.08275990814886412,0.009259250061011925,0.9459679294014703
2014-06-26,1,0.0002853688180045502,0.0011279697992115437,-0.08275990814886412,0.04804801092918924,0.937862993671178
2014-06-30,-1,-0.0010419799791820071,-0.0004331455052638089,-0.08749998835846742,0.061936886020708085,0.9357284927120962
2014-07-02,-1,-0.0016134255086071264,-0.0011218574457717294,-0.08275990814886412,0.061936886020708085,0.9415883016724744
2014-07-07,1,0.002075910332882959,0.003031923629529156,-0.08275990814886412,0.061936886020708085,0.9431548389029342
2014-07-09,1,0.0025709180946494456,0.0036218995124669496,-0.08522725646761158,0.061936886020708085,0.9389744038394251
2014-07-11,1,0.002799894118164738,0.0036796161419227367,-0.08522725646761158,0.061936886020708085,0.9388571100648642
2014-07-15,1,0.004163301499582767,0.005167747061200911,-0.08522725646761158,0.06666661968661915,0.9375709710110319
2014-07-17,1,0.0013410713569911518,0.001926388279819471,-0.0846538468051858,0.09166660726898476,0.9383442188879426
2014-07-21,1,8.30417406748839e-05,0.0005609302397672942,-0.09318180432743245,0.09166660726898476,0.9378782390914581
2014-07-23,-1,-0.0016886617941842053,-0.0015746929014075275,-0.08409087676400949,0.09999997764825815,0.9363064269783133
2014-07-25,-1,-0.0007423970158352279,-0.0006876977369620972,-0.09318180432743245,0.09166660726898476,0.9367281590877209
2014-07-29,-1,-0.001604524230718218,-0.0015201082437899852,-0.06022728766691783,0.09999998323619361,0.93683639281407
2014-07-31,-1,-0.0014645843452169723,-0.0014027914478412528,-0.09318180432743245,0.09999998323619361,0.9306646846655852
2014-08-04,1,9.542023440190292e-05,0.00025594914095628934,-0.09318180432743245,0.09166660726898476,0.9324630237059677
2014-08-06,-1,-0.0018756590360106207,-0.001703878828462862,-0.06250001955777368,0.09166660726898476,0.9363133051136409
2014-08-08,-1,-0.0011088966852549603,-0.0010839934086208699,-0.04821425928879826,0.07867381008199974,0.9402515591061663
2014-08-12,-1,-0.0007923381329856114,-0.0007686505202762417,-0.04821425928879826,0.06293487219344321,0.9446312236972189
2014-08-14,1,0.0004912318591523457,0.0007328748245236282,-0.04821425928879826,0.06293487219344321,0.9456705677943154
2014-08-18,1,0.00018305961106431288,0.00034222090665129897,-0.0466269908711922,0.05637251536166239,0.9525602832199433
2014-08-20,1,0.0005322282490098692,0.0006664829798427498,-0.0466269908711922,0.05336258097270847,0.9574286687077485
2014-08-22,1,0.00028911875466398245,0.00039533857202792054,-0.0466269908711922,0.05263160784158702,0.9624917809684091
2014-08-26,1,0.0014788147951102148,0.0017986463464041973,-0.0466269908711922,0.027720984000837664,0.9649775196776823
2014-08-28,-1,-0.0007675781016493825,-0.0007569732273008274,0.0,0.027720984000837664,0.9717908762510302
2014-09-02,-1,-0.00025965162881092635,-0.00024022141394699204,-0.010101011811428062,0.027720984000837664,0.9688363026696876
2014-09-04,1,0.0003208520340460235,0.00048233619258028455,-0.010101011811428062,0.04473685490127428,0.9665429732788182
2014-09-08,1,0.0004896855424531327,0.0005182583969164316,-0.010101011811428062,0.022063078501415007,0.9700862925773561
2014-09-10,-1,-0.00045750344051531807,-0.0002885670765557392,-0.010101011811428062,0.012430133649666088,0.9712306720709245
2014-09-12,0,-3.603196483058799e-05,0.00014719501124776067,-0.04187711541695488,0.012430133649666088,0.9695590406738335
2014-09-16,-1,-0.0009802826098781804,-0.0006802311403972653,-0.010101011811428062,0.012430133649666088,0.971393939071183
2014-09-18,1,0.00013707944895781647,0.00022850313253740202,-0.042207786357464305,0.015075769430493215,0.9659405455629209
2014-09-22,-1,-0.000685445505685124,-0.0004986656008331978,-0.032601001194351185,0.015075769430493215,0.9674948617162381
2014-09-24,-1,-0.0016842440781298863,-0.0014118126730907894,-0.03023196358701687,0.015075769430493215,0.9699432661808369
2014-09-26,-1,-0.0013053971992315755,-0.0011080561368128792,-0.03023196358701687,0.03302630702988146,0.965556616943587
2014-09-30,-1,-0.0002483900712180833,-0.0002035254717507241,-0.03023196358701687,0.015075769430493215,0.9695764892537424
2014-10-02,1,0.0006450940837643744,0.0007383200111926743,-0.032904662056508244,0.015075769430493215,0.962526209728527
2014-10-06,1,0.00211590756865515,0.002526635333821532,-0.032904662056508244,0.024242431357763397,0.9588240627587956
2014-10-08,1,0.0009114656292691398,0.0011309954487955496,-0.032904662056508244,0.04791667585054349,0.9591421305213768
2014-10-10,1,0.001240831511436136,0.0015185531616547865,-0.032904662056508244,0.017992445456952187,0.9605889805417385
2014-10-14,1,0.0008774706084722479,0.0010668868464186617,-0.0391262236970992,0.043750005355105856,0.9543393809385604
2014-10-16,1,0.000922957270244567,0.0010734364463924476,-0.032904662056508244,0.0318452880112791,0.9582025019312457
2014-10-20,1,0.0004750425177494241,0.0005526448258925829,-0.032904662056508244,0.0318452880112791,0.9584185488634034
2014-10-22,-1,-0.0002762723570477649,-0.00021681721787472944,-0.0391262236970992,0.0318452880112791,0.9564575381578001
2014-10-24,1,0.000471970777917876,0.0004891343483836574,-0.04515152440309804,0.028571487365128042,0.9575258347261602
2014-10-28,-1,-0.00042113677702613973,-0.0002745504539293291,-0.04515152440309804,0.0318452880112791,0.955534724154614
2014-10-30,1,0.000460287878318458,0.0005034557506016773,-0.04515152440309804,0.028571487365128042,0.9614513787373677
2014-11-03,1,0.0017618173886672578,0.002019193861095712,-0.04515152440309804,0.03142861701396213,0.9616772113564338
2014-11-05,1,0.0023692925506974237,0.0027717891967341405,-0.06261138624237511,0.028571487365128042,0.96066076398236
2014-11-07,1,0.0016804316990337547,0.0020148913740953463,-0.06261138624237511,0.03142861701396213,0.9573677666772186
2014-11-11,1,0.0012715937917723362,0.0015472341140763811,-0.03598488332273565,0.028571487365128042,0.9637852961184769
2014-11-13,-1,-0.0036491508745315577,-0.003087175267119758,-0.023046261250156956,0.04288658973878423,0.9589696903472043
2014-11-17,-1,-0.0039019530337918115,-0.0033298283757369844,-0.06261138624237511,0.04288658973878423,0.9559771898075912
2014-11-19,-1,-0.0019701937623169243,-0.0016567861194852096,-0.023046261250156956,0.04288658973878423,0.9594109716159701
2014-11-21,-1,-0.0031041125364932648,-0.002642333643949713,-0.0026315843134378353,0.04288658973878423,0.96187485665977
2014-11-25,-1,-0.0034291425533241908,-0.0029343862943335235,-0.0026315843134378353,0.010000001490116098,0.966170415454929
2014-11-28,-1,-7.507486786658505e-05,-5.2979699442177105e-05,-0.0026315843134378353,0.010000001490116098,0.9659871735311435
2014-12-02,1,0.0009798333384289882,0.0011470054667459498,-0.0026315843134378353,0.0,0.9651230573012971
2014-12-04,-1,-0.00026027576182167315,-0.00025097305221734296,0.0,0.0,0.9653883561350588
2014-12-08,-1,-0.001377163429800124,-0.0011827578868313596,0.0,0.0,0.9673239793042754
2014-12-10,-1,-0.0013901151192759948,-0.0012018747734892257,0.0,0.0,0.9673130341083732
2014-12-12,-1,-0.00014303130601050535,-3.358675610182785e-05,-0.0025000050291417936,0.0,0.9661402584383579
2014-12-16,-1,-0.0012611529262045412,-0.0010407515087666437,-0.0025000050291417936,0.0,0.9625521849575706
2014-12-18,-1,-0.0016356888385681448,-0.0013442128118358629,-0.012500025145709175,0.013157901960396755,0.9592188714709641
2014-12-22,-1,-0.0016942772145807014,-0.0013940819770524536,-0.012500025145709175,0.028464055828423228,0.9582645300045287
2014-12-24,-1,-0.0009225313404787283,-0.0007735032903974712,-0.03500003315508362,0.028464055828423228,0.954880686519751
2014-12-29,-1,-0.0031070719502488487,-0.002638986633598798,-0.02043480354074283,0.028464055828423228,0.9580444509294995
2014-12-31,-1,-0.001912940596274881,-0.0015776584565462292,-0.02185988669112652,0.005102051289342158,0.9620509836774289
2015-01-05,-1,-0.003501359363985759,-0.0029740785616765206,-0.02185988669112652,0.013925598489690728,0.9643757602005669
2015-01-07,-1,-0.0015816788047314594,-0.0013303813195733483,-0.025189423204643506,0.013925598489690728,0.9649466970213282
2015-01-09,-1,-0.0018248188099911828,-0.0015348383124771056,-0.026169817824982494,0.013925598489690728,0.9639894056111235
2015-01-13,-1,-0.0010024250893687177,-0.0008679347193619114,-0.02254906458058841,0.011940644054716069,0.9717132388227292
2015-01-15,-1,-0.0019146955810169007,-0.0016509179361139641,-0.02185988669112652,0.011940644054716069,0.976591100712592
2015-01-20,-1,-0.0007348834888589041,-0.0006562194995935798,-0.02254906458058841,0.011940644054716069,0.9731696658224288
2015-01-22,-1,-0.002098800000621461,-0.0017160275135568405,-0.02254906458058841,0.011940644054716069,0.9711484212919264
2015-01-26,-1,-0.003252341514713197,-0.002786142357515174,-0.02254906458058841,0.011940644054716069,0.9720250299423764
2015-01-28,-1,-0.0037531671186040922,-0.0032278968225761635,-0.02254906458058841,0.011940644054716069,0.9725974198644731
2015-01-30,-1,-0.002831813516291921,-0.0025299798830014817,-0.00588236480023185,0.014918506121266986,0.9724813938552482
2015-02-03,-1,-0.0032337117955873037,-0.002891992926259585,-0.00588236480023185,0.023819857662281414,0.9700613823061865
2015-02-05,-1,-0.0021462161357934887,-0.0020206806839882996,0.0,0.014918506121266986,0.9744946512709586
2015-02-09,-1,-0.0030874679156366255,-0.0028088726221138375,0.0,0.023819857662281414,0.973176062967939
2015-02-11,-1,-0.0021608193863428345,-0.002018631931141317,0.0,0.033620694955923444,0.9716358567299995
2015-02-13,-1,-0.0013250727611535883,-0.001236279732363595,-0.008064512252559695,0.026851816200126187,0.9694723157990602
2015-02-18,-1,-0.003568152608915101,-0.003120723205714162,0.0,0.026851816200126187,0.9708158802856909
2015-02-20,-1,-0.002198427755446532,-0.0019119025682110744,0.0,0.024465480349183895,0.9742781849901755
2015-02-24,-1,-0.002626597306758102,-0.002344387481096254,0.0,0.024465480349183895,0.9756155831256079
2015-02-26,-1,-0.0017735146570796553,-0.0016486173111064874,0.0,0.024465480349183895,0.976007575227263
2015-03-02,-1,-0.0007516744192565528,-0.0007179365832471848,0.0,0.024465480349183895,0.9765748415830204
2015-03-04,-1,-0.002353820296529781,-0.002117361185373064,0.0,0.026625980541304686,0.9750905736768566
2015-03-06,-1,-0.0018506906574678947,-0.0016895695590169546,0.0,0.026625980541304686,0.9759054352460803
2015-03-10,-1,-0.0010178608084163334,-0.0009572593934417889,0.0,0.023143039630478757,0.9769640101142751
2015-03-12,1,0.0008624105663274803,0.0011075761182387487,0.0,0.0223484674193275,0.978921594659828
2015-03-16,-1,-0.001844704118348129,-0.0017170549440502164,0.0,0.0223484674193275,0.98132225419527
2015-03-18,-1,-7.08146511672817e-05,-1.2066025745615386e-05,0.0,0.005555545897396066,0.9844254402294368
2015-03-20,1,0.0010623285976336608,0.0013973497457077922,0.0,0.021345051778021325,0.9796118986891627
2015-03-24,1,0.00038416418847441423,0.0005961961781552447,0.0,0.0223484674193275,0.9783005409833989
2015-03-26,1,0.0004736636996229103,0.0007037443633909499,-0.005263149020084088,0.0223484674193275,0.9742029868159089
2015-03-30,1,0.0020971595033898714,0.0026586228858744604,-0.005263149020084088,0.024818807864096654,0.9708510361902315
2015-04-01,1,0.002396656319760212,0.0030149543627011077,0.0,0.024561371025709572,0.9744398599358618
2015-04-06,1,0.001759454344978852,0.002211356435393977,-0.005263149020084088,0.024561371025709572,0.9725626383255298
2015-04-08,1,0.0020421967560303716,0.0024978367979037793,-0.023768167091677686,0.023684239214146637,0.9713080303832209
2015-04-10,1,0.0029419803119557896,0.003521672180024687,-0.043770133069906965,0.013241908473675963,0.9669293643155024
2015-04-14,1,0.0021096694055561965,0.0026251094560473137,-0.03414024366637668,0.03757307509208233,0.9644941626681179
2015-04-16,1,0.002413793379921653,0.0028539487459340405,-0.03414024366637668,0.03757307509208233,0.9639199348161296
2015-04-20,1,0.00037060840411191274,0.00044154708642095674,-0.03414024366637668,0.03757307509208233,0.9659850381977012
2015-04-22,1,0.002782444407654997,0.003303260559383551,-0.03414024366637668,0.015873473180322253,0.9677413259760086
2015-04-24,1,9.27145107441311e-05,0.0001672327269242716,-0.016220433737047655,0.03201752919468627,0.9706047798579553
2015-04-28,1,0.003269568387950253,0.003890572505075393,-0.03414024366637668,0.02402373781019907,0.9706611298090375
2015-04-30,1,0.0026739687320085906,0.0030807403653327634,-0.03414024366637668,0.024462333670799835,0.9699382982346924
2015-05-04,1,0.0015756224399879324,0.0017859117976759256,-0.023768167091677686,0.024462333670799835,0.9706556980903885
2015-05-06,1,0.00044851276726001353,0.0005088900007898804,-0.028947329413857983,0.024462333670799835,0.9692873949119692
2015-05-08,-1,-0.00027152102674939105,-8.857199571799066e-05,-0.0026315843134378353,0.03598900059574729,0.9694418026333765
2015-05-12,1,0.0013285966718932286,0.0015822986277500904,-0.010131599400863216,0.013803318048693627,0.9748451703063804
2015-05-14,1,0.0023257118441847337,0.0027107501616345144,-0.0025000050291417936,0.011142282209721324,0.9775784959646118
2015-05-18,1,0.0011534645362438678,0.0013842984189068315,-0.0025000050291417936,0.011142282209721324,0.9776534354555838
2015-05-20,1,0.001190811907541064,0.001428404734825725,-0.0025000050291417936,0.011142282209721324,0.9776568355944848
2015-05-22,1,0.0009397174887064503,0.0010083342023710184,-0.012763164107509469,0.010666897245359349,0.9769993955435637
2015-05-27,1,0.0013835166794686719,0.0016409878735627725,-0.012763164107509469,0.010666897245359349,0.9710175867251616
2015-05-29,1,0.0014976376557989835,0.0016352689899375116,-0.012763164107509469,0.010235352918452744,0.9686864662238192
2015-06-02,1,0.00216658004111621,0.00251234131550432,-0.020000021606683273,0.01010103062602549,0.966000604375923
2015-06-04,1,0.0010382048634030691,0.00123428720263225,-0.0025000050291417936,0.0025252576565063726,0.9697307928913317
2015-06-08,1,0.0039657620362680635,0.004568864607511658,-0.020000021606683273,0.0,0.969577727224168
2015-06-10,1,0.0031912624706849535,0.0036388643777679596,-0.012500006519257893,0.0,0.9705703739638923
2015-06-12,1,0.003926105164184903,0.0045199349857172975,-0.012500006519257893,0.0,0.967681710118984
2015-06-16,1,0.00288150202612532,0.0033670549895808083,0.0,0.005681829727139302,0.9683240792923763
2015-06-18,1,0.0016727507405133119,0.0018748721195156893,-0.05263152941442288,0.005681829727139302,0.9638014397143361
2015-06-22,1,3.347163487854289e-05,7.698429152813631e-05,-0.05336254284839149,0.005681829727139302,0.9619352332097115
2015-06-24,-1,-0.00045291704805478834,-0.00031705848553911857,-0.050657889338525344,0.02895025319802246,0.9657999555410245
2015-06-26,1,0.0018754285118617593,0.0019803351066073173,-0.050657889338525344,0.028810196868409736,0.967342484114798
2015-06-30,-1,-0.0007579811612609892,-0.000530559342944039,-0.012500002328306541,0.028810196868409736,0.971456048227453
2015-07-02,-1,-0.0012896615480807606,-0.0009641716987594986,-0.012500002328306541,0.04719888707758005,0.9686514969098682
2015-07-07,-1,-0.0029740769521074983,-0.0024809868225730706,-0.012500002328306541,0.04719888707758005,0.9686211065256481
2015-07-09,-1,-0.0019013452548426028,-0.001618178154505503,-0.050657889338525344,0.04719888707758005,0.9639849733392634
2015-07-13,-1,-0.0007576821470229231,-0.0005516190109316748,-0.050657889338525344,0.04845202037765867,0.962475734134582
2015-07-15,1,0.0012614374500038265,0.0013728952392749582,-0.050657889338525344,0.030752016330862157,0.9626313623747064
2015-07-17,-1,-0.0020902681916365826,-0.0017333567263641638,-0.015547778361334625,0.030752016330862157,0.9667041683326504
2015-07-21,-1,-0.004700494589450887,-0.004038723994539696,0.0,0.04845202037765867,0.9654435228279257
2015-07-23,-1,-0.001475492726932951,-0.0012246334023786171,-0.015547778361334625,0.01582272183654685,0.9680799925638133
2015-07-27,-1,-0.000851179272003994,-0.0006274951933673644,-0.023819923402696556,0.01582272183654685,0.9677456094202851
2015-07-29,-1,-0.0008514518435569033,-0.0006299084647799539,-0.023819923402696556,0.01582272183654685,0.966743666160397
2015-07-31,1,0.000744433565918407,0.0007464661954390155,-0.023819923402696556,0.02781083393074625,0.9644054833710518
2015-08-04,1,0.0003601586700064333,0.0003891864177449499,-0.023819923402696556,0.02781083393074625,0.9639665781293967
2015-08-06,-1,-0.0031113092591890535,-0.002606524448943998,-0.023123715318201846,0.02781083393074625,0.9683828226945296
2015-08-10,-1,-9.276512052326346e-05,-3.7041361570374444e-05,-0.023123715318201846,0.01582272183654685,0.9734565032603307
2015-08-12,-1,-0.0001345559051720959,-7.174378306727558e-05,-0.014468064449182095,0.0031645396517522473,0.975274505942869
2015-08-14,-1,-0.00020021313561441046,-0.00010545943923023787,-0.014468064449182095,0.008823525286875926,0.9742050581074102
2015-08-18,1,0.0016997336120535703,0.0018407265653309288,-0.014468064449182095,0.005681829727139302,0.9770767315182451
2015-08-20,0,-5.486180945680515e-05,5.266771420379425e-06,-0.011396292305512952,0.025869014468293833,0.9799240138265233
2015-08-24,1,0.00046599558306674736,0.0004698328774575943,-0.002840914863569631,0.021471335607764562,0.9812195201641826
2015-08-26,-1,-6.998555059569629e-05,-1.020962438053234e-05,-0.002840914863569631,0.021471335607764562,0.9805330064691107
2015-08-28,1,0.002021246584660052,0.0022520276530321754,-0.002840914863569631,0.012730403236388299,0.9847987848321833
2015-09-01,1,0.001033818145256811,0.0011675785926485167,-0.011396292305512952,0.012730403236388299,0.9846903813554565
2015-09-03,1,0.0002947859157725422,0.00031140220434301973,-0.002873547714804059,0.012730403236388299,0.9855010983755998
2015-09-08,1,0.0005470390659469623,0.0006163194673140132,0.0,0.012730403236388299,0.9859738767710717
2015-09-10,-1,-0.00016781591701520507,-9.860125790247254e-05,0.0,0.012730403236388299,0.9839840798845275
2015-09-14,1,0.0008623778269689977,0.0009751921854090208,0.0,0.012730403236388299,0.982594222457037
2015-09-16,1,0.00045179653993766963,0.00047546925584218496,-0.007499996460974374,0.012730403236388299,0.976624407091979
2015-09-18,1,0.0018904088477734173,0.0021399938784955885,-0.030564501635482817,0.012730403236388299,0.9724516305398874
2015-09-22,1,0.0023461110351578208,0.0026781969584223496,-0.030564501635482817,0.0025252576565063726,0.9713903687970015
2015-09-24,1,0.001839262942388539,0.0020697840179328525,-0.03225804901023878,0.0,0.9707957409755871
2015-09-28,1,0.001466434011601303,0.0016094031509594551,-0.03225804901023878,0.0027777626006699526,0.9706327144164922
2015-09-30,-1,-0.0006194694012473858,-0.00041921579581516725,-0.005263149020084088,0.011019537712176786,0.9740905456738974
2015-10-02,1,0.00041198458680955186,0.0004157506530221747,-0.036693543276936975,0.011019537712176786,0.9677474983469878
2015-10-06,1,0.0006021999764394634,0.0006667886394272748,-0.05138891534534801,0.01885960544896903,0.9584760153410046
2015-10-08,-1,-0.00133125516005961,-0.0011561801501131792,-0.036693543276936975,0.043924633940498975,0.9576526291680969
2015-10-12,-1,-0.000881044130288462,-0.0007586476612417234,-0.036693543276936975,0.043924633940498975,0.9571966863910477
2015-10-14,1,0.0007456109472326969,0.0008935653654394187,-0.0261367713970486,0.045312720039764075,0.9598156393501363
2015-10-16,1,0.00023574498822262596,0.00031453112659154557,-0.0261367713970486,0.045312720039764075,0.9640595083902612
2015-10-20,1,0.0008196534433132795,0.0009766943220272442,-0.0261367713970486,0.04223901786401936,0.9629117124632472
2015-10-22,1,0.00039381311103491105,0.0004844765319661563,-0.006024086381496301,0.04223901786401936,0.9649496116550446
2015-10-26,1,0.0001646084085693842,0.00023686358175621766,-0.028072260634605037,0.04223901786401936,0.9622950001768453
2015-10-28,1,0.0009946049623547769,0.0012269784812855716,-0.03184465167667674,0.04223901786401936,0.9611641704579417
2015-10-30,-1,-0.0008731438290987658,-0.0008635058423637036,-0.006024086381496301,0.045312720039764075,0.9627171038294862
2015-11-03,-1,-0.00017153193004826935,-8.823791459779964e-05,-0.024952990110715827,0.04223901786401936,0.9685062623624696
2015-11-05,1,0.00028798762510925675,0.00043542645597354125,-0.006880730966226925,0.04223901786401936,0.967484443907456
2015-11-09,1,0.0022340157380484624,0.00259289420200613,-0.006880730966226925,0.040416672753894455,0.9710034981068859
2015-11-11,1,0.0021506686595135806,0.0024468533474594012,-0.006880730966226925,0.02452378567772799,0.975098982506612
2015-11-13,1,0.002641787507085194,0.003087733708329744,-0.006880730966226925,0.02452378567772799,0.9748601056656895
2015-11-17,1,0.0032413021347086433,0.0037605278815882994,-0.006880730966226925,0.012352947646960566,0.9765688341546381
2015-11-19,1,0.002740122255061004,0.0031163454115034255,-0.027923742960867644,0.02452378567772799,0.9712521521386774
2015-11-23,1,0.002205705773921878,0.0025083841060519006,-0.027923742960867644,0.03809524552892433,0.9708136535429633
2015-11-25,1,0.0023412693826413383,0.0026391395246273294,-0.030257578891761477,0.03809524552892433,0.970566324706226
2015-11-30,1,0.0019929851012091175,0.0022105445892980323,-0.03846154397232282,0.01640455943694577,0.9651935249415807
2015-12-02,1,0.002308060888686318,0.0026439159935851284,-0.03846154397232282,0.01640455943694577,0.9643641311237343
2015-12-04,-1,-0.0019931494208131747,-0.0017576698667764318,-0.040209800500383114,0.0,0.9637228199849031
2015-12-08,-1,-0.0013381165952517328,-0.0011924916365105768,-0.05473312046210354,0.009523811382231082,0.9547110818054297
2015-12-10,-1,-0.0010296129151108862,-0.0009488742632731146,-0.05473312046210354,0.03857143563680934,0.9494052796892881
2015-12-14,-1,-0.0005580702529545128,-0.0005538775289865767,-0.07421364997998361,0.03857143563680934,0.9482392051277558
2015-12-16,-1,-0.0014012695739673564,-0.0012439410555850267,-0.07421364997998361,0.040000005960464394,0.9464995966386575
2015-12-18,-1,-0.0018753623961319293,-0.0016931401612957754,-0.07142860944173741,0.022711844225787182,0.9487659990268164
2015-12-22,-1,-0.0014082332490155786,-0.0012530844305017356,-0.07142860944173741,0.07692312100935407,0.9442620853394041
2015-12-24,-1,-0.0012173121100192243,-0.0010832399785858243,-0.07142860944173741,0.07692312100935407,0.9443880684811621
2015-12-29,-1,-0.0013764352711613517,-0.0012202168672253066,-0.07079830408168905,0.06610580644578642,0.9473648191002969
2015-12-31,0,-5.5176188208429705e-05,1.6831200580260953e-05,-0.07079830408168905,0.06610580644578642,0.9475562783946873
2016-01-05,1,0.0008217897287815979,0.0010302876653609668,-0.04475547295274744,0.07692312100935407,0.9480088063008326
2016-01-07,1,0.0023848138077165026,0.002790097608797805,-0.04475547295274744,0.06610580644578642,0.951659260041875
2016-01-11,1,0.0036741564878860055,0.004261225473474388,-0.04475547295274744,0.06610580644578642,0.9513207048937419
2016-01-13,1,0.0040133714507144215,0.004688519231325109,-0.04475547295274744,0.07692312100935407,0.9458780634249624
2016-01-15,1,0.004170388418539414,0.004824988561857306,-0.07079830408168905,0.06610580644578642,0.9449030095046176
2016-01-20,1,0.002644452088495894,0.0030934011058780147,-0.0645220069180048,0.08269234075701555,0.9414649750704845
2016-01-22,1,0.0007695783759882694,0.0008783419669132205,-0.0645220069180048,0.03617299588022397,0.9470776789551675
2016-01-26,-1,-0.00027071051032308404,-0.00019938462721628953,-0.0645220069180048,0.03617299588022397,0.9483109795704384
2016-01-28,1,0.0013948041876634054,0.0016568667574966417,-0.03562502518451228,0.017563636431481833,0.9538489658799838
2016-02-01,-1,-0.00010099930433757137,-9.533361680437246e-05,-0.0168018354560993,0.017563636431481833,0.957618665408708
2016-02-03,-1,-6.878868658505258e-05,-6.694023001534154e-05,-0.0168018354560993,0.013559820068802336,0.9622626065198892
2016-02-05,1,0.0005963727121751783,0.0006563402994671426,-0.013378405049532756,0.013559820068802336,0.9661179776828756
2016-02-09,1,0.0011050619473624741,0.001290261432959072,-0.0168018354560993,0.013559820068802336,0.9619485017336332
2016-02-11,-1,-0.0005362649864537863,-0.0004412962569466311,-0.013378405049532756,0.0133783305437297,0.9714517143187692
2016-02-16,1,0.0004696131586945245,0.0004982858360537333,-0.013201707799481772,0.0133783305437297,0.9755749099687021
2016-02-18,1,0.00019502137351599483,0.0002455589098370202,-0.013201707799481772,0.0133783305437297,0.9768474937473577
2016-02-22,1,0.0007947985070567052,0.0009587425182740638,-0.003289455947803495,0.013559820068802336,0.9734318767105636
2016-02-24,1,0.0011408241655314596,0.0013437571377940927,-0.003289455947803495,0.016156336461297428,0.9696532576207622
2016-02-26,1,0.0008562452330236398,0.0010218370187451864,-0.013246753024729377,0.016156336461297428,0.9686129408743342
2016-03-01,1,0.0011560255658260145,0.001377197725552084,-0.003289455947803495,0.016017498430716558,0.9697313558915396
2016-03-03,1,0.0013817449787326495,0.0016883649359352463,-0.003289455947803495,0.029695223864781052,0.9666803868620978
2016-03-07,1,0.0006229015190174691,0.0007730763398131678,-0.002717396806017052,0.029695223864781052,0.9674245095839095
2016-03-09,1,0.0015660323030945076,0.0017900709090381216,0.0,0.02254898057894822,0.9761044949196673
2016-03-11,1,0.0010196075201659742,0.0012356071295578927,0.0,0.02254898057894822,0.9762581863562817
2016-03-15,1,0.0011119472439522584,0.001302157535910307,0.0,0.025799198832188522,0.9747917831515753
2016-03-17,1,0.0011710529765334146,0.0013464637081312156,0.0,0.025799198832188522,0.9740847349006976
2016-03-21,1,0.00012789367328417604,0.00019996806231606607,-0.002717396806017052,0.0137973210089029,0.9791453285070099
2016-03-23,-1,-0.00047991188841818886,-0.0004551753531206898,0.0,0.002747258370502278,0.9834496749221351
2016-03-28,-1,-0.0003931408575831883,-0.0003266734467333273,0.0,0.0137973210089029,0.9816333029549653
2016-03-30,1,0.00021678389754659837,0.0003481649942373977,-0.01023034464895978,0.0137973210089029,0.9807793139394216
2016-04-01,-1,-0.0009502475252687032,-0.0009078651217083317,-0.01023034464895978,0.010400335304515833,0.982902486786697
2016-04-05,-1,-0.00147794720534944,-0.0013368558485241724,-0.01023034464895978,0.013450099552003054,0.9755817318927509
2016-04-07,-1,-0.0019404886097866892,-0.0016873796496497638,-0.01023034464895978,0.024940222514939284,0.9701866987593694
2016-04-11,-1,-0.0020639670197002136,-0.0018051736159776868,-0.01023034464895978,0.024940222514939284,0.969398748481125
2016-04-13,-1,-0.0027481583260011285,-0.0023898403819764867,-0.02000004023313518,0.021306803048627962,0.968916008685041
2016-04-15,-1,-0.002072427730796592,-0.0017687032272335752,-0.02000004023313518,0.012861401374509775,0.9743340910967893
2016-04-19,-1,-0.0024699432258340507,-0.0021803078475807042,-0.013241723763906029,0.012861401374509775,0.9747549566915196
2016-04-21,-1,-0.002169827329741284,-0.0018541573170812796,-0.02265308810228058,0.021306803048627962,0.9698427659420074
2016-04-25,-1,-0.0029276983687151646,-0.0024838767237668315,-0.013241723763906029,0.021306803048627962,0.9674850518192328
2016-04-27,1,0.00209556945486646,0.0023840344675498852,-0.02265308810228058,0.021306803048627962,0.9661160715737857
2016-04-29,1,0.003148938316505341,0.003653502366724414,-0.02265308810228058,0.02954547707422455,0.9641324743248166
2016-05-03,1,0.002626878266116949,0.003061778981602965,-0.022281580237038252,0.024545485642392003,0.9688904007438349
2016-05-05,1,0.004219249650149353,0.004863835031044944,-0.022281580237038252,0.015000011548399373,0.9714306785269349
2016-05-09,1,0.00358348457697423,0.004101782881690142,-0.029497708113989798,0.014852952676102359,0.9694725672153456
2016-05-11,1,0.0031567715714200632,0.003644989452333246,-0.029739383520082235,0.014852952676102359,0.9672676909403943
2016-05-13,1,0.002486587785654919,0.002855241112819127,-0.021567240526316492,0.05138883876993813,0.9638850594035518
2016-05-17,1,0.0024081255724210304,0.0027674813449199732,-0.021567240526316492,0.05138883876993813,0.9632750422141805
2016-05-19,1,0.002097173917532109,0.0023803064992280907,-0.03146003617964131,0.034999977275728934,0.9612037225905444
2016-05-23,1,0.004261734797701606,0.0048266189931289154,-0.03146003617964131,0.03083331857704443,0.964240447171031
2016-05-25,1,0.0024946230589227084,0.0027269185549446285,-0.03374940110974073,0.037499975475173065,0.9608713840954854
2016-05-27,1,0.0016072822496662426,0.001616634334237898,-0.04821425928879826,0.03083331857704443,0.9593762125594159
2016-06-01,1,0.0015143338751275625,0.0015352813878344192,-0.05126148149022753,0.030392143055825556,0.9571616127213249
2016-06-03,-1,-0.0018185262472387087,-0.0017802221359242254,-0.05126148149022753,0.030392143055825556,0.9568992613577103
2016-06-07,-1,-0.0008158362529895392,-0.0006628954342517911,-0.04821425928879826,0.038888862673884625,0.9530437012327746
2016-06-09,0,-1.8578280527987122e-05,0.0002478286896856123,-0.04821425928879826,0.05729163400570392,0.950274732112975
2016-06-13,1,9.481023596823147e-05,0.0003139851592936278,-0.054166698642074115,0.030392143055825556,0.9504550776177586
2016-06-15,-1,-0.0009875187268225324,-0.0009654837034500744,-0.054166698642074115,0.040624996313515724,0.9467578762854477
2016-06-17,-1,-0.0015423760411315604,-0.0014685578038627965,-0.054166698642074115,0.04119317900401013,0.9472051668190209
2016-06-21,-1,-0.0009880921854795892,-0.0009733658604294958,-0.054166698642074115,0.05312501571606879,0.9465253603345983
2016-06-23,-1,-0.00013811375978988006,-6.423364796423741e-05,-0.051960802145276055,0.048214294378120165,0.9501914382066369
2016-06-27,-1,-0.0005388201261480326,-0.0005200281465861271,-0.03823528354761879,0.05312501571606879,0.9490270699769868
2016-06-29,1,0.0010386140658132535,0.001304846752161554,-0.03823528354761879,0.05312501571606879,0.9487002559103295
2016-07-01,1,0.0008249331261511876,0.0010360394006305477,-0.051960802145276055,0.048214294378120165,0.9469052396894577
2016-07-06,-1,-0.0003851610693349193,-0.0003582973618429893,-0.07500003725290132,0.048214294378120165,0.9444684088322978
2016-07-08,1,0.0005597873706137826,0.0007551782100557498,-0.05147057586062692,0.048214294378120165,0.948911804362066
2016-07-12,1,0.00027545763895185925,0.0003936036643590105,-0.04705880883449443,0.054861128156614376,0.9462891064364283
2016-07-14,1,0.0006764558589445534,0.0008539681294522619,-0.03763365865601862,0.048214294378120165,0.9510877301253029
2016-07-18,1,0.0015657996787819823,0.0019231533711564141,-0.015056757920050658,0.048214294378120165,0.9553514558808225
2016-07-20,1,0.0026386845752456173,0.0031965127832691512,-0.015056757920050658,0.03113550018266728,0.9563644937453735
2016-07-22,1,0.001512590300970936,0.0018674515056448663,-0.023295415204771786,0.022199751269312836,0.9569511430213747
2016-07-26,1,0.0026135280811522103,0.003119105787518975,-0.024999958090482704,0.022199751269312836,0.9601165462653835
2016-07-28,1,0.001093439868771447,0.001343344985485696,-0.024999958090482704,0.0256409815547503,0.9629790107280738
2016-08-01,1,0.0018486210777902612,0.00223435164814234,-0.024999958090482704,0.0256409815547503,0.9603646347263797
2016-08-03,1,0.0016019138185285825,0.0019186012471050628,-0.015624938881954296,0.0256409815547503,0.9675126897164884
2016-08-05,1,0.0005082849025658552,0.0007031090317131472,-0.024999958090482704,0.0256409815547503,0.9655528927429144
2016-08-09,1,0.0013796199946060211,0.0016952457053711913,-0.023897083923316225,0.0256409815547503,0.9729266665657504
2016-08-11,1,0.00145634720842541,0.0017508070988931364,-0.023897083923316225,0.027564065360184867,0.9676728000811728
2016-08-15,1,0.000979307441407155,0.0011759315201945557,-0.024999958090482704,0.027564065360184867,0.9677513160579274
2016-08-17,1,0.0012094360039334577,0.001412298536589504,-0.024999958090482704,0.027564065360184867,0.9673598981591552
2016-08-19,1,0.0011672385019643088,0.0013977489314777815,-0.023897083923316225,0.027564065360184867,0.969017195910053
2016-08-23,1,0.0008319357542182342,0.0009780508082943768,-0.025711606653255243,0.03425924258317781,0.9646040479836432
2016-08-25,1,0.0006258036187989247,0.0007443707361322229,-0.025711606653255243,0.04340277373358344,0.958285713249466
2016-08-29,1,0.001697951518788888,0.0019818930786393314,-0.025711606653255243,0.03425924258317781,0.959918951744341
2016-08-31,1,0.000551356374514329,0.0006684056023795617,-0.025711606653255243,0.025378818375540048,0.9607104871581854
2016-09-02,1,5.3880346315492524e-06,2.476117097621677e-05,-0.02254906458058841,0.0223484674193275,0.9658256301550332
2016-09-07,1,0.0004780629094217749,0.0006119843558202744,-0.005555566593452187,0.0223484674193275,0.9668793344766956
2016-09-09,-1,-0.001350296579203684,-0.001186410839999048,-0.024731212032916255,0.010993105281620674,0.9695057434667804
2016-09-13,-1,-0.0005645078951051306,-0.0005524483536936868,-0.005555566593452187,0.01407829048810496,0.9685032994655217
2016-09-15,-1,-0.0004535550504636955,-0.0004419780020128093,-0.011235956702249196,0.01370773631544711,0.9661017884116935
2016-09-19,-1,-0.000348510525513923,-0.00034381355018532546,-0.02005950390259703,0.0223484674193275,0.963415376916273
2016-09-21,-1,-0.0002569675454857006,-0.00021704365200020433,-0.01734627062463478,0.01370773631544711,0.9686430859689066
2016-09-23,-1,-0.0003965291376223322,-0.0003281039147129078,-0.0029411824001159452,0.0027173968060170144,0.9780438958254121
2016-09-27,-1,-0.00010934852173230136,-9.647691413900754e-05,-0.0029411824001159452,0.0,0.981780317777444
2016-09-29,-1,-0.0010514058673596538,-0.0008973318623448236,-0.01734627062463478,0.0,0.9767798135683916
2016-10-03,-1,-0.0012704470747707908,-0.001098942450533502,-0.01734627062463478,0.0,0.9761394003802412
2016-10-05,-1,-0.000403072568437663,-0.0004017316114349642,-0.03693180856071744,0.0,0.9736083535805171
2016-10-07,1,0.00041403579771220444,0.0005250381045495576,-0.01734627062463478,0.0029761965477379158,0.9731273341731486
2016-10-11,-1,-0.0007377632173717738,-0.0006594520453996795,-0.03693180856071744,0.0,0.9730502649150627
2016-10-13,-1,-0.00024008712542781345,-0.00020074716800294536,-0.03693180856071744,0.0029761965477379158,0.9720551504070007
2016-10-17,-1,-0.0011793461803174471,-0.0009615731552767106,-0.03693180856071744,0.0029761965477379158,0.9722587520840722
2016-10-19,-1,-0.0010175265315266278,-0.0008338227714224591,-0.011363638287856614,0.014810932529973769,0.9727029171956865
2016-10-21,1,0.0009090478063270795,0.0009814740356633884,-0.04585562255056171,0.026267736033837086,0.9670335572539849
2016-10-25,-1,-0.0003567847015768793,-0.00020459648337230006,-0.029656357780592536,0.027370745790614617,0.9671152229510976
2016-10-27,1,0.00028635989524669636,0.00032757064246338144,-0.02395468592763061,0.02454266415286841,0.971048382913132
2016-10-31,-1,-0.0005330919878944493,-0.0004168716445064023,-0.02395468592763061,0.027370745790614617,0.9669350241569156
2016-11-02,1,0.0008773672783007753,0.0009777846366443418,-0.005952370921128435,0.033620694955923444,0.968220143240488
2016-11-04,1,0.0005183348217781456,0.0005369833475546947,-0.02395468592763061,0.033620694955923444,0.9648188260254278
2016-11-08,-1,-0.0004566988489771052,-0.00034150343912221,-0.02395468592763061,0.038207803120292524,0.9589163582625458
2016-11-10,1,0.00011886982874827277,0.0001663004270342904,-0.02395468592763061,0.033620694955923444,0.9606379660644212
2016-11-14,1,0.00047223628742048456,0.0005458452674557371,-0.026444889664644415,0.027083367611179736,0.9609062891227598
2016-11-16,-1,-0.0004962461210718512,-0.00041366246017931243,-0.026444889664644415,0.027083367611179736,0.9613985950978124
2016-11-18,-1,-0.0009287418337586264,-0.0008714160942898833,-0.026444889664644415,0.027083367611179736,0.9608271774665069
2016-11-22,1,0.00015466924206077346,0.0002351177010388057,-0.0260092829352938,0.03778088921191993,0.9563822872385218
2016-11-25,-1,-0.000893877333969995,-0.0007524540148042584,-0.05447365860921709,0.03778088921191993,0.9510607746020671
2016-11-29,-1,-0.0011745669041788903,-0.0010477095536796804,-0.05447365860921709,0.03778088921191993,0.948620007656802
2016-12-01,-1,-0.0009179742414733541,-0.0008221663179424634,-0.05447365860921709,0.03778088921191993,0.9501293390468577
2016-12-05,-1,-0.0022275620735606495,-0.0020103918769410903,-0.05263152941442288,0.025093599986726008,0.9560212765081889
2016-12-07,-1,-0.0008047681401070773,-0.0007606294185720402,-0.05263152941442288,0.013982529120530461,0.9616750749981362
2016-12-09,-1,-0.0011110930732903634,-0.0010029986568269229,-0.05351859817077782,0.002808994407711465,0.9623899246182248
2016-12-13,-1,-0.0006186164782973079,-0.0005689460018194932,-0.05701579171987706,0.00842696229453781,0.9552268416107855
2016-12-15,-1,-0.002981112073339307,-0.0025484829019781366,-0.058998608651318396,0.03778088921191993,0.9502091019802005
2016-12-19,1,0.000770164144093528,0.0008609302489544079,-0.058998608651318396,0.05312501571606879,0.9470149141922132
2016-12-21,1,0.0017679753457221425,0.00213326838808713,-0.058998608651318396,0.0,0.9525503962910624
2016-12-23,1,0.0018165150439204557,0.0021807717504051145,-0.05351859817077782,0.006250012805685865,0.9578856470217498
2016-12-28,-1,-0.0006331593167856323,-0.0005186897159551154,-0.032337670602696586,0.006097550449060849,0.9645473897207265
2016-12-30,-1,-0.001488959978329864,-0.0013747190470380479,-0.0497592431597742,0.02454266415286841,0.9611568067072711
2017-01-04,-1,-0.001056097767522935,-0.0010214829466903108,-0.0497592431597742,0.02454266415286841,0.9595770174332425
2017-01-06,1,0.0008432479424102447,0.0010433722644557046,-0.050420182136921315,0.02454266415286841,0.9579471956620234
2017-01-10,1,0.001955320726302749,0.0023690842348149718,-0.039013186395600384,0.02500005122274346,0.9554544699392875
2017-01-12,1,0.001275663354918372,0.0015484322466460434,-0.039013186395600384,0.02500005122274346,0.9556732896547119
2017-01-17,-1,-0.00010541630748295131,-1.0996172218544805e-05,-0.039013186395600384,0.02454266415286841,0.9590899961150738
2017-01-19,1,0.0009769188529516655,0.0011816133263488186,-0.03550671665362554,0.02454266415286841,0.9636691584736147
2017-01-23,1,0.0012308446629686757,0.001548241767299919,-0.03550671665362554,0.02500005122274346,0.9626598308980308
2017-01-25,1,0.0009065746657991201,0.0010870100059969575,-0.039013186395600384,0.02454266415286841,0.9620983121239838
2017-01-27,-1,-0.00031511904084470705,-0.0003064892055461392,-0.04761905606641806,0.02454266415286841,0.9592147858887214
2017-01-31,1,0.0006599834544685781,0.0007796795172170881,-0.039013186395600384,0.0283770731972461,0.9595515439260567
2017-02-02,-1,-0.0010673094509943254,-0.0008901574420325313,-0.050420182136921315,0.037439006126496685,0.9519862192045773
2017-02-06,-1,-0.000312858707285881,-0.00022309929301955918,-0.038375339877231435,0.045624993829989,0.9534317259812086
2017-02-08,-1,-0.0009410045277089601,-0.0007854108169847158,-0.050420182136921315,0.045624993829989,0.9514923320658655
2017-02-10,1,0.000599021253677527,0.0006265678116318372,-0.038375339877231435,0.037439006126496685,0.9588057689980235
2017-02-14,1,0.00010888722991158114,0.00013870744763199664,-0.027573493854737667,0.045624993829989,0.9569838635129808
2017-02-16,-1,-0.0011306452626946364,-0.0010109185245576638,-0.033455858654969806,0.04041667332390032,0.9546114444937823
2017-02-21,-1,-0.0013517932253679504,-0.0012058186709723094,-0.03470592982353564,0.04041667332390032,0.95387180005281
2017-02-23,-1,-0.00017687030554165706,-0.00013635717914867637,-0.026666719648570487,0.04814196541089647,0.9512399714769258
2017-02-27,1,0.0011248622096204162,0.0012267334976279686,-0.02541664848000465,0.04814196541089647,0.953241956809569
2017-03-01,-1,-0.0007323414665983116,-0.0006052342243204797,-0.026666719648570487,0.04814196541089647,0.9530610609565789
2017-03-03,1,0.0027339122806063756,0.0031028274850746886,-0.02541664848000465,0.04814196541089647,0.9578663202711489
2017-03-07,-1,-0.000843057342982893,-0.0007064960317161351,-0.02541664848000465,0.030964675374135303,0.9585977669887396
2017-03-09,-1,-0.0002702836150639082,-0.00024081493891062994,-0.024999958090482704,0.026080065215754282,0.9653156929955604
2017-03-13,-1,-2.260714554448789e-05,-1.9465710218955252e-05,-0.02432224866710958,0.030964675374135303,0.9636931055484634
2017-03-15,-1,-0.0015243057574323103,-0.0013465590292950078,-0.02432224866710958,0.026080065215754282,0.9667230995633775
2017-03-17,1,0.0007530987829834353,0.000968669780434693,-0.02432224866710958,0.026080065215754282,0.9663995399103458
2017-03-21,1,0.0019966731955231615,0.0023438880685681634,-0.02367118078219185,0.046648433150432364,0.9637188298260857
2017-03-23,1,0.00043340251939071966,0.0005910848074532165,-0.02367118078219185,0.030858644653876235,0.9674875171960161
2017-03-27,1,0.0003727070058971574,0.00046086789525017657,-0.0235294592009274,0.046648433150432364,0.9659351353414851
2017-03-29,-1,-0.0012433164039326152,-0.0011909123144832087,-0.0235294592009274,0.046648433150432364,0.9667201484611112
2017-03-31,-1,-0.00029459174356073975,-0.00022522263824614188,-0.02367118078219185,0.030377946904871108,0.968123969230263
2017-04-04,-1,-0.0008929254189933948,-0.0008452107678149907,-0.026169817824982494,0.030377946904871108,0.9668904840770274
2017-04-06,-1,-0.00045216581689175,-0.00040988969873205516,-0.03693180856071744,0.046648433150432364,0.9629990093990275
2017-04-10,-1,-0.0017639630158192304,-0.0016295278440064723,-0.04761905606641806,0.030377946904871108,0.9607648232318922
2017-04-12,-1,-0.002703090633270002,-0.0024287396845246666,-0.04761905606641806,0.046648433150432364,0.9582868671060154
2017-04-17,-1,-0.00379498913650159,-0.003311029379681572,-0.04761905606641806,0.031764672917616685,0.9593004442056293
2017-04-19,-1,-0.0033228433562788404,-0.002972152952981902,-0.04761905606641806,0.03249996755893136,0.9553781255672218
2017-04-21,-1,-0.0028633779171108845,-0.0025694270840615923,-0.05133927749789796,0.03249996755893136,0.9505060751447812
2017-04-25,-1,-0.0033457536828885165,-0.0029492858012369113,-0.05133927749789796,0.030714246003199074,0.9505465785737274
2017-04-27,-1,-0.0024672109271437733,-0.002184152708354432,-0.06354163128934243,0.030714246003199074,0.9493208013406248
2017-05-01,-1,-0.0032297205704888924,-0.002765137943012126,-0.06354163128934243,0.04464284464602915,0.9479028915277604
2017-05-03,-1,-0.0024099120524421385,-0.0021085843105715313,-0.06666669978035675,0.055357159345353846,0.9421774673906622
2017-05-05,-1,-0.0013754023248368212,-0.001195937675128231,-0.06785717719570192,0.07700894525787275,0.9376848806645817
2017-05-09,1,0.00015378610248080167,0.00018253184775469,-0.06785717719570192,0.09531246452970905,0.9373056142375843
2017-05-11,-1,-0.0005754375408577679,-0.00046408415609767013,-0.06785717719570192,0.09531246452970905,0.937819316250419
2017-05-15,1,0.00042256702897906475,0.0005942157773694445,-0.06785717719570192,0.1,0.934680891331574
2017-05-17,1,0.003184355937793563,0.0037393974779825895,-0.07491291772579292,0.06911767026132333,0.9372244919999758
2017-05-19,-1,-8.624324139453877e-05,-7.507611488139031e-05,-0.04867905653698523,0.07499995032946455,0.9401949654511101
2017-05-23,1,0.0003336909854953239,0.000419639051549855,-0.07857145708130306,0.1,0.9351091063156635
2017-05-25,-1,-0.0007521784570065643,-0.0007036155273952308,-0.08421050116233927,0.1,0.9315588781215394
2017-05-30,1,0.0008306829278016711,0.0009858212630071079,-0.08421050116233927,0.07857145708130306,0.9355119587583929
2017-06-01,1,0.0003085855159961434,0.00033303845001368237,-0.048582973789973,0.0678571026898989,0.943113295436761
2017-06-05,-1,-0.00030015288548047836,-0.00020050292574760208,-0.029095866516951407,0.06078432037114484,0.9508695307269618
2017-06-07,1,0.000707870412327917,0.0007214168449926828,-0.02524346406582436,0.03470585531773263,0.9560190660763593
2017-06-09,1,0.0017146393377805386,0.0018540825484144017,-0.02524346406582436,0.02640353781463458,0.9585107875108603
2017-06-13,1,0.0016798571715709945,0.0018050327167545106,-0.006249989522620676,0.025809697078649267,0.9676219748360129
2017-06-15,1,1.970534998166969e-05,0.0001178026240722737,-0.006249989522620676,0.025809697078649267,0.9704838042784237
2017-06-19,1,0.0007472824445142388,0.0007615981498745884,0.0,0.0256409815547503,0.9734162446350733
2017-06-21,1,0.0008781537578078294,0.000898953469475679,0.0,0.0256409815547503,0.9811406336640474
2017-06-23,1,0.00035605013547816916,0.00042500328967029824,0.0,0.024482571857701634,0.9868515172460188
2017-06-27,1,0.000656320804956097,0.000680162505820401,0.0,0.0256409815547503,0.984463523664792
2017-06-29,0,-0.0001671505838623965,4.897808345488881e-05,-0.0029411824001159452,0.024482571857701634,0.9842637774121471
2017-07-03,1,0.001428192984904201,0.0015195564620044165,-0.02395468592763061,0.0060241088230046855,0.9805797527112189
2017-07-06,1,0.0008111787815583578,0.0008313956424230592,-0.01477591812147627,0.024482571857701634,0.9795852131861519
2017-07-10,1,0.000218712058838454,0.0003127131697296339,-0.01477591812147627,0.024482571857701634,0.9792513683707866
2017-07-12,1,0.0003709029618626685,0.0004252171281123656,-0.02395468592763061,0.024482571857701634,0.9779980090097693
2017-07-14,1,0.0006325058692883175,0.0006358561871254692,-0.01477591812147627,0.015517727778261428,0.9814690507540275
2017-07-18,1,0.00035835936007939386,0.00043781050312222065,-0.01477591812147627,0.015517727778261428,0.9815924462635554
2017-07-20,1,0.00018303284729587297,0.000325704294222397,-0.01477591812147627,0.015517727778261428,0.9799064802589105
2017-07-24,1,0.0008144687112445899,0.0008417261859768909,-0.02395468592763061,0.012093129294965994,0.9779669673962813
2017-07-26,1,0.0007054128467039601,0.0007304266893974586,-0.014921120364593143,0.015446012050732821,0.9774364953221464
2017-07-28,-1,-0.001567925127925803,-0.0014453160837333819,-0.0029411824001159452,0.024267424675115813,0.9747985049980082
2017-08-01,-1,-0.0004653983742304933,-0.000452131952377605,0.0,0.024267424675115813,0.9778159959862806
2017-08-03,-1,-0.00013900706444641722,-7.057033590285463e-05,-0.0029411824001159452,0.024267424675115813,0.9744114874348052
2017-08-07,-1,-0.0008889072294764879,-0.00081076904205651,-0.015073536722968512,0.029869036146421772,0.9708020996993623
2017-08-09,-1,-0.00033525492001806835,-0.000297860632924787,-0.0029411824001159452,0.034574519520759905,0.9706288334786866
2017-08-11,1,0.0006659409308883515,0.0008973504883989589,-0.0029411824001159452,0.034574519520759905,0.9694957206896736
2017-08-15,-1,-0.0002703286380154954,-0.00023468754401534934,-0.016323543661322208,0.04441490226938364,0.9651673855291786
2017-08-17,0,-3.485727336684455e-05,5.3344829579122556e-05,-0.007499996460974374,0.04441490226938364,0.9627600883172959
2017-08-21,-1,-0.001581400273518705,-0.0013943514091198188,-0.006250012572854571,0.05494185888730815,0.9595975908922082
2017-08-23,-1,-0.0012520450170170586,-0.0011396069334054745,-0.030564501635482817,0.0493567518434658,0.9541549485746754
2017-08-25,1,0.002806537493982875,0.003122743797318595,-0.0343976203297795,0.047401624291941884,0.9506244620696623
2017-08-29,1,0.0023189925967426928,0.002577306367221697,-0.03270407295502354,0.08407782509564887,0.9435599319867236
2017-08-31,1,0.003894698621845162,0.004426919893026095,-0.026250034179538088,0.0868556208100088,0.9431820070739341
2017-09-05,1,0.0036529147778960893,0.004124608181584314,-0.026250034179538088,0.0868556208100088,0.9422773902392281
2017-09-07,1,0.0037517549616747203,0.004172048511570204,-0.026250034179538088,0.0868556208100088,0.9431053550827297
2017-09-11,1,0.005263134347260661,0.005997404441206296,-0.03302630702988234,0.0868556208100088,0.9426403597141675
2017-09-13,1,0.005529242864619904,0.00624316980556518,-0.029276355365522925,0.07146017305259422,0.9464277474305209
2017-09-15,1,0.008276662548775111,0.009385725496857407,-0.029276355365522925,0.054960430232055005,0.9503820189133321
2017-09-19,1,0.00932354801861656,0.010505272872905917,-0.05032895340653888,0.054960430232055005,0.9469437655154941
2017-09-21,1,0.005129146953921233,0.005715309792978103,-0.005291465183656692,0.054960430232055005,0.9547744022187832
2017-09-25,1,0.0038145733431891845,0.004194678684577105,-0.010976724382316139,0.043504785502993554,0.9590251643011622
2017-09-27,1,0.007674497464878556,0.008553784829804595,-0.02797622517798577,0.027027000903735277,0.9630627339181589
2017-09-29,1,0.008519030809640709,0.009347963030198199,-0.029241044081661505,0.02324030044894783,0.9631795140040581
2017-10-03,1,0.007121972016601082,0.007855662552869066,-0.02797622517798577,0.02324030044894783,0.963633508698809
2017-10-05,1,0.00608597739767122,0.006584545770539601,-0.029241044081661505,0.02324030044894783,0.9595329463093303
2017-10-09,1,0.006919930698667613,0.007722052409023952,-0.02797622517798577,0.02324030044894783,0.9603959584765819
2017-10-11,1,0.005277894397531185,0.005692888461411054,-0.02797622517798577,0.021087917797363666,0.9610117051411957
2017-10-13,1,0.005435422131587416,0.005854850289623564,-0.02797622517798577,0.024446795418962115,0.9582820302480332
2017-10-17,1,0.004521410157820038,0.004710458627991368,-0.026681281772223585,0.021087917797363666,0.9651467877629937
2017-10-19,1,0.005692827986297445,0.006136575606619586,-0.026681281772223585,0.017858412295938902,0.9651217552455564
2017-10-23,1,0.004192743810621227,0.004427268452360696,-0.015150387264698539,0.017858412295938902,0.9677603495217353
2017-10-25,1,0.0030881728693462136,0.0031302249828761104,-0.00719235317306658,0.01652257838890099,0.9720970748349407
2017-10-27,1,0.004705895797238677,0.005010154352788867,-0.0014450681590337721,0.0127245802359062,0.9773272634898134
2017-10-31,1,0.0069596012925825105,0.0076132565234373045,-0.01266979472979747,0.002890179385009202,0.9785457106310557
2017-11-02,1,0.005147920523487837,0.005526041494775716,-0.00719235317306658,0.0040540420808785945,0.9823483363651478
2017-11-06,1,0.003836380959831554,0.003892035464001287,-0.001329770159092058,0.01983810666472944,0.9749232437729034
2017-11-08,1,0.004520656770713066,0.004680467711783648,-0.001329770159092058,0.03138134247259331,0.9708542701309048
2017-11-10,1,0.006170351770362032,0.006529324244335888,-0.001329770159092058,0.054166588021652515,0.9664762092841659
2017-11-14,1,0.005727838534516924,0.005976790270044471,0.0,0.05833327687449008,0.9655806861901585
2017-11-16,1,0.004908436496290881,0.005023696590241214,0.0,0.08749993791183083,0.9580248439323816
2017-11-20,1,0.004639621674506217,0.004792452846146284,-0.001329770159092058,0.08749993791183083,0.9532970848279988
2017-11-22,1,0.004653369619300196,0.004809622463795631,-0.008087659119177856,0.1,0.9470016612006389
2017-11-27,1,0.0038233277209673974,0.0038368115635052822,-0.008087659119177856,0.1,0.9449352652311376
2017-11-29,1,0.0020235824668592695,0.002264944728460903,-0.001329770159092058,0.1,0.9458812664891564
2017-12-01,1,0.0025532151290983893,0.0027553046095696145,0.0,0.1,0.9421097304997034
2017-12-05,1,0.00767873824991918,0.008069364046560862,-0.0034722394689358817,0.1,0.9448598234897145
2017-12-07,1,0.010310240278229375,0.011042824538531146,-0.02265446942260838,0.08749993791183083,0.9437187049492392
2017-12-11,1,0.01515684777495965,0.01655555430986253,-0.03408239098406097,0.0552272250928172,0.9493641050532292
2017-12-13,1,0.0169375430951079,0.018547660574588877,-0.03408239098406097,0.07568179091146246,0.9471502093323045
2017-12-15,1,0.016265294521831505,0.017758843504951417,-0.03331254593028852,0.05199118707219536,0.9530633386277683
2017-12-19,1,0.015509120926302035,0.016787639609108458,-0.01769826506289439,0.04450951212954407,0.95772743936531
2017-12-21,1,0.014899097416772285,0.01586967340498753,-0.01769826506289439,0.042719575673619496,0.9605337680938999
2017-12-26,1,0.01651330148213415,0.017729642879296334,-0.02078155166287691,0.024986455211658126,0.9590977981515859
2017-12-28,1,0.015250129310911069,0.016261081694917245,-0.03331254593028852,0.024986455211658126,0.9568314547790316
2018-01-02,1,0.01803048535484146,0.019300812648317355,-0.05899691560298585,0.011116326224930362,0.951152007625074
2018-01-04,1,0.017967430266994183,0.019146866392591916,-0.0594857684921938,0.002777791759114546,0.9510049947320447
2018-01-08,1,0.01543330072731638,0.016261363274201968,-0.04855464855080938,0.002777791759114546,0.9547390505417606
2018-01-10,1,0.014084411196899047,0.014774500235131357,-0.0594857684921938,0.011116326224930362,0.9492126900859096
2018-01-12,1,0.014703599906422454,0.015299573524297932,-0.0594857684921938,0.007268805555627139,0.9517772926800635
2018-01-17,1,0.013487294541132278,0.014005354417431096,-0.0594857684921938,0.007268805555627139,0.9537588727843685
2018-01-19,1,0.014391498333798049,0.015119226607683419,-0.07197469775362807,0.007268805555627139,0.946407117901979
2018-01-23,1,0.010280254059232996,0.01038702802977029,-0.07197469775362807,0.014430930491052823,0.9471516532360628
2018-01-25,1,0.009347146218260447,0.009371632760627463,-0.07197469775362807,0.014430930491052823,0.9482773393208285
2018-01-29,1,0.005436037237051505,0.005908760492923099,-0.061150632837843534,0.014631060182295052,0.9530293008945153
2018-01-31,-1,-0.0012288890236781323,-1.1191591637046017e-05,-0.03831702277272365,0.024959325949965444,0.9585066047008964
2018-02-02,-1,-0.006283205619897164,-0.004500361761142311,-0.023742021589076952,0.024959325949965444,0.9599336054761272
2018-02-06,-1,-0.0025330676071308998,-0.0012601547802283028,-0.023742021589076952,0.024959325949965444,0.9616260305338566
2018-02-08,0,-0.0007825482134638097,8.931149663323704e-05,-0.011940608573208198,0.024959325949965444,0.9683897233846674
2018-02-12,0,-0.00016388574597359486,0.000567770033140009,-0.011449548384338318,0.037345661756887305,0.9599533998002844
2018-02-14,-1,-0.00492065187659053,-0.0032616113348382138,-0.03509511804031403,0.037345661756887305,0.9574853742677678
2018-02-16,-1,-0.00778592550161999,-0.005709555561162775,-0.016090571985793972,0.03552629772645952,0.9617329917140024
2018-02-21,-1,-0.004810947430972266,-0.003388399988860673,-0.015937495850957856,0.028333306312561035,0.9656008388491498
2018-02-23,-1,-0.0021321182219689815,-0.0012732735607053503,-0.01668368474933693,0.028333306312561035,0.9649757120911726
2018-02-27,-1,-0.003760824883227371,-0.0026161263806711438,-0.030153047524606513,0.028333306312561035,0.9635321295401499
2018-03-01,-1,-0.005791274787043106,-0.0043793963244480915,-0.01668368474933693,0.024462342138221058,0.9657490939134369
