JNU-Tangyin/eata/results/Batch4_SP500/Batch4_SP500-ROK.csv
Date,Action,Predicted_Q25,Predicted_Q75,Actual_Q25,Actual_Q75,RL_Reward
2010-12-14,0,0.0,0.002515950495909349,-0.004928962150827756,0.0037404161565252622,0.9933552877119121
2010-12-16,1,0.005781190812742422,0.006316293877309108,-0.003352559310524591,0.002637756516828457,0.990383300354927
2010-12-20,0,0.0,0.0,-0.003689475104521214,0.0037404161565252622,0.9920209535074852
2010-12-22,0,0.0,0.0,-0.004928962150827756,0.003952197956583303,0.9906888346438868
2010-12-27,1,0.0018959820764044898,0.0020147895909172586,-0.003689475104521214,0.003078309560975102,0.9908556663595872
2010-12-29,1,0.001960817836090043,0.0021620372110115224,-0.003289147144308051,0.010301219719900785,0.9864119550547941
2010-12-31,0,0.0,0.0,-0.004738725652178135,0.010528487392953948,0.9847609859464524
2011-01-04,0,0.0,0.0,-0.003289147144308051,0.010112270426012693,0.9868643982050513
2011-01-06,1,0.0002178941839856281,0.0003084774906226429,-0.0032567600177344494,0.010112270426012693,0.9873602909500824
2011-01-10,0,0.0,0.0,-0.00170163762304065,0.01584641036328184,0.9862117092325781
2011-01-12,0,0.0,0.0,-0.0007039300907576743,0.01584641036328184,0.9858071014360642
2011-01-14,0,0.0,0.0,-0.0007039300907576743,0.01584641036328184,0.9848670890031612
2011-01-19,0,0.0,0.0,-0.0007039300907576743,0.01584641036328184,0.9843624761057987
2011-01-21,0,0.0,0.0,-0.0017815557611325892,0.014105176247027847,0.9851851277925695
2011-01-25,0,0.0,0.0,-0.004660231004799719,0.014105176247027847,0.9834272607860653
2011-01-27,0,0.0,0.0,-0.004660231004799719,0.014105176247027847,0.9868354042689913
2011-01-31,0,0.0,0.0,-0.006658909203190854,0.014105176247027847,0.9867236110849377
2011-02-02,1,0.0018509516717614242,0.0019726803665040715,-0.006658909203190854,0.014125184256702724,0.9859111798106737
2011-02-04,1,0.0016190175215018707,0.0017302722094070344,-0.012944592118487187,0.014125184256702724,0.9847148927006646
2011-02-08,1,0.00197922875400578,0.0021357644513010886,-0.012944592118487187,0.014125184256702724,0.9847560538693969
2011-02-10,1,0.0020393114134838438,0.0022304902749043284,-0.01334895338806208,0.016127162481298474,0.9833165916918668
2011-02-14,0,0.0,0.0,-0.01334895338806208,0.016127162481298474,0.9839073715721128
2011-02-16,0,0.0,0.0,-0.014242997796193407,0.016127162481298474,0.9832864591386183
2011-02-18,1,0.003596062680642136,0.0039593394589663485,-0.014242997796193407,0.018478880499799497,0.9820021658210508
2011-02-23,1,0.00210288272066887,0.00222280511571128,-0.012503544972232978,0.018478880499799497,0.9829681423588171
2011-02-25,1,0.0027364609724710516,0.002920948767966593,-0.012503544972232978,0.017039096395336104,0.9837304348614272
2011-03-01,1,0.0015345186066817056,0.0015656501505285877,-0.009745516529143317,0.018093037248422116,0.9843638385962997
2011-03-03,0,0.0,0.0,-0.009745516529143317,0.017039096395336104,0.9860181656702025
2011-03-07,1,0.000901559331419885,0.0009232218614043305,-0.006686009259800007,0.018093037248422116,0.9863426772005462
2011-03-09,1,0.0010095855716391344,0.0010526888585565743,-0.009745516529143317,0.017039096395336104,0.9860222318983585
2011-03-11,1,0.0006616423108283937,0.0006741139793072582,-0.009610516788526815,0.013063896910650092,0.987394987118995
2011-03-15,1,0.0012442117124449228,0.0013128098439045255,-0.009171123532943339,0.013063896910650092,0.987713332933616
2011-03-17,1,0.0005306433882800425,0.0005892523832034458,-0.007721504788526958,0.0108615358007473,0.9896683016340309
2011-03-21,0,0.0,0.0,-0.009171123532943339,0.010036534525349253,0.9900243738921436
2011-03-23,0,0.0,0.0,-0.007721504788526958,0.010036534525349253,0.9894349624830217
2011-03-25,0,0.0,0.0,-0.007721504788526958,0.006007063765362077,0.9898100479537457
2011-03-29,0,0.0,0.0,-0.008088529014504795,0.006007063765362077,0.9852905750745219
2011-03-31,1,0.0014428839443875136,0.0015257651862584886,-0.01194779571627879,0.00497554971280483,0.9840232694307052
2011-04-04,1,0.0011359084280211855,0.0011619603855940218,-0.013066033796409637,0.0041359900262712135,0.9837588798303402
2011-04-06,1,0.0013739456524153467,0.0013820046808913694,-0.013066033796409637,0.00497554971280483,0.9837019506040774
2011-04-08,1,0.0004184410110270214,0.0005710728653718009,-0.013066033796409637,0.0062952145257158185,0.9842201489633424
2011-04-12,1,0.000244689323518287,0.0004313830812945124,-0.01546895684416168,0.007921347829077914,0.982327932616498
2011-04-14,1,0.0005595722391969109,0.0006856082081700113,-0.017938139393088973,0.007921347829077914,0.9817104075107569
2011-04-18,0,-4.841945720662137e-05,0.00016876047798611966,-0.016484117775351685,0.0062952145257158185,0.9820618206707076
2011-04-20,1,0.0010863385044843665,0.0011540691121954495,-0.016484117775351685,0.0062952145257158185,0.9816636913072279
2011-04-25,1,0.0003215936404274215,0.0005041640420997503,-0.017175752231759118,0.0062952145257158185,0.981190357441361
2011-04-27,1,0.00036854809305771096,0.0005185912283740055,-0.016484117775351685,0.0062952145257158185,0.9859030725456486
2011-04-29,-1,-0.001388908300729431,-0.001024624191632397,-0.016484117775351685,0.007473012973925755,0.9870020506158882
2011-05-03,-1,-0.0023431245707789617,-0.0018533798451001702,-0.016484117775351685,0.007473012973925755,0.9871824006495696
2011-05-05,-1,-0.0016267597538034203,-0.00125259394718971,-0.016484117775351685,0.007473012973925755,0.9866559891060366
2011-05-09,0,0.0,0.0,-0.016484117775351685,0.005532929348686488,0.9862965857102016
2011-05-11,-1,-0.0013297623912040717,-0.001087549583317134,-0.016484117775351685,0.00436641116421886,0.9877131205188424
2011-05-13,-1,-0.0013999579143244463,-0.0011422922083074122,-0.01651290187368598,0.00436641116421886,0.987178565302259
2011-05-17,-1,-0.001698538940324734,-0.0014079817469995757,-0.01765408508300266,0.006340065971336714,0.9851021744877876
2011-05-19,-1,-0.0010948440877677494,-0.0008882788130478915,-0.01765408508300266,0.006340065971336714,0.9863613175604383
2011-05-23,-1,-0.001401587166940116,-0.0011492264475851262,-0.01507088098858629,0.009868885821030649,0.9857682069270953
2011-05-25,-1,-0.001046795552653185,-0.0008359880033194353,-0.01507088098858629,0.008810999788227138,0.9863107810524653
2011-05-27,-1,-0.002599812013948573,-0.0021356390687894914,-0.01507088098858629,0.006954509461219588,0.9859977353885272
2011-06-01,0,0.0,0.0,-0.01373089998721952,0.01303429814369888,0.9843756854800583
2011-06-03,0,0.0,0.0,-0.011166906958324922,0.01351673163369601,0.9848174622510428
2011-06-07,0,0.0,0.0,-0.009746415717245958,0.01351673163369601,0.9850641026568286
2011-06-09,-1,-0.0040078951959956755,-0.0033480295433257726,-0.009746415717245958,0.015520264518465457,0.9840610962262343
2011-06-13,-1,-0.00463018123581075,-0.0039107502507081445,-0.009746415717245958,0.015520264518465457,0.9832854357248932
2011-06-15,0,0.0,0.0,-0.009746415717245958,0.011267770658156453,0.9856373696585674
2011-06-17,0,0.0,0.0,-0.009746415717245958,0.011267770658156453,0.9859000485943681
2011-06-21,0,0.0,0.0,-0.009746415717245958,0.011267770658156453,0.9865316025537246
2011-06-23,0,0.0,0.0,-0.010492453320789935,0.01246301317755346,0.9860347154910786
2011-06-27,0,0.0,0.0,-0.011740649325379285,0.01246301317755346,0.9856134865484035
2011-06-29,1,0.0007331780220974851,0.0008629574755855681,-0.022407869557771895,0.0055277903086026065,0.9838019085074494
2011-07-01,0,0.0,0.0,-0.023487824166429465,7.901095483507214e-06,0.9841862971700279
2011-07-06,1,0.0002693040312659285,0.0002820757274480264,-0.02460982505813332,0.002069036053854477,0.9799605985693755
2011-07-08,0,0.0,0.0,-0.03584724745954889,7.901095483507214e-06,0.9757910335233421
2011-07-12,1,0.00014840380685040308,0.0002502027979826539,-0.043300959755559414,0.002069036053854477,0.9696565894352291
2011-07-14,-1,-0.0016337296144817064,-0.001463109929652111,-0.043300959755559414,0.005926204481734943,0.9671491813472636
2011-07-18,-1,-0.002236872417226422,-0.001938040492530818,-0.043300959755559414,0.014223990237771456,0.965250572582326
2011-07-20,-1,-0.0006970068817157229,-0.000654754218152057,-0.043300959755559414,0.001874360140502942,0.9639796151250668
2011-07-22,-1,-0.0013701974544335434,-0.0011830315359041997,-0.045026139020563766,-0.005011723199482868,0.9590777841676333
2011-07-26,0,0.0,0.0,-0.045026139020563766,0.012258876538148571,0.9565220474693887
2011-07-28,0,0.0,0.0,-0.039423934770978906,0.032760516707504454,0.9584683315986052
2011-08-01,-1,-0.004619282566493068,-0.004117150094944708,-0.039423934770978906,0.038972141536833586,0.958367165574952
2011-08-03,-1,-0.00476171509420375,-0.004227201155101541,-0.03742394670694549,0.031440394820213956,0.9596506610112066
2011-08-05,0,0.0,0.0,-0.029635107553959605,0.031440394820213956,0.9614489346412837
2011-08-09,-1,-0.009071728840794317,-0.00806349633786735,-0.029286867400249984,0.031353394394209144,0.9664857898229187
2011-08-11,-1,-0.006097947667529545,-0.005493334560548696,-0.025643869537414783,0.029093199362069503,0.9694906860864785
2011-08-15,-1,-0.005756146139100079,-0.005215962742513536,-0.025643869537414783,0.028420092925976075,0.9700510687649812
2011-08-17,-1,-0.005878399020804434,-0.005361541192340601,-0.025643869537414783,0.028420092925976075,0.9692911619996943
2011-08-19,-1,-0.008589068898836639,-0.00776760073722183,-0.02046625942390228,0.028420092925976075,0.9742113539997349
2011-08-23,-1,-0.005987668615290271,-0.005505643399301304,-0.025643869537414783,0.025343924614903632,0.9751010804966066
2011-08-25,-1,-0.006279115812450607,-0.0057831428187354395,-0.029286867400249984,0.01934235135984981,0.9745208072706625
2011-08-29,0,0.0,0.0,-0.029286867400249984,0.025496718761163457,0.9715309376806371
2011-08-31,0,0.0,0.0,-0.029286867400249984,0.016083637084102854,0.972416206345851
2011-09-02,-1,-0.0035260902112454373,-0.003306274806692142,-0.025402731316803075,0.016083637084102854,0.9740572291848782
2011-09-07,-1,-0.003103625805771888,-0.0029436958649058558,-0.025170618615122396,0.01934235135984981,0.9729140215007142
2011-09-09,-1,-0.004270068403301956,-0.0039752619120355815,-0.025402731316803075,0.023997570001260606,0.9722890197948432
2011-09-13,-1,-0.0022772198028226305,-0.0022696138105956255,-0.025402731316803075,0.025588047315438726,0.9715197321174571
2011-09-15,-1,-0.0010058061631050702,-0.0008165779663151386,-0.025402731316803075,0.031145718513189778,0.9711336312087019
2011-09-19,0,0.0,0.0,-0.026521472917395286,0.03768433922521659,0.9675874853840265
2011-09-21,0,0.0,0.0,-0.025146014686304778,0.04036191550095686,0.9676922216276669
2011-09-23,0,0.0,0.0,-0.024517771721525278,0.04186136305384629,0.9684312054158543
2011-09-27,-1,-0.009885987002455344,-0.009135677216618114,-0.025146014686304778,0.03768433922521659,0.9680584723017259
2011-09-29,0,0.0,0.0,-0.025146014686304778,0.04036191550095686,0.9672276765276622
2011-10-03,0,0.0,0.0,-0.014345784352709104,0.04036191550095686,0.9668640851834165
2011-10-05,0,0.0,0.0,-0.02593799665358174,0.04036191550095686,0.9671909651843072
2011-10-07,-1,-0.002313513488448312,-0.0022374289842792875,-0.022427984815327727,0.04036191550095686,0.9664082455131054
2011-10-11,1,0.00010817178134849557,0.00042734876761238536,-0.022427984815327727,0.04132413948887213,0.9661976474151137
2011-10-13,1,0.0006127357827171736,0.0009381305313827475,-0.02611629941388772,0.04132413948887213,0.9647826786726268
2011-10-17,0,0.0,0.0,-0.022427984815327727,0.03711641152386946,0.966891630100633
2011-10-19,1,0.0022808171876734454,0.003033763129325622,-0.0233094205809027,0.0343151838610857,0.9692973884210078
2011-10-21,0,0.0,0.0,-0.025328766557763113,0.029522189642316052,0.9691146463185527
2011-10-25,0,0.0,0.0,-0.025328766557763113,0.027963172504398403,0.9712540667953814
2011-10-27,1,0.0032184881434146402,0.0038256256182048714,-0.028760606710612625,0.014554883888810433,0.9738219369718647
2011-10-31,1,0.0027023884286267548,0.0032686707635837366,-0.025328766557763113,0.027963172504398403,0.9736456890876171
2011-11-02,1,0.0031580675737921354,0.0037337116439244804,-0.022205460941048923,0.027963172504398403,0.9741749208949101
2011-11-04,1,0.003595907797797722,0.004261996899120641,-0.016507772349222797,0.021745978764098086,0.9759416389226269
2011-11-08,1,0.005267874493301666,0.006167586794150368,-0.016507772349222797,0.0162232417702617,0.9785811374207334
2011-11-10,1,0.005159046749935994,0.006106814722826067,-0.014968870133238648,0.015698343044479323,0.9806869189892407
2011-11-14,1,0.005719937219044029,0.0067467901411067035,-0.019608100269956893,0.01179653790919788,0.981119229097255
2011-11-16,1,0.005025555357135083,0.0059389313790828326,-0.019608100269956893,0.01179653790919788,0.980366677851982
2011-11-18,0,0.0,0.0,-0.013413734980589478,0.008565974010673971,0.9822176548636776
2011-11-22,0,0.0,0.0,-0.013413734980589478,0.015698343044479323,0.9807136309086759
2011-11-25,0,0.0,0.0,-0.004943571621232113,0.01879513211425032,0.98116331996463
2011-11-29,0,0.0,0.0,-0.013413734980589478,0.015698343044479323,0.9826115085476322
2011-12-01,0,0.0,0.0,-0.006495392645693202,0.015698343044479323,0.9849962661261057
2011-12-05,0,0.0,0.0,-0.006495392645693202,0.015698343044479323,0.9843488269336643
2011-12-07,0,0.0,0.0,-0.019973732258089346,0.011308167415992082,0.9826735486896356
2011-12-09,0,0.0,0.0,-0.011825247217221422,0.012733543281035788,0.9827857070775701
2011-12-13,0,0.0,0.0,-0.0037792309654038937,0.0213706568860144,0.9810199837797268
2011-12-15,0,0.0,0.0,-0.0013742305180983359,0.0213706568860144,0.9829283890067592
2011-12-19,0,0.0,0.0,-0.0012336593924838156,0.02285695294340529,0.9820016541873728
2011-12-21,0,0.0,0.0,-0.0012336593924838156,0.0213706568860144,0.9848663078657025
2011-12-23,1,0.005325373135775161,0.00635909284903261,-0.0033575175885603332,0.01980094154731553,0.9850258042886102
2011-12-28,1,0.0021123928265294515,0.0024037030975270165,-0.007498840644356836,0.01980094154731553,0.984523786180085
2011-12-30,1,0.0026619411352591183,0.003075527379700631,-0.007498840644356836,0.01624646910277202,0.9847627309877804
2012-01-04,1,0.003972335520280387,0.0045760680872137995,-0.007498840644356836,0.01624646910277202,0.9852487790094954
2012-01-06,1,0.0020302816650083714,0.0024018151709760257,-0.002353638862811795,0.018424603849367942,0.9870339790325172
2012-01-10,1,0.0024706972188952895,0.002838429476630914,-0.002353638862811795,0.015420417230176134,0.9880944623456339
2012-01-12,1,0.0017418885896538115,0.0017436029576975418,-0.004487204467111222,0.008613583000684887,0.9895663371663235
2012-01-17,1,0.0028269013282773356,0.00313635893491506,-0.008610446988457223,0.008613583000684887,0.9886302716259918
2012-01-19,1,0.0022400823918973045,0.0024304290821212495,-0.008610446988457223,0.008613583000684887,0.9890768476785816
2012-01-23,1,0.0026790543334021828,0.0030038474606403297,-0.004487204467111222,0.013365928941040849,0.9886517530850666
2012-01-25,0,0.0,0.0,-0.00720489410992973,0.013365928941040849,0.9891386763274452
2012-01-27,0,0.0,0.0,-0.0040949329774275295,0.013365928941040849,0.9892726930900476
2012-01-31,1,0.0005683426268589536,0.0005785456648997064,-0.00783021036975888,0.012693040872728139,0.9892999572539037
2012-02-02,0,0.0,0.0,-0.01129836560202932,0.012693040872728139,0.9892776645176768
2012-02-06,0,0.0,0.0,-0.012838568678563752,0.009608518900768387,0.9879505219232153
2012-02-08,0,0.0,0.0,-0.012838568678563752,0.013367910101762574,0.985784846125312
2012-02-10,1,0.003364935394959342,0.003600564093957584,-0.01129836560202932,0.015183993741646126,0.9855987450892936
2012-02-14,-1,-0.0008267946187988299,-0.0005641196595765906,-0.010438094514982833,0.017046318233171508,0.9851400764968402
2012-02-16,-1,-0.00028749455462553843,-7.049802681592481e-05,-0.010438094514982833,0.015183993741646126,0.9853743960189679
2012-02-21,0,0.0,0.0,-0.01129836560202932,0.013619533275432699,0.9852725437663208
2012-02-23,0,0.0,0.0,-0.01123272893175611,0.013619533275432699,0.9857687283248717
2012-02-27,-1,-0.0017207108386096083,-0.0012297142669517149,-0.010438094514982833,0.015179817029107414,0.9867872945805838
2012-02-29,-1,-0.0007725776912152265,-0.0005305772713805885,-0.010787849828441531,0.015179817029107414,0.9861423986866685
2012-03-02,0,0.0,0.0,-0.009765166745283433,0.009231089963637187,0.9870455657443018
2012-03-06,0,0.0,0.0,-0.00910859011944027,0.009231089963637187,0.9885430055759955
2012-03-08,0,0.0,0.0,-0.010712854890872373,0.005804678573829303,0.9898065044534345
2012-03-12,0,0.0,0.0,-0.012527574360208453,0.005189314012313579,0.9889976326336211
2012-03-14,0,0.0,0.0,-0.012527574360208453,0.005804678573829303,0.9882039983958262
2012-03-16,1,0.000677643160336841,0.0008342675828248973,-0.013378228012966956,0.005662049401509685,0.9867953451205881
2012-03-20,-1,-0.0006132055706576755,-0.0002406570050313688,-0.013378228012966956,0.008147412292529752,0.9866548031282157
2012-03-22,1,0.0007222498303798093,0.0008250204214322052,-0.013378228012966956,0.008147412292529752,0.9866142889070991
2012-03-26,0,-0.0002759970852538136,5.0292330669592794e-05,-0.014111560368177442,0.008147412292529752,0.9854177684256042
2012-03-28,1,0.0002623365579203735,0.00042961899254674834,-0.014111560368177442,0.01276787565726779,0.9841054195738299
2012-03-30,-1,-0.0003060526187525143,-7.918593097773496e-05,-0.014111560368177442,0.01276787565726779,0.9835074619179088
2012-04-03,1,0.0005899022749866231,0.0006916694957185318,-0.014111560368177442,0.01276787565726779,0.9837775690179936
2012-04-05,1,0.000439071199044072,0.0005770921920274639,-0.016309814622499016,0.010679378590685846,0.9840882765214064
2012-04-10,-1,-0.0008290088994612471,-0.0005574758394836312,-0.011974854998574909,0.012796721550083129,0.9850924143367197
2012-04-12,1,0.0010845007000399992,0.0011514802906531054,-0.011974854998574909,0.009231105229005662,0.9871380614718247
2012-04-16,0,-0.00018823180535014407,3.9714687690242906e-05,-0.010894498082276185,0.009231105229005662,0.9884351739954075
2012-04-18,-1,-0.0007757779342819696,-0.0004383464349618734,-0.010894498082276185,0.005529743485055386,0.9893088204883017
2012-04-20,-1,-0.0017678257081780106,-0.0012605104105638829,-0.011190919231456094,0.005529743485055386,0.9875795936206987
2012-04-24,-1,-0.0010668007263364375,-0.0007410231366620157,-0.010894498082276185,0.009231105229005662,0.9866180414491844
2012-04-26,-1,-0.001111675063531735,-0.0008920299579554886,-0.010736552804981219,0.005529743485055386,0.9887372526843509
2012-04-30,-1,-0.0009282495832850849,-0.0007672067236473057,-0.010682605498997884,0.005857591405593304,0.9880524459006021
2012-05-02,-1,-0.0002283223028977668,-0.00017372722706440155,-0.011190919231456094,0.0033812038153354885,0.9855852607854874
2012-05-04,-1,-0.0008853476583311196,-0.0007496569847372689,-0.01573316107130909,0.0033812038153354885,0.9830741901170995
2012-05-08,-1,-0.0008825919084382788,-0.0007047886535300206,-0.01573316107130909,0.004424681772875875,0.9822216221476745
2012-05-10,-1,-0.002258492973297427,-0.0018473726318792175,-0.01573316107130909,0.0059287668343919065,0.9821487685762974
2012-05-14,0,0.0,0.0,-0.018746403843956996,0.012571532118025263,0.9809766110267137
2012-05-16,0,0.0,0.0,-0.018746403843956996,0.012571532118025263,0.981139867905724
2012-05-18,0,0.0,0.0,-0.01584756205723,0.012571532118025263,0.9830127789412689
2012-05-22,-1,-0.0020152680294507506,-0.0016747805171347517,-0.01584756205723,0.006829758333656176,0.9853003823050919
2012-05-24,-1,-0.0017187358372009252,-0.0014425124580641402,-0.02030846770972552,0.006829758333656176,0.9833310746098377
2012-05-29,0,0.0,0.0,-0.02030846770972552,0.004925667864506008,0.9833624183880527
2012-05-31,0,0.0,0.0,-0.016407342695739388,0.004925667864506008,0.9852327329134993
2012-06-04,0,0.0,0.0,-0.01584756205723,0.006829758333656176,0.9855578702722997
2012-06-06,0,0.0,0.0,-0.01584756205723,0.006829758333656176,0.9863915493056755
2012-06-08,-1,-0.0037863701837714888,-0.0034910686763714883,-0.01584756205723,0.005596358128555554,0.9877251507717508
2012-06-12,-1,-0.002399572507676083,-0.002169473450886053,-0.016368250012486173,0.004389312903636956,0.9878221668425592
2012-06-14,-1,-0.003225935080284714,-0.002893937992436887,-0.018298212073598975,0.005596358128555554,0.98631634836324
2012-06-18,-1,-0.0030096270758613996,-0.002699669754321012,-0.018298212073598975,0.004389312903636956,0.9863797284731168
2012-06-20,0,0.0,0.0,-0.018298212073598975,0.004389312903636956,0.9831576841073841
2012-06-22,0,0.0,0.0,-0.013389762690426306,0.006476313228183255,0.9841263356540803
2012-06-26,0,0.0,0.0,-0.016202037010345973,0.006476313228183255,0.9831215423949591
2012-06-28,0,0.0,0.0,-0.011991605866460114,0.01657367495460114,0.9805401530792454
2012-07-02,-1,-0.0036961114893126904,-0.0033623590196994943,-0.011991605866460114,0.011066617691928878,0.9828803398526805
2012-07-05,-1,-0.0035268014479979994,-0.0031880747533077607,-0.01554146157192332,0.01036389855603006,0.9828847261554257
2012-07-09,-1,-0.003630996111398853,-0.003274713156847216,-0.01554146157192332,0.01657367495460114,0.9806897109331363
2012-07-11,-1,-0.0038528994134722954,-0.0035110306285842056,-0.011991605866460114,0.021192372025041765,0.9806800065888842
2012-07-13,-1,-0.0032581629640316074,-0.0030305080666200397,-0.007745414156551813,0.016485655026005158,0.9822621191130951
2012-07-17,-1,-0.003910668451852422,-0.0035807943075714934,-0.0064486684956426305,0.016485655026005158,0.9814227696989573
2012-07-19,-1,-0.0017684770522160098,-0.0016883045069169106,-0.008565967651074053,0.016178765351620703,0.9839492421992484
2012-07-23,-1,-0.0017550078236729426,-0.0016564823571162766,-0.008565967651074053,0.013821798574273705,0.9842667112813624
2012-07-25,-1,-0.00307405979973795,-0.002834594750359034,-0.0074023389534569085,0.013821798574273705,0.9853058385346697
2012-07-27,-1,-0.0011936536097668052,-0.0011067782193168656,-0.0074023389534569085,0.009401592928344442,0.98904739602008
2012-07-31,-1,-0.0005403894981026078,-0.00045028842438208603,-0.005535309741959307,0.008160723798521348,0.9903648955510138
2012-08-02,-1,-0.00031855460173867785,-0.00015515508642027504,-0.005535309741959307,0.008160723798521348,0.9909939658462124
2012-08-06,1,0.0010417518323514346,0.0014119207550336902,-0.007127320605225197,0.007141356505418339,0.9923783448209826
2012-08-08,1,0.0016792842655888806,0.002139102864219393,-0.0074023389534569085,0.007141356505418339,0.9924348840083648
2012-08-10,1,0.001673210714018215,0.002090794982925404,-0.008083979383868617,0.007141356505418339,0.9913867718180879
2012-08-14,1,0.002010112923773919,0.0024606592199787657,-0.009137914902956035,0.006494948284580124,0.9901076026540051
2012-08-16,1,0.002701274358873077,0.003266493176253239,-0.009137914902956035,0.006494948284580124,0.9904921196828881
2012-08-20,1,0.0022861421158334163,0.0027531995118115138,-0.00828624623925116,0.003964872456035503,0.991504929465412
2012-08-22,1,0.0018510514350350573,0.0022646762704682136,-0.007319877862319621,0.006494948284580124,0.9918690847597501
2012-08-24,1,0.0021326754749694324,0.002576208609076142,-0.007319877862319621,0.007155923221245516,0.9913871650628957
2012-08-28,1,0.0021415861573134487,0.002597609724564268,-0.009381425225142737,0.007155923221245516,0.9890846732007188
2012-08-30,1,0.0013807681226771736,0.001665997650591276,-0.008664985536992343,0.007155923221245516,0.9892836194926088
2012-09-04,1,0.0024516257101852134,0.00298814070225721,-0.008664985536992343,0.006912861584017003,0.9895113631004968
2012-09-06,1,0.0020545024794197684,0.00248214288057467,-0.007094120874995152,0.006912861584017003,0.989979604362012
2012-09-10,1,0.0024155256191550796,0.002904385643094771,-0.006251106675779107,0.0053215080363650325,0.9910170814465558
2012-09-12,1,0.001598315031915727,0.0019782545522081846,-0.004721429976052579,0.0053215080363650325,0.9917547255588759
2012-09-14,1,0.0018817248481608235,0.002292674807615117,-0.004113390998560588,0.005171804785500038,0.9923292088029698
2012-09-18,1,0.0020419996990533747,0.0024874556048476403,-0.004113390998560588,0.0063546135862170535,0.992080867399641
2012-09-20,1,0.0027670275135000654,0.003297920645529885,-0.004113390998560588,0.0063546135862170535,0.9918328940785605
2012-09-24,1,0.0030456152504546273,0.003643515333410555,-0.004113390998560588,0.005638391305953881,0.9904768706941438
2012-09-26,1,0.001161409882691996,0.0014749853612822628,-0.004113390998560588,0.005638391305953881,0.991648809053285
2012-09-28,1,0.0019794855556931733,0.0024406189304227504,-0.004113390998560588,0.005638391305953881,0.9918740992039761
2012-10-02,0,0.0,0.0,-0.0038646873858694964,0.007182402305281562,0.9878148146423834
2012-10-04,0,0.0,0.0,-0.0038646873858694964,0.008586261733813666,0.9866865871152338
2012-10-08,0,0.0,0.0,-0.004794896788059453,0.009409347406570831,0.9859532185946214
2012-10-10,0,0.0,0.0,-0.0011482319768088911,0.010646237453029495,0.98534802338203
2012-10-12,1,0.001809800424071206,0.0021900191426859673,-0.0005941507363924577,0.010646237453029495,0.9861603822200687
2012-10-16,1,0.0023538867210072126,0.0028080282440767247,-0.010442393828054921,0.010646237453029495,0.9852885745038156
2012-10-18,1,0.0038809893650833707,0.004552540343017558,-0.010442393828054921,0.010646237453029495,0.9859282685264461
2012-10-22,1,0.0019142555229851375,0.0021910390087102657,-0.007549935438092738,0.010646237453029495,0.9868257423285889
2012-10-24,-1,-0.00024546667059247387,-9.655045243702051e-05,0.0014063801973175083,0.011849310283744797,0.986268849411678
2012-10-26,1,0.0005440291642013965,0.0005689995369597325,-0.00037694834569537857,0.011849310283744797,0.986577908986554
2012-11-01,1,0.003618070107404521,0.004072621576102425,-0.0007621157212326147,0.009946109656676881,0.9910917316423418
2012-11-05,1,0.004595071854659329,0.0051649106259365855,-0.003986587049561397,0.008196330172885836,0.9917483062321706
2012-11-07,1,0.0037116966352221774,0.0041132408165528685,-0.0031570984431565224,0.008196330172885836,0.9920236133317797
2012-11-09,1,0.0034507388074154297,0.0038200783263195306,-0.0007621157212326147,0.006787734251974828,0.9932718618704839
2012-11-13,1,0.003958663066282033,0.004376640959619697,-0.0007621157212326147,0.008234518121464578,0.9929269594299317
2012-11-15,1,0.0024349025644920036,0.0025135887894861923,-0.00027404488295755856,0.008234518121464578,0.9942308790946713
2012-11-19,1,0.002571267846918808,0.002634637818919831,-0.00027404488295755856,0.008234518121464578,0.9940591164398864
2012-11-21,1,0.0014280791649560899,0.001514653938900657,-0.0015842503701052903,0.008234518121464578,0.9932942481907721
2012-11-26,0,0.0,0.0,-0.0015842503701052903,0.006787734251974828,0.9936913663473289
2012-11-28,0,0.0,0.0,-0.001692885928331354,0.0050147520062826245,0.9939125393117553
2012-11-30,1,0.002050065806694243,0.0021206835657137466,-0.0035765730836618994,0.008234518121464578,0.9925188761661484
2012-12-04,1,0.0013807831505157852,0.0014565902741102052,-0.001692885928331354,0.010146355135269222,0.9923433517484226
2012-12-06,1,0.0013584887226705746,0.001453070226220062,-0.0017864538941585403,0.010146355135269222,0.9925924178328989
2012-12-10,1,0.0007346281610464872,0.000940910337959018,-0.0039240054119251645,0.011210022255159234,0.9909235043056224
2012-12-12,1,0.0026058992102960745,0.0027479003030651218,-0.004597784993704251,0.006290891404550839,0.9910895705693595
2012-12-14,1,0.0025717458964358607,0.002719293759729569,-0.004597784993704251,0.006290891404550839,0.9908320860855514
2012-12-18,1,0.002411396389428398,0.002411713274955122,-0.004597784993704251,0.005367057255784588,0.9909670056474982
2012-12-20,1,0.0028771549129096062,0.003112544845707603,-0.0026267297565478547,0.009259680868153696,0.9915113590788791
2012-12-24,1,0.002246714478530045,0.002348410796201549,-0.0031453011733236363,0.011330870255463196,0.9911424662238069
2012-12-27,1,0.0018960025466981543,0.001928280982445741,-0.0023894044872745804,0.011330870255463196,0.9911339583769269
2012-12-31,1,0.0030612398364692588,0.003301724450431865,-0.00239197030278544,0.008782476491604544,0.9915563590401849
2013-01-03,1,0.0036283128666472625,0.003980734737363569,-0.00239197030278544,0.011175881676190092,0.9915609213833457
2013-01-07,1,0.003856392914962036,0.004251018582900281,-0.00239197030278544,0.008782476491604544,0.991516542884531
2013-01-09,1,0.003666266659769008,0.004053406563437612,-0.00239197030278544,0.008025030768664244,0.9929019014462934
2013-01-11,1,0.0035978222345711447,0.004005508790338391,-0.0022174026201862733,0.008025030768664244,0.9931712077435383
2013-01-15,0,0.0,0.0,-0.0009671957518636009,0.008025030768664244,0.9925530807700512
2013-01-17,0,0.0,0.0,-0.00239197030278544,0.00777187306153412,0.9931031923691553
2013-01-22,0,0.0,0.0,-0.0034723360101831463,0.005213499401465234,0.9931271678106549
2013-01-24,0,0.0,0.0,-0.005514298698441388,0.005213499401465234,0.9925930402443925
2013-01-28,1,0.004246736470495701,0.004598215027258028,-0.007265778978178879,0.00556952123564331,0.9911242671938432
2013-01-30,1,0.003601457087366029,0.003860304652872047,-0.005514298698441388,0.007275129402780974,0.9918316728712583
2013-02-01,1,0.0045993530577280745,0.005001310612181266,-0.009592965438448764,0.004652145531960561,0.9909838540914422
2013-02-05,1,0.004152673797375811,0.004495500259746798,-0.007265778978178879,0.004652145531960561,0.9913788105013406
2013-02-07,1,0.0033960390092428005,0.0035750703140250903,-0.007265778978178879,0.00556952123564331,0.9913554482511484
2013-02-11,1,0.0036323573554609173,0.003870047076574318,-0.009968565080687945,0.005139842519630671,0.9900835889584606
2013-02-13,1,0.003375120322136353,0.0035676370527801503,-0.009968565080687945,0.005638473588909097,0.9902245566365092
2013-02-15,1,0.003679375663048477,0.003969162991494976,-0.011877784804822784,0.005638473588909097,0.9894783286406026
2013-02-20,1,0.00278902983566364,0.002931650657933142,-0.009968565080687945,0.005638473588909097,0.9900094715334701
2013-02-22,1,0.001551035240014197,0.001682989311741818,-0.009898796005626048,0.004427640056268528,0.9908975930035904
2013-02-26,1,0.0010769374578150745,0.0012509360144302565,-0.008954366044587523,0.002301588858302766,0.9916494997339663
2013-02-28,1,0.0007278069760250959,0.000961600643454037,-0.008954366044587523,0.002724189198093579,0.9919013805095733
2013-03-04,1,0.00018853566119096546,0.00045969779398752906,-0.008557316532358087,0.002724189198093579,0.9921007943405307
2013-03-06,1,0.00012100023875963035,0.0004205654025156122,-0.008557316532358087,0.0033570287492231702,0.9914768564854365
2013-03-08,1,0.0001645647296379608,0.0004915749673301536,-0.008954366044587523,0.0033570287492231702,0.9911110469482797
2013-03-12,-1,-0.0009503743455823264,-0.000492829960465046,-0.008557316532358087,0.0052582151801849365,0.9914109538432363
2013-03-14,-1,-0.0006701989624492651,-0.0002563754709736931,-0.008954366044587523,0.0036901900979890985,0.9910353000113555
2013-03-18,-1,-0.0012845431948037454,-0.0008182058499097854,-0.008557316532358087,0.007123910926926832,0.9888321999671544
2013-03-20,-1,-0.002654444683115273,-0.001960286731212043,-0.010443880824764936,0.007123910926926832,0.9885678939910414
2013-03-22,-1,-0.003807285507729759,-0.0029160878202311264,-0.010443880824764936,0.010564129998898657,0.9879513317139867
2013-03-26,-1,-0.0042809646916548965,-0.003338173825445027,-0.010443880824764936,0.012616499636493268,0.9864336072630105
2013-03-28,-1,-0.0014927253951045364,-0.00106424508171423,-0.011151067580741907,0.012005685514868815,0.9865325351300515
2013-04-02,-1,-0.0015986537031511096,-0.0011998335848026707,-0.010443880824764936,0.012005685514868815,0.9873920077521102
2013-04-04,0,-0.00016160280282134982,0.0001048657203785244,-0.011151067580741907,0.010564129998898657,0.987488143666231
2013-04-08,-1,-0.0004046221656833671,-0.00010617992413451064,-0.011151067580741907,0.012395655165824242,0.9866562637550839
2013-04-10,1,0.000513836386523363,0.0006809359522217835,-0.011151067580741907,0.012395655165824242,0.9862944214840313
2013-04-12,-1,-0.0011783101279923107,-0.0007586243257086309,-0.009533130515097864,0.012395655165824242,0.98642846819527
2013-04-16,-1,-0.0021882349398617117,-0.0016655227831042054,-0.0028722659879907384,0.012395655165824242,0.9879735523342881
2013-04-18,-1,-0.0034102819998185095,-0.0027221890366538595,-0.0012601287717534013,0.012395655165824242,0.9881782916231747
2013-04-22,-1,-0.002492924912298775,-0.0019343583100151127,-0.0012601287717534013,0.013576070443394088,0.988494299696331
2013-04-24,-1,-0.0018417687089547002,-0.0013534488047577363,-0.0028687167642149993,0.010457030319032987,0.9891885113500121
2013-04-26,-1,-0.002547639623122241,-0.001968828968808936,-0.0040857373072710965,0.010457030319032987,0.9900470799516753
2013-04-30,-1,-0.002208764920218465,-0.0017091506455578311,-0.005450503944498643,0.012986304677955822,0.9892492421478896
2013-05-02,-1,-0.002891463923251492,-0.002327899790825678,-0.005392932777105758,0.012986304677955822,0.9903096361559932
2013-05-06,-1,-0.001753723396910697,-0.0013205204707004811,-0.006603867341699237,0.008786658045969755,0.991946351663639
2013-05-08,-1,-0.0006283787005369221,-0.00034861254736558546,-0.0070668005219495685,0.0033248518365340783,0.9922168213846058
2013-05-10,-1,-0.0012436302126383662,-0.0008893505998573194,-0.006603867341699237,0.007761424461121812,0.9921213808062257
2013-05-14,1,0.00037994402871627356,0.00048035757756674817,-0.00804136053900335,0.0007433578074094089,0.991579071272094
2013-05-16,-1,-0.0002617049510034871,-5.5977358869997544e-05,-0.00804136053900335,0.0033248518365340783,0.9907464414832183
2013-05-20,1,0.0007995065195610596,0.0008522364595145843,-0.00804136053900335,0.0034335435891026224,0.9905444707277083
2013-05-22,0,-9.970735692252695e-05,6.089753673402422e-05,-0.00934179753479371,0.0034335435891026224,0.9894693524341571
2013-05-24,1,0.0001481137360786672,0.0002219237990662074,-0.01238494636635953,0.004209102150110245,0.9887349445788236
2013-05-29,1,0.000493042222069732,0.0005173439865123661,-0.01238494636635953,0.004209102150110245,0.9887109663301167
2013-05-31,1,0.0005120017888556742,0.0005255710305238157,-0.012638421308871753,0.0045189736883093886,0.9883439111616186
2013-06-04,0,-4.495887537037975e-05,5.060938322317283e-05,-0.012638421308871753,0.009398000444238674,0.9876441942824331
2013-06-06,-1,-0.000872316538467485,-0.0006713809882875605,-0.01238494636635953,0.012087290378597786,0.9875212892947778
2013-06-10,-1,-0.0005816650218244567,-0.0004047908377624031,-0.01238494636635953,0.01012696291450283,0.9873673482185688
2013-06-12,-1,-0.0008714368384575535,-0.000703936377654702,-0.003460032303564977,0.01516718794429952,0.9866740880789289
2013-06-14,1,0.0005379180302103448,0.0005574827341379644,-0.003460032303564977,0.011488769441553005,0.9877093153568257
2013-06-18,1,0.0010380621318546238,0.0011266505006918928,-0.004663038795480303,0.01124403297154574,0.9877622149129941
2013-06-20,-1,-0.0002469945538684903,-0.0001874039881431007,-0.002518902031016174,0.012025822296312192,0.9891899153211055
2013-06-24,-1,-0.0013043748454197274,-0.0011175753745084898,-0.0014991157794353473,0.012025822296312192,0.9899557093405902
2013-06-26,-1,-0.0006324089769674667,-0.0006135586225370518,-0.004050947996579152,0.01082089643386274,0.9903629100487474
2013-06-28,-1,-0.0008165548986203059,-0.000769335802434806,-0.004050947996579152,0.01082089643386274,0.9910229013789839
2013-07-02,-1,-0.00011999903609911757,-8.49039173614479e-05,-0.004050947996579152,0.01189139332070436,0.9888812758150183
2013-07-05,1,0.0006165647441507718,0.0007606351039595107,-0.004050947996579152,0.01189139332070436,0.988585519407119
2013-07-09,1,0.0010993360934989506,0.001316576339454396,-0.0053651616824058265,0.01189139332070436,0.9889417806337759
2013-07-11,1,0.0016253303510190198,0.0019020097282482404,-0.0053651616824058265,0.01082089643386274,0.989968578444408
2013-07-15,1,0.0017871435468192044,0.002062232719243701,-0.006471412646481527,0.009857705363693053,0.9900249848728537
2013-07-17,1,0.002122515659967885,0.0024515940772057102,-0.006471412646481527,0.008550012221220215,0.9905179670900139
2013-07-19,1,0.002177453979801484,0.0024907516442774875,-0.0068703243488954435,0.004827841554227553,0.9901022374885609
2013-07-23,1,0.0024760262364126543,0.0028583588488236616,-0.0068703243488954435,0.0055613871416415675,0.9899820901730416
2013-07-25,1,0.0015698364002729595,0.0017872398223146208,-0.004158704415036488,0.008550012221220215,0.9898026305341614
2013-07-29,1,0.0015802872609205513,0.0018302434597282907,-0.00430768577860131,0.008550012221220215,0.9898312485601982
2013-07-31,1,0.0035940881353679916,0.00412489051253088,-0.006980004212212376,0.0037985148490020646,0.9912378101397081
2013-08-02,1,0.0040666991097806976,0.004617234165146956,-0.006980004212212376,0.0028511211599317465,0.9915401441989069
2013-08-06,1,0.003912538608704949,0.004453662011872557,-0.0058779168341905755,0.005365043578407114,0.991934217156009
2013-08-08,1,0.003561687635104918,0.004015832226192366,-0.003952867079559412,0.005225391074371011,0.9925928206282351
2013-08-12,1,0.0032066966793838757,0.003596663800686614,-0.0022485454227337623,0.007621803136396366,0.9917825829020314
2013-08-14,1,0.0028539967872346565,0.003174314847788534,-0.002064125838802881,0.007621803136396366,0.9916298207559187
2013-08-16,1,0.0020311160878704795,0.0022149572154304916,-0.001157358311504248,0.008694605450548462,0.9917423707262057
2013-08-20,1,0.002195114619614325,0.002426691691702011,-0.0013665758292275539,0.012592940289819093,0.9908753881443962
2013-08-22,1,0.0024295388366651523,0.0026477457233827955,-0.0033996083277667683,0.008694605450548462,0.9911924800004762
2013-08-26,1,0.002579504022053268,0.00286306997204101,-0.0031128775882664043,0.008694605450548462,0.991547866174762
2013-08-28,1,0.0019155578019011822,0.0021117481013435174,0.00037650640584858497,0.008694605450548462,0.9921917330332611
2013-08-30,1,0.002159901711286198,0.0024176001475005094,-0.0023523474466090426,0.008694605450548462,0.992201307442367
2013-09-04,1,0.002341567231019367,0.0025986427730584263,-0.0031128775882664043,0.007973722404017386,0.9920249373293611
2013-09-06,1,0.001987017435605618,0.002138503600661706,-0.004731142179127555,0.008667446873662459,0.9914243749219873
2013-09-10,1,0.002530816058594702,0.002710995787954802,-0.00602990735810305,0.007357592926777678,0.9922733729896828
2013-09-12,1,0.002651331956753745,0.0028645356682282528,-0.007204601113176491,0.007683528989919891,0.9902501553988436
2013-09-16,1,0.0034285934534921915,0.0037825134192716534,-0.007204601113176491,0.006426518163988152,0.9907644398168742
2013-09-18,1,0.003402481383718019,0.003718113174580361,-0.008710187531712732,0.0034148874866615493,0.9905815727785697
2013-09-20,1,0.0029607133333312934,0.0032052398467966653,-0.007204601113176491,0.007683528989919891,0.9903274996815944
2013-09-24,1,0.0023260451876253403,0.00244713249830793,-0.007204601113176491,0.007683528989919891,0.9905671031743727
2013-09-26,1,0.0029416086264091048,0.003200121972495473,-0.007204601113176491,0.008667446873662459,0.9901444973479454
2013-09-30,1,0.0029067052168539153,0.003200376105492896,-0.008326835463428254,0.008667446873662459,0.9898082925125893
2013-10-02,1,0.002665705068008317,0.0029036603228842295,-0.007804897875404901,0.009063506220913975,0.9898902404907203
2013-10-04,1,0.0028214685075105823,0.0031141245773065544,-0.008326835463428254,0.005165670464416854,0.9899917342145955
2013-10-08,1,0.0021849891096210367,0.0023753008579522083,-0.008389868687620875,0.005165670464416854,0.9904862607412673
2013-10-10,1,0.003045258190135397,0.003371676199612544,-0.007804897875404901,0.005165670464416854,0.9917096956955763
2013-10-14,1,0.0024230996214109667,0.002626347796131785,-0.007804897875404901,0.009292389502344171,0.9916044794415775
2013-10-16,1,0.0015514988036431803,0.0016111024855351944,-0.003885739704151164,0.009292389502344171,0.9925930362400924
2013-10-18,1,0.0025063847245358198,0.0026899145101121113,-0.007804897875404901,0.004155806138470559,0.9932596208782145
2013-10-22,1,0.0022894690464529696,0.0024378869558659725,-0.007804897875404901,0.004155806138470559,0.9930042851298314
2013-10-24,1,0.002384379493118168,0.002528567299661932,-0.007804897875404901,0.003466582710774996,0.9932039207312713
2013-10-28,1,0.0012918468895621307,0.0013342666776625866,-0.0058391040213788496,0.005015136918089143,0.9928396358423273
2013-10-30,1,0.0013462619013567885,0.0013737279610869268,-0.004926327193440235,0.0045905393755010316,0.9934320440420022
2013-11-01,1,0.0005007658249250233,0.0006712921532350757,-0.005834769035258936,0.0045905393755010316,0.9928025805455297
2013-11-05,1,0.0006030426502146092,0.0007238108287186594,-0.006331836486469233,0.0045905393755010316,0.9920032080669859
2013-11-07,1,0.0014705151525361937,0.0014717748354952146,-0.006331836486469233,0.0045905393755010316,0.9919215327422081
2013-11-11,1,0.000568826703665863,0.0007572200826075731,-0.006331836486469233,0.004110445086669122,0.9923040430026427
2013-11-13,1,0.00021279264732416243,0.0004984606471203954,-0.006824890907193298,0.004110445086669122,0.9914492023347437
2013-11-15,0,-0.0002510381084379845,6.598807642796531e-05,-0.006331836486469233,0.004110445086669122,0.9921165450635484
2013-11-19,-1,-0.0008646754537112926,-0.000454688143214133,-0.006331836486469233,0.0045905393755010316,0.9911382451320209
2013-11-21,-1,-0.000687426513391047,-0.00031353483076760496,-0.006331836486469233,0.007914699214276753,0.9898984162943816
2013-11-25,0,-1.4965400184609656e-06,0.0002689342490843162,-0.004448687364564934,0.006794979146157111,0.9910632642744414
2013-11-27,1,0.000339601888142357,0.0005569414293385683,-0.004448687364564934,0.006794979146157111,0.9911611331959975
2013-12-02,0,-0.00025442925429963,7.980517351866522e-06,-0.001623312530248738,0.006794979146157111,0.9918770487211587
2013-12-04,-1,-0.0010550538980544793,-0.0007184956162278186,-0.0008792439726388148,0.007914699214276753,0.9915087708142376
2013-12-06,0,-0.00018865729526824785,3.813253576627354e-05,-0.001623312530248738,0.006794979146157111,0.9923283966122872
2013-12-10,-1,-0.0002349144761749195,-7.925488264297364e-06,-0.0027488216825085694,0.006794979146157111,0.9922257968295852
2013-12-12,-1,-0.0007566483720555105,-0.0004658510694164077,-0.0027488216825085694,0.006158906579838457,0.992466094829982
2013-12-16,-1,-0.0011962765950891418,-0.0008209938104473131,-0.0027488216825085694,0.006867965725163027,0.9909674179378409
2013-12-18,-1,-0.0008737908620927957,-0.0005157327608014588,-0.0026783827448670252,0.006517209256836625,0.9918820996219937
2013-12-20,1,0.0013634975416914278,0.001364960390306306,-0.003912669855719707,0.00544849331707301,0.9929270348551278
2013-12-24,1,0.0018997069440338022,0.0020274016161226545,-0.0075987930012203055,0.005085107123268679,0.9906543728808944
2013-12-27,1,0.001729754567491547,0.0018084954970400545,-0.0075987930012203055,0.005085107123268679,0.9899720515924404
2013-12-31,1,0.001677968695706326,0.0017429787251279241,-0.0075987930012203055,0.005085107123268679,0.9901483351871682
2014-01-03,1,0.0013436616397385377,0.0013491975703858032,-0.0075987930012203055,0.004672130064620546,0.9900715187759143
2014-01-07,1,0.00089977095262266,0.0009584522669160027,-0.008147323929404383,0.004672130064620546,0.9899839768039168
2014-01-09,1,0.0001489016753523975,0.00030928656640036924,-0.008147323929404383,0.005593136474287321,0.9894869606036752
2014-01-13,-1,-0.00046298360454555027,-0.00023077523630978577,-0.006583221393550965,0.006663977325198813,0.9897792913944445
2014-01-15,1,0.0009808789950067484,0.0010020540567528564,-0.006583221393550965,0.00697338024387421,0.9898928058238808
2014-01-17,1,0.00061280061649346,0.0007082104274044934,-0.006583221393550965,0.008981344511275823,0.9897040014006401
2014-01-22,1,1.4530356896962841e-05,0.00022041740856770938,-0.0049284243079990376,0.009497487508748017,0.989704578316337
2014-01-24,-1,-0.0018999426136568768,-0.0014678756121282244,-0.0023839961276097806,0.010999281743560537,0.9910261268070877
2014-01-28,-1,-0.0008351421016560223,-0.000560197350452562,-0.0023839961276097806,0.008890410483097256,0.9917483201819913
2014-01-30,-1,-0.0009298748498220968,-0.0006537195391072256,-0.0023839961276097806,0.008890410483097256,0.9913030449499903
2014-02-03,-1,-0.0011420225962733418,-0.0009064176938939887,0.0011142834770297826,0.010999281743560537,0.9909476389759646
2014-02-05,-1,-0.0015330509105002709,-0.0012585885407554519,0.0017433554951052821,0.010999281743560537,0.9913449931524063
2014-02-07,-1,-0.000501287610801622,-0.0003738694280504722,-0.000871996787820451,0.010252365201675608,0.9921104144168353
2014-02-11,1,4.492257869798226e-05,8.109702419415261e-05,-0.0026870937392060377,0.0088437973110192,0.992283310145555
2014-02-13,1,0.0006075954911164927,0.0006092630948766727,-0.004139542660778833,0.007558799153690904,0.9928614081096415
2014-02-18,1,0.0008859661516626327,0.0009168125064880084,-0.004139542660778833,0.008398696275597061,0.9924307252098877
2014-02-20,1,0.0010565804503088042,0.0011224378763820982,-0.005049097306391767,0.00756768302446155,0.9924390880783436
2014-02-24,1,0.0011851507804935763,0.0012470607819120528,-0.0075114058406672065,0.005871823895323254,0.9925179653197201
2014-02-26,1,0.0014613357777974298,0.0015719057579713035,-0.00802251079333241,0.00615771218313907,0.9916526275223146
2014-02-28,1,0.0014605734111061862,0.0015501651328562666,-0.00802251079333241,0.008870448923331137,0.9907874533358534
2014-03-04,1,0.0013570084185735888,0.0013972256410238356,-0.0075114058406672065,0.005603839707617182,0.9921653958691385
2014-03-06,1,0.0017206676425286292,0.0018637671784226344,-0.0075114058406672065,0.008842245001945657,0.9919433746799458
2014-03-10,1,0.0016000198263729937,0.0017118672384413328,-0.00942013300961366,0.006745505025517727,0.9907270623397169
2014-03-12,1,0.0006158778704421144,0.0006756720082686846,-0.00767628876884746,0.008131441739345218,0.9908152248588735
2014-03-14,1,0.0007503817060849909,0.0007714454476898012,-0.00767628876884746,0.008131441739345218,0.9902960732321857
2014-03-18,1,0.0014323215387732693,0.0015302364892123713,-0.00767628876884746,0.007924452734162505,0.9911491943557423
2014-03-20,1,0.0014950972699324166,0.001629106968431536,-0.006599328519664329,0.008575128167274506,0.9901536676753456
2014-03-24,1,0.0008102794361208737,0.0008129463146979623,-0.0039776440504957,0.008575128167274506,0.9900172106082452
2014-03-26,1,0.0007342194260997459,0.0007451752381252968,-0.0033928587853708702,0.008042402794454834,0.9908322309239306
2014-03-28,1,0.0013204543054332503,0.0013728339127225824,-0.005000707364097744,0.007924452734162505,0.9908514457933909
2014-04-01,1,0.0011122922487236454,0.0011187232744530257,-0.00942008608373271,0.008042402794454834,0.9859159145722031
2014-04-03,1,0.002029013050967741,0.0022022167312254976,-0.00942008608373271,0.008042402794454834,0.9859971142539706
2014-04-07,1,0.0007627685006040021,0.0007836455327425551,-0.005638518155933108,0.008042402794454834,0.9873644390732969
2014-04-09,1,0.0014325790561841517,0.0015588371098276634,-0.006878159073100148,0.006814483716674695,0.9873061620492212
2014-04-11,1,4.835604567202887e-05,0.0001346070838392375,-0.004768956129465992,0.0082334700857586,0.9868861540339801
2014-04-15,1,0.00041075405068145333,0.0004709372832798678,-0.006636945677411507,0.0069787616940858305,0.9867555945430347
2014-04-17,1,0.0015565782297780363,0.0016407348257802478,-0.006636945677411507,0.004267841929056833,0.9881979829855166
2014-04-22,1,0.0017951033108614088,0.001938734050552939,-0.008579209249049282,0.004430115571322204,0.9869786046270654
2014-04-24,1,0.001906151224253074,0.0020813765649073572,-0.008579209249049282,0.005951059988122044,0.9871481479239499
2014-04-28,1,0.000608685624686466,0.0006518574539199088,-0.006636945677411507,0.00855217695174832,0.987500477864047
2014-04-30,-1,-0.0014411536732565778,-0.0011106608762228702,-0.006895020909692111,0.006920719338671269,0.9916301535246045
2014-05-02,-1,-0.0010731894341842042,-0.0008309636789620048,-0.006895020909692111,0.006920719338671269,0.99128279288974
2014-05-06,-1,-0.0014358861242528376,-0.001146758468288407,-0.006098179076337044,0.006920719338671269,0.991748799753919
2014-05-08,-1,-0.0018425856404516005,-0.001488822249778911,-0.004418115118253493,0.008929041130614834,0.9907294955972794
2014-05-12,-1,-0.0007705814057378333,-0.0005397256226654918,-0.006098179076337044,0.008929041130614834,0.9915929809617677
2014-05-14,-1,-0.0010363178294654305,-0.0008195387843372234,-0.004372551552724842,0.008929041130614834,0.9917382756309182
2014-05-16,-1,-0.00017757508700510206,-0.00011012251226490897,-0.004372551552724842,0.008929041130614834,0.9919070844987724
2014-05-20,-1,-0.0006717944023545718,-0.0005458610445193488,-0.004372551552724842,0.008897253434228862,0.9923875021994684
2014-05-22,-1,-0.00031633968582708946,-0.0002416706642898807,-0.004372551552724842,0.010457845587457886,0.9919732168187457
2014-05-27,1,0.0004029462526854151,0.00041408123101497154,-0.006491045708504964,0.008751672004954348,0.9917535298968276
2014-05-29,-1,-0.00024495120329547267,-0.0001785143578879828,-0.004276718326866132,0.008751672004954348,0.9924130792129261
2014-06-02,1,0.00038329564385024186,0.00039020454226998625,-0.005545952233665761,0.008490269421178356,0.9925580466201214
2014-06-04,0,-3.538428252130495e-05,3.067401513526496e-05,-0.005545952233665761,0.008490269421178356,0.9923772673094846
2014-06-06,1,0.0007967694981070879,0.0007993984468356064,-0.006203546030928831,0.005052179773726318,0.9930785967601968
2014-06-10,1,0.001345045498035288,0.0014828060080858407,-0.006203546030928831,0.004020428348556388,0.9934098106014597
2014-06-12,1,0.000974548142594751,0.0010669688216256926,-0.006341967033005788,0.004020428348556388,0.9933363742694978
2014-06-16,1,0.0010195802151335928,0.0011153983062695025,-0.006341967033005788,0.004020428348556388,0.9931678765014608
2014-06-18,0,-0.00011576960881111464,3.0126859885500697e-05,-0.006341967033005788,0.0037632461640651114,0.9932549141811662
2014-06-20,1,0.0008648521801431349,0.0008734075455557538,-0.006341967033005788,0.0037632461640651114,0.9931374675664792
2014-06-24,-1,-0.0003962267885654711,-0.0002472008625626432,-0.003976429011401671,0.003926491106991982,0.9941871437688274
2014-06-26,-1,-0.0008913503878441743,-0.0006330900538587436,-0.003976429011401671,0.003926491106991982,0.9941564313185277
2014-06-30,-1,-0.0012812289216642297,-0.0009457830230872071,-0.006067510167932872,0.0034254907529046343,0.9937095420257479
2014-07-02,-1,-0.0008221333389100768,-0.000588402518686323,-0.010297297990888977,0.003067837370088087,0.9906992392779305
2014-07-07,-1,-0.0007815642275749476,-0.0005612571832747531,-0.010297297990888977,0.003067837370088087,0.9908015688998523
2014-07-09,-1,-0.0004301637513219782,-0.00030071146856245056,-0.007496555120150311,0.00233714434920203,0.9909583445507554
2014-07-11,-1,-0.0005357659888275392,-0.00041272053048073556,-0.005188950448244116,0.003067837370088087,0.9909151174459233
2014-07-15,-1,-0.0005558387255127524,-0.00043466820577356364,-0.005188950448244116,0.0034254907529046343,0.990736304344036
2014-07-17,-1,-0.0010943887717117877,-0.0009301788271449324,-0.004868498384260185,0.00517984425354418,0.9910523376563988
2014-07-21,-1,-0.00034278734237968677,-0.00027810376240511276,-0.004868498384260185,0.00517984425354418,0.9909647058742529
2014-07-23,-1,-0.00023590233514852766,-0.00019643230008811405,-0.004868498384260185,0.0060809941980402675,0.9904847548688264
2014-07-25,1,0.00012932159824339024,0.0001496798802723427,-0.005188950448244116,0.0060809941980402675,0.9901931175206543
2014-07-29,-1,-0.0009245965580335284,-0.0008117502396288911,-0.004868498384260185,0.007871349640338863,0.9907712889100104
2014-07-31,-1,-0.0032829917256136042,-0.002899676420201048,-0.004231752277587717,0.007871349640338863,0.993389096609768
2014-08-04,-1,-0.00282795829469663,-0.0024787033965294014,-0.004231752277587717,0.0059382967643554765,0.9937439349833588
2014-08-06,-1,-0.0035260915832725915,-0.0030690014184870484,-0.0025093542410433373,0.0059382967643554765,0.9931781357997038
2014-08-08,-1,-0.0023408594364391117,-0.002071480254476323,-0.004231752277587717,0.0052905993532311535,0.994135310303597
2014-08-12,-1,-0.002465804891242659,-0.0021780484138191375,-0.004719539069924821,0.0052905993532311535,0.9943307166217185
2014-08-14,-1,-0.0020472926904519196,-0.0017978424452842743,-0.0053404973811057715,0.004376834123074359,0.9948771571065692
2014-08-18,-1,-0.001710083729619914,-0.0015008412000110936,-0.0053404973811057715,0.004376834123074359,0.9952261374358464
2014-08-20,-1,-0.0005459717508088301,-0.0005167350105901674,-0.0053404973811057715,0.0032533221969103412,0.9956062932322369
2014-08-22,-1,-0.0009883939024720523,-0.000905373271878962,-0.0053404973811057715,0.0032533221969103412,0.9948690549403323
2014-08-26,-1,-0.000612180655100725,-0.0006039075413398783,-0.005589793023503126,0.0022806825979195186,0.9949911294576073
2014-08-28,-1,-0.0012446725113850602,-0.0010978429609559046,-0.006003262076008592,0.0032533221969103412,0.9937728412032026
2014-09-02,-1,-0.0005757693968816445,-0.0005389297122347333,-0.0070291912708347615,0.0020802840813068735,0.9928256316847672
2014-09-04,-1,-0.0011379023919840538,-0.0009926560422962116,-0.0070291912708347615,0.0010336908984136467,0.9932747193042226
2014-09-08,-1,-0.0009294028862680214,-0.000840252897842329,-0.00937955898126585,0.0013188041945745733,0.992503107977498
2014-09-10,-1,-0.0003969782088997342,-0.0003628284807443341,-0.012393796666246395,0.00393347628229411,0.9902688274299993
2014-09-12,-1,-0.00041340193797255817,-0.0003771949048441751,-0.014758136438425006,0.002316656507079031,0.9873083501264573
2014-09-16,1,6.960826556083984e-05,0.00017930530487848627,-0.016527724084665553,0.0023073791883401014,0.9854512613502585
2014-09-18,1,0.0001045440888329541,0.00018096474947030446,-0.016527724084665553,0.0023073791883401014,0.9849345530145841
2014-09-22,-1,-0.001392444406633559,-0.0012348389862099607,-0.014758136438425006,0.008920818363946405,0.9854735432851125
2014-09-24,-1,-0.0019914587717431136,-0.0017469284612982637,-0.016756663882543734,0.014051448591463159,0.9826939742695374
2014-09-26,-1,-0.001938194147174207,-0.0016911068624070522,-0.015539468112359414,0.020057117580092293,0.9819705315025062
2014-09-30,-1,-0.003004816956512445,-0.0026310259236505124,-0.014838650555541528,0.021246745455841095,0.9810217711950167
2014-10-02,-1,-0.002013719514060954,-0.0018151434813350625,-0.01600349314758428,0.021246745455841095,0.9801735815868697
2014-10-06,-1,-0.002852902381114495,-0.0025180063367733953,-0.01600349314758428,0.021246745455841095,0.9795534255942454
2014-10-08,-1,-0.00199491707783402,-0.0017818458929941736,-0.01450150306956453,0.02071451318963429,0.9808143478588186
2014-10-10,-1,-0.004837776229088131,-0.004275299359559885,-0.012759879033953743,0.02071451318963429,0.9820757331414294
2014-10-14,-1,-0.004144834098121336,-0.0036767417495072114,-0.004544607951688884,0.019255630611758178,0.9837244397302108
2014-10-16,-1,-0.0023750647344357636,-0.0021497854342776386,-0.012759879033953743,0.01618569217354308,0.9838960850011833
2014-10-20,-1,-0.002780592649583258,-0.0024850765762043114,-0.012759879033953743,0.015954114045938113,0.983856809627119
2014-10-22,-1,-0.002328522529534507,-0.0021277829959668922,-0.007867680428327105,0.014285975554331667,0.9867909398893563
2014-10-24,-1,-0.0006953434840879484,-0.0006727950634643518,-0.007867680428327105,0.010565553717955919,0.9875552600405532
2014-10-28,1,0.00028786896529392323,0.0004574004301904236,-0.004369190025488747,0.009085335820284566,0.9894053626098631
2014-10-30,1,0.0002402138828832983,0.0004079442529651774,-0.001975531359765012,0.007214237375652695,0.9901878844195396
2014-11-03,0,-5.307475988962948e-06,0.00011326459095336412,-0.001975531359765012,0.007214237375652695,0.9882596195272089
2014-11-05,1,0.00010733233524214819,0.0002544013021798125,-0.001975531359765012,0.008464348519411096,0.9878397634322699
2014-11-07,1,0.0007587455207632223,0.0009968090615924898,-0.008189834720575502,0.006490216554083258,0.9869090882427662
2014-11-11,1,0.001264963473053899,0.0016115049385957354,-0.014687028257204257,0.006490216554083258,0.9848907233361072
2014-11-13,-1,-0.00030414870733171275,-0.0002192382105364139,-0.014687028257204257,0.006490216554083258,0.9858900309290641
2014-11-17,1,0.0004020179970647375,0.0005943275863418582,-0.014687028257204257,0.006490216554083258,0.9855067811206677
2014-11-19,1,0.0004840575076033322,0.0006979029696690597,-0.014687028257204257,0.01535999368798461,0.9831768515784769
2014-11-21,1,0.0017017306683024063,0.0020858204359593324,-0.014687028257204257,0.00847815887199854,0.9843647271270605
2014-11-25,1,0.001938311361672055,0.0023578772130330447,-0.014687028257204257,0.00951237473085328,0.9841282059438959
2014-11-28,1,0.002370428780847823,0.0028387170565070483,-0.014687028257204257,0.00951237473085328,0.9843062735682913
2014-12-02,1,0.0024774536950318386,0.002946739555522527,-0.013617688776461455,0.006027355381271607,0.9865607241055141
2014-12-04,1,0.002242354036454014,0.002680995332563617,-0.01448298168897035,0.003697315486205674,0.9862744565330274
2014-12-08,1,0.0007349884260033952,0.0009346689073830899,-0.010542432712285542,0.003697315486205674,0.9882166592847408
2014-12-10,-1,-0.00015132122215079212,-3.264889831594071e-05,-0.010542432712285542,0.006027355381271607,0.988089760432166
2014-12-12,-1,-0.0006484933538621389,-0.0005921091178972535,-0.01198397796902526,0.006027355381271607,0.987645532461666
2014-12-16,-1,-0.00018538382567204995,-4.851632627950078e-05,-0.010542432712285542,0.004141372564371008,0.9888185576205123
2014-12-18,1,0.0012752755181670438,0.0015509087953442992,-0.010542432712285542,0.0032887087824568385,0.99123645907731
2014-12-22,1,0.0003971487929641234,0.0004348595884969897,-0.010542432712285542,0.0046144432681207445,0.990359805520342
2014-12-24,1,0.0006883945345373566,0.0007935769285466137,-0.012107865827642016,0.0036704134431235426,0.9899711839300218
2014-12-29,1,0.0005420295174515824,0.0006033227860660253,-0.012107865827642016,0.0046144432681207445,0.9893809959280083
2014-12-31,1,0.00017264287222058285,0.00021323100203519453,-0.012107865827642016,0.007673156804330807,0.9891383336105618
2015-01-05,-1,-0.0010360585200274918,-0.0009258663753447421,-0.01036414632369351,0.012593822026311841,0.9882883314558039
2015-01-07,-1,-0.0009845933247197972,-0.0009064992700637791,-0.011009932610540788,0.012593822026311841,0.9875648032154816
2015-01-09,-1,-0.000245846544824337,-0.0002197908024114857,-0.005087117693469719,0.012593822026311841,0.9887847806123691
2015-01-13,-1,-0.0007619513984488278,-0.0007555778765023016,-0.0007630236478714999,0.012593822026311841,0.989775280243078
2015-01-15,-1,-0.0009256900787034274,-0.0008822510069054523,-0.00045799921907408375,0.013441935150790275,0.9887838468950049
2015-01-20,-1,-0.0005473197755975,-0.0005451319642091402,-0.0003652323551584408,0.013441935150790275,0.9890545076800044
2015-01-22,1,0.000543484780478989,0.0006978305360651035,-0.0013714426761963264,0.012591541759372589,0.9904916429414156
2015-01-26,1,0.0003341663077498389,0.00047679952644416433,-0.0013714426761963264,0.012591541759372589,0.9908739182386309
2015-01-28,1,0.0006584781154873581,0.0008438592011290271,-0.0036239500744211085,0.009905115828446057,0.9910818080710502
2015-01-30,1,0.0006840074683624384,0.0008628280759171976,-0.0032260551311702823,0.008470778109431757,0.9917883606268366
2015-02-03,1,0.002248306976591643,0.0026247528435207656,-0.004383238264112874,0.005929522204567015,0.9927804942432487
2015-02-05,1,0.0017488138509160426,0.002053766642276574,-0.005130902792827613,0.005484197600748181,0.9929059444465608
2015-02-09,1,0.0027520665853595873,0.003211337067525903,-0.005340568559499766,0.003691835823914742,0.9929134006660265
2015-02-11,1,0.0027416218081165087,0.0032165437385402364,-0.0058706788095573125,0.005484197600748181,0.9913288364270595
2015-02-13,1,0.0027962486604212935,0.0032271902394614242,-0.006651346888313446,0.003691835823914742,0.9899685173907217
2015-02-18,1,0.0026711736826506936,0.0030582441317411023,-0.008766799597053258,0.0038289170178576826,0.9884788559740728
2015-02-20,1,0.0026574773669939397,0.003040524783218256,-0.011161373156279776,0.005929522204567015,0.9876864741773157
2015-02-24,1,0.002080339595980262,0.002329021799170669,-0.011161373156279776,0.006330468638381677,0.9876259753642265
2015-02-26,1,0.001709925893272029,0.0019091464261373936,-0.01396804115130375,0.006330468638381677,0.9870263715273754
2015-03-02,1,0.0016757868265587688,0.00184825339471274,-0.01396804115130375,0.009329286673296352,0.9863381618542401
2015-03-04,1,0.000847558866069165,0.0009185248015085452,-0.01396804115130375,0.009329286673296352,0.9865644551393692
2015-03-06,-1,-0.0014484775593820514,-0.0011195534512014058,-0.011161373156279776,0.014107903730878177,0.9873005929820233
2015-03-10,-1,-0.0018973393255566967,-0.0015270385206928793,-0.011808423992417303,0.014107903730878177,0.9870054987731448
2015-03-12,-1,-0.0005085581741817782,-0.0003440109422857707,-0.011808423992417303,0.009228423358322975,0.9882850571225856
2015-03-16,0,-4.81462753171115e-05,5.6050981395856434e-05,-0.010506891270836805,0.004960315432982626,0.9900413326498807
2015-03-18,1,0.000280052466912552,0.00035067443936469186,-0.008382993065874932,0.004960315432982626,0.9905964842866404
2015-03-20,1,0.0008954204665167305,0.0009744746464219867,-0.008603754020404251,0.004960315432982626,0.9900856442631567
2015-03-24,1,0.001067984225339184,0.001190639020604371,-0.005640480580507822,0.002995656140860189,0.9905334430624569
2015-03-26,1,0.00021397974365134416,0.00021601513931108904,-0.005640480580507822,0.002995656140860189,0.9909044848982747
2015-03-30,1,0.0007893874276002359,0.0008616727180622196,-0.011206895107563982,0.002995656140860189,0.9902838879253703
2015-04-01,1,3.243259479648159e-06,3.7578651364277225e-05,-0.010785065297186442,0.0054802736843251555,0.9884536230232104
2015-04-06,1,0.0007079018100142914,0.0007940867892832692,-0.010785065297186442,0.010074053141690747,0.987874308166042
2015-04-08,1,2.1349491394974673e-05,2.2645296872536615e-05,-0.005424013942746535,0.010074053141690747,0.9879812218939213
2015-04-10,-1,-0.0006715237379044731,-0.0005357705038908844,-0.010822786270325662,0.010074053141690747,0.9872283167226817
2015-04-14,-1,-0.00037485257025199423,-0.0002981732937968341,-0.010822786270325662,0.010352055302878737,0.9868005078287139
2015-04-16,1,0.00026344417785194676,0.00026898485346112393,-0.010822786270325662,0.010306120653564949,0.9870470615815418
2015-04-20,1,0.0006495623796904226,0.000747921302916235,-0.005424013942746535,0.008093337444753313,0.9885478039249688
2015-04-22,1,0.0007624792887458714,0.0008850665303920636,-0.0029640858768237633,0.008093337444753313,0.9887909017094263
2015-04-24,1,0.0004394861535476395,0.0005402131039798845,-0.0013740725217864878,0.008093337444753313,0.9891318143134231
2015-04-28,1,0.0008243267714531262,0.0009851584975933067,-0.0013740725217864878,0.007576410933422458,0.9900725386821785
2015-04-30,1,0.0019221208076616388,0.0022157703906540973,-0.00490732166840374,0.006651667022328665,0.9927351219009916
2015-05-04,1,0.0018959565945814833,0.002125481483747694,-0.00490732166840374,0.006651667022328665,0.9931343231405022
2015-05-06,1,0.0010418796256629914,0.0010957302475594988,-0.00490732166840374,0.006651667022328665,0.9930353036235287
2015-05-08,1,0.0004723139878121843,0.000521989228392283,-0.0021527789386898734,0.006651667022328665,0.993492159485073
2015-05-12,1,0.0009357307865874749,0.0009490229077533436,-0.0021527789386898734,0.006651667022328665,0.9934823701973047
2015-05-14,1,0.0018824067750694068,0.002109587079915609,-0.00490732166840374,0.005694446410199117,0.9939846562880535
2015-05-18,1,0.0019581747596151035,0.0021981207163765835,-0.006931496261501809,0.005553495506041808,0.9933561703429072
2015-05-20,1,0.0018317015254102778,0.0020529145086270392,-0.006931496261501809,0.006459267283442809,0.9932089607213357
2015-05-22,1,0.0017618627254245224,0.0019749789474848584,-0.0076427870777305545,0.007488527669294568,0.9926226725698365
2015-05-27,1,0.0014566344556929383,0.0016006418665869197,-0.006931496261501809,0.006512803727404317,0.9931150685649056
2015-05-29,1,0.0006281177835157698,0.0006365012585040181,-0.0045177586388870546,0.006512803727404317,0.9930588802064573
2015-06-02,1,0.001002309111027205,0.0010290320037812323,-0.00832570339744428,0.005766722485259414,0.9926885003019734
2015-06-04,1,0.000719470913792127,0.0007302391298752634,-0.0045177586388870546,0.006199341750731936,0.9929454706687084
2015-06-08,1,0.00029509255962458566,0.000357681406804407,-0.006231437285705447,0.006199341750731936,0.9928612315418477
2015-06-10,1,0.0005175937754385339,0.000560603822463667,-0.00832570339744428,0.005827808097098268,0.9914033430995922
2015-06-12,1,0.0003077517405144366,0.00037083300222685416,-0.006518708592577879,0.006749902070468474,0.9907562197875215
2015-06-16,1,0.0003847848511007608,0.00040910328354112457,-0.006518708592577879,0.006749902070468474,0.9905144796830326
2015-06-18,1,0.0003608943686120639,0.000403398798961337,-0.006518708592577879,0.005827808097098268,0.9907764772931741
2015-06-22,1,0.0004584541765680761,0.0004895414336982653,-0.006518708592577879,0.005608950323825369,0.9906196023063158
2015-06-24,1,0.00019044569511439432,0.00025516612966580503,-0.01051876006375126,0.005608950323825369,0.9897416736916615
2015-06-26,1,0.000746293113332492,0.0008060109024498027,-0.011286373750578489,0.0051221380845035275,0.9896764228971234
2015-06-30,1,0.0004869005960275413,0.0004953660265215949,-0.011878252896076535,0.0051221380845035275,0.9887038741744292
2015-07-02,1,0.0008915809685066202,0.0009814726376856523,-0.011878252896076535,0.0051221380845035275,0.9889060391139387
2015-07-07,1,0.0007781034418548269,0.0008440309451821785,-0.01366083806820948,0.0051221380845035275,0.9885159886028042
2015-07-09,1,0.000282216046370301,0.0003037257959128981,-0.01080519729120886,0.0051221380845035275,0.9900676439219639
2015-07-13,1,0.000827332876584112,0.0009269036953660173,-0.01080519729120886,0.0048583025366189525,0.989627414902874
2015-07-15,1,0.0004965366931055029,0.000553848748522543,-0.01080519729120886,0.003761844284973049,0.9894020683272311
2015-07-17,1,0.0006360515028969588,0.0007094080769105575,-0.01080519729120886,0.00411078468473389,0.9889449920080235
2015-07-21,1,2.925233919311569e-05,4.8273965262824034e-05,-0.010478763843801227,0.006555845909560487,0.9894340128513543
2015-07-23,-1,-0.00041114717040565156,-0.0003495068339561041,-0.011608482121118906,0.006555845909560487,0.9888603798437912
2015-07-27,-1,-0.001117527370531689,-0.0009373470999484124,-0.01545146004341971,0.006555845909560487,0.9870672405505788
2015-07-29,-1,-0.0011270179740631315,-0.0009316550495412358,-0.01463063267558535,0.006555845909560487,0.987064733370525
2015-07-31,-1,-0.0014709754303187587,-0.0012170607687363448,-0.01463063267558535,0.0074854496254488315,0.9854341234495554
2015-08-04,-1,-0.0013948229747838302,-0.0011824219585081736,-0.016034277039582635,0.0074854496254488315,0.9841136049661748
2015-08-06,-1,-0.0007733669686996234,-0.0006512115377287764,-0.016034277039582635,0.007218127695994945,0.9841717525462279
2015-08-10,1,4.450368474052591e-05,5.225660902499208e-05,-0.016639161739850743,0.007218127695994945,0.983148858276037
2015-08-12,-1,-0.0008023750854215144,-0.0006789435665921493,-0.017161966574269192,0.007218127695994945,0.9826391370698121
2015-08-14,-1,-0.0007341575635048036,-0.0006200163340764717,-0.017161966574269192,0.007135680036810694,0.9825219681073957
2015-08-18,-1,-0.001333105858526469,-0.0011221089237799255,-0.017161966574269192,0.00799547131599268,0.9822425837061208
2015-08-20,-1,-0.0018429548863391717,-0.0015951760058518305,-0.01697274963726645,0.00799547131599268,0.9824666383682796
2015-08-24,-1,-0.0024225468267437423,-0.0020814142694262757,-0.015415077905170977,0.00799547131599268,0.9844927932586408
2015-08-26,-1,-0.0020002532091001474,-0.001736678745256876,-0.016058487160317596,0.007209090128113878,0.9860581054608629
2015-08-28,-1,-0.0015376213640026055,-0.0012972506560581848,-0.016058487160317596,0.003372924216168888,0.9877835100912339
2015-09-01,-1,-0.002596510912280883,-0.002233712154407963,-0.011350321367176334,0.007209090128113878,0.9890809591457217
2015-09-03,-1,-0.002578529851869297,-0.00221805713054373,-0.012209390451778962,0.007766203474202062,0.9880696911966654
2015-09-08,-1,-0.0016160607911636638,-0.0013907680681218189,-0.010080130649289629,0.007766203474202062,0.9890986280268302
2015-09-10,-1,-0.002938023522664054,-0.0025501666942837893,-0.009533660207129962,0.01001515585427642,0.989387800146308
2015-09-14,-1,-0.0030388932996468577,-0.0026446577954391337,-0.009296695256656615,0.01001515585427642,0.989857423061091
2015-09-16,-1,-0.0026005722956845578,-0.002232386381885914,-0.00970027395770478,0.0033140085123480162,0.9908071053388167
2015-09-18,-1,-0.0033031415264457697,-0.0028660985991045985,-0.008842394904994964,0.006218493865960383,0.9912474359030338
2015-09-22,-1,-0.0029309833437815534,-0.002595852161056855,-0.009163323420178148,0.01117899905764589,0.9906347108661784
2015-09-24,-1,-0.0026902752185455807,-0.0024111019625164334,-0.00799552369764341,0.011997742069527879,0.9896533730794874
2015-09-28,-1,-0.0034377475494543524,-0.003064550734582614,-0.0072307753281532425,0.011997742069527879,0.9892015751286405
2015-09-30,-1,-0.0029669142466895657,-0.00264096851901444,-0.009163323420178148,0.01399319269496027,0.9876364328322844
2015-10-02,-1,-0.0018348676813750996,-0.0016711631792433379,-0.0072307753281532425,0.011997742069527879,0.988816342583134
2015-10-06,-1,-0.0015952574094290144,-0.001485032408582683,-0.0072307753281532425,0.011857859714723565,0.9890855293714963
2015-10-08,-1,-0.0007826979484421313,-0.0007740272607370854,-0.006302105430533944,0.009819853087296422,0.9902463598016539
2015-10-12,-1,-0.001050068348539201,-0.0010102070568847087,-0.0072307753281532425,0.009819853087296422,0.9898673041970032
2015-10-14,-1,-0.001422673944060074,-0.001335871415568495,-0.006932513096898082,0.009819853087296422,0.9889703843981654
2015-10-16,-1,-0.0008992999317298927,-0.0008795768257934352,-0.007337080474949965,0.006457214118027891,0.9890978212469425
2015-10-20,-1,-0.0008869312812980587,-0.0008551599614827915,-0.007427240773051476,0.006457214118027891,0.9884843977107027
2015-10-22,1,0.0003533919249949552,0.0005247053707604979,-0.007427240773051476,0.006457214118027891,0.9883930860286209
2015-10-26,-1,-0.00023691679265913765,-0.00016593080166130267,-0.007837970287147786,0.0032864230597567257,0.9885556570339796
2015-10-28,1,0.0006274403447760078,0.0008220701034769516,-0.006339594524814327,0.0032864230597567257,0.9902447016965283
2015-10-30,1,0.0005561830149793551,0.0007704905773993669,-0.006339594524814327,0.004596721630779196,0.9894831151879523
2015-11-03,1,0.0007613701364149056,0.000989341553138824,-0.007837970287147786,0.003032070236147301,0.9892436414760633
2015-11-05,1,0.0003790084796712659,0.0005466496667225907,-0.011151735849032725,0.006074194015164264,0.9881626706707822
2015-11-09,1,0.0004660595295295231,0.000662866571009253,-0.012159247671400064,0.006074194015164264,0.9873377265305574
2015-11-11,1,0.00014399033580038704,0.000308697897815636,-0.00788879710432128,0.006074194015164264,0.9890509815966331
2015-11-13,-1,-0.0004027880463266113,-0.0003217310245861655,-0.00788879710432128,0.01240765888288117,0.9881227039849789
2015-11-17,-1,-0.0002654597341769774,-0.00016193394947481562,-0.00788879710432128,0.01240765888288117,0.9880722169715757
2015-11-19,1,0.0005433915648047332,0.0007604718347500954,-0.012336190550648642,0.006074194015164264,0.9876816114487773
2015-11-23,1,0.00033443983435482195,0.0005391020542783437,-0.012336190550648642,0.011633863102627522,0.9872660511158949
2015-11-25,1,0.0007637124865412974,0.001035355039771133,-0.012336190550648642,0.013711216241505437,0.9867705975929378
2015-11-30,1,0.0004786123693385205,0.0006660184690382615,-0.012336190550648642,0.013569331569241953,0.986797100177976
2015-12-02,1,0.0006800104673522467,0.0009376029122238333,-0.01177207139629463,0.013569331569241953,0.986601832231389
2015-12-04,1,0.0013278258732894424,0.0016534719438058647,-0.011260997862051559,0.011633863102627522,0.9871290282238746
2015-12-08,1,0.0005726042971998725,0.0008255397890717446,-0.014236274363206682,0.011633863102627522,0.9851593965706045
2015-12-10,1,0.0003650939187767135,0.000553552290846799,-0.014236274363206682,0.011633863102627522,0.9853333508749081
2015-12-14,1,0.00027874841204402677,0.0004195795458004223,-0.01345996775460551,0.00981813474818571,0.9860403160336885
2015-12-16,1,0.00026524566635976354,0.0004026241551703222,-0.011260997862051559,0.002648558612765844,0.9870580091109881
2015-12-18,-1,-0.0005618917852789982,-0.0005275928345604927,-0.011260997862051559,0.002648558612765844,0.9880535995943963
2015-12-22,1,0.0002827275235636719,0.00042350144589461513,-0.011260997862051559,0.0012964641788716948,0.9879298732806007
2015-12-24,1,0.00021729172376999033,0.00032870241945457746,-0.011260997862051559,0.0012964641788716948,0.9866347346590276
2015-12-29,1,0.0008525345392886717,0.0010707517489184338,-0.011260997862051559,-5.3479126163495606e-05,0.9866441064503282
2015-12-31,1,0.00059382614562689,0.0008189014046735121,-0.010844556718883534,0.0012964641788716948,0.9861374606283964
2016-01-05,0,-3.067372111487706e-05,6.968146056964962e-05,-0.01221064432510144,0.005253537725533562,0.9852298205543567
2016-01-07,-1,-0.001506103646056764,-0.001434799982128744,-0.009882634886143004,0.011201787027535616,0.986850520929827
2016-01-11,-1,-0.0013531315632387053,-0.0012931206535375854,-0.010411849037900715,0.011201787027535616,0.9863423445551801
2016-01-13,-1,-0.0020564643092973586,-0.0018718971128073932,-0.012249727463388305,0.0071455037258531685,0.9861529590717529
2016-01-15,-1,-0.002375771877068842,-0.0021226471944305217,-0.012249727463388305,0.024953893381891197,0.983300375048732
2016-01-20,-1,-0.002888291741157337,-0.002591593878630215,-0.010411849037900715,0.024953893381891197,0.9829832141445701
2016-01-22,-1,-0.0016141292665755981,-0.001522268223660326,-0.010411849037900715,0.025394977030834116,0.9823478671663151
2016-01-26,-1,-0.0011886899933446836,-0.001094417901816214,-0.012249727463388305,0.024953893381891197,0.9837288536045755
2016-01-28,-1,-0.0018754269615409202,-0.0017094009604092426,-0.012249727463388305,0.024953893381891197,0.9830297030188577
2016-02-01,-1,-0.000884415727446542,-0.0008727859573736828,-0.009266643576304114,0.024953893381891197,0.983196414450563
2016-02-03,-1,-0.0010862858130509,-0.000987324856705874,-0.004398429490812947,0.021110356417914675,0.9849421614174336
2016-02-05,-1,-0.00031974861225677763,-0.00030628834165692404,-0.004398429490812947,0.016899383379351464,0.9859789001326381
2016-02-09,-1,-0.000227761392875608,-0.00018407337065359962,-0.004398429490812947,0.016899383379351464,0.9851442437632404
2016-02-11,-1,-0.0015247301173820069,-0.001362257054426172,-0.0031616363083546064,0.016899383379351464,0.9859332858341733
2016-02-16,1,0.0004025674252227737,0.0004693970448603742,-0.0032589922476280483,0.010012046419286689,0.988815919588941
2016-02-18,1,0.00011406315560464706,0.00012118509973829548,-0.003193226785276803,0.014176520311254603,0.9872845231766879
2016-02-22,1,0.0008798155983190131,0.0009576543213179695,-0.0026648581542709797,0.010012046419286689,0.9889142430307416
2016-02-24,1,0.0004997067594972501,0.0005577772769681605,-0.0019771487167487504,0.010012046419286689,0.9895944030424685
2016-02-26,1,0.0011071218195052735,0.001277235575173318,-0.003375394204828286,0.008405559398419589,0.9901229909647893
2016-03-01,1,0.0017567260809982605,0.002012660339734057,-0.0019771487167487504,0.008405559398419589,0.9910533690487852
2016-03-03,1,0.0018847414164475695,0.0021907871209914057,-0.002112834795963531,0.008405559398419589,0.9910031073768114
2016-03-07,1,0.0021828978489666535,0.0025096891592076218,-0.005197383318250936,0.007831680229740852,0.9905208102670633
2016-03-09,1,0.0008990487245222589,0.0010269595490485699,-0.005197383318250936,0.007831680229740852,0.9917912479388331
2016-03-11,1,0.0013849707743981,0.001595852708073722,-0.005197383318250936,0.005621629774893279,0.9920912982363523
2016-03-15,1,0.001772556450323267,0.002038988842167351,-0.005197383318250936,0.008019448954391417,0.9913889552320456
2016-03-17,1,0.0035167944957371815,0.004058392628436547,-0.005197383318250936,0.005560765976085561,0.9937044410420837
2016-03-21,1,0.003161385100256811,0.003632216280143731,-0.005279599945411412,0.0053071973716719515,0.9931800650475857
2016-03-23,1,0.003225004927293028,0.00374598909332267,-0.005279599945411412,0.0053071973716719515,0.9931179237003323
2016-03-28,1,0.0028376818957227675,0.0032863350855659975,-0.005197383318250936,0.0053071973716719515,0.9935755885677896
2016-03-30,1,0.0034437334726793367,0.0039876108156230656,-0.005197383318250936,0.00444514001094136,0.9935954224823014
2016-04-01,1,0.003262755178860285,0.0037596006813901788,-0.005395202092901032,0.00444514001094136,0.9930291231807491
2016-04-05,1,0.0023827822765273487,0.0027505798401572896,-0.005395202092901032,0.00444514001094136,0.9937194399282384
2016-04-07,1,0.0020760169992540337,0.002368185347644534,-0.005771736488530813,0.004864803553930524,0.9933295723359176
2016-04-11,1,0.0019010740804896683,0.0021354487657614185,-0.006913136252819823,0.004843252351969462,0.9929583720651817
2016-04-13,1,0.002795173171646635,0.003148261122423788,-0.006913136252819823,0.004040875214675145,0.9929282949654819
2016-04-15,1,0.0033139041020949053,0.0037783926429674733,-0.007516803791597522,0.0012186848270549706,0.9921976981367798
2016-04-19,1,0.002737873583681506,0.003097140586331263,-0.007441138027632098,0.0019324884652078798,0.992109614907789
2016-04-21,1,0.0025593747837151393,0.002908001097094301,-0.008055884517120644,0.0019324884652078798,0.9911760821442178
2016-04-25,1,0.0024420727131900587,0.0027804055033626308,-0.008055884517120644,0.005601075555289559,0.9911742890185614
2016-04-27,1,0.002824790172935703,0.003195196386142936,-0.008055884517120644,0.006386715679023609,0.9902427426004012
2016-04-29,1,0.0023704360127111785,0.0027219359048268714,-0.007833840827164405,0.008598699058178356,0.9909837640894115
2016-05-03,1,0.0015657062917259028,0.0017470821919947316,-0.007503897346329743,0.008598699058178356,0.9913179949478788
2016-05-05,1,0.0013712285916450766,0.001525046519285391,-0.004793902486333733,0.009428431232161092,0.9914679896302586
2016-05-09,1,0.0012720449320069742,0.0014168195505523207,-0.002656951995881256,0.009428431232161092,0.9917454587942471
2016-05-11,1,0.0018208455883712777,0.002033716602189745,-0.0027514394570163697,0.008598699058178356,0.9926110298664127
2016-05-13,1,0.0009673268231923245,0.0010019249516690853,-0.004589207799722698,0.008598699058178356,0.9917485294847993
2016-05-17,1,0.0014241359014441368,0.00156386353405254,-0.004123705636776418,0.00676467905645158,0.9925113703775228
2016-05-19,1,0.000755032674519556,0.0008145059343789708,-0.0022580481395554847,0.007373918276552512,0.9936620843407832
2016-05-23,1,0.0013357764600481314,0.0014934293405612872,-0.0027514394570163697,0.007445040600763489,0.9935359319080563
2016-05-25,1,0.001721405168873,0.0018824399592372266,-0.0027514394570163697,0.00667395351488984,0.9938820125799198
2016-05-27,1,0.0013627311365241766,0.0014514149570642777,-0.0051158716320709,0.006274988923138497,0.9890682236142867
2016-06-01,1,0.0002295216121150057,0.0003761388474091047,-0.0051158716320709,0.008026949298188061,0.9877274882659983
2016-06-03,1,0.000645779312955275,0.0007434947369382068,-0.0051158716320709,0.009774123718026698,0.9867726638754054
2016-06-07,1,0.0001081520013851287,0.00028776334886232793,-0.006536823377328227,0.009774123718026698,0.9856290587697372
2016-06-09,0,-2.9906916780619852e-05,0.00017681173285536073,-0.006536823377328227,0.012359877851073972,0.9845876026535803
2016-06-13,-1,-0.0012713695958450524,-0.0008744908937909168,-0.0003650552724342921,0.015738066166524765,0.98386576836102
2016-06-15,-1,-0.0013708423399525617,-0.0009759979454867392,-0.0010932306201784296,0.015738066166524765,0.9840841589272158
2016-06-17,-1,-0.0005546373073617814,-0.0002931746505926479,-0.0010932306201784296,0.015738066166524765,0.9845836189829389
2016-06-21,-1,-0.0011652047277880889,-0.0007888644072293861,-0.0010932306201784296,0.015738066166524765,0.9849147778446615
2016-06-23,0,-0.00015863813630744537,8.478715724908768e-05,-0.0018885564970010764,0.013612268392020684,0.986162531664341
2016-06-27,-1,-0.003287802991124672,-0.0026923171420114287,-0.0010932306201784296,0.015738066166524765,0.9886267654785523
2016-06-29,-1,-0.001810743360264689,-0.0014341362354350488,-0.0028122982832882787,0.010222958651258092,0.9896034908953764
2016-07-01,-1,-0.0010032548805000508,-0.0006955663049779783,-0.004315673289055437,0.0037876818571142656,0.9908943879752545
2016-07-06,-1,-0.0025335893065733667,-0.001992275705007783,-0.004315673289055437,0.006448059316281998,0.9911456518396308
2016-07-08,-1,-0.0006656064877073998,-0.0004439009846336965,-0.004315673289055437,0.006448059316281998,0.9913683779079056
2016-07-12,0,-5.6887345877598575e-05,9.439079864439234e-05,-0.004315673289055437,0.004443220784745275,0.9921387976656302
2016-07-14,1,0.000306429060173181,0.00036957408176518827,-0.004315673289055437,0.005289198273672207,0.9918069813641771
2016-07-18,0,-5.092350145614665e-05,9.428351018840467e-05,-0.006507917039511937,0.0066213657483621844,0.9909851804061705
2016-07-20,1,0.00014956768667203735,0.00024881701215569477,-0.006507917039511937,0.0066213657483621844,0.9912788211068454
2016-07-22,1,0.00023719258901973278,0.0002962797170582259,-0.006333776393381828,0.0066213657483621844,0.9912076760331133
2016-07-26,1,0.0007280749213259351,0.0007348414551155317,-0.006333776393381828,0.005982425855452746,0.991939980056654
2016-07-28,-1,-0.00018339418782646936,-9.368477736712718e-05,-0.00466298815489716,0.005982425855452746,0.9932991322453858
2016-08-01,-1,-0.0015333991926874862,-0.0012272213700562017,-0.0024226619643025337,0.005982425855452746,0.9936712146327092
2016-08-03,-1,-0.001081117923762645,-0.000843462262107423,-0.0037923412711370675,0.005146762287881765,0.9940101848612732
2016-08-05,-1,-0.0003565746058457184,-0.00021762287568317392,-0.0037923412711370675,0.00508245648965619,0.9946713850111052
2016-08-09,1,0.0006631584632908768,0.0007359942867559181,-0.005559350186980832,0.0038143038988253945,0.9949632974033398
2016-08-11,1,0.0007219506697571587,0.0007994920378762557,-0.007539408142017224,0.0031818875377233853,0.9936458382371666
2016-08-15,1,0.0005745305329195762,0.0006138497194247585,-0.005559350186980832,0.0031818875377233853,0.9935481422621109
2016-08-17,1,0.0004200863620952729,0.0004235034797103718,-0.005559350186980832,0.0038143038988253945,0.9930875203076575
2016-08-19,1,0.000600397828531639,0.000659587880632042,-0.005723037338091056,0.004630402261899778,0.9924880248870841
2016-08-23,1,0.0005530670938854614,0.0005955689635795772,-0.005723037338091056,0.004630402261899778,0.9920511818975214
2016-08-25,-1,-8.421085412826389e-05,-1.719323508127924e-05,-0.005723037338091056,0.006151269404137921,0.9907191469697858
2016-08-29,0,-7.119606578690496e-05,2.2079607217702596e-06,-0.008571008755618963,0.008139739227771536,0.9900409839029949
2016-08-31,-1,-0.0005735021835180641,-0.00045113284214369693,-0.004934273334527376,0.00904633038785532,0.9898772222112876
2016-09-02,1,0.0002426964726835747,0.0002641995388125876,-0.0062635764983621205,0.010225710182327844,0.987475910413482
2016-09-07,1,0.00024283412211016534,0.0002803610493423693,-0.010505872300097,0.014233217765071565,0.9863807049806905
2016-09-09,-1,-0.000790890411959423,-0.0006948905552773392,-0.008577003219972311,0.014233217765071565,0.9873429505758249
2016-09-13,-1,-0.0005298276871168469,-0.0004497770180995823,-0.011962288422303272,0.010225710182327844,0.9867498753563173
2016-09-15,-1,-0.00024369310085753618,-0.0001940913650902716,-0.011962288422303272,0.010277267392423399,0.9868097851809453
2016-09-19,-1,-0.00019945956200939933,-0.00016983034937798042,-0.011080621641912251,0.010277267392423399,0.9871635621123396
2016-09-21,0,-2.325085427580271e-05,1.600099847519106e-05,-0.011080621641912251,0.010156615083825116,0.9872421248744687
2016-09-23,-1,-0.0005869357019345649,-0.00046753626698300147,-0.010384209350370575,0.010156615083825116,0.9867428918230867
2016-09-27,-1,-0.0006214345730044849,-0.00048643815406251443,-0.011080621641912251,0.010156615083825116,0.9859958958195633
2016-09-29,-1,-0.0005849798183201217,-0.00044608044929362825,-0.012201170219244866,0.010156615083825116,0.9853215635458074
2016-10-03,1,0.0007320749983536549,0.0007859533493613811,-0.011080621641912251,0.008130117109543906,0.9875558756821361
2016-10-05,1,0.0007535574331842188,0.0007952335336832514,-0.00932030772537236,0.005679386360118081,0.9882952508627418
2016-10-07,1,0.0003912418748074708,0.0003915198338504787,-0.00932030772537236,0.005679386360118081,0.9885879261892236
2016-10-11,-1,-0.0012905810205416381,-0.0010538484164291256,-0.006536112774207651,0.008130117109543906,0.9870987016798606
2016-10-13,-1,-0.0007197542511739126,-0.0005715300671947359,-0.006536112774207651,0.013210539193259109,0.9854720745835399
2016-10-17,-1,-0.0004666601188699183,-0.0003958785170152813,-0.0056850666545514685,0.013210539193259109,0.9856504838508944
2016-10-19,1,0.00021039287079875873,0.00022201520841179086,-0.0056850666545514685,0.01078627375390986,0.9861662140190528
2016-10-21,1,0.0018566151201234382,0.002087890908080003,-0.006536112774207651,0.008190451672183881,0.9877793820290541
2016-10-25,1,0.0006308595651143067,0.0007299717727023269,-0.005519018624703232,0.008190451672183881,0.9893252396791565
2016-10-27,1,0.0004367080429004645,0.000502356900968486,-0.0019278391032116586,0.007817771726387479,0.9906672744460235
2016-10-31,1,0.0008609389158230635,0.0009862726417079718,-0.005519018624703232,0.00751643329947241,0.9901440403285686
2016-11-02,1,0.0001229115463384858,0.0001322998028332142,-0.00018727683534442306,0.01078627375390986,0.9883902626506642
2016-11-04,-1,-0.00019418898119756832,-0.0001397990316241204,-0.0012907632783835743,0.01078627375390986,0.9883328502462158
2016-11-08,1,0.0016825686120037027,0.0018877540548568163,-0.0012907632783835743,0.01078627375390986,0.991016305306355
2016-11-10,1,0.002968650747569861,0.0033444668499472393,-0.0032285266842667043,0.008411490454572752,0.9919933551168552
2016-11-14,1,0.0034978480450621333,0.003988065432569514,-0.00454617793481543,0.008411490454572752,0.9909789273554188
2016-11-16,1,0.0022506588145883855,0.0023880763641145005,-0.006638261258839916,0.006837267787485036,0.9908190645071328
2016-11-18,1,0.002011358860962058,0.0021671137192408882,-0.005500467860983093,0.006837267787485036,0.9911811576825079
2016-11-22,1,0.002660801629314425,0.0029665390769448956,-0.005500467860983093,0.006837267787485036,0.9910346343318683
2016-11-25,1,0.0024136461848982753,0.00263675037428228,-0.005500467860983093,0.00572551348010957,0.9912297958186818
2016-11-29,1,0.0023551679212054323,0.002609217514126729,-0.005495973342676786,0.004912711125414776,0.9917554241145801
2016-12-01,1,0.003898375159987344,0.004396187514435485,-0.005495973342676786,0.0018023688354402696,0.9924487122677482
2016-12-05,1,0.0032952733068156957,0.0036992661121551,-0.005510603097962569,0.0036142967316006498,0.9917952841603596
2016-12-07,1,0.003972622868027366,0.004473227709583695,-0.005510603097962569,0.0036142967316006498,0.991969834242319
2016-12-09,1,0.003908959940433579,0.004398096290655181,-0.0035494535989351633,0.0036142967316006498,0.9926596247450951
2016-12-13,1,0.0030629400302382356,0.0034226461309199603,-0.0035494535989351633,0.004912711125414776,0.9932103550514483
2016-12-15,1,0.0031762148441615247,0.0035820761611994665,-0.0035494535989351633,0.005513865718734688,0.9927022171243141
2016-12-19,1,0.0021756645057153094,0.002376577797070924,-0.002030288300427248,0.005513865718734688,0.9935867581901212
2016-12-21,1,0.0018467313586806456,0.0019655214340267135,-0.0034632806605541635,0.004397527546426714,0.99350638036484
2016-12-23,1,0.0020404192253885315,0.00219246181647589,-0.0034632806605541635,0.008758960715676348,0.9893465796796442
2016-12-28,1,0.001350668471331985,0.001466821315036749,-0.0034632806605541635,0.008758960715676348,0.9891312337154011
2016-12-30,1,0.0013285558130519959,0.0014404221945364718,-0.004728141011117361,0.008758960715676348,0.9883555812431024
2017-01-04,1,0.0017945479638495896,0.00196566391589063,-0.004469622195974361,0.006377210953903851,0.9897497108581084
2017-01-06,1,0.001813212876314362,0.0019883916335961447,-0.004469622195974361,0.008758960715676348,0.9894848916244531
2017-01-10,1,0.0018906564473176468,0.0020674397703947965,-0.0055037205061958154,0.005184575998775496,0.9893394506166578
2017-01-12,1,0.0020990985768559664,0.0023005786246104226,-0.0041864274924606855,0.0076717397265836556,0.9896404156063869
2017-01-17,1,0.0015749801657988114,0.0016968288030721407,-0.0037111806825763437,0.004829037137319982,0.9908346572003717
2017-01-19,1,0.001405528211527671,0.0014884158185339003,-0.003881362584477284,0.004829037137319982,0.990656789724636
2017-01-23,1,0.0013697168322969232,0.00145092859019673,-0.003750815211333427,0.004602230654765942,0.9908885616391989
2017-01-25,1,0.0032602356333819357,0.003559440604294766,-0.004305331078731936,0.002304060224187868,0.9936138195789652
2017-01-27,1,0.0024825835408437465,0.002683502620929263,-0.003750815211333427,0.002304060224187868,0.9946458884199988
2017-01-31,1,0.001886408296569299,0.0019938283912407486,-0.0017103402601748178,0.004502092773159004,0.9945480003087048
2017-02-02,1,0.0012467371023901683,0.0012659501338461994,-0.0025509122042407274,0.004502092773159004,0.9940183062814895
2017-02-06,1,0.0016325730992941974,0.0016856315046040165,-0.0025509122042407274,0.0028337840244044214,0.9945003145435585
2017-02-08,1,0.0013731767567773325,0.0013996963424613982,-0.002529299805424933,0.0028337840244044214,0.9945564081001443
2017-02-10,1,0.001514237201148106,0.0015414195542226522,-0.002529299805424933,0.0020161302596631613,0.9946494716834288
2017-02-14,1,0.0016900465124138524,0.0017707767647785512,-0.0036859780148860437,0.0020161302596631613,0.9927691601940238
2017-02-16,1,0.0011811832046753096,0.0012055068863498278,-0.00404400902585822,0.0024197033985944487,0.9928592295817305
2017-02-21,1,0.0011793071214521488,0.0011898445828830693,-0.00546291925428648,0.0024197033985944487,0.9922916851130652
2017-02-23,1,0.0009761871886834711,0.001018888110624093,-0.00404400902585822,0.0024197033985944487,0.9928424461773084
2017-02-27,1,0.0012325138493064047,0.001252426129131235,-0.005398215452759381,0.0024197033985944487,0.9924263060253896
2017-03-01,1,0.002060138675945779,0.0021893865235977864,-0.005398215452759381,0.0024197033985944487,0.9926554905623198
2017-03-03,1,0.0012196815613348226,0.001231383590220395,-0.004585707053680818,0.002655428060448213,0.9935898452419901
2017-03-07,1,0.00047772388336416794,0.0006236911349361236,-0.004585707053680818,0.0032844218079173563,0.9934913456258695
2017-03-09,1,0.00013409502998672066,0.0003103890849995999,-0.00448934413121543,0.0042666701477265916,0.9935436305782706
2017-03-13,1,8.309447600116028e-05,0.00029455407287698574,-0.00448934413121543,0.0042666701477265916,0.9938431252892759
2017-03-15,1,0.001117236776778019,0.0011812347598366252,-0.00448934413121543,0.0032844218079173563,0.9936585041610999
2017-03-17,1,0.0013923893926171599,0.0014502648610151526,-0.00448934413121543,0.0042666701477265916,0.9927015602542586
2017-03-21,0,-0.0001361441722227333,8.898665534728674e-05,-0.00448934413121543,0.0042666701477265916,0.9932728786712092
2017-03-23,-1,-0.0004418843669543335,-0.00016958941623919333,-0.00448934413121543,0.004622930012819568,0.992142900383638
2017-03-27,-1,-0.00032723814154473154,-7.44247369427731e-05,-0.003966532332804329,0.007938548970345079,0.9904076158360201
2017-03-29,-1,-0.0008315764154164099,-0.0004916413815206201,-0.003965263672737749,0.005191892565004477,0.991110979702027
2017-03-31,-1,-0.0009496951367595496,-0.0005815003171007757,-0.005101531309245028,0.004622930012819568,0.9908019893898279
2017-04-04,1,6.224319860607312e-05,0.0002433646748885406,-0.005695815370424117,0.004622930012819568,0.9903138404734746
2017-04-06,1,0.0006881050564297782,0.0007341934385636777,-0.005695815370424117,0.006123895000154604,0.9900176027822761
2017-04-10,1,0.0005239958570677807,0.0005886194504338159,-0.005695815370424117,0.007208475319179723,0.9901081347838006
2017-04-12,-1,-0.00046933045789059687,-0.00030466738848039537,-0.005013932820662686,0.007208475319179723,0.9917622829069587
2017-04-17,-1,-0.0006375637843460279,-0.00042340527419769684,-0.005013932820662686,0.007208475319179723,0.9919839512753399
2017-04-19,-1,-0.0009637953632162087,-0.0007168170753470754,-0.005013932820662686,0.007208475319179723,0.9911144451788267
2017-04-21,-1,-0.000252270695017288,-9.111562038330127e-05,-0.005013932820662686,0.007208475319179723,0.9912384543500273
2017-04-25,1,0.0007843702496709742,0.0008452658255973505,-0.005013932820662686,0.0040354934774820975,0.9927821489159627
2017-04-27,1,0.001033349320388232,0.0010675160606876631,-0.005013932820662686,0.006535381275625418,0.9925302287239479
2017-05-01,1,0.0002530566893752256,0.00033789524546066693,-0.0034542404931696517,0.006535381275625418,0.9934377341830481
2017-05-03,1,0.0002618181855747098,0.00031107574727126165,-0.003382372472317676,0.00717279957525806,0.9931307241468743
2017-05-05,1,0.0005170877061410953,0.0005399508383454178,-0.003382372472317676,0.00717279957525806,0.9932288187209173
2017-05-09,1,0.0001867979046249999,0.0002815489003462017,-0.0043269456020238045,0.00717279957525806,0.9921915275995968
2017-05-11,0,-3.639218414517231e-05,9.768173605162228e-05,-0.0037781980742834895,0.00939534624165773,0.9911737568939968
2017-05-15,-1,-0.00020186022149690328,-2.8607550196014283e-05,-0.0037781980742834895,0.007981955243448611,0.9919376485389266
2017-05-17,-1,-0.0011061630478899679,-0.0008272928176155155,-0.0037781980742834895,0.008867498321007177,0.9922581690050521
2017-05-19,-1,-0.00033353315488750084,-0.0001444460408055974,-0.0037781980742834895,0.008867498321007177,0.992763552392329
2017-05-23,-1,-0.0006134726276033663,-0.0003730242638002516,-0.005625113820460161,0.008867498321007177,0.9920359976829441
2017-05-25,-1,-0.0005921579803652324,-0.0003472302792827506,-0.005625113820460161,0.010476716446715419,0.991925232917987
2017-05-30,-1,-0.0003526931715321193,-0.00016674366444517055,-0.008267308053032567,0.010476716446715419,0.9911459698841382
2017-06-01,1,6.606846927530711e-05,0.00020099474291393119,-0.010899647208194979,0.00873155104349617,0.9910979679718426
2017-06-05,1,6.866832999303266e-05,0.00019683612857439265,-0.010899647208194979,0.010476716446715419,0.990344550685921
2017-06-07,-1,-0.0006520308238097071,-0.0004509862715273024,-0.005625113820460161,0.010476716446715419,0.991367350759681
2017-06-09,0,-0.0001351957152119351,2.8828007590702158e-05,-0.005625113820460161,0.007977593582282637,0.9922413779996924
2017-06-13,-1,-0.0005302180849987651,-0.00031953330660288283,-0.005623693499761153,0.009691425095206142,0.9919069405171163
2017-06-15,-1,-0.00025596889577525516,-7.427482299751024e-05,-0.004490627981771009,0.009677677928000967,0.992322899347691
2017-06-19,1,0.001874031611666955,0.0020930783547869277,-0.005391812500058203,0.007849960095300403,0.9925416776054959
2017-06-21,1,0.000592217058753273,0.0006005863257602774,-0.004428936670444224,0.009677677928000967,0.9930215106442694
2017-06-23,1,0.0006355560721697134,0.0006603270084037122,-0.005391812500058203,0.007849960095300403,0.9926917393946103
2017-06-27,-1,-0.00026689596108230506,-0.00012619293379141394,-0.0049643219179672324,0.007849960095300403,0.9933395970257886
2017-06-29,-1,-0.00011570603621697363,-2.4841926039108895e-05,-0.004428936670444224,0.009677677928000967,0.9933728664614355
2017-07-03,1,0.0005497598854139266,0.0005844256879201375,-0.0049643219179672324,0.005384726319021232,0.9938638880612252
2017-07-06,1,0.000840273216996458,0.0008765548653996097,-0.0049643219179672324,0.009677677928000967,0.9937102677392049
2017-07-10,1,0.0012932151042685338,0.0013953768666710585,-0.0049643219179672324,0.006575363283138002,0.9936739463839239
2017-07-12,1,0.0013700454083469056,0.0014739569501857398,-0.0049643219179672324,0.003948451176933518,0.9940940045861731
2017-07-14,1,0.0016069862452826097,0.0017381436230276433,-0.005487601907540265,0.0022584188799743827,0.99318264606364
2017-07-18,1,0.0010327657989183882,0.001082481304569251,-0.004165785927579332,0.003948451176933518,0.9933891061564112
2017-07-20,1,0.001186575248609862,0.0012471200002916903,-0.005630028853653592,0.0022584188799743827,0.9930665727099444
2017-07-24,1,0.0010670372296666616,0.0011685971045164699,-0.004165785927579332,0.0022584188799743827,0.9937313371216083
2017-07-26,1,0.0005132616433902872,0.0005217548798207547,-0.004279694317625382,0.003948451176933518,0.9924792859514452
2017-07-28,1,0.0007672220366962198,0.0007969923850580131,-0.004279694317625382,0.0022584188799743827,0.9930713711536411
2017-08-01,1,0.0002583407577730388,0.0003132095628219215,-0.0034945103575906326,0.0026762351797754895,0.9934829933543741
2017-08-03,1,0.0009500142271659963,0.001006953044581371,-0.0034945103575906326,0.005201900076336838,0.9928298863825225
2017-08-07,1,0.001239683126170012,0.0013652268631064105,-0.003968218524920122,0.0026404950909904757,0.9928196081453975
2017-08-09,1,0.0010183043804970386,0.0010999137452769754,-0.005720608250622972,0.0026404950909904757,0.9926556690966782
2017-08-11,-1,-0.00024482138949314487,-0.00014490680111930635,-0.0038607457806132776,0.008871202204278934,0.9919955259045993
2017-08-15,1,0.0002742979483088085,0.00031740411618443384,-0.0038607457806132776,0.006020848615284817,0.9925065436243049
2017-08-17,-1,-0.0006674483172560773,-0.0005001698193960742,-0.0009997736243526258,0.008984336960727637,0.9919807684748468
2017-08-21,-1,-0.0007077290595669892,-0.000550009959706529,0.0004998712999034394,0.00969525671191508,0.9912433229459551
2017-08-23,-1,-0.0006926439119149123,-0.00055077462921748,0.0004998712999034394,0.008984336960727637,0.992832019920634
2017-08-25,-1,-0.0007798067130680049,-0.00063112024630512,0.0010994333812136396,0.008984336960727637,0.9928077432847073
2017-08-29,-1,-0.0005991935389872884,-0.0004690814963559672,0.0010994333812136396,0.008984336960727637,0.9929314329057312
2017-08-31,1,0.00027564053287954215,0.00030451341167974185,0.0004222942170388507,0.008403348086588823,0.9942069971822987
2017-09-05,-1,-0.0008812028917448771,-0.0006438629121798459,0.0006452381348133342,0.008984336960727637,0.9932801830139253
2017-09-07,-1,-0.0011186005333661958,-0.0008549136722677942,0.0008269870215735881,0.008984336960727637,0.9929503155492035
2017-09-11,1,0.00022275750326286635,0.00034926825581079834,0.0006452381348133342,0.008316663276246616,0.9954413527842344
2017-09-13,1,0.0009179572206965774,0.0009214709793371297,0.0003304932997384183,0.008316663276246616,0.9955124919140262
2017-09-15,1,0.0025214892979397874,0.0028317035701113076,0.0003304932997384183,0.006015136311177168,0.99633584759727
2017-09-19,1,0.0029619146893151115,0.0033079683802466307,-0.00044151118541983184,0.005275009601673173,0.9967432113527931
2017-09-21,1,0.0024895270279856503,0.0027295300277813384,-0.00044151118541983184,0.005358731493201442,0.9962970929120925
2017-09-25,1,0.0022099766047693997,0.0023776663002753507,-0.0008372254550424257,0.006015136311177168,0.9956579831147183
2017-09-27,1,0.002205096550015325,0.0023948286358107303,-0.0008372254550424257,0.006015136311177168,0.9953013934660471
2017-09-29,1,0.0023310419706297734,0.0025442581586410753,-0.0008372254550424257,0.006015136311177168,0.9953929664503179
2017-10-03,1,0.002392735911876332,0.0026146646749333367,-0.0015448356044509923,0.006015136311177168,0.9919587439386626
2017-10-05,1,0.0013728230970806712,0.0015259584237049871,-0.0032697242236323634,0.006015136311177168,0.9896907139584404
2017-10-09,1,0.0009511770852880558,0.000983327327078245,-0.005047177693252571,0.006015136311177168,0.9891648316523921
2017-10-11,1,0.0012544286377306033,0.001390718557538719,-0.0071876751251746885,0.007596586254823241,0.9869579037920205
2017-10-13,1,0.0008557386359081315,0.0009393998301203167,-0.007993199256402753,0.008722710387342838,0.9856513302695933
2017-10-17,1,0.0008254568481331132,0.0009070331739431133,-0.007993199256402753,0.008722710387342838,0.9854808552600801
