JNU-Tangyin/eata/results/Batch4_SP500/Batch4_SP500-JNJ.csv
Date,Action,Predicted_Q25,Predicted_Q75,Actual_Q25,Actual_Q75,RL_Reward
2010-12-14,0,0.0,0.0,-0.0030901693120880076,0.002014135707850901,0.9959395487478736
2010-12-16,0,0.0,0.0,-0.0035768913967267526,0.0026060811910095212,0.9956232696128483
2010-12-20,0,0.0,0.0,-0.005134991286125696,0.0036973072129719417,0.9950507141471121
2010-12-22,0,0.0,0.0,-0.0036714035865341543,0.003980201324843124,0.9950287573299339
2010-12-27,0,0.0,0.0,-0.006047353210478081,0.003969034810973344,0.9942128544359753
2010-12-29,0,0.0,0.0,-0.007023684346907855,0.003969034810973344,0.993918786041697
2010-12-31,-1,-0.0009239672778224692,-0.0007665317102018543,-0.007070113392869906,0.003969034810973344,0.9936256803376728
2011-01-04,-1,-0.00024493697283495237,-0.00017018381647804554,-0.007070113392869906,0.0022506237051790417,0.9939658272034012
2011-01-06,0,0.0,0.0,-0.007070113392869906,0.0031503878681492996,0.9938012648245893
2011-01-10,0,0.0,0.0,-0.006047353210478081,0.0031503878681492996,0.9945443309600482
2011-01-12,0,0.0,0.0,-0.006047353210478081,0.0017324522323093803,0.9947252445162073
2011-01-14,-1,-0.00061223742787675,-0.000481880901578619,-0.004754973898803928,0.0011925306597560228,0.9951757563773936
2011-01-19,-1,-0.0007287658609009394,-0.0005831264716373761,-0.0038309365167280658,0.0009034531228254139,0.9958150992601437
2011-01-21,0,0.0,0.0,-0.0038309365167280658,0.0011925306597560228,0.9956360756819134
2011-01-25,0,0.0,0.0,-0.0038309365167280658,0.0011925306597560228,0.9963071238995107
2011-01-27,0,0.0,0.0,-0.0038309365167280658,0.0009034531228254139,0.9961451542163673
2011-01-31,0,0.0,0.0,-0.0026823949065034472,0.0016048206301990276,0.9947982144163823
2011-02-02,-1,-0.00028751904895346733,-0.00022280013557248352,-0.0026823949065034472,0.0021014813880796492,0.9952416992402932
2011-02-04,0,0.0,0.0,-0.0039028438065613533,0.0013155403783461125,0.9948699150062792
2011-02-08,-1,-0.000646013460571392,-0.0005503514706115821,-0.004491746002376945,0.0023458218698874716,0.9945531776054808
2011-02-10,-1,-0.0006743397862638957,-0.0005846198891529962,-0.00571150062539603,0.0023458218698874716,0.9939296698909041
2011-02-14,0,0.0,0.0,-0.00956744684858405,0.0023458218698874716,0.993002227922798
2011-02-16,0,0.0,0.0,-0.010295627980126383,0.004075348709635373,0.9920562449313205
2011-02-18,-1,-0.0006704303831809909,-0.0005874089309670994,-0.010295627980126383,0.00406980534265711,0.9920483708362671
2011-02-23,0,0.0,0.0,-0.010295627980126383,0.00406980534265711,0.9924333610392236
2011-02-25,0,0.0,0.0,-0.009738583370593211,0.004612479313722797,0.9927445213004671
2011-03-01,0,0.0,0.0,-0.006175093320300634,0.00441602497323365,0.9945948382767559
2011-03-03,0,0.0,0.0,-0.006175093320300634,0.00441602497323365,0.9946377618735199
2011-03-07,0,0.0,0.0,-0.002918531117657642,0.004612479313722797,0.9944314314974392
2011-03-09,-1,-0.000949733153856382,-0.0008635655501598457,-0.0032105512782114915,0.00441602497323365,0.9945823573581571
2011-03-11,-1,-0.0009963078384999135,-0.0009121936785440677,-0.002510120711624679,0.00441602497323365,0.9951529304131306
2011-03-15,-1,-0.0016609315081882819,-0.0014969161028674511,-0.0014403319258761659,0.004649189335090498,0.9953096666729019
2011-03-17,-1,-0.0016967132836114456,-0.0015335242627054146,-0.0014403319258761659,0.004649189335090498,0.9957598842383162
2011-03-21,-1,-0.0011695485707680217,-0.001071416938290755,-0.0017857963507638581,0.004626045150304758,0.9961595691440411
2011-03-23,-1,-0.001156139563908816,-0.0010575136902634284,-0.0017857963507638581,0.006807181334691694,0.9929108591234923
2011-03-25,-1,-0.001207086708774956,-0.0011310591398118403,-0.0022272621903301343,0.006807181334691694,0.9929372108244737
2011-03-29,-1,-0.000414711869813119,-0.00040094534285046605,-0.0022272621903301343,0.009134223938847738,0.9922176871063804
2011-03-31,-1,-0.00032059682300196793,-0.0002770515505781342,-0.0024802711760256472,0.009134223938847738,0.9921035132316252
2011-04-04,0,0.0,0.0,-0.0024802711760256472,0.007841134615286117,0.9924820678800458
2011-04-06,0,0.0,0.0,-0.0029275533985021742,0.007841134615286117,0.991950706538613
2011-04-08,-1,-0.0001290764004390415,-3.125576303029438e-05,-0.001962895498635139,0.007841134615286117,0.991658658315077
2011-04-12,0,0.0,0.0,-0.001962895498635139,0.009134223938847738,0.9913412089766519
2011-04-14,0,0.0,0.0,-0.001962895498635139,0.00937162121245449,0.9910917697369318
2011-04-18,0,0.0,0.0,-0.003111434568196206,0.00937162121245449,0.9914083406619081
2011-04-20,0,0.0,0.0,-0.003111434568196206,0.006000630507612617,0.9944074030403025
2011-04-25,0,0.0,0.0,-0.003111434568196206,0.006000630507612617,0.9940649484088628
2011-04-27,0,0.0,0.0,-0.003111434568196206,0.005279211093680158,0.9946354171081147
2011-04-29,1,0.0011314093987049307,0.001291853875204326,-0.004935320117658393,0.006000630507612617,0.9937064114049459
2011-05-03,0,0.0,0.0,-0.008588644293066619,0.00607495758491982,0.9929309948731411
2011-05-05,0,0.0,0.0,-0.00428110283251132,0.00607495758491982,0.9935765969197154
2011-05-09,0,0.0,0.0,-0.006481666158385545,0.00445507984894457,0.9936053574894743
2011-05-11,0,0.0,0.0,-0.006481666158385545,0.0077618600734650186,0.9933512515469242
2011-05-13,0,0.0,0.0,-0.006481666158385545,0.007612368380323319,0.9933462701394349
2011-05-17,0,0.0,0.0,-0.008828421002201796,0.007682417364746209,0.9924854433174084
2011-05-19,1,0.0015752326396431928,0.0018003953326367515,-0.008828421002201796,0.007682417364746209,0.992449013244862
2011-05-23,1,0.0012527596423076311,0.0014363172324073571,-0.006481666158385545,0.007682417364746209,0.9930336632191024
2011-05-25,1,0.0013434193944892093,0.001535842873913523,-0.006819301717609573,0.007588791145896662,0.99268823523857
2011-05-27,1,0.00208833941455176,0.0024195868739314607,-0.006819301717609573,0.004380437354791301,0.9935234146603564
2011-06-01,1,0.0015112379878413399,0.0017553145437771962,-0.006119834064510851,0.006442952021763379,0.9939474075642484
2011-06-03,1,0.0011915973059508209,0.001365499847346044,-0.006119834064510851,0.007588791145896662,0.993753122925418
2011-06-07,1,0.000980480414744222,0.0011341402998564787,-0.0022899461187172654,0.007588791145896662,0.9939780802782157
2011-06-09,1,0.0016158418120942814,0.0018554644678551268,-0.005378376263770865,0.005625210915686256,0.9944230428829696
2011-06-13,1,0.001484223586218164,0.001711676070965239,-0.0046181887607209945,0.004935456179469867,0.9947354361781565
2011-06-15,1,0.0011988071872605858,0.0013842914220369405,-0.003785731807439028,0.004935456179469867,0.9953650776806076
2011-06-17,1,0.0006309144628153572,0.0007186492394509944,-0.0046181887607209945,0.004935456179469867,0.9949710019694561
2011-06-21,1,0.0006177347432985434,0.0006856085495254727,-0.005381698976895277,0.004935456179469867,0.9944478225570477
2011-06-23,1,0.000105855944473555,0.00013103769389663224,-0.0046181887607209945,0.004935456179469867,0.9947777537958661
2011-06-27,-1,-3.7861635032200255e-05,-2.1696026467273228e-05,-0.0050241445335986006,0.004935456179469867,0.9947705598233831
2011-06-29,1,0.00038893082758729286,0.00042874825866700005,-0.005199148286622168,0.003544478549875827,0.9948702142724367
2011-07-01,1,0.0009003856772019135,0.0010116996259933344,-0.005381698976895277,0.0012008319295012582,0.9947717632636078
2011-07-06,1,0.0007519401569701916,0.0008507413172830563,-0.005602445590167823,-0.00012556534636588588,0.9942767676887692
2011-07-08,1,0.0007240392544750431,0.0008081410000553638,-0.0061598907921187745,-0.00012556534636588588,0.9929009006316364
2011-07-12,0,0.0,0.0,-0.00708186070317585,0.0012008319295012582,0.9915581004710028
2011-07-14,0,0.0,0.0,-0.008012509739626344,0.0006315816813163092,0.9878077134849167
2011-07-18,1,0.0002491511398989977,0.00025664426899329936,-0.008012509739626344,0.003544478549875827,0.9871159136453459
2011-07-20,0,0.0,0.0,-0.007900075656358913,0.003544478549875827,0.9875814829028523
2011-07-22,1,0.0007249322648614594,0.000762253939908073,-0.011654135943226965,-0.00031632637720694436,0.9866619829440363
2011-07-26,1,0.00016520326842751302,0.00025855462629646974,-0.011654135943226965,0.005298909655024064,0.9862196002127104
2011-07-28,-1,-0.0008811009147416112,-0.0006373504678569401,-0.015019958141959656,0.009981630464895455,0.9859951998526096
2011-08-01,0,0.0,0.0,-0.015019958141959656,0.014968956880757065,0.9848413860457759
2011-08-03,0,0.0,0.0,-0.0068758818965990245,0.014968956880757065,0.9855065921499038
2011-08-05,0,0.0,0.0,-0.009095885905175898,0.010882040616382213,0.9861090427583052
2011-08-09,-1,-0.002763341382428403,-0.0022859837280103344,-0.004922871354717949,0.00972777326640006,0.9870983704694584
2011-08-11,-1,-0.001315566932087508,-0.0010520107804951784,-0.007191190431590721,0.008688622460349142,0.9903142871697458
2011-08-15,-1,-0.0010788745188030852,-0.0008066613524031037,-0.007191190431590721,0.00393660423356578,0.9912417532849009
2011-08-17,-1,-0.0012763510320456563,-0.000983952744243888,-0.007191190431590721,0.008688622460349142,0.9906664904467021
2011-08-19,-1,-0.0020315824769861863,-0.0016534160350140286,-0.007010950770178272,0.008688622460349142,0.9908505704321982
2011-08-23,-1,-0.0008851310953910582,-0.0006158162861227054,-0.007191190431590721,0.004367503708569213,0.991669216272774
2011-08-25,-1,-0.0013191981379762382,-0.0010662387585938576,-0.007191190431590721,0.0021524167507669966,0.9916926772616783
2011-08-29,-1,-0.0010481353825689851,-0.0007745295977008839,-0.007191190431590721,0.004436801125481184,0.9912622826567039
2011-08-31,-1,-0.0012525794480166236,-0.0009475134117799045,-0.007734942911744017,0.009241562024930022,0.9904064487072958
2011-09-02,-1,-0.0020009138628660295,-0.0016200543005185537,-0.007734942911744017,0.009241562024930022,0.9902707838471447
2011-09-07,-1,-0.001338817077544501,-0.0010215905602272773,-0.007734942911744017,0.0029090265650520268,0.9911232253403238
2011-09-09,-1,-0.002192208858288554,-0.001767819285563925,-0.005738813091227339,0.005665482169920288,0.9914314115428458
2011-09-13,-1,-0.0005882305641646084,-0.00047542219667554296,-0.007048921276230796,0.0081024908724601,0.9903743706912456
2011-09-15,-1,-0.0002805314752957065,-0.0001953983634973168,-0.007048921276230796,0.006183119718078427,0.990691226765108
2011-09-19,1,2.9962140353516402e-05,4.2840060220093773e-05,-0.007703909225013891,0.007440514935958906,0.9900887047335434
2011-09-21,-1,-0.0004859753121681889,-0.0004161827882091572,-0.007703909225013891,0.00819062840008456,0.9891255949596774
2011-09-23,-1,-0.0011385641537987026,-0.0010075313048710684,-0.004288512048228745,0.009976260695834571,0.9891234702209993
2011-09-27,-1,-0.0003246343223275983,-0.00025862618933612835,-0.007703909225013891,0.00819062840008456,0.989514779643539
2011-09-29,-1,-0.00012573264695051934,-9.820448016381241e-05,-0.004288512048228745,0.010547292171286284,0.9890602542913247
2011-10-03,-1,-0.0008151148001405699,-0.0007316839858722383,-0.0031407464759875704,0.010547292171286284,0.9893010455510929
2011-10-05,-1,-0.0002894635017420728,-0.00026381883899233543,-0.009063467173952119,0.010547292171286284,0.988692214441178
2011-10-07,1,5.510941846293808e-05,6.163895231822417e-05,-0.009063467173952119,0.011389700179461584,0.9886475505476723
2011-10-11,1,0.0004259369901601786,0.0004804964172059145,-0.0061568256622736295,0.011389700179461584,0.9893257777651008
2011-10-13,1,0.0003423254790138928,0.0003545871842911202,-0.01469860728934348,0.011389700179461584,0.988196414010833
2011-10-17,1,0.00027515361338115293,0.00029558571633896396,-0.007829413773173474,0.012779999785389616,0.9881536209450021
2011-10-19,-1,-0.00014701073605563782,-0.0001258343326820842,-0.0061775698065725925,0.012779999785389616,0.9894422956885579
2011-10-21,1,0.00038909133530879824,0.00043307507572881964,-0.007626742416608394,0.011389700179461584,0.9901139097657967
2011-10-25,1,0.00015267590661322737,0.00015447027944830822,-0.007626742416608394,0.009715091158599603,0.9908655450546536
2011-10-27,1,0.0007839597334710136,0.000853623736140989,-0.01227413482462208,0.002170574171711905,0.990776355672024
2011-10-31,1,0.0005650276372248187,0.0006375473072673715,-0.009712396756896025,0.007252006597972803,0.9906790828818303
2011-11-02,1,0.000356696440034816,0.00039562271942285656,-0.007626742416608394,0.009715091158599603,0.9899570407936163
2011-11-04,1,0.00045716700552347704,0.0004970137339333259,-0.009712396756896025,0.007252006597972803,0.9897664818489812
2011-11-08,1,0.0007413701196275745,0.0008174827023264915,-0.009712396756896025,0.007252006597972803,0.9896817076773896
2011-11-10,1,0.0004608715446599332,0.0005029128149707967,-0.009407604675493966,0.007870046274652246,0.9900973627029145
2011-11-14,1,0.0005898698826391458,0.0006245543036145105,-0.010700419710110255,0.003182256112767069,0.9902374235760278
2011-11-16,1,0.00022106346909339566,0.000244209024755425,-0.010700419710110255,0.007870046274652246,0.990072120927028
2011-11-18,1,0.00022126921148655801,0.0002215108043432619,-0.011704892595269103,0.007870046274652246,0.989688932233478
2011-11-22,1,1.9823989162404553e-05,2.439712665565131e-05,-0.010700419710110255,0.012064075750411307,0.989366596127098
2011-11-25,-1,-0.0006643309960957514,-0.0005859003097387953,-0.003173656158546452,0.012450009230696257,0.9897908971675711
2011-11-29,1,6.964804790619596e-05,7.853080062988145e-05,-0.005287348036914718,0.011887816872770606,0.9906358980272336
2011-12-01,1,0.0006605278222038263,0.0007368145068610094,-0.005573684366935307,0.00805451485900899,0.991899756006375
2011-12-05,1,0.0002794364738646093,0.0003186678788046594,-0.004933136831251058,0.00805451485900899,0.9921886012165021
2011-12-07,1,0.0007052798794364945,0.0007952144944472437,-0.006712100558762475,0.006632336497186758,0.9924983621025117
2011-12-09,1,0.0005323935876905257,0.0005784017474774731,-0.004933136831251058,0.00515813717694096,0.9933558669542736
2011-12-13,1,0.00014723086499019979,0.00015318218005641048,-0.003269101601886649,0.00515813717694096,0.9940782049017753
2011-12-15,1,0.00017617567545658876,0.00018505143382019644,-0.002747357944803841,0.004602758535603359,0.9947390390419192
2011-12-19,-1,-0.00030582968970804423,-0.00022110625349706676,-0.0015702792160677977,0.004262328343266923,0.9953240473518933
2011-12-21,1,0.00010994880061403314,0.00016234339150521962,-0.0026430947212344397,0.0026893856597020624,0.9962191838231991
2011-12-23,1,0.0002555978042213615,0.00030991837629208013,-0.0026430947212344397,0.0017710894911382865,0.9968164687931079
2011-12-28,-1,-0.0002297133950459823,-0.00010278376384110453,-0.002134480540391701,0.0026888646141847447,0.9968248057573647
2011-12-30,-1,-0.0003610268731688697,-0.00020582933998855005,-0.0015666875059865098,0.0026036426900610033,0.9970850225398823
2012-01-04,1,0.0005829168822854493,0.0006241540667663817,-0.0016745181407353293,0.0023302382344063313,0.9973581783000032
2012-01-06,1,0.0005267695363520248,0.0005885848369816042,-0.0016745181407353293,0.0023302382344063313,0.997544599551603
2012-01-10,1,0.0005968071984752731,0.0006574109205856622,-0.0016745181407353293,0.0017236143597973426,0.997696229453574
2012-01-12,1,0.00029983585973477353,0.00030941832664255095,-0.0024434175854731004,0.001492320777874809,0.9972966718436664
2012-01-17,1,0.0006797767644330169,0.0007755437566286149,-0.0024326424552292363,0.0015008148088843914,0.9973134087834642
2012-01-19,1,0.0004713605289957525,0.0005190937029069865,-0.0024326424552292363,0.0015008148088843914,0.9973134062216614
2012-01-23,1,0.000649023537795195,0.0007517883715445915,-0.0016745181407353293,0.0015008148088843914,0.9975787243346312
2012-01-25,1,0.0007185438400635607,0.0008287699677255926,-0.0016745181407353293,0.0013134233658236283,0.9976400393795307
2012-01-27,1,0.0004585529599130479,0.0004915660661462327,-0.001976271765654153,0.001118288729395108,0.9975171803195676
2012-01-31,1,0.0008610003642952214,0.0009807221682516052,-0.0019851179810032107,0.001074896071817726,0.9970257148167777
2012-02-02,1,0.00034897306708351673,0.0003613518257152748,-0.002110998605813711,0.001074896071817726,0.9971011961473237
2012-02-06,1,0.0001341975659621881,0.00015291616985619891,-0.002110998605813711,0.001118288729395108,0.9969678979459967
2012-02-08,1,0.0003077174847077782,0.00032846316671905076,-0.002110998605813711,0.0013134233658236283,0.9965566666573489
2012-02-10,0,0.0,0.0,-0.0011952321520139735,0.001694229297509884,0.9967055058480255
2012-02-14,-1,-0.00015817792348862798,-0.00011186015642029255,-0.001574700024142121,0.002504471690447231,0.9964794750028285
2012-02-16,-1,-0.0004589305198068844,-0.0003446768201462891,-0.001574700024142121,0.001694229297509884,0.9966975023677912
2012-02-21,0,0.0,0.0,-0.0022288550634323224,0.001694229297509884,0.9964803471365289
2012-02-23,0,0.0,0.0,-0.0038284862797902507,0.0015769064405472674,0.9962044838203553
2012-02-27,0,0.0,0.0,-0.0032657595352896243,0.002504471690447231,0.9961541223975389
2012-02-29,0,0.0,0.0,-0.0032657595352896243,0.0034052704325769584,0.9964503015715185
2012-03-02,0,0.0,0.0,-0.002041866326493781,0.0035302315787774795,0.996308313507516
2012-03-06,1,0.00015526667499184965,0.00020008343581260098,-0.002041866326493781,0.0035973523009044436,0.9964491407674607
2012-03-08,1,0.00028024779549952434,0.00034185533275215077,-0.0032657595352896243,0.0035302315787774795,0.9964965149052146
2012-03-12,0,0.0,0.0,-0.004033459951174585,0.0034052704325769584,0.9959551230741244
2012-03-14,0,0.0,0.0,-0.004033459951174585,0.0018881904447658451,0.996250682502029
2012-03-16,0,0.0,0.0,-0.004720444394759781,0.0034052704325769584,0.9954815025714437
2012-03-20,-1,-0.0002261433073525236,-0.0001588954148796263,-0.005345098783313718,0.003584761763808247,0.9948675584583485
2012-03-22,1,6.775725594683005e-05,8.06857176052915e-05,-0.005345098783313718,0.0037609428559967455,0.9944884888784775
2012-03-26,1,0.0001157817661575257,0.00013072052718515482,-0.005609485197385124,0.0037609428559967455,0.9944452414798979
2012-03-28,1,8.240093622170216e-05,8.688517757028856e-05,-0.005609485197385124,0.005303009084927287,0.9940273589390546
2012-03-30,0,0.0,0.0,-0.005609485197385124,0.004249084140143414,0.9941434823996815
2012-04-03,1,0.00038060110216987363,0.00043035677925169855,-0.005609485197385124,0.004249084140143414,0.99445944960268
2012-04-05,1,5.7487048131181116e-05,6.562435019110096e-05,-0.005609485197385124,0.004249084140143414,0.9943629160648706
2012-04-10,-1,-0.00021313283388019427,-0.0001885629603797283,-0.001726698900163914,0.004249084140143414,0.9949612689547651
2012-04-12,-1,-0.0003395286897772251,-0.0002907319770961861,-0.004061007329079432,0.004625301270062704,0.9942400253917113
2012-04-16,-1,-0.0005336486268762263,-0.00045176487304619947,-0.004061007329079432,0.004135309332970851,0.9945572913832136
2012-04-18,-1,-0.0010662874319003215,-0.0009033650330731149,-0.003978203736378081,0.004135309332970851,0.9950494302538566
2012-04-20,-1,-0.0012895191957331804,-0.001068238354252198,-0.003922925770948414,0.003085812673095066,0.9955761922566806
2012-04-24,-1,-0.0008569183418946372,-0.0007181210093487743,-0.0032508746450572367,0.002115156908836791,0.9959753300635741
2012-04-26,-1,-0.00011726824782551603,-9.493197716347084e-05,-0.0036555003442217374,0.0017257964485495596,0.9965763171828087
2012-04-30,-1,-0.00024003332598125228,-0.00018351224376932524,-0.0042031936603278775,0.0016006940262734306,0.9963451688534537
2012-05-02,1,7.324454544250364e-05,7.348609237671233e-05,-0.005271921065337919,0.0013528823841212887,0.9960069253050686
2012-05-04,-1,-0.00014817186477505124,-0.0001226131573204097,-0.005271921065337919,0.001652612333810515,0.9955379615439367
2012-05-08,-1,-0.0003691715203706918,-0.00029276312861628855,-0.005271921065337919,0.001652612333810515,0.9952255742748778
2012-05-10,0,0.0,0.0,-0.0042031936603278775,0.001652612333810515,0.9957370155482926
2012-05-14,0,0.0,0.0,-0.0042031936603278775,0.0021372730528527685,0.9947873422710104
2012-05-16,-1,-1.8751917283217475e-06,-1.7362508910107595e-06,-0.003344297274850391,0.004918432596589645,0.9932726460563729
2012-05-18,0,0.0,0.0,-0.0029991386256431503,0.008683283186238937,0.9929132213426675
2012-05-22,0,0.0,0.0,-0.0029991386256431503,0.008683283186238937,0.9925264453183171
2012-05-24,0,0.0,0.0,-0.003081835306263946,0.008683283186238937,0.9922262375771168
2012-05-29,0,0.0,0.0,-0.0019846128606852177,0.008683283186238937,0.9925943849428067
2012-05-31,0,0.0,0.0,-0.001390034277395871,0.008683283186238937,0.992682480060448
2012-06-04,-1,-0.0006645599468452603,-0.0005949686301502124,-0.0003007587633634868,0.008732660151941605,0.992581641295756
2012-06-06,-1,-0.00025563970962956816,-0.00023716854522955977,-0.0003007587633634868,0.007023631697932563,0.9931035800220955
2012-06-08,-1,-0.0002226428086939448,-0.00021277746391780523,-0.001390034277395871,0.007023631697932563,0.9930737340542366
2012-06-12,1,2.8865128022400815e-05,4.8929856673392853e-05,-7.973335156667553e-05,0.006379301739216368,0.9945325307229557
2012-06-14,1,0.0007120112789986812,0.0008128446482799792,-0.001390034277395871,0.006326230310262705,0.9958413985971866
2012-06-18,1,0.000830395638739097,0.0009572393348270523,-0.0019796482322385844,0.006326230310262705,0.9959218892572148
2012-06-20,0,0.0,0.0,-0.0019796482322385844,0.005602611278037113,0.9958220826793435
2012-06-22,0,0.0,0.0,-0.0021321415425148986,0.005602611278037113,0.9954354138882507
2012-06-26,0,0.0,0.0,-0.0024486233416848736,0.005602611278037113,0.9949067075905225
2012-06-28,0,0.0,0.0,-0.0024486233416848736,0.006893351106205606,0.9938464603565129
2012-07-02,0,0.0,0.0,-0.0029266198631740484,0.0033450474483204245,0.9944125619531249
2012-07-05,1,0.0010578544522431203,0.0011871345937054007,-0.0029266198631740484,0.0033450474483204245,0.9939501875169551
2012-07-09,1,0.0019913890084896557,0.002247969382138214,-0.003496509886972292,0.006030545742363093,0.9934722713692585
2012-07-11,1,0.0021130398868145816,0.0023957395755321506,-0.0049324670676131575,0.006030545742363093,0.9930326193056616
2012-07-13,0,0.0,0.0,-0.0049324670676131575,0.0048534668891375456,0.9935657958350125
2012-07-17,0,0.0,0.0,-0.0049324670676131575,0.003175416862660808,0.9938183553153566
2012-07-19,0,0.0,0.0,-0.005062919530605715,0.0026401103912035533,0.9938800498018564
2012-07-23,0,0.0,0.0,-0.004094502637620084,0.0026401103912035533,0.9945314774724159
2012-07-25,1,0.0009050575041208938,0.0010142752251504736,-0.003496509886972292,0.002390879253933306,0.994989247056279
2012-07-27,1,0.00155404714112739,0.0017363140013026282,-0.003496509886972292,0.000954355387021629,0.99576262733334
2012-07-31,1,0.0015157432112238882,0.001702937470043582,-0.002979541189619907,0.000954355387021629,0.9959337488659062
2012-08-02,1,0.0011913298749923551,0.0013400911682760462,-0.0024368444718665524,0.00044194518049139143,0.9965489357040817
2012-08-06,1,0.0012916442779318312,0.0014513168502997128,-0.0024115254140679807,0.00044194518049139143,0.9968778936629764
2012-08-08,1,0.0010678609935138004,0.0011972426434539282,-0.0022397064443880595,0.0005177303846254091,0.9970971033125055
2012-08-10,1,0.0011019271324114153,0.001230133212796578,-0.0022397064443880595,0.0007376548764035609,0.9971410044122655
2012-08-14,1,0.0009442046254232295,0.0010369718209780818,-0.0021039705720365147,0.0003697116769520354,0.9973555694525239
2012-08-16,0,0.0,0.0,-0.0020684770139117446,0.0007376548764035609,0.9971150468165401
2012-08-20,0,0.0,0.0,-0.0020684770139117446,0.0017046184069102622,0.9971016882447388
2012-08-22,1,0.0008820164491172044,0.0010273907435954528,-0.0020684770139117446,0.003548311078553815,0.9968176257670986
2012-08-24,1,0.0007540682140829165,0.0008795347722320415,-0.0017388604360902876,0.003548311078553815,0.9969009334718608
2012-08-28,1,0.0005018877391009242,0.0005723616371948396,-0.002149067956766726,0.004378829097080084,0.9965969076731829
2012-08-30,1,0.00011649699462465116,0.0001460471291131767,-0.0010138416063198588,0.004378829097080084,0.9967111315205641
2012-09-04,1,7.365723380990361e-05,0.00011082228510504568,-0.0010138416063198588,0.004378829097080084,0.9967102180666749
2012-09-06,1,0.0002427959876430167,0.0002658758985706004,-0.0010138416063198588,0.004028051726813338,0.9969467059198478
2012-09-10,1,0.00012733611886459663,0.0001834100161591747,-0.0017015595411803478,0.004028051726813338,0.9967555581727343
2012-09-12,1,0.00016927124624368243,0.0002114328365184815,-0.0028368209928784477,0.004028051726813338,0.99591003081315
2012-09-14,0,0.0,0.0,-0.0028368209928784477,0.0033726063429986753,0.9966775416060102
2012-09-18,1,0.0007679822456951351,0.0007982720556510542,-0.0025386832473844097,0.004028051726813338,0.995911937173776
2012-09-20,0,0.0,0.0,-0.0025386832473844097,0.004849720311308741,0.99406872678264
2012-09-24,0,0.0,0.0,-0.0028368209928784477,0.004849720311308741,0.993721838119183
2012-09-26,0,0.0,0.0,-0.0028368209928784477,0.004306208879158606,0.9934621475989701
2012-09-28,0,0.0,0.0,-0.0031046964904673634,0.005528021079690401,0.9930954210090343
2012-10-02,0,0.0,0.0,-0.0031046964904673634,0.006558087029587321,0.9928450485064414
2012-10-04,0,0.0,0.0,-0.0034463532018204368,0.006558087029587321,0.9925765055717014
2012-10-08,0,0.0,0.0,-0.004846357575398565,0.006558087029587321,0.9923774221533823
2012-10-10,0,0.0,0.0,-0.004846357575398565,0.006558087029587321,0.9926060620735455
2012-10-12,0,0.0,0.0,-0.004628096360235805,0.006558087029587321,0.9925324457142636
2012-10-16,-1,-0.0007966331991988747,-0.0005787940303139787,-0.004687511412942179,0.003120517554767862,0.9937261245820259
2012-10-18,1,0.0008977599325999141,0.000905732103303779,-0.004687511412942179,0.0010847084313543168,0.9949622230491109
2012-10-22,-1,-0.0006244719555952421,-0.0004028774726273632,-0.0033934044810016413,0.002080005942657435,0.9957263508445652
2012-10-24,-1,-0.0006959996475370636,-0.0005073816690948389,-0.0033934044810016413,0.002080005942657435,0.9960882391241329
2012-10-26,-1,-0.000946738845309175,-0.0006989561640265043,-0.00360278151284501,0.002080005942657435,0.9960625512567058
2012-11-01,-1,-0.0007615584181573905,-0.0005270005021961741,-0.00360278151284501,0.002080005942657435,0.9961371752238344
2012-11-05,-1,-0.0008976956929714132,-0.0006782771350601401,-0.003028611530615786,0.0030382468218751787,0.9963702124866751
2012-11-07,1,0.00014601864916342786,0.00017341671691650166,-0.00276133027430919,0.002056821286927791,0.9966217698339918
2012-11-09,1,3.059896144011179e-05,6.494575194493718e-05,-0.002509616310627495,0.0023506590728708332,0.9968961945212779
2012-11-13,-1,-0.0001806434958880821,-0.00013675401548207135,-0.0013534848280420864,0.0036888265284580907,0.9966918261862729
2012-11-15,0,0.0,0.0,-0.00114755561655962,0.0036888265284580907,0.996810681564394
2012-11-19,0,0.0,0.0,-0.00114755561655962,0.0040799558979690495,0.9967573807992169
2012-11-21,0,0.0,0.0,-0.001352743714914874,0.003145438622649188,0.9968072584708368
2012-11-26,0,0.0,0.0,-0.002216637064928366,0.003145438622649188,0.9966505709768291
2012-11-28,0,0.0,0.0,-0.001352743714914874,0.002360465767225696,0.9970354326565052
2012-11-30,1,7.113415495467102e-05,9.060971607918975e-05,-0.002216637064928366,0.002360465767225696,0.9965940792441258
2012-12-04,1,0.00010082965487700032,0.0001149386300984395,-0.002216637064928366,0.002490842223729349,0.9962065117285154
2012-12-06,1,0.0003566852093173165,0.00040043604508906356,-0.0023121931940967076,0.0040799558979690495,0.9956505086182533
2012-12-10,1,0.0006942227805035591,0.0007966891674851782,-0.0023121931940967076,0.0037727161440070955,0.9957423655472658
2012-12-12,1,0.0007374700034086917,0.0008460152441241076,-0.0023121931940967076,0.0037727161440070955,0.9958373607808294
2012-12-14,1,0.00034591500623352576,0.00036991168938857813,-0.0022269557691991376,0.0037727161440070955,0.9957873499594249
2012-12-18,0,0.0,0.0,-0.0022269557691991376,0.00442698297247487,0.9955668808596821
2012-12-20,0,0.0,0.0,-0.0022269557691991376,0.004492563948108756,0.9952849000392411
2012-12-24,0,0.0,0.0,-0.0012079884557614883,0.004492563948108756,0.9955182105837659
2012-12-27,1,0.00016190583465828937,0.0001634959850550966,-0.001582822108529914,0.0049983115804712935,0.9949871937777292
2012-12-31,1,0.00033102610076652,0.0003589097338791964,-0.001582822108529914,0.0049983115804712935,0.9951822834877536
2013-01-03,0,0.0,0.0,-0.0021459634916367524,0.004492563948108756,0.9953575647538411
2013-01-07,0,0.0,0.0,-0.0012813553664866827,0.004492563948108756,0.9956143221470926
2013-01-09,0,0.0,0.0,-0.0023754743581124844,0.0049983115804712935,0.9951420373996536
2013-01-11,1,0.0007075669352361109,0.0007676219292454263,-0.0023754743581124844,0.00479398074847749,0.9954225466791703
2013-01-15,0,0.0,0.0,-0.0019588386996754895,0.005277689910099693,0.99517217170853
2013-01-17,0,0.0,0.0,-0.0019588386996754895,0.005277689910099693,0.9952073957412813
2013-01-22,0,0.0,0.0,-0.0019588386996754895,0.006052061193986413,0.9950771027512028
2013-01-24,0,0.0,0.0,-0.0027278702736451823,0.006052061193986413,0.9948146250411332
2013-01-28,1,0.000877474743315651,0.0009122514461458645,-0.0027278702736451823,0.005277689910099693,0.9951179522811948
2013-01-30,1,0.0010061889062518627,0.0010552551185078573,-0.002408751645948364,0.005277689910099693,0.9953742830524416
2013-02-01,1,0.001122431887184602,0.001200151306441455,-0.0020731082650737543,0.00674453924710813,0.9950968857491869
2013-02-05,1,0.0013418226809900789,0.0014532414815654413,-0.0029328572889557643,0.0060987035899945285,0.995107540938636
2013-02-07,1,0.0014105076491199395,0.0015261806256637634,-0.0020731082650737543,0.005734055647280702,0.9954565216236086
2013-02-11,1,0.0015335243420851372,0.0016711055250026535,-0.0020731082650737543,0.005734055647280702,0.9957474013855764
2013-02-13,1,0.0015406108509888937,0.0016773803699540472,-0.0007833060778970716,0.0060987035899945285,0.9957435302321265
2013-02-15,1,0.001705577279873854,0.001869793398782117,-0.0029328572889557643,0.0060987035899945285,0.9956077698261704
2013-02-20,1,0.0018172938484685556,0.001994495620738182,-0.0007833060778970716,0.0060987035899945285,0.99600724048962
2013-02-22,1,0.0015078521854071966,0.0016420973794036454,-0.0007833060778970716,0.006639641578263411,0.9957617249548942
2013-02-26,1,0.0012096432494806144,0.001298306881179758,-0.0002835197050559195,0.007121779919473664,0.9954726365930152
2013-02-28,1,0.0012738075213432948,0.001368947765424103,0.00044405166680356223,0.006639641578263411,0.9957110222652622
2013-03-04,0,0.0,0.0,0.00044405166680356223,0.0062194400848926265,0.9951018628911128
2013-03-06,1,0.0017046579866162345,0.0018624454657219646,0.00044405166680356223,0.005994859306635728,0.9957522482773004
2013-03-08,1,0.0016512700805803525,0.0017614413575949986,-0.001686756017770745,0.005646549749709016,0.9951040292305295
2013-03-12,1,0.0015689042344506367,0.0016578344806067917,-0.001686756017770745,0.006350561090594978,0.9947809758244593
2013-03-14,1,0.002004249474532753,0.002190372087253531,-0.001686756017770745,0.005429453092254774,0.9950029876225005
2013-03-18,1,0.0023694972698135707,0.0026788000339590446,-0.001686756017770745,0.0064704899471109386,0.9939090847976632
2013-03-20,1,0.002352257833925649,0.002637839662421819,-0.004751836932680328,0.0056680653323984585,0.9935314072131081
2013-03-22,1,0.0022123095224547856,0.0024477325288768718,-0.001686756017770745,0.0056680653323984585,0.9934336978263065
2013-03-26,1,0.0026101616515452073,0.002896675614106918,-0.005241813803036103,0.0056680653323984585,0.9934120600278946
2013-03-28,0,0.0,0.0,-0.005241813803036103,0.006427267674746251,0.9920729396463139
2013-04-02,0,0.0,0.0,-0.005241813803036103,0.0056680653323984585,0.9923037203182286
2013-04-04,0,0.0,0.0,-0.005512749441231393,0.006427267674746251,0.9917558891558306
2013-04-08,0,0.0,0.0,-0.0052127068093506205,0.007023238330508311,0.9915798347691116
2013-04-10,0,0.0,0.0,-0.0052127068093506205,0.007940335627162572,0.9915961608564793
2013-04-12,0,0.0,0.0,-0.0052127068093506205,0.007940335627162572,0.9914962942776546
2013-04-16,1,0.0022960103345535943,0.002448032537991748,-0.0037429802997181122,0.007940335627162572,0.9928721682555699
2013-04-18,1,0.0020820904532487944,0.0022079088577343278,-0.0025328406578891886,0.008236666138557036,0.9930445005790163
2013-04-22,0,0.0,0.0,-0.0025328406578891886,0.00741479191586102,0.9932342020270831
2013-04-24,0,0.0,0.0,-0.001642549405766365,0.00741479191586102,0.9938094787986764
2013-04-26,0,0.0,0.0,-0.0037429802997181122,0.0072024919260386166,0.9934346111247271
2013-04-30,0,0.0,0.0,-0.0038385389488058835,0.00741479191586102,0.9923513096015432
2013-05-02,0,0.0,0.0,-0.0038385389488058835,0.0072024919260386166,0.9922408132413018
2013-05-06,0,0.0,0.0009160965813497663,-0.0038385389488058835,0.0072024919260386166,0.993024157524041
2013-05-08,0,0.0,0.0,-0.004602476208205234,0.0072024919260386166,0.9923614397184896
2013-05-10,1,0.00135037427556897,0.0013912259596693607,-0.004602476208205234,0.006772185867723544,0.9926216540344128
2013-05-14,1,0.0016792538898100814,0.0017697257096956477,-0.005764293872389293,0.00636953688242887,0.9922551427892814
2013-05-16,1,0.001498629660365045,0.0015485899100670954,-0.005764293872389293,0.00636953688242887,0.9920523367885554
2013-05-20,1,0.0013866528459582673,0.0013898455761919915,-0.005764293872389293,0.007062443314259575,0.9917464615287312
2013-05-22,1,0.0014559882287252506,0.0014580048305421196,-0.01194574624372803,0.0068418860303187555,0.9898501185368797
2013-05-24,0,0.0,0.0,-0.00820514328231217,0.008490890345535709,0.9897290509403299
2013-05-29,0,0.0,0.0,-0.005764293872389293,0.008580313280951393,0.9899010032884377
2013-05-31,0,0.0,0.0,-0.005764293872389293,0.008580313280951393,0.9904891485319346
2013-06-04,0,0.0,0.0,-0.005066868875299165,0.008801501454787546,0.9906773750087059
2013-06-06,-1,-0.0003677024332160917,-8.233265053437459e-05,-0.0037354042316082264,0.008801501454787546,0.9907123333903283
2013-06-10,0,-0.0002169169337020091,5.7704390498797796e-05,-0.0037354042316082264,0.008801501454787546,0.9905817537815468
2013-06-12,-1,-0.0008137659270138216,-0.0005338180824138477,-0.00017314313891249376,0.008801501454787546,0.9906144594332339
2013-06-14,-1,-0.0005300464741590694,-0.00027292144667827225,0.0016461858885763285,0.008580313280951393,0.9910403690273418
2013-06-18,1,3.9094603379792245e-05,0.00022651259934699825,-0.001266122635497155,0.008331883687680206,0.9919543656171006
2013-06-20,0,0.0,0.0,0.00033286017485584056,0.008801501454787546,0.9928350083581482
2013-06-24,0,0.0,0.0,0.00033286017485584056,0.008331883687680206,0.9939159427597414
2013-06-26,0,0.0,0.0,-0.0001622959310280651,0.004621694588116938,0.9951542010671298
2013-06-28,0,0.0,0.0,0.000517508367306382,0.004621694588116938,0.9954573020959174
2013-07-02,0,-9.86132825605611e-05,8.762195833798207e-05,0.000517508367306382,0.00420913158719801,0.9957850324818844
2013-07-05,0,0.0,0.0,0.000517508367306382,0.00420913158719801,0.99601135675993
2013-07-09,1,0.0007354069107718275,0.0008207052878142364,7.991343158953095e-05,0.00406117767138987,0.9965706474936535
2013-07-11,1,0.0010235508814051045,0.0010686947342985252,-0.00048415717917922835,0.00354860857658283,0.996588241071045
2013-07-15,1,0.0012961667307094553,0.0013049680493331171,-0.0019458769442791974,0.00282844746197935,0.9959995891333742
2013-07-17,1,0.0008583870447602879,0.0009362293080395921,-0.002053356562660386,0.0030512315626112342,0.9945781931239633
2013-07-19,0,0.0,0.0,-0.0035369679699883494,0.00282844746197935,0.9949442771230197
2013-07-23,1,0.0013773226312866883,0.0014174365276839384,-0.004486004222994982,0.0030512315626112342,0.993809324049706
2013-07-25,1,0.0015302512699966139,0.0015311695809330553,-0.006677999646926224,0.0030512315626112342,0.9929451876064445
2013-07-29,0,0.0,0.0,-0.00845851630820269,0.00199657219335215,0.9931528367536855
2013-07-31,0,0.0,0.0,-0.010056367385927061,0.00199657219335215,0.9923769741913049
2013-08-02,1,0.0019653997694202272,0.0020348820578318092,-0.010056367385927061,0.00019548293376117073,0.9915945157578849
2013-08-06,0,0.0,0.0,-0.010056367385927061,0.0007715938516551135,0.9927649631053409
2013-08-08,0,0.0,0.0,-0.010056367385927061,0.0016331654417183186,0.9928648054763877
2013-08-12,0,0.0,0.0,-0.00845851630820269,0.004280644176284619,0.9928021965646436
2013-08-14,0,0.0,0.0,-0.0065508504915984,0.004280644176284619,0.9940576279721006
2013-08-16,-1,-0.000501936907766935,-0.0002980155037820032,-0.005227741879160434,0.004740298641300326,0.9943053701077825
2013-08-20,-1,-0.00026415661389944423,-0.00010147151744999269,-0.0030849870906367364,0.004740298641300326,0.9948080624987949
2013-08-22,-1,-0.0007090255310371991,-0.0005187048352099942,-0.002002515143006909,0.004740298641300326,0.9951370541740249
2013-08-26,-1,-0.0012340620129528829,-0.0009723102099257713,-0.002931653767902718,0.004740298641300326,0.9948610928635487
2013-08-28,-1,-0.0022004013111905823,-0.0017901987146308124,-0.002931653767902718,0.004740298641300326,0.9949789247337435
2013-08-30,-1,-0.002067261323705795,-0.0016924233084890936,-0.004011136245994524,0.004740298641300326,0.9949698815045265
2013-09-04,-1,-0.0016811250979780596,-0.0013669513468945573,-0.004011136245994524,0.004740298641300326,0.9949392783337366
2013-09-06,-1,-0.0014481241259245727,-0.0011741007735256177,-0.004483292143316189,0.005871960383037621,0.9944237671106716
2013-09-10,-1,-0.0009119015276499718,-0.0006937201017978214,-0.0069676927574720575,0.0026330403122921033,0.9944113613062262
2013-09-12,-1,-0.0002691177214122358,-0.00016332952033543612,-0.0069676927574720575,0.004364622650096434,0.9935145262998438
2013-09-16,-1,-0.00043691296050376324,-0.00030176823086058467,-0.0069676927574720575,0.005174081917529977,0.9928776291927857
2013-09-18,1,0.0001100691039848455,0.00016684512066097063,-0.0069676927574720575,0.005174081917529977,0.992580726675876
2013-09-20,0,-3.636869453246038e-05,3.635914651576146e-05,-0.0069676927574720575,0.008572984989822993,0.9922565280797622
2013-09-24,-1,-0.0007939174463892077,-0.000629001859181838,-0.004101843959993597,0.009107958964854612,0.9921653220698552
2013-09-26,-1,-0.0014876690955798254,-0.0012304952527072222,-0.0037488910825982137,0.009107958964854612,0.9924419956277626
2013-09-30,-1,-0.0014684959976510922,-0.001230792575361323,-0.003035774787872005,0.009107958964854612,0.992304690811152
2013-10-02,-1,-0.001138997204082187,-0.0009453749612552652,-0.003712117474754522,0.008683380714048146,0.9923029315395424
2013-10-04,-1,-0.000802146694699167,-0.0006748821662891063,-0.003035774787872005,0.008514646683569795,0.9926458627428091
2013-10-08,-1,-0.0014724866154598596,-0.001277748293651185,-0.0028151707937902892,0.008514646683569795,0.9932222927752646
2013-10-10,-1,-0.00025925984632585604,-0.0002192650496752864,-0.0030219168395190154,0.008139941336838263,0.994332928307271
2013-10-14,1,0.0006962518331813437,0.0007880022031907115,-0.0030219168395190154,0.008139941336838263,0.9947392230825325
2013-10-16,1,0.0008400352619606181,0.0009071066375910427,-0.0036553269135835473,0.00447272740662292,0.9947880487265892
2013-10-18,1,0.0007403313395425145,0.0007598949683110944,-0.0030219168395190154,0.005306669461275932,0.9949450262349162
2013-10-22,1,0.000577699083624547,0.0006183784653257911,-0.0028151707937902892,0.005237821050354275,0.995477017938596
2013-10-24,1,0.00042327997420642694,0.00048763203754665345,-0.0024774811429962925,0.005237821050354275,0.9956306563317753
2013-10-28,1,0.0004144724189467161,0.00047386605767822307,-0.0023547944341175686,0.005237821050354275,0.9957473307132559
2013-10-30,1,0.0006768201026507385,0.0006931590566953505,-0.0023547944341175686,0.0042431723672740704,0.9959257522701437
2013-11-01,1,0.0003937894090090894,0.0004803878932473242,-0.0034372124996326797,0.0032902279678901016,0.9960632796299712
2013-11-05,1,0.00035458497313518324,0.00042108581885314704,-0.003431399804638758,0.0032902279678901016,0.9960081437017471
2013-11-07,1,0.0006090575089791272,0.0006143655571572166,-0.003431399804638758,0.0042431723672740704,0.9951353069801158
2013-11-11,1,0.00010066007879679762,0.0002565061252978367,-0.003431399804638758,0.0032902279678901016,0.9958885056932703
2013-11-13,1,0.0001099350693457574,0.0002196528619714065,-0.0037172682980137813,0.0032902279678901016,0.9947887556129418
2013-11-15,1,0.001047691815003305,0.0011072292793920583,-0.0037172682980137813,0.0009151260879893357,0.9948234011111691
2013-11-19,1,0.0008653510475341812,0.0008697924272889444,-0.0045009313859680385,0.0009151260879893357,0.9937826346266998
2013-11-21,1,0.0010277190178867447,0.001068532133005024,-0.006232597372238484,0.0006928905680222556,0.993421952882718
2013-11-25,1,0.0013733026610654845,0.0014872418445992617,-0.006232597372238484,0.00024573054255344027,0.9932382910296591
2013-11-27,1,0.001273990344816435,0.001395986836587284,-0.0047730591232059034,0.0005434344991228884,0.9934232445516219
2013-12-02,1,0.0011162102486384049,0.001233804825345347,-0.007067812826411751,0.0005434344991228884,0.9934745612327455
2013-12-04,1,0.0009701992775268985,0.0010841604931431464,-0.007067812826411751,0.0014179244710884303,0.9932520689609016
2013-12-06,1,0.0011878933268738318,0.0013224761769761412,-0.006366711035553321,0.0028666497314340676,0.9931118199338765
2013-12-10,1,0.0014291704812273757,0.0016432688470003724,-0.006366711035553321,0.0052170077207015705,0.9929850724196877
2013-12-12,1,0.0003624150579014893,0.0004392689465479719,-0.0021732010203142265,0.0052170077207015705,0.9946346787926627
2013-12-16,1,0.00047794415699763733,0.0005736935470881598,-0.0021732010203142265,0.0052170077207015705,0.9946082378991817
2013-12-18,1,0.0010863646961464175,0.001277058223188399,-0.0017791498565096929,0.004631894747251119,0.9957152391529737
2013-12-20,1,0.000949330136831908,0.0011285232158186093,-0.0017791498565096929,0.004631894747251119,0.9954638615162333
2013-12-24,1,0.001141569960695848,0.0013673358776454764,-0.0034284643493920214,0.004631894747251119,0.9934965212006089
2013-12-27,1,0.001149673043450805,0.0013642123970919622,-0.006434210416866652,0.0034225615248412275,0.9933963761683451
2013-12-31,1,0.0007686372319425723,0.000921375504658155,-0.006434210416866652,0.004634874989534932,0.992948928292603
2014-01-03,1,0.0005990455622129152,0.0007000152187568796,-0.01100352859481492,0.0034225615248412275,0.9920955124043873
2014-01-07,1,0.0011766767492427173,0.0013266741385164489,-0.01100352859481492,0.002517074400471453,0.992728488134664
2014-01-09,1,0.001036344964851035,0.0011372471405734627,-0.01100352859481492,0.0034225615248412275,0.9916849620612102
2014-01-13,1,0.0009750856031701454,0.001073879098718232,-0.01100352859481492,0.0069667146501337695,0.9904323054639071
2014-01-15,1,0.000744983940089353,0.0007779387420288255,-0.01100352859481492,0.0069667146501337695,0.9901067186957709
2014-01-17,1,0.0006057894889845762,0.0006089443812653095,-0.01100352859481492,0.0069667146501337695,0.9899739345455433
2014-01-22,0,-1.4871474950148777e-05,8.472459949707465e-05,-0.008422821871564847,0.007733344312385148,0.9900282943201424
2014-01-24,-1,-0.0015619992884767521,-0.0012778488917210627,-0.006618983898622366,0.007733344312385148,0.9913961443783108
2014-01-28,-1,-0.0016855110568239685,-0.0013957242682881704,-0.006027075404168823,0.007733344312385148,0.9916970329577737
2014-01-30,-1,-0.001891498692228366,-0.0015818236860086353,-0.00579165313643176,0.00813598044171291,0.9919552098596398
2014-02-03,-1,-0.002590496432249584,-0.002227701751578198,-0.004797446686369887,0.009098908438619888,0.9917845592515392
2014-02-05,-1,-0.0021972031924353055,-0.001891339508439404,-0.00579165313643176,0.009098908438619888,0.9918450382855669
2014-02-07,-1,-0.0011368953968997385,-0.0009546915085022025,-0.00579165313643176,0.00549061419181919,0.9933308521312819
2014-02-11,1,0.00014039648905064518,0.0001579295367514841,-0.00579165313643176,0.00286798286510678,0.9950956603061932
2014-02-13,-1,-9.634687598211953e-05,-4.582615794054018e-05,-0.005832444111272143,0.00286798286510678,0.9950324192537195
2014-02-18,-1,-0.0006123309576594931,-0.00047390143244263784,-0.004797446686369887,0.0035873764945129243,0.9947447975416814
2014-02-20,-1,-0.0008475748472062376,-0.0006594748364025616,-0.003914348447569317,0.0035873764945129243,0.994925402821469
2014-02-24,-1,-0.0014366274450071637,-0.0011725280494330453,-0.0024637395757673235,0.004887617630037553,0.9940139021824117
2014-02-26,-1,-0.0013528135661872807,-0.0011078439378373265,-0.003473006885396129,0.006326990756368001,0.9928679897529898
2014-02-28,-1,-0.0010518568546297427,-0.0008395549556263233,-0.003473006885396129,0.004887617630037553,0.9932843077574786
2014-03-04,-1,-0.0010665230790654233,-0.0008184934387112537,-0.0030613797861038915,0.004887617630037553,0.9940159995276022
2014-03-06,-1,-0.0007827252347413859,-0.0006086503548532929,-0.0022703437860990697,0.004887617630037553,0.9943748835391462
2014-03-10,-1,-0.0001983489538381597,-0.0001255817311969768,-0.0030613797861038915,0.0036365210722363157,0.9945113715051666
2014-03-12,1,0.00010246770435319185,0.00011836316197768515,-0.0030613797861038915,0.006274190800760063,0.994110050641839
2014-03-14,-1,-9.220348890872743e-05,-6.162545115071563e-05,-0.0030613797861038915,0.006274190800760063,0.993099086837367
2014-03-18,1,0.0004304771381796324,0.00047896824529199356,-0.0030613797861038915,0.006274190800760063,0.9927209588060012
2014-03-20,1,0.0004687620455523319,0.0005213534877653396,-0.0030613797861038915,0.004590609004573325,0.992869168261311
2014-03-24,1,0.0008071676664922446,0.0009039013738541038,-0.0005090211004827705,0.004590609004573325,0.9937945361620252
2014-03-26,1,0.001450469817562564,0.0016388459973285794,-0.00041953352770664675,0.0030753271401740695,0.9951526815812973
2014-03-28,1,0.0016181333441149547,0.0018387091695759787,-0.0019240749374051574,0.004590609004573325,0.994396698312772
2014-04-01,1,0.001624620296372011,0.0018325118998153427,-0.0019240749374051574,0.0030753271401740695,0.9946585800815146
2014-04-03,1,0.001644930274468852,0.0018508361435389815,-0.0034283038958671467,0.0029449772123438874,0.9936463405529921
2014-04-07,1,0.0017579514553075883,0.0020094991443835907,-0.0034283038958671467,0.004300709751352361,0.9934347405649153
2014-04-09,1,0.0018652670158331352,0.002109984842692156,-0.0041813618765734195,0.004300709751352361,0.9928887084654534
2014-04-11,1,0.0013656549174881614,0.0015639339776813543,-0.00391444024848342,0.004796720208201136,0.9938627554404917
2014-04-15,1,0.002137262178660235,0.002445318505620813,-0.00391444024848342,0.004303262488389628,0.9944806827878734
2014-04-17,1,0.0020806470831328068,0.0023862609836115814,-0.0032604638371989654,0.004303262488389628,0.9944735800267691
2014-04-22,1,0.0024851264794066275,0.002850766243419465,-0.003867472769564448,0.002950045255351417,0.9943380138851367
2014-04-24,1,0.002238174819351267,0.0025562733419107987,-0.003867472769564448,0.004303262488389628,0.9942810191057739
2014-04-28,1,0.002468833279506379,0.00280142685778365,-0.003867472769564448,0.002950045255351417,0.9947016254407379
2014-04-30,1,0.0022639919687595872,0.0025539324285275447,-0.003922160165859229,0.004206286823896737,0.9945956597269231
2014-05-02,1,0.0017779842608713343,0.0020171254654462525,-0.0023045833987670175,0.005467393708949401,0.9954485202267616
2014-05-06,1,0.001731431050904291,0.0019562524565002112,-0.0017809052504758477,0.004683207673232825,0.9959785054632164
2014-05-08,1,0.00141734599545212,0.0015388136417729657,-0.0017075978660022599,0.004683207673232825,0.9965809918410962
2014-05-12,1,0.0013675354183465705,0.001482844548897923,-0.0015344853480902547,0.005045367541527595,0.9965734620226117
2014-05-14,1,0.0015994738992968634,0.001767737539862542,-0.0017809052504758477,0.004754440548048923,0.9959746817227293
2014-05-16,1,0.0013325219453850863,0.0014511638399510984,-0.0017075978660022599,0.004754440548048923,0.9961117048685534
2014-05-20,1,0.001142507655833297,0.0012321106621482902,-0.0017075978660022599,0.005681092333397694,0.9957396213658388
2014-05-22,1,0.0013372953551638042,0.0014543771017731775,-0.0010060977402575823,0.006959833801100204,0.9952213374495744
2014-05-27,1,0.001048749463753607,0.0011103042997452606,-0.0023805227432888076,0.006959833801100204,0.9949457571366721
2014-05-29,1,0.0010089836299647073,0.001065464966991835,-0.0011619427065342443,0.007379730235156365,0.9948153578066686
2014-06-02,1,0.0017721257595644485,0.001975283039669513,-0.0038779858381337838,0.006075662836579673,0.9947232004189743
2014-06-04,1,0.0019279013194146058,0.0021570039300577637,-0.0038779858381337838,0.008552426854931782,0.9941459218883144
2014-06-06,1,0.0019591343013259967,0.0021844264345528726,-0.004352253844932795,0.008906681784664632,0.9937170491902818
2014-06-10,1,0.0021918847063823826,0.002450489550560268,-0.004973638902580352,0.008906681784664632,0.9935634878938362
2014-06-12,1,0.0016786834557997463,0.0018714798954926298,-0.004352253844932795,0.008906681784664632,0.9940032498422631
2014-06-16,1,0.0014434025011968907,0.0015877054639135489,-0.004973638902580352,0.008906681784664632,0.9931339405732713
2014-06-18,1,0.0007895302136154608,0.0008056385335139002,-0.006339382560700296,0.0047018154971466605,0.9924105231031416
2014-06-20,1,0.0013031739406690677,0.001336131930548044,-0.006339382560700296,0.0027548034912243686,0.992346637664881
2014-06-24,1,0.0008306980396941604,0.0008770699275011194,-0.006339382560700296,0.00476019248942642,0.9922221694166937
2014-06-26,1,0.000345625809289804,0.0005040684401035546,-0.006339382560700296,0.0027548034912243686,0.9929179735186419
2014-06-30,0,-8.967743346017013e-05,0.00011423320512159954,-0.005558837267176869,0.0027548034912243686,0.99350906531613
2014-07-02,1,0.0007430310908844791,0.0008001460583621831,-0.006723284556843671,0.0027548034912243686,0.9925108157690267
2014-07-07,1,0.001336516154364793,0.0014043914554822136,-0.006723284556843671,0.002617997416045479,0.9927532042161782
2014-07-09,1,0.001013437286286536,0.0010271012324263697,-0.005558837267176869,0.002617997416045479,0.9927572736601145
2014-07-11,1,0.0005205036140085538,0.0005787493380200173,-0.005841011819807103,0.002831758362388825,0.9925073976402228
2014-07-15,-1,-0.00015512244877572307,-1.5448359681138435e-05,-0.005214584264073628,0.0027856379538673966,0.9935295524473305
2014-07-17,-1,-0.001518442252077728,-0.0011934322923654313,-0.002898023391292588,0.004730020682074759,0.9941505578022458
2014-07-21,-1,-0.001323617205194215,-0.001018391159764135,-0.002898023391292588,0.004730020682074759,0.9939795416952819
2014-07-23,-1,-0.0009200730947168231,-0.0006753926851374509,-0.0022723318742414057,0.002897745960958031,0.9944115986157728
2014-07-25,-1,-0.0008209006817455474,-0.0006019410209097344,-0.0038557781697116777,0.004730020682074759,0.9934783438679406
2014-07-29,-1,-0.0010739186925238825,-0.0008151278016366643,-0.0038557781697116777,0.004730020682074759,0.9932621699675287
2014-07-31,-1,-0.0016980060036896184,-0.001372805792671788,-0.002810512167394889,0.004293086667178212,0.99427581934798
2014-08-04,-1,-0.0017052560769055822,-0.0013805383061797907,-0.003437700888673115,0.007911427639085275,0.9939458646902966
2014-08-06,-1,-0.0017524604374910106,-0.0014071006379724295,-0.0028536048806114362,0.0047966268147504225,0.9941627347862756
2014-08-08,-1,-0.0014608620571865166,-0.0011666464489473284,-0.002847694072188978,0.004298871337402667,0.994718030881043
2014-08-12,-1,-0.0016401529069292988,-0.001327208472372097,-0.002455971582109258,0.006083289486491999,0.9942889671366189
2014-08-14,-1,-0.001043865948903359,-0.000813282830080153,-0.002847694072188978,0.004298871337402667,0.9949728175801726
2014-08-18,-1,-0.0004464717976295219,-0.0003179344167222976,-0.002455971582109258,0.004298871337402667,0.9955354964849046
2014-08-20,-1,-0.00025817984733539,-0.00015562942611255768,-0.002455971582109258,0.006083289486491999,0.9951348104450857
2014-08-22,-1,-0.00025633769475260726,-0.0001595608825706297,-0.002195809159232124,0.005679600899837713,0.9957747004593497
2014-08-26,-1,-0.00012901538408963934,-5.091171917516132e-05,-0.002455971582109258,0.006365490158572409,0.9952381201098826
2014-08-28,-1,-0.00044101887468575297,-0.00031820131648596666,-0.00268785215625724,0.006365490158572409,0.9946954639877622
2014-09-02,-1,-0.00012779226550787578,-5.842176383446095e-05,-0.00268785215625724,0.005679600899837713,0.995024682740965
2014-09-04,-1,-0.0004647505962297592,-0.0003212958106593278,-0.003967604854926291,0.005679600899837713,0.9940081901998419
2014-09-08,1,2.2606715471626247e-05,7.273403972888717e-05,-0.003967604854926291,0.0072022957265548415,0.9937145264495767
2014-09-10,1,0.00023393383134979854,0.00026588873870102075,-0.004221749802392118,0.0072022957265548415,0.9920144840777678
2014-09-12,1,0.0003024837105377692,0.0003079177681389431,-0.006003248439290385,0.0072022957265548415,0.990456425275803
2014-09-16,1,0.0006093158733818237,0.0006383220590363745,-0.015842356871557054,0.003686369329723793,0.9888425152367901
2014-09-18,1,0.0013372488154740204,0.0014841466050026881,-0.01613138615470672,0.0018423986419962633,0.9878026350357094
2014-09-22,1,0.0013712729284795849,0.0015201932511918414,-0.01613138615470672,0.006544600467180388,0.9870603485194689
2014-09-24,1,0.0011938169460546137,0.0012755436096420153,-0.01613138615470672,0.009350264230093726,0.9869743827452605
2014-09-26,1,0.0006731423562534786,0.0006872738372957232,-0.01613138615470672,0.011851553710863131,0.9870126406484276
2014-09-30,1,0.0006380549569021147,0.0006646619351324257,-0.01613138615470672,0.011851553710863131,0.9865997282623178
2014-10-02,-1,-0.00037226558951467215,-0.0002770028501481869,-0.009885250212025715,0.012336550151974119,0.9866880645191312
2014-10-06,1,3.113388287756408e-05,7.551798243919063e-05,-0.009885250212025715,0.01186264600916352,0.9870187833538699
2014-10-08,0,-3.359616375828053e-05,2.4995835987956554e-05,-0.004308452965439316,0.011019457778128388,0.9887397724687249
2014-10-10,-1,-0.001522076230771159,-0.0012828141673748095,0.0005672667223222514,0.011019457778128388,0.9894004159379018
2014-10-14,-1,-0.00303168132807336,-0.002629417695784573,0.0018174462955522076,0.011019457778128388,0.9898843751605881
2014-10-16,-1,-0.0031109158441584533,-0.002697798774866337,0.0018174462955522076,0.009534737250030066,0.9907557228210441
2014-10-20,-1,-0.0021198732843303253,-0.0018219943081141435,0.0011775523360248866,0.008705551190698461,0.9924660250921993
2014-10-22,-1,-0.0009761552635958425,-0.0008385265489794685,0.0004595171866110941,0.007025823356230225,0.9939015969121758
2014-10-24,-1,-0.00011707096155337383,-8.905606051137291e-05,-0.0018413598982341202,0.006914570577134026,0.994832790431588
2014-10-28,1,0.000548839210849921,0.0006148922310385222,-0.0029607745966748686,0.005102890287740502,0.9952023426271634
2014-10-30,1,0.0014440992899256583,0.0016464421944169284,-0.0029607745966748686,0.004808282880738106,0.9956133940777785
2014-11-03,1,0.0012399372452944367,0.0013808893734232504,-0.0022637653998530917,0.004527375128698128,0.9957738364826711
2014-11-05,1,0.0016008392257288726,0.0017852236227342405,-0.003551737481068512,0.003317704782982967,0.9956053134545675
2014-11-07,1,0.001397768202288097,0.0015600980431891977,-0.0022637653998530917,0.004527375128698128,0.9956816228540099
2014-11-11,1,0.002028319309833406,0.0023228482533782825,-0.004581419901583191,0.003317704782982967,0.9945101389659922
2014-11-13,1,0.001927438492873053,0.0021930003530851337,-0.005819755585190619,0.004461957002170159,0.9934777684997452
2014-11-17,1,0.0018282188287042892,0.002101119337861358,-0.005819755585190619,0.004461957002170159,0.993074972258254
2014-11-19,1,0.0017724653592464728,0.002015352740232933,-0.005819755585190619,0.0045835221041759305,0.9916336656188733
2014-11-21,1,0.0016227424276136736,0.0018694742459316321,-0.007731803233177409,0.005792912967133764,0.9911307358033493
2014-11-25,1,0.0013493169036210067,0.001571844441963782,-0.008346050423250493,0.005792912967133764,0.9905730600086133
2014-11-28,1,0.0017673008347178505,0.0020358499156819714,-0.008346050423250493,0.004499837954157716,0.9909173098116331
2014-12-02,1,0.0016614000097953724,0.00189576989924473,-0.008509300759941772,0.004499837954157716,0.9906974532848112
2014-12-04,1,0.000991825607897309,0.0010990943614140997,-0.008509300759941772,0.004499837954157716,0.9908423152475577
2014-12-08,1,0.0006968761169601755,0.0007018214877769637,-0.008509300759941772,0.004499837954157716,0.9899644584249144
2014-12-10,0,-4.5431567390609125e-06,5.924459488780543e-05,-0.008509300759941772,0.005354289072311072,0.9900840282024559
2014-12-12,-1,-0.000523356582652979,-0.00041489764161764504,-0.007112729025965243,0.005336023048820826,0.9911288508884017
2014-12-16,-1,-0.001211737350257894,-0.0010207371300369054,-0.007315550799240424,0.005336023048820826,0.9908264910348487
2014-12-18,1,0.0002797512423369763,0.0002989385173077229,-0.00857273206791519,0.003352994010238787,0.9906504362273884
2014-12-22,-1,-0.0002152520657311732,-0.00010468802092401293,-0.007315550799240424,0.004875891495825214,0.990667758816878
2014-12-24,-1,-0.0010109871244403498,-0.0008081940827595129,-0.007315550799240424,0.004875891495825214,0.9911824961420415
2014-12-29,-1,-0.0006821980662664272,-0.0005263497703645748,-0.007315550799240424,0.0027964594989613534,0.9912790171873967
2014-12-31,-1,-0.0009179787719459897,-0.0007402441361913924,-0.008848291169354205,0.006482449697313566,0.9901852142079469
2015-01-05,-1,-0.0013239132434217237,-0.0010901986206304642,-0.008848291169354205,0.008114303809974573,0.9893231382693942
2015-01-07,-1,-0.000430227562237787,-0.0003243538548795385,-0.011459179572395044,0.008114303809974573,0.9895216569370413
2015-01-09,-1,-0.0005473980201792802,-0.0004378080756468351,-0.01311065241290671,0.007384953988014314,0.9893344219557597
2015-01-13,-1,-0.0005273326560682632,-0.00042801641485916864,-0.01311065241290671,0.007384953988014314,0.9892394103786916
2015-01-15,-1,-0.0013752947628759798,-0.0011742120063427132,-0.01311065241290671,0.009364609663708837,0.9886995695551232
2015-01-20,-1,-0.0017360336086666523,-0.001498375990546081,-0.011316005854278643,0.008390627219744226,0.9900818436354168
2015-01-22,-1,-0.0009299960308753138,-0.0007781165052788833,-0.011316005854278643,0.007610023803399624,0.9908107002677354
2015-01-26,-1,-0.001380224204386687,-0.0011829504090262448,-0.0071652591244824905,0.007610023803399624,0.9912587125148451
2015-01-28,-1,-0.0015542096178522253,-0.001345220468549859,-0.006268224904987544,0.008390627219744226,0.9903101405902318
2015-01-30,-1,-0.001987527976106929,-0.0017321383482194492,-0.004471773492599248,0.007610023803399624,0.9912419363515466
2015-02-03,-1,-0.0008933371265566431,-0.0007827624929012502,-0.007188017683607351,0.007045343323273763,0.9920274919383285
2015-02-05,-1,-0.0009447842272138753,-0.000821964610131493,-0.007188017683607351,0.007045343323273763,0.9915139952630849
2015-02-09,-1,-0.0016122204224870008,-0.0014348831398895059,-0.005269799701276637,0.007045343323273763,0.9917989098574792
2015-02-11,-1,-0.0010029848031597546,-0.0009228244866964578,-0.007188017683607351,0.007610023803399624,0.9909000677230317
2015-02-13,-1,-0.0010724800616843545,-0.0009954201069440397,-0.006343484341403559,0.007610023803399624,0.9912085350572477
2015-02-18,-1,-0.0006978260925319267,-0.0006779353020560959,-0.007188017683607351,0.007691887902036766,0.990501353012417
2015-02-20,-1,-0.0008205263256415436,-0.0007641588808295778,-0.007188017683607351,0.007376179210558609,0.9905656246220128
2015-02-24,-1,-0.0007025984174735037,-0.000653772646659529,-0.008870364335691761,0.007376179210558609,0.9901034858956568
2015-02-26,-1,-0.00047835050468759716,-0.0004120455539108833,-0.01023514706692307,0.006940107092781044,0.9903643958295184
2015-03-02,-1,-0.00010421490630005932,-9.891036094191919e-05,-0.01023514706692307,0.007376179210558609,0.9900783433128237
2015-03-04,-1,-0.0006102428420073163,-0.0005476798778221786,-0.011313783571234338,0.007376179210558609,0.9896913868190901
2015-03-06,-1,-0.001841583933825257,-0.0015767848030447122,-0.01023514706692307,0.005993558962607316,0.9908895665011667
2015-03-10,-1,-0.0027371815769715634,-0.002305111248044117,-0.009492501014975892,0.007606390272878626,0.9909937304592318
2015-03-12,-1,-0.0027622444160680056,-0.0023203588341972285,-0.00699669959406493,0.007773000593907923,0.9911574252582521
2015-03-16,-1,-0.0018532739846055493,-0.0015575639184428106,-0.009492501014975892,0.00703753173312952,0.9918237546100673
2015-03-18,-1,-0.0013165025324568197,-0.0011155427787509441,-0.008377509869553379,0.005993558962607316,0.9927811981361919
2015-03-20,-1,-0.0006607235908073515,-0.000565286524046363,-0.008377509869553379,0.005829696198426247,0.992949759996452
2015-03-24,-1,-0.0004771240456581127,-0.00042828959985027025,-0.005625891116096986,0.005288125054567679,0.993555938081329
2015-03-26,-1,-0.00058629474270403,-0.0005579276147200677,-0.0027826324608048883,0.006210364466367454,0.9939708509595325
2015-03-30,-1,-5.748972077528126e-05,-1.0245130740214398e-05,-0.0048496189072524225,0.005249398575780559,0.9945437190302374
2015-04-01,-1,-0.00047320504899047935,-0.00045697852303610014,-0.0038100312801511993,0.005249398575780559,0.994843523750549
2015-04-06,-1,-0.0004792490342575218,-0.0004711830764651251,-0.0024468763597576405,0.006210364466367454,0.9946996320365619
2015-04-08,0,-3.308880624324872e-05,4.749003240279886e-05,-0.0038423506041106786,0.0031907764703631375,0.9948124281208408
2015-04-10,1,0.0005765328135977944,0.0007434306245673375,-0.0038423506041106786,0.002883133440674392,0.9946779897700258
2015-04-14,1,0.00010263531848935789,0.00019628722905509495,-0.004488854992274128,0.002883133440674392,0.9948825905659574
2015-04-16,1,2.7200849239485494e-05,0.00012055232765205442,-0.0036897766418251014,0.005248708898514097,0.9946493153570917
2015-04-20,1,8.565948940767723e-05,0.00017556861882190656,-0.0036897766418251014,0.005248708898514097,0.9943166829505824
2015-04-22,1,3.684135238071477e-05,0.00010433296666156151,-0.0036897766418251014,0.0054589865981912395,0.993962341755991
2015-04-24,1,0.0004899301658152779,0.0006446538201877734,-0.005095653646579575,0.005011158435384399,0.993236597227815
2015-04-28,1,0.0004898056545353657,0.0006511799722565395,-0.005307764306986926,0.005011158435384399,0.9931529062510062
2015-04-30,0,-1.7505715748351337e-05,6.396985306732119e-05,-0.005307764306986926,0.005011158435384399,0.9933670856130458
2015-05-04,1,0.0005117522044801114,0.0006816476286057491,-0.005307764306986926,0.004696927168265493,0.9938016536576848
2015-05-06,-1,-8.026795981756638e-05,-2.3629634083954587e-05,-0.005307764306986926,0.004696927168265493,0.9939480996707835
2015-05-08,1,0.00035505222494918885,0.00044161607133050816,-0.006404987825291264,0.001593802987567779,0.9943682273017626
2015-05-12,-1,-0.00014596276929770076,-0.00014049328730752496,-0.006404987825291264,0.003459958807207437,0.994453653256496
2015-05-14,1,0.0008440933251991863,0.0010362664878582526,-0.0069853489747336624,0.003216267650056427,0.9944257954346335
2015-05-18,1,0.0012932203896400605,0.0015447370002663505,-0.008630219603090562,0.002682737203118761,0.9940692604900258
2015-05-20,1,0.0010295902513280714,0.0012115197337293226,-0.008630219603090562,0.003216267650056427,0.9937018058562244
2015-05-22,1,0.0005508643320020249,0.0006817046884778895,-0.006404987825291264,0.003216267650056427,0.9945647484153701
2015-05-27,1,0.00041599951640495787,0.0005181461863383895,-0.006404987825291264,0.0028242423107026748,0.9945513987291612
2015-05-29,1,6.599402082650733e-05,0.00011048559845006713,-0.005334066601592055,0.003671017140865936,0.9947270174660309
2015-06-02,1,0.0002857891097534807,0.0003857850647676825,-0.006404987825291264,0.003671017140865936,0.9937265983171673
2015-06-04,1,5.417676757044505e-05,0.00011562297988855285,-0.005334066601592055,0.004132822796373911,0.9936833724940891
2015-06-08,-1,-0.0002549138124716387,-0.00023506785113064978,-0.0034503639970474044,0.005640123511149479,0.9938220286109651
2015-06-10,-1,-0.0002797301905555733,-0.00026484658528314015,-0.004627934608062487,0.005545535324747034,0.9934170276076878
2015-06-12,-1,-0.0006175606200280363,-0.0005493052977042161,-0.0034503639970474044,0.007357721880522959,0.9930788582181997
2015-06-16,-1,-0.00016994218808704834,-0.00014889111065874856,-0.0034503639970474044,0.006665805465571479,0.9933962853158165
2015-06-18,1,0.00017486183319239898,0.00021973206447421876,-0.004604114594656948,0.006550599821933692,0.9935475259987434
2015-06-22,1,1.3319225073900184e-05,2.5283034198384557e-05,-0.0034503639970474044,0.006550599821933692,0.9937500126769658
2015-06-24,-1,-0.0004067566972078764,-0.00035073665521135765,-0.0022987208220012073,0.006550599821933692,0.9940456307714682
2015-06-26,1,5.9491377859354066e-05,9.45482575245666e-05,-0.005858741245210407,0.006550599821933692,0.9934560515011316
2015-06-30,-1,-0.0005112834844616307,-0.0004766674387479601,-0.0030502629170156793,0.007210749563801567,0.9937318291704529
2015-07-02,-1,-0.0006442989200422471,-0.0005582615280622297,-0.0030502629170156793,0.006945958402835684,0.9939836305710278
2015-07-07,-1,-0.0003844415938180115,-0.0003374517859188438,-0.002871318186687023,0.006550599821933692,0.9943537326293457
2015-07-09,-1,-0.0006185510607734789,-0.0005349486081503948,-0.002871318186687023,0.006945958402835684,0.9941528989096072
2015-07-13,-1,-4.317791721417448e-05,-3.1322904262610635e-05,-0.0028871944154038394,0.006528370165388743,0.9945571774807174
2015-07-15,1,4.406171881773911e-05,4.665026964956259e-05,-0.0042266213370019505,0.004497259260754835,0.9945703299768179
2015-07-17,1,1.580310516697052e-05,2.0847191789405282e-05,-0.002505017794508022,0.003439645688686422,0.9951372911901365
2015-07-21,1,0.0003388524916211531,0.000416125568433221,-0.003524147876341109,0.004572052019418883,0.9944997812881071
2015-07-23,1,0.00036986734223268193,0.00045735423089896557,-0.005063905147050485,0.004572052019418883,0.9942779768556045
2015-07-27,-1,-0.00033587219462289443,-0.0003177201578892142,-0.005063905147050485,0.004572052019418883,0.9923119053697251
2015-07-29,-1,-8.096484072634125e-05,-6.945441603571966e-05,-0.0058811722551874,0.003439645688686422,0.9895124448231862
2015-07-31,-1,-4.72954308811414e-05,-3.208698908629854e-05,-0.008590432570311921,0.004316747510890283,0.9886376826036328
2015-08-04,-1,-0.00012429506034909173,-0.00010368957512960735,-0.012984154577223204,0.004316747510890283,0.987277204439487
2015-08-06,-1,-0.00011896095056172426,-0.00011531005260234444,-0.01131036434879669,0.004890502019805249,0.9872882427244496
2015-08-10,1,0.00011805348393596204,0.00015110270908557725,-0.012967081847626526,0.005195084383839418,0.9856736303851789
2015-08-12,0,-2.1584465354659675e-06,3.1043272214241e-05,-0.015344894894480012,0.006748290969457079,0.9850973910685126
2015-08-14,0,-5.435780456054538e-06,2.185757993111141e-05,-0.015344894894480012,0.006748290969457079,0.9850600748785894
2015-08-18,-1,-0.00010418711634938978,-9.302665220703682e-05,-0.015344894894480012,0.006959638373049517,0.9851574636398039
2015-08-20,-1,-4.348271838557177e-05,-2.645417793844409e-05,-0.01604404998768403,0.006959638373049517,0.9845747991366721
2015-08-24,-1,-0.002074103881140381,-0.001821745396822924,-0.012967081847626526,0.006959638373049517,0.9872945533721714
2015-08-26,-1,-0.0013184789906287876,-0.0011561661399789864,-0.01131036434879669,0.004502979793346871,0.9905021536551687
2015-08-28,-1,-0.0011270437438669766,-0.0010018215751643736,-0.012967081847626526,0.004098648340446186,0.990606324412691
2015-09-01,-1,-0.0017369806911565304,-0.0015697836643679412,-0.0060147450605829095,0.004502979793346871,0.9908400934325118
2015-09-03,-1,-0.0017586704860866047,-0.0015697260280344248,-0.003459135595460658,0.004502979793346871,0.991398992009212
2015-09-08,-1,-0.0013945804819231401,-0.0012400528633486087,-0.003459135595460658,0.004502979793346871,0.9924430167768192
2015-09-10,-1,-0.0016142998146463612,-0.0014419141623210668,-0.0027069512764944298,0.005186814266164649,0.9925498981646742
2015-09-14,-1,-0.0013164744822089223,-0.0011839783550363337,-0.0027069512764944298,0.006914997354070614,0.9924610323353208
2015-09-16,-1,-0.0007211804620902212,-0.0006685761940189972,-0.005519700226411632,0.004674709369748174,0.9926543305849214
2015-09-18,-1,-0.001143537701572596,-0.0010396657754911014,-0.003459135595460658,0.008326963152727953,0.9914884828102427
2015-09-22,-1,-0.0013994511398988112,-0.0012452833955161199,-0.004051359484319946,0.008326963152727953,0.9914696297273019
2015-09-24,-1,-0.0013746608491763933,-0.0012421176205205373,-0.0031836942311425907,0.0094322215748903,0.9906226021043928
2015-09-28,-1,-0.0018985488329560153,-0.0016902709018820055,-0.0031836942311425907,0.0094322215748903,0.9909344431489199
2015-09-30,-1,-0.0007443154236376485,-0.0007067777310614598,-0.0031836942311425907,0.008326963152727953,0.9919661152493727
2015-10-02,-1,-0.000664319819290718,-0.0006238652830818613,-0.003408986107952286,0.008841659656162357,0.991886933632521
2015-10-06,-1,-0.0005186172955401061,-0.0005168190245280779,-0.0031287966905464352,0.00944803962488327,0.9923803884694443
2015-10-08,1,0.00025421485571677544,0.00038194593515338514,-0.0031287966905464352,0.008091985136852213,0.9933356920598704
2015-10-12,1,0.0005950556290892276,0.0007721160932569417,-0.003602388262221067,0.008091985136852213,0.9930241087000845
2015-10-14,-1,-7.176369942486031e-05,-1.6643693269057717e-05,-0.0031287966905464352,0.008091985136852213,0.9932339910031859
2015-10-16,1,0.0009631865256908068,0.0011526744109483047,-0.003602388262221067,0.00454337521839757,0.9942083895262152
2015-10-20,1,0.0006513341591229804,0.0007833888233152531,-0.0034376956404326016,0.006496100064005236,0.9938821631109107
2015-10-22,1,0.0011660127822080305,0.001364307704750925,-0.0034376956404326016,0.006496100064005236,0.9942555433443044
2015-10-26,1,0.0011586121226989537,0.001343524992836706,-0.0023800638485743757,0.00454337521839757,0.9946724105212693
2015-10-28,1,0.0010938621919881284,0.0012488842886984512,-0.0034879395249117814,0.00454337521839757,0.9942942383409759
2015-10-30,1,0.0013363650202589889,0.0015371637898613506,-0.003918789518971928,0.0040262745295621535,0.9941508183633556
2015-11-03,1,0.0014699819858584717,0.0016788343629908064,-0.003918789518971928,0.0040262745295621535,0.9941041932556087
2015-11-05,1,0.0015290442218105502,0.0017444780163670746,-0.004780810388412168,0.00454337521839757,0.9926333078758415
2015-11-09,1,0.0014016677747392269,0.0016311437299440224,-0.004692919024232578,0.00454337521839757,0.9929162956554447
2015-11-11,1,0.001623596088507735,0.001877898706602274,-0.004692919024232578,0.004215127140577337,0.9928862607247614
2015-11-13,1,0.0009989630201673468,0.001158178444335477,-0.0040471769003254405,0.004665979043407835,0.9932832679650678
2015-11-17,1,0.0014803946720992017,0.0017082298999021553,-0.0040471769003254405,0.006286587949912784,0.9926308391990736
2015-11-19,1,0.0014282468394064354,0.0016117019506055952,-0.008871379605342948,0.004665979043407835,0.991555570321029
2015-11-23,1,0.0016020869111078892,0.0018236759352231713,-0.008871379605342948,0.006286587949912784,0.9909751179527584
2015-11-25,1,0.0014359169343664225,0.001642431654079075,-0.008871379605342948,0.008384592252075907,0.9911920760876115
2015-11-30,1,0.001141785041089579,0.0012992853114072288,-0.0057932072824878784,0.008574422673932458,0.9912531710059176
2015-12-02,1,0.0016516134711878614,0.0019083858910094653,-0.008871379605342948,0.007657462244434239,0.9912578277969497
2015-12-04,1,0.0019165514459619894,0.00221026862960157,-0.008871379605342948,0.005496181134985598,0.9916598566508208
2015-12-08,1,0.0016993769391624091,0.001957696945863629,-0.009568275054246313,0.005496181134985598,0.9912440030545614
2015-12-10,1,0.0017680985053079206,0.0020389046764029625,-0.010331244292291595,0.005365313810795543,0.9905972466126192
2015-12-14,1,0.0015907759410492216,0.0018348708452992253,-0.010926111201554308,0.007048680911717948,0.9903609506677562
2015-12-16,1,0.0020515824480214656,0.0023212668170727955,-0.011845541690583595,0.00485164997473413,0.9896491584148905
2015-12-18,1,0.0012671690059246907,0.0014549840121505706,-0.010926111201554308,0.005582690898920222,0.9904144462424385
2015-12-22,1,0.0014919979927806972,0.0017160135080772103,-0.010926111201554308,0.005582690898920222,0.9907578450242984
2015-12-24,1,0.0016432533784348285,0.00187940487152312,-0.010926111201554308,0.005582690898920222,0.9884480695404869
2015-12-29,1,0.0016280078915719932,0.0018497411059368168,-0.010926111201554308,0.005582690898920222,0.9886436613664928
2015-12-31,1,0.0013596613467637942,0.0015559671191158922,-0.010926111201554308,0.007260822320779682,0.9883785259300857
2016-01-05,1,0.0007211334368325405,0.0008148906196798406,-0.009569353610109315,0.007405115543859244,0.9888394901822762
2016-01-07,1,0.0002827908845995436,0.00031951982346742943,-0.009569353610109315,0.007405115543859244,0.9879341599496269
2016-01-11,-1,-6.71041438076393e-05,-6.694301057507746e-05,-0.00501267556639395,0.008753498751720342,0.9880004978272433
2016-01-13,-1,-0.0003257559506556142,-0.0002873537899701521,-0.0026695981548843875,0.008753498751720342,0.9888362571035361
2016-01-15,-1,-0.001486162987416923,-0.0012208600556487747,-0.002316830217562772,0.007405115543859244,0.9901086533758164
2016-01-20,-1,-0.0013905146820921135,-0.0011756042687281016,-0.0010788211307505998,0.008753498751720342,0.9901928157066373
2016-01-22,-1,-0.0010808461841678523,-0.0009028613477014473,-0.0011516954432611252,0.007715863222183932,0.9905925590025401
2016-01-26,-1,-0.00035048272997404155,-0.00020808390611559095,-0.0011516954432611252,0.007408179788232277,0.9927402022964423
2016-01-28,0,-1.421685429955883e-05,8.433366188433659e-05,-0.002316830217562772,0.007408179788232277,0.9923345371608676
2016-02-01,1,0.0007686805840920505,0.000777208291945302,-0.0031123441915397805,0.007408179788232277,0.9921596716063589
2016-02-03,1,0.00033596744656246144,0.00039748084949811256,-0.002676082339014976,0.0063619973838858245,0.9926891969670492
2016-02-05,-1,-0.000698208573341144,-0.0005224714041108982,-0.0018474986840280446,0.0063619973838858245,0.9942480535521488
2016-02-09,-1,-0.00010333424265096221,-1.470250811854966e-05,-0.002676082339014976,0.005707469411039567,0.9944718815200814
2016-02-11,-1,-0.0004958046824606912,-0.0003392019091993742,-0.0021699685792216103,0.005707469411039567,0.9941505688281839
2016-02-16,-1,-0.0004292894161060416,-0.00027593496959192577,-0.0021699685792216103,0.005707469411039567,0.9944312356169622
2016-02-18,0,-0.00011281191306745524,1.893833956343713e-05,-0.003950523865442478,0.0054061860796686245,0.9949171660000651
2016-02-22,-1,-0.000301499048358198,-0.00013097238454686,-0.003950523865442478,0.005449328329156354,0.9948185744176388
2016-02-24,1,1.6009154842672147e-05,0.00012081546492028605,-0.003346831157476525,0.005449328329156354,0.9949364800331486
2016-02-26,1,0.00022490474658821267,0.0002985538520960733,-0.0023468782879061986,0.0034360090847957983,0.9957201147850745
2016-03-01,1,0.0004215655804164912,0.00048475935095505156,-0.0018250116772007311,0.0034360090847957983,0.9964209458817133
2016-03-03,1,0.00045841282063079905,0.0004977287567942466,-0.0018250116772007311,0.005449328329156354,0.9959087378554385
2016-03-07,1,0.0005451944504885793,0.0005651465849531862,-0.0023468782879061986,0.005449328329156354,0.995643287815322
2016-03-09,1,0.00019916814985391,0.0002855740946681708,-0.0018250116772007311,0.00456547235282385,0.9959270423458964
2016-03-11,1,0.0009237110700484789,0.0009837914438371475,-0.0018250116772007311,0.0035649002930794684,0.9959813211835239
2016-03-15,1,0.0007704464901950867,0.000796532961274607,-0.0018250116772007311,0.004680783204029224,0.9957447803187522
2016-03-17,1,0.0007062556520115697,0.0007530803097714585,-0.0014884186042349637,0.004680783204029224,0.9961368401533799
2016-03-21,1,0.00084108385020888,0.0009091257007141135,-0.0013946515503353808,0.0060377975933112345,0.9955690924335658
2016-03-23,1,0.0011454461254216525,0.0012594142221409078,-0.0013946515503353808,0.0060377975933112345,0.995669580704596
2016-03-28,1,0.0010907117013818522,0.001203856945524676,-0.0013946515503353808,0.0060377975933112345,0.9957134880858987
2016-03-30,1,0.001334880494414532,0.001492179833605734,-0.0014170995332619225,0.004680783204029224,0.9957893504845651
2016-04-01,1,0.00138909913871006,0.001556945037343659,-0.00171714330393013,0.0035649002930794684,0.9961527378113871
2016-04-05,1,0.0010814284048628838,0.0011837509285744013,-0.0014170995332619225,0.004680783204029224,0.9962667857964033
2016-04-07,1,0.0012304278158865585,0.0013655553375349436,-0.00171714330393013,0.005806354133788664,0.9960506479256509
2016-04-11,1,0.0008282743458547788,0.0008774435528463277,-0.0014805087101398117,0.005905416000975829,0.9957788741753254
2016-04-13,1,0.0012081709559051837,0.0013292386190905852,-0.0022938507835520002,0.00618515313531504,0.9955549082869957
2016-04-15,1,0.001345169785252428,0.0014974550964580251,-0.002582700632893088,0.00618515313531504,0.9952283611597095
2016-04-19,1,0.0019104837498066889,0.002138776571728227,-0.0028511726608693964,0.005905416000975829,0.995368260828767
2016-04-21,1,0.0019439809902658724,0.0021602855868816427,-0.0037098370732012668,0.0027278343350011424,0.9951115715513434
2016-04-25,1,0.0017424988233242578,0.001917384726243939,-0.0041933898925998695,0.001071220448804754,0.9949282772558145
2016-04-27,1,0.0015984680462070265,0.0017637013192868464,-0.0037098370732012668,0.005862872209803338,0.9951440551868517
2016-04-29,1,0.0014751647685519189,0.0016353538773253478,-0.004020169309363398,0.005862872209803338,0.9953561039465812
2016-05-03,1,0.0014659219721598546,0.0016138781860460041,-0.004020169309363398,0.005008220917103853,0.9953968349494571
2016-05-05,1,0.0014824309368756433,0.001632157581146875,-0.003446911012613722,0.005008220917103853,0.9951805301724788
2016-05-09,1,0.001523491722828488,0.0016676098415504474,-0.003446911012613722,0.005008220917103853,0.9952054489229943
2016-05-11,1,0.0019786939355376796,0.0022284791790173736,-0.003446911012613722,0.005008220917103853,0.9951646515909205
2016-05-13,1,0.0012577650285015686,0.0013602535454596586,-0.0023994804990437124,0.005008220917103853,0.9955851833356926
2016-05-17,1,0.0013218690128552891,0.001441178002184181,-0.0023994804990437124,0.0033005453434022834,0.9957870170101859
2016-05-19,1,0.0011867018058609085,0.0012993429062063458,-0.002228282560196019,0.0033005453434022834,0.9957726638979029
2016-05-23,1,0.0009881621750382134,0.0010771048661304197,-0.0021824120204576884,0.005008220917103853,0.9955794709589928
2016-05-25,1,0.0009980233407343117,0.0010669281520156084,-0.0021824120204576884,0.004094123127132005,0.9955825169021224
2016-05-27,1,0.0005721701362645303,0.0005847224686176722,-0.0021824120204576884,0.007913885052896091,0.994663061451944
2016-06-01,1,0.0001382948515035916,0.00023271690521530934,-0.0007291388982590577,0.008895460244612912,0.993671221296047
2016-06-03,1,0.00021840191597111982,0.0003308943805476885,-0.0007291388982590577,0.008895460244612912,0.9937278571966809
2016-06-07,1,0.00020736632599397596,0.00033111483999335463,-0.0005318912747279193,0.008354594382584362,0.9936590316949826
2016-06-09,1,0.000425459416930564,0.0005537285633582026,-0.0012650408868894528,0.00798729063190488,0.994033678987482
2016-06-13,0,-9.074267031764188e-05,0.00013289267249777927,-0.0003268410439451321,0.00798729063190488,0.9940372063077414
2016-06-15,0,-0.00021034617537958242,1.835680285472408e-05,-8.163782411679043e-05,0.00798729063190488,0.994295471030562
2016-06-17,1,0.00026969435838222153,0.00037630904639403593,-8.163782411679043e-05,0.00798729063190488,0.9948955130229183
2016-06-21,1,0.0005444193018878156,0.0006002901692911082,-8.163782411679043e-05,0.00798729063190488,0.9946877468415263
2016-06-23,1,0.0011895078600788914,0.0012415638999578173,-0.00028140547642857046,0.00798729063190488,0.995051479625191
2016-06-27,1,0.0008362140053056334,0.0008422011052699974,-0.00028140547642857046,0.004289527619880754,0.9960098021156145
2016-06-29,1,0.0008012332592651262,0.0008792963488792834,-0.0009841511505562894,0.0022552002728285737,0.996782309701382
2016-07-01,1,0.0015185845413527676,0.0015445227643894619,-0.0009841511505562894,0.0022552002728285737,0.9971557561886226
2016-07-06,1,0.0016455105376357423,0.0016761193601986864,-0.0012051144591049378,0.0013839699323399748,0.9967288935507815
2016-07-08,1,0.0016184735965159005,0.0016504688204115338,-0.0012051144591049378,0.0013839699323399748,0.9967671387388696
2016-07-12,1,0.0018242020282431025,0.0019113367518699463,-0.0019555570613308377,0.0013839699323399748,0.9962941363440708
2016-07-14,1,0.0018130821592717938,0.0019018353973910265,-0.0019555570613308377,0.0015385779353376617,0.9961922740072451
2016-07-18,1,0.0015962639833312334,0.001660146632468836,-0.003373793812034628,0.0015385779353376617,0.9957255876632481
2016-07-20,1,0.0020220813589315358,0.0021564704839726386,-0.004400414246813431,0.0015385779353376617,0.9952031646733639
2016-07-22,1,0.002175529217294204,0.002343916559292199,-0.004777518459463072,0.0015385779353376617,0.9945880995619384
2016-07-26,1,0.0019199088492029873,0.0020395586473982404,-0.005294590152489135,0.0016686763752926151,0.9944386255508325
2016-07-28,1,0.0015854562488054297,0.0016570345413485228,-0.006230845700437368,0.0016686763752926151,0.994509589538694
2016-08-01,1,0.0017131726109723647,0.0017947043041083193,-0.006230845700437368,0.0027186716121416904,0.9943024108686165
2016-08-03,1,0.0013297066393284504,0.0013683266095521189,-0.005175627757577466,0.0027186716121416904,0.994797687123875
2016-08-05,1,0.0012807602507056192,0.0013082745005865792,-0.005175627757577466,0.0021621360917633723,0.9947746574166935
2016-08-09,1,0.0006729349192326999,0.0007419566595656741,-0.005175627757577466,0.0027825755478472795,0.9951847362810884
2016-08-11,1,0.0007231253855703345,0.0007830600728202158,-0.006230845700437368,0.0021621360917633723,0.9947110489599719
2016-08-15,1,0.00036390907757844577,0.00045065657998024473,-0.006230845700437368,0.0028526214593694475,0.9944556957833699
2016-08-17,0,-0.0001364605733593958,1.4599793945999941e-05,-0.005175627757577466,0.0028526214593694475,0.9953988897191439
2016-08-19,-1,-0.0005336680098036432,-0.0003464138097487949,-0.004061706759161644,0.0028526214593694475,0.9956555805424996
2016-08-23,-1,-0.0007423277342086606,-0.0005324655470978424,-0.0033405294768685386,0.003693796253463846,0.995576060738225
2016-08-25,-1,-0.001167825733717941,-0.000900716367333443,-0.0033405294768685386,0.004129262179206988,0.9954063341422414
2016-08-29,-1,-0.0007846576508577214,-0.0005649729201299154,-0.004061706759161644,0.003859144947701487,0.994974922110555
2016-08-31,-1,-0.0011145213513657447,-0.0008502099467716385,-0.005102339820904566,0.003859144947701487,0.9942231604994803
2016-09-02,-1,-0.0010099284384967036,-0.0007730920513088223,-0.005102339820904566,0.005950566222753276,0.9936801390698109
2016-09-07,-1,-0.0009695448008789887,-0.0007383843021175761,-0.005102339820904566,0.005950566222753276,0.9936749002374968
2016-09-09,-1,-0.0009392805694828552,-0.0007512261895097922,-0.003953342403185475,0.005950566222753276,0.9937551369406591
2016-09-13,-1,-0.0010101355950344383,-0.0008246342547029186,-0.003953342403185475,0.004961433849540989,0.993641087746585
2016-09-15,-1,-0.000768306654448693,-0.0006092554975332045,-0.003953342403185475,0.004643094744789878,0.9938639581954677
2016-09-19,-1,-0.0012325180076015994,-0.0010066534060359158,-0.004066284017826827,0.004961433849540989,0.9933709193118544
2016-09-21,-1,-0.0010244854384528703,-0.0008137251577621115,-0.00621569152397392,0.004643094744789878,0.9925288117565492
2016-09-23,-1,-0.001005892455324392,-0.00080412047581956,-0.007496198544367552,0.004268836898473211,0.9922894687606932
2016-09-27,-1,-0.0008924611764370568,-0.0007066503829475104,-0.00621569152397392,0.0033421004088527,0.9930225724957561
2016-09-29,-1,-0.0013355714006916628,-0.001107661452688969,-0.004185792794525015,0.004838588624475406,0.9929844370338481
2016-10-03,-1,-0.0008422124947718179,-0.0006793108523775553,-0.004185792794525015,0.004268836898473211,0.9934245394511467
2016-10-05,-1,-0.0008951198534725715,-0.000715922689278154,-0.0056827584168053094,0.004268836898473211,0.9932572396204403
2016-10-07,-1,-0.0008657484975217877,-0.0006933125999276338,-0.0056827584168053094,0.0034846395071615566,0.9934509767193521
2016-10-11,-1,-0.0014630738506630676,-0.0012081534347179639,-0.0045221653419825775,0.003823530107441823,0.9935359541960446
2016-10-13,-1,-0.0013903665282202246,-0.0011380828037799579,-0.0056827584168053094,0.0053794125029093184,0.992258120201347
2016-10-17,-1,-0.0012165242402981092,-0.0009965105774591564,-0.006576370608222381,0.003823530107441823,0.9918487898662622
2016-10-19,-1,-0.002341325072021598,-0.001983036573279263,-0.0045221653419825775,0.003823530107441823,0.9930921401375806
2016-10-21,-1,-0.002692856622889941,-0.0022899605156723275,-0.0045221653419825775,0.003823530107441823,0.9931636158818827
2016-10-25,-1,-0.002186580892126236,-0.0018696976890177253,-0.005802984778221463,0.003823530107441823,0.9927410571213721
2016-10-27,-1,-0.0016400808971739405,-0.0013972631520079533,-0.005802984778221463,0.0030310895897783,0.9928462573789169
2016-10-31,-1,-0.0013478932832416616,-0.001155710837668199,-0.006990563500858521,0.0020853283090208397,0.9926670540298037
2016-11-02,-1,-0.0016743830705702408,-0.0014416606771642491,-0.00880919779628489,0.0020853283090208397,0.9924946113784043
2016-11-04,-1,-0.0016229562578615494,-0.0013926492225816648,-0.00880919779628489,0.0030310895897783,0.9923528490569707
2016-11-08,-1,-0.0012739156664202242,-0.001072279690307252,-0.00880919779628489,0.0012551534167207124,0.9928056940796472
2016-11-10,-1,-0.0005489984553015334,-0.0004392965717502781,-0.00880919779628489,0.0012551534167207124,0.9937677869041044
2016-11-14,-1,-0.0012387975867423173,-0.0010606158906810974,-0.006450869246834137,0.003343904592325677,0.9932533928065939
2016-11-16,-1,-0.0014647774380114951,-0.0012485048378797058,-0.007966206447447256,0.0047475808018401355,0.9925982439804083
2016-11-18,-1,-0.001267811020149679,-0.001113278117949046,-0.006250660992664209,0.0047475808018401355,0.9930241040069969
2016-11-22,-1,-0.0016167549564104172,-0.0014492004325220235,-0.0037635268096373412,0.0047475808018401355,0.9937501049606173
2016-11-25,-1,-0.0009214346394784516,-0.0008550426224579728,-0.0037635268096373412,0.00452693220921699,0.9942144904726591
2016-11-29,-1,-0.0012944211273707264,-0.0011898797780633763,-0.003045335988319161,0.00452693220921699,0.9944023250398054
2016-12-01,-1,-0.0015146587910072464,-0.00138845084136763,-0.0025748722790591818,0.00452693220921699,0.9945958299915574
2016-12-05,-1,-0.00119457244390088,-0.0011115139476544497,-0.0025748722790591818,0.00452693220921699,0.9947093193142564
2016-12-07,-1,-0.0013394255778307585,-0.0012413921343454406,-0.0025748722790591818,0.004812790017405418,0.9943979097553026
2016-12-09,-1,-0.0005918257721821429,-0.000570312431154065,-0.0025748722790591818,0.00452693220921699,0.9951048786258911
2016-12-13,1,0.0004204645930250357,0.0005788944042936328,-0.003045335988319161,0.0017531940128113638,0.9960061556803337
2016-12-15,1,0.0005072045270388421,0.0006815945815525636,-0.0025748722790591818,0.0014951204036997567,0.9966338479777941
2016-12-19,1,0.0005177540757184908,0.0006862284868413625,-0.003045335988319161,0.001434593127465709,0.9963371906402189
2016-12-21,1,0.0005210805605563199,0.0007058200284835781,-0.002182968931530239,0.001434593127465709,0.9965179370523466
2016-12-23,1,0.0005565168140998602,0.0007255037817898416,-0.0029081308623472094,0.0004600102306147701,0.9953103567387278
2016-12-28,1,0.0004339851381773343,0.0005923742268750379,-0.0029081308623472094,0.0026141318643996634,0.9946920867668253
2016-12-30,1,0.0004252166937223037,0.0005743973340390453,-0.0027435303626753772,0.0013845777400052868,0.9948193725682087
2017-01-04,1,0.0006374704012750026,0.0008221125183617606,-0.0027435303626753772,0.0013845777400052868,0.9949382853297056
2017-01-06,1,0.0006634609243135507,0.0008320630952227662,-0.0021351788423870366,0.0007274556769594242,0.9955235741475086
2017-01-10,1,0.000531179114550715,0.000668686381949611,-0.0021351788423870366,0.0007943003575254103,0.9956403567664514
2017-01-12,1,8.393978499058891e-06,5.822565948144511e-05,-0.0021048368871982187,0.0025177200312407103,0.99563580750123
2017-01-17,1,4.298031371696365e-05,9.186611813008136e-05,-0.0021048368871982187,0.004495089369469545,0.9952838565647145
2017-01-19,-1,-0.00021337133350650625,-0.00021001180361730334,-0.001054359108177903,0.006302092475918916,0.9947745701831432
2017-01-23,-1,-7.254559069196972e-05,-2.9073244010186308e-05,-0.00030867463812810596,0.006852710829213023,0.9942833244799433
2017-01-25,-1,-0.0003790630862717924,-0.0003757733297219165,-0.00030867463812810596,0.006852710829213023,0.994550198139216
2017-01-27,-1,-0.00017867100275289143,-0.00015361094913253796,-0.00030867463812810596,0.006852710829213023,0.9952139855773535
2017-01-31,-1,-0.00012728828315344303,-8.924483231263902e-05,-0.00030867463812810596,0.007291351632400446,0.9946592825293705
2017-02-02,-1,-0.0001832819137537494,-0.00017196621284887043,-0.0008212496742990973,0.007291351632400446,0.9946215359324059
2017-02-06,-1,-0.0002833161264807955,-0.00027493303174741,-0.0006609494452675927,0.007291351632400446,0.994635090780827
2017-02-08,-1,-0.00010509738274358433,-7.393931558740397e-05,0.0005659569024143579,0.007747302597561907,0.9939347866359802
2017-02-10,1,0.0002736684370057751,0.000341257497391384,0.0005659569024143579,0.007291351632400446,0.9946581578416395
2017-02-14,1,0.0007450164309338785,0.0008946713236753135,0.0005659569024143579,0.007747302597561907,0.9945351637360549
2017-02-16,1,0.001180159140445667,0.001386213755133897,-0.0012656070548613767,0.0071638466953443955,0.9949067882569151
2017-02-21,1,0.0016473169312179242,0.0019220155544389323,-0.0016284712171003323,0.004908843268552949,0.9949898642715211
2017-02-23,1,0.0019235702173966487,0.002204720122326504,-0.002729449010227692,0.0031215656047726328,0.995184044569656
2017-02-27,1,0.002286481453550147,0.002638861634228042,-0.0029169182822601568,0.0026428452427676727,0.9953115399610807
2017-03-01,1,0.0026890037697449307,0.003099448310741098,-0.003169402227971212,0.0022728372884675235,0.995183883106382
2017-03-03,1,0.0026521637672159127,0.003057367194911639,-0.003169402227971212,0.0022728372884675235,0.9950909617480208
2017-03-07,1,0.0024122959773001168,0.0027589565757331494,-0.003169402227971212,0.0022728372884675235,0.9952879441088444
2017-03-09,1,0.0029812021921946704,0.0034109167049798904,-0.003169402227971212,0.002018485870809259,0.9953234940904181
2017-03-13,1,0.003145298517433454,0.003597985036371016,-0.003471267518330729,0.0010028748606355426,0.9946157390592829
2017-03-15,1,0.0031131458903733873,0.0034934737857930083,-0.003471267518330729,0.0002992449753898804,0.9947509713621911
2017-03-17,1,0.002647372914595165,0.0029408509105566852,-0.0032861665710521575,0.0010028748606355426,0.9953939004468338
2017-03-21,1,0.0021647992777872873,0.002403934734256082,-0.003425462183493379,0.0010028748606355426,0.9943746723321322
2017-03-23,1,0.0019757219552281203,0.0022139921868835222,-0.0032861665710521575,0.0013438324995409519,0.9950065699876365
2017-03-27,1,0.0019296109625290966,0.002163034938275115,-0.0023783577430999056,0.002532312330229915,0.9948642302055031
2017-03-29,1,0.001506874542235314,0.0016633961372650953,-0.001300039418273746,0.002532312330229915,0.9954777770205439
2017-03-31,1,0.0013773791628234754,0.0015176947335657084,-0.0013351870112325672,0.002532312330229915,0.9954975549416164
2017-04-04,1,0.001596007063735786,0.0017931710491033974,-0.0023842425897507564,0.003218983158242175,0.9952796547804205
2017-04-06,1,0.0021061979896676805,0.002409052591396201,-0.0030606927501470533,0.004188270843201764,0.9948009084452786
2017-04-10,1,0.0014204551520426156,0.001583916034710869,-0.0023842425897507564,0.004188270843201764,0.9950887965448222
2017-04-12,1,0.0015860912227766615,0.0017648947493816031,-0.0030549266245899513,0.0034116327130716494,0.9952623107192586
2017-04-17,1,0.0014847932860688664,0.0016301662198599618,-0.0023842425897507564,0.0037084948781934755,0.994358709280559
2017-04-19,-1,-0.00015004995035590213,-4.7546268611345116e-05,-0.002124324326821626,0.004188270843201764,0.9954048263668267
2017-04-21,1,0.0001356582382948463,0.00018760905083312995,-0.002124324326821626,0.0037771316381367158,0.9955395233550922
2017-04-25,1,0.00022191326739507935,0.0002909054392937491,-0.002124324326821626,0.0029829827015132168,0.9960411354133967
2017-04-27,0,-1.0765891082299673e-05,0.00010555683378051184,-0.002124324326821626,0.0029829827015132168,0.9961342917655002
2017-05-01,-1,-0.00013493991423477446,-9.394472787420513e-06,-0.002326599503225224,0.0029829827015132168,0.9959643436768466
2017-05-03,-1,-0.00040631139505369377,-0.00023385487486335242,-0.0007696907702326695,0.0037117223794000437,0.9955106792855272
2017-05-05,-1,-0.00025704585974563717,-0.0001163696886243295,-0.00013991975721442496,0.0037117223794000437,0.9953503240223404
2017-05-09,1,0.00023116454308573926,0.0002613589970437686,9.802408606203325e-05,0.003737193354614925,0.9954178565318269
2017-05-11,1,0.00015797572770608905,0.00019808815311171687,9.802408606203325e-05,0.004634959669374995,0.9952656697768184
2017-05-15,1,0.0010610982430474295,0.00113383008816997,9.802408606203325e-05,0.003737193354614925,0.9968987581075601
2017-05-17,1,0.0007898506310206373,0.000813156234846871,0.00021640603043120374,0.003737193354614925,0.9972155635504788
2017-05-19,1,0.0008636442318582912,0.0009036987430551062,9.802408606203325e-05,0.004519647377774573,0.9967685994784655
2017-05-23,1,0.0007787044164533229,0.000790923888832528,9.802408606203325e-05,0.005275863111056196,0.9966093441118916
2017-05-25,1,0.0006989270413385242,0.0006993145652729064,0.0014024621694756156,0.006137385312824473,0.9961469104557571
2017-05-30,1,0.0005735532081197319,0.0005861238155458069,0.000686206072656563,0.006137385312824473,0.9958181230032191
2017-06-01,1,0.0009983364743911356,0.001044564702052496,-0.0008771424546561509,0.005275863111056196,0.9956269243813098
2017-06-05,1,0.0012391060532019453,0.001311078238647286,-0.001668234900834717,0.004743522854744366,0.995823416206735
2017-06-07,1,0.0009733700142344635,0.000983707552040781,-0.002222766462734649,0.005247658274795332,0.9952658648917375
2017-06-09,1,0.001055976047121397,0.0010769978919231878,-0.003846418005297108,0.004743522854744366,0.9952683995143755
2017-06-13,1,0.0009428346857775927,0.0009519906201543857,-0.003846418005297108,0.005247658274795332,0.9948433151266056
2017-06-15,1,0.0009709388122212384,0.0009835667865254864,-0.003965930891791077,0.005247658274795332,0.9947139273005244
2017-06-19,1,0.0008941717210647522,0.0009427040905177998,-0.0044126602670977455,0.005247658274795332,0.9942959915702609
2017-06-21,1,0.0010842404437406365,0.001117589028185958,-0.0044126602670977455,0.005586413652319711,0.9938068691758749
2017-06-23,1,0.0012094234617769169,0.0012304253451435147,-0.008489032710438441,0.005570570112634254,0.9928081172867571
2017-06-27,1,0.0006996116972342772,0.0007822906727590227,-0.008409396920513726,0.005570570112634254,0.9927259135490976
2017-06-29,0,-0.0001394157440627417,4.973809572798491e-05,-0.007156286398261072,0.005586413652319711,0.9934326340503812
2017-07-03,-1,-0.0002493478010510277,-4.04379515841003e-05,-0.007156286398261072,0.005858633266020551,0.9934067353608307
2017-07-06,-1,-0.00018527080014126192,-6.903881203269532e-06,-0.00430829910493831,0.006853829717303198,0.9934998751914189
2017-07-10,-1,-0.00040148560881531265,-0.00020697246255740778,-0.002947027685910532,0.006853829717303198,0.9937503577690573
2017-07-12,0,-3.471804549220374e-05,9.321422066506439e-05,-0.0036555020785792674,0.0067632316491638925,0.9935700420351444
2017-07-14,1,0.00022054271614366095,0.0002990933390866987,-0.0036555020785792674,0.0067632316491638925,0.9938392354238956
2017-07-18,1,0.0009060513814787895,0.0009378551614042609,-0.0030911151137470397,0.005832992544468457,0.9944742174858943
2017-07-20,1,0.0013763411868976132,0.001477482784333096,-0.00509353415702451,0.003621907722782608,0.9942763283624927
2017-07-24,1,0.0006899836481192469,0.0007183012681717323,-0.00275135405719761,0.0059877956249127515,0.9954406264434468
2017-07-26,1,9.252393315517556e-05,0.00014107215854301165,-0.0024623380760260757,0.006286507410076318,0.9952450743228191
2017-07-28,1,0.0002748989703307089,0.00030380023808821257,-0.00275135405719761,0.0059877956249127515,0.9951480630449114
2017-08-01,1,0.0006727069545416536,0.0007233940895174814,-0.00275135405719761,0.004156450856224971,0.9953256957222205
2017-08-03,1,0.000909246283231725,0.001000316774122769,-0.003421453961017179,0.004156450856224971,0.9949271603701051
2017-08-07,1,0.001071257876711507,0.0012155578101454541,-0.008472300816692332,0.004156450856224971,0.9941511379180559
2017-08-09,1,0.0009983999029682892,0.0011185552338928042,-0.008472300816692332,0.005924074769878411,0.9939830004848556
2017-08-11,1,0.0008134533112234393,0.0008959284735391337,-0.008622984698932664,0.005991390667509805,0.9928464331843491
2017-08-15,1,0.0006705712693705324,0.0007109003882833416,-0.008622984698932664,0.005991390667509805,0.992668403391562
2017-08-17,1,0.0005316449379315855,0.0005481837776669147,-0.008622984698932664,0.006978615989624885,0.9926903506134785
2017-08-21,1,0.00044026433195727677,0.00045050801087436734,-0.008622984698932664,0.007529547601124993,0.9927434272733657
2017-08-23,1,0.00011467612102994567,0.00016837295485236235,-0.00874434384076559,0.006175034538009841,0.9926061993574916
2017-08-25,-1,-0.00023382082791881568,-0.00013863653331295676,-0.008622984698932664,0.006175034538009841,0.9929105081521314
2017-08-29,-1,-9.353797867831025e-05,-1.781323725553064e-05,-0.008740050051091335,0.006175034538009841,0.992559507379614
2017-08-31,-1,-0.0002304457147545371,-0.00012706091928151232,-0.008740050051091335,0.004610016323753989,0.9932109155015538
2017-09-05,-1,-0.0007900711739761492,-0.0006330733122558519,-0.0031378495882629902,0.006759031119131407,0.9933949336839415
2017-09-07,-1,-0.0001586730361817417,-7.672950010220082e-05,-0.0031378495882629902,0.00616178311054637,0.9937578447575883
2017-09-11,-1,-0.0007874149344381929,-0.0005548508564609766,-0.0023016031663607222,0.004623165580764117,0.9950228395642358
2017-09-13,-1,-0.0010682722040990945,-0.0008044685803309931,-0.0018545595652860476,0.00616178311054637,0.9939484773161403
2017-09-15,-1,-0.00022564264136490386,-8.632991129625949e-05,-0.0023016031663607222,0.004623165580764117,0.9945936484429029
2017-09-19,0,-5.268027141411204e-05,6.452091106236459e-05,-0.0023872704198628814,0.004623165580764117,0.9931915457802428
2017-09-21,-1,-0.001222034394908299,-0.0009630069186685593,-0.0018545595652860476,0.00616178311054637,0.9937655827979677
2017-09-25,-1,-0.0014856654712703072,-0.0011924014385083154,-0.0010243366907410172,0.007171605107954526,0.9930897429741068
2017-09-27,-1,-0.0019777126452146967,-0.001625708880820774,-2.6402741193392194e-05,0.007171605107954526,0.9922914353620238
2017-09-29,-1,-0.0020394090478330173,-0.001672475296471831,-0.00035398401222997805,0.007171605107954526,0.9923961466325215
2017-10-03,-1,-0.0014750269058727207,-0.0011721952493207958,-0.002435007906379901,0.005307555539939092,0.9929446447298992
2017-10-05,-1,-0.000507366390203849,-0.0003741144976223932,-0.002435007906379901,0.004337281355454122,0.993412544278317
2017-10-09,-1,-0.0005462734612520521,-0.00040232190584010575,-0.0024441964731165395,0.004337281355454122,0.9933888937776659
2017-10-11,1,0.0003706519900354842,0.0004048353782516599,-0.0024441964731165395,0.004337281355454122,0.99397034551275
2017-10-13,1,0.00030950026556095413,0.00034571514397394775,-0.003951164545242445,0.004337281355454122,0.9935369497582566
2017-10-17,1,0.0013690212920880991,0.001464557715129941,-0.003951164545242445,0.0029230268879916537,0.9949545114157825
2017-10-19,1,0.001496806934927267,0.0015980547784105706,-0.003951164545242445,0.0017084155887636494,0.9950442953771534
2017-10-23,1,0.001991871638807051,0.0021817912691007675,-0.004567906121788709,0.0003217233401440888,0.9945894830740474
2017-10-25,1,0.0018188320034371597,0.0020075341958889145,-0.004567906121788709,0.0003217233401440888,0.9951205580412135
2017-10-27,1,0.0016337984110234376,0.0018010543398056722,-0.004567906121788709,0.0011622859124660794,0.9954064319592502
