JNU-Tangyin/eata/results/Batch4_SP500/Batch4_SP500-ACN.csv
Date,Action,Predicted_Q25,Predicted_Q75,Actual_Q25,Actual_Q75,RL_Reward
2010-12-14,0,0.0,0.0,-0.005738835194671568,0.005887298447529907,0.98871680127168
2010-12-16,1,0.0005376681227371455,0.0005590412475422389,-0.004484128083066747,0.0028871638915671793,0.9897100663730255
2010-12-20,0,0.0,0.0,-0.003262712784594858,0.0028871638915671793,0.9946312185105994
2010-12-22,0,0.0,0.0,-0.003262712784594858,0.004546186080115644,0.9937410601146562
2010-12-27,0,0.0,0.0,-0.002211315169892449,0.0073561697913944405,0.9934817846355815
2010-12-29,0,0.0,0.0,-0.0007895150129155662,0.0073561697913944405,0.9938057644043324
2010-12-31,0,0.0,0.0,-0.0012167082303259121,0.0073561697913944405,0.9932404610208183
2011-01-04,0,0.0,0.0,-0.0005432888597693015,0.00936380831014139,0.9926259400662478
2011-01-06,0,0.0,0.0,-0.0012167082303259121,0.00936380831014139,0.9923989796644369
2011-01-10,0,0.0,0.0,-0.0006697913044634958,0.00936380831014139,0.9927761495168729
2011-01-12,0,0.0,0.0,-0.0006697913044634958,0.005877140065040804,0.994258776088799
2011-01-14,0,0.0,0.0,-0.0012167082303259121,0.005877140065040804,0.9938478426274598
2011-01-19,-1,-0.0017305033332997027,-0.001221509065239272,-0.0012167082303259121,0.0062333403740135115,0.9922203004916349
2011-01-21,-1,-0.0008781239096186894,-0.00047483693026131586,-0.0018172872283839612,0.0062333403740135115,0.9926084739649237
2011-01-25,0,0.0,0.0,-0.007971231493358457,0.004514948207759285,0.9911162305935844
2011-01-27,0,0.0,0.0,-0.007971231493358457,0.006204443854704845,0.9908463480270898
2011-01-31,0,0.0,0.0,-0.007971231493358457,0.006204443854704845,0.990717857468579
2011-02-02,0,0.0,0.0,-0.007971231493358457,0.006204443854704845,0.9899412940175734
2011-02-04,0,0.0,0.0,-0.007971231493358457,0.006204443854704845,0.9897668548273866
2011-02-08,0,0.0,0.0,-0.007971231493358457,0.006204443854704845,0.9895788978699677
2011-02-10,0,0.0,0.0,-0.008793821888512016,0.004850244841864358,0.9891117646417235
2011-02-14,0,0.0,0.0,-0.009132882468792906,0.004850244841864358,0.9881837311398644
2011-02-16,0,0.0,0.0,-0.012721594859340083,0.001536825147694255,0.9888539829604773
2011-02-18,0,0.0,0.0,-0.012721594859340083,0.0024168307663189905,0.9884957778049391
2011-02-23,1,0.00257779353298435,0.002721653038606473,-0.0064534261586377695,0.0043618250694894105,0.9896529473566035
2011-02-25,0,0.0,0.0,-0.0064534261586377695,0.0043618250694894105,0.9877896815889283
2011-03-01,1,0.001048776645695066,0.0010888379799619719,-0.00549515992820958,0.007986107528413054,0.987372161638906
2011-03-03,1,0.0014263345704540542,0.001464570436725936,-0.00549515992820958,0.007162061508337645,0.9886148232752184
2011-03-07,1,0.0009400043381157547,0.0009959481192270462,-0.0029427007910356705,0.007162061508337645,0.9890901037707269
2011-03-09,1,0.0011790076928282888,0.0012345291855335532,-0.003044467697776192,0.007162061508337645,0.9890702046371915
2011-03-11,1,0.00045601408315234154,0.0005927525760548732,-0.0025258349906320896,0.007162061508337645,0.9895489058943853
2011-03-15,0,0.0,0.0,-0.0019999637503396355,0.010405775398691666,0.9899232974456628
2011-03-17,0,0.0,0.0,-0.0019999637503396355,0.012755640827111087,0.9895014578632078
2011-03-21,-1,-0.0023787875074768065,-0.0023004060989007453,-0.00296595961960549,0.010365017854756063,0.9894095412479342
2011-03-23,-1,-0.0023054213508749348,-0.002225167706100506,-0.00296595961960549,0.012755640827111087,0.9883527468024657
2011-03-25,-1,-0.0016766201039488562,-0.0016621961822064174,-0.003607125315109494,0.011978328581788359,0.9911929984006557
2011-03-29,-1,-0.003348777902354934,-0.003164900133986954,-0.00296595961960549,0.010119499620960355,0.9915121517430506
2011-03-31,-1,-0.002295465433007238,-0.002259530668038686,-0.00296595961960549,0.006488978309232457,0.9922716505599402
2011-04-04,-1,-0.0020743635803566265,-0.002055877425845288,-0.003607125315109494,0.011978328581788359,0.9900343949976991
2011-04-06,0,0.0,0.0,-0.0036574866433744697,0.011978328581788359,0.9898836694155818
2011-04-08,0,0.0,0.0,-0.0036574866433744697,0.011978328581788359,0.9895390677848018
2011-04-12,0,0.0,0.0,-0.006549071196297029,0.011978328581788359,0.9888230956524451
2011-04-14,0,0.0,0.0,-0.006549071196297029,0.010956776516244143,0.989279991084977
2011-04-18,0,0.0,0.0,-0.0017243783770293378,0.010956776516244143,0.9893508544695632
2011-04-20,-1,-0.00015181815514153267,-2.2072979828531287e-06,-0.0017243783770293378,0.008143575248747821,0.9906061218082721
2011-04-25,-1,-0.0003880452193893826,-0.0001946542466693909,-0.0035207572438625016,0.007624161988377532,0.9901032547904758
2011-04-27,0,-1.7006764092582357e-06,0.00011726610267864145,-0.0035207572438625016,0.007624161988377532,0.990276252485882
2011-04-29,-1,-0.0001743888394086365,-2.4636457653409065e-05,-0.004562654716864824,0.007938880362873815,0.9899826633280413
2011-05-03,-1,-0.00046998699189447664,-0.00028973552141464947,-0.0033641275619352594,0.007938880362873815,0.9917328164363934
2011-05-05,-1,-0.0006523604158883588,-0.0004858640921125676,-0.004023627948591745,0.007938880362873815,0.991563963913223
2011-05-09,0,-7.036061706163307e-05,2.1506781340104074e-05,-0.004023627948591745,0.007938880362873815,0.9919501439058284
2011-05-11,1,3.988620926114687e-06,8.193508787283788e-05,-0.004023627948591745,0.007938880362873815,0.9926192934556357
2011-05-13,1,0.00024551965856270223,0.0002954671269773235,-0.004023627948591745,0.007938880362873815,0.9926247605116216
2011-05-17,1,0.0008685779847509146,0.0008943270514097877,-0.007712787262608176,0.007938880362873815,0.9909543681247152
2011-05-19,1,0.0004969408588427127,0.0005300590664493406,-0.010657739262856028,0.007938880362873815,0.9897531158680486
2011-05-23,1,3.027128621087066e-05,0.00011588432915176993,-0.007712787262608176,0.007939991271599455,0.9904027597940903
2011-05-25,1,0.0001312964806497467,0.00021620423208144229,-0.007712787262608176,0.008405347355190336,0.9898178685923344
2011-05-27,-1,-0.0002477769706344643,-0.00010885046623086367,-0.007712787262608176,0.009324307947402593,0.9884818609625751
2011-06-01,-1,-0.0001806480458561186,-7.63988476511714e-05,-0.004592316034121659,0.011583717304456086,0.9874317421952636
2011-06-03,-1,-0.0010823659802324396,-0.0008408169033826585,-0.0005959554482559929,0.011583717304456086,0.9872632330303106
2011-06-07,1,7.132913822160557e-05,0.00011265641747443821,5.9577329358020134e-08,0.013742295542516528,0.9871652584723734
2011-06-09,1,0.00012133041695280847,0.00017814685480190828,9.959357282390339e-05,0.014688242661397325,0.987132443265783
2011-06-13,0,0.0,0.0,-0.0002571367973487467,0.014688242661397325,0.9862421240428625
2011-06-15,0,0.0,0.0,-0.0002571367973487467,0.013742295542516528,0.9883061598114193
2011-06-17,0,0.0,0.0,-0.0006524823257949299,0.013742295542516528,0.9889103848103556
2011-06-21,-1,-0.0014061849790265321,-0.0013814290677663854,-0.002455109705982668,0.013742295542516528,0.9876666719196092
2011-06-23,-1,-0.001076771330038668,-0.0010600469051377205,-0.004112913047793905,0.013742295542516528,0.9880515935137347
2011-06-27,1,0.0003801525213917526,0.0005981690410884867,-0.004112913047793905,0.007714093638505371,0.9901218808878635
2011-06-29,1,4.080225430639001e-06,0.00017723082397906348,-0.006457236491304457,0.00613793816149124,0.9905137682102569
2011-07-01,1,0.000641187976813179,0.0009063627861179719,-0.007229417439179908,0.003394956502941205,0.9905126433648777
2011-07-06,1,0.0014790630490144228,0.0018714156003137071,-0.007891549826376926,0.0026207429660434446,0.9889831547342864
2011-07-08,1,0.0017204302816202469,0.0021240282660862594,-0.009876104498212277,0.0026207429660434446,0.9876090443687768
2011-07-12,1,0.0006615491808280791,0.0009565140307636043,-0.009876104498212277,0.0029870826407985824,0.984894552666628
2011-07-14,1,0.0006390452530561232,0.0009370270351413487,-0.012924383822828844,0.004452694930345914,0.9805423755225808
2011-07-18,-1,-0.0004031075008994277,-0.00032504607809086315,-0.010938853862171003,0.012180331548717338,0.9801236229865867
2011-07-20,1,0.0005538414573395074,0.0007889398437425276,-0.012147949939315077,0.007100045611676937,0.9807132240904619
2011-07-22,1,0.0002964166436193173,0.00045976834146900416,-0.026706490505128695,0.005851448926154605,0.9751518563295065
2011-07-26,1,0.0008705383491579525,0.001112109930856956,-0.026706490505128695,0.016710313319544066,0.9723293522993324
2011-07-28,1,4.9934673652291136e-05,0.00016392732190577533,-0.01935014097401557,0.016710313319544066,0.9730298002750255
2011-08-01,-1,-0.000309751110080889,-0.000251755695597776,-0.01935014097401557,0.023347182752922593,0.9715277422630698
2011-08-03,-1,-9.783594172703178e-05,-2.8027360225040112e-05,-0.01538545899862562,0.020738952330873476,0.9722707992029406
2011-08-05,-1,-0.0018198033908081758,-0.0016347002159356441,-0.016414668387369855,0.020738952330873476,0.9727169728886473
2011-08-09,-1,-0.0038140416750037593,-0.003347363897426698,-0.013299531803196157,0.020738952330873476,0.9756850616671798
2011-08-11,-1,-0.003405116337334143,-0.0030278127015338947,-0.013299531803196157,0.01761253432457834,0.9782496020252385
2011-08-15,-1,-0.002539706370409929,-0.002260500449045816,-0.013299531803196157,0.017645944707666103,0.9784548367038812
2011-08-17,0,0.0,0.0,-0.013299531803196157,0.020738952330873476,0.9770216409829727
2011-08-19,0,0.0,0.0,-0.007761117501758987,0.023347182752922593,0.9810332808442992
2011-08-23,0,0.0,0.0,-0.009326576714112734,0.017645944707666103,0.9829976239730114
2011-08-25,0,0.0,0.0,-0.013299531803196157,0.017645944707666103,0.9809183133152563
2011-08-29,-1,-0.0015921874897542139,-0.0013257898635517865,-0.013299531803196157,0.022447891808989272,0.9799973006849895
2011-08-31,0,0.0,0.0,-0.013299531803196157,0.019889914437322506,0.9806052633486083
2011-09-02,0,0.0,0.0,-0.015660406900962914,0.019889914437322506,0.9800025748108186
2011-09-07,0,0.0,0.0,-0.010456928664098534,0.020083549419452965,0.9791262626576663
2011-09-09,-1,-0.002883373944136019,-0.0026028589402346796,-0.004380937677567693,0.020083549419452965,0.9794494198879201
2011-09-13,0,0.0,0.0,-0.0067437292035035686,0.02720426748533675,0.9798111055880251
2011-09-15,0,0.0,0.0,-0.0067437292035035686,0.015070827415033038,0.9813013972751733
2011-09-19,0,0.0,0.0,-0.009342115658973055,0.015070827415033038,0.9812530836456126
2011-09-21,-1,-0.0008442257015123156,-0.0007562118892601908,-0.005118881060583274,0.015070827415033038,0.9818780809220458
2011-09-23,-1,-0.002404421176541194,-0.0020977953757178674,-0.004439004146512173,0.019577696446904852,0.9834380387476317
2011-09-27,-1,-0.0008944075568962862,-0.0007484641541665402,-0.004439004146512173,0.011241643334304482,0.9863859598746546
2011-09-29,-1,-0.0002444894617346365,-0.00020601007239932052,-0.004439004146512173,0.012743933011595088,0.9846166541404511
2011-10-03,-1,-0.001673333965898693,-0.0014699176361128142,-0.004224757968711558,0.012743933011595088,0.9852960544010294
2011-10-05,1,0.00011787363456063947,0.00012631065083627065,-0.004439004146512173,0.012743933011595088,0.9854107577519757
2011-10-07,1,0.0007617838394427752,0.0008781028452869712,-0.005118881060583274,0.01382571313117105,0.9849656843791559
2011-10-11,1,0.0011789415043269402,0.0013451105858117438,-0.004439004146512173,0.013326649942786196,0.9855920412820671
2011-10-13,1,0.0009094712800370216,0.001018825228218433,-0.0076442204622319794,0.013326649942786196,0.9840919002747511
2011-10-17,1,0.0011096143122587513,0.0012588781643849114,-0.0076442204622319794,0.013326649942786196,0.9834717282006078
2011-10-19,1,0.0010342015707711818,0.0011711623303090435,-0.01672689469567577,0.013326649942786196,0.982737325030219
2011-10-21,1,0.0012305963370607708,0.0013922839349199316,-0.018348027758056034,0.010645045021131205,0.982107268232642
2011-10-25,1,0.000984252781194976,0.0010886002807659724,-0.018348027758056034,0.010645045021131205,0.9821730065802147
2011-10-27,1,0.0024153344950831263,0.0027241348894040283,-0.02167556472081445,0.007839818964435448,0.9831323065396055
2011-10-31,1,0.0017402206420170968,0.0019601736904843728,-0.018348027758056034,0.008509446480529568,0.9834645336261859
2011-11-02,1,0.0010638991125338899,0.001181501442050275,-0.01672689469567577,0.008509446480529568,0.9846258744266341
2011-11-04,1,0.0005923064492390324,0.0006165103874869447,-0.012394578553454319,0.0091821688539022,0.9849715348810683
2011-11-08,1,0.0007553211256876256,0.0007782266965239052,-0.012394578553454319,0.007086453938406563,0.9852100074096992
2011-11-10,1,6.095037630595758e-05,9.757445357602041e-05,-0.012394578553454319,0.009371309781353867,0.9839734808678302
2011-11-14,1,0.0003902260909714382,0.00041309687006835987,-0.010678439481572462,0.007086453938406563,0.9861505742097754
2011-11-16,0,0.0,0.0,-0.010678439481572462,0.005566293807683617,0.9856826441299539
2011-11-18,0,0.0,0.0,-0.010986361361975961,0.005566293807683617,0.9849592845746048
2011-11-22,1,0.0005398888613932361,0.0006951567945843902,-0.014474251490853397,0.008762417510884272,0.9826523407718213
2011-11-25,0,0.0,0.0,-0.010986361361975961,0.011094876865983445,0.9829169096479085
2011-11-29,0,0.0,0.0,-0.010986361361975961,0.007850107441496841,0.9844939465926243
2011-12-01,1,0.002185715903040064,0.0025732585007533304,-0.011498338502195057,0.007850107441496841,0.9848724593943878
2011-12-05,0,0.0,0.0,-0.011498338502195057,0.002812532096711504,0.9859900970239256
2011-12-07,0,0.0,0.0,-0.013773252565621818,0.002812532096711504,0.9856189000800635
2011-12-09,0,0.0,0.0,-0.011498338502195057,0.002812532096711504,0.9880049000648313
2011-12-13,0,0.0,0.0,-0.011498338502195057,0.006967440117725607,0.9874456807925118
2011-12-15,0,0.0,0.0,-0.011498338502195057,0.006967440117725607,0.9882890373156158
2011-12-19,0,0.0,0.0,-0.0033623787230019006,0.011094876865983445,0.9891323871866082
2011-12-21,-1,-0.0006968833034206225,-0.0006849107043450517,-0.0019847822304499083,0.013304082743117746,0.990204148662502
2011-12-23,0,-2.950912651645556e-05,9.400614778273548e-05,-0.0019847822304499083,0.013304082743117746,0.9905362865404078
2011-12-28,-1,-0.0005838115728124808,-0.0005820542965560313,-0.00485587708791905,0.013304082743117746,0.9898905960156973
2011-12-30,-1,-0.0008490320952124674,-0.0007966810338401092,-0.0032276148410126833,0.011508910262309505,0.9904790672019428
2012-01-04,-1,-0.0012156644891867666,-0.001093487358069628,-0.0032276148410126833,0.013304082743117746,0.9892200174028488
2012-01-06,-1,-0.0014319759673297675,-0.001315276770021082,-0.0032276148410126833,0.013304082743117746,0.9890527229053704
2012-01-10,0,0.0,0.0,-0.005736899627235755,0.011508910262309505,0.9893219755753688
2012-01-12,0,0.0,0.0,-0.008074841470769915,0.010252419279577738,0.9898603563425878
2012-01-17,-1,-0.000967102795853622,-0.0009024229011966854,-0.005500427153774553,0.010252419279577738,0.9900337575899111
2012-01-19,0,0.0,0.0,-0.005500427153774553,0.009858143945476414,0.9909096332786314
2012-01-23,0,0.0,0.0,-0.005682006856712375,0.008262077796462649,0.9921449448401146
2012-01-25,1,7.291599476176485e-05,0.00012053545469039472,-0.005682006856712375,0.008262077796462649,0.9917351156912778
2012-01-27,-1,-0.001070989734216223,-0.0008496561004945907,-0.0014974403375108897,0.008262077796462649,0.9917970036124315
2012-01-31,-1,-0.00041310543551890716,-0.0002749343123191255,-0.004001816568235846,0.007457174070598048,0.9926445899184448
2012-02-02,-1,-0.000964040404141488,-0.0006926210277937646,-0.0019257221690981785,0.006858318753517224,0.9938073309460211
2012-02-06,0,0.0,0.0,-0.0019257221690981785,0.006858318753517224,0.9927830052969062
2012-02-08,0,0.0,0.0,-0.0005917637804032784,0.007457174070598048,0.9931262970862352
2012-02-10,-1,-0.000435002569308627,-0.0001787444968936831,4.016718181182479e-05,0.008372541821038991,0.9930261919805893
2012-02-14,-1,-0.0007336463497254697,-0.0004133989482159654,4.016718181182479e-05,0.009803951978990475,0.9921489845211765
2012-02-16,-1,-0.0009147572576722735,-0.0004953960368032251,-0.00020343926341850852,0.010109954297129606,0.9921545140459672
2012-02-21,0,0.0,0.0,-0.00045302241931179923,0.010109954297129606,0.9922252645422144
2012-02-23,0,0.0,0.0,-0.0018305935496993003,0.009997313959006946,0.9925952704192953
2012-02-27,0,0.0,0.0,-0.0018305935496993003,0.01219578248095647,0.9909835477225072
2012-02-29,0,0.0,0.0,-0.003377584830072883,0.01219578248095647,0.9902066707259841
2012-03-02,0,0.0,0.0,-0.003377584830072883,0.01219578248095647,0.9903876991256882
2012-03-06,0,0.0,0.0,-0.003377584830072883,0.012141174860489325,0.9914288461964863
2012-03-08,0,0.0,0.0,-0.004006925765591871,0.01180325384612134,0.9914441408506113
2012-03-12,0,0.0,0.0,-0.006857552137946757,0.01180325384612134,0.990908312825299
2012-03-14,1,0.0025634585449524384,0.0028237023006754333,-0.006857552137946757,0.008667591550678718,0.9909184413090262
2012-03-16,1,0.0030993596064680497,0.0034449359384060457,-0.008498249960416362,0.007585997004203929,0.9895907803367879
2012-03-20,1,0.002733188690221218,0.003022210556453845,-0.00935734547416287,0.008667591550678718,0.9880951462540581
2012-03-22,1,0.00338962928255474,0.003936984833603641,-0.00935734547416287,0.007585997004203929,0.9881011119595275
2012-03-26,1,0.003698656150850072,0.004240321030093177,-0.00935734547416287,0.005461335445854709,0.98858784571801
2012-03-28,1,0.0027617193844201257,0.003141343573306788,-0.008498249960416362,0.006024028621081208,0.9893741368564727
2012-03-30,1,0.002573442845110339,0.0029190722198410525,-0.008498249960416362,0.007585997004203929,0.9891017842565042
2012-04-03,1,0.0028705614388584793,0.003273184594353965,-0.008332049907918965,0.006024028621081208,0.9900828393802629
2012-04-05,1,0.002741016434032812,0.003093509904122029,-0.00992308565253533,0.006024028621081208,0.9885330958651929
2012-04-10,1,0.0021212487859965045,0.002377526454128133,-0.011564943145822031,0.006024028621081208,0.9873502591114677
2012-04-12,1,0.002365303164803596,0.002638016431914735,-0.011564943145822031,0.0025926891561867324,0.9870010746144989
2012-04-16,1,0.0008856128039996873,0.0009076557782491977,-0.009000697038390446,0.0036520208072946428,0.9891537204416544
2012-04-18,1,0.0014075888660360172,0.0014859966716961831,-0.008213167095994824,0.0032712056932576424,0.9911998312243436
2012-04-20,0,0.0,0.0,-0.012429161431600307,0.0023363735591731237,0.9908074431734348
2012-04-24,0,0.0,0.0,-0.012429161431600307,0.0032712056932576424,0.9899328499630726
2012-04-26,0,0.0,0.0,-0.013036416756602765,0.002010081083208202,0.990332513475868
2012-04-30,0,0.0,0.0,-0.013036416756602765,0.002010081083208202,0.9896108969497178
2012-05-02,0,0.0,0.0,-0.013036416756602765,0.0002555676660195136,0.98864305460943
2012-05-04,1,0.0014932863305310387,0.0016385243906310732,-0.012429161431600307,0.0023363735591731237,0.9877022833419608
2012-05-08,-1,-0.00043485000059935994,-0.0003057958406437691,-0.011009424131936448,0.005321250950432336,0.9889788250035214
2012-05-10,-1,-0.0015330720153645403,-0.0012558672216320958,-0.011009424131936448,0.008410732938582912,0.9889053379136249
2012-05-14,-1,-0.003349236006090113,-0.0027852792571040515,-0.011946706606527698,0.008410732938582912,0.9880358739914209
2012-05-16,-1,-0.003165277193143925,-0.0025803293369462427,-0.011946706606527698,0.012084696003519314,0.9874686026558664
2012-05-18,-1,-0.003749561271175806,-0.003125799796835706,-0.009798724183790172,0.01539266400829757,0.987145128769312
2012-05-22,-1,-0.002939813061883641,-0.0024068094153529606,-0.009798724183790172,0.01539266400829757,0.9875547109823827
2012-05-24,-1,-0.003565664185800896,-0.0029600672324961563,-0.009798724183790172,0.015909321398408203,0.9851705070986407
2012-05-29,-1,-0.0029369637918163684,-0.0023615350864735095,-0.011009424131936448,0.015367591256247473,0.9854991447072533
2012-05-31,-1,-0.005658063598981937,-0.00473926377165864,-0.0080612184568007,0.015367591256247473,0.984772353949249
2012-06-04,-1,-0.006068279985544003,-0.005146311255964984,-0.006035771442207868,0.015909321398408203,0.9830358326999109
2012-06-06,-1,-0.0032475543031797905,-0.002702987234994746,-0.0080612184568007,0.014173346268803892,0.9849639657185226
2012-06-08,-1,-0.003921338405851802,-0.003272832048233451,-0.011440883987728703,0.014173346268803892,0.9839272195033781
2012-06-12,-1,-0.003983002174825957,-0.003385923364867454,-0.011440883987728703,0.014173346268803892,0.9842471386034093
2012-06-14,-1,-0.0030500253442218516,-0.0026028506158735634,-0.011440883987728703,0.01365086499255051,0.9842687653405118
2012-06-18,-1,-0.0020081412428326903,-0.0017110832872367565,-0.011440883987728703,0.01083998840005715,0.9851048397096389
2012-06-20,-1,-0.0018620291940552307,-0.001562168712658259,-0.011440883987728703,0.010183649835547206,0.9850683700993265
2012-06-22,-1,-0.00228610035429297,-0.0019528385610359806,-0.011440883987728703,0.007696910526963091,0.9870255856267616
2012-06-26,-1,-0.0030107586778609623,-0.0026109552720443223,-0.010401018861020083,0.00771805701082307,0.9871179018408234
2012-06-28,-1,-0.002272561780412065,-0.0019380920295932907,-0.008928820471117368,0.010183649835547206,0.9858695467486467
2012-07-02,-1,-0.00039109339881681265,-0.0002610101298138916,-0.008928820471117368,0.00771805701082307,0.9895637921766505
2012-07-05,-1,-0.00218156017963172,-0.0018528784984041262,-0.008928820471117368,0.006963273072354916,0.9895741339059275
2012-07-09,-1,-0.0028303431511684353,-0.002447340567065688,-0.002718060712628833,0.007982737471722682,0.9895610444226014
2012-07-11,-1,-0.0029226852816687495,-0.0025575911382298058,-0.0014083166291214751,0.011681849299020674,0.9891063435011519
2012-07-13,-1,-0.002390758017255714,-0.0020772331499440454,-0.0022550890049971286,0.007982737471722682,0.990157065597634
2012-07-17,0,0.0,0.0,-0.003938176610726518,0.007982737471722682,0.9906654660718943
2012-07-19,-1,-0.0007810776033484587,-0.0006596289620119042,-0.004508279200937929,0.0058155125597689535,0.9910597549972466
2012-07-23,0,0.0,0.0,-0.003938176610726518,0.0058155125597689535,0.9919683702724997
2012-07-25,0,0.0,0.0,-0.002557651292692146,0.006406238185240825,0.9921072955960505
2012-07-27,-1,-0.0001878138516299799,-0.0001237612116158292,-0.003938176610726518,0.005314901796392161,0.9933432248879819
2012-07-31,0,0.0,0.0,-0.004599926094221711,0.005314901796392161,0.9928546413274295
2012-08-02,0,0.0,0.0,-0.0041716321105201406,0.005314901796392161,0.9936522364421925
2012-08-06,1,0.0008314446795375133,0.0009979250816967327,-0.004599926094221711,0.005314901796392161,0.9942760613614428
2012-08-08,1,0.0016842549224486835,0.001993584292985973,-0.004599926094221711,0.004918503627941927,0.9929822760318837
2012-08-10,0,0.0,0.0,-0.005190360019986224,0.0059091334966080555,0.9923790843742831
2012-08-14,0,0.0,0.0,-0.005190360019986224,0.007750285662482793,0.9917938938078235
2012-08-16,0,0.0,0.0,-0.004599926094221711,0.009030155068938547,0.9918712903973325
2012-08-20,0,0.0,0.0,-0.004594347633985751,0.009030155068938547,0.9917122215633074
2012-08-22,0,0.0,0.0,-0.004594347633985751,0.007750285662482793,0.9920248277040308
2012-08-24,0,0.0,0.0,-0.004438618081225826,0.007549824141651177,0.9927221808777997
2012-08-28,0,0.0,0.0,-0.004482359753049689,0.007549824141651177,0.9921916758142406
2012-08-30,0,0.0,0.0,-0.004482359753049689,0.00911009952952991,0.988161815739002
2012-09-04,1,0.0019535788573407592,0.002250408847763635,-0.003965542138900529,0.00911009952952991,0.9892648528215312
2012-09-06,0,0.0,0.0,-0.003965542138900529,0.00911009952952991,0.9901349618622666
2012-09-10,0,0.0,0.0,-0.003965542138900529,0.008508714967035062,0.9902377321651773
2012-09-12,0,0.0,0.0,-0.005701031884234293,0.005247262798850368,0.9900818594364975
2012-09-14,0,0.0,0.0,-0.005701031884234293,0.004252899407315101,0.9905312976923683
2012-09-18,1,0.00410499233261803,0.0049508339063266266,-0.005022072339146698,0.008158356716264603,0.990107443181708
2012-09-20,1,0.004317528517351326,0.005215272427715887,-0.00903298475260464,0.008158356716264603,0.9888226100424402
2012-09-24,1,0.004814087049624159,0.005789580350263749,-0.009847164005075931,0.005283032859224167,0.9876783987503
2012-09-26,1,0.0031752308518191432,0.0038296158876192686,-0.010186912468062902,0.005283032859224167,0.9883119314525748
2012-09-28,1,0.004154751049593238,0.004829502382184459,-0.010186912468062902,0.0044982957520734845,0.9916177103786068
2012-10-02,1,0.0038573051626105024,0.004470102255448112,-0.010186912468062902,0.0055326960805127685,0.9912147272573401
2012-10-04,0,0.0,0.0,-0.012101970788169242,0.004634418207152756,0.9914160831574982
2012-10-08,0,0.0,0.0,-0.012346324351617146,0.0055326960805127685,0.9899853782795252
2012-10-10,1,0.00268312655243098,0.0029242801336340045,-0.012346324351617146,0.0055326960805127685,0.9898189837102573
2012-10-12,1,0.0028591615018515528,0.003162054678793283,-0.012346324351617146,0.0071293884111224455,0.9892992868278612
2012-10-16,0,0.0,0.0,-0.012961226876045014,0.004634418207152756,0.989302235358459
2012-10-18,0,0.0,0.0,-0.010860769378713393,0.008119843610164594,0.9887351481294395
2012-10-22,1,0.0016068282126341484,0.0016570962271230736,-0.009719856565010345,0.012323639101900978,0.9884791711172932
2012-10-24,0,0.0,0.0,-0.00717374745770402,0.012323639101900978,0.9888929927916945
2012-10-26,0,0.0,0.0,-0.00717374745770402,0.012323639101900978,0.9887561296068078
2012-11-01,1,0.001961980576991593,0.002307825803474825,-0.00717374745770402,0.010517876200947272,0.989213287411773
2012-11-05,1,0.0005473544237534011,0.0006402907177057641,-0.006577026332195737,0.011681360625743738,0.9894976037852575
2012-11-07,-1,-4.349548200706141e-05,-4.421084665265864e-06,-0.006321408077234409,0.011777512034090127,0.9907635968240472
2012-11-09,-1,-0.0003598453954062582,-0.0003242329119893483,-0.005624415830998313,0.011777512034090127,0.991087039505807
2012-11-13,1,0.0002732314093171601,0.0004218847680100349,-0.005119408309118934,0.011910465002014736,0.9909428430386598
2012-11-15,-1,-0.0022791983496174327,-0.0019934886098615023,-0.004620598663595631,0.011910465002014736,0.9906059423016705
2012-11-19,-1,-0.001143180227934929,-0.0009440085965622244,-0.004620598663595631,0.010335833845010321,0.9919048723840534
2012-11-21,-1,-0.0007086618063150451,-0.000568064517588545,-0.005119408309118934,0.00949535624930631,0.9915181312092941
2012-11-26,1,0.0010095749387327956,0.0010295539106031499,-0.006498236308722394,0.00949535624930631,0.9906274168532093
2012-11-28,1,0.0010002400821045654,0.0010079091132092013,-0.0077671671055290475,0.005974774338961726,0.9907175142057731
2012-11-30,0,0.0,0.0,-0.008770019613798488,0.009883184390905133,0.9904712339956098
2012-12-04,0,0.0,0.0,-0.008770019613798488,0.010206634944687133,0.9890364992627421
2012-12-06,0,0.0,0.0,-0.008770019613798488,0.006478011490898067,0.989400742607674
2012-12-10,1,0.0003735754027250659,0.0004633517238438292,-0.008770019613798488,0.007639890723198575,0.9889785981469399
2012-12-12,1,0.000611463997697027,0.0006583217886828284,-0.008983879204427671,0.007639890723198575,0.9891352222407005
2012-12-14,1,7.714830744977872e-05,0.0002342524837921217,-0.008527909125660111,0.006122709271753534,0.9901135942507187
2012-12-18,1,0.00017749344126145655,0.00032105181376724623,-0.008527909125660111,0.005638533770770669,0.9907358244474319
2012-12-20,1,0.0009265737006843235,0.0009332543899766541,-0.0056232943657550626,0.005638533770770669,0.99171424568176
2012-12-24,-1,-0.0010429418567682613,-0.000799478378606023,-0.0037990131650103395,0.006122709271753534,0.992550597539144
2012-12-27,-1,-0.0016515159074975915,-0.0013017160253531736,-0.0020475175605692347,0.007869910598445242,0.9921214966482919
2012-12-31,-1,-0.0011908055270249034,-0.0009222708292683946,-0.0020475175605692347,0.007535290638702415,0.9925969370560037
2013-01-03,0,-9.211955038341738e-05,1.0890585706513833e-06,-0.002226490053149949,0.007535290638702415,0.9933587525354893
2013-01-07,-1,-0.00020995539062626094,-9.263225209200465e-05,-0.002423648354567033,0.007793186527571322,0.9928045038904058
2013-01-09,-1,-0.0002266995234373279,-8.613444906408954e-05,-0.005230390758521877,0.007793186527571322,0.9924756400720962
2013-01-11,-1,-0.00030139458598138757,-0.00015248491197137189,-0.0037364458839650493,0.0073426921871334976,0.9929979650278077
2013-01-15,-1,-0.0004136374598763343,-0.0002313056870488229,-0.0037364458839650493,0.0073426921871334976,0.9929185064701417
2013-01-17,-1,-0.0004223152901141895,-0.00026634318900173846,-0.003842272794066108,0.007793186527571322,0.9921703264393912
2013-01-22,-1,-0.00012805368353328817,-3.776552583537019e-06,-0.005365762810376295,0.009497566654098791,0.9915642285162967
2013-01-24,-1,-0.00028799196107309765,-0.00011166498429734744,-0.005622296763190291,0.009743344839246021,0.990813803869065
2013-01-28,0,-0.0001099647162335178,3.877091698846637e-05,-0.005939325178664749,0.007793186527571322,0.990856288169993
2013-01-30,0,-0.00013388287300672083,2.8560617277184348e-05,-0.005939325178664749,0.007525645774499186,0.9911553517439989
2013-02-01,1,0.0013951097073908385,0.0015095277957409058,-0.0054401880847415336,0.0073426921871334976,0.9923049246611182
2013-02-05,1,0.0006369900994752728,0.0006586016241551819,-0.0037815699012498554,0.00745278017818868,0.9918476796207533
2013-02-07,1,0.0009909029671473278,0.0010433004974940454,-0.001630251647178206,0.008405786836871872,0.9924286667594473
2013-02-11,1,0.0009007050032509317,0.0009464142571606812,-0.001705834546079657,0.008405786836871872,0.9925048104038309
2013-02-13,1,0.0006441674967923206,0.0006518431621423023,-0.0017591454852892963,0.008405786836871872,0.9924322654893064
2013-02-15,1,0.001013140026032388,0.001050394490099534,-0.0017591454852892963,0.006741722218785122,0.9922871603718709
2013-02-20,1,0.0011388229680015843,0.001219864060847627,-0.0017591454852892963,0.006232163499856207,0.9928046479400419
2013-02-22,1,0.0007283446613652102,0.0007554584749615582,-0.004095262841608459,0.005756613214741299,0.9923610796052382
2013-02-26,1,0.0017881210211639507,0.0020573241275806593,-0.004095262841608459,0.006232163499856207,0.9922425106663747
2013-02-28,1,0.0016959152064943226,0.001935200391903319,-0.004095262841608459,0.006232163499856207,0.991870463182674
2013-03-04,1,0.0024717284390151023,0.0028394256074723468,-0.004095262841608459,0.007291599307992264,0.9917589660505008
2013-03-06,1,0.002918059583022939,0.0033284711122970206,-0.004095262841608459,0.004316259768405557,0.9924834476644072
2013-03-08,1,0.0028843022086636767,0.0032446773062567175,-0.004937559250620027,0.004110606340671301,0.9924454425145205
2013-03-12,1,0.002561510940327444,0.0028736759240177894,-0.004937559250620027,0.004316259768405557,0.99227282553899
2013-03-14,1,0.0028670197592598696,0.0032514636231055225,-0.005830022934364235,0.005920609533744242,0.99166678117216
2013-03-18,1,0.0019218759341810658,0.00213171850012866,-0.005830022934364235,0.010123330757943454,0.990158746509676
2013-03-20,1,0.0013379230987986639,0.0014501168988752984,-0.0065389777441228585,0.010123330757943454,0.989412636135242
2013-03-22,1,3.894758506525021e-05,0.0001333553239764797,-0.0065389777441228585,0.010123330757943454,0.9906770637711384
2013-03-26,1,0.0005156969203961032,0.0005351241199313987,-0.005292141976004274,0.01057571442706741,0.989857666454844
2013-03-28,1,0.0019211787153146248,0.0021315405612285674,-0.00741480327967591,0.01057571442706741,0.9893226019844519
2013-04-02,1,0.0012699154643562222,0.0013647322945596486,-0.00741480327967591,0.012409977467831707,0.9883461306982106
2013-04-04,1,0.000702757733357098,0.0007266933870288007,-0.008883001290479019,0.012409977467831707,0.987176313037021
2013-04-08,1,0.00042872994187043417,0.0005030748049280498,-0.00896381620594732,0.012409977467831707,0.9871664197542849
2013-04-10,1,0.0008331878920019221,0.0008520991936400592,-0.00896381620594732,0.013550218222412987,0.9871839272912224
2013-04-12,1,0.00015822064967705422,0.00029883439269506927,-0.00896381620594732,0.013550218222412987,0.9878079535176316
2013-04-16,1,0.0009667953867796836,0.0009767680558893275,-0.008472648042717627,0.008916625929949537,0.9898101448409781
2013-04-18,0,-2.8299019628764727e-05,6.87785857300172e-05,-0.004372135935984678,0.008916625929949537,0.990752326452723
2013-04-22,-1,-0.0002464268602364029,-0.00011520363504707122,-0.0022705495678795166,0.013550218222412987,0.9901918902917117
2013-04-24,1,0.0010437879176189017,0.0010831135474278833,-0.0037785309591671537,0.0056229432775059115,0.991864469655082
2013-04-26,1,0.00082727965284395,0.0008419511096586343,-0.003541414014059657,0.004579841089865783,0.9929239682906595
2013-04-30,1,0.0019431707798071378,0.0020950999498565936,-0.003541414014059657,0.004579841089865783,0.9939567112275358
2013-05-02,1,0.0012190823227335877,0.0012961240618274178,-0.0023018872239102374,0.004579841089865783,0.9946794512484421
2013-05-06,1,0.0008763937179058982,0.0009032692886295446,-0.0023018872239102374,0.004579841089865783,0.994565583517738
2013-05-08,1,0.001450727940078526,0.001563821037018691,-0.0038725439272593166,0.0037655197540137288,0.9939730161105873
2013-05-10,1,0.0013439004825129407,0.0014422838746682566,-0.0038725439272593166,0.0053331747172779,0.9930906299864282
2013-05-14,1,0.0014130654903578028,0.0015352936264931062,-0.0056142814305871445,0.0037655197540137288,0.9925514846611857
2013-05-16,1,0.0012601022965800916,0.0013246521555994569,-0.007078914323818672,0.005371096012382615,0.9916301672441591
2013-05-20,1,0.000990478449424053,0.0010302695757296266,-0.007078914323818672,0.006374970628249814,0.9914233376658528
2013-05-22,1,0.0006427793021919644,0.0007421679256064794,-0.009197389981556064,0.006374970628249814,0.9898822449888673
2013-05-24,1,0.0005072611236668851,0.0006224074992232286,-0.009197389981556064,0.006374970628249814,0.9898951910149024
2013-05-29,1,0.001070149930753797,0.0010851859718414628,-0.009197389981556064,0.0059453935637658155,0.9898808177765481
2013-05-31,1,0.0005234697036253367,0.0005903126916160125,-0.011080952101713693,0.006745898146709129,0.9853759054657298
2013-06-04,1,9.852223721575635e-05,0.00014563026495772874,-0.009845126144302748,0.006745898146709129,0.9859199405746912
2013-06-06,-1,-0.00016888997687004224,-8.656601193292857e-05,-0.007078914323818672,0.008099890061815416,0.9859351578669171
2013-06-10,1,0.0002037928011652515,0.0002410765100260899,-0.007078914323818672,0.00789751973376491,0.986351161141493
2013-06-12,-1,-0.00043176933957662326,-0.00031007644170468276,-0.003509102414044612,0.009039522495497913,0.9867030812943657
2013-06-14,-1,-0.00018242974386550485,-9.855850487052757e-05,-0.0018874055051688377,0.008638343780064246,0.9871909311780211
2013-06-18,1,0.00036021702833571607,0.00037360832163017463,-0.003509102414044612,0.00789751973376491,0.9879627979943358
2013-06-20,-1,-0.00032630093629414374,-0.00023587691637200198,-0.0020240255444276267,0.00789751973376491,0.9896222370774305
2013-06-24,0,0.0,0.0,-0.0029183732348054808,0.00789751973376491,0.989221719970038
2013-06-26,0,0.0,0.0,-0.005510868026055197,0.00789751973376491,0.9888581264895486
2013-06-28,-1,-0.0019401738999538934,-0.001657541664438608,-0.005510868026055197,0.005132687006600677,0.9936445290623921
2013-07-02,0,0.0,0.0,-0.005510868026055197,0.008240191287050863,0.9927903638318593
2013-07-05,-1,-0.001504736627200675,-0.0012714476904466204,-0.005510868026055197,0.005608076057557756,0.993106456595625
2013-07-09,0,0.0,0.0,-0.0073204309906812395,0.0038578558813277242,0.9928702310252006
2013-07-11,0,0.0,0.0,-0.0073204309906812395,0.0016433002157348723,0.9934186000364035
2013-07-15,-1,-0.0006154847246506625,-0.0005082646427155186,-0.008400723902441447,3.226757199821338e-05,0.9935081426580575
2013-07-17,0,0.0,0.0,-0.008400723902441447,0.0010210536730483719,0.9929484125119719
2013-07-19,-1,-0.0010642661604374484,-0.000889852011129485,-0.008400723902441447,0.0010210536730483719,0.9934125539842427
2013-07-23,-1,-0.0012272937829388327,-0.0010397672877765823,-0.0073204309906812395,0.0013467014896597802,0.9934976381923936
2013-07-25,-1,-0.001371330835657539,-0.0011769765650378751,-0.0038118044713422884,0.007011788157213017,0.9926500156380073
2013-07-29,-1,-0.0012451738923636977,-0.0010904290209342439,-0.0035510458610112992,0.007011788157213017,0.9930276322209465
2013-07-31,0,0.0,0.0,-0.004044014538110592,0.0038894651493746046,0.9929942740401104
2013-08-02,0,0.0,0.0,-0.005235508524948963,0.003111914918221798,0.9933579571363607
2013-08-06,0,0.0,0.0,-0.0035055409444022384,0.0045043174338322885,0.9936604979803657
2013-08-08,0,0.0,0.0,-0.004453232693955996,0.007011788157213017,0.9926744351553894
2013-08-12,0,0.0,0.0,-0.001856708108906883,0.007379644968449192,0.9925158622991388
2013-08-14,0,0.0,0.0,-0.001856708108906883,0.007379644968449192,0.9927864843156641
2013-08-16,-1,-0.0013978068704923246,-0.0011297712055695233,-0.001856708108906883,0.00962773527311195,0.9910912931919406
2013-08-20,-1,-0.0005703490183680264,-0.000514336194763036,-0.001856708108906883,0.011867123192330332,0.9907194401793851
2013-08-22,-1,-0.0005273777005048825,-0.00039577590910076424,-0.003259715456539429,0.0066624726222988375,0.9918987210649347
2013-08-26,0,-4.532693811880857e-05,1.1670834534496035e-05,-0.007516294256280582,0.0066624726222988375,0.9907617290000386
2013-08-28,-1,-0.0010375590981236667,-0.0008520287398334461,-0.004079006634019553,0.011867123192330332,0.9910143405105759
2013-08-30,-1,-0.0010212324942646387,-0.0008480243890170297,-0.007224161961483817,0.011867123192330332,0.9901554993939078
2013-09-04,-1,-0.0007167964945101054,-0.0005837935341040957,-0.007224161961483817,0.007041681197955295,0.9904447061722724
2013-09-06,-1,-0.0005291743219888929,-0.00047472272313529905,-0.005293437828455457,0.004701972110545889,0.9912389308194955
2013-09-10,-1,-0.0007292185075044004,-0.000554666187249161,-0.011503943876389745,0.0034932824864927856,0.9909806181710705
2013-09-12,-1,-0.001744868312078847,-0.001472028694402504,-0.011649460877843548,0.003798806901537111,0.9906958931549101
2013-09-16,1,0.000556773626867688,0.0006413800001542364,-0.011649460877843548,0.0027174622131865686,0.9905129823251098
2013-09-18,-1,-9.185174936133961e-05,-4.728160890006894e-05,-0.012417332004237457,0.0018416269670060033,0.9903409949225666
2013-09-20,1,0.001476403470484648,0.001780908015544154,-0.012417332004237457,0.0032829151487513237,0.9899810942555517
2013-09-24,-1,-0.0011348748963321085,-0.0009811518004476316,-0.007403733409687133,0.006578705631532331,0.9910041131638065
2013-09-26,-1,-0.0007146361967751056,-0.0006293112170788066,-0.007403733409687133,0.005733616345399313,0.9915742869998457
2013-09-30,-1,-0.0008051161019813297,-0.0007356068909497614,-0.00440786967935662,0.006578705631532331,0.9923199280014192
2013-10-02,-1,-0.0005668300406220694,-0.00045526766437117643,-0.005977679797755794,0.008183720801162274,0.9918789158176393
2013-10-04,-1,-0.0006382336457166644,-0.0005294535029348962,-0.009133218382720654,0.008183720801162274,0.9914253304808428
2013-10-08,-1,-0.0007687282236901671,-0.0006930404778992254,-0.00468014173300621,0.008924004955792757,0.9921628816186032
2013-10-10,-1,-0.00024577737176463153,-0.00017545451188297304,-0.003839441268755726,0.008924004955792757,0.9919804458784478
2013-10-14,-1,-0.0006321443819780469,-0.0006142576697212804,-0.004005289308236773,0.008183720801162274,0.9925431030022496
2013-10-16,1,0.00046602922542823735,0.0005964680534780532,-0.003839441268755726,0.008924004955792757,0.9929117667465572
2013-10-18,-1,-0.00029646952736950055,-0.00026363324722616054,-0.004005289308236773,0.009116087217343877,0.9921323614784706
2013-10-22,-1,-0.0004881531239580648,-0.0004779674373558134,-0.004005289308236773,0.009116087217343877,0.9925023008909695
2013-10-24,-1,-0.00039773484118495455,-0.0003361570996376879,-0.004005289308236773,0.009116087217343877,0.9924384431994632
2013-10-28,-1,-0.0005859439596539378,-0.0005757764280644102,-0.005091773996668495,0.008188933902192412,0.9922650463993706
2013-10-30,0,-1.542347864378642e-05,3.139087196424691e-05,-0.004207848116871436,0.007332213803341947,0.9928547646227694
2013-11-01,1,0.0008282220514014781,0.0009760241768570704,-0.004005289308236773,0.007332213803341947,0.9930137518570489
2013-11-05,1,0.0011035631913563727,0.001300483386020802,-0.004207848116871436,0.007586476355169974,0.9925621362995194
2013-11-07,1,0.00090652043817121,0.0011327762673121172,-0.004207848116871436,0.004192960333433001,0.9934717071730776
2013-11-11,1,0.0009255112024798217,0.0010588363301341007,-0.004715076024121625,0.00439737250572627,0.9933478379861646
2013-11-13,1,0.0008323596464417756,0.0008754048186336296,-0.005852617448824312,0.0031900646659657086,0.9935189315173916
2013-11-15,1,0.0009398426089281072,0.0010755820527666208,-0.005852617448824312,0.0031900646659657086,0.9938081172726189
2013-11-19,1,0.0012006507069297506,0.0013232750653466281,-0.00766538421932966,0.0031900646659657086,0.9925846114622976
2013-11-21,1,0.0010248469407493504,0.0011162420795797615,-0.00766538421932966,0.005094381580967271,0.9899277921021367
2013-11-25,1,0.0008726934137829453,0.0009780524079111305,-0.004549785608647711,0.00938666093115887,0.9900681559876693
2013-11-27,1,0.0013874848786020622,0.0015562936433364668,-0.004549785608647711,0.010050241279197052,0.9895797171922552
2013-12-02,1,0.00110172174300065,0.0012595644414704508,-0.004549785608647711,0.010050241279197052,0.9901657440245907
2013-12-04,1,0.0010887487294893071,0.0012890619114659446,-0.004549785608647711,0.009480207744160647,0.990511455301447
2013-12-06,1,0.0008076640653512975,0.0009233002286039465,-0.005335431827742541,0.010790114716759235,0.9897862518901988
2013-12-10,1,0.0005846211622490694,0.0006694022923881249,-0.004589288238142356,0.010790114716759235,0.9893938120041756
2013-12-12,-1,-5.9065404560892495e-05,-5.6475174084808686e-05,-0.0035707701913122517,0.010790114716759235,0.9886735209248265
2013-12-16,1,5.34013364439777e-05,6.74800260667977e-05,-0.0035707701913122517,0.012229522488274861,0.9873721114358321
2013-12-18,1,2.9264206023755466e-05,7.155701803374083e-05,-0.0016262729688058294,0.011276589035563889,0.9886165548739895
2013-12-20,1,0.0021064015587068854,0.0023654762976409007,-0.0016262729688058294,0.00988639122234358,0.9921518218388466
2013-12-24,1,0.002646317627796695,0.003016367942536065,-0.0067317342534796605,0.008230725743084194,0.9904098452357118
2013-12-27,1,0.002457121957814272,0.0027557112194488485,-0.0067317342534796605,0.00637360546702884,0.9906193263414255
2013-12-31,1,0.0025436394152399747,0.0028263744662396072,-0.010937378743785538,0.00637360546702884,0.9902094588584288
2014-01-03,1,0.001694833478012237,0.0018598608955815968,-0.010937378743785538,0.00637360546702884,0.9890846823609268
2014-01-07,1,0.0014074235392619596,0.0014878670289287996,-0.010818334273703139,0.005631004026943163,0.9896546423220829
2014-01-09,1,0.002043045554354469,0.0022035722315541352,-0.010818334273703139,0.005631004026943163,0.9886400498396097
2014-01-13,1,0.0019377896880898612,0.002059790719521429,-0.008279191018820044,0.006254734835304611,0.9893129505702941
2014-01-15,1,0.002708569497498675,0.0030195953763495647,-0.008279191018820044,0.006073117923290106,0.9904985838452692
2014-01-17,1,0.002581726303505361,0.0028623695040567326,-0.008279191018820044,0.006073117923290106,0.9904957029737077
2014-01-22,1,0.002534474677524211,0.0027713141243570954,-0.008279191018820044,0.006707891819930502,0.9904463086819125
2014-01-24,1,0.0008993927024021356,0.0009099750422181102,-0.0019100979590942805,0.006707891819930502,0.9926555475780893
2014-01-28,1,0.0010149729203386688,0.0010562972942096734,-0.006457187748456807,0.006707891819930502,0.9923943176903273
2014-01-30,1,0.0007481680560370818,0.0007557049467041327,-0.0019678005811617494,0.006707891819930502,0.993057410807415
2014-02-03,0,-5.5670558244522075e-06,4.480336855777322e-05,-0.00021589709269851856,0.007467665126353499,0.9932390313342851
2014-02-05,-1,-0.0004152465286612473,-0.0003041584536347278,-0.00020989724740932297,0.007467665126353499,0.9931699061466501
2014-02-07,1,0.0011815402246151264,0.00131531386587732,-0.00020989724740932297,0.0060158921099812915,0.9954751357708165
2014-02-11,1,0.0014080051044324303,0.0016027730714591065,-0.0012811256296159565,0.005239377792710556,0.9953859106327956
2014-02-13,1,0.0016839490065340456,0.0019028936520606961,-0.005980978670579576,0.002474072753030517,0.994871824344946
2014-02-18,1,0.001481707395647054,0.0016219760989221949,-0.005980978670579576,0.002541616563420906,0.9939980343166157
2014-02-20,1,0.0017926512795044033,0.0019879405073018747,-0.006818209140805346,0.002541616563420906,0.9932583608146562
2014-02-24,1,0.0014684366025853664,0.0015637613257652695,-0.0081441645445069,0.00154878609108032,0.9927785301181806
2014-02-26,1,0.0011508208837617262,0.0011952512449471362,-0.0081441645445069,0.002362649000728316,0.9920850778034125
2014-02-28,1,0.0008793343414873499,0.0008869889773207735,-0.008880559950225093,0.002362649000728316,0.9896920529830227
2014-03-04,1,0.0004421193459286904,0.0005307343444156769,-0.0081441645445069,0.002362649000728316,0.9905124547792807
2014-03-06,1,0.0002600463204243957,0.0003736157023965427,-0.008163002772658457,0.004898548653490979,0.9901449499779045
2014-03-10,1,0.0005610825534129143,0.0006192245526301834,-0.008880559950225093,0.005317316812569373,0.9889346021659282
2014-03-12,0,-0.00012097699587315268,2.9204480225089634e-05,-0.008163002772658457,0.005317316812569373,0.989418271264498
2014-03-14,-1,-0.0006713513420893273,-0.0004598943792099325,-0.008505880993609842,0.005317316812569373,0.9890652632474105
2014-03-18,1,0.0004286400983104378,0.0004936838137659251,-0.008505880993609842,0.006610493098600916,0.9892450186658388
2014-03-20,0,-9.763861406923859e-05,4.331618582825394e-05,-0.007610000570919739,0.006610493098600916,0.9900020900282227
2014-03-24,-1,-0.0004247524168032936,-0.00025968893765089405,-0.006808813338078792,0.009469660079782755,0.9900607639135446
2014-03-26,-1,-0.00016938623068451277,-2.9615660877860717e-05,-0.007610000570919739,0.006610493098600916,0.9905227568755198
2014-03-28,-1,-0.0022033306361126485,-0.001797828949355217,-0.006861116454051794,0.008487475063017638,0.9923762951886811
2014-04-01,-1,-0.001871772532185646,-0.0015121943134701673,-0.006861116454051794,0.00782605195291698,0.9922044754083141
2014-04-03,-1,-0.0014855459715099786,-0.0012123410695435539,-0.006172711104780119,0.00782605195291698,0.9925482745074015
2014-04-07,-1,-0.001742788089706867,-0.0014365667735812026,-0.005055768292052248,0.007011512658626098,0.9935053764639384
2014-04-09,-1,-0.0014617545376115083,-0.0012262240835793858,-0.005055768292052248,0.007767870762465402,0.9932650360149573
2014-04-11,-1,-0.0019034803220621625,-0.001628079213613565,-0.004586482013722545,0.007767870762465402,0.9940444779191696
2014-04-15,-1,-0.0010172603061584945,-0.0008544548019224238,-0.005055768292052248,0.006334997066227695,0.9945739355997486
2014-04-17,-1,-0.0010462010607254556,-0.0008789891609476738,-0.005593040072744493,0.007011512658626098,0.9938573224182644
2014-04-22,-1,-0.0010641821671707819,-0.000870310235219743,-0.006160204611185464,0.006334997066227695,0.9936906831151723
2014-04-24,-1,-0.0015362899992166683,-0.0012934471796050536,-0.004916124712611546,0.007011512658626098,0.9935859407624593
2014-04-28,-1,-0.0015759273885175688,-0.0013025134014783902,-0.004916124712611546,0.006334997066227695,0.9936402566059157
2014-04-30,-1,-0.0012587938377096586,-0.0010126165841398882,-0.005593040072744493,0.005833207988138947,0.9936764222445353
2014-05-02,-1,-0.0018198831534044844,-0.0014951336257284123,-0.004765572607286626,0.006622569648475719,0.9932860096064434
2014-05-06,-1,-0.002174004387194047,-0.001803767483023142,-0.0030208105590534716,0.008584400088322388,0.9919058386518155
2014-05-08,-1,-0.0025569121719871803,-0.002111009765291356,-0.0014087978631914541,0.008175997533556533,0.9921827030852433
2014-05-12,-1,-0.002334732090207815,-0.001924134661664664,-0.0030208105590534716,0.00919340396138001,0.991957639413218
2014-05-14,-1,-0.0021566786999148335,-0.001792936826453874,-0.005657458321129851,0.00919340396138001,0.9923136628249729
2014-05-16,-1,-0.0006920412148683178,-0.0005964852562001578,-0.003224872386879531,0.007722008963075908,0.9932408342136413
2014-05-20,-1,-0.0009594688160013535,-0.0008479196461409214,-0.002593218377698157,0.007722008963075908,0.9935911119190064
2014-05-22,-1,-0.0002090308297358722,-0.00020887714954793442,-0.002593218377698157,0.005201581592216624,0.9941767581480545
2014-05-27,0,-7.145221628928948e-06,1.402698196436158e-05,-0.004190643554381895,0.005201581592216624,0.9942424321425746
2014-05-29,-1,-3.279583169320117e-05,-3.2047467313975954e-05,-0.004190643554381895,0.005201581592216624,0.9937889924822991
2014-06-02,1,0.000300902620450328,0.00034847422701672924,-0.005717426562166471,0.003939585598551065,0.9941396448713034
2014-06-04,1,0.001358284168988943,0.0015768606378611192,-0.005717426562166471,0.0025764895532808937,0.9949269722942783
2014-06-06,1,0.000990153438526599,0.001118421348883922,-0.006165714090634834,0.003939585598551065,0.9945111300300912
2014-06-10,1,0.0015913521381011085,0.001866024506783407,-0.005878763103920649,0.0025764895532808937,0.9947455655636002
2014-06-12,1,0.0012162273500988803,0.0014459443874514709,-0.005598771918508164,0.0025764895532808937,0.9950738677558921
2014-06-16,1,0.0015558323912798935,0.0018515979761832796,-0.005598771918508164,0.0011774598113621724,0.9946504613473299
2014-06-18,1,0.0007249901353111597,0.0008231941081770666,-0.005878763103920649,0.0017506915365321225,0.9947770209326655
2014-06-20,1,0.0008730950299743905,0.0009924693611280669,-0.005878763103920649,0.0017614508482851569,0.99461370868618
2014-06-24,1,0.000518399228831067,0.0005775672956585588,-0.005878763103920649,0.004859151901862273,0.9947798996143448
2014-06-26,-1,-0.00043912816467797465,-0.00032827294436453325,-0.004363260461560679,0.0039993666711365125,0.9958946497437537
2014-06-30,-1,-0.0008886996608772046,-0.0007134147492066807,-0.00385298165319507,0.0039993666711365125,0.9960525502014477
2014-07-02,-1,-0.00010308894360974478,-7.770126147098177e-05,-0.004363260461560679,0.003453422928122043,0.9956274652705825
2014-07-07,-1,-0.00013133664210222547,-0.00010144895790507095,-0.004363260461560679,0.003453422928122043,0.9954613778197492
2014-07-09,-1,-2.2527433118510874e-05,-1.6151434671659223e-05,-0.006531750622129434,0.003453422928122043,0.994827951420082
2014-07-11,-1,-0.0001518462595278247,-0.0001438791502124458,-0.004843510261902821,0.0039993666711365125,0.9942847644357458
2014-07-15,-1,-0.00011833649289009156,-8.76347777817193e-05,-0.005271996265087072,0.0039993666711365125,0.9942357701907009
2014-07-17,0,-1.4468073956110426e-05,4.339163244116445e-05,-0.004510716050645689,0.004138680833054716,0.9943582161196145
2014-07-21,1,0.00012496539669332141,0.00019134806947516383,-0.004510716050645689,0.004138680833054716,0.9940480553067201
2014-07-23,1,0.00042805523834425416,0.0005346434411381132,-0.004510716050645689,0.003994934970042981,0.9941920318974871
2014-07-25,1,0.0005144725043110429,0.0006494614610643373,-0.004510716050645689,0.005254275405998793,0.9940103097238305
2014-07-29,1,0.0005825057022382677,0.0007236923664804847,-0.004510716050645689,0.00597590025795037,0.9936135983810714
2014-07-31,1,0.00019078973615816705,0.00028707573324129155,-0.004510716050645689,0.00597590025795037,0.993951457661476
2014-08-04,1,1.919031824468566e-05,6.657329595507861e-05,-0.00396871237806328,0.005468596123340036,0.9946001453151369
2014-08-06,-1,-0.0008640720603623566,-0.0007774752787775398,-0.0017361494499264726,0.00597590025795037,0.9947120562719246
2014-08-08,1,0.00013953493190725077,0.00022904463889249124,-0.001221691158138606,0.005468596123340036,0.9961008788578776
2014-08-12,-1,-6.495111143628917e-05,-1.6830501622780626e-05,-0.001221691158138606,0.005468596123340036,0.9956623771138752
2014-08-14,1,3.124242660061453e-05,7.065820457459061e-05,-0.001736485322015111,0.005377343076027917,0.9956205461106414
2014-08-18,1,0.0004293960682132311,0.0005410907364643225,-0.00401914741452442,0.00407658740041308,0.99586318243033
2014-08-20,-1,-0.00020388573502718916,-0.00014628281287055417,-0.004707018534765791,0.00407658740041308,0.9953506329916756
2014-08-22,1,5.0565598115312135e-05,6.148258231834176e-05,-0.006392454771203173,0.003332455252030834,0.9950264969248732
2014-08-26,1,0.0004834915457353454,0.0005226047665431044,-0.006392454771203173,0.003332455252030834,0.9951081791396553
2014-08-28,1,4.464574425274113e-05,7.291809821105529e-05,-0.006392454771203173,0.003751876278644468,0.9945706479389512
2014-09-02,-1,-6.779852243714418e-05,-1.5692365193006923e-05,-0.006392454771203173,0.005481967665778233,0.9933861354209632
2014-09-04,-1,-0.00023389272549391958,-0.00012857300250837701,-0.006596572968099451,0.004142943364510461,0.9927915540219643
2014-09-08,1,0.0002183581868294591,0.0002279980681433657,-0.006596572968099451,0.005712887819362307,0.9920238553420133
2014-09-10,-1,-5.9733221697687734e-05,-1.4666645362358048e-05,-0.006596572968099451,0.007639622494808621,0.9908578770915782
2014-09-12,1,1.0890357785070843e-05,3.192691484038204e-05,-0.010465043389578592,0.007639622494808621,0.9894896278662302
2014-09-16,-1,-0.000847534573991659,-0.000693597008335909,-0.010465043389578592,0.007639622494808621,0.9897410956807497
2014-09-18,-1,-0.0004663546330362936,-0.00037368167766521035,-0.010465043389578592,0.005712887819362307,0.9900062653844316
2014-09-22,-1,-0.0007504663584380555,-0.0006526792840233968,-0.009171226023410646,0.006513450952031299,0.990308826229784
2014-09-24,-1,-0.0005018177555299618,-0.00041264481507826474,-0.009171226023410646,0.006615404029469763,0.9897023997402241
2014-09-26,-1,-0.0011368631900004682,-0.0009586417795364553,-0.006312719641601355,0.007960152974629302,0.9900800014328817
2014-09-30,-1,-0.00012893445766952525,-6.970595970102157e-05,-0.006312719641601355,0.006630075276975051,0.9905686216014808
2014-10-02,-1,-0.0009662816634386212,-0.0008175263193593218,-0.004658611148446386,0.008140962249070221,0.9908713179322564
2014-10-06,-1,-0.000453107873146057,-0.00035404420456346006,-0.004658611148446386,0.00665249277361038,0.9913894030894354
2014-10-08,-1,-0.0007099173038412939,-0.0005969815092185316,-0.002812226262735933,0.00665249277361038,0.9922029988252453
2014-10-10,-1,-0.0026003095896862884,-0.002239528260117017,-0.0016420187857436664,0.008140962249070221,0.9925431326985695
2014-10-14,-1,-0.0025767869337415842,-0.00224656569162474,0.0002927363631361603,0.008247087431305842,0.9922801541582005
2014-10-16,-1,-0.0023354235809881097,-0.002051105706427787,0.0018599673690137977,0.008247087431305842,0.9922949400965345
2014-10-20,-1,-0.002040492629325445,-0.00180016174655538,0.0018599673690137977,0.008247087431305842,0.9925675863020763
2014-10-22,-1,-0.0011773494725544657,-0.0010605948053415033,0.0007845623285002993,0.008039541777890374,0.9939010923770534
2014-10-24,0,-5.393403303809299e-05,2.31804331826359e-05,-0.00037365327747903,0.007789047710690882,0.9946176397845156
2014-10-28,1,0.0005338619858510198,0.0006921222461451141,-0.00037365327747903,0.007789047710690882,0.9948961641175473
2014-10-30,1,0.0011288346853098514,0.0013706716804702912,-0.0018849677236893927,0.007789047710690882,0.9950010336300815
2014-11-03,1,0.001023509376334953,0.0012200875732253365,-0.002092149008837175,0.007789047710690882,0.9950334377603134
2014-11-05,1,0.00179296841229584,0.0021022994346906873,-0.0021581265552786185,0.006627882675115283,0.9955731683181746
2014-11-07,1,0.0021853652881663613,0.0025427533471644296,-0.0024468936428814277,0.005014120320161998,0.9949467283338944
2014-11-11,1,0.002545753081411249,0.0029642167439969435,-0.002749013569848136,0.004001066671052696,0.9943842594805063
2014-11-13,1,0.0025390904601084964,0.00293609179886036,-0.0039005854246247627,0.0030015897169718767,0.9930977215131415
2014-11-17,1,0.0022996620528775696,0.0026382888748250942,-0.0039005854246247627,0.005014120320161998,0.9927360102706573
2014-11-19,1,0.0019520013533318227,0.0022273280466040737,-0.0021581265552786185,0.008279981278729755,0.9898418023237843
2014-11-21,1,0.0019097339170749909,0.002181743131615112,-0.0020144698895237104,0.008962643578551576,0.9897561695713424
2014-11-25,1,0.002411670994751115,0.002748043383011277,-0.0020144698895237104,0.007696955174227651,0.9900531955014246
2014-11-28,1,0.002664414445518816,0.0030204935864115785,-0.0025159762119077427,0.006560958157362349,0.9900409686434327
2014-12-02,1,0.0022395884973335656,0.002512423970735157,-0.004761344550446902,0.006560958157362349,0.9897121945782245
2014-12-04,1,0.0022045009577196305,0.0024574531167205387,-0.00852087860508835,0.003824718691937999,0.9888019779472446
2014-12-08,1,0.001497333848093425,0.001650468266201661,-0.007437059120961988,0.007696955174227651,0.9885144840646419
2014-12-10,1,0.001045391834627009,0.0011512389519577836,-0.005750226467089108,0.009458026313876416,0.9886899619193312
2014-12-12,1,0.0004062518592025162,0.0004475731195976999,-0.004049800044026752,0.009458026313876416,0.9896431950100993
2014-12-16,1,0.0007522773517670514,0.0008326901802783622,-0.006956482553957009,0.007696955174227651,0.9892438298955691
2014-12-18,1,0.0036622412894195093,0.004129141991436055,-0.006956482553957009,0.004531881181255864,0.9916802683336498
2014-12-22,1,0.003777952616415405,0.004219357399457825,-0.006956482553957009,0.0028678535668452505,0.9911864777588927
2014-12-24,1,0.003718823276563696,0.004147302735740873,-0.006956482553957009,0.00040100139582266675,0.9909146151820913
2014-12-29,1,0.002735805849292069,0.0029898803658908856,-0.007849177307006995,5.932079327242569e-05,0.9892301861885723
2014-12-31,1,0.0023422871679935316,0.0025668786612865033,-0.008332063801782301,0.004722776263670544,0.9886630284359559
2015-01-05,1,0.0013781848828208496,0.0014622713009046675,-0.006956482553957009,0.013641608140313807,0.9881352453546861
2015-01-07,1,0.0019675437264643288,0.002141050009654762,-0.006665426392278263,0.01298628169890684,0.9884788208266725
2015-01-09,1,0.0024616000908066456,0.00270979250227231,-0.007393694588788445,0.00935904269382046,0.9883376360533275
2015-01-13,1,0.0024759104355928066,0.0027375010649769607,-0.007393694588788445,0.00935904269382046,0.9885031658907155
2015-01-15,1,0.0017453369116400604,0.00190853515752633,-0.004362013180580661,0.01286953810198868,0.9889448836070357
2015-01-20,1,0.0020945415172132628,0.0023294447974997663,-0.0057420973198491045,0.01286953810198868,0.9890760047099689
2015-01-22,1,0.0021977143254465663,0.002426269818700737,-0.0057420973198491045,0.010256264522181402,0.9895013857487301
2015-01-26,1,0.0019425255546282722,0.002135613630101301,-0.0057420973198491045,0.010256264522181402,0.9898326769632246
2015-01-28,1,8.136556138191902e-05,0.00011518065473604176,-0.003387666312768118,0.010256264522181402,0.9917049428935726
2015-01-30,-1,-0.00013004217176980313,-6.910550280014231e-05,-0.003070362278740662,0.010237969429465501,0.9925554850496485
2015-02-03,1,0.0013728326413688723,0.0014856986189967646,-0.003387666312768118,0.00573490647829472,0.9948158192626987
2015-02-05,1,0.0014432920327807474,0.0015558205077602968,-0.003387666312768118,0.00573490647829472,0.9944151747918447
2015-02-09,1,0.0006667672461518682,0.0006822217860006372,-0.003070362278740662,0.00573490647829472,0.9934759799837123
2015-02-11,1,0.0008994217943498707,0.0009192906914832899,-0.0034156387090938274,0.008241151108380073,0.9923485562407712
2015-02-13,1,0.0012065554302303034,0.0012292515545688268,-0.003732056305828367,0.004666833513291729,0.9924824247009355
2015-02-18,1,0.0011510667811752123,0.0011889800402988364,-0.0034156387090938274,0.010003504258180421,0.9916387009484862
2015-02-20,1,0.0012223839006030913,0.0012384524852820304,-0.003732056305828367,0.012011724126388101,0.9909790352347131
2015-02-24,1,0.0016677819451825344,0.0017933323063501335,-0.004840599417975665,0.012011724126388101,0.989717092438196
2015-02-26,1,0.0008350642324470725,0.0008653935714019586,-0.009458920576183576,0.012598284801622985,0.9864011575628165
2015-03-02,1,0.0012185823577233199,0.0012745236588484145,-0.009458920576183576,0.012011724126388101,0.9867362315336969
2015-03-04,1,0.0007862547911997503,0.0008061263917750809,-0.009458920576183576,0.012011724126388101,0.9865063213628488
2015-03-06,-1,-0.00019981009163747986,-3.747006001549426e-06,-0.007833051980012325,0.012452544176828204,0.9869253572403032
2015-03-10,-1,-0.0014831971397844632,-0.0011169755194577172,-0.007833051980012325,0.012452544176828204,0.9874920412994679
2015-03-12,-1,-0.0015657522490852027,-0.0011869968832755428,-0.007833051980012325,0.008445361749962542,0.9883257767774776
2015-03-16,-1,-0.0014058136226397626,-0.0010441844489007452,-0.008146101757967589,0.006798909046389378,0.9883112582346014
2015-03-18,-1,-0.0005571105893973622,-0.00031138317691027683,-0.008146101757967589,0.005488897406146166,0.9892504754495568
2015-03-20,-1,-0.0002976117635566525,-9.604986007286402e-05,-0.009295814862387213,0.005488897406146166,0.9889910601883672
2015-03-24,-1,-0.0009092887885149465,-0.0006541624789331362,-0.007841049027917307,0.005488897406146166,0.9898480043199702
2015-03-26,1,0.0009677879852232967,0.000983629239153271,-0.005449424648220328,0.0049719737463099455,0.9932326793566039
2015-03-30,1,0.0009686902059587718,0.0009821872473157029,-0.005449424648220328,0.005351272312084762,0.9931627960187653
2015-04-01,1,0.0008808639740097543,0.0008816121941269952,-0.008158785600966344,0.005351272312084762,0.9926681126678013
2015-04-06,1,0.0015703445466390652,0.0016777467573215444,-0.008158785600966344,0.005454375704512426,0.992965080962095
2015-04-08,1,0.0013622606483636405,0.0014470802304397447,-0.008158785600966344,0.004296018657916088,0.9930494141861422
2015-04-10,1,0.0012394224760261903,0.0013116372381288455,-0.007244318849860156,0.007195214699379967,0.9922326953881658
2015-04-14,1,0.0009041021385225654,0.0009334265940807318,-0.006344114036978013,0.007195214699379967,0.9926039321730467
2015-04-16,1,0.000668478293089126,0.000691476081352243,-0.006344114036978013,0.008128631754851921,0.9920766278933917
2015-04-20,1,0.00039121960969384564,0.0004425748055632547,-0.005052891312527634,0.007195214699379967,0.9931788375436448
2015-04-22,1,0.0006011172502419488,0.0006087667174891232,-0.005052891312527634,0.007195214699379967,0.9932721198159781
2015-04-24,1,0.0007097767651407055,0.00073226177671324,-0.004944362144009833,0.007195214699379967,0.9933585034306689
2015-04-28,1,0.000872253425435715,0.0009059135549539192,-0.004944362144009833,0.0072233364747893575,0.9933111626364847
2015-04-30,1,0.00029158785178335067,0.0003260647173292157,-0.003470308648834943,0.0072233364747893575,0.9938041683834984
2015-05-04,1,0.0005040659401359523,0.0005395733069598509,-0.003470308648834943,0.0031774067384948337,0.9946164634649494
2015-05-06,-1,-0.00035889625945162727,-0.00019804875274324793,-0.002932817705504921,0.0050882930444797365,0.9944702810921365
2015-05-08,1,7.009856901774345e-05,0.00021746519125228974,-0.00478926582952223,0.001852603346981468,0.9954477965461717
2015-05-12,0,-2.7313379762394438e-05,0.00011759703197484301,-0.003470308648834943,0.0031774067384948337,0.9949035840286838
2015-05-14,1,0.0015582408124933805,0.0017382865539325822,-0.00478926582952223,0.002381467083550744,0.9949167222855141
2015-05-18,1,0.001845920962678058,0.0020866903332679826,-0.00478926582952223,0.002381467083550744,0.994363537075135
2015-05-20,1,0.0017121908735814838,0.0019354848185817101,-0.00478926582952223,0.003976303602368807,0.994703289044734
2015-05-22,1,0.0013542782724867528,0.0015142693142170865,-0.0038005481074704444,0.004795089585483386,0.994272602702379
2015-05-27,1,0.0012227810234812285,0.001341405357588441,-0.005045360046837123,0.003976303602368807,0.994188654863235
2015-05-29,1,0.0006181925906710711,0.0006213301260209902,-0.004840225626941568,0.004795089585483386,0.9934765630358554
2015-06-02,1,0.0007741771487614105,0.0008178544823345958,-0.005045360046837123,0.004795089585483386,0.9923790625318962
2015-06-04,1,0.0007920378324499886,0.0008569629086222358,-0.005045360046837123,0.005483152649672233,0.992237667069909
2015-06-08,1,0.00046095583449114576,0.00048028799528490335,-0.003792722466498907,0.010431394888382909,0.9921847226723235
2015-06-10,1,0.0006155093616976847,0.0006244702289120701,-0.004840225626941568,0.005483152649672233,0.9924463593996501
2015-06-12,1,0.0005005440415649169,0.0005011925459717573,-0.003792722466498907,0.011209269100205244,0.9917113075370804
2015-06-16,1,0.0007167262542010608,0.0007572108126957753,-0.004840225626941568,0.011209269100205244,0.9919022147331559
2015-06-18,1,0.0007382744957967165,0.0007721136749123156,-0.005525242362367062,0.013360950919318612,0.9909286687723106
2015-06-22,1,0.0001508198190188735,0.00026369599519877337,-0.005525242362367062,0.011209269100205244,0.9916327003995082
2015-06-24,-1,-0.00028246729129359786,-0.00010498733253547617,-0.005479937638839484,0.013360950919318612,0.9910074061078066
2015-06-26,1,0.0006738024915308254,0.0006756096568376601,-0.007742832270816454,0.011209269100205244,0.9911761932974958
2015-06-30,1,7.961273370165215e-05,0.00014472378702856678,-0.007510729665437778,0.013018610746682025,0.9913613463960719
2015-07-02,0,-5.681408581568716e-05,4.344736102473382e-05,-0.004384766858664971,0.0111401857931244,0.9920386304403381
2015-07-07,1,0.0003229791572573235,0.0003729670192390962,-0.004384766858664971,0.008239498250554136,0.9926914039505691
2015-07-09,1,0.0003050345141266956,0.0003320686425933751,-0.004384766858664971,0.010466422180333782,0.9920904097846709
2015-07-13,1,0.0008723234579891739,0.0009070722303025927,-0.004384766858664971,0.008215948340343572,0.9927213125952888
2015-07-15,1,0.0008086291951974977,0.0008477073339694177,-0.004384766858664971,0.008215948340343572,0.9923294423106702
2015-07-17,1,0.0009097070083723505,0.0009642739459055422,-0.0033728005757344085,0.006524079822657334,0.9933434874291862
2015-07-21,1,0.0007290756932079239,0.0007478257472624077,-0.0006979367402454959,0.006524079822657334,0.9933846757873126
2015-07-23,1,0.0012486591192976428,0.00134612016672199,-0.008165348042501137,0.004839418637851164,0.9924400301402175
2015-07-27,1,0.0007984819037285839,0.0008118276537115133,-0.010498317272552585,0.004839418637851164,0.9897080606185561
2015-07-29,1,0.0009312173962430097,0.0009796981138231642,-0.010498317272552585,0.003849978305478674,0.9888268371947553
2015-07-31,1,0.0006095376651630603,0.0006406362112852017,-0.010498317272552585,0.004306025306959283,0.988716196643284
2015-08-04,1,0.0005903194769477086,0.0006282906801011023,-0.015670422454226753,0.004306025306959283,0.9869176397492179
2015-08-06,1,0.0004780929716143049,0.0005189817359947464,-0.015670422454226753,0.006470701388809933,0.9864055551286948
2015-08-10,1,0.0010150207438709806,0.0010717189274901014,-0.015670422454226753,0.004569167053476222,0.9852883251183279
2015-08-12,1,0.0007492378327325457,0.0007727939100776589,-0.016476922491638755,0.008569102970217651,0.9847085408511764
2015-08-14,1,0.0002988851253662093,0.0003563067446376261,-0.016476922491638755,0.008569102970217651,0.9843026316389165
2015-08-18,1,0.001012412553740725,0.0010984062673798016,-0.016476922491638755,0.012748282793069454,0.9832907171205887
2015-08-20,1,0.00014508153915508795,0.00017046055358940228,-0.013218126991609895,0.012748282793069454,0.9843840266291882
2015-08-24,-1,-0.0017755109537816562,-0.0015176702873683301,-0.00900876481126635,0.012748282793069454,0.9871293065316766
2015-08-26,-1,-0.0008057243320262348,-0.0006879573661083057,-0.00900876481126635,0.010044967220290434,0.9888212577981641
2015-08-28,-1,-0.0007135835299161879,-0.0005993018199566532,-0.010165034695494589,0.010044967220290434,0.9884587385793666
2015-09-01,-1,-0.0016494592329065207,-0.0014209700960961104,-0.008524094974859751,0.012748282793069454,0.9889002005989078
2015-09-03,-1,-0.000942823750560541,-0.0007866700890196119,-0.008524094974859751,0.009333588550582902,0.9901776317097636
2015-09-08,-1,-0.0005742592236271825,-0.00046156110215363883,-0.007913246821395182,0.009333588550582902,0.9910129292915079
2015-09-10,-1,-0.000799236771023952,-0.000649552505921656,-0.005189206045685374,0.009996515442354257,0.9907248462532862
2015-09-14,-1,-0.0009276541858910552,-0.000761094606871577,-0.002729022912511772,0.009996515442354257,0.9911731205523471
2015-09-16,-1,-0.00032916898876888666,-0.0002313250678734575,-0.007913246821395182,0.009333588550582902,0.9913149384741521
2015-09-18,-1,-0.0005684400966236009,-0.00045526930051117194,-0.0035730358584202225,0.009333588550582902,0.9915808612957069
2015-09-22,-1,-0.0008489353012103084,-0.0006794723853824721,-0.0014994243351396425,0.007617901054257007,0.9921212822883507
2015-09-24,-1,-0.0005859303126087825,-0.0004684748382138358,-0.003765037796404679,0.009996515442354257,0.9899445801131345
2015-09-28,-1,-0.001424827510283362,-0.0011843757668689317,-0.0012029558296449852,0.011868778269538994,0.9897634138499263
2015-09-30,-1,-0.0003014856942827014,-0.00023193610313239664,-0.0012029558296449852,0.011868778269538994,0.9904491777430042
2015-10-02,-1,-0.00010368149933195385,-4.976292435149727e-05,-0.0033796399252066776,0.011868778269538994,0.9899316974542695
2015-10-06,1,0.0006199944504537618,0.0006764783896731602,-0.003758297162452158,0.007963899179653029,0.9907760817805732
2015-10-08,1,0.0014470629134042028,0.0016181438636897359,-0.007051210249975099,0.0036244210164474234,0.9915876553684076
2015-10-12,1,0.0013452992309229148,0.0014943160737954802,-0.007816755503950916,0.0036244210164474234,0.9911389481092737
2015-10-14,1,0.0006089626564278037,0.0006484242810282614,-0.004764517982394085,0.0036244210164474234,0.9926020443415333
2015-10-16,1,0.0007444565424109697,0.0008055281269649554,-0.007376766116979856,0.0022559070164944197,0.991992719820069
2015-10-20,1,0.0007164084430138544,0.0007595124137054334,-0.007376766116979856,0.0022915525522622304,0.9906071357912227
2015-10-22,1,0.0014068905969677544,0.0015432178650180272,-0.007051210249975099,0.0022915525522622304,0.9916887186172663
2015-10-26,1,0.0016291275572809616,0.0017845947826868522,-0.007051210249975099,0.0022915525522622304,0.9919462352137894
2015-10-28,1,0.0017659351330609348,0.0019171263821549525,-0.007051210249975099,0.0006670386215485912,0.9922474284768705
2015-10-30,1,0.0013291022778811432,0.0014465985967723003,-0.0047982419829705174,0.0021990507174743205,0.993478038157332
2015-11-03,1,0.0012076027471003324,0.001299326259714142,-0.005135928297981032,0.0021990507174743205,0.9931717954741931
2015-11-05,1,0.0009288365144243131,0.0009896145055554363,-0.005135928297981032,0.0041289602555298465,0.9916987320543943
2015-11-09,1,0.00067861860951601,0.0007113891960558574,-0.004656310996038712,0.0041289602555298465,0.9922394186307718
2015-11-11,1,0.0008447470625628935,0.0009172865933129846,-0.005135928297981032,0.0041289602555298465,0.9914045894800763
2015-11-13,1,0.00018370598561914038,0.0002097819305443237,-0.004656310996038712,0.006945638985023472,0.9909753963375978
2015-11-17,1,0.0011082854127342006,0.0012173751576845635,-0.004656310996038712,0.006945638985023472,0.9912229815667699
2015-11-19,1,0.0009645774979062641,0.0010156860538569977,-0.006965529465806249,0.004146500157859509,0.9888719930374761
2015-11-23,1,0.0010796867006809662,0.0011525977103530012,-0.006965529465806249,0.007729168106761222,0.988467892769833
2015-11-25,1,0.0010045714895917418,0.001086360316870065,-0.006965529465806249,0.007729168106761222,0.9885180028336414
2015-11-30,1,0.0008276360337041574,0.0008684552950594651,-0.006965529465806249,0.00888200239038588,0.9881180354971849
2015-12-02,1,0.0012345068807557442,0.0013699611386381295,-0.012855403217666768,0.008123985062018436,0.9879473424135334
2015-12-04,1,0.0014688816745863057,0.0016236860055972979,-0.012855403217666768,0.006639719659488014,0.9886702886965634
2015-12-08,1,0.0014206504376199417,0.0015751182462658594,-0.013378767416314951,0.006639719659488014,0.9872266633950018
2015-12-10,1,0.0010182990081238623,0.0011168077177478592,-0.012855403217666768,0.008123985062018436,0.9870807233275509
2015-12-14,1,0.0009665112236649449,0.0010870898316165485,-0.012855403217666768,0.008207189160468338,0.9869059141283293
2015-12-16,1,0.0012507563552987561,0.0013779118309377842,-0.013991348687211913,0.008207189160468338,0.9854913931823088
2015-12-18,-1,-0.00011143611820099147,-9.096990122241244e-05,-0.01396662597480136,0.010421668227032168,0.9866394704741893
2015-12-22,1,0.00036009959919245434,0.0004075353981590592,-0.01396662597480136,0.010845120878845142,0.9851536272132498
2015-12-24,1,0.00048396426602284755,0.0005512152063414837,-0.01396662597480136,0.010845120878845142,0.984943107011208
2015-12-29,1,0.0006688921123372189,0.0007562272300104169,-0.01396662597480136,0.01061282969838802,0.9847795885074928
2015-12-31,1,0.0007216831663362285,0.0008423725602625704,-0.011592297087673759,0.012723072849772088,0.984240840839765
2016-01-05,1,0.00011996608464876446,0.00014302179967665,-0.01675661466461311,0.012723072849772088,0.9837445337930005
2016-01-07,-1,-0.0006589986366650644,-0.000585161054707785,-0.01675661466461311,0.012723072849772088,0.9832293895126015
2016-01-11,-1,-0.0006118937508247815,-0.0005499536401689958,-0.019526665877279196,0.012723072849772088,0.9814628047278748
2016-01-13,-1,-0.001122584978556327,-0.0009547414915324929,-0.019526665877279196,0.009898984391709532,0.9824012413935265
2016-01-15,-1,-0.002451287559526957,-0.00202589455238563,-0.017027232744348902,0.011636802277060567,0.9831611352089611
2016-01-20,-1,-0.0021637644172601603,-0.0018030445036991587,-0.010351309047547452,0.011636802277060567,0.9839756902412251
2016-01-22,-1,-0.0011830666990085134,-0.0009454147186037008,-0.010351309047547452,0.011636802277060567,0.9852358797027956
2016-01-26,-1,-0.0018337707098218237,-0.0014651137199961136,-0.010351309047547452,0.011636802277060567,0.9855602554925098
2016-01-28,-1,-0.0011781967318353701,-0.0009306585259173861,-0.010351309047547452,0.01361014185322809,0.9854894679660673
2016-02-01,-1,-0.00010816521745902688,-2.8230666307706674e-06,-0.01052035128858497,0.01361014185322809,0.9850707067204257
2016-02-03,-1,-0.0014072442702521644,-0.0011445385355197243,-0.007797196783897143,0.01361014185322809,0.9864876604911211
2016-02-05,-1,-0.0024008083503816073,-0.002016559802733909,-0.007578813220182239,0.01361014185322809,0.9879013597174928
2016-02-09,-1,-0.003641958301571155,-0.0031486501207243596,-0.005455676605307278,0.01361014185322809,0.9893779954024702
2016-02-11,-1,-0.0038861408571456294,-0.003343616984030886,-0.00198988533023965,0.013783255701854645,0.9887292496415173
2016-02-16,-1,-0.002763702432876698,-0.0023541779030587084,-0.00198988533023965,0.009116004664680898,0.9903610434100498
2016-02-18,-1,-0.0022774743598590634,-0.0019250264373296072,0.0007719149510705928,0.007954563933450527,0.9909627461758111
2016-02-22,-1,-0.0020874347319212025,-0.0017290952744722964,-0.002496511510420533,0.007190843427821692,0.9916606670030675
2016-02-24,-1,-0.0019385648325781941,-0.0016310838925823416,-0.0019451670935468435,0.007190843427821692,0.9919228314160905
2016-02-26,-1,-0.001332902618089485,-0.001109537232558429,-0.0019451670935468435,0.007190843427821692,0.9899430906563474
2016-03-01,-1,-0.00023124506260705806,-0.00016744591429305615,-0.0012471850598294453,0.007190843427821692,0.9916271039350624
2016-03-03,1,0.00015601242663624285,0.0001924433138858577,-8.933336688231536e-05,0.007758686362382474,0.99180258453679
2016-03-07,1,6.249107076730697e-05,8.758978589131248e-05,-0.0012471850598294453,0.007758686362382474,0.9913543012908753
2016-03-09,-1,-7.521283321669276e-05,-4.3655321875498614e-05,-0.0019451670935468435,0.007348684356365584,0.9904572986872457
2016-03-11,1,0.0006230374236730286,0.0006883799494858431,-0.0019451670935468435,0.00664759866319794,0.991290257336288
2016-03-15,1,0.0010111303114215416,0.0011338379303208871,-0.0019451670935468435,0.006942106927080796,0.9912298623143204
2016-03-17,1,0.0017112970680012369,0.001972555614462683,-0.0021327988738525224,0.005365231023912262,0.9916363399743455
2016-03-21,1,0.001812868551175243,0.0021102700261869493,-0.0021327988738525224,0.006560584524054247,0.9916406722437512
2016-03-23,1,0.0019137403341736475,0.0022506195030544567,-0.0024298114627644093,0.006560584524054247,0.991444066301966
2016-03-28,1,0.0031500108265718014,0.0036109740738248155,-0.0043367483820131265,0.005365231023912262,0.9940002312349754
2016-03-30,1,0.0033780713747270427,0.0038682098025663906,-0.0043367483820131265,0.005365231023912262,0.9941611766852101
2016-04-01,1,0.003358136025484326,0.0038240057344001554,-0.007772720630609854,0.004794328652251849,0.9930832079286401
2016-04-05,1,0.0026073680445702183,0.002952284620578117,-0.005765836786943245,0.005365231023912262,0.9932872132186064
2016-04-07,1,0.00210000606381304,0.0023782419707244766,-0.0043367483820131265,0.005365231023912262,0.9945116722869816
2016-04-11,1,0.0020039130665969033,0.0022359548281703965,-0.0043367483820131265,0.005413742694530164,0.9940385189785333
2016-04-13,1,0.0027757626342725106,0.003156432098531542,-0.005524596636487843,0.005177182229107003,0.9935151823114955
2016-04-15,1,0.0028098306000884764,0.003207602276525969,-0.007982193505754841,0.005177182229107003,0.9933266478706976
2016-04-19,1,0.0028973602681629487,0.0033127072157857727,-0.008006239656302743,0.005398398488461447,0.9927440642690357
2016-04-21,1,0.002599228638849373,0.0029613857533001744,-0.007914496683959363,0.005398398488461447,0.9930296209590747
2016-04-25,1,0.002464961178918131,0.002808779353100953,-0.007914496683959363,0.005398398488461447,0.9931677931297956
2016-04-27,1,0.0028018537347130924,0.0031936247260161777,-0.007914496683959363,0.006683299797201635,0.9919672841292779
2016-04-29,1,0.0023108746956485835,0.0026584722908692647,-0.0043502233233775256,0.006683299797201635,0.9931081982638101
2016-05-03,1,0.0023286477012959307,0.0026738827967443908,-0.0029187566582131253,0.004523856264178094,0.9940088188408176
2016-05-05,1,0.002286022939395063,0.002604078746909191,-0.0031898382253671897,0.003963098572333598,0.993830056292589
2016-05-09,1,0.0023793110828985516,0.0026883099956191044,-0.0031898382253671897,0.003963098572333598,0.9942052566850187
2016-05-11,1,0.0028551859029331142,0.003266242138307184,-0.0027813850454054506,0.0034053383473504856,0.9947283916272095
2016-05-13,1,0.0016568497293226302,0.0017957670084740454,-0.0031898382253671897,0.0028839898704951477,0.9944376518090454
2016-05-17,1,0.001997836965795081,0.0022067593590499607,-0.0031898382253671897,0.0028839898704951477,0.9947654115381248
2016-05-19,1,0.001932382955197622,0.002135832358352153,-0.0033347931151166844,0.003963098572333598,0.9944624870689842
2016-05-23,1,0.0020065549785262273,0.0022336769585309417,-0.0033347931151166844,0.004828790776676639,0.9941871742823779
2016-05-25,1,0.0023159159135519043,0.0025675837206236432,-0.0029758348673930603,0.003512925472848459,0.9951255487973116
2016-05-27,1,0.0018948540999586098,0.002056569838080749,-0.005607387803105106,0.0022474093298641275,0.9912964771208854
2016-06-01,1,0.001361864484761283,0.001397063750646778,-0.005607387803105106,0.006224749466281885,0.9906282394468832
2016-06-03,1,0.0011848045580335894,0.0011924577861768596,-0.005607387803105106,0.0075845140167705065,0.9902323466910264
2016-06-07,1,0.001187472642055517,0.0011931927271759298,-0.005607387803105106,0.0075845140167705065,0.9901358864334213
2016-06-09,1,0.0010778244440322713,0.001101571876360822,-0.006433933977290269,0.009183368963775331,0.9889469386321044
2016-06-13,1,0.0002700129714794879,0.0004045635426348238,-0.0041297269782189835,0.009469061517231165,0.9894493207037328
2016-06-15,1,0.0008349739312915705,0.0008602019771326759,-0.003436884392078241,0.009469061517231165,0.9900192536505895
2016-06-17,1,0.0007648833552397595,0.0007985100999007482,-0.004580677993235265,0.009469061517231165,0.9894821767574127
2016-06-21,1,0.0012155899850787065,0.001240543662990028,-0.006865402499299293,0.009469061517231165,0.9889457394215907
2016-06-23,1,0.0014642026032995826,0.0015730120027081613,-0.00748114154740705,0.009469061517231165,0.9878247911850021
2016-06-27,-1,-0.0020962081750414887,-0.0017095404582889607,-0.004461347398473098,0.010606825790262741,0.9905049640103422
2016-06-29,-1,-0.001886339174367248,-0.001486895993149405,-0.006865402499299293,0.005589350748877557,0.9911146048270317
2016-07-01,-1,-0.0026945935072685777,-0.0021033074592701775,-0.006865402499299293,0.004965778288805343,0.9914917485282282
2016-07-06,-1,-0.002978741106249276,-0.002339639573739537,-0.006865402499299293,0.006613135997496325,0.9912328117427326
2016-07-08,-1,-0.001960778097409138,-0.00149570819192262,-0.005296725232445635,0.006613135997496325,0.9922173133034018
2016-07-12,-1,-0.0014116890381643816,-0.0010326365891653317,-0.007284970213037685,0.004965778288805343,0.992494935062912
2016-07-14,-1,-0.0011588004933585363,-0.0008323812837156032,-0.007284970213037685,0.004965778288805343,0.9924052974967418
2016-07-18,-1,-0.0021967879696132364,-0.0017334271767426536,-0.005296725232445635,0.0054104713944298135,0.9927873529637753
2016-07-20,-1,-0.0016418900659700825,-0.0012651257099386452,-0.004974633148730576,0.004598213211106577,0.9938884336996001
2016-07-22,-1,-0.002064139677115249,-0.0016684734758291384,-0.004894192533667509,0.005339822343564753,0.9947561230091445
2016-07-26,-1,-0.0018885814510005475,-0.00150044447731205,-0.004894192533667509,0.006243027475958358,0.994357689141262
2016-07-28,-1,-0.0027246124664683626,-0.0022277601855614547,-0.0036651516872425703,0.006243027475958358,0.9942686441323297
2016-08-01,-1,-0.0024006899233539407,-0.0019540999001320678,-0.0036651516872425703,0.005339822343564753,0.9947302473632401
2016-08-03,-1,-0.0018775418162893492,-0.00152210242942115,-0.0036651516872425703,0.004525855050947591,0.9949609222851397
2016-08-05,-1,-0.0014014172569453746,-0.001120744935247876,-0.0036651516872425703,0.004525855050947591,0.995157470342495
2016-08-09,-1,-0.0016876738668024011,-0.0013938911841823423,-0.0030352181335884373,0.004525855050947591,0.995623377600725
2016-08-11,-1,-0.0016857777765678659,-0.0013835656745620375,-0.0036651516872425703,0.004525855050947591,0.9941083017323418
2016-08-15,-1,-0.001774481383763881,-0.0014527526688989968,-0.005216381724487689,0.004568809412680156,0.9924890908801294
2016-08-17,-1,-0.0007346965042341657,-0.0006315176183881411,-0.005503081625068591,0.0054686854287624475,0.9918852008411543
2016-08-19,-1,-0.0004870885552947313,-0.0004287241487669841,-0.006850062616590715,0.005321678884995152,0.9917703756016302
2016-08-23,1,0.00027161748796858994,0.0003198991821007413,-0.006850062616590715,0.004568809412680156,0.9922846008335241
2016-08-25,-1,-0.00013019603810057793,-9.918155313759498e-05,-0.005412391668329135,0.005321678884995152,0.99175508670064
2016-08-29,-1,-0.0004962455423817263,-0.0003974532904725744,-0.005412391668329135,0.006339167237520582,0.9906486408935584
2016-08-31,-1,-0.00034266237546017573,-0.0002722940616273668,-0.005412391668329135,0.008542496302750828,0.9886642302181694
2016-09-02,1,9.284476439946305e-05,9.741673993665579e-05,-0.006850062616590715,0.008542496302750828,0.9882447526496858
2016-09-07,-1,-6.234072992394987e-05,-4.621090951252275e-05,-0.008370741597660316,0.008542496302750828,0.9873940705491828
2016-09-09,-1,-0.0011717387855356813,-0.0010300036691564295,-0.006850062616590715,0.008542496302750828,0.9880194031630043
2016-09-13,-1,-0.0012025341638221224,-0.0010505755032843653,-0.005412391668329135,0.008542496302750828,0.9892133447583523
2016-09-15,-1,-0.0011769735846588047,-0.001024338301643755,-0.004382466348234442,0.006502809775470914,0.9893654590934413
2016-09-19,-1,-0.001004092689268531,-0.000888828343992114,-0.004382466348234442,0.006502809775470914,0.9894196774908591
2016-09-21,-1,-0.0010319699289678705,-0.0008843121416703191,-0.0052715166450195755,0.005699311122070406,0.9894784661911867
2016-09-23,-1,-0.0006228607182240445,-0.0005276556797834517,-0.006178579404342037,0.00558256298914376,0.9902134292798342
2016-09-27,1,0.00021213063192767698,0.00022472463936092842,-0.006178579404342037,0.004387276356213398,0.9912603702869841
2016-09-29,1,0.0015028149657615912,0.0017033294717924705,-0.006178579404342037,0.0030083081800584997,0.9933993668391956
2016-10-03,1,0.001356803754421012,0.0015431643020166908,-0.004942934673341895,0.0030083081800584997,0.9939893529616375
2016-10-05,1,0.0007440440279023779,0.0008416408612487966,-0.004272939024341882,0.00435640726279591,0.99403845805406
2016-10-07,1,0.00036564183786970335,0.00042291294450493396,-0.004272939024341882,0.00435640726279591,0.9943487012345729
2016-10-11,1,0.0005431073103443405,0.0006210592375174301,-0.004117127806985972,0.00435640726279591,0.9939851008010366
2016-10-13,1,0.0007434226629647229,0.0008488329352509102,-0.004942934673341895,0.003027632637385205,0.9920393867601387
2016-10-17,1,0.0007394394838516358,0.0008729086484728396,-0.006178579404342037,0.003027632637385205,0.9913481431528361
2016-10-19,1,0.00079065523301774,0.000936298892473788,-0.007332747280117088,0.003027632637385205,0.9908403052938013
2016-10-21,1,0.0005684594081425208,0.0006864035357599611,-0.005821949897957376,0.005933333664670392,0.9910152298449166
2016-10-25,1,0.0005107085804053296,0.0006205625569590428,-0.003642589112614507,0.00935111954228224,0.9907247437289624
2016-10-27,1,0.0006482143449172483,0.0007860647046541131,-0.003642589112614507,0.00935111954228224,0.9903649248943875
2016-10-31,1,0.0008008624305268349,0.0009569386438671881,-0.003642589112614507,0.00935111954228224,0.9905706370102615
2016-11-02,1,0.0010404964408688407,0.0011998866221072275,-0.01118110201372327,0.007996103186267057,0.990207691772512
2016-11-04,1,0.0008023145054437042,0.0009347276665713767,-0.009854369701959674,0.007996103186267057,0.9906884306742763
2016-11-08,1,0.0013282468731835595,0.0015312159459845954,-0.009854369701959674,0.007996103186267057,0.9904260529878712
2016-11-10,1,0.0016912134806499563,0.0019664208202985374,-0.004747773994471004,0.007996103186267057,0.9922380690152114
2016-11-14,1,0.0009976015948485485,0.0011744226394868292,-0.000293513940343006,0.00935111954228224,0.9928320399507792
2016-11-16,-1,-0.00021295176516965937,-0.00010762164651278636,-0.000293513940343006,0.007996103186267057,0.9923715602174443
2016-11-18,1,0.00043822028489696254,0.0004409670256485544,-0.0020394924516967824,0.007378508090684004,0.9921497305332106
2016-11-22,1,0.0008589636626829377,0.0009430295546441257,-0.005469714370657142,0.006215695280427299,0.9902915080199447
2016-11-25,1,0.00095564975187116,0.0010544326117963789,-0.005469714370657142,0.0054287705961420215,0.9904772479685588
2016-11-29,1,0.0011197259586359775,0.0012591943977445308,-0.009108669686118481,0.0054287705961420215,0.9901022722748106
2016-12-01,1,0.0005918422994736655,0.0006781799851964729,-0.002760005543068356,0.0054287705961420215,0.9913190750396257
2016-12-05,1,0.0006242349054123677,0.0007178780978426807,-0.0034038673388870917,0.0054287705961420215,0.9912652468368213
2016-12-07,1,0.0010864711983265684,0.001206762141630987,-0.006289247826163266,0.004050601134976444,0.9915528458250303
2016-12-09,1,0.0015448039900630786,0.001740404812312089,-0.008791966792937578,0.0034825078992232355,0.9914436442921424
2016-12-13,1,0.0015666503252615197,0.0017297483989208622,-0.008791966792937578,0.0034825078992232355,0.9914947714790315
2016-12-15,1,0.0014854611487274128,0.001653242223814157,-0.007899100096637014,0.0034825078992232355,0.9916806029077095
2016-12-19,1,0.0009849333904753089,0.00105708677043142,-0.006256741940319471,0.0026607490354791617,0.9923418001478007
2016-12-21,-1,-0.00013174969164280866,-7.183091762439365e-05,-0.00434074885291949,0.0013701958447330438,0.9949067748487533
2016-12-23,-1,-0.00016743857174057871,-0.00010991943889615067,-0.00434074885291949,0.004875845464308254,0.9938854363972127
2016-12-28,-1,-0.0002558736997804041,-0.00019862543580931297,-0.005182307262614386,0.004875845464308254,0.9933960168480077
2016-12-30,-1,-0.0004050134366592467,-0.00031021316899755954,-0.0063389072405958145,0.004106343888473965,0.9930796680489039
2017-01-04,-1,-0.0004547531258093219,-0.00035888385102489015,-0.0063389072405958145,0.005151847829026856,0.9930222482237951
2017-01-06,-1,-0.0005460221222147147,-0.0004411191228771888,-0.00590755726183647,0.004718627138335587,0.9938513853417354
2017-01-10,-1,-0.000947398042817908,-0.0007873562548164314,-0.00520130495177451,0.007912967951218855,0.9935913365574089
2017-01-12,-1,-0.0007963522034690875,-0.0006541757484444654,-0.00520130495177451,0.007949259935602419,0.9931600066822177
2017-01-17,-1,-0.00041789364899724973,-0.00034676708607176776,-0.0044210347949186265,0.00865321145841408,0.9929065060426916
2017-01-19,-1,-0.0006094512015576742,-0.0005108895321703252,-0.0044210347949186265,0.00865321145841408,0.9927552755728986
2017-01-23,-1,-0.0007981865837209232,-0.0006753087939500582,-0.0044210347949186265,0.00865321145841408,0.9923306889485792
2017-01-25,-1,-0.00016311740101086338,-0.00011537958343205046,-0.0044210347949186265,0.007252237564307833,0.9934499610475586
2017-01-27,-1,-0.0005927272652462945,-0.0005017052604085815,-0.0030874877825793233,0.007548896259823879,0.9936312901605435
2017-01-31,-1,-0.0010065832845067057,-0.0008614016505919741,-0.0010279389130868361,0.00792184476602035,0.9932897062305632
2017-02-02,-1,-0.0016567913435824291,-0.0013858289972639966,-0.0010279389130868361,0.00792184476602035,0.9931292938770508
2017-02-06,-1,-0.0015441964503287308,-0.0012871896446227838,-0.0010279389130868361,0.00792184476602035,0.9931586538316786
2017-02-08,-1,-0.0012678711964390396,-0.0010445554819029461,-0.0010279389130868361,0.007416213014278857,0.9935993978021056
2017-02-10,-1,-0.0008771437805525133,-0.0006949816874394425,-0.0010279389130868361,0.007208009815792826,0.9943467295051649
2017-02-14,-1,-0.0002527127264225866,-0.00015485759382549718,-0.00137646096993445,0.0067344878519751345,0.9951902296550307
2017-02-16,1,3.839841516361161e-05,9.246582083627042e-05,-0.002580125291809352,0.007177957603636545,0.9948799519915383
2017-02-21,1,0.0006527441024266736,0.0007111013896529149,-0.0037226885451142494,0.006362144909391753,0.9951358685771727
2017-02-23,1,0.0012954795316821757,0.0015061052491764423,-0.005291092886215601,0.007212679629998716,0.9923608030462467
2017-02-27,1,0.0012267059172849652,0.0014176490949152807,-0.005634178950594834,0.006362144909391753,0.9920924435870269
2017-03-01,1,0.0011536054939049185,0.0013028699920981793,-0.005634178950594834,0.006362144909391753,0.9918599005170295
2017-03-03,1,0.0007922311846058344,0.0008667467726631461,-0.005384990491796019,0.006362144909391753,0.9916775289954898
2017-03-07,1,0.0009450927147625777,0.001049604237002901,-0.005863845348701365,0.0041066055817691955,0.9911142363669516
2017-03-09,1,0.0008514655448389238,0.0009552926955144296,-0.005863845348701365,0.0041066055817691955,0.9911515300313446
2017-03-13,1,0.000847233717740088,0.0009341971243851731,-0.005863845348701365,0.003932796839048782,0.9910577620018985
2017-03-15,1,0.0009311776489281764,0.0010274021508608676,-0.0067351212492358,0.003415937846786287,0.9904157347009264
2017-03-17,1,0.0008307869248921611,0.0008970868431502468,-0.0067351212492358,0.003415937846786287,0.9904685203182931
2017-03-21,1,0.0006387910599855947,0.0006736412660541865,-0.0064359561755092266,0.004718536090422918,0.9904622932212754
2017-03-23,-1,-0.00014660127824956082,-8.469266474735613e-05,-0.005540103247657743,0.004718536090422918,0.9925314336282911
2017-03-27,-1,-0.0003682402505027688,-0.0002880285700717867,-0.005386051618439358,0.004718536090422918,0.9931068297966884
2017-03-29,1,0.00023852355664470205,0.00025562541897550326,-0.005386051618439358,0.004718536090422918,0.9933042475027742
2017-03-31,-1,-0.0001806305498605526,-0.00013173324040059226,-0.004633844469588548,0.005572072962181288,0.9933699429155473
2017-04-04,-1,-0.00023506851293083177,-0.00020694455061360872,-0.004405787720276194,0.005572072962181288,0.9940719135627645
2017-04-06,-1,-0.00044615877056711234,-0.0003997192400658477,-0.003438443964627623,0.005872299270717765,0.9939893290517975
2017-04-10,-1,-0.0006031698504329499,-0.0005060706919873889,-0.00360726678663583,0.005872299270717765,0.9943021846269791
2017-04-12,-1,-0.0010826388353995444,-0.0009308804062663583,-0.00318667036471147,0.005872299270717765,0.994824172982533
2017-04-17,-1,-0.000888921834447359,-0.0007719482017467407,-0.0010963698687306211,0.005872299270717765,0.9948765800974801
2017-04-19,-1,-0.0004650047504635154,-0.0004089584648416663,-0.00318667036471147,0.006025936326752332,0.9941731374312835
2017-04-21,1,0.0001756763832270598,0.00021206412754499392,-0.00318667036471147,0.005061397549349611,0.99499541346639
2017-04-25,1,9.668443690200147e-05,0.00012533587904994586,-0.00318667036471147,0.006025936326752332,0.9943816748997297
2017-04-27,1,9.246866667773579e-05,0.00010218939689111585,-0.00318667036471147,0.006025936326752332,0.994562101341561
2017-05-01,1,0.00022823811221626245,0.00023495585878815812,-0.00318667036471147,0.006135501451663709,0.9944748870290084
2017-05-03,1,0.00042003923440984465,0.0004966602195201084,-0.0016545071344753214,0.006731161055465011,0.9943830771362203
2017-05-05,1,0.0008100110814271973,0.0009573027428312771,-0.0016545071344753214,0.00680057585943953,0.9944947973620445
2017-05-09,1,0.00092529334101188,0.00111007655683443,-0.0016545071344753214,0.00680057585943953,0.994635295484256
2017-05-11,1,0.0007952360634963571,0.0009533254638647169,-0.001773200922002157,0.00680057585943953,0.9944283626987045
2017-05-15,1,0.0009673596794574342,0.0011388435109485218,-0.001773200922002157,0.006611068586801754,0.9945731682767981
2017-05-17,1,0.00017614729757181702,0.00017916671328862643,-0.0017116644790153913,0.006219409090754637,0.9956057917128206
2017-05-19,1,0.00022249856885249593,0.0002248421678807553,-0.0017116644790153913,0.006219409090754637,0.9956035235493456
2017-05-23,1,0.000335050211689471,0.0003392713481581039,-0.0017116644790153913,0.00576590873306272,0.9958649553553165
2017-05-25,1,0.000488387372352994,0.0005231412836414019,-0.0017904261931095556,0.005468615971251597,0.99425069619607
2017-05-30,1,0.0005351436095521228,0.0005695569330219391,-0.002174782386183633,0.0047894953421119425,0.9944272533893684
2017-06-01,1,0.0006920652394926878,0.0007415441477278974,-0.002831218288118621,0.004275151821718927,0.9940758027834193
2017-06-05,1,0.0007235549781895729,0.0007608287474575586,-0.002831218288118621,0.004275151821718927,0.994202511024725
2017-06-07,1,0.0007328343248844834,0.0007771146651721516,-0.003066836609066899,0.004275151821718927,0.9939010682128471
2017-06-09,1,0.0005755358133451502,0.0005997028434097606,-0.0021114007589843153,0.0047894953421119425,0.9936473700300845
2017-06-13,1,0.0006794675721811185,0.0007086500910417595,-0.0021114007589843153,0.0047894953421119425,0.9933629027234542
2017-06-15,1,0.0005358884844766552,0.0005369363141328659,-0.002084274929980562,0.0054572518237472134,0.993058198951191
2017-06-19,1,0.0008770641768782129,0.0009513007290511709,-0.0024721848239044283,0.006086341639967289,0.9928876047597941
2017-06-21,1,0.0004728537527278869,0.00047965200707224633,-0.0018220252760924075,0.0063394273066851164,0.9931091660247747
2017-06-23,-1,-0.0006350008314713973,-0.0004821560308664505,-0.0018220252760924075,0.0063394273066851164,0.9947581590352512
2017-06-27,-1,-0.0008330390764557246,-0.0006534894149309757,-0.0013289138915054766,0.0073860642958618545,0.9942206469101048
2017-06-29,-1,-0.0006816922404118691,-0.0005212728011994691,-0.0013289138915054766,0.006296558712281186,0.9945872543345068
2017-07-03,-1,-0.0003781818637409328,-0.0002653331001117092,-0.0013289138915054766,0.0073860642958618545,0.9944935060500024
2017-07-06,-1,-0.000343594460785549,-0.00025683817290287367,-0.0013289138915054766,0.007564725945550011,0.9939708034754461
2017-07-10,1,0.00014071839768244293,0.00014786877173005944,-0.0018220252760924075,0.0073860642958618545,0.9944161769337121
2017-07-12,1,0.0004388138021385012,0.00047704468728065354,-0.002655923506255135,0.006296558712281186,0.9948871642503603
2017-07-14,1,0.0007490176406703916,0.0008423017114228464,-0.004055695195666648,0.004743982192524601,0.9948353278871941
2017-07-18,1,0.000869719206962057,0.0009819806965219936,-0.004055695195666648,0.004743982192524601,0.9946584179800705
2017-07-20,1,0.0010575047192248638,0.0011968189485932516,-0.004810660946918638,0.004513040529036888,0.9938797245555665
2017-07-24,1,0.0010910371561035216,0.0012474701881127791,-0.004055695195666648,0.005199972840933967,0.9939928368676698
2017-07-26,1,0.00126775891710158,0.0014417271042213077,-0.005017502127366965,0.005199972840933967,0.9936623245882857
2017-07-28,1,0.0011018334558315747,0.0012581374480696008,-0.004055695195666648,0.005628827686291976,0.9939805165901807
2017-08-01,1,0.0012303333074121007,0.0013921904196591882,-0.004055695195666648,0.005166864677057422,0.9942102941023002
2017-08-03,1,0.0013140671257423678,0.0014950326062780931,-0.002791194501852259,0.005166864677057422,0.9949078529160934
2017-08-07,1,0.0012896899834315587,0.0014742311075334903,-0.002962672058321246,0.005166864677057422,0.9946658030938966
2017-08-09,1,0.0013056805355176225,0.001495945571173015,-0.002426853456070458,0.006164519385926039,0.9935136066506067
2017-08-11,1,0.001031052615021554,0.0011783435593686852,-0.002426853456070458,0.007828823867649208,0.993023064571606
2017-08-15,1,0.000997646555799481,0.0010902488311741627,-0.0028708159455127797,0.006164519385926039,0.9930525854175313
2017-08-17,1,0.00037029695269285233,0.0003798566763474258,-0.001515825773706127,0.006164519385926039,0.9939497537863349
2017-08-21,1,0.0006403364375770473,0.0006856079262566735,-0.00189378343128137,0.007828823867649208,0.9936961595619769
2017-08-23,1,0.0004932706764601006,0.0005020517700289691,-0.00189378343128137,0.007982488321871832,0.9935009176082188
2017-08-25,1,0.0003981877774541057,0.00042816895626309186,-0.00189378343128137,0.009182428797843537,0.9933493331056489
2017-08-29,1,0.0001744361956880458,0.0002491100276736515,-0.0028708159455127797,0.009182428797843537,0.9929863101809343
2017-08-31,1,0.000495961688423769,0.0005234009961181292,-0.0041670997491228545,0.009182428797843537,0.9927413224306164
2017-09-05,-1,-0.00021385665828553714,-6.790396617672718e-05,-0.005101817152121593,0.009182428797843537,0.9926515353156352
2017-09-07,1,0.0007663276706432103,0.0007997673655003627,-0.005101817152121593,0.007044454014879239,0.99354707832634
2017-09-11,1,0.001236290338270761,0.0012753009848876376,-0.0039529457992378446,0.0057680311801442405,0.9943643959083581
2017-09-13,1,0.0010905782355229042,0.0011407233219838473,-0.0028653274223594868,0.0057680311801442405,0.9946103026651198
2017-09-15,1,0.0010590500039138174,0.0010904207586630637,-0.0028653274223594868,0.007044454014879239,0.9939240380692268
2017-09-19,1,0.0014471024255522293,0.0015511916564584067,-0.0034815084389198487,0.0057680311801442405,0.9942812555238238
2017-09-21,1,0.0014143271188974981,0.0015209525288929686,-0.0034815084389198487,0.0057680311801442405,0.9943690905185132
2017-09-25,1,0.0015038881323278333,0.0016032529310277162,-0.0034815084389198487,0.005642481158172248,0.994376491772183
2017-09-27,1,0.0012398867174971935,0.001316955024074482,-0.003051669001919033,0.006401775722608234,0.994142217232154
2017-09-29,1,0.0007775043489287623,0.0007799604999242978,-0.0016138996288820734,0.007044454014879239,0.9941364255142867
2017-10-03,1,0.00041805965918804646,0.00046479237832247454,-0.0016138996288820734,0.007044454014879239,0.9943348092010439
2017-10-05,1,0.0009639523591048571,0.001001737841195651,-0.0016138996288820734,0.005872670431853643,0.9946821891857609
2017-10-09,1,0.000774088285903983,0.0007873964067593124,-0.0016138996288820734,0.005872670431853643,0.994679058872956
2017-10-11,1,0.0007044282071617993,0.0007229305183576875,-0.0016071745445219796,0.006890252094993197,0.9944656626153053
2017-10-13,1,0.0012105526514145626,0.0012703490846967666,-0.0029942377478940777,0.005872670431853643,0.9948502707641924
2017-10-17,1,0.0011220248717273814,0.0011774641582045875,-0.0016071745445219796,0.006513743341197058,0.9948194511501137
2017-10-19,1,0.001083795169008976,0.0011407627678048109,-0.0016071745445219796,0.006513743341197058,0.9944988973900795
2017-10-23,1,0.001293657792606992,0.0013961882412848994,-0.0029942377478940777,0.007344800229947617,0.9939744563695495
2017-10-25,1,0.0017345255528919438,0.0019084012617149176,-0.0034478850747234214,0.007344800229947617,0.9941749468925333
