JNU-Tangyin/eata/results/Batch4_SP500/Batch4_SP500-RE.csv
Date,Action,Predicted_Q25,Predicted_Q75,Actual_Q25,Actual_Q75,RL_Reward
2010-12-14,0,-0.0006211082188663024,0.0,-0.003978426744800741,0.0025309104809441776,0.9948875856321759
2010-12-16,-1,-0.0009542865223440219,-0.0007233426791978974,-0.003978426744800741,0.0025309104809441776,0.9948099228274823
2010-12-20,-1,-0.0010670523051537085,-0.0008221049771176712,-0.005193242835871529,0.004499112791556167,0.9945218984504852
2010-12-22,-1,-0.0006985275029183218,-0.0005749411809996377,-0.005193242835871529,0.0037345158841216243,0.9947804628117561
2010-12-27,-1,-0.0008214697867496988,-0.0005918122981901083,-0.005193242835871529,0.004499112791556167,0.9936659968455246
2010-12-29,-1,-0.000543986271839212,-0.0003914926430887332,-0.005193242835871529,0.004932559753285184,0.9934913154994529
2010-12-31,-1,-0.0006949582563206986,-0.0005263840607298331,-0.007342651196367407,0.004932559753285184,0.9926868754920392
2011-01-04,-1,-0.0018461504265698562,-0.0014995118798247307,-0.007048853751499948,0.007029297396909859,0.9927319405804272
2011-01-06,-1,-0.002239027815431128,-0.00185509382712116,-0.004576459572691276,0.007029297396909859,0.9926677693205169
2011-01-10,-1,-0.0021237870868001723,-0.0017980701773453,-0.002825375385122766,0.008895129759828974,0.9921430721203428
2011-01-12,-1,-0.0013373762792448075,-0.001095296022380804,-0.004576459572691276,0.006558327918618547,0.9926756068266684
2011-01-14,-1,-0.0020757764908108435,-0.0017394032195419034,-0.004576459572691276,0.008174381250948161,0.9914442080584192
2011-01-19,-1,-0.0027009880030316106,-0.0022402992908514916,-0.002825375385122766,0.008174381250948161,0.9912613893614222
2011-01-21,-1,-0.002346461230700416,-0.0019330089208392457,-0.0005887734632379954,0.009229788627276928,0.9902771709453837
2011-01-25,0,0.0,0.0,-0.007587135148818367,0.0075239745306262176,0.9906415153743259
2011-01-27,0,0.0,0.0,-0.007587135148818367,0.008174381250948161,0.9895847722390757
2011-01-31,1,0.00012443294493176557,0.00015516335465929978,-0.007287861950805938,0.008174381250948161,0.989973694910802
2011-02-02,0,0.0,0.0,-0.007287861950805938,0.008174381250948161,0.990060412664676
2011-02-04,-1,-0.00016230965988296383,-0.00010472365061066604,-0.009339892786893287,0.008174381250948161,0.9894059721606808
2011-02-08,1,0.0006239090251423838,0.0006940079954605242,-0.009339892786893287,0.008554273372834098,0.9891305570224015
2011-02-10,1,0.00060379441370104,0.0006733521757739913,-0.010784670617508695,0.008028756167806905,0.9875954395150444
2011-02-14,0,0.0,0.0,-0.012110906343813774,0.00540739904435442,0.9884622242366606
2011-02-16,0,0.0,0.0,-0.012110906343813774,0.00540739904435442,0.9884173986007821
2011-02-18,0,0.0,0.0,-0.012110906343813774,0.003211888426474762,0.98879315574252
2011-02-23,0,0.0,0.0,-0.012110906343813774,0.00440381316642135,0.9897876611029919
2011-02-25,0,0.0,0.0,-0.012110906343813774,0.004459232773632317,0.9906162417423279
2011-03-01,0,0.0,0.0,-0.008390982610086358,0.004449409269574174,0.991009437112619
2011-03-03,0,0.0,0.0,-0.008390982610086358,0.004835909642038097,0.9885607054147929
2011-03-07,0,0.0,0.0,-0.004505641951144274,0.008912585520105975,0.9871695448588342
2011-03-09,0,0.0,0.0,-0.004505641951144274,0.008912585520105975,0.9871202660040805
2011-03-11,0,0.0,0.0,-0.003539555864937747,0.008912585520105975,0.9888538526554943
2011-03-15,-1,-0.001571568689253072,-0.001368053378558962,-0.0038600758786065618,0.008912585520105975,0.9888537673496798
2011-03-17,-1,-0.0019158213388402604,-0.0016622906305667614,-0.0038600758786065618,0.008912585520105975,0.9886443479579814
2011-03-21,-1,-0.0010638800926265125,-0.0009270023524937473,-0.004382874939470323,0.006232714351711611,0.9889477652158949
2011-03-23,-1,-0.0018795757593653628,-0.0016151907665934626,-0.004382874939470323,0.006232714351711611,0.9894011277500941
2011-03-25,-1,-0.0011532127867875052,-0.0009984111700881552,-0.004382874939470323,0.005394221290784355,0.9896436429713448
2011-03-29,-1,-0.0006110548297149842,-0.0005567080999073976,-0.004144140083909282,0.0078122393482474035,0.9891528808113951
2011-03-31,0,0.0,0.0,-0.005705658436442789,0.004767061963476909,0.9915565770797378
2011-04-04,1,0.003573522866529977,0.004101216649415055,-0.007863875249822409,0.00416394936949844,0.9918304036530657
2011-04-06,0,0.0,0.0,-0.011026142263788905,0.003724385219927573,0.9921433674286181
2011-04-08,0,0.0,0.0,-0.010327057666337743,0.004162719517181169,0.9925008060377987
2011-04-12,0,0.0,0.0,-0.010327057666337743,0.0043408245750211644,0.9921187635297026
2011-04-14,0,0.0,0.0,-0.010327057666337743,0.0043408245750211644,0.9917727466728362
2011-04-18,0,0.0,0.0,-0.007863875249822409,0.0043408245750211644,0.9922127758210229
2011-04-20,0,0.0,0.0,-0.009467920435059469,0.005501897507419523,0.9917580121101964
2011-04-25,0,0.0,0.0,-0.010327057666337743,0.0054982079504677095,0.9913150804693989
2011-04-27,0,0.0,0.0,-0.011046507957361382,0.004712156282270114,0.9913263105382663
2011-04-29,0,0.0,0.0,-0.011046507957361382,0.006615892629166372,0.9909638985492386
2011-05-03,0,0.0,0.0,-0.011046507957361382,0.004712156282270114,0.9916279156702317
2011-05-05,0,0.0,0.0,-0.009739670914172634,0.006615892629166372,0.9913517534120073
2011-05-09,0,0.0,0.0,-0.011619008573653403,0.006615892629166372,0.9907303310527608
2011-05-11,0,0.0,0.0,-0.01150348328799614,0.0022896424206747474,0.9908094682777078
2011-05-13,1,0.0012619862066030945,0.0013536305123471933,-0.012293033443805425,0.0017648091168964053,0.9904264611618344
2011-05-17,1,0.001337804293678043,0.0014667563942921953,-0.01255882940713632,0.004236544358321208,0.9894972198178987
2011-05-19,1,0.0011773828229228516,0.00128147155489738,-0.01255882940713632,-6.839693485929943e-05,0.9900636453986048
2011-05-23,1,0.00042885899716108147,0.0004410346766737164,-0.012293033443805425,0.003682187754475152,0.990709285848044
2011-05-25,1,0.00024487571003634626,0.00028303325066276835,-0.012293033443805425,-0.000631920732667734,0.9910824678434919
2011-05-27,1,0.00028452065997796656,0.0003379197827604805,-0.012293033443805425,-0.0002919321281065392,0.9912347908034632
2011-06-01,-1,-0.0003875068989871187,-0.00024280870755242817,-0.01003789901009649,0.003682187754475152,0.991652331524485
2011-06-03,-1,-0.000782332354283634,-0.0005715347895946014,-0.008783389262411057,0.0013752638667788048,0.9927512438723952
2011-06-07,-1,-0.001091350589176433,-0.0008766827977403103,-0.008783389262411057,0.003682187754475152,0.9922886510268105
2011-06-09,-1,-0.0021946546613708616,-0.0018340382745996445,-0.006353883407089742,0.004236544358321208,0.9922888355848527
2011-06-13,-1,-0.0024605059316251243,-0.00206272782760695,-0.006353883407089742,0.007065934209596864,0.9918717207789719
2011-06-15,-1,-0.002905141314398508,-0.0024523192548387513,-0.005946486370792064,0.005499504380819205,0.9927424366548767
2011-06-17,-1,-0.00248442142942013,-0.002134981388235268,-0.007631660784453829,0.005499504380819205,0.9918495228887688
2011-06-21,-1,-0.002523332352077132,-0.002174399869144094,-0.006680071231770352,0.0069481984918295745,0.9919410053227544
2011-06-23,-1,-0.003022230022896253,-0.0025871265806358557,-0.006589870713033833,0.011567604918900624,0.9914105609629408
2011-06-27,-1,-0.002122408501961683,-0.0018044677259283133,-0.006589870713033833,0.01068255304664008,0.9916401485787396
2011-06-29,-1,-0.0018966254710635847,-0.0016156384163779043,-0.009287169002864273,0.01068255304664008,0.990715233234172
2011-07-01,-1,-0.0018288763598063966,-0.00158125953090013,-0.011403597359328681,0.01068255304664008,0.9903971927510156
2011-07-06,-1,-0.0015243088179127664,-0.0013158341734720233,-0.007266815457402445,0.00926768212811011,0.9908742927948013
2011-07-08,-1,-0.0009334997983792264,-0.0007847223394528447,-0.0117562327012389,0.00649668025896706,0.9889867061488284
2011-07-12,-1,-0.000742525286887594,-0.0006404044710960802,-0.0117562327012389,0.00649668025896706,0.9837162750094715
2011-07-14,-1,-0.000394548132258052,-0.0003713428021180678,-0.01263341066118084,0.00926768212811011,0.9797397082945635
2011-07-18,-1,-0.0016900684787787283,-0.0014590882438910316,-0.014699716391294929,0.011532845327304095,0.9783892619203037
2011-07-20,-1,-0.0015220146698451654,-0.0013320846788065135,-0.014699716391294929,0.011532845327304095,0.978080838325086
2011-07-22,-1,-0.0010937502853115956,-0.0009437144584447076,-0.017448374604402735,0.00926768212811011,0.9767919203470465
2011-07-26,-1,-0.00046929794750949586,-0.00040589119784130776,-0.01901093466100688,0.008615628867028786,0.9760589355733518
2011-07-28,0,-3.302992364495678e-05,3.454816454613699e-06,-0.025056693826153276,0.007623031486471603,0.9758859924600859
2011-08-01,-1,-0.0007149418722617962,-0.0006233738712802517,-0.025056693826153276,0.012218544126543288,0.973524729643707
2011-08-03,-1,-0.0013132415148690737,-0.0010606659722609039,-0.025056693826153276,0.012002867704461783,0.9737897902296544
2011-08-05,-1,-0.004209705788341795,-0.0035987333812332605,-0.020443718782580132,0.012002867704461783,0.9755503887185083
2011-08-09,-1,-0.003070109785185639,-0.00257803122982041,-0.01611291553389295,0.012002867704461783,0.9793961698095986
2011-08-11,-1,-0.002068512023006717,-0.0017147489955026774,-0.018081775566970604,0.007623031486471603,0.9817756729801935
2011-08-15,-1,-0.0023143621476849263,-0.001916369476421597,-0.018081775566970604,0.007623031486471603,0.9836796355877386
2011-08-17,-1,-0.0026604040216893646,-0.0022336027567674147,-0.018081775566970604,0.008704896773614744,0.983730624732995
2011-08-19,-1,-0.004127136098415123,-0.0035321495366878366,-0.0139137499926767,0.008704896773614744,0.9849056766530603
2011-08-23,-1,-0.0028562466198240695,-0.002539945546362829,-0.013524089130835843,0.009807837853420466,0.9845510485459598
2011-08-25,-1,-0.0014945183012756132,-0.0014263175751154601,-0.013524089130835843,0.009807837853420466,0.984737023178563
2011-08-29,1,0.0010984134389597782,0.0013981509263448519,-0.013524089130835843,0.009082224081124154,0.9865913499845653
2011-08-31,1,0.000599816458743851,0.0008036208697387892,-0.016735408432557948,0.009807837853420466,0.985284418827681
2011-09-02,-1,-0.0003607423879875496,-0.00030436228441269465,-0.016735408432557948,0.009807837853420466,0.9856035929087169
2011-09-07,1,0.000761214738267675,0.0009743196576077701,-0.016735408432557948,0.009807837853420466,0.9868642315148599
2011-09-09,-1,-0.000851814035166163,-0.0008326290156001819,-0.013524089130835843,0.009807837853420466,0.9870133265177025
2011-09-13,1,0.00030682639334889995,0.0004153559623810441,-0.013524089130835843,0.01290991696188682,0.9861087242293761
2011-09-15,1,0.0005845181981801704,0.0007446990523004416,-0.016735408432557948,0.010945381313657814,0.9855891211705903
2011-09-19,-1,-0.00034778291517894737,-0.00025462670106111957,-0.01907687939857778,0.010945381313657814,0.9850607137113102
2011-09-21,-1,-0.00055299745449098,-0.0004957024770796184,-0.01907687939857778,0.019063321660927654,0.9839656031637679
2011-09-23,-1,-0.00038036876207432575,-0.0002574368908702821,-0.00865250596646452,0.02200712879704394,0.9830568506206993
2011-09-27,1,2.9758075743050133e-05,0.00016965384318971507,-0.0140357374519189,0.02323881823607283,0.9827562324465645
2011-09-29,1,0.00020926068013750953,0.0003878225390518727,-0.00713403935016056,0.024093494441799385,0.981967135191465
2011-10-03,0,0.0,0.0,-0.006536640966537469,0.024093494441799385,0.9823941486932837
2011-10-05,0,0.0,0.0,-0.010725075684745664,0.02323881823607283,0.9820214713281772
2011-10-07,0,0.0,0.0,-0.006536640966537469,0.02323881823607283,0.9830324774146215
2011-10-11,0,0.0,0.0,-0.0029679766308275653,0.02200712879704394,0.9840107612026271
2011-10-13,1,0.00010273570353188234,0.0003486818054437543,-0.010411250540993986,0.02200712879704394,0.9837684530269574
2011-10-17,0,0.0,0.0,-0.010411250540993986,0.02200712879704394,0.9833223399601346
2011-10-19,0,0.0,0.0,-0.011575795404359903,0.014791895692784433,0.9849715875265873
2011-10-21,1,0.0023696368051646507,0.0027734700061903747,-0.011581442862910733,0.01242539386358188,0.9855999367318892
2011-10-25,1,0.002577100038622306,0.0030233457893071784,-0.012366069707031566,0.011977134373960353,0.9856316114760214
2011-10-27,1,0.003515220561948527,0.004058611578524586,-0.015137732796550875,0.011977134373960353,0.9847561042823723
2011-10-31,1,0.002597330767082892,0.0029797368136726954,-0.015137732796550875,0.011977134373960353,0.9852613250256139
2011-11-02,1,0.0029221798271919083,0.0033513125208428727,-0.017289356860517975,0.011977134373960353,0.9838784399453496
2011-11-04,1,0.0027943403324329325,0.0031693767541010275,-0.017289356860517975,0.01146699646126064,0.9834738152991584
2011-11-08,1,0.0028440685722143323,0.0032175800817279736,-0.017289356860517975,0.009600953537602382,0.9835020711387841
2011-11-10,1,0.0017774867788541036,0.0020014579611034645,-0.017289356860517975,0.009600953537602382,0.9846097207053356
2011-11-14,1,0.0013289673023890104,0.0014802253350501148,-0.015529353957393029,0.0037014296254773236,0.985034234674157
2011-11-16,1,0.0015497446997191334,0.0017626439401776635,-0.014401605223980991,0.0037014296254773236,0.9851728631857243
2011-11-18,1,0.0019169400765078836,0.002183583318841517,-0.015529353957393029,0.0006693675954488177,0.9854964209524497
2011-11-22,1,0.0009772969971776882,0.001106751866831257,-0.014401605223980991,0.009600953537602382,0.985462961147187
2011-11-25,1,0.0009088631217434492,0.0010326081989638775,-0.013183776929860457,0.009600953537602382,0.9865378877828924
2011-11-29,1,0.0012168924022715089,0.0013954602506595888,-0.013183776929860457,0.0037014296254773236,0.9864081516746666
2011-12-01,1,0.0008023839733732656,0.0009210528472608201,-0.013183776929860457,0.0025626743972752587,0.9885623321159765
2011-12-05,1,0.0005385649933473554,0.0005974759020427828,-0.013273765619377959,0.005612032408471148,0.9877046162005118
2011-12-07,1,0.00045380511974916696,0.00046681172548334985,-0.013273765619377959,0.005004637134831853,0.9878828887916584
2011-12-09,1,0.00028440542775662775,0.0002879449522570027,-0.010469921723632088,0.011034515929421758,0.9875882850515497
2011-12-13,-1,-0.0006999836451640794,-0.0006033875144084034,-0.005666685551969176,0.011034515929421758,0.9885497198234162
2011-12-15,-1,-0.0007819643657226228,-0.0006868529557907178,-0.006346401723954665,0.011034515929421758,0.9883378895023273
2011-12-19,-1,-0.0007437883260086693,-0.0006755720557855639,-0.004980700569280699,0.011034515929421758,0.988574207708535
2011-12-21,1,0.00013681192664230195,0.00014425464538789186,-0.006346401723954665,0.009644603673449138,0.9896871629767259
2011-12-23,1,0.0014930814300934494,0.0016941457930426073,-0.006346401723954665,0.00729130802399259,0.9919535598976104
2011-12-28,-1,-0.0002781534109127835,-0.0001473062486864101,-0.006647772335561995,0.009644603673449138,0.9913943615829254
2011-12-30,0,-2.5965293617760394e-06,4.7524581634411764e-05,-0.004980700569280699,0.009644603673449138,0.9916788918730527
2012-01-04,1,8.90685208253493e-05,9.586380279205877e-05,-0.004980700569280699,0.009644603673449138,0.9914878942087872
2012-01-06,1,0.0008220882631213384,0.0009454857006933463,-0.005663993740084311,0.009644603673449138,0.9912073070286924
2012-01-10,1,0.0011698284554382578,0.0013176574037713205,-0.005663993740084311,0.0075674145787213275,0.9922202819058443
2012-01-12,1,0.0002390421883021314,0.00026852600616120127,-0.005728788150914345,0.007767894482777176,0.9914687303969497
2012-01-17,-1,-0.0005509201860725502,-0.00040802221044734766,-0.004941888923808085,0.008389276045232947,0.9912263624326165
2012-01-19,-1,-0.0009818315592785782,-0.0007229708793595962,-0.004941888923808085,0.008725165854064142,0.9912158989823409
2012-01-23,1,0.00044105650118358443,0.0004784564627053524,-0.0036190545261799273,0.007767894482777176,0.991815601940185
2012-01-25,1,0.0002923481189911507,0.0002991133813933607,-0.004941888923808085,0.007767894482777176,0.9909890306100709
2012-01-27,-1,-0.0004910419440444307,-0.00035629651781389965,-0.004943732936120608,0.0075674145787213275,0.9915676244993811
2012-01-31,1,0.0005688450684060752,0.0006337940579361299,-0.005728788150914345,0.006966673735533054,0.9913869507104021
2012-02-02,0,-4.472312811971811e-05,4.501969599610969e-05,-0.004997796350496275,0.006966673735533054,0.9922065545730494
2012-02-06,1,0.0003822976615433769,0.00039728044955037985,-0.005577006263159133,0.006867855939973417,0.9915803452691856
2012-02-08,1,0.0003871283693015679,0.0003993206073841099,-0.005577006263159133,0.008167784225584656,0.9908701259308157
2012-02-10,0,0.0,0.0,-0.0036196691969507685,0.008991014374887404,0.9914650787679052
2012-02-14,0,0.0,0.0,-0.0020786366921301527,0.008991014374887404,0.9916919568698733
2012-02-16,1,0.00021115664450346158,0.0002815887582809299,-0.005480886460589088,0.0074743310165853675,0.9917551172593746
2012-02-21,1,0.0005768380165678402,0.000582275891665526,-0.005480886460589088,0.0074743310165853675,0.9918394306540398
2012-02-23,1,0.00016137257397233061,0.000223603419718406,-0.006240153416326122,0.0074743310165853675,0.9919405290421497
2012-02-27,-1,-0.0006575461133257503,-0.00046766684689122516,-0.002331725677375831,0.008991014374887404,0.9915073688278288
2012-02-29,-1,-0.00020946249257889238,-0.00010586447542549764,-0.002331725677375831,0.008991014374887404,0.9918313897630645
2012-03-02,-1,-0.0004451346492723,-0.0002750471813008062,-0.005855651268770154,0.0074743310165853675,0.9921668988408124
2012-03-06,-1,-0.00041105433700709546,-0.00028436035340495623,-0.005663127351268996,0.008902333408711945,0.992615579321964
2012-03-08,-1,-0.00028684782527893586,-0.00012868713780290195,-0.005663127351268996,0.006256600613946097,0.9936366819551977
2012-03-12,-1,-0.0005104115774240057,-0.00030286590471101523,-0.005855651268770154,0.006208876961747173,0.9934584266424855
2012-03-14,1,0.000804505203487637,0.0008469135723687649,-0.005855651268770154,0.006256600613946097,0.9933933656454654
2012-03-16,1,0.0009377826478155302,0.001057615757699133,-0.005855651268770154,0.006256600613946097,0.9931664064798338
2012-03-20,1,0.0011573959891567048,0.0012874305121022079,-0.005855651268770154,0.006208876961747173,0.9933322972605563
2012-03-22,1,0.0016062860617991927,0.0018690629655214947,-0.004883898494295348,0.009443567085021674,0.9930467335077942
2012-03-26,0,0.0,0.0,-0.005806353676408518,0.006964583537919433,0.993269097015009
2012-03-28,0,0.0,0.0,-0.004883898494295348,0.009443567085021674,0.9912345997744193
2012-03-30,-1,-0.0002409700840540321,-0.00021448375346152775,-0.003110627635387744,0.009443567085021674,0.991613969936829
2012-04-03,0,0.0,0.0,-0.003721798540644163,0.00942627342056673,0.9915924086906436
2012-04-05,0,0.0,0.0,-0.003721798540644163,0.010218203423795114,0.9910184118705905
2012-04-10,0,0.0,0.0,-0.003003944531270475,0.010617995998346695,0.9910271535845999
2012-04-12,0,0.0,0.0,-0.003003944531270475,0.010235838261694925,0.9919333362940448
2012-04-16,0,0.0,0.0,-0.003003944531270475,0.010235838261694925,0.9920245518419926
2012-04-18,0,0.0,0.0,-0.0042876540701175464,0.010235838261694925,0.9911860613498495
2012-04-20,1,0.0016788682980914916,0.001807567084604897,-0.006899360695081781,0.007731580729139041,0.9913861941311597
2012-04-24,1,0.001369375517159961,0.0014750781626026491,-0.0042876540701175464,0.009023071856497726,0.9914449388888356
2012-04-26,1,0.003100935492316638,0.0034416783742927427,-0.0042876540701175464,0.008087495947499085,0.9926719654874057
2012-04-30,1,0.002400376404681788,0.002619688180492528,-0.007156417202344416,0.008087495947499085,0.9927363572489109
2012-05-02,1,0.002495757886419412,0.002737113439482893,-0.003508267440100653,0.007787676165102031,0.9931507320506122
2012-05-04,1,0.0023921471257980706,0.002578805887666952,-0.008065245147625744,0.005653357670815449,0.9927985355064783
2012-05-08,1,0.0022640009736145292,0.002378572325504817,-0.008065245147625744,0.007787676165102031,0.9923183217737719
2012-05-10,1,0.0018290848297763077,0.001851042760226505,-0.00843037332622104,0.007787676165102031,0.9916475194889168
2012-05-14,1,0.0012665826866082226,0.0013506049616253397,-0.00843037332622104,0.008897685574476434,0.9919894104740864
2012-05-16,1,0.0012129731986682537,0.0012388551098003547,-0.004475501645874519,0.009256552397463477,0.9919270864612267
2012-05-18,1,0.0013146645902204635,0.0013850670716015678,-0.004475501645874519,0.01030462259892341,0.9916649106274129
2012-05-22,1,0.0012310510517331667,0.0012571547000111804,-0.004475501645874519,0.010766970855786373,0.9916165680352931
2012-05-24,1,0.0017029821529468197,0.001761309774090265,-0.00843037332622104,0.009283346862343382,0.9915597664937948
2012-05-29,1,0.0011434145589325276,0.0011758481261379154,-0.008444785328818035,0.009988674579769697,0.9912910028442484
2012-05-31,1,0.0014713326699932288,0.0014845532057613626,-0.008444785328818035,0.009988674579769697,0.9910371933773069
2012-06-04,0,0.0,0.0,-0.008955613460584098,0.010766970855786373,0.9901268450671054
2012-06-06,0,0.0,0.0,-0.010587533680860904,0.01064643431482852,0.9902351570276695
2012-06-08,1,0.0007463668048237528,0.0008194625486387578,-0.008955613460584098,0.01064643431482852,0.990642132702756
2012-06-12,1,0.0012078802173691706,0.0012125030518463145,-0.009353593877010794,0.010250102901035094,0.9903993667508745
2012-06-14,1,0.001225866734562749,0.0012331922350889302,-0.008647389373549242,0.009747108356234505,0.9910746274944809
2012-06-18,1,0.0010218509254960844,0.0010558092111960173,-0.005076087093360162,0.00897627424251988,0.9920069701174948
2012-06-20,1,0.000995124547624739,0.0010490204518238636,-0.009084789217862384,0.007546212402865522,0.9914363878436693
2012-06-22,1,0.0006014100591566446,0.0007019840258970912,-0.009084789217862384,0.007546212402865522,0.9917277292805665
2012-06-26,1,0.0009025819220192389,0.0009308118299386111,-0.009845401081988269,0.007546212402865522,0.9910951729458438
2012-06-28,1,0.0012948257189125834,0.0013142086316354816,-0.009845401081988269,0.007081604649010733,0.9908362461635344
2012-07-02,1,0.0011533028528544302,0.001155444868987815,-0.009845401081988269,0.007081604649010733,0.9904821559495459
2012-07-05,1,0.0005956560447982835,0.00069306095592197,-0.009084789217862384,0.007081604649010733,0.9911161377265533
2012-07-09,1,0.0007460245620618515,0.0008008768012430435,-0.009084789217862384,0.007081604649010733,0.9910110766461914
2012-07-11,0,0.0,0.0,-0.005228173415018058,0.010040870995263483,0.9908531242573605
2012-07-13,0,0.0,0.0,-0.005834400316025985,0.007411852538796618,0.9912212199319448
2012-07-17,1,0.0008843098572058701,0.0009580091037678308,-0.005834400316025985,0.00731311849324971,0.9912876544481007
2012-07-19,-1,-0.0006092160629955683,-0.0003283083596366856,-0.003258554680404628,0.007651400335780397,0.9922150560374287
2012-07-23,0,0.0,0.0,-0.002737728048322586,0.007651400335780397,0.9927460912394478
2012-07-25,0,0.0,0.0,-0.002737728048322586,0.006802994158822968,0.9929495757479018
2012-07-27,0,0.0,0.0,-0.0032376791931214557,0.00618638038363613,0.993171752925643
2012-07-31,-1,-0.0013467080420721605,-0.001005914179697186,-0.0032376791931214557,0.00618638038363613,0.9944553072975698
2012-08-02,-1,-0.0005226773939922105,-0.0002907578833817006,-0.0038645968057862932,0.005675749720210273,0.9949142445943102
2012-08-06,-1,-0.0006671335275029854,-0.0004514400437099032,-0.0022679114877603166,0.00618638038363613,0.9936014223859491
2012-08-08,1,8.973045489693674e-06,0.00013509805043477067,-0.0022679114877603166,0.005788510334387169,0.9935836576540736
2012-08-10,0,-4.322654136873098e-05,6.950726398331292e-05,-0.0017419284431332508,0.005788510334387169,0.9937455018442726
2012-08-14,-1,-0.00040875854911767825,-0.00022067140762701946,-0.0017419284431332508,0.005788510334387169,0.9936914142707601
2012-08-16,1,0.0001981722899626672,0.00028952300199613045,-0.0017419284431332508,0.007222358094319493,0.9934374112161842
2012-08-20,0,-3.624340006865202e-05,8.51212561533711e-05,-0.00286941379679553,0.007222358094319493,0.9930342442072968
2012-08-22,-1,-0.0010357926575718093,-0.0007622206546866866,-0.00286941379679553,0.005928298312886011,0.9936513642167489
2012-08-24,-1,-0.0006377736594700204,-0.00044172719782962556,-0.00286941379679553,0.004842744767812943,0.993778157670463
2012-08-28,-1,-0.0005884643178383497,-0.00039364976830947316,-0.003197410876378585,0.0038563626157320473,0.9936203078140321
2012-08-30,-1,-0.0013676859596142169,-0.0010428489784160644,-0.002651309440370429,0.0038563626157320473,0.9936718844113853
2012-09-04,1,0.00024344097185655735,0.00034506856691814483,-0.002651309440370429,0.0036446011241514052,0.9946898315546455
2012-09-06,0,0.0,0.0,-0.002651309440370429,0.0036446011241514052,0.9952412917445371
2012-09-10,0,0.0,0.0,-0.002651309440370429,0.004102475937196097,0.9950964782184573
2012-09-12,1,0.0007440552887514228,0.000748384484464326,-0.002651309440370429,0.004102475937196097,0.995223802508743
2012-09-14,1,0.0007442819804084928,0.0007606741706095708,-0.003260107949999801,0.001946257153578195,0.995663702691955
2012-09-18,1,0.0017337308745666487,0.001891815707989113,-0.0019349566587176109,0.004102475937196097,0.9947235803207174
2012-09-20,1,0.0012737994509775944,0.0013383143608411232,-0.0019349566587176109,0.005058089058352072,0.9947762875556089
2012-09-24,1,0.0010526199133494168,0.0010902393892515457,-0.0019349566587176109,0.005058089058352072,0.9946627887573875
2012-09-26,1,0.0005749083667038148,0.0005781672191819832,-0.0013542981607406075,0.005058089058352072,0.9953478400775515
2012-09-28,1,0.0007612331230351215,0.000831379131698796,-0.0017653439765719819,0.007908277596611356,0.993629512790019
2012-10-02,1,0.0009827131231454882,0.001077714997684182,-0.003830103020547884,0.005058089058352072,0.9924940649944514
2012-10-04,1,0.0012593835519540385,0.0013851710515811278,-0.005389269809919579,0.0034618071940601975,0.9915082461641878
2012-10-08,1,0.0009396252630783069,0.0009733703824208094,-0.009976342090743636,0.004397157434717471,0.9907161057815423
2012-10-10,0,0.0,0.0,-0.009976342090743636,0.004397157434717471,0.9904252463056944
2012-10-12,0,0.0,0.0,-0.010505076969934336,0.004397157434717471,0.9897683982972034
2012-10-16,1,0.0018622024968840693,0.0020471831793207073,-0.012245738201347615,0.0008097450749427657,0.9893323293496802
2012-10-18,1,0.0016969443453789684,0.0018371403515968253,-0.012245738201347615,0.001825156621872454,0.9891665430763136
2012-10-22,1,0.0013898526367996048,0.0015107217413793353,-0.010505076969934336,0.004068414922420669,0.9897790436845534
2012-10-24,0,0.0,0.0,-0.010505076969934336,0.004430450748547263,0.9899743881927142
2012-10-26,0,0.0,0.0,-0.010505076969934336,0.00485676877816826,0.990531668190589
2012-11-01,1,0.0004337290877709432,0.0004609911024460721,-0.007032042140580294,0.006991315124633909,0.9916142139712667
2012-11-05,0,0.0,0.0,-0.007032042140580294,0.006991315124633909,0.9917924229717244
2012-11-07,0,0.0,0.0,-0.004323394786865562,0.007195875857450588,0.9920384107521409
2012-11-09,0,0.0,0.0,-0.002845983745847539,0.008907780119489584,0.991927625961042
2012-11-13,0,0.0,0.0,-0.0026174490557880677,0.008907780119489584,0.9923711624897287
2012-11-15,0,0.0,0.0,-0.002845983745847539,0.008907780119489584,0.992095060739134
2012-11-19,0,0.0,0.0,-0.002879040523165125,0.007119804485149681,0.9923916241723122
2012-11-21,-1,-0.0008809730555670549,-0.0007795362849072918,-0.002879040523165125,0.009279142061183483,0.9919188929019273
2012-11-26,-1,-0.0008237879972257023,-0.0007488827252556213,-0.003671413933208855,0.009279142061183483,0.9917338288566026
2012-11-28,0,0.0,0.0,-0.003671413933208855,0.006297928512544694,0.992870116558839
2012-11-30,1,0.0004880902839394221,0.000512662688133765,-0.003671413933208855,0.006297928512544694,0.9929608161830779
2012-12-04,-1,-0.00032021689179995947,-0.00021856629996106028,-0.002879040523165125,0.009517693564865278,0.9927158369739163
2012-12-06,1,0.000489115565327749,0.0005114345905377251,-0.003671413933208855,0.00884894572223243,0.992639451182886
2012-12-10,1,0.0008329801031522512,0.0009172570916809146,-0.0031581124043222916,0.006315165487588446,0.9927916440371242
2012-12-12,-1,-0.0001729025105330952,-8.782503009731722e-05,-0.0023935463348645917,0.0082460466944815,0.9927484143455056
2012-12-14,-1,-0.0013819598435345255,-0.0011350032736933064,-0.0007716294024852335,0.0082460466944815,0.9930331672957657
2012-12-18,-1,-0.0008167608475750641,-0.000650573969514884,-0.0023568530097673986,0.007053851828855489,0.9935267820786429
2012-12-20,-1,-0.00011624069161097114,-4.697475593177692e-05,-0.0023568530097673986,0.007053851828855489,0.9937096405076752
2012-12-24,0,0.0,0.0,-0.0023568530097673986,0.0082460466944815,0.9931353801121932
2012-12-27,0,0.0,0.0,-0.0027406090148219017,0.0082460466944815,0.9930516441966614
2012-12-31,0,0.0,0.0,-0.003307395502307412,0.008863083611983092,0.992784007474846
2013-01-03,0,0.0,0.0,-0.003307395502307412,0.007053851828855489,0.9932106769049255
2013-01-07,0,0.0,0.0,-0.0027406090148219017,0.007053851828855489,0.9939329090739502
2013-01-09,1,0.0005975112958235513,0.000607758074419049,-0.0027406090148219017,0.0074869988602493855,0.9942465368983041
2013-01-11,1,0.0010651630088808516,0.0011568860582099427,-0.0027406090148219017,0.007723412122865999,0.9941784948427695
2013-01-15,1,0.0007592264650883285,0.0008432193117819799,-0.003307395502307412,0.008352613011454183,0.9939551760510262
2013-01-17,-1,-7.997880736037159e-05,-2.8815187102976166e-05,-0.001002395377974502,0.008352613011454183,0.9938333967351237
2013-01-22,0,0.0,0.0,-0.0028230693584682786,0.008352613011454183,0.9938659091757424
2013-01-24,0,0.0,0.0,-0.0028230693584682786,0.008352613011454183,0.9938384069119702
2013-01-28,0,0.0,0.0,-0.0028230693584682786,0.009785293313233408,0.9929327669887075
2013-01-30,0,0.0,0.0,-0.0028092470430162663,0.008352613011454183,0.9932647101366378
2013-02-01,0,0.0,0.0,-0.003054043612456316,0.008352613011454183,0.9934538265031739
2013-02-05,1,0.002200300580531513,0.002478274226070257,-0.0032611211840399674,0.009026856651795399,0.9928506462306113
2013-02-07,1,0.0022922799946238095,0.002581179505352229,-0.0032611211840399674,0.009026856651795399,0.9929323258333854
2013-02-11,1,0.0029951551401936286,0.0034065686905241565,-0.003861728316808616,0.00840597323592902,0.992914056751353
2013-02-13,1,0.0027210286998181035,0.0030704889803951176,-0.0032611211840399674,0.007432056215670704,0.9931829095792297
2013-02-15,1,0.0027700456117774226,0.0031177504459250684,-0.0034413852556700736,0.007432056215670704,0.9931018942364989
2013-02-20,1,0.002824596288557731,0.003166821704903242,-0.0034413852556700736,0.006544823023648268,0.9937621574377778
2013-02-22,0,0.0,0.0,-0.0034413852556700736,0.006544823023648268,0.9939060692358253
2013-02-26,0,0.0,0.0,-0.003820631514587718,0.006412370954323131,0.9942662136203363
2013-02-28,1,0.0028207026167357614,0.0031321009424403997,-0.003820631514587718,0.006412370954323131,0.994090084373755
2013-03-04,1,0.0031442070394607884,0.0035118005365523154,-0.003820631514587718,0.006254518375959235,0.9937350778768084
2013-03-06,1,0.0034263517952031514,0.0038343820087047673,-0.004177548819069746,0.0053824058649396414,0.9942896034713632
2013-03-08,1,0.0034034076403841275,0.00379655955936304,-0.004783672793208703,0.006254518375959235,0.9937194869023027
2013-03-12,0,0.0,0.0,-0.004177548819069746,0.004178410241523126,0.9947994530898461
2013-03-14,0,0.0,0.0,-0.004795291899279072,0.003719690109379485,0.9946385599717041
2013-03-18,0,0.0,0.0,-0.005206303648399366,0.004829262060288597,0.9927257414559986
2013-03-20,0,0.0,0.0,-0.005206303648399366,0.0034472027353178425,0.9929984501334435
2013-03-22,1,0.003419948085458933,0.0038146279177678627,-0.005206303648399366,0.0034472027353178425,0.9919147544958408
2013-03-26,1,0.0029792322331764513,0.003331063261714959,-0.003972009484484521,0.007756255867483444,0.9912803332837196
2013-03-28,1,0.0030259798898573114,0.0033063143505443404,-0.004440506482406875,0.007756255867483444,0.9909480379405209
2013-04-02,1,0.001936771631412069,0.0020226374614940195,-0.0038907800990429188,0.009036439202383503,0.9911740798864961
2013-04-04,1,0.001648910987781803,0.0016769484236998653,-0.0038907800990429188,0.009036439202383503,0.9906326838133634
2013-04-08,1,0.0014116207456756186,0.0014252817322831742,-0.0038907800990429188,0.010909808257796251,0.9902969338227973
2013-04-10,1,0.0009133673587835521,0.0010191204389170296,-0.0038907800990429188,0.012667865394133648,0.989681134682319
2013-04-12,1,0.00019480139886208136,0.00042431652830027006,-0.0038907800990429188,0.012667865394133648,0.9896610131454855
2013-04-16,1,3.734480451199492e-05,0.0002539997411957429,-0.002681489371513102,0.012667865394133648,0.9915354546713445
2013-04-18,0,-0.00019842314360259887,3.7074171574828676e-05,-0.0038907800990429188,0.012667865394133648,0.9898015890455164
2013-04-22,0,-7.274634245305511e-05,0.00015813733649751196,-0.002800874327159713,0.010909808257796251,0.9901786554622615
2013-04-24,0,0.0,0.0,-0.004548503849386636,0.00894242747362018,0.9913653676588111
2013-04-26,0,0.0,0.0,-0.007157782816903667,0.005034149598839733,0.991310408875178
2013-04-30,1,0.0019206359806318496,0.0019742153711690582,-0.007157782816903667,0.0025397285942107056,0.9910966212130027
2013-05-02,1,0.0014915266060978748,0.001505381773834708,-0.005317784031692977,0.005370859708955638,0.9913695904529983
2013-05-06,1,0.001656818335106614,0.001698619914874514,-0.005262496662469118,0.0023433442167098304,0.9917587687522834
2013-05-08,1,0.0017078099396450317,0.0017254005503412623,-0.006101789534315913,0.0023433442167098304,0.9911957928545765
2013-05-10,1,0.0008541832013739109,0.000990416699636795,-0.006101789534315913,0.0034561622867997676,0.9916251467634218
2013-05-14,1,0.0006755860429711574,0.000814975967560679,-0.007681063420774975,0.002661075861642357,0.9910112201776026
2013-05-16,-1,-0.0004809116016520361,-0.00022444479962873754,-0.006804166582154485,0.008709313919225447,0.9919165175117842
2013-05-20,0,-0.00015122492784695263,6.888223054740867e-05,-0.006804166582154485,0.008832553090799604,0.9914386164412528
2013-05-22,-1,-0.0011003242034578694,-0.0007636888578900823,-0.009290608241275955,0.008832553090799604,0.9908574561308543
2013-05-24,-1,-0.0017127299325687937,-0.0013192253069394184,-0.008990143162411455,0.008832553090799604,0.9912186715538689
2013-05-29,-1,-0.0006300375768145577,-0.0004127590541036253,-0.008990143162411455,0.008832553090799604,0.9911700056722436
2013-05-31,-1,-0.001054406705774786,-0.0007457292510716512,-0.008990143162411455,0.008832553090799604,0.99066466142338
2013-06-04,-1,-0.001418365110637355,-0.0010818600512481232,-0.011085770623748575,0.008832553090799604,0.9897504515862591
2013-06-06,-1,-0.0012817520191954952,-0.0009734367342108261,-0.008990143162411455,0.009062509083624942,0.9901075579381029
2013-06-10,-1,-0.0010228389364918724,-0.0007537709651913064,-0.010806959136953972,0.0076904514742043295,0.9901325314864172
2013-06-12,-1,-0.00209704056169593,-0.0016716691180410131,-0.008990143162411455,0.009944491301212551,0.9896710426617384
2013-06-14,-1,-0.001283223556815585,-0.0009869901304348687,-0.005243976462632375,0.009944491301212551,0.9899433889004723
2013-06-18,-1,-0.0008120158780789578,-0.000565409867246115,-0.010806959136953972,0.00871880560670553,0.9899874568320648
2013-06-20,-1,-0.0023700166911167844,-0.0019263525981369264,-0.0024671063822650015,0.00871880560670553,0.9911827920551551
2013-06-24,-1,-0.002453203978666633,-0.002011166566573923,-0.0024671063822650015,0.00871880560670553,0.9905584763132821
2013-06-26,-1,-0.001482750426567113,-0.0012065863194349047,-0.0024671063822650015,0.009089773940604107,0.9904880184636217
2013-06-28,-1,-0.001268288158780691,-0.0010081378359421945,-0.0014608490421386382,0.008591771726541972,0.9911745068361529
2013-07-02,-1,-0.001789745449839758,-0.0014756211737864326,-0.0003669269594283423,0.009089773940604107,0.991584615591773
2013-07-05,-1,-0.0008365794776075548,-0.0006562710827653275,-0.0005848909060891344,0.009089773940604107,0.9921243004227757
2013-07-09,-1,-0.001316516646814717,-0.0010773924500530453,-0.0005848909060891344,0.009089773940604107,0.9919621091453025
2013-07-11,-1,-0.0008220823518639888,-0.0006473158941516345,-0.0014608490421386382,0.008591771726541972,0.9925611856487463
2013-07-15,0,-2.4876604812997547e-05,4.7215257699708606e-05,-0.001659616343602453,0.0062277571041231905,0.9935464430556484
2013-07-17,-1,-0.0003582765770401032,-0.0002585551278165835,-0.0012974319278457544,0.008028495589826986,0.9930286673091239
2013-07-19,-1,-0.0002903405432646536,-0.00021041165935633144,-0.001101051683593699,0.008028495589826986,0.9931221232655547
2013-07-23,-1,-0.0008141954468030524,-0.0006699169270053603,-0.001101051683593699,0.008028495589826986,0.9936884562229317
2013-07-25,1,0.00013945527020691516,0.0001584573156623937,-0.0012411843337475682,0.0062277571041231905,0.9936337656921581
2013-07-29,1,0.0003678983109700726,0.0003877109256928213,-0.001900106974762925,0.00525050763450275,0.9938519898099145
2013-07-31,1,0.0005733057631636922,0.0006291241119182143,-0.003125927716551535,0.0029068094670104444,0.9936780525797945
2013-08-02,1,0.0009278254876109166,0.0010361081861890485,-0.003125927716551535,0.0028599852446947274,0.9939669956346489
2013-08-06,1,0.0007617654293367024,0.0008529656678950847,-0.002907705259462685,0.004287843923626806,0.9935893149160121
2013-08-08,1,0.0006133991039019163,0.0006805273947022006,-0.003125927716551535,0.004287843923626806,0.9924784570087313
2013-08-12,1,0.0009918339501647274,0.0011201692350038487,-0.003125927716551535,0.005481232433192277,0.9915373351748037
2013-08-14,1,0.0016504156382485553,0.0018774519721422847,-0.0037622615264941263,0.00467865432103072,0.9924291789198737
2013-08-16,1,0.0011699289327048177,0.0012920401441192204,-0.0037622615264941263,0.007101727982556624,0.9915554818040571
2013-08-20,1,0.0015011355386040197,0.001694584150139318,-0.003877444870079259,0.007101727982556624,0.991586144434172
2013-08-22,1,0.0012735589368698438,0.001401743185897385,-0.0032066146806988697,0.007101727982556624,0.9920859758790074
2013-08-26,1,0.0010647081331811965,0.0011652187427967924,-0.002960197212752937,0.007101727982556624,0.9921006455863116
2013-08-28,1,0.0007384555339987945,0.0007953331379668867,-0.002813321247916907,0.009263352116387567,0.9922452102143071
2013-08-30,1,0.0007241719795904463,0.0007811747631122495,-0.001548232239553938,0.009263352116387567,0.9924848540733087
2013-09-04,1,0.0009724440334235068,0.0010560481381988662,-0.0005916102318111609,0.009263352116387567,0.9923164807974308
2013-09-06,-1,-0.0003735455413227803,-0.00025630569512725314,-0.0003158627288789692,0.009263352116387567,0.992869982226258
2013-09-10,1,0.0004828098410098143,0.0005118549511186096,-0.0013550344852613647,0.005719494965065696,0.9937848958069636
2013-09-12,1,0.0003629640514408039,0.000394660386148574,-0.0013550344852613647,0.007725100137896953,0.9930832330448406
2013-09-16,1,0.0017588127351253601,0.001992231636230593,-0.0013550344852613647,0.004617183383604936,0.994022187494768
2013-09-18,1,0.0014623220593483115,0.0016526241090197992,-0.0008171818846404283,0.006560918226787971,0.9935897053472525
2013-09-20,1,0.0021847638524063167,0.0025011139083681265,-0.0008171818846404283,0.007024001148763847,0.99369177174572
2013-09-24,1,0.001985078515505205,0.0022491312969817844,-0.0008171818846404283,0.007024001148763847,0.9935480864882063
2013-09-26,1,0.0023750647391969004,0.002700067712675322,-0.0037355109203712155,0.005510288447268474,0.9917253921936934
2013-09-30,1,0.0022638658275962857,0.0025905504039111277,-0.0037355109203712155,0.007369386611894547,0.990881147091301
2013-10-02,1,0.002828405373730695,0.0032258285456829364,-0.0037355109203712155,0.007369386611894547,0.9909832825983832
2013-10-04,1,0.0024667765889800097,0.0028123330315912073,-0.0021634217339523754,0.007369386611894547,0.9915003941900145
2013-10-08,1,0.0013356528489192432,0.0014583324893987207,-0.002398226598384824,0.007369386611894547,0.9915318896052803
2013-10-10,1,0.00195671668210979,0.002191834218325429,-0.002398226598384824,0.007369386611894547,0.9917842625240967
2013-10-14,1,0.0016725554292880954,0.0018303000460522922,-0.002398226598384824,0.012879351666055687,0.9911914037022672
2013-10-16,1,0.001675730179186681,0.0018142013648749316,-0.0018284210788366254,0.010805269224139918,0.9912850305033571
2013-10-18,1,0.0021235407099531242,0.002341782599304264,-0.003031710223703958,0.008305451371313204,0.9914207321348939
2013-10-22,1,0.0022150407718374105,0.002446804685490326,-0.005109191206373136,0.008305451371313204,0.9910366763450472
2013-10-24,1,0.0009398813761959144,0.0009784619379662731,-0.003031710223703958,0.008305451371313204,0.9929737327014293
2013-10-28,1,0.0012662996635115446,0.0013572343686498243,-0.003031710223703958,0.005802033427377271,0.9940094446300028
2013-10-30,1,0.0015841640344165914,0.0017196451182693994,-0.00441556872818594,0.005304957272346834,0.9944521010842415
2013-11-01,1,0.001331432862797341,0.0013935502566040413,-0.005206031252387517,0.005304957272346834,0.9936133979090505
2013-11-05,1,0.001169048789732608,0.001228091530922471,-0.005466891631956619,0.005304957272346834,0.9935391427597167
2013-11-07,1,0.0015082365747349706,0.0016362063742900957,-0.005466891631956619,0.005304957272346834,0.9940912313669065
2013-11-11,1,0.0012161096579739095,0.0012453093834984006,-0.005882212146797717,0.004795669989293278,0.9939278158223382
2013-11-13,1,0.0016083826887578864,0.0016716407456708574,-0.006347433190564506,0.002597853963352518,0.9938512092774082
2013-11-15,1,0.001257463254751403,0.001280992778442663,-0.007589842862835763,0.002597853963352518,0.9934666717656251
2013-11-19,1,0.0012264760333516559,0.0012609119235346628,-0.007589842862835763,0.0027266288236060137,0.9929282210962318
2013-11-21,1,0.0006908610681228168,0.0007493917011457265,-0.007589842862835763,0.0047866793116594815,0.9925912559640007
2013-11-25,1,0.0010341866466363064,0.0010394046230013435,-0.007589842862835763,0.005307212047785535,0.9921484234953578
2013-11-27,1,0.0007103416127973726,0.000765451921096395,-0.007589842862835763,0.004720234271701761,0.9927162765648466
2013-12-02,1,0.0004298929399499818,0.0005021954319676363,-0.004638888820324851,0.005513473960259078,0.9930434980777066
2013-12-04,1,0.0003591610742640324,0.0004121303746188074,-0.0049375350437568825,0.005513473960259078,0.9919893681231442
2013-12-06,1,0.0001251979944945378,0.00022791618265155235,-0.0049375350437568825,0.005307212047785535,0.9922460522388311
2013-12-10,-1,-0.0005097585182657827,-0.00032599233778832736,-0.004511462166633492,0.005307212047785535,0.9924941530848461
2013-12-12,-1,-0.0008066984826294972,-0.0005529991161865477,-0.004280265786013116,0.004720234271701761,0.9928564936849397
2013-12-16,-1,-0.0011428733219737697,-0.00087028746606301,-0.0031158010863921106,0.005314138840385917,0.9931133124941135
2013-12-18,-1,-0.0008401866134672982,-0.0006115772565771707,-0.003917916297910465,0.004720234271701761,0.9936989485882913
2013-12-20,0,-8.715840085902744e-05,4.4535029871687324e-05,-0.003917916297910465,0.005314138840385917,0.9935873312550587
2013-12-24,0,-5.439467797674715e-07,0.00010567781733530798,-0.0077749824908435365,0.0019210959018219212,0.9916061379798573
2013-12-27,-1,-0.00030887515174611856,-0.00014941463243559874,-0.0077749824908435365,0.009027690082886099,0.9905707187772061
2013-12-31,0,-4.2601352458770036e-05,9.480432413148661e-05,-0.008627057840760385,0.009212719273589218,0.9890325256426926
2014-01-03,-1,-0.0008156848605416239,-0.0006085257676696543,-0.010925418576313775,0.009212719273589218,0.9884150081115043
2014-01-07,-1,-0.0006895521799491384,-0.0005257466885180038,-0.010925418576313775,0.009212719273589218,0.9880972150990265
2014-01-09,-1,-0.0011365294561944544,-0.0009124399559031995,-0.017618171921042116,0.009700919717798127,0.9865560573335618
2014-01-13,-1,-0.0014837216517065814,-0.0012157867289813262,-0.017618171921042116,0.011618692079062246,0.9848318882958602
2014-01-15,-1,-0.0011871560731471229,-0.0009547250751037331,-0.017618171921042116,0.012143916495803691,0.9845291504072368
2014-01-17,-1,-0.0017973798256046224,-0.0014822874061133809,-0.017618171921042116,0.012336241911816509,0.984075473696824
2014-01-22,-1,-0.0012714841964324938,-0.0009963650195585153,-0.017618171921042116,0.012101348503147622,0.9853426315241227
2014-01-24,-1,-0.002987790267085126,-0.0025113387465660083,-0.006207892468151986,0.012101348503147622,0.9862680056547398
2014-01-28,-1,-0.0018637406340666874,-0.0015357600171007236,-0.006921863862929074,0.012336241911816509,0.9870392929006702
2014-01-30,-1,-0.0020708680496014115,-0.001668689794788438,-0.003988560204061818,0.010274506084753946,0.9886261075070627
2014-02-03,-1,-0.0032365768669194257,-0.002747498029354898,-0.0015094504363204852,0.010274506084753946,0.9891485712539787
2014-02-05,-1,-0.002822167948342629,-0.002375081716206745,-0.0015094504363204852,0.010274506084753946,0.9896471928836169
2014-02-07,-1,-0.0028671354610901967,-0.0024581359577733747,-0.0007720802536325647,0.010258028365254338,0.9912182006837169
2014-02-11,-1,-0.0017884688890921535,-0.001494642249982204,-0.0015384591910723602,0.005935332824373284,0.9935467351080319
2014-02-13,-1,-0.0010446734128272978,-0.0008607703571463371,-0.0030938631684545664,0.005935332824373284,0.994197416920499
2014-02-18,-1,-0.0007352257805483342,-0.000589872760780432,-0.0030938631684545664,0.005638974709502504,0.9945647763204716
2014-02-20,-1,-0.0006079526430745944,-0.0004914995029480277,-0.0037650086706962817,0.005638974709502504,0.9942795053662113
2014-02-24,-1,-0.0012005748932473472,-0.001016646934590653,-0.001319557000845175,0.005638974709502504,0.9946978794677637
2014-02-26,-1,-0.00031285783813919145,-0.00026665420473036435,-0.001319557000845175,0.00408266957682176,0.9954146004471873
2014-02-28,-1,-0.0003928347074477625,-0.0003212828457007269,-0.003108302100014726,0.004033120457735675,0.9952310759123747
2014-03-04,-1,-0.0007721446554624018,-0.0006334167116555577,-0.003108302100014726,0.004033120457735675,0.9948213133581616
2014-03-06,-1,-0.00047541844151830745,-0.00039360867476707597,-0.003108302100014726,0.005288307816744488,0.9943931903576232
2014-03-10,-1,-0.00014302121917020408,-0.00011007860572299838,-0.0071965667157316586,0.004914250855890316,0.9938102955358772
2014-03-12,1,2.552829687472332e-05,2.7501284375693132e-05,-0.0071965667157316586,0.00655115708980691,0.993098475126749
2014-03-14,1,0.00038236354042544727,0.00045400043006598866,-0.0071965667157316586,0.005490327352244249,0.9935276578798959
2014-03-18,1,0.0006866580418654524,0.0008135836275398041,-0.0071965667157316586,0.005796451126049372,0.9932630493343337
2014-03-20,-1,-0.00019820582427647714,-0.00014632490167539058,-0.004932600978935423,0.008204783509697614,0.9927639874415587
2014-03-24,1,0.00012169604066963389,0.0001360807808774475,-0.004932600978935423,0.008204783509697614,0.9929009898713121
2014-03-26,1,0.0001474473968111424,0.00019286000529954056,-0.004932600978935423,0.00877628113475747,0.9913305411978737
2014-03-28,1,0.0002217555241062968,0.00027967251574593187,-0.005060160824599412,0.00877628113475747,0.9912808025772928
2014-04-01,1,0.0004618269585982223,0.0005390094063837862,-0.003656341569012209,0.00877628113475747,0.9920378486852595
2014-04-03,1,0.001040575195725106,0.0012123370109503075,-0.004398966554991687,0.010471424417947954,0.9917136181054567
2014-04-07,1,0.0006557357266404407,0.0008015108633449045,-0.002797291302695431,0.010471424417947954,0.9925305184428331
2014-04-09,1,0.001626636470970639,0.0019345708932076559,-0.002797291302695431,0.009197225252096966,0.9928095470341933
2014-04-11,1,0.0013379066386899241,0.001588609263054719,-0.002797291302695431,0.009197225252096966,0.9926283690070469
2014-04-15,1,0.0016133931456358754,0.0018963047194992253,-0.0038348424421125547,0.008345098215477447,0.9926691023098897
2014-04-17,1,0.002174730357606302,0.0025295795625264053,-0.0038348424421125547,0.003423125194507158,0.9929417138135229
2014-04-22,1,0.002143046261578226,0.002499201086840529,-0.0038348424421125547,0.004795915779242656,0.9928019486783661
2014-04-24,1,0.001863548960930121,0.002185859561737376,-0.002797291302695431,0.004794708403098653,0.994697129624714
2014-04-28,1,0.0016426655667975722,0.0019104917627639911,-0.0024690173264017455,0.005166589216212443,0.9947092759685657
2014-04-30,1,0.0017291808776952978,0.0019882941369203946,-0.0024690173264017455,0.004794708403098653,0.994840177656136
2014-05-02,1,0.002017890883961643,0.0023242739899642486,-0.0024690173264017455,0.003540946123831208,0.9951610606981534
2014-05-06,1,0.0016416770609827469,0.0018661191215450477,-0.002172329345665021,0.004794708403098653,0.9949630087413115
2014-05-08,1,0.0017814421019892936,0.002024668064944324,-0.0017151512880976907,0.003540946123831208,0.9952991232038216
2014-05-12,1,0.0011660870937699628,0.0012912887903016013,-0.0017151512880976907,0.004794708403098653,0.9953103413114948
2014-05-14,1,0.0009834532305557898,0.0010950549474707072,-0.0029854950139845166,0.004794708403098653,0.9951217161465037
2014-05-16,1,0.0013921375310328023,0.0015990435989152105,-0.0058874868987276565,0.004794708403098653,0.9947216741365823
2014-05-20,1,0.0014783957179625611,0.001696533953651716,-0.0058874868987276565,0.004794708403098653,0.994949214371258
2014-05-22,1,0.0017195434072273786,0.0019667981381284796,-0.0058874868987276565,0.003422061285752815,0.9947697191604933
2014-05-27,1,0.002284891109505005,0.0026327457726860832,-0.0058874868987276565,0.0018330393162370082,0.9949253102295701
2014-05-29,1,0.0014731053455805652,0.0016574275913120535,-0.0058874868987276565,0.003422061285752815,0.9950725681165566
2014-06-02,1,0.0011400217379879032,0.001266904317093663,-0.0035427098230103723,0.004703975718894301,0.9950838448385881
2014-06-04,1,0.001474158270506807,0.00162180653491911,-0.006582109276802671,0.004703975718894301,0.9947919781577861
2014-06-06,1,0.0011268245102021585,0.0012100432193773649,-0.006582109276802671,0.005278834364812967,0.9942006909430964
2014-06-10,1,0.0012832751601843943,0.001402547524961472,-0.0051388130696710796,0.005278834364812967,0.9942082708739111
2014-06-12,1,0.000516991346974985,0.0005255067452854613,-0.002330571767785766,0.005278834364812967,0.9947925974918286
2014-06-16,1,0.0008078039267000298,0.0008800022081525587,-0.001524528213391046,0.005278834364812967,0.9951920330060116
2014-06-18,1,4.124094128030501e-06,0.00011669082445990862,-0.003061611087299842,0.005008455820853587,0.9942288714184276
2014-06-20,1,0.0003066882773706262,0.0003418847298162351,-0.0032189553520018455,0.006737930537852359,0.9939259705792712
2014-06-24,1,0.000519316506856406,0.0005230976140279292,-0.0032189553520018455,0.008179805514721089,0.9931208264562961
2014-06-26,-1,-0.0009418974230420305,-0.0006854287709695156,-0.005015523206883988,0.008179805514721089,0.992395289732041
2014-06-30,-1,-0.00017920299551661288,-3.814879005630234e-05,-0.0070871498022983,0.008179805514721089,0.9925186739820157
2014-07-02,-1,-0.0008185680619211448,-0.0005815300532800369,-0.0070871498022983,0.005160413429874559,0.9923743461674215
2014-07-07,1,3.879905932769172e-05,0.00011568374369884065,-0.0070871498022983,0.006282120075124546,0.9922338397532038
2014-07-09,1,0.0006012390467300221,0.0006133856693482137,-0.0070871498022983,0.0045861142393185455,0.9927184489320413
2014-07-11,1,0.0005969114362462085,0.0006219733673510343,-0.0070871498022983,0.005957676696099075,0.9923695488635292
2014-07-15,1,0.000632491395711922,0.0006564160015978618,-0.0070871498022983,0.005957676696099075,0.9923467802540837
2014-07-17,-1,-0.0004910927575645994,-0.00035194190063258276,-0.00280287270457818,0.006243426811426962,0.9929368272990357
2014-07-21,1,3.4744044261100066e-06,6.455209935451084e-05,-0.0026658892652901395,0.005803070923011161,0.9932937866933459
2014-07-23,1,0.0006114702652144508,0.0006245411341027721,-0.0026658892652901395,0.004489388693984762,0.9942221417434817
2014-07-25,-1,-0.0004091795267792174,-0.0002913818561051589,-0.0011756788357178314,0.0048543877226941146,0.9945848046260318
2014-07-29,-1,-0.0006221373075746043,-0.00047955654439664843,-0.0011756788357178314,0.0049887117680745795,0.9946347732263991
2014-07-31,-1,-0.0010698970618020034,-0.0008801505114177225,-0.0009190101696211714,0.005803070923011161,0.9949815875257143
2014-08-04,-1,-0.0006542502842952858,-0.0005077103149866717,-0.0009190101696211714,0.005083961806517208,0.9953299360195759
2014-08-06,-1,-0.0006509456208060028,-0.0005106632975274951,-0.0022973680221237943,0.005083961806517208,0.9949276054747004
2014-08-08,-1,-0.00046068239881880184,-0.000350100116742271,-0.0009190101696211714,0.004614684683862796,0.9951953499603101
2014-08-12,-1,-0.0005305201747461407,-0.00039586675321334465,-0.002475515582891344,0.004614684683862796,0.9951312649000862
2014-08-14,-1,-0.0002553936662256906,-0.0001508755430656154,-0.0027213372935382973,0.003945273982404912,0.9955553835338726
2014-08-18,-1,-0.00041254561536300464,-0.0002761996538645429,-0.0027213372935382973,0.0039900486641984,0.9953714927038091
2014-08-20,-1,-0.0003994959766592638,-0.0002629523212638369,-0.0027213372935382973,0.004585443774841744,0.9951289828325821
2014-08-22,-1,-0.0004611003620853046,-0.00033351403535822766,-0.0027213372935382973,0.003935527012731227,0.9957416200455904
2014-08-26,-1,-0.00019019070871411015,-0.00011496791259217322,-0.0027213372935382973,0.003935527012731227,0.9951371319488779
2014-08-28,-1,-0.00045528045541108777,-0.00031405920493811845,-0.0037551492892971875,0.003935527012731227,0.9946136687468285
2014-09-02,1,0.00036574330004039755,0.00037590004227049524,-0.005592313376486579,0.0033861128849130497,0.9943183185640256
2014-09-04,-1,-0.0002675335517876147,-0.00017365357687828788,-0.005592313376486579,0.004758322786986107,0.9943145603356748
2014-09-08,1,7.382165145183816e-05,0.00011206913059678309,-0.007525195092226078,0.0055286431994483395,0.9931018405550326
2014-09-10,1,8.129753854199037e-05,8.988730656161022e-05,-0.005592313376486579,0.006009743310217981,0.9927976512475228
2014-09-12,-1,-7.288363536169875e-05,-4.1159032784957925e-05,-0.007525195092226078,0.006009743310217981,0.9919693617035279
2014-09-16,1,4.0283487442936594e-05,7.358694145113764e-05,-0.00867341941360381,0.007242692672836374,0.9915234958493653
2014-09-18,1,0.00013340867190786098,0.00015984897859471932,-0.009110718023133426,0.007242692672836374,0.9911195928020529
2014-09-22,1,6.331301233352158e-05,8.117718367455607e-05,-0.009110718023133426,0.0091067782949434,0.9905785045723058
2014-09-24,1,9.705205858889101e-07,1.866545082749631e-05,-0.00867341941360381,0.009837865748139243,0.9904210548086372
2014-09-26,-1,-0.0001132640512835626,-7.924147093713865e-05,-0.00867341941360381,0.011239053994832483,0.9903513013787218
2014-09-30,1,0.0001369944447253528,0.00014018292868672337,-0.00867341941360381,0.009490042306441248,0.9908235948242593
2014-10-02,-1,-0.00018462492741955116,-0.00013685503009098384,-0.00515387803146213,0.01121052333879814,0.990780002534623
2014-10-06,-1,-0.0005071982127489208,-0.00040482369396717665,-0.0024446586146707715,0.009490042306441248,0.9917212511508656
2014-10-08,1,0.00012263545980977484,0.00014687287611962887,-0.0009595588431374303,0.007291656959298401,0.9921702009456184
2014-10-10,-1,-0.0005542194868198593,-0.0004559504476773086,-0.00047472637493938127,0.007291656959298401,0.9926652500608303
2014-10-14,-1,-0.00029155002510980953,-0.00023906763414820458,-0.001525620324535369,0.006600059268085276,0.9933665470175019
2014-10-16,-1,-0.00043355997777674355,-0.00038394658447838716,1.3739741951129683e-06,0.006600059268085276,0.9933942111773453
2014-10-20,-1,-9.586006802705776e-05,-6.984096787976304e-05,-0.001525620324535369,0.005774027314317098,0.9942632363708922
2014-10-22,1,0.00038783487844076066,0.000410593261801956,-0.001525620324535369,0.0050807894820161775,0.9953450505933371
2014-10-24,1,0.0008532052689297601,0.0009723331321470124,-0.0007010646085544074,0.0050807894820161775,0.9957812103246585
2014-10-28,1,0.0009432113756111689,0.0010664677964071629,-0.001525620324535369,0.005293470798225982,0.995456526066635
2014-10-30,1,0.0014552771221629291,0.001648431543816272,-0.001763385626072036,0.0049206420729050755,0.9957190013564043
2014-11-03,1,0.0010709468040052824,0.001182647728356558,-0.003006129396572083,0.0049206420729050755,0.9949160227038225
2014-11-05,1,0.0013531001197216782,0.0014957328091431974,-0.003006129396572083,0.004214693975922587,0.9951076005614717
2014-11-07,1,0.0013333029988368543,0.001484836307120561,-0.0018155936507052673,0.00453512451982737,0.9947839094056142
2014-11-11,1,0.0010107186738399457,0.0011091087978672334,-0.0032416063751886694,0.00453512451982737,0.9930824948754674
2014-11-13,1,0.0009055237366733385,0.0009874621895236044,-0.0032416063751886694,0.005256876878601127,0.9918555709595829
2014-11-17,1,0.0006656855551066155,0.0007035701137355805,-0.005843758132327647,0.005256876878601127,0.9914214853580016
2014-11-19,1,0.0009194812861822427,0.001015675497941717,-0.005843758132327647,0.010562704248655276,0.9903414135492895
2014-11-21,1,0.0011687000347552128,0.0012860870737715975,-0.005843758132327647,0.007307136555018637,0.9907174847080613
2014-11-25,1,0.001465712205346316,0.0016321802097404897,-0.005843758132327647,0.007219446347218758,0.9908560948688864
2014-11-28,1,0.0016939001727263629,0.0019137904587212984,-0.005843758132327647,0.007219446347218758,0.9908497327493755
2014-12-02,1,0.0014470744342815053,0.0016316579383460594,-0.005843758132327647,0.006454057142609445,0.9911507293261369
2014-12-04,1,0.0017048031227458464,0.0019320769792379774,-0.007233595821270007,0.006454057142609445,0.9903798099926607
2014-12-08,1,0.0015722099764707098,0.0017366459537576859,-0.007233595821270007,0.006421357313966353,0.9905012558224623
2014-12-10,1,0.0003484077611214527,0.0003613519149809557,-0.005843758132327647,0.007580584614341279,0.9904550438827802
2014-12-12,1,0.0007079465258799933,0.0008045933095267349,-0.005843758132327647,0.006421357313966353,0.9914002728941747
2014-12-16,-1,-0.00015896473492580865,-9.198995444883873e-05,-0.006215413751398851,0.006421357313966353,0.991269655326854
2014-12-18,1,0.0006908453122369028,0.0007111786715893191,-0.008758662177394532,0.005889819669157422,0.9912743170706624
2014-12-22,-1,-0.00020639787009928064,-8.37392040941154e-05,-0.008758662177394532,0.006421357313966353,0.9906155539742181
2014-12-24,1,0.0004003260814174385,0.00042511597907208317,-0.008758662177394532,0.006421357313966353,0.990398478832715
2014-12-29,1,0.00023550925988032883,0.00028397123989667386,-0.009475810132565444,0.006421357313966353,0.9899843634145916
2014-12-31,-1,-0.00010764907972871541,-2.202019962488865e-05,-0.009475810132565444,0.006421357313966353,0.990158741118993
2015-01-05,-1,-0.00044563964780977615,-0.0003295139450331518,-0.009475810132565444,0.012196398632659953,0.9894650860807366
2015-01-07,1,0.00018087816743591185,0.000208173071799859,-0.009475810132565444,0.013241737472452896,0.9885499973497939
2015-01-09,1,0.0003404958713677367,0.00034671062077151266,-0.007497584101111204,0.012196398632659953,0.9903337303179192
2015-01-13,-1,-0.00014158544616087908,-8.17791098381896e-05,-0.0038736856485880283,0.012196398632659953,0.9908391818586831
2015-01-15,-1,-0.0004003079891794549,-0.0002990505974075762,-0.003054978649183704,0.012196398632659953,0.9914646252159495
2015-01-20,-1,-0.0003174066800893722,-0.00022611039415688136,-0.003054978649183704,0.010844588893683418,0.9917628699245333
2015-01-22,1,0.000745785257971307,0.0007941641992029802,-0.00385782521589125,0.006512403200939336,0.9928228591669375
2015-01-26,1,0.0011960308511657237,0.0013295937272926142,-0.004923671809316427,0.006512403200939336,0.9926602640930265
2015-01-28,1,0.0002914438096473094,0.00030738480210248,-0.004923671809316427,0.006512403200939336,0.9926408876502545
2015-01-30,1,0.0002118251825698556,0.00022965552630478615,-0.004004470657749515,0.010591881346109713,0.9925177181649171
2015-02-03,1,0.0008660745557292967,0.0009103540500462479,-0.004923671809316427,0.004558835776779359,0.9932917274914129
2015-02-05,1,0.0016795840977274574,0.0018234066456589357,-0.004923671809316427,0.002544570080174723,0.9943973333841789
2015-02-09,1,0.001543601314500606,0.0016838159321668033,-0.005340138007927727,0.0016016524591595644,0.9936838173178727
2015-02-11,1,0.0016001501004311957,0.001754991321890551,-0.005340138007927727,0.003072868297789938,0.9926291003607797
2015-02-13,1,0.0013173885035535514,0.0014185648261733307,-0.006967158950653552,0.003072868297789938,0.9925893429120018
2015-02-18,1,0.0009118111097135853,0.0009441051632088403,-0.005315510208534898,0.0020285694006527484,0.9934399514343519
2015-02-20,1,0.0006301436702086172,0.0006415451673479047,-0.006967158950653552,0.0031779805258921275,0.9930702511763072
2015-02-24,1,0.0008099578970103833,0.0008270661951898285,-0.00704154574942242,0.0031779805258921275,0.9930784904881274
2015-02-26,1,0.00029993190656683725,0.00035603064304192707,-0.00704154574942242,0.002843159272795388,0.9931386561281055
2015-03-02,1,0.0004652126087684313,0.0005109476903658441,-0.00704154574942242,0.002843159272795388,0.9929098391358129
2015-03-04,1,0.00033212214638868553,0.0003641933312781729,-0.007318384777367331,0.002843159272795388,0.9924691458880842
2015-03-06,-1,-0.00017419126554752215,-4.4516515207094684e-05,-0.007318384777367331,0.006136241228451477,0.9917032633559896
2015-03-10,-1,-0.0011076226718031582,-0.0008688128622602409,-0.005614916824385762,0.008692327471677452,0.9918815538431923
2015-03-12,-1,-0.0004061277284945566,-0.00022210864756684893,-0.005614916824385762,0.00487158902934577,0.9929719047458534
2015-03-16,-1,-0.0004713361356955747,-0.0002997911018785141,-0.004947397600593572,0.006136241228451477,0.9924372703066497
2015-03-18,-1,-0.00013409905048101161,-3.623949757496954e-05,-0.004947397600593572,0.006136241228451477,0.9924556283558973
2015-03-20,-1,-0.00020410749934977483,-0.00010753586039117998,-0.004947397600593572,0.0053860801154771995,0.9922246862193531
2015-03-24,-1,-0.0002680241248135602,-0.00017243492859714857,-0.004947397600593572,0.004461348347291455,0.9924618032002664
2015-03-26,-1,-0.000327208107302155,-0.0002527122307014418,-0.0037219048788257954,0.0049056495740407045,0.9925489079351403
2015-03-30,1,0.00014818990295609484,0.0001659648282430546,-0.0037968985837704187,0.0049056495740407045,0.992861160809792
2015-04-01,-1,-0.000350895660935752,-0.00029453798539959237,-0.0029247857525910655,0.0049056495740407045,0.9930383117535239
2015-04-06,1,0.0003815620181509082,0.00041028892222182015,-0.0029247857525910655,0.004745462596311149,0.9936151032547261
2015-04-08,1,0.0006330028691179097,0.000683503028998583,-0.004089518420076406,0.003852550986100315,0.9942290798169945
2015-04-10,1,0.0005400115189571092,0.0005717831499464377,-0.004089518420076406,0.004277594683440878,0.9939475279040022
2015-04-14,1,0.0010089204496631903,0.001094337384621931,-0.004089518420076406,0.003753444380703718,0.994658923998017
2015-04-16,1,0.0009954189136445334,0.0010830206953836028,-0.004089518420076406,0.004277594683440878,0.994074254252139
2015-04-20,1,0.0007430861243652584,0.0008164695143169494,-0.004089518420076406,0.005816831989638579,0.9941295110239096
2015-04-22,1,0.000778133875315836,0.0008698483409528468,-0.0018484177888518623,0.005816831989638579,0.9946467375579139
2015-04-24,1,0.0010617403464211693,0.0011932621034915236,-0.0026440251977704514,0.00433643435197967,0.9947221556076152
2015-04-28,1,0.0007750790998980547,0.0008528015546495418,-0.0026440251977704514,0.004327346278172435,0.9948848720487478
2015-04-30,1,0.00044001778888469727,0.00048270113574917285,-0.0023491294444578804,0.004327346278172435,0.994813535075872
2015-05-04,1,0.0010076321181401407,0.0011439347804170108,-0.0023491294444578804,0.003753444380703718,0.9952442193985106
2015-05-06,-1,-0.00014300893259282753,-5.66848423516766e-05,-0.0023491294444578804,0.004327346278172435,0.9948737833148432
2015-05-08,1,0.0001858555715044214,0.00023565058107785224,-0.0034564342305017886,0.0036629417468566584,0.9947646086174123
2015-05-12,0,-3.208457960086924e-05,6.123623805741449e-05,-0.005545203288609928,0.00421638736198036,0.9940813575724168
2015-05-14,1,0.0009420196157434859,0.0010173394205139344,-0.0064391253985651336,0.00421638736198036,0.99346823989282
2015-05-18,1,0.0006472538127846525,0.0006614180576409505,-0.0060401685753936046,0.00421638736198036,0.9936317338927503
2015-05-20,1,0.0008085788995583869,0.0008592032341262835,-0.0060401685753936046,0.00623401301920711,0.9933323529172213
2015-05-22,1,0.0005724196964016604,0.0005869488216768094,-0.0060401685753936046,0.00623401301920711,0.9932417835287412
2015-05-27,1,0.00031191191908457397,0.00034831140667623546,-0.0060401685753936046,0.00485015662244166,0.9931530599299488
2015-05-29,-1,-0.0006100656293166965,-0.00044780248094797596,-0.005545203288609928,0.006717129112571525,0.9933163031826923
2015-06-02,0,-6.0001152478208754e-05,1.6579324521191188e-05,-0.0060401685753936046,0.006717129112571525,0.9926048267277018
2015-06-04,-1,-8.155560206599813e-05,-6.334407406035568e-06,-0.0057915415035740304,0.006856749196277479,0.9919431296611035
2015-06-08,-1,-0.0009078268407014855,-0.0007180879056757554,-0.005462327598003402,0.007686686590239713,0.9917531117269986
2015-06-10,-1,-0.0002979204910561194,-0.00020101337872695344,-0.006364265483467265,0.006856749196277479,0.9920547530535008
2015-06-12,-1,-0.00044959215321497235,-0.00032705771130608365,-0.0057915415035740304,0.006982652168366902,0.9921769979349189
2015-06-16,1,0.00026901169229835107,0.00027303690067598637,-0.004766442164730957,0.006643121148541709,0.9926117098581463
2015-06-18,1,0.0004826972546680886,0.0005230185599984795,-0.005897232683758662,0.006643121148541709,0.9924656004819163
2015-06-22,0,-1.8933006948470773e-06,5.171487269861426e-05,-0.005897232683758662,0.006643121148541709,0.9926469409180818
2015-06-24,-1,-0.0003517272805385754,-0.0002578978203776825,-0.005897232683758662,0.006643121148541709,0.9930046831676822
2015-06-26,1,0.00033066124492965576,0.0003539780505906804,-0.006482925965852758,0.00645465274689403,0.992921073861848
2015-06-30,1,0.00026800580369585654,0.0003217184110730517,-0.006482925965852758,0.006864548959555213,0.9915370122212688
2015-07-02,1,0.0003702122440941479,0.0004210981518940665,-0.006482925965852758,0.00645465274689403,0.992747126809881
2015-07-07,1,0.0008078406497538993,0.0009185516804412996,-0.006482925965852758,0.004290626121508508,0.9930887568951998
2015-07-09,1,0.00019733009699387372,0.00022324605774250324,-0.0035721746160370742,0.006293355075234151,0.9934974355616571
2015-07-13,1,0.0006690326153880337,0.0007525578833144878,-0.0035721746160370742,0.00427179038359267,0.994094187279071
2015-07-15,1,0.0007711246386731233,0.0008618925966139275,-0.0035902237079367483,0.002122798998380371,0.9940417914365848
2015-07-17,1,0.0006482652194683502,0.000731274329804285,-0.0027266606305956743,0.002122798998380371,0.99456212608475
2015-07-21,1,0.0005988995015215676,0.000662021317204848,-0.0027266606305956743,0.002030323665328902,0.9946109502867605
2015-07-23,1,0.0004948250060128774,0.000554263140234581,-0.0035902237079367483,0.002030323665328902,0.9939473090294912
2015-07-27,1,0.00028569706630140985,0.0002925657594434247,-0.004085499808365277,0.002030323665328902,0.9911624732629283
2015-07-29,1,0.00016832652249496862,0.00017200285920809092,-0.004085499808365277,0.002030323665328902,0.9920835470507291
2015-07-31,-1,-0.00045187910535788607,-0.0003548018809147241,-0.004085499808365277,0.003716948076128915,0.9907842942989699
2015-08-04,-1,-4.485613258257167e-05,-3.0877212371959797e-05,-0.009128414614716779,0.004299015527001461,0.9900126164917062
2015-08-06,-1,-0.00015688075522361577,-0.00011973617202095229,-0.009128414614716779,0.004299015527001461,0.9898838603779705
2015-08-10,1,6.799667556087888e-05,7.667356314056516e-05,-0.0114518629006522,0.004299015527001461,0.9889889614590759
2015-08-12,-1,-4.945163105500652e-05,-2.1958376037180556e-05,-0.0114518629006522,0.0056021556515956855,0.9886185200661824
2015-08-14,-1,-7.317001286702375e-05,-3.67109134328818e-05,-0.0114518629006522,0.0062129164759941735,0.9885277099475358
2015-08-18,-1,-0.00016756914243489884,-0.00011379960806992624,-0.0114518629006522,0.0062129164759941735,0.9885071504785803
2015-08-20,-1,-0.000375446502944494,-0.00031342509288038924,-0.0114518629006522,0.0062129164759941735,0.9884826259136268
2015-08-24,-1,-0.0017295437225453938,-0.0014883405243402209,-0.006767416766224604,0.007771226067468703,0.9907564428325671
2015-08-26,-1,-0.0009031403645628907,-0.0007882401012309262,-0.004503370016780022,0.0062129164759941735,0.9919723331115179
2015-08-28,-1,-0.00044300736310003044,-0.00039177447575649313,-0.006767416766224604,0.0052341987270821295,0.9925031371460258
2015-09-01,-1,-0.000689543412060822,-0.0005995626098712043,-0.004503370016780022,0.006567088116721835,0.9927801037997687
2015-09-03,-1,-0.00034010221857192077,-0.0003106586497061576,-0.0056245477742124985,0.006567088116721835,0.9926653708086024
2015-09-08,-1,-0.00020122298688749496,-0.0001823133550337258,-0.004503370016780022,0.006567088116721835,0.9935622094638503
2015-09-10,-1,-0.00042074728265553436,-0.00036234685699005394,-0.003219566945356883,0.0078015722275591925,0.9931107922997986
2015-09-14,-1,-0.00037325441463393233,-0.00032599725952802056,-0.00483996247398937,0.008070473932269295,0.9924681525315224
2015-09-16,-1,-0.00023397034547557912,-0.00021010084542719509,-0.0075419344634651535,0.008070473932269295,0.992025148791941
2015-09-18,-1,-0.0006875142624015449,-0.0006083155063964483,-0.001401859645321994,0.008070473932269295,0.9924754620719476
2015-09-22,-1,-0.0007609042574811848,-0.0006608205397929653,-0.001401859645321994,0.008070473932269295,0.9924925515576227
2015-09-24,-1,-0.00032541120084108406,-0.0002897837145794352,-0.0035787326463115068,0.00873495226466402,0.9921064526651854
2015-09-28,-1,-0.0011073426938892229,-0.0009662357512898463,-0.0035787326463115068,0.00873495226466402,0.9917659279212309
2015-09-30,-1,-0.0005795436001014235,-0.000512292946283984,-0.0035787326463115068,0.00873495226466402,0.9922320549195947
2015-10-02,-1,-0.0001370566980887308,-0.00012260393235357937,-0.0036987478709044844,0.008733090377124431,0.9919917833778478
2015-10-06,-1,-0.0001494106456648746,-0.0001483811313219065,-0.004091736670212386,0.008069853303089432,0.99221911095603
2015-10-08,1,0.00025925235155283954,0.00031143161120845996,-0.004091736670212386,0.007148522585031683,0.9927367488866627
2015-10-12,1,0.00012098794296400839,0.00015322168579435608,-0.0032518897995763617,0.0063906870659620335,0.9931688398348029
2015-10-14,-1,-8.742511517113624e-05,-8.741197041830285e-05,-0.0026911980795711293,0.0063906870659620335,0.9934105387379287
2015-10-16,0,-3.546334732019754e-06,1.3710782267564923e-05,-0.0026911980795711293,0.005040306088913157,0.993719625928236
2015-10-20,-1,-1.8666148301373562e-05,-2.840125606760534e-06,-0.0026911980795711293,0.004795706717773353,0.9942102100328882
2015-10-22,1,0.00030537175129637106,0.00035565178862170376,-0.002588537592347322,0.0054894341452393055,0.9937289686583843
2015-10-26,1,0.0002081545581618806,0.00024352567611373967,-0.002419749003173557,0.004795706717773353,0.99450883632389
2015-10-28,-1,-2.819442447122087e-05,-1.0068783702172662e-05,-0.002419749003173557,0.004533882879800123,0.9947201129833256
2015-10-30,-1,-0.00046295355565725865,-0.0004179711888145438,-0.002419749003173557,0.004533882879800123,0.9954174593834167
2015-11-03,-1,-0.0001517333586937578,-0.00013778605700378254,-0.002419749003173557,0.0054894341452393055,0.99439020108934
2015-11-05,1,0.00023431401152420271,0.00028428036258374724,-0.0027562405130446524,0.0054894341452393055,0.9939394460181936
2015-11-09,1,0.0002405108273098333,0.0002967234362308685,-0.002847202757555117,0.0064883364019684645,0.9935088619140282
2015-11-11,1,0.0003011465852818687,0.0003594577349845025,-0.005312464992946833,0.0064883364019684645,0.99303724814192
2015-11-13,1,9.607141268093615e-05,0.00011196958827900149,-0.005446014818096455,0.007555745727270857,0.9925332608556785
2015-11-17,1,0.00017714418031066742,0.0002215784539730674,-0.005984341053939546,0.007555745727270857,0.9924204402165308
2015-11-19,1,0.0006285660319606963,0.0007139893230262177,-0.005984341053939546,0.001221539801518671,0.9933099128857348
2015-11-23,1,0.0004932153987182075,0.0005710029776263075,-0.005984341053939546,0.0068231215151216855,0.9927503141879627
2015-11-25,1,0.0007579525111896367,0.000900461941662383,-0.005984341053939546,0.0068231215151216855,0.9927219602999315
2015-11-30,1,0.0005185778963651844,0.0005979283954878813,-0.005984341053939546,0.008020968649127838,0.992659617035135
2015-12-02,1,0.0007157412079514826,0.000856542380513887,-0.007023442494083224,0.0068231215151216855,0.9927267382251087
2015-12-04,1,0.0014580397840483668,0.0017121222332521799,-0.007948106683193932,0.003943363357654961,0.9927227330254892
2015-12-08,1,0.001203710135552998,0.0014162329976506298,-0.008709173073448626,0.0016097785299973308,0.9926672975161658
2015-12-10,1,0.0009197178539984601,0.0010994310158600144,-0.008782815456122008,0.0030759368694009428,0.9929657069104451
2015-12-14,1,0.0009573232176650037,0.0011285509165667419,-0.01013999377036015,0.0016097785299973308,0.9927484176438504
2015-12-16,1,0.0003738703176188992,0.00046003434121923067,-0.008906498020940774,0.0030759368694009428,0.9927412446605942
2015-12-18,1,0.00037677286054554047,0.00045622709645655,-0.010553073497859104,0.0030759368694009428,0.9919441606822991
2015-12-22,1,0.0007594654281033702,0.0008750909439548397,-0.010553073497859104,0.0016097785299973308,0.9917187713162265
2015-12-24,1,0.0007111598915316658,0.0008189584929216489,-0.010753921611743327,0.0016505799918036675,0.9905736586984253
2015-12-29,1,0.000970558900796623,0.0011152902762842382,-0.010753921611743327,0.0008423255612405176,0.9901424184684305
2015-12-31,1,0.0005181943902043899,0.0006205821177366609,-0.010553073497859104,0.009602502126832276,0.9898741299924574
2016-01-05,1,0.00030635728758286615,0.00037592049792442914,-0.010553073497859104,0.009602502126832276,0.9893562147186021
2016-01-07,1,9.519999745793078e-05,0.0001419997210520061,-0.01085274816988837,0.01084666590124758,0.9883039863239592
2016-01-11,0,-4.465883985901696e-06,3.221840340814949e-05,-0.00950071252655027,0.013379213829104411,0.9868487534854278
2016-01-13,-1,-0.0008533741559878181,-0.0007640564104500671,-0.009628671646927406,0.013379213829104411,0.9863750629851893
2016-01-15,-1,-0.0016818434185388938,-0.0014055628583561144,-0.009628671646927406,0.015123256750400792,0.9863597536553762
2016-01-20,-1,-0.0022042140762054746,-0.0018865806243023465,-0.006180224831792947,0.015123256750400792,0.9866355147493757
2016-01-22,-1,-0.0012619082414918159,-0.0010835750810320834,-0.006180224831792947,0.01323521315016585,0.9874415995265772
2016-01-26,-1,-0.0013355181464010893,-0.001131645898769829,-0.004470691188075549,0.010204901996327656,0.9882479757499665
2016-01-28,-1,-0.000990953972134919,-0.0008404332245398277,-0.006180224831792947,0.008901899175087576,0.9880890663517453
2016-02-01,1,0.00013132694372760398,0.00014135951847545327,-0.006180224831792947,0.006769120270536414,0.988575748631935
2016-02-03,-1,-0.00048690101025858427,-0.000404701080506749,-0.004276092660020109,0.006769120270536414,0.989518369861041
2016-02-05,-1,-0.00013766918268286557,-0.00010139742853246036,-0.0029599832950271496,0.00669381058913535,0.991141412056552
2016-02-09,1,0.0012479720683932797,0.0013866748171272292,-0.004276092660020109,0.005270491865280111,0.9930920866758307
2016-02-11,-1,-8.071892314361363e-05,-7.150972932458324e-06,-0.000148498803845683,0.00669381058913535,0.9933512178411376
2016-02-16,0,-7.394778678091845e-06,5.942259281550987e-05,-0.00168942583398708,0.005270491865280111,0.993647422329639
2016-02-18,1,0.0004653244234722623,0.00046735182487954934,-0.002117267523420966,0.00669381058913535,0.9934835032562802
2016-02-22,0,-9.573726796122464e-05,6.019010074641165e-06,-0.0024505797643171743,0.008513742914182809,0.9921251111825847
2016-02-24,1,0.0006095329579921799,0.0006127083813428795,-0.0025371248695169836,0.008513742914182809,0.9924248061930251
2016-02-26,1,0.0003025843362698757,0.00032704112198531635,-0.0025371248695169836,0.008852504800765543,0.9921798729697839
2016-03-01,1,0.0012262985388966075,0.001326280697890891,-0.0019763147149175772,0.007394811325198959,0.9932212183351742
2016-03-03,1,0.0015311898364075655,0.0017097386845527892,-0.0019763147149175772,0.008658779421040805,0.9929838834154413
2016-03-07,1,0.001726425443631051,0.001918867832912533,-0.007300903369774007,0.007615157513458019,0.9922838717098005
2016-03-09,1,0.0013916998824779567,0.0015215353238043172,-0.00448562654578225,0.007615157513458019,0.9926333165576146
2016-03-11,1,0.0018368253744234998,0.002035966030108642,-0.00448562654578225,0.005669197864977046,0.9928411264316913
2016-03-15,1,0.00141205248289261,0.001567947971256503,-0.0024276094014485357,0.00932227947975727,0.9929285662224474
2016-03-17,1,0.001741412372959817,0.0019569001568402037,-0.004437325354936528,0.007615157513458019,0.9929900776335805
2016-03-21,1,0.0015784763236235402,0.001761368242374311,-0.0024276094014485357,0.005669197864977046,0.9944429565292378
2016-03-23,1,0.0014166516607832854,0.0015867551782014423,-0.004437325354936528,0.005669197864977046,0.993060366548698
2016-03-28,1,0.0011970937735887204,0.0012852293058026743,-0.0022249973401783744,0.005669197864977046,0.9939450615754781
2016-03-30,1,0.0013487963142649942,0.0014639209699600464,-0.005952952016322267,0.0017201819475017388,0.9920160109378547
2016-04-01,1,0.0019051714233518672,0.0021131714026225317,-0.005952952016322267,0.0010275013761963762,0.9918900544543064
2016-04-05,1,0.001203093688918588,0.001317300732935331,-0.004027067032570563,0.0016793531705591182,0.9926567665019844
2016-04-07,1,0.0012347259429495642,0.001362901515785224,-0.005952952016322267,0.0024831216039135754,0.992254359372809
2016-04-11,1,0.0010458234648900663,0.001140699546206363,-0.007201713949863017,0.0024831216039135754,0.9917620785448259
2016-04-13,1,0.0015344642209107128,0.0016886858618316402,-0.007201713949863017,0.0012954241873145288,0.9916073253664963
2016-04-15,1,0.001687902637657777,0.0019122496356907765,-0.0059709389827651204,0.0024831216039135754,0.9914818805703306
2016-04-19,1,0.0015300269446120703,0.0017186490512118464,-0.007680113135914609,0.0034780245893288545,0.9908488147823405
2016-04-21,1,0.00042974506524292753,0.0004656494945885297,-0.007680113135914609,0.0034780245893288545,0.9920803737292139
2016-04-25,1,0.0008330584637075063,0.0009191931070540229,-0.009241995480716407,0.0024831216039135754,0.99187561214023
2016-04-27,-1,-0.0005017997061010802,-0.0004186405150986279,-0.007680113135914609,0.0034780245893288545,0.9939200767070997
2016-04-29,-1,-3.8266858929515846e-05,-3.803910636787972e-05,-0.007680113135914609,0.0029232945619161047,0.9939176001906619
2016-05-03,-1,-0.00017334711170949112,-0.00015257659473079713,-0.005460959810713198,0.002535849693422026,0.9944292302294208
2016-05-05,-1,-0.0007231520667080187,-0.0006162466255139454,-0.004814869634785886,0.001520949834082355,0.9948933139271494
2016-05-09,-1,-0.0010748396205345213,-0.000931390825144884,-0.004403554447534437,0.001520949834082355,0.9951709423452079
2016-05-11,-1,-0.001061555308938309,-0.0008922641101379357,-0.004403554447534437,0.0019779458834518152,0.9948046683912285
2016-05-13,-1,-0.0009482084875105632,-0.0007914506061284376,-0.007317382476820674,0.0010973437987795837,0.9941634254252347
2016-05-17,-1,-0.0008522738690089104,-0.0007388763986320365,-0.008142221582946129,0.0002784001475470774,0.9939044968633639
2016-05-19,-1,-0.0011460050130290356,-0.0009993738573253886,-0.007317382476820674,0.0019779458834518152,0.9933329627882358
2016-05-23,-1,-0.0012561607230495622,-0.0011159001228440851,-0.006592006061633019,0.0019779458834518152,0.9937202654850501
2016-05-25,-1,-0.0015122075647669231,-0.0013023634170165328,-0.006592006061633019,0.0019779458834518152,0.9935281504695157
2016-05-27,-1,-0.0015828070460270904,-0.0013515808299323212,-0.008393726060870691,0.0019779458834518152,0.9915183262551214
2016-06-01,-1,-0.0017487915142411592,-0.0014764570331749543,-0.008393726060870691,0.0028981290650733123,0.9902956847667739
2016-06-03,-1,-0.002111464465144234,-0.0017853709479111655,-0.008393726060870691,0.007874582025771636,0.9877957489086663
2016-06-07,-1,-0.002816431876415908,-0.0023775948370312622,-0.010463534872383252,0.007874582025771636,0.9872286767120492
2016-06-09,-1,-0.002012483925046986,-0.0016798984342090819,-0.010463534872383252,0.006366129276336196,0.9882020318418396
2016-06-13,-1,-0.0034048438996615053,-0.0028736641342564633,-0.007283306125350296,0.006366129276336196,0.9885670096098091
2016-06-15,-1,-0.0037227978933331,-0.0031797323452483002,-0.003408523120505376,0.006366129276336196,0.9890268865104298
2016-06-17,-1,-0.002820977379708405,-0.0023894439384475894,-0.006379445891528023,0.004904347327011248,0.9900936159706915
2016-06-21,-1,-0.002858009952953874,-0.002432224526933902,-0.006379445891528023,0.00568365794985032,0.9895520164455837
2016-06-23,-1,-0.001880322008319565,-0.0016173040229811256,-0.006379445891528023,0.00568365794985032,0.9893840757236976
2016-06-27,-1,-0.003741648050031636,-0.003232889459423684,-0.005234530700208148,0.006574777913530301,0.9898976475559728
2016-06-29,-1,-0.002699440318061821,-0.002327608481787905,-0.005234530700208148,0.006892862417692976,0.9904312136862395
2016-07-01,-1,-0.0003407810665122281,-0.00031817803979381697,-0.003408523120505376,0.006284368297887113,0.9933701657281927
2016-07-06,-1,-0.0009405036775163057,-0.0008050512582216036,-0.002039278162899285,0.005789686117904544,0.993802860623335
2016-07-08,-1,-0.0007866514669526231,-0.0006753336953701185,-0.002039278162899285,0.005789686117904544,0.9939649998025395
2016-07-12,-1,-0.00045628056320098876,-0.000400878637482736,-0.0016984669182202056,0.004229878216243685,0.9942902762145881
2016-07-14,-1,-0.0007822830651936109,-0.000685258306642031,-0.0007342732273384196,0.004229878216243685,0.9939769133918098
2016-07-18,-1,-0.0009808081049301146,-0.0008819614864967321,0.00060192884798123,0.004229878216243685,0.9943945691821257
2016-07-20,-1,-0.0007841067559500633,-0.0006917606235132291,-0.0007342732273384196,0.0033430272363255626,0.9948181574604612
2016-07-22,1,8.684616759820605e-05,0.0001481389257179151,-0.0007342732273384196,0.003331447845637556,0.9959274539778953
2016-07-26,1,0.0004883762693435291,0.0006003272478116627,-0.001732658452748058,0.002525872164136164,0.9966860129965744
2016-07-28,1,0.0013429771795159086,0.0015879561489649955,-0.001732658452748058,0.002525872164136164,0.9974886527074993
2016-08-01,1,0.0012924985854908283,0.0015247086699903417,-0.001732658452748058,0.002525872164136164,0.9973290584628856
2016-08-03,1,0.0015772002928865659,0.0018710296632467073,-0.001732658452748058,0.003331447845637556,0.9970176846771094
2016-08-05,1,0.0013717962836794816,0.0016101125207698898,-0.0020444603858429016,0.0029483955709061855,0.9968348946531159
2016-08-09,1,0.001544615937384009,0.001821417125513499,-0.0020444603858429016,0.0035348088951435105,0.9964601619920045
2016-08-11,1,0.0012809913900295924,0.0015244341304701116,-0.0028623750875716026,0.0035348088951435105,0.9953849435763146
2016-08-15,1,0.0013732454108200537,0.0016186533565783793,-0.004085833071301649,0.004458460528464296,0.9947685777888948
2016-08-17,1,0.0012914637531604364,0.0015434049330522019,-0.004085833071301649,0.006133198051908004,0.9945912216171079
2016-08-19,1,0.001496100306062891,0.0017866759064080844,-0.004411291599092089,0.006957746507263417,0.9936762997255641
2016-08-23,1,0.0015629029458749787,0.0018878055185412319,-0.004085833071301649,0.007944348552269978,0.9933667467010981
2016-08-25,1,0.001645418983342172,0.0019469039578787644,-0.004760250835326845,0.007944348552269978,0.9925756351672888
2016-08-29,1,0.0018317334247288345,0.0021596248981581674,-0.004760250835326845,0.007944348552269978,0.9925512021204174
2016-08-31,1,0.0020443880292250927,0.0023963091554487677,-0.007092400606500087,0.008093338095556154,0.9917496985043245
2016-09-02,1,0.0022396924888770983,0.002651976092953553,-0.009469131410260739,0.008093338095556154,0.9913439914046924
2016-09-07,1,0.0025727305156577843,0.0030176753804441537,-0.010177655295399152,0.008093338095556154,0.990171076806393
2016-09-09,1,0.00167500210968635,0.002004982365169013,-0.00801113237085367,0.008425854736984678,0.9900971800697892
2016-09-13,1,0.0013812130580341867,0.0016101676148450607,-0.00801113237085367,0.008420288790595984,0.9899785472280277
2016-09-15,1,0.0017163531929788509,0.002018932087984244,-0.00801113237085367,0.008451486995371198,0.9900702010275028
2016-09-19,1,0.0011167953890369817,0.0012686453338629673,-0.006613160394970136,0.008206837067408938,0.9907227696691223
2016-09-21,1,0.001577456976942573,0.0017954794303908389,-0.006613160394970136,0.008022187521160472,0.9913268859429882
2016-09-23,1,0.001193216100862325,0.0013543353225952907,-0.006613160394970136,0.008022187521160472,0.9915788356294144
2016-09-27,1,0.0010479882199707555,0.001172139397864906,-0.006613160394970136,0.008206837067408938,0.9897172308115897
2016-09-29,1,0.0005136838967481796,0.0005421799776692323,-0.006613160394970136,0.008451486995371198,0.9896319826710062
2016-10-03,1,0.0003441605525333914,0.0003687671871265911,-0.002424121455897736,0.0086931156611859,0.9895676202557593
2016-10-05,-1,-0.0001798453408132452,-0.00014628502756966938,-0.001026464329979807,0.008451486995371198,0.9907961659987965
2016-10-07,1,0.0007672855238374383,0.0008372799722832603,-0.001026464329979807,0.008206837067408938,0.9927108397124826
2016-10-11,1,0.0003935390294160413,0.0003957930026012755,0.0008266375805176724,0.008056549684056426,0.9926930766478655
2016-10-13,1,0.0007283088577794439,0.0007531534972489554,-0.00042871151771025663,0.0067031564149133615,0.9932230169405485
2016-10-17,1,0.0010341658857288736,0.0011069884982384073,-0.00042871151771025663,0.007888557993578155,0.9933271062324738
2016-10-19,1,0.0008895669193099453,0.0009383568409894089,-6.010171058714748e-05,0.007888557993578155,0.9931484238820405
2016-10-21,1,0.0005606100626968946,0.0005689702390645432,-0.00042671089823283697,0.007888557993578155,0.9934126574139532
2016-10-25,1,0.0017528424150303596,0.0019028623515762537,-0.0011218686121497175,0.0059544742511985025,0.9950214413734157
2016-10-27,1,0.0011420000430486005,0.0011872885365611652,-0.0011218686121497175,0.005397096740089032,0.9955440986633727
2016-10-31,1,0.0018517471639171096,0.0020302269114344696,-0.0017156407471725396,0.005397096740089032,0.9954168483579353
2016-11-02,1,0.0013795336323760296,0.001437492597094559,-0.0023771041917089756,0.005397096740089032,0.995034273352744
2016-11-04,1,0.0009326175727477724,0.0009672297057644597,-0.002569357238438246,0.004939443494492656,0.9950665342109941
2016-11-08,1,0.001587169436782609,0.0016797172807322118,-0.002569357238438246,0.004939443494492656,0.9950589253048396
2016-11-10,1,0.0015401230351063029,0.0016120525982565607,-0.002569357238438246,0.005165154159579121,0.9949900110322002
2016-11-14,1,0.0019995574124361706,0.002135451969915795,-0.002569357238438246,0.005165154159579121,0.9945625398899369
2016-11-16,1,0.0013123627394652036,0.0013720131255285364,-0.0029112712929469904,0.005165154159579121,0.9939978544191703
2016-11-18,1,0.0013144008670320467,0.0013316783452783604,-0.002569357238438246,0.005711697632159347,0.9934776082939342
2016-11-22,1,0.0014751346904372737,0.0015560375950413002,-0.002528101292725732,0.005711697632159347,0.993758216671244
2016-11-25,1,0.0014632673066154497,0.0015322682993615254,-0.0024968633934017563,0.005265349782408432,0.9940346870762476
2016-11-29,1,0.001895140915144252,0.0020216436884771655,-0.0027875034558094494,0.004277823512359437,0.9942813974826559
2016-12-01,1,0.0014978479038298465,0.0015722054447103032,-0.0024968633934017563,0.004277823512359437,0.9947355507147952
2016-12-05,1,0.0010148090083921982,0.0010272071240079953,-0.0018573060203183772,0.005265349782408432,0.9945836401844003
2016-12-07,1,0.0009118469547983695,0.000968098252684767,-0.0018573060203183772,0.004835718439351166,0.9947534846696628
2016-12-09,1,0.00137123767211585,0.0013839438280040123,-0.0024968633934017563,0.004180544600094232,0.9942482799747562
2016-12-13,1,0.00165799635301257,0.0017232989776539576,-0.0019157117904687764,0.003593948984332732,0.9948000363498829
2016-12-15,1,0.001270253490902728,0.001309047867849124,-0.002476642828981928,0.003593948984332732,0.9952052006011626
2016-12-19,1,0.00247518070856743,0.002721048773509999,-0.0035151962714381267,0.003156253118517386,0.9947547985137881
2016-12-21,1,0.0019721790103758665,0.002146514116772342,-0.0026860604061103525,0.003156253118517386,0.9952452640271728
2016-12-23,1,0.002006158207884019,0.00218489065016002,-0.0035106945450572823,0.003483997465558366,0.9948408826718678
2016-12-28,1,0.0015490976177110266,0.0016669505284976711,-0.003379033887348469,0.005321699026088435,0.9948897100414253
2016-12-30,1,0.0016111551072732365,0.00173506421743942,-0.003379033887348469,0.005321699026088435,0.9945121456493498
2017-01-04,1,0.0015746484926798172,0.001669312335160749,-0.003379033887348469,0.005321699026088435,0.9942901025209593
2017-01-06,1,0.0016972514758929178,0.0018121249560739518,-0.003379033887348469,0.004030195753510408,0.9942762244277406
2017-01-10,1,0.001519213626841519,0.0015876573758947553,-0.0031402805286722983,0.006986734096659448,0.9937947869383938
2017-01-12,1,0.001435042120502884,0.0014942236144684165,-0.0031402805286722983,0.006986734096659448,0.9938924467474596
2017-01-17,1,0.0008734742281436013,0.0009018460041352638,-0.002726595088051605,0.007527834316671837,0.9938729108958546
2017-01-19,1,0.0011108640197105765,0.0011297043400424539,-0.002387795917093475,0.006986734096659448,0.9947655969430611
2017-01-23,1,0.0011549647865528485,0.0011856817952955556,-0.002387795917093475,0.006986734096659448,0.9946344434744134
2017-01-25,1,0.001289454520523714,0.001351653486025183,-0.0020447504828787566,0.006251565234563133,0.9950230978288617
2017-01-27,1,0.0012162149910994445,0.0012556240291954756,-0.0020447504828787566,0.004604792802523014,0.9949773037860828
2017-01-31,1,0.0011702617707391326,0.0012303108978915375,-0.0015292318913659824,0.007563198744126466,0.9941895019743394
2017-02-02,1,0.0007735285315556189,0.0008275693336934555,-0.0018945802428655296,0.006251565234563133,0.9939218713761176
2017-02-06,1,0.0006790640121704416,0.0007350388006381063,-0.005085694993501371,0.006251565234563133,0.9931837373451362
2017-02-08,1,0.001663455774173342,0.0017293061719289057,-0.005085694993501371,0.004604792802523014,0.9944084301402347
2017-02-10,1,0.0016373187213171176,0.0016916148989419622,-0.005085694993501371,0.006235052016890547,0.9940535149877344
2017-02-14,1,0.0021231293727250284,0.002267376876302114,-0.005085694993501371,0.0061573194822933715,0.9940811089443914
2017-02-16,1,0.0019674234037208188,0.0020583436140251795,-0.005085694993501371,0.004782043544333576,0.994036265034147
2017-02-21,1,0.001454576405647962,0.001472316722691826,-0.005609366923594447,0.004782043544333576,0.9939699654019913
2017-02-23,1,0.0013240193516222277,0.0013508964070453055,-0.005609366923594447,0.004756148457809284,0.9938958440407071
2017-02-27,1,0.00046582795645834117,0.0006188246975059181,-0.005609366923594447,0.004756148457809284,0.9942049908971947
2017-03-01,1,0.0008532699810468757,0.000996284036532905,-0.005609366923594447,0.002046356642478173,0.9947655538612132
2017-03-03,1,0.000749802564361701,0.0008418850547454073,-0.0037555420191744842,0.004647525691822526,0.9950725582710076
2017-03-07,0,-0.00013597123464844914,7.834005587984403e-05,-0.002619907198548717,0.006363203409764783,0.9957674117033887
2017-03-09,1,0.0002713262126774618,0.00041112195196002396,-0.0029196181827436827,0.004647525691822526,0.9955170127294084
2017-03-13,1,0.0005873458710091472,0.0006804006303301362,-0.0036974931214402884,0.004201592428771749,0.9954468870681702
2017-03-15,1,0.0005885318999307027,0.0006917692740313712,-0.004291768562466681,0.0032427244624338688,0.9954846829555735
2017-03-17,1,7.09881280965824e-05,0.0002649866936266067,-0.00442375800202094,0.004201592428771749,0.9944425284355456
2017-03-21,1,0.00042728983600998706,0.0005198443090636406,-0.004291768562466681,0.004201592428771749,0.994548088530066
2017-03-23,1,0.0001753790944813125,0.00031337806991965406,-0.00442375800202094,0.004916780854625694,0.9942975193027811
2017-03-27,1,3.5880248573557424e-05,0.0001850032711854061,-0.004291768562466681,0.007796233430988772,0.9910770129966012
2017-03-29,1,0.00023465191186889777,0.000337653281197934,-0.00442375800202094,0.008065840600970155,0.9900031170909603
2017-03-31,1,0.00016056280202153127,0.00027139882338023564,-0.005265079312595809,0.008065840600970155,0.9898296940446583
2017-04-04,1,0.0007820248107280401,0.0008010624315931993,-0.006278008033970215,0.0052183968148622455,0.9895634226608536
2017-04-06,1,0.00031846193801447347,0.00038513223261235277,-0.006084679572623392,0.0052183968148622455,0.9897402440648941
2017-04-10,1,0.00045423841101449656,0.0004897989515158976,-0.008084489888740842,0.004080025406655587,0.9894186241823151
2017-04-12,1,0.00033336251948974964,0.00037617752850586017,-0.008084489888740842,0.00476578707418061,0.9895721729535497
2017-04-17,1,0.0004573261412563821,0.0005066977635379672,-0.006084679572623392,0.00327264238210627,0.9907121860842603
2017-04-19,-1,-0.0004139666155876224,-0.00023399899669401738,-0.008084489888740842,0.00327264238210627,0.9906059692980126
2017-04-21,-1,-0.00033610932150565404,-0.00017141569593567542,-0.008084489888740842,0.00327264238210627,0.9907183265498392
2017-04-25,1,0.0025931754991392764,0.0028215040792068653,-0.008084489888740842,0.0028553390152075463,0.9931538069081601
2017-04-27,1,0.0021572174205855697,0.002300226558002251,-0.006084679572623392,0.00327264238210627,0.9945412571010884
2017-05-01,1,0.0014248904092333742,0.0014545062793131708,-0.0016570342798696222,0.00327264238210627,0.9952476578005134
2017-05-03,1,0.0013841053492750673,0.001431602965559455,-0.001446248024889311,0.004250671939092969,0.9945468799429792
2017-05-05,1,0.001109827178742542,0.001135383922901655,-0.001446248024889311,0.004250671939092969,0.9947195599223904
2017-05-09,1,0.00056055965475286,0.0005927581854039986,-0.001446248024889311,0.004250671939092969,0.9950513890181893
2017-05-11,1,0.0005420540781239743,0.0006091285608589553,-0.001446248024889311,0.005474093419268899,0.9947318996980036
2017-05-15,1,0.00093023642325487,0.000961961899634175,-0.001446248024889311,0.006546998105083026,0.9939195706915249
2017-05-17,1,6.16888962748715e-05,0.00016492803097388871,-0.001446248024889311,0.006546998105083026,0.99393037685494
2017-05-19,1,0.0004762680417932187,0.000528940606895407,-0.001446248024889311,0.007433372270127716,0.9933934550889937
2017-05-23,1,0.0004582868316720445,0.0005353862809176095,-0.002594920280471056,0.0067537351255779815,0.9930599487195525
2017-05-25,1,0.0008112148040350154,0.0008411642485724132,-0.0062237355486355,0.0067537351255779815,0.992953022543263
2017-05-30,1,0.0007155700690543636,0.0007478253230474174,-0.0062237355486355,0.0067537351255779815,0.9929995941253443
2017-06-01,1,0.0015284021109834935,0.0016027731479607752,-0.0062237355486355,0.006600184668436045,0.9939102338204979
2017-06-05,1,0.0011876596834613307,0.0012184980374270152,-0.004151605104837853,0.0067537351255779815,0.9924685200015998
2017-06-07,1,0.000977306344428277,0.0009822637294054737,-0.004770373195550788,0.0067537351255779815,0.9923447672185531
2017-06-09,1,0.0010666533811127116,0.0010825453575517689,-0.004770373195550788,0.006884634734718666,0.9921432277420491
2017-06-13,1,0.0007753709425034091,0.0008244319228083721,-0.004770373195550788,0.0067537351255779815,0.9925413141492967
2017-06-15,1,0.00040776731969518446,0.0004983235555355793,-0.003320311394869675,0.0067537351255779815,0.9930277800549487
2017-06-19,1,0.0009381972266308033,0.0009676788003547425,-0.003320311394869675,0.006600184668436045,0.9933363249476884
2017-06-21,1,0.0008543961494921398,0.0008929566861429286,-0.0024033478450027463,0.006435169125911278,0.9938509382756272
2017-06-23,0,-5.199288333378172e-06,0.0001508306899992736,-0.0007858612944527538,0.006435169125911278,0.9940195980823628
2017-06-27,1,0.00015279324273506905,0.00027154527154141586,-0.0028120312558227514,0.006435169125911278,0.9921792981966184
2017-06-29,1,0.0001680716909996368,0.0003018153379366452,-0.0028120312558227514,0.004767898755759151,0.9923579206685565
2017-07-03,1,0.00225960761977997,0.0024478151315108203,-0.002549915117656586,0.006172442731862893,0.9938164932418455
2017-07-06,1,0.001542042223924531,0.0016394825129396966,0.00011927993683544431,0.006172442731862893,0.9941621688333916
2017-07-10,1,0.0023372140666874236,0.002562411262180529,-0.0005938247971038304,0.0044471943503347384,0.994657735750719
2017-07-12,1,0.0019192259655644878,0.002100294896403733,-0.00030168599686613797,0.005359815027977946,0.99497841001002
2017-07-14,1,0.001743604722328024,0.001875627143321598,-0.0005923361120286648,0.005359815027977946,0.9942545817245001
2017-07-18,1,0.00230262778933718,0.002518249137872285,-0.001570439593884946,0.005359815027977946,0.9938066653714462
2017-07-20,1,0.0020855823018114455,0.002242875064645505,-0.0028355738792332167,0.004093324797074686,0.9929733242014221
2017-07-24,1,0.002800978991269683,0.003105210913306525,-0.002990536226261227,0.003313591568777382,0.9926209826974307
2017-07-26,1,0.0007333229639117895,0.0007426641755817661,-0.001936087063441555,0.004735976916096971,0.9946597541570605
2017-07-28,1,0.0003807147263693615,0.00046750142447971445,-0.0024120978849725425,0.005359815027977946,0.9933463656102489
2017-08-01,1,0.0009717008947538331,0.0009836073102874592,-0.003953681649770159,0.0031876327478938126,0.9924800341839577
2017-08-03,1,0.0013369420779293308,0.0013863360344507074,-0.003953681649770159,0.0024192794390680097,0.9924249085872856
2017-08-07,1,0.0012440940693543925,0.001288585789858753,-0.015840206792326804,0.0024192794390680097,0.9883372762657849
2017-08-09,1,0.00159184259223127,0.00166858689011449,-0.01649056481120726,0.0020252655190385518,0.9844276051717228
2017-08-11,1,0.0002716594207388077,0.00038680707734893924,-0.01649056481120726,0.0033272683595700855,0.9813850937404213
2017-08-15,1,0.00039100121321898173,0.0004518345906325709,-0.01649056481120726,0.0033272683595700855,0.9820575388780257
2017-08-17,-1,-0.0005624932103286003,-0.0003757706940012125,-0.016678074413361464,0.004847832213412071,0.9818171186698369
2017-08-21,-1,-0.00029398132852965277,-0.00014511201699297466,-0.01788226748668361,0.004847832213412071,0.9807841122379285
2017-08-23,-1,-0.0003840766531871897,-0.00021979475705067518,-0.01788226748668361,0.0067232685617364925,0.9804353796379266
2017-08-25,-1,-0.0001794662453460482,-6.198167653861708e-05,-0.016678074413361464,0.0035650824777687545,0.9811122624027562
2017-08-29,-1,-0.0015596550113371483,-0.0012569305767053205,-0.016411217663451386,0.004148289119879228,0.9819119414262522
2017-08-31,-1,-0.0015699074132710577,-0.0012685546130762563,-0.016411217663451386,0.00869047236871588,0.9804800242013064
2017-09-05,-1,-0.005474588262373198,-0.004703464136746339,-0.011787319204974216,0.00869047236871588,0.9837116226809012
2017-09-07,-1,-0.007639979412527173,-0.0066487447543582285,-0.005285662036844517,0.00869047236871588,0.9861591631966959
2017-09-11,-1,-0.004082807351573171,-0.0034787390214199064,-0.007216725326041501,0.004756868318512917,0.9918792768179356
2017-09-13,-1,-0.002924376417100495,-0.0024574281014377412,-0.008268946679783923,0.004044813568426528,0.9918819577459157
2017-09-15,-1,-0.0013248387955492548,-0.0011822683554213982,-0.007216725326041501,0.005402015386717175,0.9887627964370846
2017-09-19,-1,-0.0026456061104925942,-0.002329388388461169,-0.007335858947309693,0.005402015386717175,0.9893567064863364
2017-09-21,-1,-0.0024931163986046494,-0.0021741778206847404,-0.007335858947309693,0.005402015386717175,0.989354152717723
2017-09-25,-1,-0.003166902602385057,-0.002770711186064011,-0.007104120435396061,0.005402015386717175,0.9898432467888009
2017-09-27,-1,-0.0037547255837279635,-0.0032735415461545157,-0.006758705498476326,0.005402015386717175,0.9906038161279701
2017-09-29,-1,-0.002503345343514563,-0.002141756826918158,-0.006758705498476326,0.005494662068485716,0.9911822682326551
2017-10-03,-1,-0.002304713830017403,-0.0019965866141346284,-0.007004052509004204,0.008541539122530355,0.990732545488042
