JNU-Tangyin/eata/results/Batch4_SP500/Batch4_SP500-ARE.csv
Date,Action,Predicted_Q25,Predicted_Q75,Actual_Q25,Actual_Q75,RL_Reward
2010-12-14,0,0.0,0.0,-0.002886724501362141,0.011360357698381465,0.9911008869953624
2010-12-16,0,0.0,0.0,-0.0036131402395982535,0.011360357698381465,0.9906222071007221
2010-12-20,-1,-0.00032908655079978466,-0.00029080109698232564,-0.006581415257244927,0.011360357698381465,0.989181776188839
2010-12-22,-1,-0.00084108732545556,-0.0007755172230602648,-0.006581415257244927,0.008367179564296648,0.9900487568819354
2010-12-27,-1,-0.00046708737037651736,-0.0004577391552035617,-0.006581415257244927,0.011174839929163035,0.9890158151333536
2010-12-29,1,0.0005945891754712027,0.0006912248488415729,-0.006347199055822475,0.011174839929163035,0.9891853731378508
2010-12-31,1,0.0006311661446471691,0.0007186261440910042,-0.007326568137358107,0.011174839929163035,0.9881950145812762
2011-01-04,1,0.0002828926599696127,0.000285080996413914,-0.006877215908653054,0.008367179564296648,0.9890132016571666
2011-01-06,-1,-0.0006364310336300037,-0.0005618111455233792,-0.006877215908653054,0.008091361170958128,0.98917936628186
2011-01-10,1,0.0007212585983238981,0.0007876914644270506,-0.006877215908653054,0.008091361170958128,0.9895170969541314
2011-01-12,1,0.0004871172666719829,0.0004924601807164342,-0.006718003071575171,0.007961661100098136,0.9897855511146594
2011-01-14,0,0.0,0.0,-0.004843898997577108,0.007961661100098136,0.9900860904623191
2011-01-19,0,0.0,0.0,-0.0029860200485795152,0.007961661100098136,0.9915521021421252
2011-01-21,0,0.0,0.0,-0.001571330375230019,0.007961661100098136,0.991751689867499
2011-01-25,1,0.0012540282142120447,0.0013935261373660252,-0.006538987784372439,0.006619585508829993,0.9923499440815874
2011-01-27,1,0.0019522133578541614,0.0022084833246898998,-0.007452582094302948,0.006691724517638319,0.9911466357637492
2011-01-31,1,0.0011335480005938612,0.001249954048555713,-0.007452582094302948,0.007961661100098136,0.9897586087057183
2011-02-02,1,0.0008505444228466856,0.0008991848004679434,-0.008897582624461295,0.010349223436827142,0.9891941061719098
2011-02-04,1,0.0004752949927185129,0.0005243320594205477,-0.007676975874357132,0.010349223436827142,0.9895723271045339
2011-02-08,1,0.001242835639730377,0.0013872425099962103,-0.007676975874357132,0.010349223436827142,0.9898224608955188
2011-02-10,1,0.0018449426896521679,0.0021053022016011692,-0.009311245296565906,0.00800453013449919,0.9894029339019422
2011-02-14,1,0.0015772538321856507,0.0017310346907656075,-0.010625706856747054,0.00800453013449919,0.9889153536748437
2011-02-16,1,0.0019784070720344315,0.0021683152976355413,-0.011506941184147308,0.005362535674203954,0.9882075006721767
2011-02-18,1,0.0019060983128079253,0.0020909824035568775,-0.011506941184147308,0.008480282551903131,0.9875627924211149
2011-02-23,1,0.001037282860558865,0.001102815896956189,-0.011538995908540156,0.008480282551903131,0.9876134392205231
2011-02-25,1,0.0014594247588543292,0.0016154617811029077,-0.010625706856747054,0.009036439151861747,0.9884899248515818
2011-03-01,1,0.0009684335952899235,0.0010468066791882885,-0.009311245296565906,0.007283558982370996,0.9904845150970689
2011-03-03,1,0.0007054034726066751,0.0007445739777144445,-0.008102601544414587,0.008559813747509002,0.9909019846367947
2011-03-07,1,0.00035451688456446836,0.0003581830663323789,-0.007415924714950184,0.008559813747509002,0.9910640042474582
2011-03-09,1,0.0013494719743870477,0.0015483744948648443,-0.007415924714950184,0.007283558982370996,0.992123621852304
2011-03-11,1,0.001685991113574878,0.001967904718637728,-0.00833018016826423,0.007037747698500634,0.9911884219340661
2011-03-15,1,0.00145310861529132,0.0017078599691228342,-0.007415924714950184,0.007037747698500634,0.9918245638313741
2011-03-17,1,0.0006141362741628189,0.0007658015761413618,-0.003591139550263386,0.008559813747509002,0.9918190508646744
2011-03-21,1,0.0011131608096384004,0.001306663798943522,-0.007415924714950184,0.007037747698500634,0.9918231667379821
2011-03-23,1,0.00017445925993747586,0.00023354849415039317,-0.0017358539163298535,0.008559813747509002,0.9919291741007206
2011-03-25,1,0.0008518201991333561,0.0010080102155724758,-0.0017358539163298535,0.006071239893350502,0.9927128619579525
2011-03-29,1,0.0009295024866296675,0.001100604367149789,-0.00028615061683216834,0.009575082933908505,0.9921771769613633
2011-03-31,0,0.0,0.0,-0.00028615061683216834,0.00898819171063225,0.9917604373767924
2011-04-04,0,0.0,0.0,-0.0024759611338808956,0.00898819171063225,0.9917793497267569
2011-04-06,0,0.0,0.0,-0.0061012496160936375,0.00898819171063225,0.9901532428691079
2011-04-08,-1,-0.0006957144613394755,-0.0004967003769598956,-0.003327412615079181,0.01051288546075941,0.988737267734458
2011-04-12,-1,-0.0009796761897055378,-0.0007139420877576236,-0.007190335900143167,0.011715867750834271,0.9873885110642739
2011-04-14,-1,-0.0006946150376724791,-0.0004388644838601588,-0.007190335900143167,0.01051288546075941,0.9883662837787591
2011-04-18,-1,-0.0019083284527113347,-0.0014648843205468712,-0.003327412615079181,0.01051288546075941,0.9887830833437253
2011-04-20,-1,-0.001035094552974162,-0.0007180714727321059,-0.003327412615079181,0.01051288546075941,0.9891113021210235
2011-04-25,-1,-0.001179524993405567,-0.0008176505762468049,-0.01378022534297356,0.01051288546075941,0.9883456967145153
2011-04-27,1,0.0004016911538270034,0.0005279998581914294,-0.01378022534297356,0.00898819171063225,0.9889111760020382
2011-04-29,1,0.0011314678797337654,0.0011653170476108167,-0.01378022534297356,0.011739262394318143,0.9884480291422676
2011-05-03,1,0.0006163438331861929,0.0007177410693123411,-0.014267122792397967,0.013489120127714409,0.986571184285271
2011-05-05,-1,-0.001016760566433207,-0.0007070006677401771,-0.009614630589271948,0.013489120127714409,0.9874710154212228
2011-05-09,-1,-0.0014362892724877792,-0.0010840208655704367,-0.009614630589271948,0.013489120127714409,0.9887518447982561
2011-05-11,-1,-0.0014933875010673457,-0.001131695269197326,-0.008373790963905205,0.011739262394318143,0.9898113190156858
2011-05-13,0,0.0,0.0,-0.009933160678622995,0.013489120127714409,0.9879781960180619
2011-05-17,0,0.0,0.0,-0.01389348542764696,0.013489120127714409,0.987045164835131
2011-05-19,0,0.0,0.0,-0.01389348542764696,0.011857657091248154,0.9870719669206609
2011-05-23,0,0.0,0.0,-0.008373790963905205,0.014026500152774093,0.9872096216758065
2011-05-25,-1,-0.00042651458426759694,-0.0003056651600971614,-0.011263673933367566,0.012039853025517801,0.986489177662135
2011-05-27,0,0.0,0.0,-0.011263673933367566,0.010694235495790102,0.9876513710732606
2011-06-01,-1,-0.00031662267828572584,-0.00016323748207254963,-0.008373790963905205,0.008024569942178632,0.989686480750016
2011-06-03,0,0.0,0.0,-0.006367768412411463,0.010694235495790102,0.9890356204494026
2011-06-07,0,0.0,0.0,-0.0038345599733459706,0.010694235495790102,0.989438741000488
2011-06-09,0,0.0,0.0,-0.000812110196771168,0.011195433295486064,0.9893967779674132
2011-06-13,0,0.0,0.0,-0.000812110196771168,0.011195433295486064,0.9898387086526365
2011-06-15,0,0.0,0.0,-0.003259715139608297,0.011195433295486064,0.9900232643284427
2011-06-17,0,0.0,0.0,-0.0037445651254229117,0.012596133051169175,0.9895558238117486
2011-06-21,0,0.0,0.0,-0.0037445651254229117,0.012832316450155468,0.9891836061003059
2011-06-23,-1,-0.0007638700464820719,-0.0006196772241406991,-0.003259715139608297,0.012832316450155468,0.9900164325022957
2011-06-27,-1,-0.0007971369446556256,-0.0006460296124390914,-0.0037445651254229117,0.012832316450155468,0.9897638870717856
2011-06-29,-1,-0.0010237510223908414,-0.0008085450258628675,-0.005294193448795939,0.012832316450155468,0.9890954740869798
2011-07-01,0,-2.3052730664849285e-05,1.9919987129156218e-05,-0.006242140689154107,0.01174531286583112,0.9898023564799615
2011-07-06,1,0.001267752639731403,0.0014075738997790625,-0.010093298291250311,0.009192575752973362,0.987759461392714
2011-07-08,1,0.00175836487332181,0.0019830542284997883,-0.015388295294166519,0.005904867064918969,0.9842165102561365
2011-07-12,1,0.0017900290505973848,0.002029579475227661,-0.01787592424854787,0.005904867064918969,0.976088011205502
2011-07-14,1,0.001283638314488337,0.001461277947306289,-0.024560123408455717,0.009192575752973362,0.9746028661107531
2011-07-18,1,0.0012377208796298933,0.0013585571969885772,-0.024560123408455717,0.009192575752973362,0.9738079252243164
2011-07-20,1,0.0022455317187145074,0.002498673818274291,-0.024560123408455717,0.002031296214090663,0.97462697999194
2011-07-22,1,0.0023471915116385013,0.002580337681350542,-0.02893251021293861,-0.00031857812382877083,0.9707356026804835
2011-07-26,1,0.001754597479685032,0.0019000941873935837,-0.02893251021293861,0.003591432376646812,0.9705774727211943
2011-07-28,1,0.0005552785859254809,0.0005873967320232898,-0.02893251021293861,0.012715620109882083,0.9705921753388508
2011-08-01,1,0.00035682847692752537,0.00040527713965549453,-0.02893251021293861,0.017136895833658298,0.9683141468797167
2011-08-03,-1,-0.002514272396145077,-0.0021281151175563066,-0.02812857850666335,0.017136895833658298,0.9702279868083984
2011-08-05,-1,-0.005396276802921398,-0.004666505033547822,-0.02213390510199965,0.017136895833658298,0.971043865783866
2011-08-09,-1,-0.005837292516735066,-0.005032660125899517,-0.019441346538481025,0.017136895833658298,0.9774983054350541
2011-08-11,-1,-0.004427464642385149,-0.0038429367770526227,-0.019441346538481025,0.015473569048661928,0.9786421028308844
2011-08-15,-1,-0.003303207969380337,-0.0028165748322910612,-0.019441346538481025,0.012399817529007106,0.9806864002742194
2011-08-17,-1,-0.003067477226409086,-0.002644804939743177,-0.019441346538481025,0.012399817529007106,0.9799762223306291
2011-08-19,-1,-0.005408837697467155,-0.004712046425672392,-0.015470303433229601,0.012399817529007106,0.9817142897249796
2011-08-23,-1,-0.0038070823943999526,-0.0033391989729804608,-0.019441346538481025,0.010147220839564111,0.9812236211865064
2011-08-25,-1,-0.0037042200287049553,-0.0032735629257570316,-0.022956839530234807,0.005849158412169609,0.9809483545119478
2011-08-29,-1,-0.001447457588677301,-0.0012795433605307656,-0.022956839530234807,0.005832310848210303,0.9825887846960529
2011-08-31,-1,-0.002042893737011103,-0.0017401495522121222,-0.025259336809331182,0.005832310848210303,0.9803657185542156
2011-09-02,-1,-0.0037203644398039353,-0.003231054711152074,-0.02619609779644614,0.005832310848210303,0.9785901996375229
2011-09-07,-1,-0.0015429424237865296,-0.0013421389724499585,-0.02619609779644614,0.005832310848210303,0.9775532319851039
2011-09-09,-1,-0.0036347978948691,-0.003153970542980046,-0.02619609779644614,0.009635451849085347,0.976124782170881
2011-09-13,-1,-0.00369042578732769,-0.0032318458289562688,-0.02819410825995408,0.011494122881847445,0.9738828416301825
2011-09-15,-1,-0.00264128899433581,-0.00232806602781652,-0.02819410825995408,0.015580155291921432,0.9732405823145716
2011-09-19,-1,-0.0031709214790629687,-0.0028493526456461133,-0.02392555170715612,0.0212777996256472,0.9723505263932224
2011-09-21,-1,-0.004904080137509013,-0.004416472257499541,-0.022303668216825587,0.03512610445739155,0.9724105583727679
2011-09-23,-1,-0.005637083061516006,-0.005064532335669297,-0.017412833296540538,0.03512610445739155,0.9720667698060588
2011-09-27,-1,-0.004819116985462198,-0.004293250940153562,-0.022303668216825587,0.037586889112892444,0.9707343716596132
2011-09-29,-1,-0.003930407959351422,-0.003526355198563559,-0.022896332555343114,0.03512610445739155,0.9707077340964574
2011-10-03,-1,-0.007126461462774181,-0.006348648958575361,-0.018324124302556248,0.03512610445739155,0.9728101019577376
2011-10-05,-1,-0.0047305810615160425,-0.0042403712152458695,-0.0257035447227087,0.03512610445739155,0.9723809277192951
2011-10-07,-1,-0.0038351389998217615,-0.0034651390973773916,-0.01637287871716506,0.032968193655611926,0.97427525270285
2011-10-11,-1,-0.003130019991957569,-0.0028664095786460645,-0.009497042646358644,0.027406683358748206,0.9764480734429006
2011-10-13,-1,-0.0022403520291757024,-0.0020578130951964977,-0.01637287871716506,0.027406683358748206,0.9764167044282595
2011-10-17,-1,-0.0011829530282631477,-0.001153505136112074,-0.02406364831599851,0.024445750190681993,0.9767131966581802
2011-10-19,1,0.0003660937703580539,0.0006042412225955892,-0.02406364831599851,0.02397307657712338,0.9781321044613298
2011-10-21,1,0.0012139347739596388,0.0015154736951840564,-0.02406364831599851,0.0200275492817794,0.9788566152161239
2011-10-25,1,0.0016837612483778176,0.0020560355244919415,-0.024499366583753117,0.011740685327913468,0.9800166283381838
2011-10-27,1,0.0015374178261394257,0.001881407544498904,-0.024442537981268053,0.006555743412110814,0.9815123486325292
2011-10-31,1,0.0007950091705508399,0.0010112632974112903,-0.019708172042499156,0.011740685327913468,0.981316571040873
2011-11-02,1,0.001205248544331392,0.0014689882395213143,-0.012876013277386099,0.011740685327913468,0.983646492295244
2011-11-04,1,0.002012995841918661,0.0023517348017602436,-0.012876013277386099,0.011740685327913468,0.9838758126063188
2011-11-08,1,0.002264342904526607,0.0026543307462570343,-0.012876013277386099,0.013674187452116798,0.9832330019391232
2011-11-10,1,0.001546529209279939,0.0018719302854725687,-0.012876013277386099,0.017628068151812958,0.9833972600307769
2011-11-14,1,0.0013072204065147494,0.001552909196700994,-0.012943511317128197,0.01331081702348911,0.9834920858256978
2011-11-16,1,0.0019674344401147013,0.0023045387609350754,-0.012943511317128197,0.01276017519253805,0.9837704161439916
2011-11-18,1,0.001738961551289283,0.0020572362192424042,-0.009382670142901362,0.013976631180091674,0.9840983158293863
2011-11-22,1,0.0015096426848801008,0.0018366845251913827,-0.00855233128266023,0.015612772230332087,0.9845772200355648
2011-11-25,1,0.0015913136670510318,0.0019804782521284457,-0.007878106298318744,0.015612772230332087,0.9854511928543224
2011-11-29,1,0.0017178635966156174,0.0021403332964000984,-0.00855233128266023,0.013976631180091674,0.985673141443804
2011-12-01,1,0.0026117084255503483,0.0031619523342988056,-0.00855233128266023,0.013650271662430168,0.9867361040441078
2011-12-05,1,0.0032980517129254606,0.003892524211731551,-0.009382670142901362,0.013364335545710057,0.9868026331705315
2011-12-07,1,0.0034195617127675843,0.004054246052736476,-0.009129623094251492,0.013650271662430168,0.9867086728947604
2011-12-09,1,0.003897750768144219,0.004650423647410936,-0.006707557154289842,0.013650271662430168,0.9881158419184197
2011-12-13,1,0.002880351662584905,0.0035224882146698607,-0.004778297166676153,0.013650271662430168,0.989463637507679
2011-12-15,1,0.0034081939578894677,0.004104124213449703,-0.004025679416048003,0.013364335545710057,0.990264100331113
2011-12-19,1,0.0032380174151104557,0.003878066560664639,-0.004757730497058193,0.012596613682574625,0.9901788355469712
2011-12-21,1,0.004101642052637506,0.004838140314978051,-0.004757730497058193,0.010736395812273782,0.9913427157107598
2011-12-23,1,0.0033707948975651007,0.003889843480771343,-0.00605904877471804,0.010071389405319828,0.9914925930062573
2011-12-28,1,0.001605197127288619,0.0017696231144701696,-0.004757730497058193,0.010071389405319828,0.9920191057324077
2011-12-30,1,0.002085055428048643,0.0023466363861397994,-0.00605904877471804,0.009611628192376487,0.9924633614964123
2012-01-04,1,0.0009371143371745004,0.0010308052565742138,-0.003142977605194132,0.010071389405319828,0.9924623045562697
2012-01-06,1,0.0014027185336780057,0.0016133190205124088,-5.858502140758414e-06,0.010071389405319828,0.9932004799190126
2012-01-10,1,0.0016018861989886852,0.0018064891642089452,-0.006062158293048713,0.009611628192376487,0.9929334195119558
2012-01-12,1,0.000640294972277492,0.0006462648136821054,-0.006062158293048713,0.0079889799438494,0.9929947275061897
2012-01-17,1,0.0014738472232852014,0.0016291819992735317,-0.006425206322705759,0.008128793701319524,0.992366976255183
2012-01-19,1,0.0010983937504751137,0.0011817224545830952,-0.006425206322705759,0.008128793701319524,0.9923089494581305
2012-01-23,1,0.002120551558825729,0.0024340351205375914,-0.007662444532259843,0.006798248042277343,0.9915313205068356
2012-01-25,1,0.0018677149556740576,0.002129185821003853,-0.009076740931409743,0.008216686206698099,0.9908352333688006
2012-01-27,1,0.0013067834503823301,0.0014101464260796418,-0.009076740931409743,0.006238521188955573,0.9910506270417127
2012-01-31,1,0.0020296835952847126,0.0023236209200210643,-0.009076740931409743,0.010747848164514715,0.9908315825169498
2012-02-02,1,0.001279409939248191,0.0013853911923785308,-0.009076740931409743,0.007721875317411167,0.9911567784283054
2012-02-06,1,0.001467531088812163,0.0015831630799810195,-0.010477970897904155,0.00722206034132106,0.990243330051365
2012-02-08,1,0.0011989027847611182,0.001296745695151622,-0.008855580134624334,0.00722206034132106,0.9911175108719597
2012-02-10,1,0.00018039518984404621,0.0002584545215625133,-0.005391091786178019,0.008883194558030839,0.9913158154438484
2012-02-14,-1,-0.0009909534625816363,-0.0007042145116153199,-0.004847850335405712,0.008883194558030839,0.9911412638142435
2012-02-16,-1,-0.0006927259740691031,-0.00042370117144017094,-0.004847850335405712,0.00722206034132106,0.9919089754148329
2012-02-21,-1,-0.0013649937422565012,-0.0010447718479382239,-0.004154437051438869,0.008883194558030839,0.9921817059162775
2012-02-23,-1,-0.0008719995674854393,-0.0006198167240550113,-0.004154437051438869,0.00722206034132106,0.9927418629884156
2012-02-27,-1,-0.00247391787306834,-0.0019290071316909582,-0.00394679592917921,0.00722206034132106,0.9923111816927793
2012-02-29,-1,-0.0012430384496041722,-0.0009298079573918117,-0.004377820201416239,0.004468374344114338,0.9930856167580102
2012-03-02,-1,-0.0017362818079986568,-0.0013482430811427137,-0.00394679592917921,0.004411376114948262,0.993155840609837
2012-03-06,-1,-0.00214584334185664,-0.0017049152079287578,-0.003607676849282028,0.0037168573144039535,0.9941502651572167
2012-03-08,-1,-0.0017697631568425738,-0.0014078673339302779,-0.00395352805110516,0.0031314250420523835,0.9940173984053422
2012-03-12,-1,-0.001219661339748269,-0.0009471335850076958,-0.006622496116177395,0.0027948895826968544,0.99350696328675
2012-03-14,-1,-0.0009830007286447517,-0.0007636012393891811,-0.005212405714208975,0.0031314250420523835,0.9936358663175316
2012-03-16,-1,-0.00025916776400553894,-0.00016915724584973886,-0.007043686713689538,0.003944609334582208,0.99226836531211
2012-03-20,1,1.6993194743749533e-05,7.228352157627178e-05,-0.007670311864116201,0.003944609334582208,0.9916120644223156
2012-03-22,-1,-0.00036382691238013285,-0.0002650281650804565,-0.007043686713689538,0.004870575186411671,0.9913384526145529
2012-03-26,-1,-0.0005757509821701532,-0.000434368204319825,-0.007670311864116201,0.005461932905723797,0.9906547168351257
2012-03-28,-1,-0.00040000242567458753,-0.0002859514440888829,-0.007670311864116201,0.008318307160054338,0.9899338284892325
2012-03-30,1,0.0004991502274452457,0.0005428736684660533,-0.007670311864116201,0.007173279054661274,0.9902582508108038
2012-04-03,1,0.0004415477495511061,0.00048067084551238335,-0.007670311864116201,0.010570786998687298,0.9901272725425783
2012-04-05,-1,-0.0003409844537098259,-0.00024367230979266077,-0.008352973261754458,0.010570786998687298,0.9899925304733092
2012-04-10,-1,-0.001139121368535861,-0.000955634738165486,-0.005205438531418532,0.010570786998687298,0.9906766154258101
2012-04-12,1,2.5009083468324507e-05,4.1931426959978015e-05,-0.00661056333653174,0.006640406485585138,0.9918725562716711
2012-04-16,0,-9.633924682877977e-06,2.086240405129659e-05,-0.006935595467120383,0.006419052794018559,0.9922525745971242
2012-04-18,-1,-0.00025647855355381464,-0.00018252567776194594,-0.008352973261754458,0.0052228058595873384,0.9923538568852697
2012-04-20,0,-4.671497020215527e-05,2.71515587220801e-05,-0.010937578713926576,0.003979060636374678,0.9905630048516627
2012-04-24,-1,-0.0005713868675277865,-0.00040948760935139903,-0.009242550562704637,0.004879314918049323,0.990508406568578
2012-04-26,1,0.0003530462292475491,0.00038090594792974865,-0.009242550562704637,0.004938694452354687,0.99074772768907
2012-04-30,1,0.0008495013398161025,0.0009384002222086064,-0.009836589133251406,0.005813075193730177,0.990092564042118
2012-05-02,1,0.0011162062809637484,0.001232689105994727,-0.010937578713926576,0.004938694452354687,0.9891853130670041
2012-05-04,1,0.0003014745692038256,0.0003102384071114634,-0.010937578713926576,0.005053325754796433,0.989562676108672
2012-05-08,-1,-0.0001410217361459687,-3.6178284430922816e-05,-0.010937578713926576,0.0069069198954960125,0.9884742221196826
2012-05-10,-1,-0.000170497525852779,-4.9277185645209243e-05,-0.010937578713926576,0.008679799081016664,0.988282895469245
2012-05-14,-1,-0.00015061450317770727,-3.236132211665443e-05,-0.010937578713926576,0.006891902023714514,0.9877183082931975
2012-05-16,-1,-0.00037868865814920535,-0.0002845248872407867,-0.007704594702028457,0.008799086847135398,0.9876015907099311
2012-05-18,-1,-0.0018939204561385405,-0.0016368360842741025,-0.004122578296176237,0.009466340443782601,0.9893280782560104
2012-05-22,-1,-0.0014176393167382828,-0.0011893785572317929,-0.004122578296176237,0.008799086847135398,0.9901077230873991
2012-05-24,-1,-0.0008876527031122823,-0.00074314689608538,-0.005686242409274113,0.00777267027999362,0.98979499840128
2012-05-29,-1,-0.0016322102174012292,-0.0013524979374613857,-0.005686242409274113,0.00777267027999362,0.9896940803024321
2012-05-31,-1,-0.00231888558852614,-0.001965596462123651,-0.004122578296176237,0.009063423530081901,0.9899403057656257
2012-06-04,-1,-0.0018877920072313827,-0.0016199636777477133,-0.0025317771546386164,0.011427510633029728,0.9889304536208011
2012-06-06,-1,-0.001065177838008137,-0.0008861373574770344,-0.0028685898313555386,0.009063423530081901,0.9900527093418312
2012-06-08,-1,-0.000739374465970985,-0.0006112791404097617,-0.002873498878472735,0.008171312600840357,0.9904435100079002
2012-06-12,-1,-0.0013931584046117684,-0.0011939867835621247,-0.002873498878472735,0.008171312600840357,0.9916688075014298
2012-06-14,-1,-0.0005269070530330896,-0.0004463350357816847,-0.003247488161636983,0.008171312600840357,0.9918797211879917
2012-06-18,-1,-0.00048550682996611154,-0.0004073053146995663,-0.002576893119842454,0.008954853348116186,0.9918923349586763
2012-06-20,-1,-8.896479421187504e-05,-7.653366145573557e-05,-0.0058517773637184935,0.0076885897483615455,0.9914598957327415
2012-06-22,-1,-0.0008747854084948669,-0.0007645389344031893,-0.0058517773637184935,0.0076885897483615455,0.9923061134012252
2012-06-26,-1,-0.0006248376371850905,-0.0005584366684679296,-0.005417339276390853,0.0035546143721922442,0.9926376373672883
2012-06-28,1,0.0002447730977861402,0.0003140905066004342,-0.005417339276390853,0.005833632097085926,0.9924947352078242
2012-07-02,1,0.0007158049706435096,0.000819340433540902,-0.005417339276390853,0.005833632097085926,0.9931317472791393
2012-07-05,1,0.0005618573349381196,0.0006123351683578878,-0.005979233336332087,0.003317731714845885,0.9933796286303502
2012-07-09,1,0.00016641567699212252,0.000218789032076719,-0.005979233336332087,0.005102557646010796,0.9932928758799429
2012-07-11,1,0.0004969135573210494,0.0006207774927211817,-0.005887182802872617,0.005102557646010796,0.9931982038933309
2012-07-13,1,0.0004376198783855439,0.00045926394169743337,-0.005887182802872617,0.005102557646010796,0.9935562679060123
2012-07-17,1,0.0008747553711386782,0.0009680477328453073,-0.005887182802872617,0.005102557646010796,0.9935440669025762
2012-07-19,1,8.375883271504302e-05,9.769936478124788e-05,-0.004624096881190903,0.005102557646010796,0.9941213090955184
2012-07-23,1,0.00019287446332376935,0.00020990904435908223,-0.004624096881190903,0.005102557646010796,0.9940397199286451
2012-07-25,-1,-0.00039744359955057817,-0.000335723527014558,-0.0034501452372192173,0.007478590547256352,0.9940925695037526
2012-07-27,0,-2.985721569814421e-05,1.106675014896617e-05,-0.004054507324817173,0.004783186521186462,0.9944702197522265
2012-07-31,1,0.000790882610318809,0.0008510100602831921,-0.004054507324817173,0.004783186521186462,0.9945144902452423
2012-08-02,1,0.000502181861142072,0.0005422815458395197,-0.0034501452372192173,0.004783186521186462,0.9949442427421831
2012-08-06,1,0.0007513330718382032,0.0008471556440249194,-0.0034501452372192173,0.00476798190015967,0.9949529532094767
2012-08-08,1,0.0004732291013737062,0.0005361392819434328,-0.002336206230085693,0.0060526965171598755,0.9952309200683488
2012-08-10,1,0.0011689428174002877,0.0013510638138262516,-0.002336206230085693,0.004349819375309193,0.9955298940090617
2012-08-14,1,0.00043158072491605794,0.00047211626254022374,-0.0015620112538162736,0.0036265599506626186,0.9959789737581665
2012-08-16,1,0.0008018272990052708,0.0008936831513146422,-0.0015620112538162736,0.0060526965171598755,0.995074821028462
2012-08-20,1,0.0005100613431743589,0.000570590239611913,-0.002336206230085693,0.0060526965171598755,0.9947997790516121
2012-08-22,1,0.0007925977841875601,0.0009041800617814889,-0.005851352015248813,0.003947563814585138,0.994538527773315
2012-08-24,1,0.0005866710939074866,0.0006679628032241396,-0.0035086626504029538,0.005434953935710302,0.9946550455975557
2012-08-28,1,0.000716531228754644,0.0007894931190867655,-0.0072704673308793015,0.003881037129052106,0.9940696565574413
2012-08-30,1,6.580879621668264e-05,0.0001296806185898028,-0.0072704673308793015,0.005393006018775533,0.9939551882576055
2012-09-04,1,0.0009044048034520032,0.0010128992429865237,-0.008026270149545465,0.0028519865761160333,0.9937995075551366
2012-09-06,1,0.0010766491208277305,0.0012285755385895993,-0.008026270149545465,0.002403972429131158,0.9937732478063627
2012-09-10,1,0.0005969441935215215,0.0006732527099579161,-0.0074405943395705965,0.002403972429131158,0.9940904662978911
2012-09-12,1,0.0011110877148036674,0.0012951898168168693,-0.0074405943395705965,0.004024384809222644,0.9937379520768683
2012-09-14,1,0.001977365811591896,0.002247830118698688,-0.0074405943395705965,0.0018597946374482172,0.9942853219765767
2012-09-18,1,0.001488984547476473,0.00173868648964618,-0.00403100471059349,0.002540819988370766,0.9948329475371679
2012-09-20,1,0.0014782619884272771,0.001729287136632195,-0.001892082091556953,0.0030213118903968926,0.9955234807595456
2012-09-24,1,0.0019213983490181008,0.0022655566526417776,-0.004804320337822696,0.0025368584495226417,0.9944188249136476
2012-09-26,1,0.000457635858311851,0.0005491982191469537,-0.003086083059449532,0.0025368584495226417,0.9951038436834252
2012-09-28,1,0.0012298238118312972,0.0014393359870649974,-0.006548691828635121,0.0022559891143369318,0.9940773201574774
2012-10-02,1,0.0005275047494675035,0.0006382692897610345,-0.006548691828635121,0.0025368584495226417,0.9941573602864504
2012-10-04,1,0.0006962073906837452,0.0008394740408030491,-0.006548691828635121,0.0025368584495226417,0.9940643291230837
2012-10-08,1,0.00013781559979428863,0.0001593178688984628,-0.00944338859440769,0.0025368584495226417,0.9933707199634522
2012-10-10,-1,-0.0010172531412118834,-0.0007899860499678045,-0.011022467017353599,0.002459467048290022,0.9932033808341987
2012-10-12,-1,-0.0004879406817732618,-0.0003767412435466819,-0.01222575025780123,0.002459467048290022,0.9923417039122655
2012-10-16,1,0.00014932390769616962,0.0001695035110851641,-0.01385144943608676,0.002459467048290022,0.9915277061675869
2012-10-18,1,0.0002377762863661413,0.00026456489875765305,-0.01385144943608676,0.0026485942173209306,0.9901235715810596
2012-10-22,-1,-0.0010866854732282697,-0.0008637069161686804,-0.01385144943608676,0.0026485942173209306,0.9912848385392462
2012-10-24,-1,-0.0018422442432942218,-0.0015314158997820732,-0.011631083096387678,0.0035450796276458875,0.9914426665490784
2012-10-26,-1,-0.001697272143130998,-0.0014595228569321147,-0.007004988488336961,0.004063856921174796,0.9918204085327639
2012-11-01,-1,-0.001917140111510398,-0.0016517757235771874,-0.004976619824443161,0.0034741417755285754,0.9922888746802115
2012-11-05,-1,-0.0024402441139043914,-0.0020661036849745134,-0.004976619824443161,0.004169388628604054,0.9919628770115685
2012-11-07,-1,-0.0028947387317046183,-0.002506584090336861,-0.002438556842220362,0.006083923507260234,0.9913287579060517
2012-11-09,-1,-0.002953447429449594,-0.0025978031511624216,-0.0007396539163584701,0.006083923507260234,0.9914081777750902
2012-11-13,-1,-0.004235207834576949,-0.003665450341947706,-0.0013877894794362261,0.006083923507260234,0.9914127469458619
2012-11-15,-1,-0.004130256839643121,-0.003566260258637641,-0.0017982712932262436,0.006000024239903068,0.9926683800045972
2012-11-19,-1,-0.0031556232757864555,-0.002706424334805718,-0.0017982712932262436,0.0043199758086509485,0.9944357735578035
2012-11-21,-1,-0.002664864645215947,-0.0023197591922460258,-0.00216153327110586,0.005927154918916616,0.9940908577963034
2012-11-26,-1,-0.0018076106441929501,-0.0016100764343587406,-0.002424102383332165,0.0043199758086509485,0.9944633229519905
2012-11-28,-1,-0.001468347568613903,-0.0013257534690611817,-0.004859866001882171,0.0043199758086509485,0.9943115294213325
2012-11-30,-1,-0.0014855675360484159,-0.0013379890177856167,-0.004859866001882171,0.005927154918916616,0.9935920915227168
2012-12-04,-1,-0.0014935886873733402,-0.0013264357360238102,-0.004859866001882171,0.005927154918916616,0.9928177166912436
2012-12-06,-1,-0.00032615156306810836,-0.0003250182776056895,-0.004859866001882171,0.005927154918916616,0.9931020490533007
2012-12-10,1,0.00018862387733541435,0.00028850621155105814,-0.004859866001882171,0.00592065464383449,0.9931454814992015
2012-12-12,-1,-0.0003845936993096201,-0.0003564895129635285,-0.004859866001882171,0.00592065464383449,0.9928656545001938
2012-12-14,-1,-0.000921149287986142,-0.0008227309474465481,-0.0035348424979434684,0.00592065464383449,0.9930107072269952
2012-12-18,-1,-0.0009048844578560358,-0.0007771442500061484,-0.0038545159047709233,0.005114008327644849,0.9933171898068902
2012-12-20,-1,-9.079150462082452e-05,-8.722202146832359e-05,-0.0035348424979434684,0.005114008327644849,0.9937825893874653
2012-12-24,-1,-7.267711401071945e-05,-6.149202463643451e-06,-0.0035348424979434684,0.005114008327644849,0.9941065777702214
2012-12-27,-1,-0.0008434045933710832,-0.0007930476505251273,-0.0021234236506753614,0.005114008327644849,0.9942607040638834
2012-12-31,1,0.00011129353102387897,0.000183592602951929,-0.0021234236506753614,0.004968008583977627,0.9953038472188289
2013-01-03,1,0.0005593535376640312,0.0006659805286698921,-0.002653325699264521,0.004950964021928805,0.9958714493543692
2013-01-07,1,0.0011875284821961307,0.0013973245221965054,-0.0035574533447274006,0.004444934792415845,0.9959581000544031
2013-01-09,1,0.0010834188185067759,0.00126916093716434,-0.003719010925061975,0.004444934792415845,0.9957294393968733
2013-01-11,1,0.0014252849932934234,0.00167733585533383,-0.003719010925061975,0.003939813265746961,0.9960974717888521
2013-01-15,1,0.0014320460733349746,0.0016567022945737262,-0.004289223518040271,0.003546189560169261,0.9958121285875843
2013-01-17,1,0.0011880815210256134,0.001394236733443327,-0.004289223518040271,0.003546189560169261,0.9955320880158957
2013-01-22,1,0.0014439939979382257,0.0016696887713504782,-0.004289223518040271,0.003224152647198859,0.9955634674305316
2013-01-24,1,0.0014936358698833055,0.0017443106653082584,-0.004671386084972283,0.003916409329976318,0.9951486077992309
2013-01-28,1,0.0016158430747911074,0.0018852072499172595,-0.0059265221603365704,0.003916409329976318,0.9941970240251707
2013-01-30,1,0.0016787024523958094,0.0019648224400040997,-0.0059265221603365704,0.0042041402377718685,0.9942274146690055
2013-02-01,1,0.0016487284759811544,0.0019439397727797993,-0.004671386084972283,0.0042041402377718685,0.994316308553127
2013-02-05,1,0.0012295289665491184,0.001455659230528989,-0.003443454701985646,0.004457577087592315,0.994454427628081
2013-02-07,1,0.0016096437545881728,0.001895219873253496,-0.0033474639963927766,0.0042041402377718685,0.9946800098247826
2013-02-11,1,0.002265380050692014,0.002702717714912057,-0.003666344566105242,0.004299396380745909,0.9941646160784731
2013-02-13,1,0.0016972909510405225,0.0020160471822765432,-0.003666344566105242,0.004299396380745909,0.9941882936476043
2013-02-15,1,0.0013383603661860427,0.0015911487104344844,-0.003666344566105242,0.004299396380745909,0.9943631111130784
2013-02-20,1,0.0015488400502560165,0.0018411112162101946,-0.003666344566105242,0.004299396380745909,0.9944672474062015
2013-02-22,1,0.0013592173541719284,0.0015854667134026956,-0.003277773641625666,0.004278902891065534,0.9950512438287367
2013-02-26,1,0.0008543747985261573,0.0010288629275937563,-0.002979449455164954,0.0039296445251987226,0.9962447999023778
2013-02-28,1,0.0007496878751851491,0.0008872337960524684,-0.003277773641625666,0.002216327411364525,0.9960642901707613
2013-03-04,1,0.0011272500870448884,0.0013169802085099486,-0.003277773641625666,0.0013752518023523157,0.9962971512706081
2013-03-06,1,0.0011968604908189904,0.0013928133373277026,-0.003666344566105242,0.0013752518023523157,0.9962778958645855
2013-03-08,1,0.001069846536224836,0.0012542538544962154,-0.0030857429784024422,0.002216327411364525,0.9959200173675353
2013-03-12,1,0.0011035036983338216,0.0012926324673365275,-0.0029891033335768995,0.001865204150143558,0.9960331867149053
2013-03-14,1,0.0011441046658239758,0.0013673422727980941,-0.0025907480075194338,0.002731383318679646,0.9961976436560037
2013-03-18,1,0.0009717612298073835,0.0011841319222780941,-0.0025907480075194338,0.0039296445251987226,0.9954180793734939
2013-03-20,1,0.0006554304186882078,0.0007826189970082365,-0.00291912370219728,0.0039296445251987226,0.9945555230491935
2013-03-22,1,0.0006825969040918959,0.0007804346593390176,-0.003951629925899427,0.003209499027906939,0.9939254248216618
2013-03-26,1,0.0002850628730108273,0.00029686354937612914,-0.003951629925899427,0.006018965961901294,0.9935462771912363
2013-03-28,-1,-0.00010203685092144725,-5.697669094244001e-05,-0.006216670902244793,0.006018965961901294,0.9934057591768714
2013-04-02,-1,-0.0002902678703524606,-0.00022040731331696807,-0.006216670902244793,0.008678879107599223,0.9920621125562841
2013-04-04,-1,-0.0007144054848948283,-0.0005607901331389834,-0.003951629925899427,0.008678879107599223,0.9921838731128417
2013-04-08,-1,-0.00043624865516079354,-0.00029705306936713197,-0.003951629925899427,0.007344608354289959,0.9926329703252823
2013-04-10,-1,-0.0009460095476514608,-0.0007217666798923458,-0.0029869542727812715,0.009375191199296383,0.9916601919961091
2013-04-12,-1,-0.0009816026880884992,-0.0007318675941477025,-0.0029869542727812715,0.009375191199296383,0.9920459974300229
2013-04-16,-1,-0.000777088418683989,-0.0006037578597186894,-0.0015458362254325824,0.011497434852572274,0.9919914211021637
2013-04-18,-1,-0.0014239073271254796,-0.0011703133504090341,-0.0007798339573212662,0.011497434852572274,0.9917990276296186
2013-04-22,-1,-0.0010993353531240594,-0.0008907690743996233,-0.0015481036362218353,0.00944022896763954,0.9925987450329516
2013-04-24,-1,-0.000762038322509317,-0.0005924837766442855,-0.0024827601441150377,0.008849623709809618,0.9914577387153083
2013-04-26,-1,-0.0015555258347106755,-0.0012768884643193164,-0.0019610179589903357,0.008849623709809618,0.9915159837007185
2013-04-30,0,-5.4321169932547875e-05,4.275999996783007e-05,-0.004359751157938107,0.0045581586283099254,0.9911391019316395
2013-05-02,1,0.00042474614935946337,0.0004273003130272862,-0.007732867429150143,0.0032105058212921725,0.9901549641350071
2013-05-06,1,0.000752993378526154,0.0008106192950030511,-0.009764877375446448,0.0029523328965700537,0.9896709656887759
2013-05-08,1,0.0014987551464911543,0.0016450606630325636,-0.009764877375446448,0.0020253013678084215,0.9894624318423063
2013-05-10,1,0.001215094343156362,0.0012920922144582332,-0.011545459526380038,0.0028485020200025475,0.9889619452385846
2013-05-14,1,0.0023429502581515174,0.0025902555781121455,-0.01666689559983565,-0.0008294644457761287,0.9877105771461709
2013-05-16,1,0.002618395658593849,0.0029109501274148172,-0.01666689559983565,0.0014192168839301427,0.986551031714159
2013-05-20,1,0.0019663191504819145,0.002135583460575949,-0.01666689559983565,0.0028485020200025475,0.9867430504616995
2013-05-22,-1,-0.00021800028159462846,-6.75124715497445e-05,-0.017226704790784617,0.0028485020200025475,0.9859020912965694
2013-05-24,-1,-0.00024462483388337124,-0.00012221262265246048,-0.017226704790784617,0.0028485020200025475,0.9858371031291335
2013-05-29,-1,-0.001691809447242679,-0.0014494400317263038,-0.012989950352468405,0.0076436041493896404,0.9873996395310077
2013-05-31,-1,-0.00249673074719275,-0.002191337973296375,-0.011545459526380038,0.008311973076710891,0.9870460484124897
2013-06-04,-1,-0.0027795711837609303,-0.002446993029383021,-0.009494309299388411,0.010127348691691102,0.9862507747638863
2013-06-06,-1,-0.0024995641194511765,-0.002207844840964971,-0.00864892212962927,0.008311973076710891,0.9869304915544723
2013-06-10,-1,-0.0026255425447817456,-0.0023341501731369324,-0.006549961533787972,0.010191247962951441,0.9862365887999472
2013-06-12,-1,-0.0040958107305349,-0.0036277351205672324,-0.0039236896508643895,0.012153240874142759,0.9857560299891553
2013-06-14,-1,-0.001986438112918127,-0.0017868582699428924,-0.005083200840160663,0.01026421747988087,0.9871141624383232
2013-06-18,-1,-0.0017066703246862577,-0.0015397979152931608,-0.004283647762992303,0.01026421747988087,0.987577629019105
2013-06-20,-1,-0.004584965980112626,-0.00409246960469424,-0.0032678392786797644,0.0116072671555406,0.9890197620147506
2013-06-24,-1,-0.004803928810988816,-0.00429255946726522,-0.002134090789561998,0.0116072671555406,0.9878041849850921
2013-06-26,-1,-0.003973012334166078,-0.0035564432098727796,-0.0024039359339672463,0.011050828420820792,0.9884820158581833
2013-06-28,-1,-0.0028572031338504624,-0.002552514905713636,-0.004696019081071832,0.010078737901640935,0.990098565881439
2013-07-02,-1,-0.0014528244774277073,-0.0013256583846383342,-0.006425065525330017,0.009345987393954883,0.9906893967608016
2013-07-05,-1,-0.0017296671701576797,-0.0015806905110117247,-0.006543016627645764,0.009345987393954883,0.9906835151369189
2013-07-09,-1,-0.0007335912870119702,-0.0006931200576214134,-0.006543016627645764,0.008348868096576138,0.9914001999717938
2013-07-11,1,6.731408564663062e-05,0.00010465768475723377,-0.007508097028129512,0.005893963861958267,0.9919632073594328
2013-07-15,-1,-7.710597009744675e-05,-4.930438204713061e-05,-0.007508097028129512,0.005893963861958267,0.9919761818917003
2013-07-17,1,6.43444959662782e-05,0.00012116590591533261,-0.009236590253242256,0.005893963861958267,0.9910790232679635
2013-07-19,1,2.438013748139484e-05,3.5180581355193795e-05,-0.013386123819759229,0.0042881832132527315,0.989079825837066
2013-07-23,1,0.0006848747207439881,0.0007919250732156528,-0.01594056463797053,0.003722394763903637,0.9875165078906504
2013-07-25,1,0.00031423109119562055,0.0003967073203263957,-0.013386123819759229,0.0027494932674110403,0.9883095230521483
2013-07-29,-1,-0.00025470846332799015,-0.00023126342761978057,-0.013097683112332201,0.0035603476324323935,0.989137068928004
2013-07-31,-1,-0.00043573693981618824,-0.00042741738741845694,-0.01076280217163422,0.0027494932674110403,0.9899032182008615
2013-08-02,-1,-0.0007498930665475571,-0.0007088239548874848,-0.01076280217163422,0.003399772804262613,0.9898034093273104
2013-08-06,-1,-0.00037486756115854766,-0.0003640658873224682,-0.01076280217163422,0.002908234403952906,0.9899581507291616
2013-08-08,-1,-0.0011487477620229036,-0.001031456140954126,-0.01076280217163422,0.004004559996853847,0.9901289132822714
2013-08-12,-1,-0.0012417778731720341,-0.0011186625015479274,-0.008233660273703026,0.004004559996853847,0.9902347249124321
2013-08-14,-1,-0.001961427581604018,-0.0017741474120305722,-0.006703308108342638,0.004004559996853847,0.9908282495924186
2013-08-16,-1,-0.004370822237782085,-0.0039031380876812707,-0.005653103323069035,0.004422262390954905,0.9921442518884068
2013-08-20,-1,-0.004119908818553304,-0.003672022107798127,-0.0034435067406871473,0.005092367903142722,0.9912505614944129
2013-08-22,-1,-0.004442715617068615,-0.00395373497695293,-0.0034435067406871473,0.00674477319790113,0.9902713246432246
2013-08-26,-1,-0.004189460113411222,-0.0037336633264429217,-0.005653103323069035,0.00674477319790113,0.9900830558195909
2013-08-28,-1,-0.0038659722740942036,-0.003485133718866439,-0.005705746280848965,0.00674477319790113,0.9901637231377945
2013-08-30,-1,-0.003874749840883004,-0.003496867468714973,-0.006443587146194337,0.00674477319790113,0.9903211238511778
2013-09-04,-1,-0.0033367065646336333,-0.0030472954690535024,-0.006443587146194337,0.006960463525690549,0.9899602107569417
2013-09-06,-1,-0.003367121534652011,-0.0030581070613460923,-0.007044626839244948,0.00674477319790113,0.9898662502095984
2013-09-10,-1,-0.0026434755333797745,-0.002389463851703684,-0.007044626839244948,0.005778121287246343,0.9910300078772228
2013-09-12,-1,-0.0025202459738142245,-0.0023002793687732,-0.007044626839244948,0.00674477319790113,0.9904282682665313
2013-09-16,-1,-0.001649484952861856,-0.0015599728677717052,-0.00804642028811147,0.005778121287246343,0.9906606095245135
2013-09-18,1,0.0004060816207955736,0.0005445261063025201,-0.00804642028811147,0.0030231049424893916,0.9920636759562598
2013-09-20,1,0.0005274344256507063,0.0007643439923544428,-0.007044626839244948,0.0030231049424893916,0.9920799537508221
2013-09-24,1,0.00047649315766227086,0.0007241468968689891,-0.006076992258820491,0.0039008921416802903,0.9923261299504085
2013-09-26,1,0.0004103465361010904,0.0006708600000561688,-0.004978651877017635,0.005296581603312144,0.9924978591109589
2013-09-30,1,0.0004157899462147004,0.0007396613402347761,-0.0042422065551018795,0.00931530331453833,0.9918160422762303
2013-10-02,1,0.0010833672094729826,0.001505939104024737,-0.004525182479044168,0.005296581603312144,0.9916741286774274
2013-10-04,1,0.0010949536902901463,0.0015882107008681132,-0.004525182479044168,0.009163455222162938,0.9916624477784046
2013-10-08,1,0.001520443566636738,0.002091464530217175,-0.004978651877017635,0.009163455222162938,0.990690523577157
2013-10-10,1,0.00219543183966176,0.002843213537968706,-0.006731429357358961,0.005296581603312144,0.9905896084738417
2013-10-14,1,0.0009727982064861185,0.0013652175041687763,-0.006945193423465631,0.005296581603312144,0.9911168526512139
2013-10-16,1,0.0013522268337921172,0.001786936034703366,-0.008944140569530834,0.005113429422395085,0.9911571869076468
2013-10-18,1,0.0016515211234235853,0.0020205281817772037,-0.008944140569530834,0.008425353108259138,0.991614228916709
2013-10-22,1,0.0013268367218319658,0.001590405903096104,-0.010349793772121836,0.005113429422395085,0.9914132639681205
2013-10-24,1,0.001218698718077324,0.0014475603621230118,-0.010349793772121836,0.00861399867941176,0.9906151639463369
2013-10-28,1,0.001675664929138598,0.0019696418425359306,-0.00897710362707018,0.002292781292141759,0.9915716444702314
2013-10-30,1,0.0011984152802922026,0.0014094784747890883,-0.00897710362707018,0.0026456093536933786,0.9921068199752269
2013-11-01,1,0.00039869338322402596,0.0004245268833269084,-0.00897710362707018,0.00042725076759219196,0.9927213045119336
2013-11-05,1,0.0005311020489929591,0.0006663623907323887,-0.00897710362707018,0.0007829975060717418,0.9928656523641597
2013-11-07,1,0.00016360893765037595,0.0002665063173859282,-0.007165439039039132,0.006032010028096896,0.9929378961679753
2013-11-11,-1,-0.0021384667310251253,-0.001807325276227604,-0.005628590911566205,0.006032010028096896,0.9932078794657311
2013-11-13,-1,-0.002434947990849146,-0.0020474038714197737,-0.007712828689284088,0.004997357071952562,0.9925091850573415
2013-11-15,-1,-0.0010276082540342474,-0.0008449838507532894,-0.007712828689284088,0.0034214241326927415,0.9929297594081382
2013-11-19,-1,-0.0009582170034877398,-0.0008451900625417708,-0.005628590911566205,0.00532127097436062,0.991378113021723
2013-11-21,1,0.0001511258558197558,0.00023417108092690947,-0.006858068312088227,0.00532127097436062,0.990144430903587
2013-11-25,-1,-0.00023932033379151833,-0.00023215275126902711,-0.005858855592825554,0.00532127097436062,0.9902372905918521
2013-11-27,1,0.00025136431364951355,0.00038397508170796965,-0.007716929994434975,0.00532127097436062,0.9899810772723497
2013-12-02,1,0.00023354421693584507,0.0004279884796759125,-0.0053346072061566455,0.00532127097436062,0.9905392877079643
2013-12-04,-1,-0.00033204056957735785,-0.0002229323695679978,-0.004192294827009154,0.006603301746831103,0.9904689384862669
2013-12-06,1,0.00044148703584577487,0.0006600329334159013,-0.004192294827009154,0.00502334831796468,0.9911365203959562
2013-12-10,1,0.0007719868890610284,0.0010585615124935315,-0.004039187659947377,0.003709423777197662,0.9913843558534294
2013-12-12,-1,-0.00020560745015299356,-6.5624425051018925e-06,-0.002695839059730601,0.006505754598053266,0.9922945287698957
2013-12-16,0,-3.515957346871088e-05,0.00015403151412338525,-0.002695839059730601,0.009997246529000437,0.991653274245619
2013-12-18,1,0.0013875183081944143,0.0017229768299678323,-0.002695839059730601,0.004792087435557755,0.9936808950765134
2013-12-20,1,0.0014024380246713019,0.001736496108859129,-0.002220005001256994,0.009674608445835672,0.9947630089090819
2013-12-24,1,0.0013279943975622386,0.0016315866426499025,-0.002695839059730601,0.009674608445835672,0.9940819643769642
2013-12-27,1,0.001184273435194567,0.0014999822690948163,-0.002220005001256994,0.009997246529000437,0.993990375989435
2013-12-31,1,0.0009877086308546189,0.0012456705224890442,-0.0014784944847016275,0.010615066366655032,0.9936271007675581
2014-01-03,1,0.001463638282781025,0.0017770737151265315,-0.0025636169196649964,0.010927875337732864,0.993184445497103
2014-01-07,1,0.0009708398989594786,0.0011640011536757221,-0.0014784944847016275,0.010927875337732864,0.9929204079583973
2014-01-09,-1,-0.0005862552273281374,-0.00044733389996042563,-0.001101952075832104,0.01113541402990615,0.9916437880711013
2014-01-13,-1,-0.00029664646564419016,-0.0002003478416366913,-0.001101952075832104,0.011796972478929454,0.9914964415309246
2014-01-15,1,0.00047559967531345614,0.0004992904525217227,-0.001101952075832104,0.01113541402990615,0.9925237494666425
2014-01-17,1,0.0007336681475212868,0.0007456593069892335,-0.001101952075832104,0.01113541402990615,0.9922919006545673
2014-01-22,1,0.0018352006787288942,0.001974877781175782,-0.004536858144719745,0.009744621308981299,0.9935723705608378
2014-01-24,1,0.0014402836158326042,0.001511872584188816,-0.004536858144719745,0.010927875337732864,0.9933231229147208
2014-01-28,1,0.001615956351681088,0.0017094563129069454,-0.003188444569435611,0.009751631232900028,0.9936483656167342
2014-01-30,1,0.001996368127473787,0.0021398550293617938,-0.003188444569435611,0.007754014317633056,0.993901135737276
2014-02-03,1,0.002532859543066389,0.0027979652772189305,-0.0014797437311803079,0.007754014317633056,0.9941273248286471
2014-02-05,1,0.002697402816707813,0.0029678501152210794,-0.005016113964207478,0.0065745086605257025,0.9937264100056883
2014-02-07,1,0.0030598195779650813,0.0033935331255253503,-0.0056706564070139725,0.005800872056786902,0.9933509779181794
2014-02-11,1,0.004293777958460872,0.004922551009344552,-0.0053190139217767895,0.005800872056786902,0.993294088558829
2014-02-13,1,0.004091984614899066,0.0046505792280098265,-0.0053190139217767895,0.00562699944903363,0.9929129471335614
2014-02-18,1,0.0043127469504809605,0.004878881891274451,-0.0053190139217767895,0.00562699944903363,0.9926822335222792
2014-02-20,1,0.0037817850768896554,0.004251044635019416,-0.0053190139217767895,0.00562699944903363,0.992142081703617
2014-02-24,1,0.0034254803328866478,0.0038005485649621343,-0.0053190139217767895,0.00562699944903363,0.9920787736329205
2014-02-26,1,0.003668600669853774,0.0040974588759561895,-0.0056706564070139725,0.003847816359175722,0.9913305540520301
2014-02-28,1,0.0030269620393419644,0.0033159451345414325,-0.0056706564070139725,0.006092894974138782,0.9914198043270187
2014-03-04,1,0.0037974707722238394,0.00418641027355841,-0.007120108846551235,0.004376545291726576,0.9910284657084543
2014-03-06,1,0.0035485110082849073,0.003935662675442089,-0.007120108846551235,0.006777137765113079,0.9917677026742868
2014-03-10,1,0.0023073975400267456,0.0024874750136490856,-0.0020639480592230947,0.007679081771791344,0.9927636673770907
2014-03-12,1,0.0030512983341704656,0.0033439711304526385,-0.003110150019514188,0.006777137765113079,0.9929127794080338
2014-03-14,1,0.003400409971660039,0.003810322134581362,-0.005731392437934634,0.006777137765113079,0.9918277219864213
2014-03-18,1,0.00376850975888634,0.0042340213029245085,-0.005731392437934634,0.008218838710905532,0.9906783432760053
2014-03-20,1,0.002827336725598155,0.003167719369190431,-0.005731392437934634,0.008218838710905532,0.9915758791104026
2014-03-24,1,0.0031705196237716594,0.0035801502044658304,-0.00462120912957288,0.006777137765113079,0.9925265408446178
2014-03-26,1,0.0022837359985581453,0.002551432115316463,-0.0031056422827326832,0.006777137765113079,0.9933997039938516
2014-03-28,1,0.0024274417103439467,0.0027032312896915966,-0.00462120912957288,0.005914750593861819,0.9933759531472615
2014-04-01,1,0.0018832919694380993,0.0020371706982301664,-0.003189974894348277,0.004897138591880654,0.9938374929762703
2014-04-03,1,0.0017219741635467313,0.0018155572024307826,-0.0036941374285979376,0.004897138591880654,0.9934445519592007
2014-04-07,1,0.0018350363197724487,0.0019054896875659551,-0.0036941374285979376,0.004897138591880654,0.9935964983489735
2014-04-09,1,0.001341358099659526,0.001344791150683085,-0.002882453572950464,0.004897138591880654,0.9939587028510151
2014-04-11,1,0.0006475344816968681,0.0006905422473656627,-0.0004691577379178283,0.004897138591880654,0.9948381231691926
2014-04-15,1,0.001676000605964876,0.0017173306596223528,-0.001183341265648316,0.004235937504358967,0.9963251407238128
2014-04-17,1,0.0014964324804715538,0.0015313234115503273,-0.0004691577379178283,0.00435804224909156,0.9966379769861313
2014-04-22,1,0.0014046116991396137,0.0014067337539208336,-0.002882453572950464,0.00435804224909156,0.9960138130243996
2014-04-24,1,0.0013966872057705486,0.00140593334003571,-0.0035029083946547393,0.004235937504358967,0.9958049479548222
2014-04-28,1,0.0004992373783401867,0.0006543541746653705,-0.0035029083946547393,0.00435804224909156,0.9959159985076309
2014-04-30,0,-2.3538506937963426e-05,0.00021435882686850454,-0.0035029083946547393,0.004649089882440234,0.9959207807401004
2014-05-02,1,0.0004400975272256213,0.0005973055562496095,-0.00285859767091063,0.006166329675562611,0.9956655979892475
2014-05-06,1,0.00046449421058716324,0.00062488954692161,-0.00285859767091063,0.005024169656645521,0.9959451647903793
2014-05-08,-1,-0.0007112960625520269,-0.00033055722771408607,-0.00394174655228636,0.007445611251596342,0.9947097953604933
2014-05-12,-1,-0.0004547600619452595,-0.00011193020834694885,-0.004724347825244803,0.007445611251596342,0.9944748123592236
2014-05-14,1,0.00039133289691378693,0.0005544340119051186,-0.004724347825244803,0.007445611251596342,0.9942725708047022
2014-05-16,1,0.0005730744250401516,0.0007256437172412773,-0.004724347825244803,0.0069834998764368205,0.9943750077298597
2014-05-20,0,-0.00011778276174461918,0.00011906867605268275,-0.0036097427086077692,0.0069834998764368205,0.994572393886002
2014-05-22,-1,-0.0010098979068780647,-0.0006353633346581268,-0.0036097427086077692,0.0069834998764368205,0.9944033215292271
2014-05-27,-1,-0.001082310733699462,-0.000693773045184245,-0.002570695927897278,0.00664545672656502,0.9948127858982102
2014-05-29,-1,-0.0006043811914069672,-0.0002927319547272302,-0.0041064784515707905,0.00459776866351005,0.9946785855937164
2014-06-02,0,-2.2580019759691297e-05,0.0002277243778848329,-0.0041064784515707905,0.00459776866351005,0.9947760194324833
2014-06-04,-1,-0.000305274307804956,-5.0912905379660095e-06,-0.0041064784515707905,0.00459776866351005,0.9946942793024369
2014-06-06,0,-1.0419500485025612e-06,0.0002656525914114512,-0.004162945945024911,0.002831675730053245,0.9954957835639817
2014-06-10,-1,-0.000333863116940883,-6.824542456937551e-05,-0.0022468278281015342,0.002831675730053245,0.9960317645712476
2014-06-12,0,-0.00024301504270396847,7.036502149177144e-06,-0.0021136016560632607,0.002831675730053245,0.9962018277638836
2014-06-16,1,0.00022454580791028315,0.0003565271813647175,-0.00025818699396827204,0.002831675730053245,0.9963519798697874
2014-06-18,1,0.0004246845929954095,0.0005459543097470875,-0.0010035483768167184,0.002449517418529666,0.9965233546401164
2014-06-20,1,0.00015263556665976564,0.00029861713155171027,-0.00035302473067891154,0.002459646383397446,0.9963060653186044
2014-06-24,1,0.0002892881068533243,0.0004026580063601463,-0.00035302473067891154,0.0030780223365507366,0.9959854297600195
2014-06-26,0,-0.00013409440040252984,1.612792870521744e-05,-0.00035302473067891154,0.003068279507796682,0.9962067730404559
2014-06-30,1,0.0007560225567005123,0.0007807078813612567,-0.0009559478556776034,0.002449517418529666,0.9963756718824162
2014-07-02,1,0.0009247071813777779,0.0009336069740167184,-0.0009559478556776034,0.0023453156856339907,0.9963480749944383
2014-07-07,1,0.0006677854627742088,0.0006813091640556615,-0.0022494839449428957,0.0023453156856339907,0.9962217764096136
2014-07-09,1,0.0007912586585744081,0.0008041203687314388,-0.003916074938488791,0.0029571964196179116,0.9956430188621318
2014-07-11,1,0.0011963373323902412,0.0012874988897141264,-0.0042222238883800126,0.002863457450674643,0.9953803243201514
2014-07-15,1,0.0011006201732633714,0.0011610732685242624,-0.0042222238883800126,0.003353706909422491,0.9953411241002786
2014-07-17,1,0.0008196187911127233,0.0008482020954335466,-0.003432421588567783,0.004696318702973203,0.9952512514444855
2014-07-21,1,0.0012804886095087525,0.001375693075829714,-0.003792566636486869,0.004696318702973203,0.9946753318409346
2014-07-23,1,0.0013953033217662667,0.0014966728181432598,-0.003792566636486869,0.004696318702973203,0.9948740352642984
2014-07-25,1,0.0015947227673344278,0.0017699697106898019,-0.003792566636486869,0.004696318702973203,0.9944971909087293
2014-07-29,1,0.0011054792407009946,0.00118838028781386,-0.003792566636486869,0.003353706909422491,0.9949250419159216
2014-07-31,1,0.0006817714298211564,0.000698339482248015,-0.003792566636486869,0.003353706909422491,0.9949203473478094
2014-08-04,1,0.0005877693701725755,0.0005914542777842988,-0.0028432533760727216,0.003415905484427202,0.9953714506276802
2014-08-06,1,0.00029053082039393453,0.0003310496197661072,-0.0022381464448593333,0.003415905484427202,0.9957464978817204
2014-08-08,1,0.0005095286046843801,0.0005138375373731879,-0.0015792167009546928,0.003731659162794633,0.9957623301814365
2014-08-12,1,1.712858254930116e-05,0.00011523129290878407,-0.002897249474100587,0.003731659162794633,0.9950134599727135
2014-08-14,1,0.0003066223680620874,0.0003639236017373438,-0.004100705699357338,0.003731659162794633,0.9937757435867066
2014-08-18,1,0.00044915783517474566,0.0005183546724986093,-0.004611791633234497,0.002646799034338744,0.9945487237924983
2014-08-20,1,0.0008806388333351275,0.0008885837494825137,-0.005941430396336045,0.0010283118034230207,0.9940225638210907
2014-08-22,1,0.00020549275978006372,0.0003038310210739012,-0.005941430396336045,0.0010283118034230207,0.994322683744295
2014-08-26,1,6.624139363936213e-05,0.0001708109621744158,-0.009519793452083125,0.0021384451769514965,0.9936921167806196
2014-08-28,1,0.0002125818704429867,0.00027650860372878156,-0.009519793452083125,0.003432300302590876,0.9934139760330982
2014-09-02,1,8.36680241970439e-05,0.00018202246023754718,-0.01034722339803025,0.003569999321321805,0.9929075644161661
2014-09-04,-1,-0.0004868736313778999,-0.0002699495299476591,-0.01034722339803025,0.003569999321321805,0.9930319814240605
2014-09-08,1,0.0004658721142841781,0.0005018545157390077,-0.01034722339803025,0.003500547270620348,0.9928206505555562
2014-09-10,-1,-0.0006057404611074206,-0.00043045090283497315,-0.006282561514100607,0.0043861889545256955,0.9923498175882348
2014-09-12,-1,-0.001464457876392239,-0.0011949063637968992,-0.0036346630289491146,0.004835751752377212,0.9932039044077176
2014-09-16,-1,-0.0015304052257663963,-0.0012614559970467107,-0.003226788565800127,0.006122250986244482,0.9918537469773537
2014-09-18,-1,-0.0022901238561006017,-0.0019226714775534791,-0.0021005243406063117,0.006122250986244482,0.9917674229365956
2014-09-22,-1,-0.0028478520283475783,-0.0024170799959690407,-0.0003409212619852682,0.007879377103694046,0.9914115611825806
2014-09-24,-1,-0.0030265657447108157,-0.0025883330604101395,0.0019612630306578807,0.008365274947330508,0.9912289095474327
2014-09-26,-1,-0.002500823730658167,-0.0021369108469741563,-0.0003409212619852682,0.008365274947330508,0.9915545100171153
2014-09-30,-1,-0.00282341220310627,-0.0024234828557809164,0.00016283963076032485,0.008365274947330508,0.9917748556777835
2014-10-02,-1,-0.0025266598669892483,-0.002176847558990583,0.00016283963076032485,0.008365274947330508,0.9917130825304804
2014-10-06,-1,-0.002240892259530766,-0.0019229471180809239,0.00016283963076032485,0.008749746216288648,0.991441726040297
2014-10-08,-1,-0.0008714020901715352,-0.0007343957434080355,-0.001353374867048081,0.008365274947330508,0.9933762282115977
2014-10-10,-1,-0.0004765012966999781,-0.0003624293832370564,-0.002928156490092443,0.00789331862924526,0.9939679267833995
2014-10-14,1,0.0006147643405851047,0.0006200032214563667,-0.0031082504472185026,0.007602994634805053,0.9946026096383236
2014-10-16,1,0.0007688795276059808,0.0007880562217250032,-0.003278148897908105,0.007602994634805053,0.9940276183806992
2014-10-20,1,0.0010668507182965458,0.0011422130753670667,-0.004070604068727512,0.007541943506367847,0.9936823742558388
2014-10-22,1,0.001909994387400503,0.0021376329772801114,-0.005125990878383187,0.006595864874880025,0.9938284604283539
2014-10-24,1,0.0019901148946410326,0.002229314613575381,-0.005754070403990559,0.006595864874880025,0.9934241087551794
2014-10-28,1,0.00215979508268912,0.0024418648294895536,-0.005754070403990559,0.007541943506367847,0.9924744678017766
2014-10-30,1,0.0018918419934271778,0.0021014445178725244,-0.005413626030789548,0.0075486735693907105,0.9921955713255393
2014-11-03,1,0.002439079844844502,0.0027253446646184273,-0.005413626030789548,0.0075486735693907105,0.9922890393731619
2014-11-05,1,0.0019413122189535406,0.002147263394760481,-0.003982831081392115,0.007708505280531359,0.9918604096660306
2014-11-07,1,0.001700936994516014,0.0018967204215734393,-0.0023356300285437537,0.010153088870466821,0.9915929327631882
2014-11-11,1,0.002028195476443376,0.002250454559559358,-0.0032136782884829296,0.007708505280531359,0.9916706565602607
2014-11-13,1,0.0018217157679508464,0.0020135707294352298,-0.0032136782884829296,0.007708505280531359,0.9916053925290914
2014-11-17,1,0.001446092757393013,0.0015658659398988975,-0.0032136782884829296,0.007708505280531359,0.9915104801541315
2014-11-19,1,0.0015516044700491804,0.0017209988303674888,-0.0008689814513587902,0.009320249817469095,0.9912466042895274
2014-11-21,1,0.0013797304407582815,0.0015318109205981817,-0.0008689814513587902,0.013981508576768512,0.9911328859614905
2014-11-25,1,0.0019701830976076,0.00218027268805292,-0.003081710466716486,0.009320249817469095,0.9917939296518539
2014-11-28,1,0.002729589902126593,0.0030400478901075256,-0.003081710466716486,0.006631469875662554,0.9923851126182901
2014-12-02,1,0.003001735237150311,0.0033580457314809553,-0.004684119073682186,0.005949614775191857,0.9919088386304772
2014-12-04,1,0.0035566365500050304,0.0039887679828402595,-0.004684119073682186,0.0075809344822831,0.9921214581321842
2014-12-08,1,0.003986175743160272,0.004453279204766774,-0.004684119073682186,0.0075809344822831,0.9924671142489441
2014-12-10,1,0.0037434523147956734,0.0042018279351847855,-0.0033162516996059358,0.01154616419571309,0.9926919120924633
2014-12-12,1,0.0033055383220810296,0.003716931516224483,-0.0026491141231565615,0.01154616419571309,0.9934216283589813
2014-12-16,1,0.002848775210512172,0.0031843070004830077,-0.001227493640033012,0.01154616419571309,0.9940358264465661
2014-12-18,1,0.003328105406732586,0.0037107616254607417,-0.0026491141231565615,0.01154616419571309,0.9934010039705229
2014-12-22,1,0.0036555788183673574,0.00407836635919781,-0.001227493640033012,0.01154616419571309,0.9935141973703102
2014-12-24,1,0.002996283184930631,0.0033031526163122787,0.0018337244408297574,0.01188128679598284,0.9932333839982298
2014-12-29,1,0.0029770981175492447,0.003268239226263723,-0.0013056740509961619,0.01188128679598284,0.9926595852736991
2014-12-31,1,0.002390911227093248,0.0025999648458923837,0.0011128106018182544,0.01188128679598284,0.9921631951574088
2015-01-05,1,0.0031680984956921187,0.003480200412339559,-0.003018829653176249,0.007763082389751465,0.9928267766501413
2015-01-07,1,0.00380667110187489,0.004210665955913181,-0.0040295023966464075,0.0067196984347297145,0.9926605059398099
2015-01-09,1,0.004217137871388526,0.004700910679368786,-0.006381904222515606,0.006088259571347271,0.9915877733713531
2015-01-13,1,0.00457651073796687,0.0051214847396364475,-0.006381904222515606,0.004860837323323283,0.9913679036289341
2015-01-15,1,0.004543198944626946,0.0050474504118718354,-0.008133290188054,0.005195213256238479,0.9900957879033346
2015-01-20,1,0.00433361879090761,0.004791045563450268,-0.006381904222515606,0.005195213256238479,0.9905685030467372
2015-01-22,1,0.005075130125061486,0.005617707803176689,-0.008133290188054,0.005157926208551308,0.9896584573923852
2015-01-26,1,0.005606515015008886,0.0062178299178817596,-0.009768899907870603,0.005157926208551308,0.9886080616657491
2015-01-28,1,0.00498560183943744,0.005513532993216764,-0.01193396551322647,0.0052676030647522635,0.9891234387109827
2015-01-30,1,0.004290120721010803,0.004726441407241251,-0.009276566193110033,0.010273828625625467,0.9898601016131257
2015-02-03,1,0.0034558894893660414,0.003729811456114622,-0.009276566193110033,0.010273828625625467,0.9899719789747735
2015-02-05,1,0.0027155584431871353,0.0028408804268596185,-0.01193396551322647,0.010273828625625467,0.9888318117288044
2015-02-09,1,0.0013614400176004166,0.00141396978806586,-0.011857248610349863,0.010273828625625467,0.9893713932505923
2015-02-11,1,0.0009664152707338358,0.0011008836989417072,-0.011857248610349863,0.01373367926619739,0.9879765064796887
2015-02-13,1,0.00040407036554737457,0.0006320975579692946,-0.008170297503444062,0.010273828625625467,0.9885984480614123
2015-02-18,1,0.0004728952362339588,0.000714978930451067,-0.008170297503444062,0.010273828625625467,0.9886461320874665
2015-02-20,1,0.0002510202338513771,0.0005142824273937491,-0.00507697959132854,0.010273828625625467,0.9885958291614991
2015-02-24,-1,-0.0003948086311504936,-3.4729412970565567e-05,-0.005358113979349084,0.008662027955017478,0.989321207584105
2015-02-26,-1,-0.0009326426155850476,-0.0004995855446719732,-0.007370136695910894,0.008662027955017478,0.9883562280512798
2015-03-02,0,-0.0001419418447347288,0.000197743499986725,-0.007370136695910894,0.007840891858244367,0.9888369573270452
2015-03-04,0,-2.7608947265951806e-05,0.00026077499921957456,-0.00965952496104803,0.007840891858244367,0.9880324519261092
2015-03-06,-1,-0.0008749311421459075,-0.0005080049488106599,-0.008329589842083944,0.0075402008679290485,0.9894861257174572
2015-03-10,-1,-0.0006551524142859916,-0.00036254526712320293,-0.008329589842083944,0.0075402008679290485,0.9893118376379788
2015-03-12,1,0.0005668875078378678,0.0007122210109123247,-0.00965952496104803,0.006920482658800993,0.9896811889281544
2015-03-16,1,0.0004391265420463479,0.0005930840020925206,-0.009885265941414118,0.004625080562029274,0.9895752341019602
2015-03-18,1,0.0012911159748163735,0.0013281896632262667,-0.009885265941414118,0.002179903374034321,0.9898973005399564
2015-03-20,1,0.002208895118769768,0.0022873069059617616,-0.009885265941414118,0.0014630990614223963,0.9905910549189465
2015-03-24,1,0.0015548469734574036,0.0015667295891949773,-0.009885265941414118,0.002179903374034321,0.9912267651658425
2015-03-26,1,4.126855517807377e-05,0.00023234824265830486,-0.006806284112229255,0.00407599847592367,0.9930952935278182
2015-03-30,1,0.0006965053872088668,0.0007891787184990497,-0.007320725493712962,0.0037441247175110134,0.9933393523429814
2015-04-01,-1,-0.00047996409035837057,-0.00023388173916453407,-0.006381394722354879,0.0037441247175110134,0.9932816850897285
2015-04-06,-1,-0.0005435980383289216,-0.00026787639604887524,-0.006381394722354879,0.0037441247175110134,0.993189807025401
2015-04-08,-1,-0.0010034003294365212,-0.0006926151424912916,-0.006381394722354879,0.003623433892679139,0.992954729311753
2015-04-10,-1,-0.0016823318610326677,-0.0012775077888848702,-0.005319318794467457,0.004060325696290427,0.9924984221776293
2015-04-14,-1,-0.002490098490334737,-0.001980556419882544,-0.004719801528569774,0.00583811191658086,0.9912457372144637
2015-04-16,-1,-0.0029160101401724124,-0.002343516939836065,-0.005188147144861961,0.008915196118730864,0.9897688380284885
2015-04-20,-1,-0.0032572712129015566,-0.002630483852369283,-0.005188147144861961,0.010743937473523781,0.9889682095877494
2015-04-22,-1,-0.002693651387636416,-0.0021679923631960094,-0.005188147144861961,0.010743937473523781,0.9893533179784166
2015-04-24,-1,-0.00200105255910577,-0.0015950318296126204,-0.007523138346715899,0.010743937473523781,0.9897065385374073
2015-04-28,-1,-0.002057631962798909,-0.0016557503802793682,-0.0058154493877392716,0.011199111826159625,0.9894967782230693
2015-04-30,-1,-0.002398011073564919,-0.001984750888872333,-0.0058154493877392716,0.011199111826159625,0.9897190887559144
2015-05-04,-1,-0.0016745296345748576,-0.0013770957175485766,-0.007799981751699276,0.011118195113373055,0.9896819883183482
2015-05-06,-1,-0.0030267124660215603,-0.002555464682473883,-0.007799981751699276,0.011118195113373055,0.9898449099948048
2015-05-08,-1,-0.00200784475053334,-0.0016345411594748973,-0.01040006476489592,0.007680019496005981,0.9907515153633301
2015-05-12,-1,-0.0026307107792759837,-0.0021699759310506474,-0.008310220650436864,0.0050317811459556095,0.9918228335810032
2015-05-14,-1,-0.001988142740188167,-0.0016343410825002463,-0.007617460408254544,0.0050317811459556095,0.9923256881380567
2015-05-18,-1,-0.001324268942289447,-0.001066625942447436,-0.007617460408254544,0.0049253941349865354,0.9926708192783065
2015-05-20,-1,-0.0015212555409144747,-0.001225244827863456,-0.007617460408254544,0.006793523627813403,0.9919399747968839
2015-05-22,-1,-0.0019050108530134786,-0.0015727126993005654,-0.007588673947672141,0.006793523627813403,0.991975382099123
2015-05-27,-1,-0.0018320543524846153,-0.0014854331123732851,-0.008337330336783567,0.006526202627255386,0.9916380086830383
2015-05-29,-1,-0.0020723557947366364,-0.001737408895250788,-0.008337330336783567,0.006526202627255386,0.9918254509398178
2015-06-02,-1,-0.001598254607893394,-0.00135147361594417,-0.010655470549558163,0.004871749471790221,0.9917932594760827
2015-06-04,-1,-0.0019540286915230246,-0.0016801663367925527,-0.008337330336783567,0.006526202627255386,0.991682319811797
2015-06-08,-1,-0.0021286683744065043,-0.001852940430162204,-0.007858919793719334,0.007383846146179373,0.9915185037607058
2015-06-10,-1,-0.0019613688112506333,-0.001725414950503809,-0.008250970955036359,0.007383846146179373,0.9916614914518191
2015-06-12,-1,-0.0014488467114472932,-0.001279838114753429,-0.008250970955036359,0.006526202627255386,0.9924053654619434
2015-06-16,-1,-0.0005307292812688699,-0.0005193633324020346,-0.008250970955036359,0.006363918381205644,0.9925562939835157
2015-06-18,1,0.0004099284329824161,0.0005630736213897744,-0.008250970955036359,0.005048783270018679,0.9925782071639199
2015-06-22,0,-1.4778447126675515e-05,6.19718813590648e-05,-0.007166845773146529,0.005048783270018679,0.9928297347539596
2015-06-24,-1,-0.0011162457628875223,-0.001032407747078331,-0.003704795293133706,0.00722157578241894,0.9925410086309815
2015-06-26,-1,-0.0017919799992129558,-0.0016233907002976956,-0.0003597040260950757,0.007700565890661409,0.9923941566374006
2015-06-30,-1,-0.002238565272931458,-0.0020189266475616344,-8.240517138980181e-05,0.009968930551653196,0.9922391585144433
2015-07-02,-1,-0.002112232171169565,-0.0018619954362826194,-8.240517138980181e-05,0.007700565890661409,0.9927667859263223
2015-07-07,-1,-0.001033505422595538,-0.0009198529688291093,-0.0018433737868236949,0.0064873685563353245,0.993386587023619
2015-07-09,-1,-0.0013338728112811684,-0.0011883360229459857,-0.004270403168708933,0.0064873685563353245,0.993257750390756
2015-07-13,-1,-0.0006439694890351877,-0.0006062626559168549,-0.005240448402849112,0.005208446639432835,0.9935029077513973
2015-07-15,-1,-0.00038248050828679507,-0.00037340564071119086,-0.005240448402849112,0.004913347835354523,0.9936583182816363
2015-07-17,-1,-0.00027763953535970014,-0.00027567293979699286,-0.003889008272786251,0.004913347835354523,0.9936297955945265
2015-07-21,-1,-0.0002549754591311764,-0.0002450172496125571,-0.003889008272786251,0.007788448171849715,0.9932402978898287
2015-07-23,1,0.0001289370359538152,0.00022016753168035882,-0.0033421779490132885,0.004913347835354523,0.9943375101902576
2015-07-27,1,0.00041720995236942045,0.0005453710439103919,-0.005813306714648318,0.003335888531750928,0.9913765215664991
2015-07-29,1,0.00033950911824815497,0.0004059497647946036,-0.008710048504663743,0.003335888531750928,0.9896139033160893
2015-07-31,-1,-6.003991658558641e-05,-5.828984882980528e-05,-0.005813306714648318,0.0052562690261300435,0.9896965143151634
2015-08-04,1,0.0008268094741234214,0.0010190769676420978,-0.011594850786837817,0.003335888531750928,0.9885329746736876
2015-08-06,1,0.000441060653708008,0.0005816261996981222,-0.008732091163672151,0.0052562690261300435,0.9886042047128271
2015-08-10,1,0.0008064463341072292,0.0010343794131820617,-0.02111820393258987,0.00899990297346186,0.9873268053455742
2015-08-12,1,0.0014184508762401828,0.0017899016282164745,-0.02111820393258987,0.00899990297346186,0.9873134776587746
2015-08-14,1,0.0018549347908996844,0.0022647213553871857,-0.02111820393258987,0.00899990297346186,0.9868779082748956
2015-08-18,1,0.0016394681436062543,0.0019507215494854494,-0.02111820393258987,0.012502993254049312,0.9863455728849101
2015-08-20,1,0.0017636268522915437,0.0021190724903733475,-0.02111820393258987,0.012502993254049312,0.9859905944778339
2015-08-24,-1,-0.0007077477711510891,-0.0006973500080485369,-0.010364223657787894,0.012502993254049312,0.9873089102386855
2015-08-26,-1,-0.0006477423500339919,-0.000631443575135825,-0.007537743563406784,0.012502993254049312,0.9878694363228016
2015-08-28,-1,-0.0005161057789081436,-0.000508673037241526,-0.012102627112251303,0.012502993254049312,0.9866777704661178
2015-09-01,-1,-0.002378900662021642,-0.0021524648533133347,-0.009122238176879982,0.012502993254049312,0.988098314071522
2015-09-03,-1,-0.002105057792086442,-0.00188808303857723,-0.009122238176879982,0.012502993254049312,0.9882364744700751
2015-09-08,-1,-0.0024960078188628453,-0.0022290924137357906,-0.007537743563406784,0.012578195582180828,0.9885964171202591
2015-09-10,-1,-0.00248104167488897,-0.002216485818464165,-0.007537743563406784,0.013129977092964044,0.9868716389302183
2015-09-14,-1,-0.0013019399336534608,-0.0011874857377431715,-0.00879169308418034,0.012578195582180828,0.9878728030756064
2015-09-16,-1,-0.0001762896655165274,-0.00013959586481700784,-0.00879169308418034,0.009881625233844116,0.9881252318794784
2015-09-18,-1,-0.00013895129192916997,-0.00010181153815248245,-0.00879169308418034,0.009881000182350275,0.9882978361928556
2015-09-22,-1,-0.0010994939650797622,-0.0009926993480423845,-0.0046158399163109525,0.01406711593753607,0.9887256777299337
2015-09-24,-1,-0.0002320627264973943,-0.0002171040462645361,-0.005117677299826253,0.009881000182350275,0.9886724707080158
2015-09-28,-1,-0.0022856390072762125,-0.0020071555001032262,-0.003419344729548984,0.009881000182350275,0.9894952569575906
2015-09-30,-1,-0.0017783881716537445,-0.0016248453951575343,-0.0028814112911488715,0.010917561867015304,0.9893265063783491
2015-10-02,-1,-0.0014514149832815942,-0.0013188164827736693,-0.003419344729548984,0.00890423359940971,0.9899423924993747
2015-10-06,-1,-0.0003616843029236606,-0.00035121061228578015,-0.003419344729548984,0.00890423359940971,0.9902460377113982
2015-10-08,1,0.0010852438329402585,0.0013156406401165373,-0.003419344729548984,0.007434895415773033,0.9910988009646354
2015-10-12,1,0.0010274570610393967,0.0012542079727759258,-0.00451878413278124,0.007434895415773033,0.988938700315626
2015-10-14,1,0.0013961856948987539,0.0016473980959198814,-0.00451878413278124,0.007434895415773033,0.9893482658842512
2015-10-16,1,0.0019767313867148904,0.0023262708121228604,-0.008079928993641697,0.005344232865619035,0.9885877085497129
2015-10-20,1,0.0021111979924127635,0.0024407012922702427,-0.008079928993641697,0.005344232865619035,0.9885014591292014
2015-10-22,1,0.0008359438807976235,0.0010010299301413672,-0.004607865631411667,0.010534776100234813,0.9898559508821301
2015-10-26,1,6.465094316791307e-05,0.00010014322801176268,-0.002955368849316931,0.010534776100234813,0.9900951434986581
2015-10-28,1,0.00033180803492818654,0.0003805763956131032,-0.002955368849316931,0.010457021336390834,0.9907042548831448
2015-10-30,1,3.72592151781958e-06,5.780755425389519e-06,-0.002955368849316931,0.010947164519122286,0.990333661871583
2015-11-03,1,0.00075447269388678,0.000872474803126618,-0.004057341495875997,0.010441155101443712,0.9898910709005877
2015-11-05,1,0.0014075272287477187,0.0016254993158600244,-0.006631422029540574,0.010441155101443712,0.9891090092683118
2015-11-09,-1,-0.00016276350307876394,-0.00011817200023313585,-0.004057341495875997,0.010441155101443712,0.9910143865223392
2015-11-11,1,0.00030406796993181774,0.00039394103564240854,-0.006463510433093702,0.00998400619058848,0.9909726741170045
2015-11-13,-1,-0.0008378096299195153,-0.0007389906618732494,-0.004539041264176624,0.00998400619058848,0.9916789905776132
2015-11-17,-1,-0.0008024132488653632,-0.0006770246338919487,-0.004539041264176624,0.010382549035546106,0.9911912048235889
2015-11-19,-1,-0.0003018622672529024,-0.00020863046076968105,-0.004539041264176624,0.008316009257015502,0.9922371311802629
2015-11-23,1,0.0004414290797688065,0.000466229607136649,-0.004539041264176624,0.008724707162905236,0.9921870729170161
2015-11-25,1,0.0008537578762424886,0.000981155998578607,-0.004539041264176624,0.008724707162905236,0.9919790030265339
2015-11-30,1,0.000857977695544459,0.0009640001072116844,-0.004428530711513679,0.008275903752115723,0.9922288437317184
2015-12-02,1,0.0006030201199338602,0.0006919042623019233,-0.006028373434719864,0.005376428342909308,0.9928872144085916
2015-12-04,1,0.0006562592269926835,0.0007663277822947206,-0.006028373434719864,0.005376428342909308,0.9932328539147565
2015-12-08,1,0.0006013789833151238,0.000712315799213063,-0.006660879008420956,0.0040058145461124425,0.9918446514065994
2015-12-10,1,4.606346568414391e-05,9.109291894727266e-05,-0.007881735439723658,0.0040058145461124425,0.9916004691012598
2015-12-14,1,3.318016620562923e-05,7.152144529735758e-05,-0.01164679664699156,0.0040058145461124425,0.9897423690655518
2015-12-16,1,0.001022886487778257,0.0012100353149032189,-0.01164679664699156,-0.0001923009337663577,0.9898122316116635
2015-12-18,1,0.0009631433935223417,0.0011575005044313306,-0.012807290630876877,0.0025505481057153945,0.9876903070076225
2015-12-22,1,0.0009681945799004313,0.0011460793530473664,-0.012807290630876877,0.0025505481057153945,0.9870196790126725
2015-12-24,1,0.0011082162548093498,0.0013183031353629481,-0.012807290630876877,0.0026165587868013465,0.9859330749063253
2015-12-29,1,0.001237215861918915,0.0014415575833635259,-0.012807290630876877,-0.0016400811646942546,0.9855191813118721
2015-12-31,1,0.0006817383270058998,0.0008107506519119615,-0.013185246467940389,0.00036063919174405775,0.9852071274718356
2016-01-05,1,0.0007083412316615072,0.0008425419200886362,-0.013185246467940389,-0.0006882368997914028,0.9852415029050866
2016-01-07,-1,-0.0001635231330435272,-0.00011377952300021282,-0.012630364134230384,0.00036063919174405775,0.9869934983411933
2016-01-11,-1,-0.0006725795486743993,-0.0006641143840859105,-0.015802303167037908,0.00036063919174405775,0.9856151937883376
2016-01-13,-1,-0.0018843626345515392,-0.0017462635346317582,-0.013874280381273139,0.004294230149456296,0.9864099036007972
2016-01-15,-1,-0.0036181569493910883,-0.003174466189654077,-0.013874280381273139,0.009588810177680054,0.9851653401085096
2016-01-20,-1,-0.0051912326470208315,-0.0045561050707685295,-0.011355535826415582,0.009588810177680054,0.9866000682411243
2016-01-22,-1,-0.004060363551843848,-0.0035775006407496282,-0.011355535826415582,0.009588810177680054,0.9869437621430222
2016-01-26,-1,-0.004623963546855517,-0.004003103980791716,-0.011355535826415582,0.006566765288388514,0.9877505688797286
2016-01-28,-1,-0.004717041257129523,-0.004109074004632682,-0.0067626825790601305,0.009588810177680054,0.9861347388570834
2016-02-01,-1,-0.004756406196550834,-0.004127002032394637,-0.001760338414275858,0.009588810177680054,0.9856783684716114
2016-02-03,-1,-0.0054914238855906464,-0.004778068511536829,-0.00046131604191633794,0.012236777930198797,0.9850302897411891
2016-02-05,-1,-0.004688617981639977,-0.004113953868280143,-0.00046131604191633794,0.012956763118744115,0.9853401030569824
2016-02-09,-1,-0.0059539563181000826,-0.0052767828766575285,0.0,0.012956763118744115,0.98604026903405
2016-02-11,-1,-0.005977171505240007,-0.005306249427948002,0.0020934781296196303,0.017298403581910888,0.9856955009633592
2016-02-16,-1,-0.005050909221773101,-0.0044655101673557115,0.0021067323281704978,0.014957083501812903,0.9872497594800832
2016-02-18,-1,-0.004221789011933557,-0.003765304667344124,0.0021067323281704978,0.017298403581910888,0.9871787170175215
2016-02-22,-1,-0.0040948479588342164,-0.003597633561890701,-0.00046131604191633794,0.014957083501812903,0.9883685116787664
2016-02-24,-1,-0.0041614188612006065,-0.0036451465709226704,-0.0011386853357830732,0.014957083501812903,0.9880425192188816
2016-02-26,-1,-0.0027454731198159723,-0.002415645912585077,-0.0011386853357830732,0.014957083501812903,0.9896687674928186
2016-03-01,-1,-0.0011548289229961876,-0.001049611971104155,-0.002253568210831814,0.01207808974577887,0.9913653020257552
2016-03-03,1,9.121987668693975e-05,0.00020225670088631534,-0.0035052252275456822,0.009585283676677603,0.9923421240063545
2016-03-07,1,0.00032177392455079673,0.00045853204290049896,-0.0015469893789495353,0.007393884476864123,0.9928889039360529
2016-03-09,1,0.0007658274900844884,0.0009950832787946856,-0.00362508437981363,0.007335589226116917,0.9928004777606043
2016-03-11,1,0.0016230469515337415,0.0019888224038181546,-0.00362508437981363,0.007335589226116917,0.9930684877867036
2016-03-15,1,0.002452933068714495,0.002956677989549062,-0.0040199521350503436,0.007335589226116917,0.9925794997516149
2016-03-17,1,0.0025373237125786464,0.0029785347332279438,-0.0040199521350503436,0.0071914420150188275,0.9929064886358201
2016-03-21,1,0.0018891104555950407,0.002217648906614576,-0.002391703869853698,0.0071914420150188275,0.9936337281829147
2016-03-23,1,0.002266585017249928,0.002668971109765669,-0.005348558722257953,0.006730820058721316,0.9923117851708423
2016-03-28,1,0.00264989778015996,0.003090253576946133,-0.005348558722257953,0.006730820058721316,0.9922508119595378
2016-03-30,1,0.0030033534884097504,0.0035195081698448953,-0.0040199521350503436,0.005620422833977747,0.9929265465888092
2016-04-01,1,0.0033435946177513024,0.003933516905067476,-0.005412610775424491,0.005185031832915401,0.992578949193536
2016-04-05,1,0.00253624909126509,0.002920918460680024,-0.005412610775424491,0.007380687045901839,0.9921185628747308
2016-04-07,1,0.00243109345755883,0.0028307361037581127,-0.002731887360592207,0.013048812732772235,0.992274874686604
2016-04-11,1,0.0024246707381092073,0.0027910725551135765,-0.0018072204095268248,0.009605717500737836,0.9926058423583995
2016-04-13,1,0.002937718378540795,0.0033887840042160352,-0.004591236311318933,0.0062433181669316485,0.9921712273078079
2016-04-15,1,0.0037778343476305284,0.004376043533572185,-0.004591236311318933,0.0062433181669316485,0.9917830709671944
2016-04-19,1,0.0039414328526826735,0.004581169330320359,-0.006114693029950203,0.009365552009165452,0.9906906185495332
2016-04-21,1,0.003135382555483391,0.0036692213037948567,-0.005193435640873677,0.009365552009165452,0.9916468425175388
2016-04-25,1,0.0038714240347797434,0.004513007207092636,-0.005193435640873677,0.009365552009165452,0.9911112181206907
2016-04-27,1,0.0038082322812629174,0.004420271351108821,-0.005193435640873677,0.012297327662931255,0.9902428629080828
2016-04-29,1,0.0035136148008046483,0.004081649306503719,-0.005193435640873677,0.012297327662931255,0.9898856773018614
2016-05-03,1,0.0036338502122900333,0.004209305076986551,-0.004793155358908206,0.009365552009165452,0.9902751007492534
2016-05-05,1,0.003855851968299978,0.004425514718045835,-0.004793155358908206,0.008476273605975842,0.9907435509591334
2016-05-09,1,0.00404744704320267,0.004640062513971472,-0.006364460153674165,0.004977330541594272,0.9900527451133009
2016-05-11,1,0.0036219192690319308,0.004198267539716399,-0.00477797388015643,0.0091302309924853,0.9915206503517687
2016-05-13,1,0.0037803152619361002,0.004367727254736395,-0.00477797388015643,0.006397816809844755,0.9919461443692001
2016-05-17,1,0.0038132390006104366,0.004411674999594906,-0.00477797388015643,0.00572851949902857,0.9928479461350207
2016-05-19,1,0.0033874831944786608,0.0039286247701364255,-0.001717925101843651,0.00572851949902857,0.9934636698383107
2016-05-23,1,0.004156984259540305,0.004816995745161456,-0.0025618618791351856,0.004786086649411279,0.9937425900626172
2016-05-25,1,0.0045191334149218216,0.00519307721282456,-0.0025618618791351856,0.005560304724815762,0.9944590217459612
2016-05-27,1,0.003948648122445952,0.004543781055366137,-0.0020311821309261955,0.005560304724815762,0.9954548740770859
2016-06-01,1,0.0033414675431542615,0.003786394013398699,-0.0010926898685571322,0.006208169850064046,0.9950233568228186
2016-06-03,1,0.0031932537312898005,0.0035683253378216966,-0.0010926898685571322,0.007057417684257953,0.9944107266471829
2016-06-07,1,0.0020822907106403106,0.002241637009658393,-0.00020284440236498853,0.007417744480261754,0.9947737516096332
2016-06-09,1,0.002144332125231633,0.002284093291778776,-0.0010926898685571322,0.007417744480261754,0.9927388862273336
2016-06-13,1,0.0013742967333331886,0.0014206123845867135,-0.0020311821309261955,0.007664501782958041,0.9921038719456745
2016-06-15,1,0.001552432703536654,0.0015561391266505561,-0.0020311821309261955,0.008227710372503144,0.9917659796420735
2016-06-17,1,0.0012976159902911375,0.0013245427251851157,-0.0011347250314901467,0.008507889953511816,0.9916063298073898
2016-06-21,1,0.0007650009142772085,0.000882730187562119,0.0006900570354029025,0.010084003228513409,0.9909278720215411
2016-06-23,1,0.0011333229562979102,0.0012148780468309679,0.0006900570354029025,0.012988070794901021,0.9905971889285667
2016-06-27,1,0.0003136932315690236,0.0005354978303215312,0.002073644922888521,0.012988070794901021,0.9902269113520566
2016-06-29,1,0.0009974510656718472,0.0011404613579045898,-0.0004227220240121607,0.012988070794901021,0.9905115418729046
2016-07-01,1,0.0002880625346878907,0.0006181415489489562,-0.0004227220240121607,0.011804133090223948,0.9908557183082379
2016-07-06,1,0.0001232492020044071,0.0005126749099746155,-0.001703101491661861,0.01206252591873285,0.9894082158776427
2016-07-08,-1,-0.0004168266905216311,-5.969282303127255e-06,-0.001703101491661861,0.01206252591873285,0.9907433929437397
2016-07-12,-1,-0.0004770667175209892,-6.265736563968436e-05,-0.0004227220240121607,0.01206252591873285,0.990856822728631
2016-07-14,0,-0.00019104254828217941,0.00017149905767888042,-0.0015504997864966143,0.01152451954432959,0.9910437623267476
2016-07-18,0,-0.0002858193403062353,0.00010180117107436008,-0.0037523273710397837,0.012149230157217951,0.9899727388300783
2016-07-20,1,0.0006564762223411052,0.0008927582837382998,-0.005211783703748991,0.01152451954432959,0.99031007891256
2016-07-22,1,0.0018490530036398127,0.0019023213429503589,-0.008249663257972956,0.0077738488123226075,0.9905831165543043
2016-07-26,1,0.002027770542858326,0.0020385413506127893,-0.008249663257972956,0.0077738488123226075,0.9904145254394884
2016-07-28,1,0.0024089222548490516,0.0024526083490574785,-0.008249663257972956,0.006156953892784699,0.9911883401335904
2016-08-01,1,0.0025904905444560635,0.0026546444050831977,-0.00841917379026389,0.006156953892784699,0.9905106700613892
2016-08-03,1,0.0021959664747474295,0.0022363166121444444,-0.008249663257972956,0.005761433350384161,0.9921626452889006
2016-08-05,1,0.002418163069053623,0.002515007255848168,-0.006635681652038555,0.005761433350384161,0.992404673669808
2016-08-09,1,0.003007131133680362,0.003223909485628106,-0.006635681652038555,0.005761433350384161,0.9917390661327915
2016-08-11,1,0.001982042184146082,0.00202288468730385,-0.008144825705662878,0.005761433350384161,0.9891868644116876
2016-08-15,1,0.0019399497606836737,0.001967755904485684,-0.008144825705662878,0.005761433350384161,0.9875628955912031
2016-08-17,1,0.0016933514232053937,0.0017127720315528521,-0.006611711102129718,0.006314331074625302,0.9878718576909579
2016-08-19,1,0.0014435163593681513,0.001455797966943242,-0.0030285389579284318,0.008780678179025544,0.9876147013202626
2016-08-23,1,0.001411757398392144,0.0014323861663876009,-0.002887247664094354,0.014300531973486885,0.9869772320481823
2016-08-25,1,0.0011377156835184516,0.0011885294563688557,-0.0011346110450863665,0.01658059970560185,0.986121170820137
2016-08-29,1,0.000783920180522793,0.0009085837259240669,-0.0011346110450863665,0.01658059970560185,0.9864324466704723
2016-08-31,1,0.0009250446402615964,0.001022158076759819,-0.002711464203014671,0.01658059970560185,0.9853793119957569
2016-09-02,1,0.0016222128691087219,0.0016270828070674569,-0.009757606804584916,0.009504030266294624,0.9846849686043448
2016-09-07,1,0.0025824771880927438,0.002746937574568737,-0.013320379994896946,0.005912063518563004,0.9842533313534828
2016-09-09,-1,-0.00029299431961747797,-9.136772823989164e-05,-0.009757606804584916,0.006073276643152524,0.9873737663031762
2016-09-13,-1,-0.0018318188866620665,-0.0013900513216489703,-0.009757606804584916,0.0055425409740711366,0.989091205367499
2016-09-15,-1,-0.0009998178269410786,-0.0006930147467228244,-0.009757606804584916,0.005851669147552167,0.9888349769183206
2016-09-19,0,-0.000175498802186581,3.0115505194202165e-05,-0.009757606804584916,0.004203949181729792,0.989870634519079
2016-09-21,1,0.0002964216336065386,0.0004684195567495009,-0.009757606804584916,0.004203949181729792,0.9904425079431898
2016-09-23,1,0.0013322473067141957,0.001376068302792367,-0.009757606804584916,0.004459236397196437,0.9911327839304542
2016-09-27,1,0.0012699553866115255,0.0012878673971915612,-0.007825392030521138,0.005730202919609635,0.9915431745325654
2016-09-29,1,0.0003087700617939885,0.0004282414354307734,-0.009417012292387693,0.005730202919609635,0.9918735397154371
2016-10-03,-1,-0.00171146984713613,-0.001303498454142066,-0.003332536572766618,0.0059310156103991,0.991705326355437
2016-10-05,-1,-0.00268311251902454,-0.0021767819338648258,-0.0025649704027541835,0.0059310156103991,0.9911616620204321
2016-10-07,-1,-0.0026545096244948085,-0.0021464336873673177,-0.0056492033631472495,0.0059310156103991,0.9904433961352729
2016-10-11,-1,-0.0038169208266451912,-0.0031448261628282664,-0.0025649704027541835,0.008878012584012442,0.9890156668132866
2016-10-13,-1,-0.0026687424369056063,-0.0021685680920336364,-0.0056492033631472495,0.008878012584012442,0.9883671070407326
2016-10-17,-1,-0.0020772418773564692,-0.00169100315466671,-0.010095665905154327,0.009884542842113491,0.9873367991505664
2016-10-19,-1,-0.0021740003197050907,-0.0017396167879594909,-0.010095665905154327,0.009884542842113491,0.9875600882700757
2016-10-21,-1,-0.0017778023362411337,-0.001383004579019371,-0.010095665905154327,0.006832883681297493,0.9880724314604137
2016-10-25,-1,-0.0013955655666470193,-0.001065122195758236,-0.010095665905154327,0.012290737743558395,0.9867248344126626
2016-10-27,-1,-0.0025851167885201625,-0.0020936313329220115,-0.0041052929950308676,0.013345132281784775,0.9865220186291803
2016-10-31,-1,-0.0013019320964009697,-0.0009879222074555645,-0.0041052929950308676,0.011059113910696654,0.988040432765826
2016-11-02,-1,-0.0025314493696970836,-0.002077423889020954,-0.006507878724132155,0.011059113910696654,0.9872354463242221
2016-11-04,-1,-0.0031861263183597353,-0.002653204153904182,-0.0036885826411174427,0.013237797253234814,0.9866673166054717
2016-11-08,-1,-0.0018229367317490984,-0.001439229362651993,-0.0036885826411174427,0.011059113910696654,0.9886113722585779
2016-11-10,-1,-0.002399575493734203,-0.0019412197002816483,-0.0036885826411174427,0.010456404840697115,0.9904945595659239
2016-11-14,-1,-0.002078049593967449,-0.0016781885144513905,-0.0036885826411174427,0.008930042821619306,0.9918254660534632
2016-11-16,-1,-0.001970034890199696,-0.0015768883742034914,-0.00643197703983432,0.008930042821619306,0.991166781035297
2016-11-18,-1,-0.0012570099987040742,-0.000994804181342509,-0.00643197703983432,0.011059113910696654,0.9896602019658024
2016-11-22,1,0.00057384369666736,0.0005788452182218564,-0.007093096011690601,0.010807869686772576,0.9895949989943109
2016-11-25,1,0.000993729988576388,0.001062301275062842,-0.007093096011690601,0.008930042821619306,0.9897485463642672
2016-11-29,1,0.0003169081302603581,0.00039151511009045167,-0.008591193121540348,0.008930042821619306,0.9894934885155193
2016-12-01,-1,-0.0014707021757540085,-0.0011908205310479656,-0.00643197703983432,0.01088026911678062,0.9903952416115526
2016-12-05,-1,-0.00022564561471652954,-0.00010139709060788939,-0.00643197703983432,0.00943765517234417,0.9902856867116078
2016-12-07,1,0.0002245667905900461,0.00028336531269687544,-0.006731570353969397,0.008491532390146592,0.9901080224930248
2016-12-09,1,0.0001541563687203682,0.00018916969900177271,-0.007093096011690601,0.008491532390146592,0.9899953732255351
2016-12-13,1,0.0003063430094350747,0.00033998558068634824,-0.008591193121540348,0.008491532390146592,0.9896979672108666
2016-12-15,-1,-0.0007308130096643406,-0.0006483002995050242,-0.005393705330826608,0.009741535768304225,0.9905981295683672
2016-12-19,1,0.000979598475605107,0.0011499743147988764,-0.007531226657522315,0.006414394785939689,0.9915017330708572
2016-12-21,1,0.0010570798233073076,0.0012695295334952301,-0.005393705330826608,0.007604342256596265,0.9915526103188571
2016-12-23,1,0.0008460623758318557,0.0009951426934972471,-0.0064137362579622095,0.0068310625786589,0.9914939197444035
2016-12-28,1,0.000716871572333873,0.0008631132499005382,-0.005289127882665633,0.0068310625786589,0.991786625713164
2016-12-30,1,0.0018633228232813966,0.002188391123515458,-0.0064137362579622095,0.00491381821457504,0.9916506869985708
2017-01-04,1,0.002256607030371061,0.002591884288079985,-0.0075451353523024785,0.00491381821457504,0.9915105626133444
2017-01-06,1,0.0018339932047539758,0.002113264562873796,-0.007231403007819554,0.007616237785375769,0.9909371964884114
2017-01-10,1,0.0011330318681970237,0.0012935166723079233,-0.00576647257529511,0.009461243764446462,0.9909820742548255
2017-01-12,1,0.0005509467165086102,0.0006286769599832919,-0.005375351017392585,0.009461243764446462,0.9911697927467049
2017-01-17,1,0.0010265681323069404,0.00117504760288749,-0.005375351017392585,0.008223135915068333,0.991385527417907
2017-01-19,1,0.000713569255127682,0.0008104097700486829,-0.004702325897959391,0.008223135915068333,0.9917544959990328
2017-01-23,1,0.0019703981226402664,0.0022425470894717084,-0.004702325897959391,0.006526955080793387,0.9925494056246869
2017-01-25,1,0.001983932052263138,0.002263295586500985,-0.001846682657735914,0.006526955080793387,0.9930173490798846
2017-01-27,1,0.002067342834488994,0.0023932835515129104,-0.00011385591858661376,0.008199812500035545,0.993084172436792
2017-01-31,1,0.001884059594974058,0.002241003439144934,-0.00011385591858661376,0.008199812500035545,0.9929542368950066
2017-02-02,-1,-0.0002482786523571128,-0.00016686119447206348,-0.00011385591858661376,0.007523232411912538,0.9926506431616782
2017-02-06,1,0.0006967317999352009,0.000704399857728509,-0.0014659612142401664,0.004997634354119316,0.9943289528611428
2017-02-08,1,0.0014774754134543903,0.0015956637997100141,-0.006346732429530381,0.00486549881111762,0.9935868461479936
2017-02-10,1,0.0016295102236826514,0.0018179331746247045,-0.009510573001088582,0.00486549881111762,0.9918280269042653
2017-02-14,1,0.002130948238889993,0.0024297890705189847,-0.009510573001088582,0.00486549881111762,0.990799326933349
2017-02-16,1,0.00290216232445591,0.0033607164934119525,-0.009510573001088582,0.003939224915196899,0.9903616777501852
2017-02-21,1,0.003478201843666946,0.003994454420407639,-0.009510573001088582,0.0033154498667335823,0.9903790852215485
2017-02-23,1,0.0030875562884662023,0.0034976217202346343,-0.009510573001088582,0.005253276493189486,0.9904946485722982
2017-02-27,1,0.002824367869106106,0.0031272801630588876,-0.009510573001088582,0.0039696558617895545,0.9899356621128916
2017-03-01,1,0.0014792546216293905,0.00154429880504847,-0.008388990908910795,0.0039696558617895545,0.9908997479267361
2017-03-03,1,0.0012413082191727552,0.0012796230298810578,-0.00784578344168509,0.004266140704083454,0.99135250556554
2017-03-07,1,0.0005563693324252285,0.0006408133331259977,-0.00784578344168509,0.004853952712824909,0.9914850433410071
2017-03-09,-1,-0.00028221377699924274,-0.0001306588068755067,-0.005296298568875696,0.00620055798593162,0.9922747100427664
2017-03-13,-1,-0.0018325157370525512,-0.001502159240474719,-0.0046324303376233935,0.0063741705299828234,0.99361300631914
2017-03-15,-1,-0.0011913461340585288,-0.0009529412924421653,-0.003176986095410935,0.0063741705299828234,0.9946265400370472
2017-03-17,-1,-0.0009764629436849342,-0.0007870843378277885,-0.0025679403146052684,0.00644045788270248,0.9943603750898569
2017-03-21,-1,-0.0007519947338411484,-0.0005973319742831936,-0.0012232764243756637,0.0063741705299828234,0.994558350255373
2017-03-23,-1,-0.0008112180456483368,-0.0006098167605231408,-0.0029875132743295285,0.004911779678685346,0.9949241446031909
2017-03-27,-1,-0.0009028877476183585,-0.0007334992046429099,-0.0012232764243756637,0.006687065998566279,0.9940743335077854
2017-03-29,-1,-0.0018579165814264695,-0.0015191966932051383,-0.0029875132743295285,0.006687065998566279,0.9937951368354219
2017-03-31,-1,-0.0019993422469599415,-0.0016168816405359595,-0.004087474376170555,0.0052248067937386965,0.9939414963539333
2017-04-04,-1,-0.0009589147975634849,-0.0007652229128334089,-0.004435704974583716,0.00818222018845601,0.9932481057735225
2017-04-06,-1,-0.0008719357454427184,-0.000672170723710049,-0.004435704974583716,0.007837504716800168,0.9931987750387304
2017-04-10,-1,-0.0006684254429429689,-0.0004978122241776638,-0.004685693702683947,0.0055161123804237855,0.9934318759429699
2017-04-12,-1,-0.0003349765210540797,-0.00021124145054946105,-0.004685693702683947,0.005727469753497621,0.9931430719375282
2017-04-17,1,0.00015856752020427503,0.0002190372520498,-0.004685693702683947,0.005304193562580106,0.9935255953166849
2017-04-19,1,0.000943451086123102,0.0010436037211932075,-0.004685693702683947,0.0061620027506046424,0.9934823854022298
2017-04-21,1,0.0009790823559268427,0.001098557623702009,-0.00437432276670092,0.0061620027506046424,0.9934492775601353
2017-04-25,1,0.0005987667514864139,0.0006625929208721595,-0.001714378356879432,0.005972895918444951,0.9944950440177207
2017-04-27,-1,-0.0007913299363282772,-0.0006073605337197899,-0.0014140180637013707,0.005972895918444951,0.9942229048358837
2017-05-01,-1,-0.0002719112113615964,-0.00019695047954622447,-0.0012940449821657366,0.005972895918444951,0.9945664835841663
2017-05-03,1,6.0351423943458835e-05,8.216566785724833e-05,-0.0012940449821657366,0.005972895918444951,0.9952395033651976
2017-05-05,1,0.00030851361195157834,0.0003212487990879408,-0.0012940449821657366,0.005972895918444951,0.9949113690832933
2017-05-09,-1,-0.00039779308708665973,-0.0002847083507688363,-0.0011507663658771026,0.005972895918444951,0.9945044882675848
2017-05-11,-1,-0.000589798730429402,-0.0004002327080978872,-0.0024105229556667545,0.005204231044549213,0.9950357512111146
2017-05-15,1,0.00037244169316782565,0.00038846068542966634,-0.0024105229556667545,0.004842574013452512,0.9954242595778373
2017-05-17,1,0.00039735058628337827,0.0004212093250868792,-0.0024105229556667545,0.003162253698403992,0.9955887126713098
2017-05-19,1,0.0007146904528821853,0.0007316830094996658,-0.002745245037162564,0.0025279637801487453,0.9950680170463571
2017-05-23,1,0.0007854768711026646,0.0007926658629799231,-0.002745245037162564,0.0023940894700894056,0.995221318890058
2017-05-25,1,0.0007736060267145164,0.0008264489201798232,-0.0018962258312794265,0.0025279637801487453,0.9950416383210265
2017-05-30,1,0.00098695122197339,0.0011079478719400895,-0.0016199613016743503,0.0033885091775325404,0.9949788707389214
2017-06-01,1,0.0010403230755357336,0.0011447355168245988,-0.0020146031320845896,0.002620481545055048,0.9944637007556614
2017-06-05,1,0.001425558034466934,0.001552419629268938,-0.0020146031320845896,0.0029749796907153955,0.9945950476792339
2017-06-07,1,0.000654211463357862,0.0006603925061289524,-0.0033220735970969487,0.0029749796907153955,0.9942871009751822
2017-06-09,1,0.0007073234231543526,0.000726516323166433,-0.005886053041046821,0.0034082601680980604,0.9937509762026091
2017-06-13,1,0.0005328166442612512,0.0005495331996831789,-0.005886053041046821,0.005504829069706016,0.9930728450749148
2017-06-15,1,0.001100721520452407,0.001221227132705342,-0.005886053041046821,0.006795677995496834,0.9926479525828285
2017-06-19,1,0.001116362549579134,0.0012365562754984576,-0.0039026095161242102,0.00649892666971142,0.9929721805564986
2017-06-21,1,0.0009381288156096466,0.001021544114086316,-0.0039026095161242102,0.009377027313600891,0.992503053413319
2017-06-23,1,0.0009831721800788297,0.0010332997643883763,-0.005911901302443947,0.00649892666971142,0.9925599424584253
2017-06-27,1,0.0008587684602828197,0.0008609843301319909,-0.005911901302443947,0.006515118368294043,0.9924239886830809
2017-06-29,1,0.0006415723401763114,0.0006743569250151424,-0.0037844418146910186,0.006515118368294043,0.9933518150127236
2017-07-03,1,0.0014085278688366098,0.0015736956981289797,-0.0037844418146910186,0.006009996346732018,0.9935522714536921
2017-07-06,1,0.0005662866175947473,0.0006151089296154664,-0.0035933305259963993,0.006009996346732018,0.9945728847650829
2017-07-10,1,0.00036089488663107087,0.00039207178658040115,-0.003252212627074058,0.006009996346732018,0.99517556600776
2017-07-12,1,0.000988493672550406,0.001116321853067797,-0.003252212627074058,0.0030330185115805086,0.9956917789327282
2017-07-14,1,0.0016177658788890364,0.0018734881740836494,-0.0035933305259963993,0.001845081902156097,0.9955096026471351
2017-07-18,1,0.0018223517142896776,0.0021106265694731344,-0.0032956354924920253,0.001845081902156097,0.9950254306455455
2017-07-20,1,0.0023867858186737384,0.002774995179778714,-0.0032956354924920253,0.001845081902156097,0.9950097927297508
2017-07-24,1,0.0016089299984442342,0.0018555472202685316,-0.002915172042849499,0.002482338071381914,0.9951312471070036
2017-07-26,1,0.001560440272074519,0.0017896467292002928,-0.0030578265861022575,0.002482338071381914,0.9947945471303667
2017-07-28,1,0.0013652306759057656,0.0015604347688637685,-0.0031392511682242622,0.002848625203965011,0.9947159091445997
2017-08-01,1,0.0008369278974483007,0.0009088429643392936,-0.005694326170320142,0.0022794317834838556,0.9943719284035017
2017-08-03,1,2.5602690346644436e-05,0.00016009321375250635,-0.005694326170320142,0.004173286159372178,0.993827890869221
2017-08-07,1,0.0001263126127443404,0.00022874336139962448,-0.006575806590052934,0.004173286159372178,0.9935347761474518
2017-08-09,1,5.254783131969137e-05,0.0001701631995563302,-0.006575806590052934,0.004173286159372178,0.9934810750355072
2017-08-11,-1,-0.0004421329294078532,-0.0002707968221660735,-0.0062291154773706885,0.006594073139281814,0.9933962308436068
2017-08-15,1,0.00048708038497764,0.0005270997828139288,-0.0062291154773706885,0.004173286159372178,0.9937651593720812
