JNU-Tangyin/eata/results/Batch4_SP500/Batch4_SP500-LUV.csv
Date,Action,Predicted_Q25,Predicted_Q75,Actual_Q25,Actual_Q75,RL_Reward
2010-12-14,0,-0.0004564375312714706,0.0,-0.002869581191984054,0.006896612312710239,0.9920155922890012
2010-12-16,0,0.0,0.0,-0.0024765420143201943,0.007665920817253434,0.9921634269331918
2010-12-20,0,0.0,0.0,-0.007985903051339721,0.006896612312710239,0.9917953355273222
2010-12-22,0,0.0,0.0,-0.011317116658034226,0.006253220387241355,0.9914418143973546
2010-12-27,0,0.0,0.0,-0.011473468693893967,0.006896612312710239,0.9904515703380957
2010-12-29,0,0.0,0.0,-0.011473468693893967,0.006253220387241355,0.9905913696052819
2010-12-31,0,0.0,0.0,-0.013363675412426784,0.006253220387241355,0.9884431602601851
2011-01-04,0,0.0,0.0,-0.01722403690198017,0.0011662678081410431,0.9885625848960256
2011-01-06,-1,-0.0014374276096415421,-0.0010083255169338618,-0.01722403690198017,0.0042899932103764565,0.9888561349674446
2011-01-10,-1,-0.0008287571100370188,-0.0004954993285759662,-0.01722403690198017,0.007541357626349556,0.9873721602611856
2011-01-12,-1,-0.00202852040310282,-0.001504886035868621,-0.013363675412426784,0.007918731075562355,0.9880670198735297
2011-01-14,-1,-0.0025246329052985702,-0.0018991396179053913,-0.01640682316813105,0.006721375020463421,0.9878332344717399
2011-01-19,-1,-0.0043732687250222415,-0.003491526465794245,-0.00906486067137648,0.007918731075562355,0.9877362279619026
2011-01-21,-1,-0.0049808131267555875,-0.004049832598077378,-0.004076442004132402,0.009553810686828887,0.986987984678096
2011-01-25,0,0.0,0.0,-0.009027660577238819,0.007918731075562355,0.9867936370497832
2011-01-27,0,0.0,0.0,-0.009027660577238819,0.007918731075562355,0.9866509335796311
2011-01-31,0,0.0,0.0,-0.002535923210756258,0.007918731075562355,0.9885042740438302
2011-02-02,0,0.0,0.0,-0.0019296037499021992,0.009553810686828887,0.9881879152950317
2011-02-04,0,0.0,0.0,-0.004442685868782313,0.007965142172677584,0.988612484944538
2011-02-08,0,0.0,0.0,-0.010596675329678708,0.006721375020463421,0.9854776433542314
2011-02-10,-1,-0.004034075660231002,-0.0033533962375562405,-0.010596675329678708,0.010961339820627171,0.9834988923253172
2011-02-14,-1,-0.004657899054719347,-0.0038928409956633866,-0.010596675329678708,0.010961339820627171,0.9832662936758257
2011-02-16,0,0.0,0.0,-0.014605653186307445,0.006914320725803269,0.9828546150621967
2011-02-18,0,0.0,0.0,-0.014605653186307445,0.008776671023017678,0.9818509895532573
2011-02-23,-1,-0.004508089913371262,-0.0038988054963416553,-0.010596675329678708,0.009946328560493115,0.9837626110370231
2011-02-25,0,0.0,0.0,-0.010596675329678708,0.012231869150201278,0.9841325783853819
2011-03-01,0,0.0,0.0,-0.008903754616749335,0.012231869150201278,0.9841367220273743
2011-03-03,0,0.0,0.0,-0.0094277353221403,0.012231869150201278,0.9837530277415935
2011-03-07,0,0.0,0.0,-0.014074434371043,0.012231869150201278,0.9830035065309957
2011-03-09,0,0.0,0.0,-0.014074434371043,0.0100374452899829,0.9868010159755415
2011-03-11,0,0.0,0.0,-0.01475097262451188,0.0069472567439213696,0.9865118197261653
2011-03-15,0,0.0,0.0,-0.014074434371043,0.008228084366497532,0.9871504190861112
2011-03-17,-1,-0.003207038071657179,-0.0030123241941059234,-0.01081859249232127,0.008228084366497532,0.9883653449494695
2011-03-21,-1,-0.00019283297410480275,-0.00011348643374919391,-0.01081859249232127,0.00584928932863364,0.9896227930003733
2011-03-23,1,0.0005039141611387571,0.0007043477588968682,-0.01081859249232127,0.005116526212028969,0.9898287004420718
2011-03-25,1,0.001379476643815521,0.0017138054839042406,-0.013087330138775687,0.0036486482114264263,0.9884559587153819
2011-03-29,0,0.0,0.0,-0.013087330138775687,0.005815769439922863,0.988152369157779
2011-03-31,0,0.0,0.0,-0.01081859249232127,0.005116526212028969,0.9895973442985547
2011-04-04,0,0.0,0.0,-0.010605841955991107,0.005116526212028969,0.9896853653213978
2011-04-06,0,0.0,0.0,-0.00824339352132515,0.007919517891517742,0.9893477465870145
2011-04-08,0,0.0,0.0,-0.007059407431533979,0.008587582053877748,0.9899892846541993
2011-04-12,0,0.0,0.0,-0.007059407431533979,0.008416409929385986,0.9900880796900813
2011-04-14,0,0.0,0.0,-0.005831901641608548,0.008416409929385986,0.990804255179832
2011-04-18,0,0.0,0.0,-0.00525188570576248,0.008416409929385986,0.9906607329516047
2011-04-20,-1,-0.0009943698165816876,-0.0009667824735699905,-0.00525188570576248,0.009147877820787836,0.989907103683392
2011-04-25,-1,-0.0012456663938788528,-0.0012168913347312535,-0.005831901641608548,0.008416409929385986,0.9911142799192195
2011-04-27,-1,-0.0004911582127706787,-0.0004239339527082361,-0.00943348144315102,0.0070256758014368955,0.9913357888373378
2011-04-29,-1,-0.0008763800387043682,-0.0008599828965707169,-0.00943348144315102,0.0070256758014368955,0.9913118255643317
2011-05-03,-1,-0.0013922057041627883,-0.0013000590771830346,-0.00943348144315102,0.0070256758014368955,0.9910548632976618
2011-05-05,-1,-0.00018789967513984737,-0.00012340726518954726,-0.00943348144315102,0.0045186406037521455,0.9927472967064778
2011-05-09,-1,-0.0001952694285921769,-0.00013782626421472529,-0.010511591696832401,0.0045186406037521455,0.9921297298750457
2011-05-11,1,1.0320072587639237e-05,9.303187555275468e-05,-0.010661340433426404,0.003567443980374981,0.9914272820334342
2011-05-13,1,0.0004692736932325413,0.0006153145413075915,-0.010859911937785228,0.003567443980374981,0.9910117472351244
2011-05-17,1,0.0009219808914856306,0.0011515745578212948,-0.011646195592648578,0.0008481756145557771,0.989217152676026
2011-05-19,1,0.0013031726607079582,0.001570702658025933,-0.011646195592648578,0.0,0.9888266838211289
2011-05-23,1,0.0006970616919437092,0.0008942727767869894,-0.011646195592648578,0.004829727604758743,0.9894082057081036
2011-05-25,1,6.565050100281714e-06,0.00011095819752520396,-0.01128097555899583,0.009304413833485061,0.9885376225329238
2011-05-27,1,0.0004972420860508679,0.0007166689746237168,-0.01128097555899583,0.009304413833485061,0.9884597153477139
2011-06-01,-1,-0.0001860022070772025,-8.878805165482372e-05,-0.006001532781877733,0.009304413833485061,0.9892341051567408
2011-06-03,1,0.00014137745505897313,0.0003113310635715729,-0.006001532781877733,0.01006382337286352,0.988327654368303
2011-06-07,-1,-0.0005563883188622588,-0.0004964292955719355,-0.006001532781877733,0.009572991005505273,0.9887335763558996
2011-06-09,-1,-0.0010249225977958859,-0.000999923722764896,-0.006001532781877733,0.011645612674933236,0.9881237223266915
2011-06-13,-1,-0.0019810852874242468,-0.001850013872573659,-0.011967716631141396,0.011645612674933236,0.9865982645619991
2011-06-15,-1,-0.0026464447052281293,-0.0024080179656091006,-0.011818664495303048,0.009572991005505273,0.9881856160990213
2011-06-17,-1,-0.0020419909981858548,-0.00187425854722796,-0.012097591940389459,0.006235999540756731,0.9880378961543904
2011-06-21,-1,-0.0012120619315609334,-0.0011411817003964889,-0.012097591940389459,0.003950819711936661,0.9880276467067122
2011-06-23,-1,-0.0010329253375066017,-0.0008723743035966753,-0.011818664495303048,0.0028586414575810957,0.9901350519566999
2011-06-27,-1,-0.0017589941696307182,-0.0014681497310970503,-0.013280030185895091,0.0028533616516263948,0.9894618136405886
2011-06-29,-1,-0.0017096376921782981,-0.0014744307196539537,-0.017402523902862642,-0.0007714313817457695,0.9883094284843376
2011-07-01,1,6.439374891369147e-05,0.00010754703012740404,-0.01829256105125885,-0.002538942426472203,0.986453137210044
2011-07-06,-1,-0.00030272183566128593,-0.0002867509581863754,-0.01829256105125885,-0.002538942426472203,0.9849709769980087
2011-07-08,-1,-0.000841276899388758,-0.0007670432034303225,-0.02413570987484504,-0.0027804412297185556,0.9809132334958117
2011-07-12,-1,-0.002085622440036604,-0.0019160891099887925,-0.02413570987484504,-0.002538942426472203,0.9792106470206858
2011-07-14,0,0.0,0.0,-0.02618793010762059,0.0014381682429655224,0.9764792057703245
2011-07-18,-1,-0.0038617285416664444,-0.003314596303577353,-0.02606988789241102,0.012276165352047404,0.9776946554738397
2011-07-20,0,0.0,0.0,-0.02606988789241102,0.0063190023502449335,0.9770126738899189
2011-07-22,-1,-0.00409677477496544,-0.00360908829476325,-0.0324805002457601,0.0063190023502449335,0.9753472931670579
2011-07-26,0,0.0,0.0,-0.0324805002457601,0.015357067682944559,0.9741953067619031
2011-07-28,0,0.0,0.0,-0.0324805002457601,0.018119051045692905,0.9740504108507838
2011-08-01,0,0.0,0.0,-0.0324805002457601,0.021002647269763038,0.9727746625761323
2011-08-03,0,0.0,0.0,-0.02199016231611782,0.016111453053831055,0.9744877544043687
2011-08-05,-1,-0.009549523850335462,-0.00857100579437925,-0.019330633424898255,0.016111453053831055,0.9783132457193999
2011-08-09,-1,-0.009276299094341873,-0.008265400675192703,-0.019330633424898255,0.016111453053831055,0.9798985516044589
2011-08-11,-1,-0.008479389373730398,-0.007636966352886047,-0.019330633424898255,0.012484707408450509,0.9813049349555223
2011-08-15,-1,-0.006881724262035532,-0.006255407925167278,-0.019330633424898255,0.012484707408450509,0.9804310210806726
2011-08-17,-1,-0.005948552395046904,-0.005499515861446554,-0.019330633424898255,0.021002647269763038,0.9785600403678969
2011-08-19,-1,-0.00815521921194205,-0.007435164710678055,-0.01743489058208749,0.023390166825038673,0.977610217775866
2011-08-23,-1,-0.008525925574397294,-0.007781692046226223,-0.02152469018514677,0.023390166825038673,0.9778167916548561
2011-08-25,-1,-0.0069198043613409805,-0.006370629647129881,-0.022126091442598902,0.02614301127232497,0.9756590153967374
2011-08-29,-1,-0.004001978399762797,-0.003731040992448839,-0.022126091442598902,0.02614301127232497,0.9760177306486045
2011-08-31,-1,-0.005635667713709483,-0.0051507322836813535,-0.022126091442598902,0.02614301127232497,0.9765614679499479
2011-09-02,-1,-0.0055287771827897065,-0.005044173437312581,-0.02385952316701502,0.02614301127232497,0.9712966507600991
2011-09-07,-1,-0.006464936497648657,-0.005898951821226953,-0.0233712497219581,0.021022124279948436,0.9722222488986461
2011-09-09,0,0.0,0.0,-0.02181618627711182,0.026725252957845395,0.9707622913948588
2011-09-13,0,0.0,0.0,-0.02181618627711182,0.026250697773469035,0.9706389181148829
2011-09-15,-1,-0.0052884250671225725,-0.004910631111184889,-0.02181618627711182,0.03431278229277395,0.968868526291603
2011-09-19,0,0.0,0.0,-0.02097808753506117,0.025341857147434567,0.9732555606753179
2011-09-21,0,0.0,0.0,-0.014520196678581686,0.026696040386588786,0.9735530160174176
2011-09-23,-1,-0.0042705369971606085,-0.003987974531072554,-0.014520196678581686,0.026696040386588786,0.9723947669186921
2011-09-27,-1,-0.001623973024293194,-0.001576667311462488,-0.01476083964286691,0.023036066066385877,0.9733056434262887
2011-09-29,0,0.0,0.0,-0.01476083964286691,0.02466581166372702,0.9727514921965265
2011-10-03,0,0.0,0.0,-0.0108587427836973,0.02466581166372702,0.978466200321131
2011-10-05,-1,-0.005649590478700115,-0.0051783949199086824,-0.011012654259600308,0.02466581166372702,0.9784641312050594
2011-10-07,0,0.0,0.0,-0.010372421925284345,0.023036066066385877,0.9811943283211975
2011-10-11,0,0.0,0.0,-0.011012654259600308,0.02158691632816613,0.9831314120658177
2011-10-13,1,0.0014453440156868079,0.0018716245782241794,-0.012577618256866449,0.007696641356522119,0.9834731383535972
2011-10-17,1,0.0019732921514396015,0.0026582981542062393,-0.012577618256866449,0.012490820536587406,0.982917101248586
2011-10-19,0,0.0,0.0,-0.014244876100117215,0.007536324605763207,0.9838819184321285
2011-10-21,0,0.0,0.0,-0.014244876100117215,0.004376571248255424,0.9854649808207214
2011-10-25,0,0.0,0.0,-0.011118655681627584,0.002737007349848035,0.9873309445474749
2011-10-27,0,0.0,0.0,-0.014244876100117215,0.002737007349848035,0.9868252892612415
2011-10-31,0,0.0,0.0,-0.011118655681627584,0.006359668915088325,0.9857138668600927
2011-11-02,0,0.0,0.0,-0.010985864574009177,0.008800536713803847,0.9832993231300755
2011-11-04,0,0.0,0.0,-0.010985864574009177,0.008800536713803847,0.9828647750315402
2011-11-08,0,0.0,0.0,-0.010269770764163822,0.00928094583583541,0.9831491397653149
2011-11-10,0,0.0,0.0,-0.010269770764163822,0.01262625295233828,0.9824766918534381
2011-11-14,0,0.0,0.0,-0.012335118151178114,0.009576695002345197,0.981587206405233
2011-11-16,0,0.0,0.0,-0.010269770764163822,0.01527415536338029,0.9809944446301821
2011-11-18,1,0.000366116203441795,0.0009357309233961992,-0.010269770764163822,0.02115382135922091,0.9792230799248938
2011-11-22,1,0.0005331148865475002,0.001192306412828741,-0.007744732516342919,0.022001732553709432,0.9786868113535809
2011-11-25,0,0.0,0.0,-0.0059755633217352016,0.022001732553709432,0.9792171742461001
2011-11-29,0,0.0,0.0,-0.009350364702521298,0.02149312363842932,0.9809400556620026
2011-12-01,-1,-0.004325950094748208,-0.004317023524461735,-0.009350364702521298,0.02149312363842932,0.9818755817369273
2011-12-05,0,0.0,0.0,-0.012937445198122727,0.02149312363842932,0.9820520375015808
2011-12-07,0,0.0,0.0,-0.012937445198122727,0.02149312363842932,0.9820048734109261
2011-12-09,1,0.0041681249206051135,0.005190886795611501,-0.011932156590849435,0.02149312363842932,0.983956151113657
2011-12-13,1,0.0032476321763241648,0.00414551648437209,-0.00901906995889036,0.02149312363842932,0.9849929164545214
2011-12-15,1,0.003983977683398331,0.0049322290773005165,-0.011932156590849435,0.019995505416340903,0.9851918255395847
2011-12-19,1,0.00322131864663594,0.004011697136998799,-0.00901906995889036,0.019995505416340903,0.9874695714130233
2011-12-21,1,0.003541199515429242,0.004367001731228246,-0.00901906995889036,0.015356740084822131,0.9880729913065586
2011-12-23,1,0.004307541029118759,0.0052229516179126325,-0.011892132832991056,0.015356740084822131,0.9865747041035201
2011-12-28,1,0.0009477787191605111,0.0010868140508318127,-0.011892132832991056,0.020286407261389874,0.9849006417532552
2011-12-30,1,0.0015306769072576387,0.0017455228884869817,-0.012807214973443773,0.01996883848983163,0.9842531772941826
2012-01-04,1,0.0015930219721174504,0.0017610645883121322,-0.011892132832991056,0.017405535265109847,0.9854280423186303
2012-01-06,0,0.0,0.0,-0.012807214973443773,0.01996883848983163,0.982599353532999
2012-01-10,0,0.0,0.0,-0.012807214973443773,0.01996883848983163,0.9830758789880522
2012-01-12,0,0.0,0.0,-0.013115725128523131,0.017856569443873718,0.9829655613006583
2012-01-17,1,0.0015303407230758885,0.0016127090907170015,-0.013041891142896481,0.017856569443873718,0.9832050416169651
2012-01-19,1,0.002813078168708671,0.003078295328335918,-0.013041891142896481,0.01585757453812592,0.9843394892766616
2012-01-23,1,0.0037606149972524063,0.004278179959991713,-0.014342350470424118,0.01585757453812592,0.9826042997950514
2012-01-25,1,0.004429967374720325,0.005022515167340382,-0.016427370870049158,0.011690358676815182,0.9832750970623103
2012-01-27,1,0.003938639682920706,0.0043739824161637105,-0.01664333818489481,0.011690358676815182,0.9834501462646973
2012-01-31,1,0.003993434165813808,0.0044433848315115635,-0.016427370870049158,0.011481098256888912,0.985128633630578
2012-02-02,1,0.0036105059092710542,0.003927100732018431,-0.016427370870049158,0.009355512769056107,0.9849806657537999
2012-02-06,1,0.003908182303624476,0.004357512677340736,-0.016427370870049158,0.00697421397598544,0.9853954316297857
2012-02-08,1,0.003883158183222751,0.00438237314664254,-0.016427370870049158,0.00697421397598544,0.985451182015455
2012-02-10,1,0.003918242373810808,0.0044148840167417365,-0.01664333818489481,0.004087932124197573,0.9853007573217443
2012-02-14,1,0.0027575428518654826,0.002998409060253992,-0.017868140171136145,0.004087932124197573,0.9848576615340109
2012-02-16,1,0.00308844398335296,0.003440066916893885,-0.017868140171136145,0.004766194232617458,0.9829558159443991
2012-02-21,1,0.0010667045488659862,0.0011763140429462764,-0.016583425196479464,0.009765156445726245,0.9856052881050412
2012-02-23,1,0.0007731780283223858,0.0008740497942270619,-0.016155671786097767,0.009765156445726245,0.9857294461668615
2012-02-27,-1,-0.0022568993508081435,-0.0016441475524791912,-0.015723320051371094,0.009765156445726245,0.9872205873256312
2012-02-29,-1,-0.0010422671991802079,-0.0006413715703104546,-0.015723320051371094,0.009765156445726245,0.9864928896513044
2012-03-02,-1,-0.001086332184662605,-0.0006940399203184287,-0.016155671786097767,0.006671406577158314,0.9863186763868288
2012-03-06,-1,-0.0010933489472777255,-0.0008119021524882837,-0.014684771583611294,0.006671406577158314,0.9876919710879905
2012-03-08,-1,-0.0003966609600893719,-0.00028252968758894136,-0.014684771583611294,0.01267044484127299,0.9867512102052705
2012-03-12,-1,-0.0014547971463192413,-0.0011951715847168531,-0.014684771583611294,0.01267044484127299,0.9858213277950763
2012-03-14,-1,-0.0017069322818128465,-0.0014322181769177212,-0.011715596377486035,0.01267044484127299,0.986386715864522
2012-03-16,-1,-0.0008479781073469322,-0.0006968583608908533,-0.011715596377486035,0.007731301075338092,0.9872342583033225
2012-03-20,-1,-0.0008247924126448239,-0.0007041792842533211,-0.014684771583611294,0.007538919735584415,0.9862271088459953
2012-03-22,-1,-0.0012437593969369257,-0.001104281118412924,-0.015540418438452237,0.01209330082201196,0.983309548278935
2012-03-26,-1,-0.0011374590248510177,-0.0009627242911783936,-0.015540418438452237,0.012397045529293027,0.9833404693636586
2012-03-28,-1,-0.0012551676841603635,-0.0010624083621204906,-0.012884657480469925,0.011894194102882106,0.983900894925253
2012-03-30,-1,-0.0017185110618987407,-0.0014828599900128096,-0.00897247475056245,0.014779993581493477,0.9837868602476832
2012-04-03,-1,-0.0018634556903791351,-0.0015999807635402583,-0.011444002823350813,0.014779993581493477,0.983614330982966
2012-04-05,-1,-0.00254900092849269,-0.002167214119586025,-0.013613368776569528,0.011894194102882106,0.9840773074435365
2012-04-10,-1,-0.003937526164658267,-0.0034138557087048564,-0.0070619349699173415,0.014779993581493477,0.9846163873056121
2012-04-12,-1,-0.003077699786163162,-0.0026280554997331384,-0.012467535120106725,0.011894194102882106,0.9858038076721674
2012-04-16,-1,-0.004280010084346038,-0.0036496470125489027,-0.009397068248630947,0.011894194102882106,0.9867806479708066
2012-04-18,-1,-0.005228675818104503,-0.004455812735012972,-0.00674574878395598,0.014675419993533594,0.9870839941066876
2012-04-20,-1,-0.005812539246870323,-0.00494576229682892,-0.00674574878395598,0.014601462610960668,0.988914509987658
2012-04-24,-1,-0.004145364630142498,-0.00354621557776642,-0.008411038181464386,0.014601462610960668,0.9888330048379367
2012-04-26,-1,-0.002838622064116037,-0.0024663581745188274,-0.008411038181464386,0.017126374273225282,0.9868527696407802
2012-04-30,-1,-0.0016807198326898786,-0.0014268206923921788,-0.008411038181464386,0.017126374273225282,0.9871467772089143
2012-05-02,-1,-0.001902011379267947,-0.0016499456737846159,-0.007970770051696998,0.01752076343680248,0.986468334141934
2012-05-04,-1,-0.0025751239976851154,-0.002231411654002106,-0.008411038181464386,0.01752076343680248,0.9852463777077833
2012-05-08,-1,-0.0024346474921538705,-0.0020297949777314094,-0.008411038181464386,0.017126374273225282,0.9852038026594193
2012-05-10,-1,-0.0024940747440450215,-0.002147464974102756,-0.0065871330372707405,0.01752076343680248,0.984263398846719
2012-05-14,-1,-0.0028320199088275573,-0.0024022833859711013,-0.007970770051696998,0.01752076343680248,0.9841820173326334
2012-05-16,-1,-0.001833122908326098,-0.0015279067774944463,-0.007970770051696998,0.01866570352305587,0.984141704373326
2012-05-18,-1,-0.0021026383846545434,-0.0018584988328606978,-0.007970770051696998,0.01866570352305587,0.9840215340712534
2012-05-22,-1,-0.0020001422397889056,-0.0017206716483777692,-0.001141362787254882,0.01866570352305587,0.9839333522171919
2012-05-24,1,0.0006303072834944993,0.0006880856648965594,-0.008079987521913462,0.016634319884622627,0.98716304767764
2012-05-29,1,0.0015435998732407721,0.0016959459937173809,-0.00883742625779145,0.013459359000214433,0.9853595382872603
2012-05-31,1,0.0012770150577022165,0.0013947522802918177,-0.00883742625779145,0.013459359000214433,0.9848774622089075
2012-06-04,1,2.8419129268841728e-05,3.414999253776545e-05,0.0008143508827700252,0.013459359000214433,0.9862944154391947
2012-06-06,1,0.001332805734306951,0.0015583560659875413,-0.0046243410091806715,0.011537867396839504,0.9870003406720632
2012-06-08,1,0.002239605025137513,0.0025814504633599206,-0.004634769526799607,0.011537867396839504,0.9874587797833818
2012-06-12,1,0.0020737708909743303,0.002509872820486338,-0.004244469754425644,0.012696490170194575,0.9857110814254143
2012-06-14,1,0.002748865430128415,0.0032496739609677253,-0.008136984325956945,0.012696490170194575,0.9848240986219626
2012-06-18,1,0.002740880971296699,0.0033056953672165007,-0.004244469754425644,0.012696490170194575,0.986271844914803
2012-06-20,1,0.003798394684283783,0.004519928284801961,-0.008136984325956945,0.010460312941312045,0.9856625824725831
2012-06-22,1,0.003085468929168721,0.0037873787261622264,-0.014738970112088832,0.010460312941312045,0.9840266051037628
2012-06-26,1,0.0021825995880477922,0.002788628844724729,-0.014738970112088832,0.008184308375316815,0.9855848109336718
2012-06-28,1,0.003333215013570135,0.00407005690983234,-0.014738970112088832,0.010599765006122128,0.9846318328695597
2012-07-02,1,0.0038024906894071338,0.0045851464254771206,-0.014738970112088832,0.013326982112548373,0.98373222893515
2012-07-05,1,0.003188316141499687,0.003890481790867389,-0.018182461566245787,0.013326982112548373,0.9834118115781371
2012-07-09,1,0.0035719922859098817,0.004308025515438884,-0.018182461566245787,0.015992303512310724,0.982785901712916
2012-07-11,1,0.004540544214040669,0.005417245793869282,-0.019253880762760866,0.014032238424999907,0.9836174667613558
2012-07-13,1,0.003301772877529555,0.0038705712500220844,-0.017287119906293686,0.006838381942240536,0.985387074905439
2012-07-17,1,0.002702396668724888,0.0031538272627443607,-0.017287119906293686,0.007694221690329883,0.9852516670161893
2012-07-19,1,0.001494704047592299,0.0017813826515164011,-0.01327851955484299,0.007717060697374949,0.9866265378264856
2012-07-23,1,0.0007676330903757622,0.0009887841714127134,-0.0059537756085513045,0.015992303512310724,0.9871773661653884
2012-07-25,0,-1.946094369737855e-05,8.556026652199218e-05,-0.002464408455178283,0.015992303512310724,0.9873999932245924
2012-07-27,1,0.0010464495086159064,0.0012088478219407122,-0.007364448212467833,0.0058111796599427355,0.9895129585573265
2012-07-31,1,0.001653560842301781,0.0018746608383042544,-0.010457471240493768,0.005520313379107357,0.9895524241264835
2012-08-02,1,0.0006353631551357969,0.000646666001477102,-0.009947675491215295,0.0058111796599427355,0.9900980331462302
2012-08-06,0,0.0,0.0,-0.010033393503350287,0.0038670910038511985,0.9911673449921306
2012-08-08,0,0.0,0.0,-0.009947675491215295,0.0058111796599427355,0.9901436854450696
2012-08-10,0,0.0,0.0,-0.009947675491215295,0.0058111796599427355,0.9903097831587806
2012-08-14,0,0.0,0.0,-0.009947675491215295,0.006929941389975746,0.988841764350308
2012-08-16,1,0.0001660925435235594,0.00018634171114952455,-0.009947675491215295,0.006929941389975746,0.9885374468632219
2012-08-20,1,0.0014608963962539617,0.0016059689178058779,-0.010033393503350287,-0.0010797290423398605,0.9890592498153339
2012-08-22,1,0.0006048685618889536,0.0006086000834582746,-0.010033393503350287,0.0003590930731784195,0.9888699375780906
2012-08-24,0,-3.8347139606748895e-05,5.255841609267645e-05,-0.010346673431283015,0.006210592835987634,0.9889563096317249
2012-08-28,-1,-0.0007143339201651757,-0.0005596316182432964,-0.010033393503350287,0.008167927079199135,0.9896906980195559
2012-08-30,-1,-0.0015857870670488424,-0.0011763191036748084,-0.010346673431283015,0.006504538799224805,0.9901997897304647
2012-09-04,-1,-0.0013735128200506083,-0.0010543591017801142,-0.00851541175181563,0.010996951192984505,0.9893134774110163
2012-09-06,-1,-0.0004609406628103183,-0.00020356071592442986,-0.00851541175181563,0.009352865180956862,0.9900237777411838
2012-09-10,0,0.0,0.0,-0.012294212314975812,0.009352865180956862,0.9888253502808517
2012-09-12,0,0.0,0.0,-0.012294212314975812,0.006504538799224805,0.9904342145859328
2012-09-14,-1,-0.001810088563746322,-0.0014185585131662813,-0.012294212314975812,0.009352865180956862,0.990466733866328
2012-09-18,0,0.0,0.0,-0.011455005859542651,0.009352865180956862,0.9904360702885521
2012-09-20,0,0.0,0.0,-0.00792756917730349,0.008174577553215698,0.9913052528331023
2012-09-24,0,0.0,0.0,-0.007915113042838665,0.008174577553215698,0.9913089527866961
2012-09-26,-1,-0.002950454902664935,-0.0024136788025481354,-0.007915113042838665,0.006212809660659822,0.9922336018407875
2012-09-28,-1,-0.002921758436625307,-0.0024021132420284793,-0.00767930017814067,0.008197848416875313,0.991842322905173
2012-10-02,-1,-0.0025880599655059688,-0.002075470976563834,-0.00767930017814067,0.008197848416875313,0.9912770587119479
2012-10-04,-1,-0.002236123048828342,-0.0017482002287185336,-0.00767930017814067,0.006212809660659822,0.9921925720787645
2012-10-08,0,0.0,0.0,-0.005933377183126062,0.008197848416875313,0.9917839250550643
2012-10-10,-1,-0.0037818082729551396,-0.0031143237040452644,-0.005933377183126062,0.009145463714717923,0.9909182886983093
2012-10-12,-1,-0.0031422823504663727,-0.002577791433976102,-0.004820629052531174,0.008197848416875313,0.9917813839617327
2012-10-16,0,0.0,0.0,-0.0067711247404132575,0.009135020463405398,0.9901519465113411
2012-10-18,0,0.0,0.0,-0.0067711247404132575,0.009410235331281156,0.9892711933690075
2012-10-22,0,0.0,0.0,-0.0045351606307524606,0.010677785336860224,0.989393310590711
2012-10-24,0,0.0,0.0,-0.002760031282870135,0.012419159255641639,0.9889388687759592
2012-10-26,0,0.0,0.0,-0.002760031282870135,0.013646745699544592,0.9885753475412378
2012-11-01,0,0.0,0.0,-0.002760031282870135,0.012419159255641639,0.989781292137126
2012-11-05,0,0.0,0.0,-0.005668573895645619,0.013646745699544592,0.9884969708659966
2012-11-07,0,0.0,0.0,-0.0002784187640662362,0.015094495696328127,0.9885781173462215
2012-11-09,-1,-0.0014501047738601518,-0.0014489576697657126,-0.0002784187640662362,0.013646745699544592,0.9889354688523777
2012-11-13,1,0.0005227000042374536,0.0006924370385995894,-0.0009471312641680437,0.015094495696328127,0.9884017315744825
2012-11-15,0,0.0,0.0,0.0025682628198276563,0.015094495696328127,0.9891207945394916
2012-11-19,0,0.0,0.0,0.0025682628198276563,0.015094495696328127,0.9890729255424016
2012-11-21,0,0.0,0.0,0.0018200618016213793,0.015094495696328127,0.9893989341605984
2012-11-26,0,0.0,0.0,-0.003922279789122348,0.013902661506767309,0.989786317160412
2012-11-28,0,0.0,0.0,-0.005408506437929205,0.012360413727013976,0.9902968527224829
2012-11-30,0,0.0,0.0,-0.0072112733585290535,0.012360413727013976,0.9899517864556011
2012-12-04,0,0.0,0.0,-0.005408506437929205,0.014288842711504856,0.9891308477793984
2012-12-06,0,0.0,0.0,-0.005408506437929205,0.013866499957603726,0.9895284798701931
2012-12-10,0,0.0,0.0,-0.003363452177561433,0.013866499957603726,0.9893534437797178
2012-12-12,1,1.0,1.0,-0.0027568839218521414,0.012360413727013976,0.5012417732418696
2012-12-14,0,0.0,0.0,-0.0027568839218521414,0.011627691580655746,0.9912615975047175
2012-12-18,0,0.0,0.0,-0.0027568839218521414,0.01072848425253144,0.9913356795233739
2012-12-20,1,0.00499930710675521,0.005530505866372668,-0.003363452177561433,0.011980644437655022,0.9906921900153344
2012-12-24,1,0.005139629837105275,0.005755449422996736,-0.0032522928047877602,0.011980644437655022,0.9908788847639884
2012-12-27,1,0.003548021997081063,0.003932404657428884,-0.0020337069677902097,0.011980644437655022,0.9913101509749925
2012-12-31,0,0.0,0.0,-0.0027161386351472376,0.011980644437655022,0.9905210563967498
2013-01-03,0,0.0,0.0,-0.0027161386351472376,0.008601483656728696,0.9925800947013327
2013-01-07,1,0.0052554850801974865,0.005812513016619321,-0.0031529460968298417,0.007954437380549292,0.9921748140282891
2013-01-09,1,0.005020390021935558,0.0055167800682333675,-0.0031492539343828292,0.008697149150168313,0.9919475551343719
2013-01-11,1,0.0051428294455771895,0.0056643154069602325,-0.0031492539343828292,0.008697149150168313,0.991969234288605
2013-01-15,0,0.0,0.0,-0.005325100575645078,0.008697149150168313,0.9919920507790724
2013-01-17,0,0.0,0.0,-0.008103555277206562,0.007954437380549292,0.9922527134377629
2013-01-22,0,0.0,0.0,-0.008103555277206562,0.007954437380549292,0.9922586826189604
2013-01-24,1,0.0054698139764275105,0.006005828307384061,-0.005325100575645078,0.008192737166416145,0.9916046416288579
2013-01-28,1,0.005128434877882884,0.005609866352560026,-0.008103555277206562,0.008192737166416145,0.9908236531191159
2013-01-30,1,0.0040730559084346234,0.004377930561305347,-0.005485129533881174,0.009298961101091515,0.9899231438703651
2013-02-01,0,0.0,0.0,-0.005485129533881174,0.011551868366008503,0.9883041892030701
2013-02-05,0,0.0,0.0,-0.0058618148098648895,0.011551868366008503,0.9883888767336332
2013-02-07,1,0.005858697751061887,0.006466615169313716,-0.0058618148098648895,0.010525781550070492,0.9900085979738099
2013-02-11,1,0.005350187382328241,0.00585227710821629,-0.0058618148098648895,0.010525781550070492,0.9901959889334795
2013-02-13,1,0.00459391103170714,0.004943007169620659,-0.0006303483251961065,0.010525781550070492,0.9903803079937759
2013-02-15,1,0.00430461895197516,0.004619420004247612,-0.0006303483251961065,0.010967422200165278,0.9900731361254838
2013-02-20,1,0.003426715744506159,0.003580409820122598,0.0015150655269320214,0.012175415297687574,0.9908052053666712
2013-02-22,1,0.003727874122841888,0.003919079736340146,2.1896028255120555e-05,0.01065906500817726,0.9909359515356696
2013-02-26,0,0.0,0.0,0.0004140317900876567,0.01065906500817726,0.9904646483512067
2013-02-28,0,0.0,0.0,0.002692386286349476,0.012415597014931704,0.9907823670976663
2013-03-04,0,0.0,0.0,-0.0011691543298790517,0.009652318941967834,0.9892509505071084
2013-03-06,1,0.0033689264385849166,0.0034786737280414998,-0.0011691543298790517,0.012415597014931704,0.9893517133853316
2013-03-08,1,0.0034281276753944526,0.0035139715380433406,-0.0011691543298790517,0.009992518720116255,0.9894546348437036
2013-03-12,1,0.0034419781937122178,0.003537455334669588,-0.0023265694025348363,0.011106319611468348,0.9890581723974449
2013-03-14,1,0.0037531375040468127,0.003876497019966069,-0.0023265694025348363,0.011106319611468348,0.9895529382251563
2013-03-18,1,0.003832947182518376,0.003983051762467521,-0.0023265694025348363,0.011106319611468348,0.9872022560963035
2013-03-20,1,0.003481732716108769,0.0035529944260658496,-0.004519430280012292,0.009738939222039188,0.9865562296293523
2013-03-22,1,0.0031782898060690513,0.0031946468223431426,-0.011466685645271153,0.012772755367920205,0.9850940618797537
2013-03-26,1,0.002801505975627704,0.0028759161894247247,-0.011466685645271153,0.014314297965629302,0.9848588433037202
2013-03-28,1,0.004736156496255766,0.0049776429684512576,-0.011466685645271153,0.009738939222039188,0.9859190975694571
2013-04-02,1,0.001954353878226377,0.002096221001112673,-0.00228723071806206,0.011355977739949829,0.9884831845966715
2013-04-04,1,0.001815161342971551,0.0019900849034509933,-0.00228723071806206,0.011355977739949829,0.9882411130072839
2013-04-08,1,0.0019526968184130859,0.002111853096961311,-0.00228723071806206,0.012821931765605895,0.987137469618235
2013-04-10,1,0.001539048188364524,0.0017683929488469768,-0.0022456441708151908,0.012821931765605895,0.9873293283882923
2013-04-12,1,0.0008602978652901907,0.0012147087142829857,-0.004893079491663599,0.012821931765605895,0.9865275938155782
2013-04-16,1,0.0015332606628498423,0.0017657383314331084,-0.004893079491663599,0.012060920554479892,0.9894425944964713
2013-04-18,1,0.0005006782224856901,0.0008384381770853681,-0.004862495593369675,0.012821931765605895,0.9882631173621792
2013-04-22,1,0.0012228154819663235,0.0014526640539207548,-0.0039366725743712385,0.012821931765605895,0.9890473881195089
2013-04-24,1,0.0015884454893860243,0.0017837676377742352,-0.010267003248849271,0.012060920554479892,0.9886983777929387
2013-04-26,1,0.0010832097279166483,0.001346662248656014,-0.010267003248849271,0.013838176525956224,0.9874220570087319
2013-04-30,1,0.001996055411302813,0.0021399175797529,-0.010844858697897235,0.013838176525956224,0.9877390579701361
2013-05-02,1,0.002313322396420394,0.0023813963236796573,-0.009232960166349297,0.010629315774645109,0.9886528764106097
2013-05-06,1,0.003136995686513298,0.0031470777343317407,-0.01035740732514412,0.00548288903719394,0.9887917130444354
2013-05-08,1,0.0032325905629214044,0.0032712946524355484,-0.012484633827137813,0.004399927007633381,0.9873829953627603
2013-05-10,1,0.0026578715014053326,0.00266329671630491,-0.01035740732514412,0.007880432596452191,0.9871941474343646
2013-05-14,1,0.0023932392906674707,0.002407258213432269,-0.009606048365481977,0.007880432596452191,0.9875082314255496
2013-05-16,1,0.002669779710663553,0.0027155105813970945,-0.009164704416377536,0.007386117545198138,0.9886039978204223
2013-05-20,1,0.0023635692916966367,0.0023930430102556575,-0.008285717482155185,0.006155274778177477,0.989359539611891
2013-05-22,1,0.0010094822438128186,0.001229631310659315,-0.009606048365481977,0.006155274778177477,0.9896925577257812
2013-05-24,1,0.0012674913426116846,0.0014734097095659038,-0.010279949774300275,0.000926205426829362,0.9901394651361785
2013-05-29,1,0.001509795505114269,0.0016031540900512875,-0.011764809801853163,0.00370531963596868,0.9891352991734668
2013-05-31,1,0.0013973908902643714,0.0014802535060001456,-0.011764809801853163,0.0036032038124767284,0.9891775715722986
2013-06-04,1,0.0008095162572243265,0.0009673631131135048,-0.011831893706745025,0.005499162344930027,0.9880581103266055
2013-06-06,-1,-0.0003309842072277473,-3.9253031925430126e-05,-0.011549116761127302,0.005927694978901935,0.9895886098385509
2013-06-10,1,0.0005677188582563279,0.0007534133797424646,-0.011549116761127302,0.005927694978901935,0.9899352482341642
2013-06-12,1,0.0007245842122613278,0.0008412509383731676,-0.011549116761127302,0.006703378147371511,0.9897101793513704
2013-06-14,1,0.0006139982430442556,0.0007325223598874346,-0.011549116761127302,0.00706626810843407,0.9898510205157326
2013-06-18,1,0.0002629122690294979,0.00044693643343489116,-0.011549116761127302,0.009890614715351709,0.9892511959947775
2013-06-20,-1,-0.000985382452110819,-0.0006439197920433507,-0.00425530741352353,0.009996737576615013,0.989551057088549
2013-06-24,-1,-0.00206315417660906,-0.001556542170010361,0.001081495562114005,0.009996737576615013,0.9893411993946556
2013-06-26,-1,-0.0033278964914014134,-0.0026674176394227405,0.001081495562114005,0.009996737576615013,0.9895986681697967
2013-06-28,-1,-0.003753436217375342,-0.003035300780032606,-0.00036206475662487695,0.009996737576615013,0.9899635817670505
2013-07-02,-1,-0.003623943524401231,-0.0029816852550271083,0.0005427041842979107,0.009417695312653771,0.9914947270398389
2013-07-05,-1,-0.0033915119608329694,-0.0027764424722319676,0.00036664381429510546,0.009996737576615013,0.9906678180923242
2013-07-09,-1,-0.002640244927515748,-0.002104638555863245,-0.002569872430533984,0.008950291435619009,0.9916348325435036
2013-07-11,-1,-0.002271674779165728,-0.001772727354007646,-0.005277014182288466,0.00709169595324492,0.9921565394544548
2013-07-15,-1,-0.0023462539667843496,-0.0018047238797732183,-0.0060826543666201195,0.004892451554169768,0.9927265839492659
2013-07-17,-1,-0.0014982489719749593,-0.0010825166372804694,-0.0066566537122863464,0.0038114607899801265,0.9930890029352304
2013-07-19,-1,-0.001807799814336444,-0.0013236056891157981,-0.007449882328968855,0.002578797400900401,0.9930669215158485
2013-07-23,-1,-0.0012074610553412615,-0.0008345305732520114,-0.008833315278577808,0.002433139517085354,0.992425562401678
2013-07-25,-1,-0.0006945806339224352,-0.0004373494494155569,-0.007867889737327657,0.002433139517085354,0.9920409569237904
2013-07-29,-1,-0.001450505194484019,-0.0010933217878912147,-0.007867889737327657,0.0038046443023906887,0.9920229033546664
2013-07-31,-1,-0.0009167777263018781,-0.000644899989184554,-0.009826839446401735,0.002433139517085354,0.9907912108952774
2013-08-02,0,-6.952194566831786e-07,0.00016091566186312987,-0.009826839446401735,0.0017313867728450893,0.9917658375408945
2013-08-06,-1,-0.0007780714953792015,-0.0005366275846176079,-0.007867889737327657,0.002433139517085354,0.9922124825438703
2013-08-08,-1,-0.0007813253183498707,-0.0005401187693938588,-0.007867889737327657,0.002433139517085354,0.9923736575966756
2013-08-12,-1,-0.0009246894861578327,-0.0006933129005042785,-0.003658926688733965,0.006086228239037051,0.9896943762909131
2013-08-14,-1,-0.001456367787671681,-0.001172639775161685,-0.00450286162250179,0.006086228239037051,0.9901298730578497
2013-08-16,-1,-0.0019376732962193628,-0.00160549864325306,-0.002657063705873786,0.010773207607680673,0.9893203157414969
2013-08-20,-1,-0.0013069456575033162,-0.0011315177648084126,-0.0005859322758625108,0.010773207607680673,0.989814853917331
2013-08-22,-1,-0.002780439009828459,-0.002314532215995287,-0.0005859322758625108,0.01142607354505729,0.9886945459699644
2013-08-26,-1,-0.0020716050349051883,-0.001721600172382278,-1.2962713299480397e-05,0.01332996463484677,0.9883284610073383
2013-08-28,-1,-0.0032217808428016866,-0.0027537928855628094,0.0007764274935305004,0.01332996463484677,0.9886334012710738
2013-08-30,-1,-0.002979889780532036,-0.0025519757131382296,-0.0037181997287513715,0.01332996463484677,0.9890216139776754
2013-09-04,-1,-0.0021485740070181208,-0.001832811652233366,-0.004075361813189244,0.012001098855446188,0.9894755183110899
2013-09-06,-1,-0.0019081088535034688,-0.0016303196572181858,-0.004075361813189244,0.012001098855446188,0.9891290983025376
2013-09-10,1,2.6118241768900035e-06,9.454312324360157e-05,-0.004075361813189244,0.011069026878625253,0.9923070817927205
2013-09-12,-1,-0.00036527353949473496,-0.00025108880352213306,-0.0035401866320375073,0.011415661534155047,0.9917591006167987
2013-09-16,1,0.0008906322954490468,0.0009750125263678476,-0.0035401866320375073,0.009421763972076322,0.9927402224460476
2013-09-18,1,0.0011662242899884222,0.0012747402213674802,-0.004075361813189244,0.011415661534155047,0.9915930538603978
2013-09-20,1,0.0018159216580420773,0.002055349064037976,-0.0035401866320375073,0.011415661534155047,0.9918990144014954
2013-09-24,1,0.0025560160660056145,0.002900278744061761,-0.0035401866320375073,0.011415661534155047,0.9921950690722318
2013-09-26,1,0.0031467273373932056,0.0036364224579813545,-0.0018480324509720998,0.011580629407662846,0.9914587245309411
2013-09-30,1,0.002841721185748525,0.003295850442705632,0.0005976341714558566,0.011580629407662846,0.9914879518943571
2013-10-02,1,0.0027918282053978638,0.0032157378357612746,0.0005976341714558566,0.011415661534155047,0.9919651952636963
2013-10-04,1,0.003030702863042464,0.0034583522626334363,0.0005976341714558566,0.012157932755354262,0.9918216880371283
2013-10-08,1,0.0029039176989109263,0.0033292780698632512,0.002603286872975467,0.015083661517592701,0.9911658561262625
2013-10-10,1,0.0038064107875387517,0.004365185030199496,-0.000437072944526165,0.015083661517592701,0.9909344269822888
2013-10-14,1,0.0038123900414157724,0.00433485502751479,-0.000437072944526165,0.015083661517592701,0.990862379151585
2013-10-16,1,0.004917902575199656,0.005634195473157943,-0.0004159828827367818,0.01289401057806397,0.9919142650048476
2013-10-18,1,0.005479883948245456,0.00624038331581145,-0.001241084261777098,0.010588182666530204,0.9924422462307281
2013-10-22,1,0.005923401000639839,0.006741229183437895,-0.0012419929845424195,0.00910985799131128,0.9925810794102329
2013-10-24,1,0.0068165542911724246,0.00770522129574621,-0.0016850215927365104,0.00910985799131128,0.9923319693809007
2013-10-28,1,0.006189259917599374,0.006927569394166871,-0.0012419929845424195,0.007622407823542975,0.9927648063714996
2013-10-30,1,0.006789261896538905,0.00767437194183563,-0.0011004380796421954,0.010588182666530204,0.992041586698806
2013-11-01,1,0.007103924564055469,0.007998916281313814,-0.0012419929845424195,0.007622407823542975,0.9907109552035197
2013-11-05,1,0.007621128232626536,0.008577534625695903,-0.005139380649281431,0.006795042547729975,0.9888533063142745
2013-11-07,1,0.006600058437799555,0.0074140304383120085,-0.0012419929845424195,0.007622407823542975,0.9904353961398802
2013-11-11,1,0.006462234250216575,0.0071937784830553,-0.0012419929845424195,0.01009423089697193,0.9902305563478876
2013-11-13,1,0.006207473077385166,0.006863610321468748,-0.003027438923218497,0.01009423089697193,0.9871624602487016
2013-11-15,1,0.005726106477499705,0.006247227104148132,-0.008587874283019627,0.00706570998839946,0.9870982816084239
2013-11-19,1,0.005319140904065186,0.005760302513121832,-0.011037385777552049,0.012088202682031788,0.9858242262987056
2013-11-21,1,0.005221616908928436,0.0056066591483495375,-0.01081954477492024,0.011004992893848946,0.9867131679471681
2013-11-25,1,0.005188200424590262,0.005566440409114304,-0.01081954477492024,0.011004992893848946,0.9866807376308091
2013-11-27,1,0.006009124904009911,0.006529878452415503,-0.011960854107075989,0.006784178388053926,0.9863812963710378
2013-12-02,1,0.005268422931946884,0.005707034896480966,-0.008895697059527608,0.006784178388053926,0.987863589176309
2013-12-04,1,0.003862910738122291,0.004132593921920525,-0.0005358923969157784,0.011004992893848946,0.9891403370991256
2013-12-06,1,0.004621294476235298,0.00500266197155464,-0.003736492344616258,0.011004992893848946,0.9881267007861085
2013-12-10,1,0.005342803199603011,0.005805080827221461,-0.003736492344616258,0.018880070004463442,0.9857387466589902
2013-12-12,1,0.005676209564543592,0.0061830453146851675,-0.003736492344616258,0.014394091841091135,0.9881255541127711
2013-12-16,1,0.005289203708514855,0.005708747274425116,-0.004116928788668174,0.018880070004463442,0.9866265516565234
2013-12-18,1,0.004358945465887524,0.004652764170243242,-0.004116928788668174,0.015594092908256153,0.9874687570756638
2013-12-20,1,0.0045678211686727005,0.0048944081193035525,-0.002509251597920839,0.020398995106042383,0.9873043894452496
2013-12-24,1,0.004930191720083795,0.005349069820748595,-0.011537485710938643,0.020398995106042383,0.9849924141113418
2013-12-27,1,0.0036392173187599496,0.0038158207059271546,-0.011537485710938643,0.023699775519564634,0.9837091619874063
2013-12-31,1,0.0034398655862288513,0.003594586069530601,-0.012925189953619864,0.02863663946697061,0.9808712825429959
2014-01-03,1,0.003929380234432185,0.004113660765462417,-0.014112639884108793,0.023734670307992704,0.9799919567439582
2014-01-07,1,0.003418322926658221,0.0034891868551758225,-0.013228060953796424,0.023734670307992704,0.980971071073276
2014-01-09,1,0.004952056638563702,0.005176266480990924,-0.013228060953796424,0.018252926208204994,0.9820124276798778
2014-01-13,1,0.004129015134018753,0.004193102552388466,-0.014250926635447787,0.018252926208204994,0.9817463463398233
2014-01-15,1,0.004410248907568717,0.004497420084463758,-0.014250926635447787,0.014949557139302287,0.9832886966712855
2014-01-17,1,0.004138447779395326,0.004178953375585903,-0.014250926635447787,0.014949557139302287,0.9837083616965759
2014-01-22,1,0.004003518297907085,0.004093166459567182,-0.014250926635447787,0.014949557139302287,0.9827237728608565
2014-01-24,1,0.001736062326452763,0.002105617079086892,-0.011446331896883422,0.017332063562489772,0.984717635465004
2014-01-28,1,0.0024268670716883294,0.0027084835941222495,-0.007038624714342561,0.014949557139302287,0.9865382351470182
2014-01-30,1,0.0019034211560221403,0.0022510917084963464,-0.004142940076435449,0.011644354264250617,0.9894142434969807
2014-02-03,1,0.0016519111799574672,0.0019310184616471294,-0.002403769918912065,0.014949557139302287,0.9899185325994591
2014-02-05,1,0.0008668803862844172,0.0012612516205455816,-0.001618826995276677,0.014949557139302287,0.9899289591776642
2014-02-07,1,0.0024475641227211407,0.002623951923899877,-0.001618826995276677,0.010138348615093551,0.9907730000089879
2014-02-11,1,0.0019976438790935552,0.0022268102266097337,-0.0008714056148076593,0.007910457695494758,0.9919811820195839
2014-02-13,1,0.0015157090340787347,0.0017911004727758787,-0.0008714056148076593,0.009960154540460963,0.9910398092330215
2014-02-18,1,0.0011669851180952644,0.0014621943707817458,-0.0008714056148076593,0.009960154540460963,0.9914826252050533
2014-02-20,1,0.0019692002324366623,0.002186978586268058,-0.0008714056148076593,0.007910457695494758,0.9931828721926368
2014-02-24,1,0.0020588822613591628,0.0023063969153153,-0.001501833161762394,0.007769534649757161,0.9922129191302357
2014-02-26,1,0.0021222635251702806,0.002365232738384994,-0.0038619066115767927,0.008337667288885542,0.9913471037676393
2014-02-28,1,0.0019342322194959352,0.0021904225796467508,-0.0056392008447857704,0.008337667288885542,0.9907055668512837
2014-03-04,1,0.0019736381081061124,0.002252469698277797,-0.0038619066115767927,0.009960154540460963,0.9907582765205835
2014-03-06,1,0.0023561593819370324,0.0025699684309681446,-0.0038619066115767927,0.009537385403248172,0.9907891898767737
2014-03-10,1,0.002910637913777765,0.0030544811335356213,-0.008990039050155201,0.007769534649757161,0.9903778899764127
2014-03-12,1,0.003256198048851419,0.0033374532187603885,-0.008990039050155201,0.009537385403248172,0.9894350026350047
2014-03-14,1,0.003195877091508574,0.0032185983713346844,-0.011214210457757858,0.006121841382421012,0.9875098793658721
2014-03-18,1,0.0029994408295980794,0.0030165854351935787,-0.011214210457757858,0.009641839368035443,0.9865217828916901
2014-03-20,1,0.003414135431788621,0.0035154531310700354,-0.011214210457757858,0.014013009494716245,0.9855410687707878
2014-03-24,1,0.0023530809133166155,0.002390631662667322,-0.010654698726364292,0.014193721110965798,0.9867684450895486
2014-03-26,1,0.002111026155299436,0.0021913965590343006,-0.008884780812501259,0.014086066854910883,0.9875322887480712
2014-03-28,1,0.001691587599068721,0.0017907553307255147,-0.008884780812501259,0.014086066854910883,0.9872175545771946
2014-04-01,1,0.0030738235970597695,0.003181609196351982,-0.008884780812501259,0.009521014036870282,0.9879255224370634
2014-04-03,1,0.0024691326790379693,0.0024894390437848087,-0.008884780812501259,0.009521014036870282,0.9876433983103452
2014-04-07,1,0.0014514625122750442,0.0015767815416472277,-0.0049859985262057475,0.009521014036870282,0.9887482592003238
2014-04-09,1,0.0025915089808974242,0.002609404602320795,-0.0049859985262057475,0.00860372372799511,0.9895186050345399
2014-04-11,1,0.00011218619675857754,0.00038075432461242783,-0.0028769499685771982,0.011661022264924187,0.9911795961627619
2014-04-15,1,0.00012104480902473235,0.00039625532625805473,-0.002555446072792547,0.00860372372799511,0.9923383872055332
2014-04-17,1,0.0011975801243305872,0.0013274007649820678,-0.00421441571259307,0.006937424599394495,0.9931254794527398
2014-04-22,1,0.0017423062485394027,0.001809771186693026,-0.004950111103737541,0.006937424599394495,0.9924649961939201
2014-04-24,1,0.0024332937239473678,0.0024837755502850308,-0.004950111103737541,0.006464557066727981,0.9923897624597825
2014-04-28,1,0.0009967245194903254,0.0011662576448460298,-0.0031237335237661434,0.007650760675412463,0.9925938749328731
2014-04-30,1,0.00027265967435285347,0.0006122303348239131,-0.0031237335237661434,0.007650760675412463,0.992334508723433
2014-05-02,1,0.000449414094957149,0.000736624297828648,-0.002555446072792547,0.010058285938926938,0.9924866182949732
2014-05-06,1,0.00045778362073173047,0.0007252020589249455,-0.000700557406995373,0.012644112101278405,0.9916226792011723
2014-05-08,1,0.0008604737955298648,0.0010771178012455537,-0.0028326656595953955,0.013109025509780681,0.9914974336285983
2014-05-12,1,0.0012379243453625997,0.0014277276484006137,-0.0034615503491203605,0.010213257075094365,0.9922635338893547
2014-05-14,1,0.000706009391773206,0.0009802696110251287,-0.005876996099861277,0.010213257075094365,0.9895406828289466
2014-05-16,1,5.767100214941804e-05,0.00039511903097036287,-0.005262903569505171,0.013109025509780681,0.9886658342980875
2014-05-20,1,0.0003399744180289316,0.0006417621974446492,-0.0034615503491203605,0.013109025509780681,0.989038278161564
2014-05-22,1,0.00023169382069815445,0.0005799727557892218,-0.0034615503491203605,0.016116117584163845,0.9885228784358447
2014-05-27,1,0.0009143374750930114,0.0011833689228517475,-0.006272710270029193,0.012365980525513104,0.9884124371215781
2014-05-29,1,0.0021005961378446625,0.002182315432722298,-0.006272710270029193,0.011619558577366244,0.9887337837069868
2014-06-02,1,0.002238889913874464,0.0023064477199248212,-0.008282597262085085,0.011619558577366244,0.9885397346356243
2014-06-04,1,0.0038185063747474407,0.004087245990072347,-0.00961130918893852,0.011619558577366244,0.9872317149180626
2014-06-06,1,0.0036804277465186394,0.003916872952042074,-0.010337926582110489,0.009649442956029496,0.9865830055785474
2014-06-10,1,0.0030873006967348676,0.003291799705744281,-0.011007216700519943,0.013133806755455689,0.9858102117933466
2014-06-12,1,0.0008106213246448104,0.0008850531544293264,-0.00961130918893852,0.013133806755455689,0.9882849836401991
2014-06-16,1,0.0018011630984369699,0.001893563834578491,-0.00961130918893852,0.011248999270146526,0.9893912723489545
2014-06-18,1,0.0014176371381068003,0.0014581622900223588,-0.010337926582110489,0.009269981110308727,0.9890311488523814
2014-06-20,1,0.002389113103981119,0.0024990697038145496,-0.010337926582110489,0.009269981110308727,0.9894351950208814
2014-06-24,1,0.0012690880260133287,0.001316488577017115,-0.006389331070066215,0.011275669390610319,0.9885032569955157
2014-06-26,1,0.0008544182618935942,0.001045215606021326,-0.007279967207072998,0.01170376346173946,0.9878383959710435
2014-06-30,1,0.00048505533691887114,0.00070022533464472,-0.007279967207072998,0.01170376346173946,0.9874554430916813
2014-07-02,1,0.0018455519613396227,0.0018481726685985575,-0.009215289889236072,0.010878427464580356,0.9884651706543855
2014-07-07,1,0.0009298963239359387,0.001049848556911085,-0.005690608356738178,0.010878427464580356,0.9894763864304296
2014-07-09,1,0.0006275409436897683,0.0008004225206926525,-0.005690608356738178,0.007392853922670388,0.9906305663286764
2014-07-11,1,0.00043006354541331613,0.0006563508236441993,-0.005690608356738178,0.008597673688528287,0.9905136688038367
2014-07-15,1,0.001540114769304202,0.0015765229227906756,-0.005690608356738178,0.008606563728682886,0.9905076295537322
2014-07-17,1,0.0009505209120378442,0.0010314483072004534,-0.00294875348596618,0.013072288953881236,0.9899876518724379
2014-07-21,1,0.001286566798554097,0.001320288459369887,-0.001302951820677638,0.014761421701346937,0.9890647751529459
2014-07-23,1,0.0024975672425705552,0.0026136565213104534,-0.0021681317133904125,0.013733949563402783,0.9896386431461655
2014-07-25,1,0.0028930870828314205,0.0030740769929600777,-0.0021681317133904125,0.013733949563402783,0.9894089315305675
2014-07-29,1,0.002232210407271102,0.002337805428668283,-0.0021681317133904125,0.013733949563402783,0.9898015953450932
2014-07-31,1,0.0020035810141398897,0.002116562342734521,-0.0021681317133904125,0.013733949563402783,0.9902252483466417
2014-08-04,1,0.0021658276374811377,0.0023137163488156087,-0.0021681317133904125,0.01743784664617739,0.9890690155098925
2014-08-06,1,0.0017431818780295095,0.001833129504134853,-0.0021681317133904125,0.01743784664617739,0.989111814869661
2014-08-08,1,0.0017787065030616116,0.0018641961864938473,-0.001503869526501916,0.01743784664617739,0.9893305317919062
2014-08-12,1,0.00207522933443792,0.002197501890724299,-0.001503869526501916,0.019675753897087207,0.9889159851481343
2014-08-14,1,0.0025701630827583027,0.002707307121849818,-0.001503869526501916,0.012325443921566478,0.9901341098042833
2014-08-18,1,0.003407259574304174,0.003643389354731104,-0.001503869526501916,0.012230648341354951,0.9908433224123239
2014-08-20,1,0.0035495862100738407,0.0037718064043529517,-0.0016600559749755594,0.012230648341354951,0.9909606915964253
2014-08-22,1,0.004246550024146671,0.004625291854667397,-0.003568208354792734,0.008781844265627588,0.9905105211709498
2014-08-26,1,0.004013521304582329,0.004343621747568918,-0.003568208354792734,0.012230648341354951,0.9884360134179433
2014-08-28,1,0.003379634155120418,0.003561209757507463,-0.004678813031638716,0.010966456136246359,0.9878747037659695
2014-09-02,1,0.004477337727105943,0.004870413015575389,-0.007815027599604094,0.007134357178140015,0.9885106956844454
2014-09-04,1,0.0023977519485068846,0.0024019962694057755,-0.008274061088800208,0.007134357178140015,0.9874705916818605
2014-09-08,1,0.002574920839503057,0.002614048573004576,-0.011715467571121296,0.010966456136246359,0.985696621044292
2014-09-10,1,0.0031635300660002525,0.0033305933911965844,-0.013652023469348792,0.007134357178140015,0.9848829376630174
2014-09-12,1,0.003125017735103211,0.0033138238281375746,-0.021060921685715984,0.00423409660398908,0.9825357526676886
2014-09-16,1,0.0037656822644478918,0.004044374057563937,-0.024088715135929757,0.00423409660398908,0.9786832278410411
2014-09-18,1,0.003564829498617858,0.00377960621635087,-0.024088715135929757,0.00423409660398908,0.9785862806265427
2014-09-22,1,0.0029434907849191705,0.0030562889833197623,-0.024088715135929757,0.013490372638012471,0.9780017454422679
2014-09-24,1,0.003231768583450086,0.0033503690888302485,-0.021060921685715984,0.013490372638012471,0.9776182194287523
2014-09-26,1,0.002586335640286098,0.0026094863007807435,-0.024088715135929757,0.02145568113560088,0.9768644089483818
2014-09-30,1,0.0021843305467640034,0.002208424760640055,-0.024088715135929757,0.02145568113560088,0.9767047084845347
2014-10-02,1,0.0008507865493765328,0.0010043608938032217,-0.014736202407928339,0.02145568113560088,0.9781948872771946
2014-10-06,1,0.0011422658800463858,0.0012723794264045546,-0.01467463799678409,0.02000293310781002,0.9786183224424372
2014-10-08,-1,-0.0004656746134918887,-0.00010492924375572494,-0.011352203909644547,0.02571554386308339,0.9779455432572023
2014-10-10,-1,-0.0022596499815824593,-0.0017016526569943909,0.0005000114440917969,0.030914435505962033,0.9773407738914097
2014-10-14,-1,-0.0028302381464176034,-0.0022214394399736573,0.0028330901913889974,0.02571554386308339,0.9798582736882279
2014-10-16,-1,-0.0010301894897386007,-0.0006714924911027352,0.001714506382326857,0.023277354394363924,0.9823191943531027
2014-10-20,1,0.001442975786927154,0.0014813492797867388,0.0,0.01973805817977157,0.9855732187569736
2014-10-22,1,0.002556181527908837,0.0026718083424108014,0.0,0.016179405487702633,0.9879319770549326
2014-10-24,1,0.0025873679446468826,0.0027481273847730896,-0.002520782263955138,0.014411930506434089,0.9884141014037611
2014-10-28,1,0.0032224293286416926,0.003472897640034187,-0.002520782263955138,0.01350517615255664,0.9885619450058428
2014-10-30,1,0.002364848439334436,0.002460580467884279,0.0,0.0207492343431651,0.9853242073590398
2014-11-03,1,0.0019662553832619023,0.00204398412171444,-0.0032615399589059485,0.01651646420883381,0.9848688866036165
2014-11-05,1,0.003379176701525377,0.0035151067504284976,-0.0032615399589059485,0.014775983835969177,0.985888245464338
2014-11-07,1,0.004689730626504875,0.005031914369832488,-0.00741327673868081,0.014775983835969177,0.9859667878129738
2014-11-11,1,0.004926210398460099,0.0053496155406032005,-0.010108829610914033,0.014775983835969177,0.9843964495341626
2014-11-13,1,0.004285085601492911,0.004550905732859324,-0.010680946213645126,0.014775983835969177,0.9836773531800973
2014-11-17,1,0.0040649896758824695,0.004330629748839818,-0.010680946213645126,0.014775983835969177,0.9820490009412
2014-11-19,1,0.003687123894244102,0.0038602452127949266,-0.010680946213645126,0.013877962119673931,0.9823433589084557
2014-11-21,1,0.002624425689554753,0.0026874040550173843,-0.007108155601128233,0.015540217133619371,0.9823559551448852
2014-11-25,1,0.002759674286961188,0.0027951607961971686,-0.007305314374475035,0.0170485873180189,0.9818600111386512
2014-11-28,1,0.005181409913770106,0.00550865113231428,-0.007305314374475035,0.013877962119673931,0.9856868850688625
2014-12-02,1,0.0038707191745843464,0.004031110420861309,-0.006589045557416497,0.013877962119673931,0.9874346413343251
2014-12-04,1,0.0045363573259126315,0.0048026717771332906,-0.007305314374475035,0.012757754443789786,0.9866121909015694
2014-12-08,1,0.004549338839966279,0.004758280513745975,-0.009688481135706955,0.011071269654045557,0.9863076194497301
2014-12-10,1,0.0035411124398439095,0.003618958358055867,-0.009688481135706955,0.011071269654045557,0.986147537998104
2014-12-12,1,0.003859616234110628,0.004060860172390132,-0.00995662363053815,0.009672817606685945,0.9864328989810179
2014-12-16,1,0.0017530622994133855,0.0018160824846216806,-0.01335182338857962,0.009672817606685945,0.9864288192913462
2014-12-18,1,0.002648283871237207,0.002654470056867939,-0.01335182338857962,0.010284658015036644,0.9854157451809256
2014-12-22,1,0.0025654673960282836,0.002623711684022406,-0.01335182338857962,0.015330847560728434,0.9820121074266045
2014-12-24,1,0.0025502308615945914,0.0025991379932795017,-0.01335182338857962,0.013884812718187263,0.9822679392497029
2014-12-29,1,0.0021794496627679356,0.0022962092308683865,-0.01335182338857962,0.013884812718187263,0.9816424580772212
2014-12-31,1,0.0019079410960032852,0.0020557194708352563,-0.016417684659666955,0.01755659736647589,0.9787788488336789
2015-01-05,1,0.0011217553899482862,0.001363957070823406,-0.017213128527887492,0.01755659736647589,0.9781686453304302
2015-01-07,1,0.0010562683107820298,0.0012443290672615513,-0.013865440537055684,0.025617996932273613,0.9781793946794495
2015-01-09,1,0.0011367854628873647,0.001267708573724911,-0.013865440537055684,0.01755659736647589,0.9792388142141447
2015-01-13,1,0.000999292730160577,0.001114741705682524,-0.013865440537055684,0.01755659736647589,0.9792707516256406
2015-01-15,-1,-0.0002944148337076204,-3.4789339113950484e-05,-0.008367307049570078,0.01755659736647589,0.9811168620896923
2015-01-20,1,0.0013545144328764142,0.001428387795554961,-0.012001912169874396,0.01579243940808938,0.9811939467765962
2015-01-22,1,0.00439115155673981,0.004712235569769391,-0.012001912169874396,0.012401037936127193,0.9846416914723249
2015-01-26,1,0.005282838693399655,0.005759704434080888,-0.012001912169874396,0.012707365275183135,0.9842007181502423
2015-01-28,1,0.003920688797832955,0.004176537810320821,-0.014889499845500902,0.012707365275183135,0.9838807031453091
2015-01-30,1,0.003352418126006988,0.003538482401233346,-0.014889499845500902,0.012707365275183135,0.9851277140508669
2015-02-03,1,0.0024163048867089088,0.0025125158839450507,-0.006651883561065122,0.012707365275183135,0.9872388786349351
2015-02-05,1,0.00321598105559282,0.0034134075316938502,-0.009664882483003415,0.006621605308910102,0.987674945594021
2015-02-09,1,0.002422579001362575,0.002549677833443632,-0.007446476240985138,0.006621605308910102,0.9888994691455714
2015-02-11,1,0.002481795071778012,0.0026450402150984356,-0.007059591637647401,0.01631617984001189,0.987758050415103
2015-02-13,1,0.001708236087170302,0.0017227415346857326,-0.010321615523319526,0.02128019373907468,0.9866561360175096
2015-02-18,1,0.0019312750621483785,0.0019573853861097473,-0.010185453493813603,0.016943160249019585,0.9873031799459314
2015-02-20,1,0.002305950537220083,0.0023511849721671416,-0.010185453493813603,0.014977395073907825,0.9877862520171856
2015-02-24,1,0.002312701651744352,0.0023276934584485235,-0.010810276675062375,0.013903227232173318,0.9868406548499494
2015-02-26,1,5.832241101003371e-05,0.0003981593553621923,-0.011670591098732162,0.013903227232173318,0.9868160020271022
2015-03-02,1,0.0003999205962489055,0.0006770814336621082,-0.010810276675062375,0.013903227232173318,0.9872699637924475
2015-03-04,-1,-0.0007952581875812945,-0.0003121103405850133,-0.011670591098732162,0.013903227232173318,0.9864560567781642
2015-03-06,-1,-0.0029968081797805556,-0.0021594476057394236,-0.012658217792462992,0.013903227232173318,0.9851978041231289
2015-03-10,-1,-0.004112532821182362,-0.0030880099331919678,-0.012658217792462992,0.016943160249019585,0.983608571129725
2015-03-12,-1,-0.0017415144946537485,-0.0010827684857307493,-0.012658217792462992,0.009098061288493997,0.9857214884477347
2015-03-16,-1,-0.0004912967062126602,-8.419144512181761e-05,-0.012658217792462992,0.0064844929800285675,0.9867875757371386
2015-03-18,0,-0.00021517927293560968,0.00011420657730452325,-0.013890010768792437,0.0064844929800285675,0.9867909445871872
2015-03-20,1,3.423203208348803e-05,0.00034548069820041513,-0.013890010768792437,0.0064844929800285675,0.9859043991572829
2015-03-24,-1,-0.000921421754887633,-0.0005275614527911004,-0.012658217792462992,0.008032950903279414,0.986972057667851
2015-03-26,-1,-0.002635914173132017,-0.0020088557080712296,-0.007432564091525895,0.00919886674496125,0.987876478805142
2015-03-30,-1,-0.0011146533631803076,-0.0007169048932966428,-0.011560371599014923,0.006832088103735736,0.9879403877106807
2015-04-01,-1,-0.0015630409699675266,-0.0011657472222604312,-0.011560371599014923,0.006832088103735736,0.9876670409580969
2015-04-06,-1,-0.0026862936662047383,-0.0022161524065962973,-0.009864733904981436,0.00919886674496125,0.986811095274981
2015-04-08,-1,-0.0007509433863569071,-0.000535216907717947,-0.011871552857380067,0.008745660555644998,0.9869790722530858
2015-04-10,-1,-0.0009986354806280975,-0.0007554702320259045,-0.011871552857380067,0.009877621194239397,0.9842373161433374
2015-04-14,-1,-0.001433193524585522,-0.001124174629242896,-0.015592331467947947,0.009877621194239397,0.9835700669366728
2015-04-16,-1,-0.001652389954852015,-0.001323187217791828,-0.01794275648436093,0.012770463408717828,0.9826391657444215
2015-04-20,-1,-0.0021154348031475418,-0.0016657618586538346,-0.01794275648436093,0.009877621194239397,0.9836146314968925
2015-04-22,-1,-0.0016950501519523758,-0.0013271373615936276,-0.022628581830353697,0.008868791026205327,0.9786171007468272
2015-04-24,1,0.00013944921071171556,0.00017937542173399488,-0.022628581830353697,0.0066349174881683935,0.9783076247201938
2015-04-28,-1,-0.0019135317766341858,-0.001576901649940234,-0.022628581830353697,0.011625735844283537,0.9781725096342166
2015-04-30,-1,-0.0026170559313200624,-0.0022341970724297313,-0.019355093272180927,0.011625735844283537,0.9790840528424694
2015-05-04,-1,-0.0011702584075326855,-0.0009906809714549966,-0.019222810539482695,0.011625735844283537,0.981034870353032
2015-05-06,-1,-0.0023327172470130643,-0.0019736125958344274,-0.012428036045198416,0.010038941199451454,0.9826072828246684
2015-05-08,-1,-0.00038247894704158703,-0.00025327606594687007,-0.019222810539482695,0.0022986898386116775,0.9834866460480501
2015-05-12,-1,-0.0023707884642083787,-0.0019187841758022686,-0.023229326793237803,0.0022986898386116775,0.9830860554316495
2015-05-14,-1,-0.001533078157118022,-0.0012500297821674343,-0.013786255700244505,0.006105985939891033,0.9840107104266907
2015-05-18,-1,-0.0012699073302682828,-0.001039926349862454,-0.023190057499885612,0.0024366642329647493,0.9830821471412152
2015-05-20,-1,-0.0060439444119169735,-0.0052732882114829675,-0.010104768467539531,0.0024366642329647493,0.9887707784402265
2015-05-22,-1,-0.005301378159681647,-0.0046325514229321576,-0.008793243790685022,0.00760404815757427,0.9876220141977773
2015-05-27,-1,-0.004678681047953299,-0.004091204238592283,-0.007035878595727579,0.006704155314371099,0.9900974408204198
2015-05-29,-1,-0.004982063304868105,-0.004331573601862929,-0.007035878595727579,0.004871062130779751,0.9901920750311702
2015-06-02,-1,-0.004427194649543009,-0.0038274647487234028,-0.008793243790685022,0.0014622187743606554,0.9902089704776363
2015-06-04,-1,-0.0050661236743389446,-0.004380618701223507,-0.009693051230472484,0.0014622187743606554,0.9900536164415282
2015-06-08,-1,-0.006414848524931979,-0.005559859203853988,-0.007035878595727579,0.00760404815757427,0.9891180596539757
2015-06-10,-1,-0.008267375260519403,-0.007145695493887723,-0.007035878595727579,0.00760404815757427,0.9884714431564201
2015-06-12,-1,-0.006790389877849636,-0.005927011045868942,-0.007035878595727579,0.00636628622551017,0.9877116453142153
2015-06-16,-1,-0.005313382412387438,-0.004799102022027341,-0.005205814350578034,0.00636628622551017,0.9885179811682809
2015-06-18,-1,-0.004455469572410985,-0.00409179845761074,-0.005205814350578034,0.01085020537421112,0.987519286445249
2015-06-22,-1,-0.003845424567964591,-0.003526820060621477,-0.006189978176484477,0.006998222769281663,0.9882313693525031
2015-06-24,-1,-0.004551057893369253,-0.004142822075919061,-0.003761392901076327,0.011696794536741995,0.9853572815866734
2015-06-26,-1,-0.00495372813651847,-0.004439650729795896,-0.005765594271979429,0.011696794536741995,0.9835740687164133
2015-06-30,-1,-0.0052670609522436195,-0.0047840251910586384,-0.005765594271979429,0.01285788868227392,0.9828177611733829
2015-07-02,-1,-0.006195904533502545,-0.005562253048989617,-0.002304667802035022,0.0167870154749743,0.9814568101035048
2015-07-07,-1,-0.004851588310122582,-0.004383236873086395,-0.002304667802035022,0.01993234052093375,0.9811740674265491
2015-07-09,-1,-0.005485393355560423,-0.004955206397278205,-0.002075127190400675,0.01993234052093375,0.9822126603340382
2015-07-13,-1,-0.003795174154850083,-0.003481734107907912,-0.0023408633259671793,0.013649810813326195,0.9851278533203893
2015-07-15,-1,-0.002726828242340824,-0.0025914168153568238,-0.0023408633259671793,0.016103205675057436,0.9844612087325924
2015-07-17,-1,-0.0014524927446238577,-0.001401458739234022,-0.0023408633259671793,0.01262995208230163,0.9853094097584764
2015-07-21,-1,-0.0017285882827924723,-0.0016990377230766856,-0.0023408633259671793,0.016872764327860057,0.9847271890486785
2015-07-23,-1,-0.0006154654242281051,-0.00047792630490861923,-0.003792872491933753,0.011764472605100426,0.9857098284844573
2015-07-27,-1,-0.0011019736989187354,-0.0010182160545805707,-0.00616921116252372,0.011764472605100426,0.9854546972123238
2015-07-29,-1,-0.0009678966407550324,-0.0009143063846749669,-0.00616921116252372,0.011764472605100426,0.9854650620281227
2015-07-31,-1,-0.00016139633688614204,-4.214354843018789e-06,-0.00616921116252372,0.010170306980075164,0.9864605461436274
2015-08-04,1,0.002240809262776613,0.0028153986205907595,-0.009643634333983086,0.007708582434095794,0.9875024756282792
2015-08-06,1,0.0023546975435955746,0.0029686503632935153,-0.009643634333983086,0.008758431702653537,0.9857238042423563
2015-08-10,1,0.0024669913010428417,0.0030985420790392163,-0.009643634333983086,0.011276598426385979,0.9848807478654533
2015-08-12,1,0.0038743697210881643,0.004735359884526772,-0.009643634333983086,0.008124999284490288,0.9853888786486671
2015-08-14,1,0.003981497114357496,0.0047940172840975435,-0.009643634333983086,0.006992613443130449,0.9855553770290356
2015-08-18,1,0.0038486928408057518,0.004577326331117189,-0.009643634333983086,0.006244539073174965,0.9869450766688425
2015-08-20,1,0.003464559482615858,0.004206600791106584,-0.008082267094854614,0.006767828179038908,0.9885563220756143
2015-08-24,1,0.0016871635016236198,0.0021442498896598605,-0.006143509760791624,0.006767828179038908,0.9896068880985724
2015-08-26,1,0.0013264804666755252,0.0016360542350777937,-0.006143509760791624,0.006767828179038908,0.990735445857654
2015-08-28,1,0.0018453088769143462,0.0023194366165107646,-0.008082267094854614,0.006767828179038908,0.9901567342599562
2015-09-01,1,0.0013530139619034388,0.0017570900866848845,-0.0030459944231676444,0.00864466481782386,0.990749076361292
2015-09-03,1,0.0021475112668588626,0.002649516494776988,-0.0021419303693320166,0.00864466481782386,0.9925033673565382
2015-09-08,1,0.002841474630343817,0.0034242901054121226,-0.0021419303693320166,0.00864466481782386,0.9911645647490296
2015-09-10,1,0.0031834191435438914,0.0038385909260761322,-0.0021419303693320166,0.008903992035895493,0.9905160117739424
2015-09-14,1,0.0038937867835703243,0.004654062686953507,-0.0021419303693320166,0.009597261001811106,0.9881605237804042
2015-09-16,1,0.00437447797101383,0.005229799930250534,-0.004136178436902742,0.009597261001811106,0.9875501156317169
2015-09-18,1,0.003980399092491042,0.00470805282080735,-0.009934888534519402,0.009743520601907515,0.9867097208557414
2015-09-22,1,0.0022549499569833346,0.0026892271782957755,-0.0039978921909719495,0.012016814073806248,0.9874514170742699
2015-09-24,1,0.0029776029391821706,0.0035679392608893978,-0.0036260095154902533,0.01925228211642508,0.9844801459888529
2015-09-28,1,0.002024174122524396,0.002454902014117217,-0.0007385786169544772,0.021710119313614235,0.983897369287048
2015-09-30,1,0.0035201176714111343,0.004252291753763368,-0.0026283098780208393,0.021710119313614235,0.9840047340357307
2015-10-02,1,0.0036319606852097805,0.0043414671207086634,-0.0026283098780208393,0.021710119313614235,0.9839505783102238
2015-10-06,1,0.0030311080955398905,0.0036647717707781148,-0.0008732202905958489,0.01925228211642508,0.986233423231679
2015-10-08,1,0.004027165297939873,0.004795571936407387,-0.0026283098780208393,0.01419339147867007,0.9866351329114297
2015-10-12,1,0.003497996301376362,0.003932689140767453,-0.0066194471370863775,0.009910156508610522,0.9883970498397366
2015-10-14,1,0.003103735077689317,0.0035077774404690333,-0.0026283098780208393,0.009910156508610522,0.9889740233914555
2015-10-16,1,0.002996713821989543,0.003405139721535148,-0.0026283098780208393,0.00985539283512941,0.9890710533538469
2015-10-20,1,0.0034582744875717476,0.003920745004955315,-0.004090100855222442,0.009201968303381138,0.9897968380246978
2015-10-22,1,0.005680513931511814,0.006462734742728646,-0.0018068451783150202,0.009201968303381138,0.9929786813814578
2015-10-26,1,0.006275670635796995,0.007097262716559572,-0.0018068451783150202,0.008462323344929473,0.99368449982091
2015-10-28,1,0.004985342267027239,0.005573361402835188,-0.00415505303796892,0.008462323344929473,0.9928544165913852
2015-10-30,1,0.0045979807638911446,0.005056299418809647,-0.00415505303796892,0.00492918960140503,0.9928878608337451
2015-11-03,1,0.005347249953944873,0.0059264687383308885,-0.00415505303796892,0.006265564117214387,0.9915975905882357
2015-11-05,1,0.004363498114682237,0.004744993131419364,-0.003609114528645903,0.008605372261028248,0.990303482432661
2015-11-09,1,0.003896374548196484,0.00421727667521619,-0.003609114528645903,0.008605372261028248,0.9864272393851471
2015-11-11,1,0.0040280528172798626,0.0044024778008180734,-0.005365614364441569,0.009698640769296338,0.985183287595336
2015-11-13,1,0.0028972201155944705,0.003092420479452208,-0.005365614364441569,0.009698640769296338,0.9840913026410426
2015-11-17,1,0.002664694849038504,0.002813401984017059,-0.005365614364441569,0.010733865678940798,0.9835328507588488
2015-11-19,1,0.002618649996356633,0.0026823151958060253,-0.013416273332331169,0.010063838873945245,0.9817024551689622
2015-11-23,1,0.0023729061150615936,0.0023732197698155895,-0.013416273332331169,0.010989821731474968,0.9813866472646192
2015-11-25,1,0.0014701321025206997,0.0015385399169264122,-0.006470252958442905,0.011221087200147736,0.9825690803681425
2015-11-30,1,0.0008997920373196033,0.0010926850696558136,-0.006470252958442905,0.012179101482150151,0.9820153167821116
2015-12-02,1,0.0017942733657528441,0.0018409083756738606,-0.013416273332331169,0.010908723768776064,0.9820545827796948
2015-12-04,1,0.0030243833180319804,0.0031472492669039807,-0.018854630328004062,0.010908723768776064,0.9826722464100566
2015-12-08,-1,-0.00028636930787656134,-3.0303657464208263e-05,-0.018523615474408717,0.010908723768776064,0.9858800974444082
2015-12-10,1,0.00047868427540974075,0.0006421635576560898,-0.018523615474408717,0.010358120206102491,0.9867382797868709
2015-12-14,-1,-0.0002567983526137374,-1.8744719501428498e-05,-0.018523615474408717,0.010908723768776064,0.9857968545662084
2015-12-16,0,-5.66626393827262e-05,0.0001799283897046558,-0.018523615474408717,0.00953617233822352,0.9860011785403798
2015-12-18,-1,-0.0016500966767164496,-0.001243450022861625,-0.010005999292289253,0.00953617233822352,0.9879216139330931
2015-12-22,-1,-0.0005752098224585351,-0.00032206211530742726,-0.01381786622722506,0.006944636155222284,0.9878305703783369
2015-12-24,1,7.652230146088689e-05,0.0002016870450200629,-0.01810078626101494,0.005366262143376994,0.9870641256890875
2015-12-29,1,0.0002488001717338552,0.00036727950359810775,-0.02133446277028967,0.0046099298274379155,0.9848584784444144
2015-12-31,-1,-0.000782868357870717,-0.000533774286038989,-0.020635462691876407,0.006944636155222284,0.98368565556944
2016-01-05,-1,-0.0008960890556516892,-0.0006724449429804622,-0.020635462691876407,0.006944636155222284,0.9826839167591649
2016-01-07,-1,-0.0011989913930530271,-0.0009592288808879347,-0.02242133544310155,0.007184684673091132,0.98085928899944
2016-01-11,-1,-0.000857412041624021,-0.0006745986569663282,-0.027420542029286198,0.011414866904337677,0.9792534233173773
2016-01-13,-1,-0.003078069093768867,-0.0025884685494343244,-0.022179203145665315,0.008706556069641384,0.9822410402410645
2016-01-15,-1,-0.0038556419811703727,-0.0032066757996601393,-0.022179203145665315,0.016034049255560113,0.9806250736793085
2016-01-20,-1,-0.004328013620427715,-0.003635075917481359,-0.022179203145665315,0.01857415615607566,0.9779784430410446
2016-01-22,-1,-0.004903213095900588,-0.004123385597757856,-0.022179203145665315,0.020249081466674288,0.9761026382285548
2016-01-26,-1,-0.0056160861675993105,-0.0047204942500333885,-0.011015214935509023,0.020249081466674288,0.9760054676967539
2016-01-28,-1,-0.007455086513185702,-0.006381761336209704,0.003370238514928789,0.023750842339525482,0.97538369384155
2016-02-01,-1,-0.004879882659432384,-0.004139251383521844,-0.00531955904069725,0.020249081466674288,0.9789421507806061
2016-02-03,-1,-0.0059915142775762605,-0.0051267684194286865,-0.00531955904069725,0.020249081466674288,0.9805348268453719
2016-02-05,-1,-0.007029762487285437,-0.006069922885092873,-0.00531955904069725,0.017243408718491747,0.9827236622202392
2016-02-09,-1,-0.006906070787216409,-0.005971552883210439,-0.0016656834581416646,0.018958916636549916,0.9831702576548018
2016-02-11,-1,-0.006574996092137359,-0.005694160820175057,-0.0007159045151127808,0.02371399208024749,0.9823333349541848
2016-02-16,-1,-0.005591545056500762,-0.00477091814873625,-0.0022043872305338484,0.014221192153676203,0.9849905769581904
2016-02-18,-1,-0.003917666715906917,-0.003295858761528701,-0.00472733696148797,0.012390544076307835,0.9875144594470131
2016-02-22,-1,-0.002943169504861564,-0.0023983511935370544,-0.00472733696148797,0.012390544076307835,0.9885646342308608
2016-02-24,-1,-0.0022605923938134823,-0.0018195906616549518,-0.0060242744142185905,0.012390544076307835,0.989227118357326
2016-02-26,-1,-0.0016591789561022858,-0.0013026454938417304,-0.006337481068294791,0.011518996687097556,0.9906999119380688
2016-03-01,-1,-0.0018001062377269,-0.0013936321516330814,-0.006337481068294791,0.011518996687097556,0.9901472645203853
2016-03-03,-1,-0.001674561802311852,-0.0013243336269062754,-0.005436341604007645,0.011518996687097556,0.9905834538296853
2016-03-07,-1,-0.0009786385087453232,-0.0008079215994046818,-0.006337481068294791,0.011518996687097556,0.9901531930568431
2016-03-09,-1,-0.0005732559686726538,-0.0004265657713622793,-0.006337481068294791,0.011085583359506946,0.9910711237052178
2016-03-11,0,-1.430895484936601e-06,9.123993378458076e-05,-0.006337481068294791,0.011085583359506946,0.9911524322776016
2016-03-15,1,0.0005233931499509605,0.0005248252735244621,-0.006337481068294791,0.011296067628810212,0.9902259384777183
2016-03-17,1,0.0015077198257803918,0.0017587094583955153,-0.005436341604007645,0.012994805348301205,0.990264182102482
2016-03-21,1,0.0030987738012051903,0.003628526356606839,-0.005436341604007645,0.007202803501008946,0.9912020250563914
2016-03-23,1,0.0025427647247872527,0.002981343103718917,-0.0043406128614232355,0.009325547384057938,0.991438972514969
2016-03-28,1,0.0022902083395597273,0.0027219614661008903,-0.0043406128614232355,0.009325547384057938,0.9912637663099196
2016-03-30,1,0.0034223218443003387,0.004036674038353374,-0.008863370244971969,0.006499198533727642,0.990297302549078
2016-04-01,1,0.003163995821082707,0.0037350547517783182,-0.010067109045869493,0.008419420769779631,0.988971077971166
2016-04-05,1,0.0023455422680347393,0.0027943492516325085,-0.010844717674731191,0.008419420769779631,0.9885736013876723
2016-04-07,1,0.0025035858262824964,0.0029911291839034423,-0.013269383507262042,0.008419420769779631,0.9866920367495414
2016-04-11,1,0.0025938217657572485,0.0030566692583685927,-0.013269383507262042,0.008054486469057378,0.9872641206437882
2016-04-13,1,0.003852360590011758,0.004486470133357706,-0.01366269316044683,0.008054486469057378,0.9866665450179096
2016-04-15,1,0.004994338449464663,0.005821271624522135,-0.015043065342383916,0.005673967380236275,0.9855815348110069
2016-04-19,1,0.005213458864822092,0.006092475892664598,-0.015043065342383916,0.008942125627258348,0.9851617998909219
2016-04-21,1,0.0050946525842717515,0.0058927332738341115,-0.01707966991731272,0.008942125627258348,0.9843425976211329
2016-04-25,1,0.00443594307206003,0.005150644684770497,-0.01707966991731272,0.008942125627258348,0.9855230293979962
2016-04-27,1,0.003971431043287708,0.004680375760177002,-0.01707966991731272,0.011388157150439006,0.9864699255180117
2016-04-29,1,0.004272727331732884,0.005103235917937174,-0.01707966991731272,0.011497860447272652,0.987195251567467
2016-05-03,1,0.0018580519339790975,0.0022076113810602137,-0.008985415182431865,0.011497860447272652,0.9892071727180012
2016-05-05,1,0.0008934921019377162,0.0011384587088578198,-0.009368942759064233,0.011497860447272652,0.9900652920368487
2016-05-09,1,0.000937498389188091,0.0011271491178135532,-0.009368942759064233,0.013185763508401649,0.9891943898333188
2016-05-11,1,0.0012702680154826533,0.0015558754060055293,-0.006905756682951469,0.013185763508401649,0.9897266586097818
2016-05-13,1,2.2679102369463483e-05,4.248116412494471e-05,-0.009368942759064233,0.013185763508401649,0.9885354748716128
2016-05-17,1,0.0009528152936030934,0.0011394151544722466,-0.011704990658812121,0.010718259218202778,0.9868175113052637
2016-05-19,1,0.0011108816502596723,0.0013361599713904082,-0.009368942759064233,0.0051535875498436474,0.9881109136801107
2016-05-23,1,0.001385952220583605,0.0016715189687105917,-0.009368942759064233,0.010611254153350212,0.9873969180851935
2016-05-25,1,0.0010641142552336226,0.0012431044481773356,-0.011704990658812121,0.007780263638666731,0.9870733194265495
2016-05-27,1,0.00069941226418182,0.0007998902107602202,-0.013664817455059883,0.004419090581302473,0.984895381895525
2016-06-01,1,0.0005843852579231371,0.0006410889113920132,-0.013664817455059883,0.010611254153350212,0.9823576334004103
2016-06-03,-1,-0.00010020109329079174,-7.536753596778076e-05,-0.013664817455059883,0.010611254153350212,0.9824842264399952
2016-06-07,1,0.0001810705599032591,0.0002488639126755194,-0.013664817455059883,0.009955758811180755,0.9835155641363228
2016-06-09,1,0.0008559559746821403,0.0008693916643589903,-0.013664817455059883,0.01058325842024071,0.9829485093296971
2016-06-13,-1,-0.001516540810467599,-0.001193492955583195,-0.007274595241765458,0.01369906296517698,0.9825434800339008
2016-06-15,-1,-0.003812261936913537,-0.003203312243913714,-0.007274595241765458,0.017526319072333492,0.9834215893205942
2016-06-17,-1,-0.00435073709036193,-0.0036517177447013237,-0.007274595241765458,0.017526319072333492,0.9830423041846079
2016-06-21,-1,-0.00501001354379418,-0.004121904576170888,-0.0103663218758016,0.017526319072333492,0.9834906382419374
2016-06-23,-1,-0.004165858667742807,-0.0035082953537196792,-0.0103663218758016,0.017526319072333492,0.9787718293663995
2016-06-27,-1,-0.007529618131642494,-0.0064155653937510845,-0.009954038082236773,0.01817682009019193,0.9790849607231148
2016-06-29,-1,-0.005871716034149365,-0.0049078983249710734,-0.0103663218758016,0.014577987385745957,0.9819415005268698
2016-07-01,-1,-0.005415482863218633,-0.004494728614821759,-0.011058935346390453,0.014577987385745957,0.9827945079143241
2016-07-06,-1,-0.0055515753206824905,-0.004462490621149173,-0.012313432067949982,0.014577987385745957,0.9808298771809975
2016-07-08,-1,-0.0032225595801406636,-0.0024908080696434782,-0.012313432067949982,0.01401176064952041,0.9801757188810715
2016-07-12,1,0.00026474757801656426,0.00048739163235945245,-0.012313432067949982,0.010591430155871615,0.9825677040398112
2016-07-14,1,0.001443446852290256,0.001450666851255549,-0.012454687225422555,0.007460609688641026,0.9825395007758275
2016-07-18,1,0.0015795175275001303,0.00161945103930345,-0.01344792118808713,0.00963942431800584,0.9812319278735689
2016-07-20,1,0.0009392818593258129,0.0009451043161513729,-0.012454687225422555,0.00963942431800584,0.9818828261692446
2016-07-22,-1,-0.0003603776985216331,-0.00021799438348871984,-0.012454687225422555,0.009168739979290762,0.9869038122540602
2016-07-26,0,-2.529298282001038e-05,0.00010227415149453698,-0.01234408551187532,0.009168739979290762,0.9880297179283921
2016-07-28,-1,-0.0011736600483484043,-0.0008913324515181071,-0.010995119952051222,0.009168739979290762,0.9889666851637126
2016-08-01,-1,-0.0014683859534479035,-0.0011959840828811368,-0.010787781583621512,0.009168739979290762,0.9887407166188168
2016-08-03,-1,-0.0015087061084699226,-0.0012670455173248597,-0.00996304632980792,0.009241474825452909,0.989789519978975
2016-08-05,1,0.000844283223545125,0.0008946355954794216,-0.00996304632980792,0.0071186724655932475,0.991586557284976
2016-08-09,1,0.0005526930764011805,0.0005623219410075716,-0.008491976365557066,0.00840822797184938,0.9898714911025279
2016-08-11,1,0.000508497028686881,0.0005961057721826904,-0.008491976365557066,0.00840822797184938,0.988962158916427
2016-08-15,-1,-3.766418592005756e-05,-3.6206989545149535e-05,-0.008491976365557066,0.00840822797184938,0.9888374788248103
2016-08-17,-1,-0.00033802202334926967,-0.00027820109973713945,-0.008071006231480354,0.005771825775682322,0.9891887682026209
2016-08-19,-1,-0.00020269595336205385,-0.00019597667002759625,-0.008071006231480354,0.005771825775682322,0.9891336614610091
2016-08-23,-1,-3.9394667680228355e-05,-2.6658021447195705e-05,-0.008071006231480354,0.004294473856923339,0.9895172345526949
2016-08-25,-1,-0.00019272364393721348,-0.0001355831790679342,-0.008071006231480354,0.005771825775682322,0.9889188553401623
2016-08-29,-1,-0.0006187498752054315,-0.0005264363521141778,-0.008071006231480354,0.00899397640045935,0.9869620081940372
2016-08-31,1,0.0004400492433322586,0.0004933538644543619,-0.00854204963132744,0.005103512124913424,0.9878181335604156
2016-09-02,1,0.0009304926527166469,0.0011340242906986197,-0.00854204963132744,0.011748021656364597,0.986869917166354
2016-09-07,1,0.0033945841316207637,0.003981208249558198,-0.010155163406250382,0.005898547945720196,0.9881200558851756
2016-09-09,1,0.002694729235911269,0.0031784829142333907,-0.010155163406250382,0.005898547945720196,0.9892577711530872
2016-09-13,1,0.0030218421874444934,0.0035770383061213065,-0.00854204963132744,0.005898547945720196,0.9890417328948489
2016-09-15,1,0.002625894808823907,0.00309027852167664,-0.004292106756014758,0.013383577865521263,0.9880857942714288
2016-09-19,1,0.002011565158720234,0.0023307834401442252,-0.002054778701290007,0.013383577865521263,0.9883497818407653
2016-09-21,1,0.0018553483598518464,0.002123101802030099,-0.002054778701290007,0.015105977252144236,0.9874226857543965
2016-09-23,1,0.001627556663917634,0.001785856262169448,-0.0016331731805090028,0.015105977252144236,0.9879148387884142
2016-09-27,1,0.002508103900626477,0.002713679594151906,-0.002041242077993064,0.011420818658143959,0.9897849383246349
2016-09-29,1,0.0017946365873522262,0.0020175826005783912,-0.002041242077993064,0.015105977252144236,0.9854188430393183
2016-10-03,1,0.00331346503373434,0.0037332859457040275,-0.002041242077993064,0.011420818658143959,0.9858322162056197
2016-10-05,1,0.0023968286216394965,0.0026677650419240826,-0.002041242077993064,0.011420818658143959,0.9862323582936701
2016-10-07,1,0.002081079978321234,0.0023419839985373845,-0.0018070940064352189,0.014538829992270097,0.9865640234276084
2016-10-11,1,0.0033352629216826745,0.003765542797276925,-0.0018070940064352189,0.014538829992270097,0.9866108212120884
2016-10-13,1,0.004833418788136892,0.005455166410523262,-0.0018070940064352189,0.014538829992270097,0.9865188575557243
2016-10-17,1,0.0046727473943850295,0.0052898140399573,-0.0015878414893724171,0.01831510390156424,0.9857326563920299
2016-10-19,1,0.005465047081858809,0.006162155505550519,-0.0019122756548963214,0.020353010249547818,0.9850040762363402
2016-10-21,1,0.005567322429566028,0.006280095857893145,-0.0019122756548963214,0.020353010249547818,0.9846711735628805
2016-10-25,1,0.004588378377740902,0.005121357412635211,-0.0015878414893724171,0.020353010249547818,0.9849135916771947
2016-10-27,1,0.0036793376487953594,0.004169820608580541,0.0008843817352494952,0.01870188079301402,0.9896277369300372
2016-10-31,1,0.004915841953386188,0.00562566407894261,0.0006653966776400613,0.017426506781639498,0.99051858422153
2016-11-02,1,0.0035615835917572882,0.003994823305051919,0.0016354611242536546,0.017426506781639498,0.9899063426834727
2016-11-04,1,0.0033107333347637603,0.0036016118209264776,-0.00026605449775874237,0.01796447739795535,0.9887407275026144
2016-11-08,1,0.004457084590087782,0.004878526963787319,-0.00026605449775874237,0.01796447739795535,0.9881632705508027
2016-11-10,1,0.006215101166499759,0.006897988156069406,-0.005133761441768214,0.014181017638375773,0.9892040430945865
2016-11-14,1,0.006904202934751866,0.007615310386076515,-0.005590489962073272,0.010641689066010571,0.9895784433489956
2016-11-16,1,0.005818449073353906,0.006240234035050104,-0.005459265496086318,0.010641689066010571,0.9896080475274269
2016-11-18,1,0.00789784883921658,0.00870197317293216,-0.005590489962073272,0.008776081578749005,0.9885107076915803
2016-11-22,1,0.007880300491590974,0.00870880673735519,-0.005559845557828071,0.010083066276381471,0.9885739433296211
2016-11-25,1,0.007479306474533178,0.00821217822482934,-0.006393513744869179,0.010083066276381471,0.988125296758211
2016-11-29,1,0.007598651832152181,0.008421796475462207,-0.006727809626424878,0.010083066276381471,0.9880642639626643
2016-12-01,1,0.00849785839044247,0.009565282768676058,-0.006546300189640523,0.008990040829834803,0.9876613880406385
2016-12-05,1,0.008498744965786653,0.009573018531696991,-0.005671277518346637,0.008990040829834803,0.9882366689451723
2016-12-07,1,0.010676479300995263,0.012026549423585997,-0.007352836227228068,0.0038680495471182805,0.9862100584945872
2016-12-09,1,0.009495963130159886,0.010612932338630456,-0.007352836227228068,0.007660699755899069,0.9876546013630915
2016-12-13,1,0.007299482531051691,0.00810337582152219,-0.007352836227228068,0.007660699755899069,0.9888398609118455
2016-12-15,1,0.007807085794777819,0.008696521889726496,-0.008597884223804532,0.006819477903232367,0.9885332454794166
2016-12-19,1,0.006945156856077552,0.00765299998479142,-0.007352836227228068,0.004640715891200176,0.9891997014061318
2016-12-21,1,0.00647550305126825,0.007078141560839257,-0.008597884223804532,0.004640715891200176,0.988166712135321
2016-12-23,1,0.005363528714968496,0.005725259201811329,-0.008053355913451469,0.0037623622590979558,0.9884456852813508
2016-12-28,1,0.005299583716558837,0.005791727516871881,-0.011265691109718604,0.006819477903232367,0.9838419753499522
2016-12-30,1,0.0045348849659504475,0.004884261876921747,-0.011265691109718604,0.006819477903232367,0.9840643705109464
2017-01-04,1,0.005192686628595468,0.005605528481223558,-0.011265691109718604,0.006819477903232367,0.9846982393064666
2017-01-06,1,0.003629454448886367,0.003802592387814231,-0.006275299294018998,0.006819477903232367,0.9867481912480179
2017-01-10,1,0.00428546021008618,0.004528297345014726,-0.006275299294018998,0.0029882126726736326,0.9868557570298853
2017-01-12,1,0.0033460910952462153,0.003411444041060653,-0.005893498486260393,0.0035119545235327496,0.9870250440756133
2017-01-17,1,0.002596949823763561,0.002619571165972478,-0.005893498486260393,0.004702016685226654,0.9870026729651744
2017-01-19,1,0.002012453339262514,0.0021034047013915322,-0.006015535241203922,0.010682708414108372,0.9849933931021378
2017-01-23,1,0.0012627137058709536,0.0014673965027695067,-0.004321855042646634,0.011414204423206958,0.9860320428660423
2017-01-25,1,0.0007962685112026516,0.0010514225887350319,-0.003357223777023695,0.011414204423206958,0.9860225549408103
2017-01-27,1,0.002915828889842684,0.0029286502768385812,-0.001974924384656983,0.011414204423206958,0.9901769049572308
2017-01-31,1,0.0034496249953183842,0.0035909504258150996,-0.001974924384656983,0.017706728937080925,0.9894446122122049
2017-02-02,1,0.0024448907616111595,0.0025225174255994374,-0.0035809471651471066,0.01865411326510625,0.9875062021788519
2017-02-06,1,0.00211816581843571,0.0022506617202020813,-0.010892698009796831,0.01865411326510625,0.9857851451650366
2017-02-08,1,0.0015231266617057476,0.0017350118965233276,-0.010892698009796831,0.01865411326510625,0.9856141705829328
2017-02-10,1,0.002147954945651613,0.0023141452253426435,-0.011588857499249875,0.017706728937080925,0.9851084873816344
2017-02-14,1,0.0022315323165065645,0.0023988160899627046,-0.013657385975054562,0.017717075526395728,0.9836295760170698
2017-02-16,1,0.0025591376501010194,0.002694466074327913,-0.013990114093264512,0.011414204423206958,0.9848094080457407
2017-02-21,1,0.003949546056781222,0.004045704480096369,-0.018956492900512035,0.0019173825539980315,0.9835001843017246
2017-02-23,1,0.0025771905151890143,0.0026944494824755936,-0.018956492900512035,0.006602730641172049,0.9843052440264443
2017-02-27,1,0.00396366902080404,0.0040946544583342955,-0.018956492900512035,0.00509085712472962,0.9848698222278841
2017-03-01,1,0.003336026660131817,0.0033463253158515106,-0.018956492900512035,0.00509085712472962,0.9846062606415396
2017-03-03,1,0.002507122271758725,0.002664522255968292,-0.014304830364506398,0.00509085712472962,0.9866829451925098
2017-03-07,1,0.0013835359802771927,0.0016155253538320193,-0.0141320808076602,0.00509085712472962,0.9878250420455399
2017-03-09,1,0.001440730939014808,0.0015910761697765588,-0.0141320808076602,0.005168091485164296,0.9881061668524065
2017-03-13,-1,-0.0005200825747093986,-0.00011243910826600379,-0.007675943719968445,0.005593157013811302,0.9885823207655104
2017-03-15,1,1.446733713575724e-05,0.0003172725235539022,-0.0034008612976178317,0.0069516207682342075,0.9901805016886843
2017-03-17,-1,-0.0010997752672522033,-0.0006696327736155478,-0.0027535087529370443,0.00770515012501826,0.989514910814482
2017-03-21,-1,-0.002844786656680817,-0.0021706163640438933,-0.0026573247755386892,0.00770515012501826,0.9901128791320306
2017-03-23,-1,-0.0037999786439198158,-0.0029089142775021396,-0.005541730536890176,0.00770515012501826,0.9891704523939151
2017-03-27,-1,-0.0032411009592783636,-0.002438463936605925,-0.005541730536890176,0.011830814996551305,0.9885333843758698
2017-03-29,-1,-0.0036023865820711968,-0.002722697068324869,-0.005541730536890176,0.008784965389954462,0.9893990881657585
2017-03-31,-1,-0.003148862478411025,-0.0023581775940274274,-0.005541730536890176,0.008978216773231379,0.9893125389308349
2017-04-04,-1,-0.003256058430176577,-0.0025088798723217213,-0.0035564925747457042,0.011830814996551305,0.9883487787555421
2017-04-06,-1,-0.002299046876736919,-0.0017295011966242965,-0.0035564925747457042,0.011830814996551305,0.9886872226796919
2017-04-10,-1,-0.0010320654930298673,-0.0006886278904157401,-0.0035564925747457042,0.011445459017995428,0.9888184496078445
2017-04-12,-1,-0.0005094767896495622,-0.00022554485051323324,-0.004968350892388979,0.008978216773231379,0.9898263519177053
2017-04-17,-1,-0.0003091688900938083,-9.226828952284011e-05,-0.004968350892388979,0.011445459017995428,0.9898275342274315
2017-04-19,-1,-0.0007482033139808409,-0.00046652168019669835,-0.005027569640805229,0.011445459017995428,0.9890195295498693
2017-04-21,0,-0.00011264148588718489,8.187312622537975e-05,-0.0033851056093840556,0.011238813617984858,0.9896746873935974
2017-04-25,1,0.00040490971222074447,0.0005554650590013708,-0.0033851056093840556,0.012437807703210454,0.9897359597165547
2017-04-27,-1,-0.000643140281621205,-0.00035968693086746277,-0.0014831180114528804,0.013297935119238468,0.9894520447481279
2017-05-01,-1,-0.0007544540701870314,-0.0004381533684462744,-0.004277048034213055,0.013297935119238468,0.9888696656270887
2017-05-03,1,0.0016433690097246228,0.0017319208435698005,-0.004277048034213055,0.012437807703210454,0.9905457116997033
2017-05-05,1,0.0014970736009521847,0.0015430439806604147,-0.004277048034213055,0.012437807703210454,0.9901427200112015
2017-05-09,1,0.001181225516040158,0.0011912216119272282,-0.004277048034213055,0.01088304009293314,0.990568443902699
2017-05-11,1,0.001265418153747016,0.001301865258730224,-0.006413360960376961,0.01088304009293314,0.9899995872979213
2017-05-15,1,0.0011126258881451957,0.0011238773781611418,-0.005053914575339594,0.010301017151764732,0.9908287301486756
2017-05-17,1,0.00023751033091135623,0.0003283612605440947,-0.0027730162981646576,0.010301017151764732,0.9912373502145719
2017-05-19,1,0.0008649069583553117,0.00089130869879461,-0.0027730162981646576,0.010301017151764732,0.9915805706949171
2017-05-23,1,0.0014005732419996653,0.00141714243093764,-0.005053914575339594,0.009871152871709267,0.9918536524857811
2017-05-25,1,0.0017709827882067854,0.0018216368151902315,-0.005053914575339594,0.00845740387630058,0.9925266484715125
2017-05-30,1,0.001225717762191043,0.0012563466201395254,-0.0030307531239896364,0.00845740387630058,0.9932493796566366
2017-06-01,1,0.0010718206193495855,0.001118611931723487,-0.0033905945525590135,0.008053839397655728,0.9932395493328101
2017-06-05,1,0.001736164589099929,0.0018189077436613229,-0.0033905945525590135,0.006883651484044816,0.9934722386197459
2017-06-07,1,0.0008448120707021391,0.0008970842257973014,-0.00286539568892201,0.008053839397655728,0.9933490637387623
2017-06-09,1,0.00011129015498446634,0.0002779346636102551,-0.00286539568892201,0.008532324251752533,0.9925742370498754
2017-06-13,0,-0.0001847908011669313,1.632891378538343e-05,-0.00286539568892201,0.008532324251752533,0.9918365502528943
2017-06-15,1,3.459115786031916e-05,0.00022813744775191682,-0.00286539568892201,0.008053839397655728,0.9925053732188039
2017-06-19,1,0.00018566471305387743,0.0003704461845629623,-0.0033905945525590135,0.006883651484044816,0.9925322468575855
2017-06-21,1,0.0011891545287023761,0.001198127227677105,-0.0033905945525590135,0.005629660613769268,0.9924339049882003
2017-06-23,1,0.0015431821187609387,0.001602453807140638,-0.0048642263191822875,0.003635240957452525,0.9923438764078123
2017-06-27,1,0.0012195715286557698,0.0012414860913809876,-0.008140886205498882,0.004610901813298808,0.991475471770204
2017-06-29,1,0.0011452344920737517,0.0011734141357271632,-0.01099132440177842,0.003635240957452525,0.989495138961489
2017-07-03,1,0.0010858989304397219,0.0010937534893336015,-0.01647321502088976,0.003488971450160122,0.9887291027717192
2017-07-06,1,0.002002619048980067,0.0021879939240902094,-0.01647321502088976,0.003488971450160122,0.9889416735696162
2017-07-10,1,0.0018963979623363022,0.0020765505035467337,-0.01647321502088976,0.003488971450160122,0.9890507384706719
2017-07-12,1,0.0017374731038985528,0.0019160086248669519,-0.011697003463880933,0.0007151707562650227,0.9895604216483858
2017-07-14,1,0.0021102058231609803,0.00238770453278476,-0.013436993774103288,0.0026529637531618857,0.9890170962106845
2017-07-18,1,0.001619232827662966,0.001803512961982487,-0.013436993774103288,0.004677580594312042,0.9890226600121718
2017-07-20,1,0.0013563295785376443,0.0015470621173703544,-0.01346340332287472,0.004677580594312042,0.9881735466714905
2017-07-24,1,0.001226114050126341,0.001407815447958016,-0.01346340332287472,0.007059362171821805,0.9884831921537801
2017-07-26,1,0.0011407343329476335,0.0013147878053500765,-0.013966394891325982,0.004577081678538582,0.9880916462763772
2017-07-28,-1,-0.0010218058698206335,-0.000865801624313799,-0.013966394891325982,0.007059362171821805,0.9878095210077608
2017-08-01,-1,-0.0017895159366522347,-0.0015278012368546883,-0.013738733464294472,0.007059362171821805,0.9879123136221444
2017-08-03,-1,-0.0023060866406328182,-0.0019249091187052826,-0.013738733464294472,0.007313253731425676,0.9876633708739342
2017-08-07,-1,-0.0026113280940922162,-0.0022039729622519537,-0.013738733464294472,0.0035449519576235414,0.9880443357776575
2017-08-09,-1,-0.003461519205661789,-0.0029176538554647156,-0.013738733464294472,0.009169861878371368,0.9870055458795006
2017-08-11,-1,-0.004269697971985124,-0.003591174235791558,-0.008616352877457632,0.010516467634902178,0.9858804808870256
2017-08-15,-1,-0.003470805906178173,-0.0029021282982926175,-0.008616352877457632,0.010846752716588836,0.9861126004050853
2017-08-17,-1,-0.0045968165675007305,-0.003911998248363982,-0.00562077394033281,0.010846752716588836,0.9871371119580599
2017-08-21,-1,-0.003969325442215162,-0.003377513100541276,-0.01050446228036053,0.010846752716588836,0.9873769046893934
2017-08-23,-1,-0.004996206059836339,-0.004293871422557952,-0.006795642360278952,0.012185918929623047,0.9872431087961576
2017-08-25,-1,-0.004565256473889048,-0.0038916521966416012,-0.00562077394033281,0.010846752716588836,0.9893282475510964
2017-08-29,-1,-0.005231562976984549,-0.004489079760550879,0.0011142211433069898,0.011172572269855444,0.9885483158680564
2017-08-31,-1,-0.004370231789730362,-0.003755823224881558,-0.00012643453256051438,0.010559563255971465,0.9895312964685815
2017-09-05,-1,-0.004616170630386099,-0.004007682090203269,0.0021982915153971974,0.011324350547770937,0.9877430349996142
2017-09-07,-1,-0.004459367781143189,-0.0038438318587493405,-0.0017116687073934589,0.011324350547770937,0.9890550778573248
2017-09-11,-1,-0.0036118404151628484,-0.003092155011928589,-0.0025119877142654864,0.0068569908087546235,0.9904570758520409
2017-09-13,-1,-0.002453049072301197,-0.0021011023262419125,-0.0025119877142654864,0.0068569908087546235,0.991157861432609
2017-09-15,-1,-0.0018602039320065882,-0.0016202661700524426,-0.0017116687073934589,0.006303686588109371,0.9912958040434895
2017-09-19,-1,-0.0031341064184275194,-0.0027070462953887684,-0.0017116687073934589,0.006303686588109371,0.9913707746143474
2017-09-21,-1,-0.0022110570824141447,-0.0019082482326289638,-0.002303241710473269,0.0053262465868168735,0.9928679082547324
2017-09-25,-1,-0.0011418911028026018,-0.0010212660142366447,-0.0027563262204667593,0.005470887920790216,0.9925556837911275
2017-09-27,-1,-0.0005398673590648968,-0.0004977078112321087,-0.0033868328998494486,0.005210022847802348,0.9919498865867802
2017-09-29,-1,-0.0004962847169857352,-0.0004574948084222232,-0.005613267869026382,0.004648306856606441,0.9897687662060535
2017-10-03,1,0.0009514302636941009,0.0010935643970291639,-0.011042670428987662,0.004648306856606441,0.9905595686207608
2017-10-05,1,0.0007881415206820303,0.000906106334364506,-0.011042670428987662,0.004648306856606441,0.9907331989921232
2017-10-09,1,0.000132211032224473,0.00013442392288223322,-0.005613267869026382,0.005470887920790216,0.9910040006945756
2017-10-11,1,0.0009140480619067595,0.0010483081979985969,-0.010686484491190505,0.0031938587377935714,0.9910710957083211
2017-10-13,1,0.0016850009683421323,0.001974665432973516,-0.010686484491190505,0.0024599730967897523,0.9906774342590637
2017-10-17,1,0.0018628566816864165,0.002218818964096784,-0.010686484491190505,0.00264369080107544,0.9904798456742553
2017-10-19,1,0.0014612449675896473,0.0017209743716407942,-0.010686484491190505,0.007611562729540803,0.9895961851893441
2017-10-23,1,0.0017610034753921086,0.0020860546434478882,-0.010618028750076303,0.003838402310505164,0.989974999946415
2017-10-25,1,0.0011223179321461704,0.0013877407491060928,-0.010144899131273016,0.007611562729540803,0.9905373401371165
2017-10-27,-1,-0.0009019427749987774,-0.0008731980758581287,-0.0070487164983976044,0.007611562729540803,0.9924380971499528
2017-10-31,-1,-0.0012127605329505947,-0.0011373500841273965,-0.004898604715561248,0.009971044373841812,0.9898384337813079
2017-11-02,-1,-0.0011659707047372307,-0.0010923641509491691,-0.0070487164983976044,0.012354527899035286,0.9879957045582325
2017-11-06,-1,-0.0003564884822956322,-0.00030192309203583485,-0.0070487164983976044,0.014797494246462187,0.9866978236008521
2017-11-08,-1,-0.00034158500010258145,-0.0002525405708454155,-0.007030738684120875,0.019467728163592504,0.9854404485591096
2017-11-10,-1,-0.0005237496278304875,-0.0004469207953207518,-0.005281623228429411,0.019467728163592504,0.9856582432209435
