JNU-Tangyin/eata/results/Batch4_SP500/Batch4_SP500-AKAM.csv
Date,Action,Predicted_Q25,Predicted_Q75,Actual_Q25,Actual_Q75,RL_Reward
2010-12-14,0,-0.0007200765315790291,0.0,-0.009995542136596532,0.012196122683011568,0.9860317711059475
2010-12-16,-1,-0.0003550833986654192,-0.0002169155567995998,-0.009995542136596532,0.0187341231619123,0.9845121727494741
2010-12-20,-1,-0.0015054553751141792,-0.001172831349369133,-0.009995542136596532,0.013530267207228558,0.9857812354260754
2010-12-22,-1,-0.0018114602244070901,-0.0014127631152148004,-0.013403339704170137,0.00971684960883065,0.986207373731098
2010-12-27,0,0.0,0.0,-0.013403339704170137,0.010279385769994806,0.9847822867072861
2010-12-29,0,0.0,0.0,-0.013403339704170137,0.010279385769994806,0.9851444456986564
2010-12-31,-1,-0.005387954397562679,-0.004387589537401648,-0.009634721301940142,0.010830419619526058,0.9843646584597026
2011-01-04,-1,-0.004882016270366163,-0.003980434933223096,-0.009634721301940142,0.010830419619526058,0.9850979478275445
2011-01-06,-1,-0.0037385654780089455,-0.0029618454456707567,-0.0072443150431642745,0.010279385769994806,0.9872342012561959
2011-01-10,-1,-0.0035276921161025423,-0.002777175558777893,-0.011168972247085912,0.010830419619526058,0.9867192253032174
2011-01-12,-1,-0.0006739045229727533,-0.0004593452377058023,-0.01562622428065788,0.010648301358070544,0.9825745116525595
2011-01-14,1,0.0002871034447422811,0.0005042020445080211,-0.01562622428065788,0.010648301358070544,0.983307490824255
2011-01-19,1,0.000352429165478184,0.0005265758735841896,-0.012821166407555274,0.012698385937936096,0.9832587628134046
2011-01-21,0,0.0,0.0,-0.006309295752130073,0.012698385937936096,0.9842848356930393
2011-01-25,0,0.0,0.0,-0.006847390562279203,0.012698385937936096,0.9845075279779444
2011-01-27,0,0.0,0.0,-0.008747569581919856,0.012698385937936096,0.9841207720845109
2011-01-31,0,0.0,0.0,-0.012821166407555274,0.004525773878458268,0.9823331092745624
2011-02-02,0,0.0,0.0,-0.009052882606033303,0.004525773878458268,0.9826888418021917
2011-02-04,0,0.0,0.0,-0.01369179351180542,0.0020303843443458154,0.981375273850156
2011-02-08,0,0.0,0.0,-0.01369179351180542,-0.00020496100838725338,0.9824720931819465
2011-02-10,0,0.0,0.0,-0.009207469146398035,-0.00020496100838725338,0.9869394229397964
2011-02-14,0,0.0,0.0,-0.009368642221921561,-0.003495058154556115,0.9879201665555839
2011-02-16,-1,-0.6041322273248875,-0.5936988341210241,-0.013595313855219436,-0.003601654198993107,0.62848653273205
2011-02-18,0,0.0,0.0,-0.009368642221921561,-0.0031058120377415507,0.9866800075431046
2011-02-23,0,0.0,0.0,-0.008712916847868343,0.001984733541646565,0.9881540682986865
2011-02-25,0,0.0,0.0,-0.008712916847868343,0.005023370493882218,0.9864381497709145
2011-03-01,-1,-0.006891159543283741,-0.0058799334292090845,-0.008712916847868343,0.006870170277484068,0.987352692609142
2011-03-03,-1,-0.004271304320221674,-0.00352976933904193,-0.007976733022842625,0.005023370493882218,0.9887017359052308
2011-03-07,-1,-0.005027798287369677,-0.004199455557167112,-0.006245119361692371,0.005023370493882218,0.9890513726969115
2011-03-09,-1,-0.004685311477608497,-0.0038765357408201127,-0.007976733022842625,0.005023370493882218,0.9886197667624647
2011-03-11,-1,-0.004899958512489537,-0.004055007204447452,-0.007976733022842625,0.005023370493882218,0.9880349848069091
2011-03-15,-1,-0.005052100228576406,-0.004211792950261625,-0.008389799528040141,0.006870170277484068,0.9863606479148066
2011-03-17,-1,-0.0036936912696878483,-0.00307750502946712,-0.005115990691209702,0.006870170277484068,0.9889749626171014
2011-03-21,-1,-0.003324369252016778,-0.0027876224042575667,-0.00303400303792792,0.01448250306162242,0.9863505262405328
2011-03-23,-1,-0.002675582522413784,-0.002243023459988887,-0.0031420570911427563,0.01448250306162242,0.9867189932996313
2011-03-25,0,0.0,0.0,-0.0031420570911427563,0.012363257685148388,0.988622648047432
2011-03-29,0,0.0,0.0,-0.0031420570911427563,0.01448250306162242,0.989255888131758
2011-03-31,0,0.0,0.0,-0.008531288330138862,0.01448250306162242,0.9839984487832814
2011-04-04,0,0.0,0.0,-0.009548800242621665,0.01448250306162242,0.9832670990930215
2011-04-06,0,0.0,0.0,-0.006323248727294442,0.015898481618381734,0.9818588304747865
2011-04-08,0,0.0,0.0,-0.009548800242621665,0.015898481618381734,0.9812576901516126
2011-04-12,0,0.0,0.0,-0.009548800242621665,0.015898481618381734,0.9815843502877923
2011-04-14,0,0.0,0.0,-0.009548800242621665,0.015898481618381734,0.9822233772311525
2011-04-18,1,0.00030646469475901334,0.00031091774405904665,-0.01590171392397918,0.008370346033802342,0.9829319967340581
2011-04-20,0,0.0,0.0,-0.01590171392397918,0.006238343424552326,0.9831429461301318
2011-04-25,1,0.0029398652053884925,0.0033474782783346367,-0.01803313309834013,0.006238343424552326,0.9797091672085778
2011-04-27,1,0.00325421982447744,0.003696613444317385,-0.01803313309834013,0.003160318670561213,0.9797513710995777
2011-04-29,1,0.0020932206901057545,0.0024118188900416554,-0.01590171392397918,0.009155853022151376,0.9851341528598242
2011-05-03,1,0.0016245677475132925,0.0019204431217895352,-0.01590171392397918,0.009155853022151376,0.985290253142394
2011-05-05,1,0.002814789001905217,0.0031911023967569055,-0.01803313309834013,0.008519848031822267,0.985533210924193
2011-05-09,1,0.0022806524938596942,0.0025257254842331097,-0.022067003005536857,0.008519848031822267,0.9842686201112293
2011-05-11,1,0.001852406000324348,0.0020947154444012246,-0.022447823536702875,0.0060051491404008095,0.9836039713839404
2011-05-13,1,0.0012514327519207126,0.0013685055420794353,-0.022447823536702875,0.0060051491404008095,0.9829594544088235
2011-05-17,1,0.0005629768747957803,0.0005775862348300967,-0.020254818025300603,0.0060051491404008095,0.9842669851288732
2011-05-19,1,0.0010156717750607514,0.00109520469853123,-0.020254818025300603,0.008519848031822267,0.9837047876527795
2011-05-23,1,0.001938029242257,0.002125499095056293,-0.018874266035671314,0.008519848031822267,0.9852770475247487
2011-05-25,1,0.0013294995264219623,0.0014024503078601744,-0.018874266035671314,0.008519848031822267,0.9856755587703652
2011-05-27,1,0.001950328009007861,0.002089310683501722,-0.019673393625044566,0.005907482284025812,0.9850851513665986
2011-06-01,1,0.0014172796154341698,0.0015387762312563447,-0.018874266035671314,0.009649186230742658,0.9847964299176497
2011-06-03,1,0.0016076762623187118,0.0017705220367179922,-0.015725678697394076,0.010549610894785705,0.9854983791883247
2011-06-07,1,0.0008188765602845137,0.0008968117013109041,-0.008819182076132375,0.010549610894785705,0.9871027609810383
2011-06-09,1,0.001012235855966619,0.0012064372182130421,-0.007109354007821169,0.010549610894785705,0.9890572168093453
2011-06-13,1,0.0005132990683809462,0.0006208401024880313,-0.007109354007821169,0.010549610894785705,0.9885864489302687
2011-06-15,-1,-0.0005321531120851918,-0.00044673433432044124,-0.007109354007821169,0.010549610894785705,0.9873115396033091
2011-06-17,1,4.3309675790403836e-05,6.71783017585166e-05,-0.008819182076132375,0.008150222251082945,0.98660951248844
2011-06-21,1,0.0008146513845350878,0.000894631038031502,-0.007451086035112095,0.007828246006704313,0.9880825726140509
2011-06-23,1,0.0009737541507946493,0.0011025457274604815,-0.0022186843413139587,0.008150222251082945,0.9870048323175898
2011-06-27,1,0.0005115321279010969,0.0005666604063557261,0.000557458742581344,0.008315350154206374,0.9877304987757336
2011-06-29,1,0.0017094651983776776,0.001957944604382862,-0.013999706612067375,0.006586820859553281,0.9832759338782712
2011-07-01,1,0.0024439214812998575,0.0028149016602028037,-0.020551152607986803,0.006586820859553281,0.9826907686329377
2011-07-06,1,0.000970993704772814,0.0011013196251809998,-0.02656121138093036,0.006586820859553281,0.9806010650721315
2011-07-08,1,0.0019566793218798125,0.0023006105742256976,-0.027918744290193774,0.006586820859553281,0.9786261064992892
2011-07-12,1,0.001655683751678667,0.0019682378548514794,-0.031181114225388152,0.00812563600846961,0.9751753934095732
2011-07-14,-1,-0.00037659728529126647,-0.000372102885153164,-0.030053347765148123,0.01089053062229463,0.9733182657836122
2011-07-18,-1,-0.0008870500558706047,-0.0007864082266964187,-0.030053347765148123,0.01835936250883837,0.9728399075791226
2011-07-20,-1,-0.0006336556419744253,-0.0005382480498110078,-0.030053347765148123,0.01835936250883837,0.9721949909395886
2011-07-22,-1,-0.00031324626637758204,-0.0001830112068756083,-0.031181114225388152,0.0127331512985688,0.9689057910814125
2011-07-26,1,7.626897086169756e-05,0.0001543413329356528,-0.031181114225388152,0.01835936250883837,0.9665842335341722
2011-07-28,-1,-0.0037501525000724024,-0.003180609775531769,-0.030053347765148123,0.01835936250883837,0.9725286023596311
2011-08-01,-1,-0.0034355811141738024,-0.002921818786367403,-0.030053347765148123,0.031152676507506326,0.9700386599115175
2011-08-03,-1,-0.0029092720506827176,-0.002467220854439756,-0.026524826948300582,0.031152676507506326,0.9716411419521027
2011-08-05,-1,-0.005240453866919812,-0.004515177131108379,-0.026524826948300582,0.031152676507506326,0.9709205182657047
2011-08-09,-1,-0.004943686340380914,-0.004299322174967922,-0.022775552347533156,0.031152676507506326,0.9725601246545168
2011-08-11,-1,-0.004366904620582749,-0.0038380549407108808,-0.022775552347533156,0.019902023082624086,0.9744036492763207
2011-08-15,-1,-0.00258093356973022,-0.002280520044684751,-0.022775552347533156,0.016326087471900556,0.975045128305541
2011-08-17,-1,-0.002718614295934496,-0.002473765537887942,-0.022775552347533156,0.020424869675335737,0.9727221655988776
2011-08-19,-1,-0.005784433781603942,-0.005184416420286381,-0.01674623270409653,0.020424869675335737,0.9759937148302485
2011-08-23,-1,-0.0037061523323865062,-0.00335521405837227,-0.0212275490908395,0.016326087471900556,0.9774416064507936
2011-08-25,-1,-0.005642072160657586,-0.0050643109490926385,-0.0212275490908395,0.020107043703374555,0.9746782470768474
2011-08-29,-1,-0.002326124528122939,-0.0021256478908227806,-0.0212275490908395,0.01644422659718847,0.9758201370301816
2011-08-31,-1,-0.0021295429805838115,-0.001971590974166302,-0.021616958455433138,0.01644422659718847,0.9744386505043338
2011-09-02,-1,-0.004025516216961407,-0.0036622194511932256,-0.025642612937873906,0.01644422659718847,0.9722605695466442
2011-09-07,-1,-0.00115674133405621,-0.0011414256870455072,-0.025642612937873906,0.020107043703374555,0.9663987249190797
2011-09-09,-1,-0.0015998316971619529,-0.0015140288415302658,-0.0212275490908395,0.025338421553177115,0.9666288012863732
2011-09-13,0,-0.00021021303233590023,7.388380310375815e-05,-0.0212275490908395,0.025338421553177115,0.9669962081623558
2011-09-15,1,0.0022739632319511687,0.0029323214990113885,-0.0212275490908395,0.025338421553177115,0.9680162759611939
2011-09-19,1,0.00205470063733518,0.002702150317460683,-0.01920892714596097,0.025338421553177115,0.9683632243096778
2011-09-21,-1,-0.001627123344785983,-0.0015500332591247981,-0.02059412728058844,0.025338421553177115,0.9676389112912999
2011-09-23,-1,-0.002069911383148063,-0.0020423542858952265,-0.012650006309795325,0.022914476225695934,0.9695626486943885
2011-09-27,1,0.0007829410983064384,0.0012356985770743695,-0.02059412728058844,0.022914476225695934,0.968832132614998
2011-09-29,-1,-0.0006532619460255518,-0.00041416398912238117,-0.011794470940984165,0.02627575393642415,0.9654502636030073
2011-10-03,-1,-0.0059548399849260305,-0.005560627226254452,-0.006173965494766436,0.03144138350715393,0.9651480601828853
2011-10-05,1,0.0005248172928942086,0.0009311372746127187,-0.010756123272182923,0.025435468033682088,0.9736839381536424
2011-10-07,1,0.0006702320341675581,0.001034626540299004,-0.010756123272182923,0.03144138350715393,0.9717297328979853
2011-10-11,1,0.0014376141354618805,0.0019267320064700116,-0.010756123272182923,0.03144138350715393,0.9711658973133177
2011-10-13,1,0.0028007454172391953,0.0034912765204225776,-0.01217424738899293,0.02998532746799701,0.9710149176509966
2011-10-17,1,0.00246450473233121,0.003101120921897407,-0.018149235890868528,0.03144138350715393,0.9689378839315588
2011-10-19,1,0.0015362430200427258,0.002105062225823802,-0.01327385233368324,0.03144138350715393,0.9699534836139602
2011-10-21,1,0.002663113897452405,0.003329015910236133,-0.02125816509075084,0.03144138350715393,0.9699877136837413
2011-10-25,1,0.001453605501925947,0.0019665733757907753,-0.02048619204570612,0.02998532746799701,0.9724228386039327
2011-10-27,1,0.004495375122229762,0.005341326801272812,-0.023653610705395504,0.023369647372664885,0.9757069475384857
2011-10-31,1,0.0035852325393556607,0.004252939551877352,-0.02048619204570612,0.023369647372664885,0.977337131938639
2011-11-02,1,0.0044033764378738575,0.0051510531791335214,-0.02048619204570612,0.023369647372664885,0.9778051653519754
2011-11-04,1,0.00598334056698701,0.006916447662221598,-0.02048619204570612,0.009317776389416567,0.9797278236311676
2011-11-08,1,0.006715853755149406,0.007772209885541953,-0.023653610705395504,0.00681706201951396,0.9787111963291174
2011-11-10,1,0.0055632134133122724,0.006510155981082453,-0.023653610705395504,0.009317776389416567,0.9793597878815938
2011-11-14,1,0.005160857790331321,0.006042989283082398,-0.02607487967627082,0.00681706201951396,0.9788740572974802
2011-11-16,1,0.004988605090302668,0.005821133435246982,-0.02607487967627082,0.00681706201951396,0.9800449913775019
2011-11-18,1,0.005006185945455692,0.0059134301282764215,-0.023758960541136655,0.00681706201951396,0.9807821405800006
2011-11-22,1,0.004057175538860394,0.004871838370866848,-0.027089087329852213,0.009767719253318562,0.9792888678393866
2011-11-25,1,0.004203919632611113,0.005000186824990511,-0.016594046826628735,0.01817955450965768,0.9762565454003381
2011-11-29,1,0.00594724725884189,0.006992041056935608,-0.016594046826628735,0.010395601280099922,0.9775935517570983
2011-12-01,1,0.006894728739932341,0.008028162344819496,-0.016594046826628735,0.010395601280099922,0.9783687910812262
2011-12-05,1,0.005773129608321267,0.006652955488358292,-0.017757806861446394,0.013697210861233145,0.9775182822891224
2011-12-07,1,0.004740123449181992,0.005471178881517077,-0.013716339385946108,0.013697210861233145,0.9794515380363183
2011-12-09,1,0.00523479247251407,0.006064560651933389,-0.01264597390365357,0.013697210861233145,0.9813706804150634
2011-12-13,1,0.00332233990798434,0.003949778269085411,-0.00653863673034361,0.015616126933516258,0.9827228434646668
2011-12-15,1,0.004638958936189222,0.005442848054880871,-0.012475636009890436,0.015616126933516258,0.9808260800733766
2011-12-19,1,0.0013825450530925284,0.001600337948544141,-0.00653863673034361,0.015616126933516258,0.981129626601671
2011-12-21,1,0.0014060347479910584,0.0016362235258730227,-0.010595297014146573,0.011482764960157755,0.9833115038966488
2011-12-23,1,0.004406188940546042,0.005054432556486931,-0.010907269556504172,0.011454661585578285,0.9871291574794658
2011-12-28,1,0.002953695902019985,0.003290942948418172,-0.010964413486303254,0.015319643958146625,0.9865887923720181
2011-12-30,1,0.003186350044763314,0.003548428452915935,-0.010964413486303254,0.011454661585578285,0.9871146386220517
2012-01-04,1,0.003289001959116133,0.003689081834597402,-0.010091556172950846,0.010041665083951113,0.9880092713662868
2012-01-06,1,0.004244257258859591,0.004840982190540154,-0.010091556172950846,0.011320624749947404,0.9861522161425915
2012-01-10,1,0.0038435701505648246,0.004321142722893032,-0.010091556172950846,0.011320624749947404,0.9859994323625361
2012-01-12,1,0.001446906270504676,0.0015245703045836062,-0.008516521146976373,0.011320624749947404,0.9824940457175094
2012-01-17,0,0.0,0.0,-0.007126025675555034,0.011320624749947404,0.9840107348189097
2012-01-19,0,0.0,0.0,-0.008516521146976373,0.011320624749947404,0.9838645685529168
2012-01-23,0,0.0,0.0,-0.008466712747828448,0.011320624749947404,0.984055566695817
2012-01-25,0,0.0,0.0,-0.008466712747828448,0.009790344508956748,0.9841199269176676
2012-01-27,0,0.0,0.0,-0.007126025675555034,0.009790344508956748,0.9845851980054972
2012-01-31,0,0.0,0.0,-0.009903975201074146,0.009790344508956748,0.9835108255353096
2012-02-02,0,0.0,0.0,-0.009903975201074146,0.01007659723736557,0.9836512593777744
2012-02-06,0,0.0,0.0,-0.011836164505734527,0.009524364598848915,0.9840764203913576
2012-02-08,0,0.0,0.0,-0.011836164505734527,0.01007659723736557,0.9838988936381713
2012-02-10,0,0.0,0.0,-0.011836164505734527,0.009879497870519095,0.9879858785664184
2012-02-14,0,0.0,0.0,-0.014984738579844104,0.012364934547770106,0.9861068745529578
2012-02-16,1,0.005903349428305919,0.006045722730034459,-0.014984738579844104,0.01673070191199517,0.9845213019640741
2012-02-21,1,0.005644125846723878,0.005911185573269971,-0.011338308623900086,0.01673070191199517,0.9850986870104885
2012-02-23,0,0.0,0.0,-0.010936687335007871,0.01673070191199517,0.9869349361597983
2012-02-27,0,0.0,0.0,-0.010936687335007871,0.01673070191199517,0.9862956064947045
2012-02-29,0,0.0,0.0,-0.009672484759868143,0.01673070191199517,0.9865604112841639
2012-03-02,0,-5.856443852412336e-07,2.3539574162320816e-05,-0.009672484759868143,0.01673070191199517,0.9869075349118233
2012-03-06,-1,-0.0011858685026965904,-0.0010896746373189514,-0.008013374176399985,0.01673070191199517,0.9882675282535527
2012-03-08,1,0.0004258825216420658,0.0006018267048919458,-0.008013374176399985,0.004583782721525492,0.9897978384056453
2012-03-12,1,0.000713102025825236,0.0009085067922097596,-0.010395223582275279,0.0031586324604577507,0.9893024855881037
2012-03-14,-1,-0.0002013817371090101,-0.00017829560971048831,-0.008806215124859476,0.004583782721525492,0.9895748056072355
2012-03-16,1,0.0008904944971678907,0.001069675318974981,-0.008806215124859476,0.004583782721525492,0.9901399002009519
2012-03-20,-1,-0.000242134486260041,-0.00023149473119783872,-0.006851308440432743,0.008406606162352063,0.9887338589566482
2012-03-22,1,0.0008044757756764422,0.0009677614819275476,-0.01018421596927777,0.008406606162352063,0.9884221938650758
2012-03-26,1,0.001365188201324444,0.001545945765188844,-0.01018421596927777,0.008406606162352063,0.988562142257708
2012-03-28,1,0.0007388471560812597,0.000898777659388654,-0.01018421596927777,0.016352304320293297,0.9837828431886275
2012-03-30,1,0.0015202498681547636,0.0018161266736783541,-0.01269229350282734,0.016352304320293297,0.9831277963872056
2012-04-03,1,0.0015905923035496941,0.0019258719405746954,-0.01269229350282734,0.019219398736907974,0.9816967082771032
2012-04-05,1,0.0008832613015562559,0.0010415804006722721,-0.01638223478308029,0.019219398736907974,0.9796607763405565
2012-04-10,0,-1.7684575658113844e-05,2.5843769496923676e-05,-0.01269229350282734,0.019219398736907974,0.9808095308052306
2012-04-12,1,0.0008811909331155597,0.0010352481297669124,-0.01512396299910771,0.015390211272796054,0.9812305269453833
2012-04-16,1,0.0004926544242242403,0.0005355695519081426,-0.017599211384740555,0.015390211272796054,0.9789159742774551
2012-04-18,1,0.000956565177153993,0.0009979798105498917,-0.018744985081945387,0.004249067875423656,0.9783707190058126
2012-04-20,-1,-0.00042852646034716266,-0.0002552830090580049,-0.02216607212392761,0.006655745735410912,0.978582823551747
2012-04-24,1,0.0005800364233639358,0.0005825257473172984,-0.02216607212392761,0.006655745735410912,0.9779899657766168
2012-04-26,-1,-0.002664242235900027,-0.0023391721483247956,-0.018744985081945387,0.006655745735410912,0.9836149917751409
2012-04-30,-1,-0.0031542512316181737,-0.0027735518159746524,-0.01856239576863544,0.014994843430580303,0.9833817514042821
2012-05-02,-1,-0.0026327693459764455,-0.0022497621093051662,-0.02216607212392761,0.004198025079316108,0.9842557044003375
2012-05-04,-1,-0.0039368323191895545,-0.003411707888090045,-0.019574712423710124,0.0047563638350459105,0.984328057750503
2012-05-08,-1,-0.004785644148010013,-0.004060195797517286,-0.02643253720422027,0.008539070928078901,0.9805964425294599
2012-05-10,-1,-0.00537947578975907,-0.004573215127372939,-0.02643253720422027,0.017318569689570996,0.9791613555742658
2012-05-14,-1,-0.007759913272779468,-0.006643069680106844,-0.015634119264380283,0.01732445045947263,0.9793838195029677
2012-05-16,-1,-0.008572046221239802,-0.007356781197954286,-0.014996386471624809,0.01713698406646272,0.9799449837554891
2012-05-18,-1,-0.007336471822551714,-0.006446781231233852,-0.010146544993544882,0.018571922497130133,0.9787862022229932
2012-05-22,-1,-0.006480062561828908,-0.005688267315962637,-0.010146544993544882,0.017166124982542517,0.9797349661829114
2012-05-24,-1,-0.00585697037361836,-0.005161117366109199,-0.014996386471624809,0.017386782055669632,0.9781859231558317
2012-05-29,-1,-0.005086166177499382,-0.004487355181045816,-0.023273053143469304,0.017166124982542517,0.9781536869617264
2012-05-31,-1,-0.00540201001216987,-0.004784253960493848,-0.014996386471624809,0.017166124982542517,0.978793576438318
2012-06-04,-1,-0.00608586144908266,-0.005405854603868597,-0.00845439980389766,0.017386782055669632,0.9784105408393244
2012-06-06,-1,-0.005726898740696226,-0.005111273069956995,-0.006755056223606885,0.017386782055669632,0.981168178874664
2012-06-08,-1,-0.005345759438059349,-0.004713953027617644,-0.014996386471624809,0.017166124982542517,0.9807643175577078
2012-06-12,-1,-0.0047177460748258045,-0.004188571632350945,-0.014366143085396715,0.014204137993712729,0.981615981007021
2012-06-14,-1,-0.005413225157468839,-0.004763553676020661,-0.009863326224896952,0.017386782055669632,0.9817704837634628
2012-06-18,-1,-0.0039418505045495395,-0.003474182193235077,-0.009863326224896952,0.012038351356815028,0.983784023762834
2012-06-20,-1,-0.003449394742731559,-0.003049191378759131,-0.010551997150130634,0.012189227991407654,0.9834837375885513
2012-06-22,-1,-0.0042547109015483595,-0.003772334169525414,-0.013338581667457702,0.008993048514097119,0.9839307827912179
2012-06-26,-1,-0.004381355340397769,-0.0038871826904149816,-0.010551997150130634,0.007637013468639094,0.9852874380154723
2012-06-28,-1,-0.0036060952033773117,-0.0032429639647752187,-0.010551997150130634,0.019202479728828395,0.9796281646005497
2012-07-02,-1,-0.0020221426332553334,-0.0018945976937404085,-0.013049698778998881,0.010260848047906397,0.981070270323698
2012-07-05,1,0.0011192736022595249,0.001463208245624131,-0.013860506565826144,0.0028541417947991663,0.9807155668247837
2012-07-09,-1,-0.0008651410959617427,-0.0007773261017282513,-0.010551997150130634,0.011949848979756043,0.9831117045008175
2012-07-11,-1,-0.0013187177504119464,-0.0012866167733076358,-0.009629282754464945,0.015650479844415508,0.983124123995054
2012-07-13,-1,-0.000853182188864954,-0.0008001552694196297,-0.009629282754464945,0.010816411630983241,0.9839928300315177
2012-07-17,-1,-0.0009615176930101544,-0.0009609251665625987,-0.009629282754464945,0.010816411630983241,0.9838379462151849
2012-07-19,-1,-0.00029926221334410574,-0.00017815103102691192,-0.008650733897770444,0.016581072061999547,0.9819006058349554
2012-07-23,-1,-0.0027208807526237014,-0.0025024920394514137,-0.007255918299482068,0.016581072061999547,0.9841142169981785
2012-07-25,-1,-0.0028363620743079307,-0.002624150907450748,-0.0066900943522381524,0.016581072061999547,0.9830916220402597
2012-07-27,1,0.0002824512481194497,0.00038449579065307626,-0.007255918299482068,0.011232262513990513,0.9881493901065042
2012-07-31,1,0.00033704696587167216,0.000512620605653014,-0.0066900943522381524,0.011232262513990513,0.9889057354285862
2012-08-02,1,0.00024049061757637567,0.0004333918690088862,-0.0066900943522381524,0.011232262513990513,0.9886635506910778
2012-08-06,1,0.0013116542990898156,0.0016522621645853912,-0.0066900943522381524,0.01000177234625702,0.9899010722675511
2012-08-08,1,0.002001680067712576,0.002471408557319337,-0.0066900943522381524,0.01000177234625702,0.9889612839020555
2012-08-10,0,0.0,0.0,-0.007255918299482068,0.01000177234625702,0.9880357092593812
2012-08-14,0,0.0,0.0,-0.007560647314029238,0.01000177234625702,0.98799381786475
2012-08-16,0,0.0,0.0,-0.007560647314029238,0.008219539926187014,0.9897492716492242
2012-08-20,0,0.0,0.0,-0.006074347657122196,0.008219539926187014,0.9902605105276587
2012-08-22,0,0.0,0.0,-0.0064442255063897605,0.0059337480752371975,0.9907122268121825
2012-08-24,0,0.0,0.0,-0.0064442255063897605,0.0059337480752371975,0.9910910975992204
2012-08-28,0,0.0,0.0,-0.007793359715453762,0.0059337480752371975,0.9905641980973737
2012-08-30,0,0.0,0.0,-0.0064442255063897605,0.0059337480752371975,0.9905149752057304
2012-09-04,1,0.003300188127797429,0.003917067523054268,-0.0064442255063897605,0.006231705057131448,0.9901818119453513
2012-09-06,1,0.004592404873782435,0.005390465967458306,-0.0064442255063897605,0.0077454778588072195,0.9908667977560404
2012-09-10,1,0.004787672064943654,0.005692817163925654,-0.005990140354219582,0.0077454778588072195,0.9919620058458569
2012-09-12,1,0.0039750977775748235,0.004729580647696842,-0.006278455558753367,0.0077454778588072195,0.990677640643477
2012-09-14,1,0.00500365232278603,0.005910727675926101,-0.007435498852312,0.005055229211414875,0.9904268635917902
2012-09-18,1,0.0040699827339654125,0.004598295716705296,-0.007435498852312,0.00814426609665226,0.9906998925649488
2012-09-20,1,0.0037533332734668258,0.00421151078726813,-0.01214135670507321,0.006447055138661988,0.9892251503971958
2012-09-24,0,0.0,0.0,-0.013789500721199026,0.006447055138661988,0.9887089881692629
2012-09-26,0,0.0,0.0,-0.011264491460087596,0.006447055138661988,0.9888940716839578
2012-09-28,0,0.0,0.0,-0.011264491460087596,0.006447055138661988,0.9864335863585084
2012-10-02,0,0.0,0.0,-0.011268601307572611,0.00888380388760061,0.9855284132337253
2012-10-04,1,0.505581653907022,0.5135806035347591,-0.011268601307572611,0.006253083881994414,0.6622641197843372
2012-10-08,0,0.0,0.0,-0.014970025924379415,0.006253083881994414,0.9840810992771397
2012-10-10,0,0.0,0.0,-0.01449983443658915,0.006253083881994414,0.9847471983511563
2012-10-12,0,-4.546366858989442e-05,8.57993256986111e-05,-0.01449983443658915,0.006253083881994414,0.9847047242210135
2012-10-16,0,0.0,0.0,-0.0181630920624621,0.004877474079906524,0.9837186579637901
2012-10-18,0,0.0,0.0,-0.011141613175588675,0.004877474079906524,0.9850673630079037
2012-10-22,-1,-0.0007483364962877551,-0.0005844161937313677,-0.010415210744885113,0.004906026505166028,0.9862519089552793
2012-10-24,-1,-0.0018711857297920261,-0.001523842805912312,-0.00824394573965136,0.004906026505166028,0.986677822443989
2012-10-26,0,0.0,0.0,-0.011141613175588675,0.004906026505166028,0.9860607131866319
2012-11-01,0,0.0,0.0,-0.008966238322869908,0.006718316763149776,0.9863119947514766
2012-11-05,0,0.0,0.0,-0.01353134411508843,0.004906026505166028,0.9867164964829549
2012-11-07,0,0.0,0.0,-0.013453590416155462,0.006718316763149776,0.9829275010467551
2012-11-09,-1,-0.0020160908273438773,-0.0019471108443568606,-0.0067954781964947985,0.009849962582659872,0.9839009470608412
2012-11-13,-1,-0.0016293167435157219,-0.0016179398251274686,-0.006676897127782037,0.010076101907667437,0.9833045025967672
2012-11-15,-1,-0.002305462589443286,-0.002163421934529319,-0.006676897127782037,0.009849962582659872,0.9847630244774942
2012-11-19,-1,-0.0027493771525785764,-0.002543458028114052,-0.006676897127782037,0.010274411019322874,0.9823698354893904
2012-11-21,-1,-0.0025902705868339647,-0.002400383880772568,-0.006276395320539254,0.011020280400160154,0.9816485713858194
2012-11-26,-1,-0.0021544944099839806,-0.0020508299085252165,-0.006823359006316225,0.011020280400160154,0.9818542501369171
2012-11-28,-1,-0.0021252503278957604,-0.0020673476128916252,-0.005536131193761758,0.01058092090901186,0.9850157696022226
2012-11-30,-1,-0.00301343292739413,-0.0027248866574707846,-0.006823359006316225,0.011020280400160154,0.9849923831100353
2012-12-04,-1,-0.003810754398914315,-0.003400228931293614,-0.006823359006316225,0.01176611395132043,0.9826028375960402
2012-12-06,-1,-0.0030356520137122707,-0.0027489584807304057,-0.006823359006316225,0.011020280400160154,0.9871748485673677
2012-12-10,-1,-0.002544062755324387,-0.002330050918825853,-0.011395806085731434,0.011020280400160154,0.9869102797218205
2012-12-12,-1,-0.001767686637401759,-0.001661179532243644,-0.011395806085731434,0.011020280400160154,0.9875503422254583
2012-12-14,-1,-0.004489977697930353,-0.003967709755863746,-0.009385496085053591,0.011020280400160154,0.9879201135229111
2012-12-18,-1,-0.0036435103629123937,-0.0032071195672196484,-0.009385496085053591,0.009764935024190645,0.9899241844886215
2012-12-20,-1,-0.0017571410302737612,-0.0016687959504327974,-0.009385496085053591,0.006064647013013015,0.9903861099628948
2012-12-24,-1,-0.002347600930239233,-0.0021685643233219027,-0.008929481401448372,0.008720212082531733,0.989878873842888
2012-12-27,-1,-0.0029900105614877534,-0.002717092461296612,-0.0110158713913753,0.009764935024190645,0.9888140875488849
2012-12-31,-1,-0.002383211163892484,-0.0022240181604793975,-0.0110158713913753,0.008720212082531733,0.9892975230364319
2013-01-03,-1,-0.003014863543263387,-0.002796679405911825,-0.008929481401448372,0.008720212082531733,0.9901836266553419
2013-01-07,-1,-0.003205837383256591,-0.0029599179975582117,-0.008879829657656577,0.00816791662857546,0.9906085994717944
2013-01-09,-1,-0.004062360447403657,-0.0036937463133607322,-0.007684425241411415,0.009764935024190645,0.9859847231800739
2013-01-11,1,0.0018586787321526446,0.0020034530982544164,-0.007684425241411415,0.009764935024190645,0.9867304390268361
2013-01-15,1,0.0017156905058539618,0.0018157392292678157,-0.007357931687410549,0.01258874510997963,0.9850317376654381
2013-01-17,1,0.0018224616665369958,0.0019495955195847903,-0.004202924192345541,0.014662094484464223,0.9845489235273738
2013-01-22,1,0.0015904187410881194,0.0016643441419557695,-0.008312146441858754,0.014662094484464223,0.983147712641299
2013-01-24,1,0.001749524849883715,0.0018399979101655466,-0.010866916159999915,0.014662094484464223,0.9821527852101204
2013-01-28,1,0.0017047571814531749,0.0017851282488655202,-0.009308431822590075,0.013435689324892322,0.9833367713548142
2013-01-30,1,0.0015671802894087524,0.0016312200485568266,-0.007827292629722581,0.013435689324892322,0.983558743524469
2013-02-01,1,0.0022511717906852193,0.0024422607273278402,-0.008496429532496304,0.013435689324892322,0.98374989419973
2013-02-05,1,0.0017256109082745095,0.0018244266501424924,-0.004425969826603449,0.013435689324892322,0.9846955325650124
2013-02-07,1,0.003140100334340308,0.003406229536497177,-0.003994459269956627,0.011543414716465432,0.9895521338063634
2013-02-11,1,0.002870722193751026,0.0031292842928802144,-0.008496429532496304,0.011543414716465432,0.9863881622823054
2013-02-13,1,0.003506238268358938,0.00383152759279999,-0.008496429532496304,0.0033174754534154747,0.9880572619256016
2013-02-15,1,0.003856377774357899,0.004221059162378389,-0.008496429532496304,0.0016173259284519457,0.9884355811483293
2013-02-20,1,0.0032909067052412314,0.0035665241705277986,-0.007092848369903306,0.0026731149126538846,0.9896348088366084
2013-02-22,1,0.002627285542454439,0.002802622866426797,-0.006592488550638047,0.0026731149126538846,0.9905169847449087
2013-02-26,1,0.0025616300513845356,0.002730089029760643,-0.007092848369903306,0.00411755690934637,0.9891900722442651
2013-02-28,1,0.002656727457053943,0.0028329992845195543,-0.007092848369903306,0.0026731149126538846,0.9895712902159319
2013-03-04,1,0.002882048830223732,0.003105087004254408,-0.007727438572385252,0.002311939057321027,0.9899081465339136
2013-03-06,1,0.00275283603775272,0.0029543006662017153,-0.011167112634598114,0.0012192481502430082,0.9887159304512433
2013-03-08,1,0.0021733188125237536,0.002259297744044212,-0.011167112634598114,0.003485687991694294,0.9892534802769045
2013-03-12,1,0.0014890662628843847,0.0015056589106729186,-0.0046691805017311985,0.004717666548583059,0.9908350826291971
2013-03-14,1,0.001538967063141588,0.0015435181192164148,-0.007856932709941656,0.004717666548583059,0.9901187319230889
2013-03-18,1,0.0009326759226345575,0.0010318336921121235,-0.01069457558114792,0.006181519381217349,0.9886354038110835
2013-03-20,1,0.0010937707905039312,0.001187918882705935,-0.012021400060473423,0.004717666548583059,0.9881913056644812
2013-03-22,1,0.0003488601217982582,0.0005578474661624702,-0.011167112634598114,0.006181519381217349,0.9880192078728726
2013-03-26,1,0.0015647272272027836,0.0016166491108642474,-0.010935947365974476,0.009342920717795007,0.9869356083469807
2013-03-28,1,0.0012163208050447643,0.0012496696097954066,-0.010935947365974476,0.011991883736281735,0.9822617614155061
2013-04-02,1,0.0008575745367569114,0.0009311279568478795,-0.007856932709941656,0.018222365519749407,0.9816481429537102
2013-04-04,1,0.00016171736480412844,0.0003429080829022295,-0.006345897792274062,0.018222365519749407,0.9816299062545167
2013-04-08,0,-8.658120878685745e-05,0.00015204943545321235,-0.006345897792274062,0.020696914089227463,0.980946799049137
2013-04-10,1,0.0005106902764603983,0.0006893882338702292,-0.006345897792274062,0.018222365519749407,0.9829378824726525
2013-04-12,1,2.2922878123782437e-05,0.00026065658159735194,-0.004886952605965573,0.020696914089227463,0.982243740244695
2013-04-16,-1,-0.0004622465938039148,-0.000150844881448493,-0.0009991307355091204,0.020696914089227463,0.983665545405097
2013-04-18,-1,-0.0011514298640941138,-0.0007492782403867384,0.0015515293615418525,0.02151591559688846,0.9824731076542221
2013-04-22,-1,-0.0012471664580891563,-0.0008242645173938707,0.002794551675215051,0.020696914089227463,0.9826420449275592
2013-04-24,1,7.212320974795761e-05,0.0003185059611490598,-0.0009991307355091204,0.016799249943079488,0.9841433811834986
2013-04-26,1,0.00264505638625244,0.002714873034810404,-0.005016347911077679,0.012845031653264543,0.9891731560223532
2013-04-30,1,0.002694780333442957,0.0027483387050050026,-0.005016347911077679,0.01145407587693399,0.9896280309674541
2013-05-02,1,0.004450446195908216,0.0048226237297666575,-0.005151157342197399,0.01145407587693399,0.989056749490564
2013-05-06,1,0.004523587855732079,0.0048967721759693855,-0.008200525989587449,0.009140717077650535,0.9882943430314254
2013-05-08,1,0.004609134963748042,0.005003340612106505,-0.009063481695221642,0.009140717077650535,0.9878432594982047
2013-05-10,1,0.004656525108624382,0.005020383798421397,-0.011635527611230906,0.009140717077650535,0.9875415295842589
2013-05-14,1,0.004794188413834088,0.005234331180248568,-0.020401113869639623,0.009140717077650535,0.984869553534039
2013-05-16,1,0.004899806717053366,0.005372447781036781,-0.0146369503291379,0.00650753645246058,0.9866624854227702
2013-05-20,1,0.004855953659063869,0.005297529090290468,-0.0146369503291379,0.005207516191027111,0.986600513893082
2013-05-22,1,0.003965275825734224,0.004268170335624997,-0.013534941541831937,0.005207516191027111,0.9869417027530144
2013-05-24,1,0.0035686519984608166,0.0038052976558502895,-0.01417470712114434,0.006633968762843889,0.9862705419522275
2013-05-29,1,0.00372362685935791,0.003985099777291544,-0.01417470712114434,0.009714974508095005,0.9857851940971417
2013-05-31,1,0.0033847015759553047,0.0035881068232197573,-0.011481446541899719,0.006633968762843889,0.9870480521323084
2013-06-04,1,0.0022928943131196224,0.002314485679984133,-0.010147778085820918,0.009164076729992823,0.9882090320377783
2013-06-06,1,0.0019360944378892984,0.001972028186095779,-0.010147778085820918,0.009164076729992823,0.9885957147010204
2013-06-10,1,0.00177790293265792,0.0018397134092773743,-0.0073455161455415995,0.009164076729992823,0.9893400358249375
2013-06-12,1,0.0007788057402678243,0.0009644386142143767,-0.0025664571885101943,0.01042168487970949,0.9909054232598797
2013-06-14,1,0.0005321801712227766,0.000752656468060128,-0.0037396326993851116,0.01042168487970949,0.9904395723728363
2013-06-18,1,0.0005958134728256213,0.0008002056630777346,-0.005350560417996661,0.012135045855664205,0.9899475180630706
2013-06-20,0,-0.00015872884158968652,0.00013592685652024305,-0.0037396326993851116,0.012135045855664205,0.9909708381692149
2013-06-24,-1,-0.00039923558073376854,-6.299417381262144e-05,-0.0037396326993851116,0.01042168487970949,0.9913939156860901
2013-06-26,1,0.0006048283054811302,0.0007957380603396613,-0.005350560417996661,0.009546317600322825,0.9910606232276163
2013-06-28,1,6.941206736967508e-05,0.0003602930684203562,-0.006678121548395796,0.010482352521357664,0.988663095136714
2013-07-02,-1,-0.002325697716244011,-0.002077885236899428,-0.005350560417996661,0.010157883020073179,0.9883206532594337
2013-07-05,-1,-0.0017112486547766516,-0.0015383045503641918,-0.006678121548395796,0.010157883020073179,0.9879633313604446
2013-07-09,1,0.00022742606533769215,0.0004223078308898692,-0.008981451664120847,0.00935104376433054,0.9882825942431523
2013-07-11,1,0.0017044077321805259,0.002164442687196063,-0.008981451664120847,0.00935104376433054,0.9888856883600265
2013-07-15,1,0.0012413770451686129,0.0015646533685852134,-0.008981451664120847,0.007464186106823002,0.989212195721342
2013-07-17,1,0.0009295566107857707,0.0011334163935621641,-0.008981451664120847,0.005869578267229052,0.9898036583978091
2013-07-19,1,0.0007005803422403758,0.0008816845185742511,-0.008981451664120847,0.005404220394599614,0.9895904146867739
2013-07-23,1,0.000509949628040741,0.0007081206129177174,-0.00669331762726681,0.005404220394599614,0.9902811700277786
2013-07-25,1,0.0019817434961935674,0.002402947549781925,-0.004271604222849108,0.005404220394599614,0.99132989673034
2013-07-29,1,0.002789857760982539,0.0033278550405698394,-0.004686732484911124,0.004654895476412537,0.9929432729672296
2013-07-31,1,0.0030408830423546184,0.003592839933420553,-0.0061558569571129465,0.00420447582590716,0.9925276962187162
2013-08-02,1,0.0007436640731101151,0.0007788653070071945,-0.0061558569571129465,0.0028029261855945548,0.9935403464093511
2013-08-06,0,-4.9534169904363694e-05,2.194688438578968e-05,-0.004686732484911124,0.004654895476412537,0.9927393990207183
2013-08-08,1,0.00014212504818739486,0.00020156979879832986,-0.0061558569571129465,0.004654895476412537,0.9926512445812744
2013-08-12,1,0.0007851499888809842,0.0008611242494936165,-0.0061558569571129465,0.010509532360536677,0.9912226945940199
2013-08-14,1,0.0003217416101280749,0.00035733439807863153,-0.0061558569571129465,0.011378910649797382,0.9903918189288073
2013-08-16,-1,-0.0005801860890939274,-0.0004546663708311282,0.00024136349763101807,0.012745535114928236,0.9902423978639066
2013-08-20,-1,-9.244046843234795e-05,-3.8737562538943547e-05,0.00024136349763101807,0.013922024518907707,0.9897954080511668
2013-08-22,1,0.000566646110049164,0.0005793744348169561,-0.0019098632610349564,0.012745535114928236,0.9907709755904581
2013-08-26,-1,-0.0010514170811618,-0.000786192552344592,-0.0010056792376244084,0.012745535114928236,0.9902885346343661
2013-08-28,-1,-0.001026719482782519,-0.0007907993102878023,0.0012139569563579802,0.013397169344314286,0.9898207124541699
2013-08-30,-1,-0.00035155929464640784,-0.0002909754220844099,-0.0009629625259452085,0.013397169344314286,0.9897317705132346
2013-09-04,1,0.0005622019322633025,0.0005669579693205082,-0.0010088855437670621,0.013397169344314286,0.9906645608620082
2013-09-06,0,-0.00011230515632816481,1.892091346470244e-05,-0.0010088855437670621,0.013863272740230196,0.989292341388096
2013-09-10,1,0.00035434188024383343,0.0005197608873274385,-0.005967353839271952,0.013397169344314286,0.9890699720239235
2013-09-12,1,0.0015950228572663041,0.0016212084103457065,-0.0127800214788106,0.013397169344314286,0.9876494521000541
2013-09-16,1,0.0026189679171832667,0.002873758635031954,-0.0127800214788106,0.013418227982037826,0.9874750780113736
2013-09-18,1,0.003899424136038354,0.004271284918691199,-0.0127800214788106,0.010620721935598655,0.986809542868508
2013-09-20,1,0.004512851285843646,0.005027613001688022,-0.0127800214788106,0.010620721935598655,0.986930088101341
2013-09-24,1,0.0038891155638457646,0.004337186371193574,-0.011488983721598475,0.013418227982037826,0.9872116668857427
2013-09-26,1,0.005101166660670236,0.005741521369484396,-0.015332304645321088,0.010790128826052986,0.9806760387968798
2013-09-30,1,0.0047230674546108,0.005187236043446198,-0.012817686292768953,0.010790128826052986,0.9814642972722973
2013-10-02,1,0.005650615723028252,0.006307656720273655,-0.015574701929117906,0.011372353296242248,0.9801221904394034
2013-10-04,1,0.0057136603636238,0.006381056558116731,-0.014835911162859412,0.007630565399785605,0.9809995129842097
2013-10-08,1,0.003979054420485761,0.0044090648895203505,-0.01188309337693851,0.010636664422763654,0.9830501260770254
2013-10-10,1,0.005535525338848061,0.006216557700953975,-0.012147484532753787,0.007630565399785605,0.9837202513422976
2013-10-14,1,0.005303853975478835,0.0058657542183105675,-0.012147484532753787,0.007630565399785605,0.983677112509958
2013-10-16,1,0.005020241530036734,0.005529526165123133,-0.011318573363037305,0.008522540938945552,0.9831251102496155
2013-10-18,1,0.005251256994082135,0.0057993388113590375,-0.011318573363037305,0.008522540938945552,0.9819265956842905
2013-10-22,1,0.005936606491587426,0.006553828969872777,-0.011318573363037305,0.001239788577884685,0.9816687324497565
2013-10-24,1,0.0025031638112750984,0.0027501290805249747,-0.009178226190495293,0.001239788577884685,0.9885509208176044
2013-10-28,1,0.002972599413713798,0.00309701831280628,-0.009178226190495293,0.007626521559843471,0.9881539906429877
2013-10-30,1,0.0027577771370822755,0.0028563071861741644,-0.008452305825589453,0.003933876863669519,0.9896085623860372
2013-11-01,1,0.0010406789185808038,0.0012525097153157192,-0.008452305825589453,0.004004212492255844,0.9904763786768697
2013-11-05,1,0.0008573405152162047,0.0011024747199675378,-0.008127169187913078,0.005251949158239721,0.9898704793013062
2013-11-07,1,3.459098852006369e-06,0.0003444457644548105,-0.008127169187913078,0.005251949158239721,0.9899691406246972
2013-11-11,0,-0.00042167129950558763,4.83335437062389e-05,-0.008452305825589453,0.005251949158239721,0.9896552957675362
2013-11-13,1,0.0005793520063737273,0.0009291868266118668,-0.012834938456975675,0.003352462182938572,0.9895487331867324
2013-11-15,1,0.00034771050128321425,0.000654680935248021,-0.012834938456975675,0.005251949158239721,0.9879592774930994
2013-11-19,-1,-0.0005436190548776248,-0.0001098959887406983,-0.012834938456975675,0.007837528445602444,0.9874099674426072
2013-11-21,-1,-0.001684315465122325,-0.0011092243359242756,-0.009215713980187624,0.011016790273201446,0.9870805959470889
2013-11-25,-1,-0.00150913546141178,-0.000971928686521173,-0.009215713980187624,0.009125805194968722,0.9874049872462684
2013-11-27,-1,-0.0017545043816126228,-0.0012039567573775437,-0.009922723159228491,0.009125805194968722,0.987199918836806
2013-12-02,-1,-0.0016762433594407857,-0.0011757929418013745,-0.008911844396399672,0.007555114634293437,0.9877373337748128
2013-12-04,0,-4.499649169939306e-06,0.000297901413102767,-0.009922723159228491,0.004751208956734548,0.9889344775209883
2013-12-06,-1,-0.0008965299562870214,-0.0005029639036242598,-0.008911844396399672,0.007555114634293437,0.9886582947488591
2013-12-10,-1,-0.0011244922903063399,-0.0006861425521030317,-0.007709639832091986,0.00871433268369347,0.9887337801928386
2013-12-12,-1,-0.0029003890035408106,-0.0022251830538413623,-0.007243341160575344,0.014014469526807929,0.9873554781166392
2013-12-16,-1,-0.0010179314396142288,-0.0005904822089546186,-0.007094731250858886,0.01967313807261381,0.9869867355040144
2013-12-18,1,0.0011621062708204336,0.0012455676808370497,-0.007575228179011012,0.014014469526807929,0.987637418749009
2013-12-20,1,0.002255301747658499,0.002320629558872369,-0.007575228179011012,0.008757159331027149,0.9881458075728875
2013-12-24,1,0.0019271336565706144,0.0019287393903742976,-0.008476219072888123,0.009602497112589307,0.9868939901417723
2013-12-27,1,0.0005635302328845385,0.0007557235481671422,-0.007575228179011012,0.011040323780895632,0.9869663702011013
2013-12-31,1,0.0007850221246794365,0.0009378092182423336,-0.008842205784247803,0.013971870523760033,0.985448369716885
2014-01-03,0,-7.742114680977152e-05,0.00017086754191857024,-0.011832240650086732,0.013971870523760033,0.9837604516126937
2014-01-07,1,0.0002686667190070181,0.00048056566295075914,-0.011832240650086732,0.013971870523760033,0.9836029823576192
2014-01-09,0,-0.00014375985696395827,4.4594184439211856e-05,-0.011832240650086732,0.013971870523760033,0.9795860123085529
2014-01-13,-1,-0.000788060926792658,-0.0005271814939098656,-0.009668758307604679,0.021050127968796243,0.9793398800227904
2014-01-15,1,0.0015742591252065738,0.001626133772507592,-0.010475402790330837,0.012832399175211895,0.9814493302267717
2014-01-17,1,0.0007464183011920231,0.0008258149229939174,-0.010475402790330837,0.012832399175211895,0.9813613521510804
2014-01-22,1,0.0008716745247983192,0.000948791975336763,-0.010475402790330837,0.017601384365533712,0.981004625413336
2014-01-24,0,-3.457219509555719e-05,0.0001696516043327679,-0.009668758307604679,0.017601384365533712,0.981708539674618
2014-01-28,1,0.000450040111818365,0.0005534142035630784,-0.009800760220365752,0.017601384365533712,0.9818592800715511
2014-01-30,1,0.0004925126889518431,0.0005887560270127761,-0.009800760220365752,0.017765416635953123,0.981368906652533
2014-02-03,-1,-0.00024991729870883745,-0.00013118058219858584,-0.0020074196759021557,0.020126795502692373,0.9824806418094585
2014-02-05,1,0.00106537195621551,0.001145891904930493,-0.0046716386389284315,0.01788798635025903,0.9832453367873476
2014-02-07,1,0.004820101036210149,0.005420668128418386,-0.0072395924571219674,0.015310997496186366,0.987025634504278
2014-02-11,1,0.00662458652864266,0.007493379256306112,-0.0072395924571219674,0.010907265890702313,0.9882392479074603
2014-02-13,1,0.006530648157714328,0.0073916877316667,-0.00839307345936589,0.010907265890702313,0.9877132772485826
2014-02-18,1,0.006565065377382356,0.007396847823559928,-0.00839307345936589,0.013694829720996095,0.9874723960977335
2014-02-20,1,0.0071549845357164275,0.008084771404108987,-0.010058430910732948,0.013694829720996095,0.9863400256015784
2014-02-24,1,0.007389013208914599,0.008304597334119805,-0.018223379689148382,0.009738995557098167,0.9841638516922684
2014-02-26,1,0.0068075159032905935,0.007658148754885021,-0.01908423918946996,0.009738995557098167,0.9837830467025149
2014-02-28,1,0.006522965523761078,0.007333272509076571,-0.018223379689148382,0.006792899984399669,0.985823784365449
2014-03-04,1,0.0064135362225547525,0.00712227439897353,-0.018223379689148382,0.006792899984399669,0.9856519363876656
2014-03-06,1,0.006002826167875577,0.0066985816687163986,-0.020841887842900975,0.006792899984399669,0.9842125643695245
2014-03-10,1,0.005277705359724242,0.005922709048518136,-0.020841887842900975,0.006792899984399669,0.9838473440211213
2014-03-12,1,0.005619257560024999,0.006298713377299694,-0.020841887842900975,0.009185171540973211,0.9836428352691797
2014-03-14,1,0.0051954550698778725,0.00583521473858516,-0.021047894580750463,0.007507801995647581,0.9824730585645691
2014-03-18,1,0.006020744267215744,0.006808504572546207,-0.021047894580750463,0.007821993296843209,0.9823355545090553
2014-03-20,1,0.0031158114545205484,0.0034696950047462937,-0.021047894580750463,0.007821993296843209,0.9839325270079018
2014-03-24,1,0.0011581205600110882,0.0012320850913767317,-0.01307593207719323,0.007821993296843209,0.9860631125466511
2014-03-26,-1,-0.0006502458826975081,-0.000487313180154793,-0.011333064940377204,0.007821993296843209,0.9863835701528043
2014-03-28,-1,-0.0006646617907744841,-0.0004704479825634123,-0.018924344790610524,0.007821993296843209,0.9848885538333563
2014-04-01,1,0.0003638504884052919,0.00043567974997702353,-0.018924344790610524,0.011264255184469694,0.9840672810662677
2014-04-03,-1,-0.003026196641174171,-0.0025155116482495294,-0.017124497952693114,0.01137694283406232,0.9844169440958266
2014-04-07,-1,-0.005182679218976815,-0.00445630220921301,-0.017124497952693114,0.011990300616593397,0.9838042502681611
2014-04-09,-1,-0.0031839180293940874,-0.0027580356813001077,-0.017124497952693114,0.011311320443815068,0.9845807378878012
2014-04-11,-1,-0.006087161206087953,-0.005288520416542811,-0.01200539669219012,0.011582399929474171,0.9846130198083431
2014-04-15,-1,-0.005382658322704204,-0.004647027881516219,-0.01200539669219012,0.012327436087249413,0.9850872867789517
2014-04-17,-1,-0.005397933781254393,-0.004614073996051599,-0.01200539669219012,0.011582399929474171,0.9859530600213289
2014-04-22,-1,-0.004974195711476467,-0.004251215110985192,-0.017124497952693114,0.011582399929474171,0.9858141031196923
2014-04-24,-1,-0.006305729482877651,-0.005415076706191021,-0.01200539669219012,0.012327436087249413,0.9845244707905817
2014-04-28,-1,-0.008569810278350751,-0.00740130124117396,-0.008111434126587012,0.015160182286847401,0.9835287569123423
2014-04-30,-1,-0.00567546163892017,-0.004939683640986424,-0.008111434126587012,0.012327436087249413,0.9861623866437302
2014-05-02,-1,-0.006235386439984184,-0.005386698873144921,-0.0075307045687953355,0.011582399929474171,0.9881610269611657
2014-05-06,-1,-0.006957180149009723,-0.0060288954837959385,-0.005426787168650865,0.011582399929474171,0.9889409631073378
2014-05-08,-1,-0.007961005164215324,-0.006852595478201648,-0.003713111767292422,0.013005772516388524,0.9864993992479895
2014-05-12,-1,-0.005797094323038165,-0.005028318830267444,-0.003713111767292422,0.013005772516388524,0.9882580175226392
2014-05-14,-1,-0.0044728300349792145,-0.0039190003059045965,-0.003713111767292422,0.01182936287686005,0.9891191292858093
2014-05-16,-1,-0.004399168650046199,-0.003912273868089836,5.4594106429861546e-05,0.013005772516388524,0.9875662313235001
2014-05-20,-1,-0.00526630381359537,-0.004685623740587793,0.0014534031825505635,0.013005772516388524,0.9868810968888941
2014-05-22,-1,-0.0043921238972197945,-0.0038753572388870094,0.0014534031825505635,0.01182936287686005,0.9888359886637925
2014-05-27,-1,-0.003121539511743191,-0.0027711542130288078,0.00019002999355770598,0.01182936287686005,0.9899605265132232
2014-05-29,-1,-0.0033504158681816106,-0.0029388340316529194,-0.0007064446293657417,0.01182936287686005,0.990214828666116
2014-06-02,-1,-0.003304239187538938,-0.002927467292194997,-0.00033180246738995786,0.01182936287686005,0.9902695708798048
2014-06-04,-1,-0.0021116854687868677,-0.0019079595970813578,-0.00033180246738995786,0.009872368719396373,0.9912170993207111
2014-06-06,-1,-0.0012320455936113306,-0.0010538848848011349,-0.0007064446293657417,0.006212889989981539,0.9936646661389664
2014-06-10,1,0.0006497550430890576,0.0008363745742864326,-0.0018289778706374342,0.006212889989981539,0.9925031127282161
2014-06-12,1,0.0007255277393313153,0.0008941251418601494,-0.002424020568108391,0.006212889989981539,0.9920578896157083
2014-06-16,1,0.00224415894138749,0.0026455334405405834,-0.003907935204687496,0.006068755256267548,0.9925274839403808
2014-06-18,1,0.0023944496784356634,0.0027716565050832824,-0.008711002951356616,0.0036199235314243214,0.9914847497466392
2014-06-20,1,0.002411780908055587,0.0027861590410697594,-0.010214716095508688,0.0043919506101910396,0.9903797163974118
2014-06-24,1,0.0027141055626707456,0.003133144292852532,-0.010214716095508688,0.0043919506101910396,0.9906781417866257
2014-06-26,1,0.0009097497525995132,0.0009373878142332259,-0.010214716095508688,0.007347070593692866,0.9904965733642501
2014-06-30,1,0.0014045503011718798,0.0015657289098381633,-0.010214716095508688,0.007347070593692866,0.9898439475773005
2014-07-02,1,0.0022674264166683607,0.002651448797974557,-0.010230647757280782,0.007347070593692866,0.9873272426551938
2014-07-07,1,0.0031205475443473268,0.0037097940134595358,-0.010871408561428996,0.0078346093544769,0.9853295702449332
2014-07-09,1,0.002189310976213569,0.002665999247306781,-0.010871408561428996,0.007347070593692866,0.9868431705229748
2014-07-11,1,0.0020422199697457052,0.0025353815373388823,-0.010871408561428996,0.0078346093544769,0.9869535778513044
2014-07-15,1,0.002256643785394843,0.0028158094789535078,-0.010825848740971797,0.008318793261725002,0.9870027626870904
2014-07-17,1,0.0018412181173797341,0.002388089556136833,-0.007492127313407539,0.010906441530824165,0.9874555611655103
2014-07-21,1,0.001777184883402322,0.002280537717713708,-0.007324078838112886,0.012549577220113772,0.9876416868966366
2014-07-23,1,0.001728063499126626,0.002205659978507493,-0.006071489271335368,0.012549577220113772,0.9882387099693687
2014-07-25,1,0.002876448180118742,0.0035469691889368857,-0.0072729105956228016,0.009716451523715714,0.9887447325526647
2014-07-29,1,0.002217799786046493,0.0027638457343288113,-0.006028326243796073,0.009716451523715714,0.989466720984986
2014-07-31,1,0.0014677652221734107,0.0018417908610180696,-0.006028326243796073,0.008318793261725002,0.9916748087868903
2014-08-04,1,0.0009932266183141115,0.0013467206568510675,-0.002514430116372225,0.006997605844513709,0.9933999111803994
2014-08-06,1,0.00018153891375675296,0.00039984571449929265,-0.0011122373861168875,0.006997605844513709,0.9938252981081361
2014-08-08,1,0.0011761191054535756,0.0015691341751197178,-0.0011122373861168875,0.006997605844513709,0.993946300502337
2014-08-12,1,0.0016042321960292652,0.0021018965580424497,-0.0011122373861168875,0.007752082340072065,0.9935492872763558
2014-08-14,1,0.0017457499993389863,0.002202520009775082,-0.0011122373861168875,0.005078501511881423,0.9944597477402575
2014-08-18,1,0.0019789531408868416,0.00240489540767149,-0.0024256401003873176,0.00448901159656843,0.9940921151694584
2014-08-20,1,0.0023114900521183004,0.0027973315664258456,-0.0024256401003873176,0.005078501511881423,0.9926745281013168
2014-08-22,1,0.0025582372858085306,0.00311687199886795,-0.0059379884866152186,0.005078501511881423,0.9908124861320105
2014-08-26,1,0.0016171953426201784,0.0019431525268284013,-0.008579012890860993,0.008299044424446959,0.9895291204785966
2014-08-28,1,0.0003929541152820296,0.0003992314583636027,-0.011020486519520013,0.008299044424446959,0.9878114840901119
2014-09-02,1,0.001040577845665673,0.0011798580522809205,-0.011020486519520013,0.007333719159610638,0.9883640322274837
2014-09-04,1,4.4936223500423225e-06,0.00013307268005765204,-0.013449182700079375,0.007333719159610638,0.9870852530486228
2014-09-08,1,0.0010315491301336767,0.0010371500279066726,-0.013449182700079375,0.007333719159610638,0.9862736771129057
2014-09-10,1,0.0012655367457788,0.0013199769994200216,-0.016617676008138037,0.007333719159610638,0.9850545047843774
2014-09-12,1,0.001482554444829096,0.0015728271661176493,-0.01978630087869763,0.007333719159610638,0.9829924427792532
2014-09-16,1,0.0007025068522062052,0.0007536477798190651,-0.01960241351700225,0.0031541906366728246,0.9837440636006053
2014-09-18,1,0.0007011889645650929,0.0008056316507708604,-0.023500714137112095,0.0012032887844615357,0.983320095593595
2014-09-22,0,-5.614401071214856e-05,0.00012610570732996614,-0.01946693660967501,0.003433872428591646,0.9853341924695599
2014-09-24,-1,-0.00032723133679818915,-0.0001600596982701316,-0.020172185077738533,0.003433872428591646,0.984833774904913
2014-09-26,-1,-0.001555187144192837,-0.001223398349740785,-0.018563931516238037,0.009150746341346756,0.9856569388368366
2014-09-30,-1,-0.001736132233675851,-0.0013737918110476933,-0.018563931516238037,0.011501467937224745,0.9840209365636791
2014-10-02,-1,-0.002299947056907804,-0.0018906591300962615,-0.01784481182181479,0.01503850411273875,0.9813206977312388
2014-10-06,-1,-0.002057576223334776,-0.0016808035170930184,-0.01784481182181479,0.011501467937224745,0.982329003912717
2014-10-08,-1,-0.0025563895175004228,-0.0020971526299114265,-0.0167568562648119,0.009150746341346756,0.984321459387028
2014-10-10,-1,-0.004738381025075832,-0.0039853799786743384,-0.011784316705415306,0.010439281861772969,0.9845679906116858
2014-10-14,-1,-0.004762556426269311,-0.004045864675404793,-0.009771345811906057,0.011501467937224745,0.9842970752026262
2014-10-16,-1,-0.005968182153610824,-0.00514710039808503,-0.004674305243081793,0.011501467937224745,0.9852085546138396
2014-10-20,-1,-0.005477176034324155,-0.004716442003122361,-0.006476674038919817,0.01418140362330345,0.9838648043038554
2014-10-22,-1,-0.0056802108436112345,-0.004884726283464411,-0.006444948025556557,0.011501467937224745,0.9850758858022822
2014-10-24,-1,-0.004874104636250749,-0.004221359472634917,-0.006444948025556557,0.011617598009095516,0.9848208106852107
2014-10-28,-1,-0.0032146280826598657,-0.0028460482160204735,-0.006444948025556557,0.009831978674181154,0.9865877632411058
2014-10-30,-1,-0.0010790555185547996,-0.0009809064463207765,-0.004674305243081793,0.008830570616822022,0.9903057305174566
2014-11-03,-1,-0.0011648587304856487,-0.0010683876110591218,-0.004674305243081793,0.008830570616822022,0.9898364238641878
2014-11-05,-1,-0.0009724586651012762,-0.000955279889599032,-0.0026255853368050428,0.009831978674181154,0.9894376443735127
2014-11-07,1,1.622514065349333e-05,0.0001477435374037813,-0.004674305243081793,0.007358785921293002,0.9895217227594507
2014-11-11,1,0.00048105502266988516,0.0006890756322291438,-0.006444948025556557,0.006319770836834199,0.9891077980086479
2014-11-13,1,0.00023808855408898803,0.00043951219228461887,-0.010694135011214766,0.007358785921293002,0.9880019292589515
2014-11-17,1,0.001142145385435051,0.001439227320913732,-0.009556342042895063,0.006319770836834199,0.9899189566848646
2014-11-19,1,0.00109240043522537,0.001379459110295112,-0.006014928285604279,0.010890271021547361,0.988522997483124
2014-11-21,1,0.002318945857212798,0.002803308434210238,-0.006014928285604279,0.011801895172965544,0.9891149377749966
2014-11-25,1,0.002583189483811193,0.0031008744088067168,-0.006014928285604279,0.011801895172965544,0.9889426172567051
2014-11-28,1,0.0024352918736407886,0.0028834614983666925,-0.011171463049779689,0.011801895172965544,0.9880119127586154
2014-12-02,1,0.0014527062322678835,0.0017457659870024514,-0.011171463049779689,0.011801895172965544,0.9882825915555912
2014-12-04,1,0.0019005603126214018,0.0022411400403031445,-0.01590706296065824,0.009005109196338536,0.9877813516989254
2014-12-08,1,0.0008879836489270453,0.0009973316837930284,-0.01590706296065824,0.009005109196338536,0.9876128825697457
2014-12-10,-1,-1.94520143397427e-05,-4.651211321594467e-06,-0.013481824416407981,0.011801895172965544,0.9870602676758439
2014-12-12,-1,-0.0002856780710224716,-0.0002711525496539637,-0.010520577718040026,0.009005109196338536,0.9886436907416682
2014-12-16,-1,-0.000180084814959656,-0.00017181497085441474,-0.01590706296065824,0.009005109196338536,0.9875990023856344
2014-12-18,1,0.0009126537890342035,0.001043584513931509,-0.01590706296065824,0.007514167806959735,0.9888656257813497
2014-12-22,1,0.0018895597136109293,0.0021308651123570317,-0.01590706296065824,0.007060890430517282,0.9892256378483153
2014-12-24,1,0.0014653602044047253,0.0015885258788374298,-0.01590706296065824,0.006448422687206541,0.9895301448414509
2014-12-29,1,0.0008574142119062217,0.0008814050504821726,-0.01743513540600869,0.006170894520657021,0.9887325116160802
2014-12-31,1,0.0005158246081815391,0.0005437300225274485,-0.017846429750169084,0.006515147695745,0.9875631166928992
2015-01-05,-1,-0.00021426784789847146,-9.240250138514055e-05,-0.01523109684401135,0.007961576602927267,0.9871948491899666
2015-01-07,-1,-0.0007629618434341226,-0.0006170570827370957,-0.013219727444773477,0.00927141856989971,0.9878948820745767
2015-01-09,1,0.0003255201883340511,0.0003606626141491663,-0.005717258809485385,0.00927141856989971,0.9891843108212518
2015-01-13,1,0.0004114448352198533,0.00046655664104853145,-0.005717258809485385,0.010440522670907655,0.9871009287449279
2015-01-15,-1,-0.0012273507752147547,-0.0010678452145861748,0.0011483819178486204,0.016569998899308772,0.9844180783498054
2015-01-20,-1,-0.0004472742678417745,-0.00038366969652849753,-0.001441407086342719,0.01821996941593965,0.9844502547027946
2015-01-22,1,2.9476501498125105e-06,3.216186622128526e-05,-0.001441407086342719,0.01867727940531517,0.9844883732657062
2015-01-26,1,0.000547525439937672,0.0006102464571786625,-0.0027926551530701137,0.01867727940531517,0.9840184544337781
2015-01-28,-1,-0.00100991972795418,-0.0008743772909297489,-0.0019765168398295403,0.01867727940531517,0.9848667129690203
2015-01-30,-1,-0.000987640110476098,-0.0009016991351104406,-0.0011732490283603892,0.021159088630799343,0.985891187243504
2015-02-03,1,0.00044588688794274363,0.0005473003440750704,-0.0019765168398295403,0.01867727940531517,0.98623268845979
2015-02-05,1,0.0008325692298238365,0.001001526927449061,-0.0019765168398295403,0.01867727940531517,0.9860842413396638
2015-02-09,1,0.0010225789142779998,0.0012058917721228717,-0.005296141914277814,0.01867727940531517,0.986102309477964
2015-02-11,1,0.0033363825582167755,0.00390287583344928,-0.005296141914277814,0.017140129535262498,0.9867760948809036
2015-02-13,1,0.005119803276996897,0.0058154889088753905,-0.005296141914277814,0.016830820313840884,0.988698717464255
2015-02-18,1,0.005744994080605826,0.006520457638749163,-0.005296141914277814,0.012725316510835454,0.989150162001057
2015-02-20,1,0.005756530662387802,0.006465470434133914,-0.005296141914277814,0.009880055499690718,0.9893382486435022
2015-02-24,1,0.004792219520398033,0.0053646052506691,-0.005296141914277814,0.009880055499690718,0.9905381764254135
2015-02-26,1,0.0037897816702188985,0.004156205713371642,-0.005296141914277814,0.009880055499690718,0.9900819371135482
2015-03-02,1,0.00478022877623141,0.005310810047787709,-0.005296141914277814,0.008762524507925862,0.9907747072772458
2015-03-04,1,0.0044708459406239895,0.004950696570134814,-0.006121951410273351,0.006279272883617853,0.9909906591558514
2015-03-06,1,0.0028144147179412606,0.0029715797011157768,-0.005296141914277814,0.007792673586717364,0.9921592254585758
2015-03-10,1,0.0018526808970068085,0.0018681319469869468,-0.0020770125714432153,0.008762524507925862,0.9924880241089913
2015-03-12,1,0.001614701272560794,0.0017571376580969866,-0.0040292656411220484,0.006024627994102387,0.9931638216179584
2015-03-16,1,0.002142973571178242,0.002213803730920676,-0.003809012477874172,0.004158926984772236,0.9937348423837363
2015-03-18,1,0.0022255938695383984,0.002302725124557794,-0.003809012477874172,0.004158926984772236,0.9936002103454036
2015-03-20,1,0.002427236238652926,0.0024430901677794737,-0.007280426817660642,0.006024627994102387,0.992327798884999
2015-03-24,1,0.002701642394765301,0.002781492391546398,-0.0038430791134223957,0.008807873064385074,0.9914520485958014
2015-03-26,1,0.002323867876774152,0.002473600584126527,-0.0037346677536524257,0.008807873064385074,0.992564640760421
2015-03-30,1,0.002524932095771645,0.0026888612935826667,-0.007057392644995403,0.009668433603416222,0.9914668131045061
2015-04-01,1,0.0013256641500581623,0.0013508839746998586,-0.007057392644995403,0.009668433603416222,0.9909074487345012
2015-04-06,1,0.0018014930928943011,0.0018687864346110397,-0.007057392644995403,0.010473403444774147,0.9905967351840006
2015-04-08,1,0.002323721886281413,0.002484986050032453,-0.007057392644995403,0.010153105109772504,0.990744202665067
2015-04-10,1,0.0017971423779088488,0.0018605075677593976,-0.004921955634129754,0.012899585519642813,0.9904024346778283
2015-04-14,1,0.001978392805005044,0.0021165477363669556,-0.0049755205051709725,0.012899585519642813,0.9903929781903859
2015-04-16,1,0.002311152751860431,0.0024720600642362455,-0.0049755205051709725,0.012899585519642813,0.9898151715543521
2015-04-20,1,0.0031303070100337452,0.003468912474504677,-0.004514441348882692,0.010153105109772504,0.9908030158564182
2015-04-22,1,0.004165227712995417,0.004643137455595985,-0.005565743816360591,0.004069887726151609,0.9906942911128154
2015-04-24,1,0.004038508910890323,0.004510749310646041,-0.005060118696565573,0.0067928745631349995,0.9909237095858825
2015-04-28,1,0.0036308335793295895,0.003997942034397534,-0.005060118696565573,0.0067928745631349995,0.9915416416860017
2015-04-30,1,0.0027179587272283014,0.002989624484292989,-0.005060118696565573,0.0067928745631349995,0.9923854661348116
2015-05-04,1,0.00266471424665566,0.002871992413845368,-0.005881357648252157,0.003158445313128022,0.9921557707224015
2015-05-06,1,0.002032365323916893,0.00209828034194829,-0.008441826443330717,0.004148205038126419,0.9917589553501287
2015-05-08,1,0.002412610502157467,0.002504562306346854,-0.008441826443330717,0.0022451712546928742,0.9919095146572259
2015-05-12,1,0.0016033904565553887,0.001645514228242846,-0.009199744770261175,0.004148205038126419,0.9902674109044778
2015-05-14,1,0.003150292633373824,0.003386385352749527,-0.009199744770261175,0.001762430100519356,0.9899481452967654
2015-05-18,1,0.0031641758634302283,0.0034437014504093383,-0.009516571895013893,0.003499816824528381,0.9896802348119468
2015-05-20,1,0.002622199390055903,0.002831156912506294,-0.009516571895013893,0.005200124151419198,0.9905011934280377
2015-05-22,1,0.0026012476756760035,0.002782927097229105,-0.010293701678615524,0.005200124151419198,0.9898073175335339
2015-05-27,1,0.002199686048353836,0.0022958496557635155,-0.011796953380179642,0.003499816824528381,0.9895167065031676
2015-05-29,1,0.0010562205576469658,0.0011486263592185508,-0.011796953380179642,0.003499816824528381,0.9907391118780473
2015-06-02,0,-0.0002550142361891145,4.399619099380327e-05,-0.011796953380179642,0.005200124151419198,0.9901543751475437
2015-06-04,-1,-0.0004526870907958806,-0.00013427493175202773,-0.011127642524462326,0.005200124151419198,0.9904255622119943
2015-06-08,-1,-0.0008448049311315779,-0.00047196772249950467,-0.011127642524462326,0.005342335137170469,0.990461294854881
2015-06-10,-1,-0.002001342464257312,-0.0014264454485012933,-0.011127642524462326,0.005342335137170469,0.991936323601265
2015-06-12,-1,-0.0024761450873753755,-0.0018695710034936084,-0.011127642524462326,0.006761719509228205,0.9906633598935511
2015-06-16,-1,-0.0026300267443961165,-0.0020295930167622137,-0.007573510179863144,0.00807078182041971,0.9909139208077107
2015-06-18,-1,-0.0024492140142770603,-0.0018785034888920199,-0.007573510179863144,0.008095252971237445,0.9907658156674476
2015-06-22,-1,-0.0035927905679158942,-0.00281833624565734,-0.007573510179863144,0.008095252971237445,0.990638615544553
2015-06-24,-1,-0.0050955705167293145,-0.004106207062377619,-0.003226965533078553,0.008800904183869598,0.9896675973446097
2015-06-26,-1,-0.004736433104209519,-0.003839234398456967,-0.007970764610898684,0.008800904183869598,0.9893559288394468
2015-06-30,-1,-0.004715246574049904,-0.00387341064670274,-0.006114892311037351,0.008941202676032805,0.9894513498976572
2015-07-02,-1,-0.004665598471107863,-0.0038377287100910553,-0.0038798157916004414,0.010447842145681688,0.9874043092030921
2015-07-07,-1,-0.0037209739242650853,-0.0030761413229209054,-0.0075487936773911265,0.010447842145681688,0.9877309876032446
2015-07-09,-1,-0.002439405705939383,-0.0020689504751451523,-0.0075487936773911265,0.010447842145681688,0.9878595517558342
2015-07-13,-1,-0.0010861341684912926,-0.0009037738626317745,-0.0075487936773911265,0.00909979041983014,0.9893346612007431
2015-07-15,-1,-0.0006209233202049986,-0.0005185384480544256,-0.012333014992026011,0.010447842145681688,0.9879778553346225
2015-07-17,-1,-0.000739817273619018,-0.0005937672549442321,-0.012333014992026011,0.010447842145681688,0.9881967282060544
2015-07-21,-1,-0.0009951578721162785,-0.000806443823292734,-0.00784188764015949,0.007441994739997518,0.9889396201702164
2015-07-23,-1,-0.000274902136997042,-0.00019867575555083345,-0.012333014992026011,0.005776198580123357,0.9869248649654953
2015-07-27,-1,-0.0012513142709765297,-0.001052899958360747,-0.014679955379986571,0.005776198580123357,0.9860222840980337
2015-07-29,-1,-0.0007577844411571713,-0.0005981964459414498,-0.015328534693466973,0.005776198580123357,0.9850927008395493
2015-07-31,1,0.0004364584549857494,0.0004766812257238879,-0.015328534693466973,0.005776198580123357,0.984593152065931
2015-08-04,1,0.00038926280982373067,0.00039878688456123637,-0.015328534693466973,0.005776198580123357,0.9842840836325175
2015-08-06,1,0.00010396155234656234,0.0001253120512364355,-0.012600191897936864,0.012234483376817781,0.9836932407916176
2015-08-10,1,0.0004439311610181759,0.0004835063812109832,-0.012600191897936864,0.014832956183214431,0.982459791300909
2015-08-12,1,5.0052914049901165e-05,6.207329945295001e-05,-0.012385384877705468,0.01723453012966745,0.983045820924408
2015-08-14,-1,-0.0002509941287935892,-0.00019824704241335714,-0.012385384877705468,0.01723453012966745,0.9832959133825612
2015-08-18,-1,-0.000449525398165714,-0.00034453946077855327,-0.012385384877705468,0.01723453012966745,0.9830300154149234
2015-08-20,-1,-0.0018436370486044295,-0.0015917479101765246,-0.012385384877705468,0.01723453012966745,0.9840128230523628
2015-08-24,-1,-0.0034968202926673585,-0.0030233789601888162,-0.01004662166071494,0.01723453012966745,0.9849191774443716
2015-08-26,-1,-0.0026100245769870205,-0.0022527905589559416,-0.01004662166071494,0.013035008025635453,0.9868100756543162
2015-08-28,-1,-0.0008638356412585007,-0.0007273484028674243,-0.012385384877705468,0.00921653720024505,0.9869114197357909
2015-09-01,-1,-0.0015441692971099076,-0.0013212500430582045,-0.01009155942657055,0.013035008025635453,0.9864225145410759
2015-09-03,-1,-0.0004890989911863041,-0.00038376736896323743,-0.01009155942657055,0.010324861507991962,0.9873450055284386
2015-09-08,1,0.00019751864032910752,0.00019922981740868334,-0.008206555105945382,0.010324861507991962,0.987350266706429
2015-09-10,1,0.0004526899110972294,0.0005049576414671551,-0.005482034898757386,0.01041415605428898,0.987795060005221
2015-09-14,1,0.0009218443640096133,0.001089133117590116,-0.007254559597060297,0.01041415605428898,0.9872429877936043
2015-09-16,1,0.0009724680781935926,0.0011415723240504913,-0.0131423427788374,0.00672857587760439,0.9860726195167129
2015-09-18,1,7.070007958888825e-05,0.00012677483459820247,-0.00955637400292242,0.016860137494524467,0.9867836404737336
2015-09-22,-1,-0.0008775861764509375,-0.000777162039079944,-0.008571297094913081,0.017520015877323495,0.9865898655579998
2015-09-24,-1,-0.0010386530468761653,-0.0009453109465098616,-0.008571297094913081,0.018263768215685854,0.9858971217295575
2015-09-28,-1,-0.0015724490206948695,-0.0014176678107566763,-0.007733605355020899,0.018625481482109286,0.9864875696541121
2015-09-30,-1,-0.0006940212167112921,-0.0006693873260862375,-0.008571297094913081,0.018263768215685854,0.9829920082462692
2015-10-02,-1,-0.00019116520620700414,-0.00017404188883725255,-0.009175967326521357,0.01761342557514011,0.9824026271629048
2015-10-06,1,0.0007095629346747437,0.0008829022719632557,-0.009175967326521357,0.01761342557514011,0.9821006144881191
2015-10-08,1,0.0011042474221218666,0.0013268741683377778,-0.010947627563290619,0.01761342557514011,0.9818012774952214
2015-10-12,1,0.0007398535788174491,0.000900145978905702,-0.010947627563290619,0.01761342557514011,0.981614516281359
2015-10-14,1,0.00019855993396639913,0.00030053669396887353,-0.008597472090290546,0.01761342557514011,0.983016125951326
2015-10-16,1,0.000445060941095451,0.0005832713580669188,-0.011451003452526719,0.016191604594282615,0.9819841210974157
2015-10-20,1,0.0005747112543174008,0.0007106166741273458,-0.011451003452526719,0.012211872504549175,0.9825422273570538
2015-10-22,1,0.0006586736879290913,0.0007934852074530417,-0.010138274878290915,0.010054223266855589,0.9835059358760372
2015-10-26,1,0.0013996607360923707,0.0016274449998721977,-0.014565690305468875,0.004004688026290928,0.9831231853424792
2015-10-28,-1,-0.0006285273954831334,-0.0005892942049866524,-0.010138274878290915,0.009073549265996584,0.9875378205046282
2015-10-30,-1,-0.001377745797953521,-0.0012500089088989478,-0.008472315428113109,0.009073549265996584,0.9887982015069603
2015-11-03,-1,-0.000671570367141704,-0.000610732167829286,-0.010138274878290915,0.0016044607592446253,0.9891889306421066
2015-11-05,-1,-0.0012828331371041084,-0.0011436357711934794,-0.010601614034321579,0.005074147582760052,0.9876142260243959
2015-11-09,-1,-0.0011278993313684706,-0.001015081636933434,-0.01598479506797937,0.0016044607592446253,0.9873395044632834
2015-11-11,-1,-0.0012783238391290337,-0.0011455771021990453,-0.017672012788292734,0.004878648936198323,0.9855752232661892
2015-11-13,-1,-0.0026167281809431793,-0.0023035314193857,-0.017672012788292734,0.004878648936198323,0.9856717298976432
2015-11-17,-1,-0.0025581928212311984,-0.0022506639285914736,-0.017672012788292734,0.008267589907696911,0.9841700146838145
2015-11-19,-1,-0.002615454182417212,-0.0022816220519000265,-0.017672012788292734,0.004878648936198323,0.9841712226681295
2015-11-23,-1,-0.0034217184104281964,-0.0029978800798646874,-0.014585465350818956,0.00717858205340592,0.9853492949078464
2015-11-25,-1,-0.002998962132777051,-0.0026301569679985236,-0.014585465350818956,0.005991246141104986,0.9860348486094774
2015-11-30,-1,-0.003138460927210693,-0.002741978153123317,-0.014585465350818956,0.005991246141104986,0.985940728828
2015-12-02,-1,-0.0032049039556819895,-0.002842572990048799,-0.01323530243346985,0.005991246141104986,0.9869588749149103
2015-12-04,-1,-0.0027421528535803985,-0.0024438830007057445,-0.011449784761840835,0.0052458901448833835,0.9892745276470918
2015-12-08,-1,-0.0032309377429662104,-0.0028910631396380317,-0.01323530243346985,0.0052458901448833835,0.9870455378250904
2015-12-10,-1,-0.003653993795392034,-0.0032662978102723913,-0.01323530243346985,0.0033895463023500736,0.986575496410838
2015-12-14,-1,-0.00470584793216863,-0.004219308931559711,-0.00928486328052754,0.0052458901448833835,0.9861225509886345
2015-12-16,-1,-0.003740027931717104,-0.003339719925895838,-0.015365556299205177,0.0033895463023500736,0.984435824843463
2015-12-18,-1,-0.0037947113407713444,-0.003422271012602028,-0.011699994607555246,0.005991246141104986,0.982493535184617
2015-12-22,-1,-0.0025288608449855615,-0.0023685929655793787,-0.011699994607555246,0.007508394171146506,0.9821570116439439
2015-12-24,-1,-0.002510085835415691,-0.002340873155891675,-0.023406726291587552,0.011891879743304981,0.9808275774154687
2015-12-29,-1,-0.0023714636221827705,-0.002204019011202444,-0.02674654469440091,0.011891879743304981,0.9786503875824423
2015-12-31,-1,-0.002463480882344325,-0.002304840406535159,-0.02674654469440091,0.014845635087905942,0.9763701069237429
2016-01-05,-1,-0.002793326098491897,-0.00258480938146728,-0.03221384658174668,0.01730837534983715,0.972644219644757
2016-01-07,-1,-0.004686521264884265,-0.004255669554768976,-0.027410049292488355,0.01730837534983715,0.9740858155654537
2016-01-11,-1,-0.006052592876997793,-0.0054848670854369865,-0.032795281764952236,0.01730837534983715,0.9730266559715064
2016-01-13,-1,-0.00483113569994466,-0.0043231267551222755,-0.032795281764952236,0.02399251736385226,0.969226364381544
2016-01-15,-1,-0.006281070550301032,-0.005563300602320487,-0.027410049292488355,0.03015563268776585,0.9693117888836669
2016-01-20,-1,-0.004855491303738838,-0.004337391089219802,-0.027410049292488355,0.026694635432519032,0.9708793359247067
2016-01-22,-1,-0.003499463113048711,-0.0032031276680855817,-0.027410049292488355,0.027298760913768785,0.970759755887854
2016-01-26,-1,-0.0038783821477618697,-0.0035234923474013282,-0.022946086062939335,0.027298760913768785,0.9713046889475544
2016-01-28,-1,-0.004516279435096085,-0.004140304693022767,-0.007601146297693402,0.027298760913768785,0.9727891091957808
2016-02-01,-1,-0.0031129896210385726,-0.0029260798694678903,-0.012768550592414564,0.02628323332937183,0.973422449209447
2016-02-03,-1,-0.0031657113980327013,-0.0029853156159065867,-0.009556036843247528,0.024805218523662468,0.97641515788348
2016-02-05,-1,-0.0034654562286132095,-0.0032597065324769118,-0.0055794296926331595,0.024805218523662468,0.9779791544485976
2016-02-09,-1,-0.005030818077828918,-0.004656985591868501,-0.0031911639845155445,0.024805218523662468,0.9798562028779937
2016-02-11,-1,-0.0023674312748934168,-0.002270945633746713,-0.0055794296926331595,0.018769066893459987,0.9854695322388279
2016-02-16,-1,-0.0008929728835542149,-0.0008226444024553473,-0.010009304703936774,0.012936302164475232,0.9879688371111359
2016-02-18,-1,-0.0006430480527863064,-0.000552867519605851,-0.010009304703936774,0.012936302164475232,0.9875953923233028
2016-02-22,-1,-0.00024602569886339064,-0.00012348696848804412,-0.010009304703936774,0.01144355665480028,0.9885974128452072
2016-02-24,1,0.00017433510923859567,0.00037913240416837305,-0.01036409023151596,0.008789795421626105,0.9880450303931338
2016-02-26,1,0.0006633049911143751,0.0009592109219199806,-0.01036409023151596,0.008789795421626105,0.9880921343128936
2016-03-01,1,0.0012603171527605574,0.0016775624598487446,-0.010009304703936774,0.006556224878279577,0.9901928414005496
2016-03-03,1,0.0016843641491584118,0.0021892245887515736,-0.007215141225646952,0.006556224878279577,0.9905255556784578
2016-03-07,1,0.0015835801013493126,0.0020638865857494763,-0.01023285581237571,0.006556224878279577,0.9889585761334275
2016-03-09,1,0.0013192746692798024,0.0017293101681590817,-0.01023285581237571,0.006556224878279577,0.9873066524167193
2016-03-11,1,0.0019063400013867684,0.0024124679375242897,-0.014790122841481323,0.00602492170674312,0.9867652926431488
2016-03-15,1,0.0017036346352033644,0.0022078108214625873,-0.011861041704091465,0.006556224878279577,0.9865505152680127
2016-03-17,1,0.0024494512456075695,0.0030668903389931596,-0.014964174203478776,0.00602492170674312,0.9862982741905936
2016-03-21,1,0.003163714808673084,0.00393519762069488,-0.014964174203478776,0.006504289606441524,0.9852895964348208
2016-03-23,1,0.002112600973619829,0.002666210841324955,-0.011218483331717643,0.002995934648537658,0.987176246738056
2016-03-28,1,0.0017464797913836034,0.002209631283550129,-0.011218483331717643,0.002995934648537658,0.987253117753934
2016-03-30,1,0.0024202444215139607,0.0030306085208974,-0.011218483331717643,0.010422606970777409,0.9841586739957052
2016-04-01,1,0.002422254162499405,0.0030168143498202323,-0.01896899995297038,0.005519163173888821,0.981124544188131
2016-04-05,1,0.0016792008958219802,0.002186937037635222,-0.017723847763244628,0.00534169262454164,0.9822601628878688
2016-04-07,1,0.0018395679497386205,0.0023657683387392154,-0.014964174203478776,-1.536383386813872e-05,0.9843806298191778
2016-04-11,1,0.0003077212503080071,0.0005632895010934259,-0.00834315002144298,0.005325108312153251,0.9866734583238742
2016-04-13,1,0.0008735099942802325,0.0012160051030810429,-0.00937752752123875,0.005325108312153251,0.9853003021379676
2016-04-15,1,0.0007220021852755975,0.001062332733744082,-0.008878096111297525,0.008086072655340065,0.9852656792176661
2016-04-19,1,0.0005617927145843855,0.0008296497888786755,-0.00877605702525566,0.008086072655340065,0.9852200020054795
2016-04-21,1,0.0008742753252497906,0.0012087363280531265,-0.00877605702525566,0.008086072655340065,0.984960639583927
2016-04-25,1,0.0008694880670858232,0.0012066085300316807,-0.00946022970909406,0.01082161872013694,0.9839109140825827
2016-04-27,1,0.0024490319570231634,0.0029596165590620145,-0.00946022970909406,0.008086072655340065,0.9856992318799617
2016-04-29,1,0.0008792146762334061,0.0012013717807704436,-0.007458353473278231,0.01082161872013694,0.988396190443697
2016-05-03,1,0.00010881682524416681,0.00029076125249796075,-0.00612056003904962,0.01082161872013694,0.9888928339307382
2016-05-05,-1,-0.0003149942529881399,-0.00022076020516197044,-0.006165590871254941,0.01092303976891,0.9875065482717855
2016-05-09,-1,-0.0005824047030735308,-0.0005706824697502596,-0.006165590871254941,0.017498496189579327,0.9868282422062633
2016-05-11,1,0.0003744559582987561,0.0005551285562365717,-0.003621067589852169,0.011409022940282143,0.9896342705547706
2016-05-13,1,0.00010097435901774483,0.00022226172198163427,-0.006165590871254941,0.011409022940282143,0.9876218243393059
2016-05-17,1,0.0005941972272292558,0.0008035666673936002,-0.003621067589852169,0.009997183753137512,0.98805843260934
2016-05-19,1,0.0005518077494321466,0.0007608886447724749,-0.004325076850678054,0.009997183753137512,0.9875046619470675
2016-05-23,1,0.001011212983157218,0.0012919223665349279,0.00022426580112222885,0.010653623524226462,0.9878779062230838
2016-05-25,1,0.0016581855964793333,0.002005888016597921,-0.000732885932308346,0.010653623524226462,0.987317806235972
2016-05-27,1,0.0021011566024531983,0.002487212856930914,-0.009726616079217603,0.009687139460611002,0.9830320028778222
2016-06-01,1,0.0011974346067288794,0.0013517518213838273,-0.009726616079217603,0.013152946026054366,0.9802614669868354
2016-06-03,0,-5.597760645338249e-05,2.9289197283104997e-05,-0.008186548357984307,0.01797054750089056,0.9798836782764407
2016-06-07,1,0.0006459236371155669,0.0006527967406497644,-0.009726616079217603,0.014280784270404799,0.979431579534217
2016-06-09,1,0.00030728407028033115,0.0003949580745710642,-0.009726616079217603,0.019672873790492106,0.9786225707071813
2016-06-13,-1,-0.0007095384390128528,-0.0005598286258145266,-0.0037844011528890766,0.019672873790492106,0.9810985156110292
2016-06-15,1,0.00010909229861135472,0.00014153948078043376,-0.0037844011528890766,0.019672873790492106,0.9810960504105146
2016-06-17,-1,-0.0002540247436808169,-0.0001567887851244675,-0.0026459183076193164,0.019672873790492106,0.9816034099548422
2016-06-21,-1,-0.0005688320250824732,-0.00034963705048426995,-0.0026459183076193164,0.016093143162097413,0.9826571526345617
2016-06-23,1,0.001248262539206512,0.0013034980543337232,-0.0042727385342699745,0.012620185994419934,0.9837210466861148
2016-06-27,-1,-0.0021222998517259582,-0.0017520904158059081,-0.0016876655117001105,0.012620185994419934,0.988175734440089
2016-06-29,-1,-0.0007307840089191874,-0.0005064078939024988,-0.0026459183076193164,0.010534190526024324,0.9869023216511527
2016-07-01,-1,-0.0018674237938213713,-0.0013831455484398965,-0.0026459183076193164,0.007467003488207847,0.9880697187037026
2016-07-06,-1,-0.00037239710673024303,-0.00019760437559543636,-0.0031398013137357763,0.0045357285240533625,0.9889904683397909
2016-07-08,1,0.0013438596704256239,0.0014822519232399443,-0.0031398013137357763,0.0045357285240533625,0.9889176534723653
2016-07-12,1,0.001366226843096105,0.0015274264737466692,-0.0045880193451359585,0.0045357285240533625,0.9886887411052718
2016-07-14,1,0.0022472436584428618,0.0025582560841852335,-0.009264156116204245,0.003633446712439079,0.9871097356360122
2016-07-18,1,0.0022524174683434687,0.0025705423642620974,-0.009264156116204245,0.004326359154341787,0.9869947366352679
2016-07-20,1,0.0024796724118199467,0.0028390830884631128,-0.009264156116204245,0.0043073588101124275,0.9869154223471637
2016-07-22,1,0.0025267397146442484,0.002899398772693074,-0.0045880193451359585,0.0043073588101124275,0.9874753698638976
2016-07-26,1,0.0026073578744262747,0.002992361704074074,-0.0045880193451359585,0.007627060642870407,0.9870645458855751
2016-07-28,1,4.398831396641203e-05,8.189123541489039e-05,-0.001509559659282829,0.01078177799738769,0.9915578272360689
2016-08-01,0,-1.5982798849917935e-05,1.1277013540345095e-05,-0.0019408462931860015,0.011034977391488694,0.9908416077440869
2016-08-03,-1,-0.00036313790982085107,-0.0003539897820921353,-0.00039182360859318466,0.011034977391488694,0.99166663729836
2016-08-05,-1,-2.7699585263821653e-05,-1.3377120383722885e-05,-0.00010348393693566688,0.01078177799738769,0.992665044394098
2016-08-09,1,0.00013368179042393206,0.00021089520863579566,-0.00010348393693566688,0.01078177799738769,0.9918207349221729
2016-08-11,1,0.0008532510650877305,0.0010338531719071946,-0.0014017797061553292,0.008003367845832499,0.9928777911675652
2016-08-15,1,0.000889282797664035,0.0010414086587131038,-0.0032643849624631347,0.008003367845832499,0.9916985105733214
2016-08-17,1,0.0009845344771645512,0.0011437235975388644,-0.004968063904656381,0.008003367845832499,0.9914998693870513
2016-08-19,1,0.0013148908708136232,0.0015221769752391397,-0.005866916070221992,0.008003367845832499,0.9910441132963427
2016-08-23,1,0.0016596200853524444,0.0019156777891950415,-0.005866916070221992,0.008003367845832499,0.9905198829440028
2016-08-25,1,0.001583156379162817,0.0017677092648958129,-0.005866916070221992,0.004340657372806639,0.9908269503936017
2016-08-29,1,0.001783553368505547,0.001997943698964123,-0.008183375591352928,0.004340657372806639,0.9904096588504507
2016-08-31,1,0.0010310974496254561,0.0010770813407721797,-0.008183375591352928,0.004340657372806639,0.9902525623201924
2016-09-02,1,0.0013250719683729662,0.0014285529588153574,-0.008183375591352928,0.011109493522156288,0.9894255044314216
2016-09-07,1,0.00037995265375415836,0.00042567304604242356,-0.007216984227254349,0.012812303134974343,0.9888861515359247
2016-09-09,-1,-0.0004130579661007591,-0.00028492545193146306,-0.005677524166970857,0.012812303134974343,0.9892737863576151
2016-09-13,-1,-0.0008207914158761614,-0.0006431809500777581,-0.005677524166970857,0.012812303134974343,0.9895714806621582
2016-09-15,-1,-0.0012506022597294857,-0.001013152963276707,-0.0055344793515314985,0.012812303134974343,0.9895059802896156
2016-09-19,1,7.544367039151724e-05,9.368159798387e-05,-0.003834059827719956,0.011696823973756189,0.9903249254493822
2016-09-21,-1,-0.0007574387220218306,-0.0005843173514206955,0.000372118048496373,0.012785277544873361,0.9895924238983154
2016-09-23,-1,-0.0011289697133440076,-0.0008847044036594085,0.0018672259949973043,0.01433298799463648,0.9888115653676527
2016-09-27,-1,-0.0011542268531159973,-0.0008921127871056813,0.0023506700905774605,0.01433298799463648,0.9888064459858189
2016-09-29,-1,-0.0011855154201743253,-0.0009310655768477767,0.003041724991974918,0.01675607341859511,0.983461221658793
2016-10-03,-1,-0.00038781456362310966,-0.00024095285232593396,0.0025639949977510007,0.01675607341859511,0.9841740549281265
2016-10-05,1,0.0005706306503842862,0.0006155652953735515,-0.00034305348992525776,0.016088571820979225,0.9851638276258039
2016-10-07,1,0.00011052331076824898,0.00020022772605032303,-0.007388747794916017,0.016088571820979225,0.984920663488007
2016-10-11,-1,-0.0004926452895070781,-0.0003232804946754779,-0.003264612183620046,0.016088571820979225,0.9854564274801499
2016-10-13,-1,-0.0002331019561414685,-0.0001065346615779531,-0.005068096831918726,0.016088571820979225,0.9854949078218826
2016-10-17,1,0.00041039565965181476,0.000423858266745889,-0.007388747794916017,0.016088571820979225,0.9853968111746018
2016-10-19,1,0.0013799961855354055,0.0015270677186955159,-0.007388747794916017,0.01208799977798785,0.9866032876648201
2016-10-21,1,0.0018029720066495259,0.002008777780078054,-0.007388747794916017,0.010663736277517454,0.9867139190584455
2016-10-25,1,0.002077099166698035,0.0022928921429969324,-0.007388747794916017,0.00784817155773721,0.987258713212518
2016-10-27,1,0.004932113072734795,0.005553699241025289,-0.007388747794916017,0.006656805173448174,0.9911321936617375
2016-10-31,1,0.005105791558101784,0.005758553979443446,-0.010905251595151131,0.006656805173448174,0.9907696481569915
2016-11-02,1,0.003375765789017871,0.003711111659855915,-0.00913390487904105,0.006656805173448174,0.9901407202920092
2016-11-04,1,0.0030644135044366498,0.0033760032433085073,-0.004766697136890363,0.006897610411562969,0.9913924330456683
2016-11-08,1,0.0030816176994880374,0.0033866453292421485,-0.004766697136890363,0.0069600691689412925,0.990953080689415
2016-11-10,1,0.0032546759691321394,0.00361660134213618,-0.0059713608578116344,0.0069600691689412925,0.9901777695405566
2016-11-14,1,0.0036250693939046345,0.004096342623103593,-0.0059713608578116344,0.0077124853619435,0.9899505392082424
2016-11-16,1,0.0021771966208454178,0.0022812008015884074,-0.0059713608578116344,0.009886161134792338,0.988437352858535
2016-11-18,1,0.003060544624011244,0.003377651748093948,-0.006483375976364247,0.00901571948870045,0.9886026167464591
2016-11-22,1,0.0032834475233120787,0.00365107792970386,-0.009121845190445513,0.01069366672306361,0.9877817684901722
2016-11-25,1,0.0030349116045788205,0.0033489939111466293,-0.009121845190445513,0.01069366672306361,0.9877731367050369
2016-11-29,1,0.003344555331745514,0.0037335966084876965,-0.009121845190445513,0.00901571948870045,0.9883128090050511
2016-12-01,1,0.00175383463370745,0.0019212862097688918,-0.006169952943882647,0.00901571948870045,0.9903060212435804
2016-12-05,1,0.0022594320193426993,0.0025245806159805346,-0.006169952943882647,0.01177255039417755,0.9898731048090761
2016-12-07,1,0.002898645851650505,0.0032448033039925274,-0.006169952943882647,0.01177255039417755,0.9903370739127713
2016-12-09,1,0.0024107658891864806,0.0026975994546557364,-0.0054701853138020085,0.01177255039417755,0.9912969323309476
2016-12-13,1,0.002413870992162793,0.0026989047998831712,-0.003906729998861953,0.009417414817306954,0.9920110791475717
2016-12-15,1,0.0033274954496490387,0.0037334107563062485,-0.003906729998861953,0.007222126570158055,0.9932428901921848
2016-12-19,1,0.002395831759242243,0.0024689669003430063,-0.003906729998861953,0.004700412409556683,0.9930269690052556
2016-12-21,1,0.0021455854105548178,0.0021721746518212916,-0.003906729998861953,0.0038943977804267336,0.993346915050502
2016-12-23,1,0.0012233342023139529,0.0013567249987410004,-0.003392669903473879,0.004700412409556683,0.9931534648999701
2016-12-28,1,0.001224343342936271,0.0013216693761014385,-0.003392669903473879,0.0035880386299803175,0.9932451877211326
2016-12-30,1,0.00042359982256947584,0.0006376977519522649,-0.0028630447445038036,0.0058118936091501715,0.9931070981102393
2017-01-04,1,0.0015335803229177887,0.0015832983193488559,-0.0028630447445038036,0.0035880386299803175,0.993729164417062
2017-01-06,1,0.0022422820362880853,0.002290516409046407,-0.0028630447445038036,0.00285467061897366,0.9944837996097251
2017-01-10,1,0.0021547987959693368,0.0022075969341655184,-0.003309509974082024,0.0025491475582271076,0.9887208249395223
2017-01-12,1,0.0017324883102666933,0.001766134681852401,-0.003309509974082024,0.0032825872429967182,0.989060274496962
2017-01-17,1,0.0016517585793755826,0.0016868987095010682,-0.003906186738227599,0.0032825872429967182,0.9888604645583949
2017-01-19,1,0.0014150128279831688,0.00144066895485745,-0.0026114989352297308,0.005367444878774438,0.9891660164861493
2017-01-23,1,0.000971935441165121,0.000993648520718011,-0.0026114989352297308,0.005367444878774438,0.9883072872136385
2017-01-25,1,0.0010880056465234756,0.0011052151956245635,-0.0029954789937642343,0.005367444878774438,0.9886889479505195
2017-01-27,1,0.0007217335027121123,0.0007758936930759588,-0.0011781220419696014,0.005367444878774438,0.9892768923949768
2017-01-31,1,0.0004168486659740334,0.0005419775834284929,-0.00162366605176756,0.005367444878774438,0.9890970375491935
2017-02-02,1,3.771100077204492e-05,0.00025396282709413997,-0.0043321110231581104,0.005367444878774438,0.988963848191967
2017-02-06,0,-0.00027074530539477205,5.930423708236268e-06,-0.004781081142459939,0.005367444878774438,0.9887554128185231
2017-02-08,-1,-0.0030430435070529036,-0.002422158843743632,-0.004285866278593248,0.005367444878774438,0.9931243508787904
2017-02-10,-1,-0.002962116887649619,-0.0023518689886120898,-0.004285866278593248,0.005570975106446278,0.993160092552168
2017-02-14,-1,-0.003087721637772746,-0.002476919307549238,-0.004285866278593248,0.005797714628880251,0.9920212710211368
2017-02-16,-1,-0.002943062294242811,-0.002343765078549435,-0.004285866278593248,0.005797714628880251,0.9921386690855932
2017-02-21,-1,-0.00368675608877298,-0.0030074680912223323,-0.004285866278593248,0.005797714628880251,0.9922455974380563
2017-02-23,-1,-0.0039794924394310986,-0.003249091788825149,-0.0026494299659064126,0.005938255448729796,0.9917505220981402
2017-02-27,-1,-0.0035989067569760034,-0.0029447210858681745,-0.004285866278593248,0.005938255448729796,0.9919730252111187
2017-03-01,-1,-0.002690519268948889,-0.0022009827348969616,-0.002799086672340356,0.005734045947384568,0.9925073211615021
2017-03-03,-1,-0.00323344743887519,-0.002644748906067902,-0.005672771595383045,0.004393319918669366,0.9903406107970868
2017-03-07,-1,-0.00366679155028535,-0.0030011386382673946,-0.009792976972728617,0.005734045947384568,0.9883149242253129
2017-03-09,-1,-0.0032753950018066655,-0.0026590862517741646,-0.009792976972728617,0.0042266748534226135,0.9890716324212118
2017-03-13,-1,-0.003056649607536965,-0.0024755813530135673,-0.011725935901574214,0.0042266748534226135,0.9888104832600941
2017-03-15,-1,-0.00271845519628848,-0.002217410844471468,-0.00913089683079548,0.0042266748534226135,0.9895761057742047
2017-03-17,-1,-0.002180479744959535,-0.0017675608072718367,-0.00913089683079548,0.002653025593783726,0.9901699082366187
2017-03-21,-1,-0.0027262018165545485,-0.002284949102026291,-0.008445421781357342,0.004017147188318865,0.9904109722705271
2017-03-23,-1,-0.0003370499938554891,-0.00033166294983194035,-0.008445421781357342,0.004017147188318865,0.9907874721478315
2017-03-27,-1,-0.00037577178553537254,-0.0003576880590026731,-0.0037601532952846474,0.007428984140263198,0.9899304514895307
2017-03-29,-1,-0.0006805276652201813,-0.0006168488495206252,-0.009089741424305874,0.007476222523570401,0.9879287282221562
2017-03-31,-1,-0.0027346886565366925,-0.0024016716974822904,-0.0015697875332519808,0.008750155803544574,0.9884994314166355
2017-04-04,-1,-0.0024153681858808413,-0.0021342602642130688,-0.0015697875332519808,0.008750155803544574,0.9852870667246055
2017-04-06,-1,-0.002091394355972228,-0.0018477111078650727,-0.0015697875332519808,0.008750155803544574,0.9850862156608762
2017-04-10,-1,-0.002350471447098673,-0.0020662360201721226,-0.0015697875332519808,0.008750155803544574,0.9838035733193343
2017-04-12,-1,-0.0020613946428574724,-0.001820118381439167,-0.0037472347024662895,0.008750155803544574,0.9839251751357246
2017-04-17,-1,-0.001902903239506906,-0.0016908730344677863,-0.009047119173829936,0.008750155803544574,0.9833188515159749
2017-04-19,-1,-0.001466990672521282,-0.0013143660124089655,-0.013687316406799705,0.008247497955159812,0.9821529887120721
2017-04-21,-1,-0.0011828476935039957,-0.0010678391997498678,-0.013687316406799705,0.008086917453765155,0.9818829099674108
2017-04-25,-1,-0.00048816680643116317,-0.0004612245305133129,-0.013687316406799705,0.00787816688374619,0.9824375225053829
2017-04-27,-1,-0.001838318087748019,-0.0015951339939094169,-0.011596169818607015,0.008086917453765155,0.983997518046432
2017-05-01,-1,-0.0010473525089384223,-0.0009098564931584826,-0.013687316406799705,0.005390654924576759,0.9847891672876736
2017-05-03,-1,-0.002421911265086426,-0.002154111502281164,-0.011596169818607015,0.005390654924576759,0.9890586996119237
2017-05-05,-1,-0.0028526577890372294,-0.0025187874267500023,-0.010622926500370498,0.00781444218779452,0.988943438074043
2017-05-09,-1,-0.0033468071423195687,-0.0029616365785965527,-0.00968533716513187,0.00781444218779452,0.9904380302916204
2017-05-11,-1,-0.0030517344651239432,-0.0027435283475688473,-0.00968533716513187,0.00781444218779452,0.989803442061081
2017-05-15,-1,-0.003070985361481049,-0.0027715591135684934,-0.00968533716513187,0.00781444218779452,0.9887924444685607
2017-05-17,-1,-0.003941969604629851,-0.0035480514784241492,-0.007254486691654748,0.00781444218779452,0.9902975376474641
2017-05-19,-1,-0.0038557616903942735,-0.0034740688253277864,-0.0062076636623433976,0.007669212744403714,0.9905557075200065
2017-05-23,-1,-0.0037073610853636096,-0.0033428509759117512,-0.006341728310272688,0.007674475456814908,0.989847935346007
2017-05-25,-1,-0.003376649294239171,-0.003047498057963155,-0.006341728310272688,0.00916214333217249,0.9886371568988518
2017-05-30,-1,-0.003207101791013983,-0.0029326167990285606,-0.007838028564158937,0.00916214333217249,0.9884562178496686
2017-06-01,-1,-0.0022262322093100193,-0.0020951738829532124,-0.007872716113759374,0.00902267808434725,0.9891441316665951
2017-06-05,-1,-0.001624608279050467,-0.0015773005703360798,-0.008426285009197447,0.008866923216134054,0.9893493911573111
2017-06-07,-1,-0.0016611294148678453,-0.001609972867059172,-0.008426285009197447,0.012739486610129927,0.9875315071978228
2017-06-09,-1,-0.00169846766959154,-0.0016484829166620203,-0.007872716113759374,0.012739486610129927,0.9881486694004408
2017-06-13,-1,-0.000972325531555798,-0.0009406927184105118,-0.007872716113759374,0.012739486610129927,0.9888911144385772
2017-06-15,-1,-0.0011702699492845538,-0.0011639887832559513,-0.008426285009197447,0.012739486610129927,0.988195967618969
2017-06-19,-1,-0.0007748160495946002,-0.0007071371167408747,-0.008426285009197447,0.013480680376225778,0.9873458609143311
2017-06-21,-1,-0.0008315990981427293,-0.0007791423179673589,-0.007872716113759374,0.013062284632750058,0.9879490011328835
2017-06-23,1,0.0002703557140627549,0.00048454237193469596,-0.007872716113759374,0.010852394964695498,0.9897720871975836
2017-06-27,1,5.780301629072131e-06,0.0001946269802749072,-0.0054026740943331885,0.011446139267323114,0.9852584761278519
2017-06-29,1,0.0003421014998133172,0.0006204653799621326,-0.004453473495639103,0.01218552576445916,0.984918381071637
2017-07-03,-1,-0.0006209482830170639,-0.0005612153198583067,-0.00292148682469333,0.01218552576445916,0.9844733612499146
2017-07-06,-1,-0.0007706442979597639,-0.0007157465708450643,-0.0009233715462470706,0.011224453279845132,0.9861647476897477
2017-07-10,-1,-0.0005638372902411028,-0.00048594119774759997,-0.003752233560329867,0.011224453279845132,0.9861165519988444
2017-07-12,1,0.00019360844564672,0.00039488197550250335,-0.003752233560329867,0.01108503422520225,0.9871073997197495
2017-07-14,1,9.583750652525781e-07,0.00014132603635729765,-0.003752233560329867,0.01108503422520225,0.9868288606401832
2017-07-18,1,0.0005828154746499881,0.0008051180455311406,-0.003752233560329867,0.010043803250087097,0.9873509608269291
2017-07-20,1,0.0011254941995759446,0.0014272386838382403,-0.005857497856944959,0.00863105363817486,0.9870537347279108
2017-07-24,1,0.0013424521485495017,0.0016907872397272721,-0.010003493539384217,0.00863105363817486,0.9868133018334283
2017-07-26,-1,-0.0007205318133453445,-0.0006414025190994172,-0.00886528393402106,0.00863105363817486,0.99123718567119
2017-07-28,1,0.00021007642912228015,0.0004161132185193469,-0.00886528393402106,0.0033955427448182814,0.9921846492604258
2017-08-01,1,0.0008934408653321045,0.0012172119660742867,-0.00886528393402106,0.0029519192115531464,0.9918940673551748
2017-08-03,1,0.0014071918989866704,0.0018165744695188702,-0.00886528393402106,0.005093991619891844,0.9909302644444712
2017-08-07,1,0.0010922510727904948,0.0014608057159084418,-0.00886528393402106,0.005093991619891844,0.9907361037678901
2017-08-09,1,0.0014281675483674857,0.0018635476964824703,-0.00886528393402106,0.01043526899698682,0.9899762676962246
2017-08-11,1,0.0005424239001282273,0.0008121065139762444,-0.00886528393402106,0.010819907103511248,0.9899816391794108
2017-08-15,1,0.0008246872533837908,0.0011549780754010188,-0.006273852383999191,0.010819907103511248,0.9904549119497389
2017-08-17,1,0.0003164440492116309,0.0005717675461688877,-0.004519188097615983,0.013128806868506511,0.9907054272417748
2017-08-21,1,0.00027239768373548,0.000538665210532458,-0.0029688471245610383,0.013128806868506511,0.990962352420132
2017-08-23,-1,-0.00013546148830952218,-1.8289661937632962e-05,-0.0027097061396038416,0.010819907103511248,0.9920749946391784
2017-08-25,-1,-0.0003655905446625372,-0.0002857173009757668,-0.0020805617525039718,0.013128806868506511,0.9912454669295527
2017-08-29,1,1.9535073340622307e-05,0.00013966475208505201,-0.0020805617525039718,0.01132133908208961,0.9919113798847249
2017-08-31,1,0.0008315198371018779,0.0010557078913021323,-0.0020805617525039718,0.00788033909056946,0.9921761160886771
2017-09-05,1,0.0004719472135536637,0.0006643257720413367,-0.0018883876695309516,0.011561705623056685,0.9915895045089489
2017-09-07,1,0.0008903860008289555,0.0011396023137915084,-0.0017548899214267083,0.01005435446034307,0.9922077501086463
2017-09-11,1,0.0009967104044604131,0.0012859300300892304,-0.0020495603463387673,0.00782598463022639,0.9930031149856996
2017-09-13,1,0.0013213646335728897,0.0016697999365219039,-0.0021470088664765994,0.011077804543591727,0.9922773496933786
2017-09-15,1,0.0021132501757078,0.0026080452950350145,-0.0021470088664765994,0.006658397712329932,0.9928999297406764
2017-09-19,1,0.0020164705946661633,0.0024572536157378947,-0.0029546016943523554,0.006658397712329932,0.9926140826156732
2017-09-21,1,0.0023873358614488476,0.0029241662695050265,-0.0021470088664765994,0.010686281989602482,0.9922200753555867
2017-09-25,1,0.002137270513536162,0.002548993553360959,-0.0021470088664765994,0.008727730630796146,0.9928449683680686
2017-09-27,1,0.0018421461909011718,0.0021911975676603716,-0.0018379401123233842,0.010686281989602482,0.9910055650476104
