JNU-Tangyin/eata/results/Batch4_SP500/Batch4_SP500-NI.csv
Date,Action,Predicted_Q25,Predicted_Q75,Actual_Q25,Actual_Q75,RL_Reward
2010-12-14,0,0.0,0.0,-0.00013946016833495456,0.006703551601444842,0.9944014414312676
2010-12-16,0,0.0,0.0,0.0,0.006703551601444842,0.9947329621308117
2010-12-20,0,0.0,0.0,0.0,0.006328243729475996,0.9955245486304777
2010-12-22,0,0.0,0.0,-0.00013425962918533213,0.004227379741505624,0.9959392895531313
2010-12-27,0,0.0,0.0,-0.00013425962918533213,0.005637431766722169,0.9954377939139576
2010-12-29,0,0.0,0.0,-0.0005601793876572022,0.005637431766722169,0.9955073705655446
2010-12-31,0,0.0,0.0,-0.0006840784290661337,0.005637431766722169,0.9951390004499303
2011-01-04,0,0.0,0.0,-0.0013355945960846793,0.005179565346787238,0.9945157503863232
2011-01-06,0,0.0,0.0,-0.0022803894362387203,0.006338072020885188,0.9941193075736056
2011-01-10,1,0.0011313345784530356,0.001132581398923257,-0.0013355945960846793,0.006338072020885188,0.994469565155663
2011-01-12,0,0.0,0.0,-0.0022803894362387203,0.006338072020885188,0.994194929656809
2011-01-14,0,0.0,0.0,-0.0022803894362387203,0.005898120890113094,0.9946334674562057
2011-01-19,-1,-0.00010353661805075358,-5.472402489916598e-05,-0.002914745392974351,0.005898120890113094,0.9944636039559606
2011-01-21,1,0.000990640922645047,0.0010992969874138161,-0.002914745392974351,0.006013853672539591,0.9944895615735194
2011-01-25,1,0.0017009145460859239,0.0019455456051223519,-0.004413555755811842,0.005898120890113094,0.9936852210077739
2011-01-27,1,0.0018463446893743018,0.002121581221224805,-0.004413555755811842,0.006013853672539591,0.9935115153248707
2011-01-31,1,0.0008491604326702267,0.0009015084038941357,-0.004413555755811842,0.00665677541484465,0.9924356261113234
2011-02-02,0,0.0,0.0,-0.003825811603309309,0.008129776118861565,0.9925652145364106
2011-02-04,0,0.0,0.0,-0.003825811603309309,0.007179688631812469,0.9927707979863682
2011-02-08,1,0.0009199888920707946,0.000966330854962503,-0.003825811603309309,0.009811091136439496,0.9929144334309573
2011-02-10,1,0.001216497136625626,0.00133127223885094,-0.004710327661625333,0.0073599666724500235,0.9920855377142135
2011-02-14,0,0.0,0.0,-0.008468044744315478,0.0073599666724500235,0.9911713124207926
2011-02-16,0,0.0,0.0,-0.010626859245880445,0.0073599666724500235,0.990472764019708
2011-02-18,1,0.0017194289862054787,0.0019189503781920822,-0.010626859245880445,0.010534409643027055,0.9898742431435195
2011-02-23,1,0.000962273876690075,0.0010512868122410782,-0.007559050652215741,0.010534409643027055,0.9905623119844083
2011-02-25,0,0.0,0.0,-0.007559050652215741,0.009413521331614128,0.9906222223731499
2011-03-01,0,0.0,0.0,-0.007050381456986103,0.009413521331614128,0.9910706256942555
2011-03-03,0,0.0,0.0,-0.007050381456986103,0.009413521331614128,0.9913330318982566
2011-03-07,0,0.0,0.0,-0.004519461841280677,0.010017577509126392,0.9912299506736983
2011-03-09,0,0.0,0.0,-0.005600882449558832,0.007984806847117951,0.9920518221179738
2011-03-11,0,0.0,0.0,-0.005657780955413626,0.007984806847117951,0.9927966245733045
2011-03-15,0,0.0,0.0,-0.005184266044730801,0.007984806847117951,0.9930609638970651
2011-03-17,0,0.0,0.0,-0.004481201493329177,0.009075237997213517,0.9936007514653796
2011-03-21,1,0.0006726624131693524,0.0007181965370902868,-0.005184266044730801,0.009075237997213517,0.9932942418852305
2011-03-23,1,0.0005383225135065454,0.0005611728763908172,-0.005184266044730801,0.009302072081872205,0.9925956846634406
2011-03-25,0,0.0,0.0,-0.005184266044730801,0.009276590056384272,0.992859718597221
2011-03-29,0,0.0,0.0,-0.005184266044730801,0.009276590056384272,0.9930626511664968
2011-03-31,0,0.0,0.0,-0.005184266044730801,0.006581534200854806,0.9935592734157253
2011-04-04,0,0.0,0.0,-0.005184266044730801,0.005664712001220797,0.9936179221184537
2011-04-06,0,0.0,0.0,-0.005649513974383813,0.006581534200854806,0.9927490345101132
2011-04-08,0,0.0,0.0,-0.004596524410212142,0.009219817908821358,0.9926329103758458
2011-04-12,0,0.0,0.0,2.8853055137121556e-05,0.009859404931200145,0.9916090347252903
2011-04-14,0,0.0,0.0,-0.003722714888137275,0.009859404931200145,0.9914808448816079
2011-04-18,0,0.0,0.0,-0.003722714888137275,0.007630679824752232,0.9919487071903168
2011-04-20,0,0.0,0.0,0.0003357234465061864,0.007052763035673373,0.9925672186891248
2011-04-25,1,0.00013745097107099874,0.00028105689676308844,-0.00568476686508846,0.007052763035673373,0.9919721010154515
2011-04-27,1,0.0006924874004254141,0.0007473689285990503,-0.00568476686508846,0.007052763035673373,0.9921298759910722
2011-04-29,1,0.0005335519717861758,0.0006329118401283866,-0.00568476686508846,0.007052763035673373,0.9920388972990544
2011-05-03,1,0.0008264978852045522,0.0008914167276355811,-0.006100954869526846,0.007052763035673373,0.9914771994225404
2011-05-05,1,0.00036246171140442247,0.0004493335769831451,-0.006100954869526846,0.006899217390367927,0.9918828669229292
2011-05-09,1,0.0005740119240754139,0.0006442518002651788,-0.007123455716848465,0.005070644470969751,0.9919311097600005
2011-05-11,1,0.0015933432478930985,0.0016450876257488862,-0.007123455716848465,0.005019994018379822,0.9929313309709615
2011-05-13,1,0.0014391472031065036,0.0014618339162646857,-0.008436700627376365,0.004201452781953267,0.9928126717816533
2011-05-17,1,0.001389148318202203,0.001422240265817271,-0.008436700627376365,0.004201452781953267,0.9925873884870683
2011-05-19,1,0.0015713485828509582,0.0016247811847627889,-0.008436700627376365,0.004914019458750922,0.9922738959825562
2011-05-23,1,0.0008442870176950636,0.0008800897731512998,-0.006170661278218449,0.004914019458750922,0.9935571701999991
2011-05-25,1,0.0009556222851211538,0.000985211777552769,-0.008436700627376365,0.004201452781953267,0.9931504318575521
2011-05-27,1,0.0011260497624165293,0.0011290217603520405,-0.008436700627376365,0.006362466627924588,0.9919984554667995
2011-06-01,1,0.0007540444160284808,0.0008016765492816719,-0.006612276650580946,0.0075729612143610086,0.9920954327652011
2011-06-03,-1,-0.0006558135187593061,-0.0004707095294318081,-0.0042242652706050085,0.010193253373575765,0.9915143925917251
2011-06-07,-1,-0.0003205509796625799,-0.00020585937820109227,-0.004011042167432644,0.010193253373575765,0.9919934577055008
2011-06-09,0,0.0,0.0,-0.004011042167432644,0.010193253373575765,0.9920599410584745
2011-06-13,0,0.0,0.0,-0.004011042167432644,0.010193253373575765,0.9915878129464146
2011-06-15,-1,-0.000991835687897014,-0.0007953920186766872,-0.0005867859901579658,0.010193253373575765,0.9919965161554849
2011-06-17,0,0.0,0.0,-0.004011042167432644,0.008410754237412048,0.9925026677061328
2011-06-21,0,0.0,0.0,-0.004011042167432644,0.011111141423155039,0.9908213858746425
2011-06-23,0,0.0,0.0,-0.00024241505212802634,0.012841122310384156,0.9906367787333196
2011-06-27,0,0.0,0.0,-0.004011042167432644,0.010236794726269116,0.9915711641705917
2011-06-29,0,0.0,0.0,-0.005885265379153773,0.006055176604902665,0.9911908498118022
2011-07-01,0,0.0,0.0,-0.007013972123367597,0.004562386598217316,0.9919448921056783
2011-07-06,0,0.0,0.0,-0.007013972123367597,0.008450128208424158,0.9911614318301087
2011-07-08,1,0.0015450942151235766,0.0016738090349030393,-0.00886230613691579,0.006260928551000378,0.9889507979285131
2011-07-12,1,0.0008339068220545046,0.0008505045214376472,-0.00886230613691579,0.010936502864168803,0.9845683523001401
2011-07-14,0,0.0,0.0,-0.00892245209466677,0.013027477532508316,0.9823543173481016
2011-07-18,0,0.0,0.0,-0.00904441907368422,0.013619159054267999,0.9806636893300674
2011-07-20,1,0.0022887316796825177,0.002518007434684809,-0.00904441907368422,0.012788663164421309,0.9810862395497042
2011-07-22,1,0.002135568762557728,0.0023257623018043145,-0.00904441907368422,0.010911627588500708,0.9809497954826709
2011-07-26,1,0.002003903052300927,0.0022198095000560123,-0.0089415348212761,0.012937736444746144,0.9806094525062629
2011-07-28,1,0.0007541004200639504,0.0007820629197524361,-0.0089415348212761,0.013573813271994329,0.9799499004104009
2011-08-01,1,0.0009185404073116753,0.001023880777376774,-0.0089415348212761,0.016766483142182365,0.9789435343199199
2011-08-03,1,0.0012352513027016683,0.0013063980976696006,-0.0089415348212761,0.016423789664374168,0.9794352583149507
2011-08-05,-1,-0.0016300595713546907,-0.0013145538306697123,-0.0089415348212761,0.016423789664374168,0.9807630816620098
2011-08-09,-1,-0.0010744951894919802,-0.0007976768488750628,-0.008888157343864063,0.016423789664374168,0.9849348866300844
2011-08-11,1,0.0012904361365494213,0.0013433573929306948,-0.0089415348212761,0.012937736444746144,0.9863211184738124
2011-08-15,1,0.00218085552156852,0.0023259939755674278,-0.007139050813933969,0.010300053111052084,0.988408926692122
2011-08-17,1,0.0024941809997007522,0.0026905299174222307,-0.007139050813933969,0.010916456987325567,0.9877151857527214
2011-08-19,1,0.0019280926544280128,0.002070189225171936,-0.001997245098116499,0.010916456987325567,0.9885968046045363
2011-08-23,1,0.0022034787451138673,0.002399229949730558,-0.001997245098116499,0.010928411768433049,0.9873208927062903
2011-08-25,1,0.0019944966911830645,0.002181293953693877,-0.001997245098116499,0.009626293291911892,0.987423962210773
2011-08-29,1,0.002820808990984912,0.0030989960441806835,-0.001997245098116499,0.010363171555247984,0.9881648538117047
2011-08-31,1,0.002881236850432972,0.003120624029820404,-0.006769292862609207,0.011215022858644438,0.9876562062015293
2011-09-02,1,0.0015451316077427883,0.0015657501556334016,-0.008792446809152865,0.011215022858644438,0.9864832158298616
2011-09-07,1,0.002340056177717854,0.0024851027283929353,-0.008792446809152865,0.011215022858644438,0.9869248376096164
2011-09-09,1,0.001451369415143118,0.001468290849070218,-0.007381029328120566,0.011398333544815615,0.9869262262223772
2011-09-13,1,0.0020504921120954407,0.0021630928242808364,-0.008792446809152865,0.012267360078802712,0.9845835779657157
2011-09-15,1,0.00335085178473456,0.003646259548067394,-0.008792446809152865,0.011398333544815615,0.9857647107250221
2011-09-19,1,0.003568279735751785,0.0039025392720553366,-0.008792446809152865,0.012267360078802712,0.9850907967628013
2011-09-21,1,0.0025118088340367753,0.0027089008880035927,-0.008119669939995532,0.012393538771274864,0.9861372694916573
2011-09-23,1,0.002664709614694991,0.00289854509515145,-0.007381029328120566,0.01434416280565295,0.9871288185734031
2011-09-27,1,0.003322789066931846,0.0036262170273073796,-0.008119669939995532,0.01434416280565295,0.9871362688304061
2011-09-29,0,0.0,0.0,-0.00919315411057464,0.01434416280565295,0.987350027910672
2011-10-03,0,0.0,0.0,-0.007738857384980269,0.01434416280565295,0.9879742115121726
2011-10-05,1,0.001626055857436735,0.001826402605747182,-0.00919315411057464,0.014350032146764611,0.9865194531334109
2011-10-07,0,0.0,0.0,-0.00919315411057464,0.015769844562738198,0.9865389317126468
2011-10-11,0,0.0,0.0,-0.003898240576319939,0.011497633399402131,0.9891093117712397
2011-10-13,0,0.0,0.0,-0.00919315411057464,0.011444622345085706,0.9878037534040205
2011-10-17,0,0.0,0.0,-0.011058305597615392,0.011444622345085706,0.9866097593104531
2011-10-19,1,0.0018349415721972244,0.0020295473840172265,-0.012540191368492038,0.007944816841758814,0.9873457330503584
2011-10-21,0,0.0,0.0,-0.012540191368492038,0.006954675238479259,0.98825634546032
2011-10-25,0,0.0,0.0,-0.013477047804406459,0.006954675238479259,0.9879128419584733
2011-10-27,1,0.002363633664526154,0.0026090336452377827,-0.014768712155017188,0.006954675238479259,0.9875140291646128
2011-10-31,0,0.0,0.0,-0.012642352997581319,0.008155145523711368,0.9869005080355513
2011-11-02,0,0.0,0.0,-0.006174951811097057,0.008155145523711368,0.9876731581268835
2011-11-04,1,0.0006092047055917247,0.0006905265428020716,-0.011598110916912268,0.0072837865925054045,0.9880354641427648
2011-11-08,1,0.001132025049679211,0.0011406056975818812,-0.011598110916912268,0.007024784799130111,0.9877011402349053
2011-11-10,1,0.0007827835143989223,0.0008449048945153842,-0.011598110916912268,0.007024784799130111,0.9876888901412328
2011-11-14,0,-5.015782069458488e-05,0.00013618753463506036,-0.011598110916912268,0.007024784799130111,0.9881998983248343
2011-11-16,0,-0.00010499253952181285,3.0076676597209657e-05,-0.012028665700449177,0.009964453985612638,0.9871102347040179
2011-11-18,0,0.0,0.0,-0.014720192846515679,0.012759443244595672,0.9859873822180627
2011-11-22,0,0.0,0.0,-0.012028665700449177,0.017608271160258114,0.9846817367813685
2011-11-25,0,0.0,0.0,-0.011148556878531063,0.017608271160258114,0.9851088603438373
2011-11-29,0,0.0,0.0,-0.011148556878531063,0.014496675272412657,0.9862665173676335
2011-12-01,0,0.0,0.0,-0.011148556878531063,0.011799844962374335,0.9876056479401533
2011-12-05,0,0.0,0.0,-0.012569849592768984,0.011799844962374335,0.9869538708569724
2011-12-07,0,0.0,0.0,-0.011014941609383908,0.011799844962374335,0.9873054796246589
2011-12-09,1,0.0008481083076684599,0.0009302870759333823,-0.006487484785526479,0.010490899327145396,0.9887112093392241
2011-12-13,1,0.0013975909835503976,0.001512653367673393,-0.006487484785526479,0.010176084793088958,0.9894634650411087
2011-12-15,1,0.001148753443786913,0.001201000127855052,-0.004336422026250313,0.010490899327145396,0.989332800770184
2011-12-19,0,0.0,0.0,-0.004336422026250313,0.010176084793088958,0.9894821542663889
2011-12-21,1,0.0012947552389941071,0.0013181088507839523,-0.004336422026250313,0.00839025580818772,0.9911352416598811
2011-12-23,1,0.0018326477447305999,0.0019673011333184967,-0.006193897973615499,0.008448780005753916,0.9905562966875243
2011-12-28,1,0.000936038168599975,0.0009934550662773474,-0.00811292192961675,0.008448780005753916,0.9898229076182895
2011-12-30,1,0.0008177729526567836,0.0009163918236707366,-0.00811292192961675,0.003972841181844582,0.9900593676800077
2012-01-04,1,0.00035174556321081863,0.00044345559974684907,-0.006539988145177227,0.008613992365503453,0.9888417467512415
2012-01-06,1,0.00052747315235832,0.0005666042132669961,-0.006539988145177227,0.008613992365503453,0.9887310678330237
2012-01-10,0,0.0,0.0,-0.006539988145177227,0.011174619067316996,0.9879853473725112
2012-01-12,0,0.0,0.0,-0.006539988145177227,0.011174619067316996,0.9878230381671959
2012-01-17,0,0.0,0.0,-0.006539988145177227,0.008485842444595599,0.9894402678380045
2012-01-19,0,0.0,0.0,-0.0054312708497604376,0.010428642768302871,0.9900471974270668
2012-01-23,0,0.0,0.0,-0.0054312708497604376,0.011174619067316996,0.9888696614184114
2012-01-25,0,0.0,0.0,-0.0054312708497604376,0.010428642768302871,0.9893561913641347
2012-01-27,0,0.0,0.0,-0.005275356400166409,0.007496373544831967,0.9903527081902204
2012-01-31,0,0.0,0.0,-0.005183643198568726,0.0109037973145854,0.9897830226578793
2012-02-02,0,0.0,0.0,-0.005183643198568726,0.007496373544831967,0.9919370747735339
2012-02-06,0,0.0,0.0,-0.005275356400166409,0.006395180648436357,0.9919514521537498
2012-02-08,0,0.0,0.0,-0.005275356400166409,0.0038211130374484173,0.9925402263717397
2012-02-10,0,0.0,0.0,-0.005050909306786892,0.009285945347673564,0.9925845330364872
2012-02-14,0,0.0,0.0,-0.0051224176253841765,0.009285945347673564,0.9921406129656077
2012-02-16,0,0.0,0.0,-0.005591716611928109,0.006016710921082285,0.9921955254957754
2012-02-21,1,0.0009560092202470587,0.0009892941361151109,-0.005591716611928109,0.0038211130374484173,0.9934495148841881
2012-02-23,1,0.0006535604408980289,0.0006592428917742599,-0.0051224176253841765,0.008823977812729958,0.9931434855022182
2012-02-27,-1,-0.0002350138997361762,-7.326042957952859e-05,-0.004111266335552655,0.008823977812729958,0.9931779406010889
2012-02-29,1,0.0009444184832969073,0.0009708439659971155,-0.005224252881354023,0.008441386513480312,0.9933440926343375
2012-03-02,1,0.0003043866459562989,0.0003566699714580803,-0.00410814915320711,0.008823977812729958,0.9933344966868938
2012-03-06,1,6.820213981462294e-05,0.00015493044209244713,-0.0028003051730741938,0.008823977812729958,0.993391318003581
2012-03-08,1,0.0006836363492894854,0.0006867151678440143,-0.00410814915320711,0.008823977812729958,0.9930516746353348
2012-03-12,1,0.0012463172597467404,0.001339309796683112,-0.007199483356214814,0.0060857714281825105,0.992186996038049
2012-03-14,0,0.0,0.0,-0.0053921169065471305,0.007454492087724464,0.9926394743073729
2012-03-16,0,0.0,0.0,-0.00410814915320711,0.00847875038823154,0.9928046088873123
2012-03-20,0,0.0,0.0,-0.0024783501302747535,0.00847875038823154,0.9925455548780172
2012-03-22,0,0.0,0.0,-0.0053921169065471305,0.00829012432699938,0.9922614930443988
2012-03-26,1,0.000624994053701517,0.0006300850550942865,-0.0053921169065471305,0.007442429961619533,0.9926795590538958
2012-03-28,1,0.0002730753844482421,0.0003312775651707587,-0.0049041825003335576,0.008577720208290788,0.9923942428125098
2012-03-30,1,0.001062541199671979,0.0011439125164834454,-0.0049041825003335576,0.007442429961619533,0.993056578937411
2012-04-03,1,0.001180846426691441,0.0012855700125083086,-0.006818081562332034,0.008577720208290788,0.991395717585409
2012-04-05,1,0.000977267456566978,0.0010053426772989138,-0.006818081562332034,0.007442429961619533,0.991471958053307
2012-04-10,-1,-0.0004423610278459236,-0.0003060443125339094,-0.0041362718604917754,0.007442429961619533,0.9926526583795331
2012-04-12,0,0.0,0.0,-0.0041362718604917754,0.008716923295382026,0.992366285272609
2012-04-16,0,0.0,0.0,-0.004666951776787851,0.006969454867743287,0.9926285946760686
2012-04-18,0,0.0,0.0,-0.004666951776787851,0.00617516222970254,0.9929407659395247
2012-04-20,0,0.0,0.0,-0.005385856772942449,0.004230227361278632,0.9929553573250289
2012-04-24,1,0.00031068592275802147,0.0004175940844638958,-0.005385856772942449,0.00617516222970254,0.9924113920801648
2012-04-26,1,0.0012793085039883667,0.0013682373956082083,-0.004296829951361407,0.00617516222970254,0.9926442067319675
2012-04-30,0,0.0,0.0,-0.004296829951361407,0.006738356308140306,0.9925534190328047
2012-05-02,0,0.0,0.0,-0.004296829951361407,0.004230227361278632,0.9939508100148733
2012-05-04,0,0.0,0.0,-0.004296829951361407,0.0033092624545741447,0.994034162294004
2012-05-08,0,0.0,0.0,-0.003080638164229115,0.004836633837286093,0.9938132256287878
2012-05-10,0,0.0,0.0,-0.003080638164229115,0.005583357475599912,0.9940735556358556
2012-05-14,0,0.0,0.0,-0.003080638164229115,0.006325403757380652,0.9935033665960551
2012-05-16,0,0.0,0.0,-0.0053366830756514045,0.006325403757380652,0.993291493481603
2012-05-18,0,0.0,0.0,-0.0013113996289378605,0.006325403757380652,0.9944432054695809
2012-05-22,0,0.0,0.0,-0.0053366830756514045,0.005583357475599912,0.994410179288029
2012-05-24,0,0.0,0.0,-0.006220625607381509,0.005583357475599912,0.9927904917575512
2012-05-29,1,0.001959620630959865,0.0021389457699199288,-0.006220625607381509,0.0028915167939033344,0.9929690312479463
2012-05-31,1,0.0005156805558368932,0.0005238966407925997,-0.0053366830756514045,0.005583357475599912,0.9933251773718321
2012-06-04,1,6.548143212187674e-05,0.00010422697069612206,-0.0022133569457502755,0.005956867198801096,0.9934622767699239
2012-06-06,0,0.0,0.0,-0.0053366830756514045,0.005583357475599912,0.9933874809199218
2012-06-08,0,0.0,0.0,-0.006220625607381509,0.004514870262185738,0.9928799685496725
2012-06-12,0,0.0,0.0,-0.006220625607381509,0.003681732704010931,0.9934605415450326
2012-06-14,0,0.0,0.0,-0.002721185424971056,0.006030549743106417,0.9926287712704075
2012-06-18,0,0.0,0.0,-0.006864610463334588,0.007189480863151442,0.9917634904519519
2012-06-20,0,0.0,0.0,-0.0009258171945178284,0.007189480863151442,0.9925050077444894
2012-06-22,-1,-0.0011288121407767766,-0.000891520030154559,-0.0009258171945178284,0.007189480863151442,0.9931175838444875
2012-06-26,-1,-0.0011824493650678261,-0.000947743729314725,-0.001992040450275511,0.007189480863151442,0.9927006682432666
2012-06-28,-1,-0.000621259123573531,-0.00046390046985412577,-0.001992040450275511,0.008147084123194846,0.9925170137388001
2012-07-02,1,7.151074453878596e-05,0.00011089515355568371,-0.0028604092605813277,0.006212752104729378,0.9931961022565011
2012-07-05,-1,-0.0007790640274953931,-0.0006047385835730746,-0.00704513332661577,0.006212752104729378,0.99246060417998
2012-07-09,-1,-0.0011044003897825363,-0.000883810819632811,-0.0028604092605813277,0.006775696241582033,0.9927945225328441
2012-07-11,-1,-0.0007720040251318216,-0.0006046897133063704,-0.005245803680229231,0.006775696241582033,0.9928182028727686
2012-07-13,1,0.00038723883124174594,0.0003880390562444877,-0.005245803680229231,0.004054321031788551,0.9939878249851445
2012-07-17,1,0.0003719540251816651,0.0003798869350111722,-0.005531436377825507,0.0039837679900510976,0.9941494234218397
2012-07-19,1,0.00032682433890341843,0.0003443576792958721,-0.0070775194352029145,0.0039837679900510976,0.9937664751288523
2012-07-23,1,0.0004774651605424279,0.0005085409500846466,-0.005326727384122104,0.0017832781877761684,0.9945606282214986
2012-07-25,0,-1.8426462557929015e-05,3.931697077172794e-05,-0.005326727384122104,0.0017832781877761684,0.9943229196276017
2012-07-27,1,0.000501863555251612,0.0005049143903643268,-0.0071535949247661925,0.0011756382405070753,0.9942236954951313
2012-07-31,1,0.0004729629250719245,0.0004893230047036195,-0.0071535949247661925,0.0039837679900510976,0.9938296894786286
2012-08-02,1,0.00018641065244011997,0.00019271791189869123,-0.004764614142087085,0.0039837679900510976,0.9947759227047429
2012-08-06,1,7.463874737682431e-05,0.00011126797825949181,-0.004764614142087085,0.0039837679900510976,0.9945994056263745
2012-08-08,-1,-0.00013024230071671014,-4.8521523918997126e-05,-0.003673753663197556,0.005497361167460465,0.9936077366124173
2012-08-10,-1,-0.00048504235607681385,-0.00034999910631494045,-0.005001843470883435,0.005497361167460465,0.9934278900110648
2012-08-14,-1,-0.00021994776126228586,-0.00014692960850443815,-0.004469587092430119,0.005497361167460465,0.9937685088307331
2012-08-16,-1,-0.0004010027147708487,-0.0003191192328682428,-0.0035520352018572924,0.006023095267247789,0.9936671371782204
2012-08-20,-1,-0.0007666273158122232,-0.0006263796427415084,-0.0035388778878613944,0.006023095267247789,0.9937395517141174
2012-08-22,-1,-0.0010131121369740105,-0.0008656193295939264,-0.00215277714446348,0.006023095267247789,0.9940898848730677
2012-08-24,-1,-0.0008938416908217212,-0.0007714672494330846,-0.00215277714446348,0.007003128846426209,0.9943582490660243
2012-08-28,-1,-0.0004952499341536298,-0.00042344766656136586,-0.0027212013501350762,0.004440736304564161,0.9947092831255672
2012-08-30,-1,-0.0014489862535308226,-0.0012067337470797741,-0.002055235957549692,0.004440736304564161,0.9945482346800699
2012-09-04,-1,-0.0005646476469483887,-0.0004492783706589934,-0.0023511017583951236,0.0037582158758164346,0.9952119876374642
2012-09-06,1,0.0003862117851745687,0.0003933499690193994,-0.0023511017583951236,0.003168310279873158,0.9962308677529372
2012-09-10,-1,-0.00012095833638255552,-7.237635793806325e-05,-0.002346317560444235,0.003168310279873158,0.9963554778318077
2012-09-12,1,0.00028705386339503136,0.00029764259791657534,-0.0035027151720626905,0.0018635526925959121,0.9963514215560196
2012-09-14,1,0.0003369266625927949,0.0003425662431375676,-0.0038820587837209296,0.0012725837254315717,0.996371612616521
2012-09-18,1,0.00029305090574194964,0.00029617937970168913,-0.003605657942124617,0.0018635526925959121,0.9962693814219494
2012-09-20,1,0.00050001408978867,0.0005432064729527875,-0.003605657942124617,0.002554143518162341,0.9958244127721212
2012-09-24,1,0.0009945944034815035,0.0011261261856362185,-0.004104125210733487,0.0012725837254315717,0.9954224204426623
2012-09-26,1,0.00048580083450885426,0.0005432163576498633,-0.004104125210733487,0.0019752607457688984,0.995534545972921
2012-09-28,1,0.000515152949153635,0.000569471929748331,-0.004104125210733487,0.0037686626252286656,0.9947605255375209
2012-10-02,1,0.0008825446651468001,0.001018007878732771,-0.004104125210733487,0.0016774234277870132,0.9949729074919146
2012-10-04,1,0.0011007942973771238,0.0012521497998198,-0.0053062663187552145,0.0005871664628746222,0.9938711356982824
2012-10-08,1,0.0007105477210108983,0.0008004390623001568,-0.006305323434883391,0.0016750209895063156,0.9933768401754285
2012-10-10,1,0.0001379984927423364,0.0001684953583239238,-0.0073944220539420135,0.0010920860839842578,0.9933949774471127
2012-10-12,1,0.00013836028764816643,0.0001465937562363359,-0.007898374438355638,0.0010920860839842578,0.9932456121152835
2012-10-16,1,0.00033911393316726074,0.000372730618933221,-0.010241768569259358,-0.00019360505492467425,0.9922261356140499
2012-10-18,1,0.0009123188021315576,0.0010432370464602513,-0.010241768569259358,-0.00021401536614857778,0.99128003294509
2012-10-22,1,0.0002900897431129808,0.0003267800816272683,-0.0093160643837389,0.0010920860839842578,0.9922496369433818
2012-10-24,-1,-0.0002533364593288404,-0.00019336928463948438,-0.0093160643837389,0.0012349019738128449,0.9924840313684554
2012-10-26,1,0.00035915138626250597,0.0003938029512862632,-0.0093160643837389,0.0012349019738128449,0.9923882764943037
2012-11-01,1,0.0005352136175072462,0.0006148792116367993,-0.0093160643837389,0.004618013779251565,0.9917263759045554
2012-11-05,-1,-0.0002195557319171457,-0.00021681383041489703,-0.007714153395515221,0.004976214039835797,0.9925159409638862
2012-11-07,-1,-0.0005991036756376228,-0.0005413445747522844,-0.006521834075240375,0.0051540949570197956,0.9928577317216423
2012-11-09,0,0.0,0.0,-0.006183207818958218,0.0051540949570197956,0.9929278570515121
2012-11-13,0,0.0,0.0,-0.006183207818958218,0.006830146948065048,0.9924848575740053
2012-11-15,0,0.0,0.0,-0.004596948829446214,0.006830146948065048,0.9932793430145509
2012-11-19,0,0.0,0.0,-0.004596948829446214,0.007343008185942973,0.9934407603497859
2012-11-21,0,0.0,0.0,-0.004596948829446214,0.008558107758929732,0.9929292828883656
2012-11-26,-1,-0.002132824416463409,-0.0018722673597599806,-0.0028209330553605537,0.008558107758929732,0.9929691391237716
2012-11-28,-1,-0.002382709923822939,-0.0020717313778764444,-0.0028209330553605537,0.008558107758929732,0.9932539210318185
2012-11-30,-1,-0.001899342603610875,-0.0016346950767918635,-0.0037493217227538185,0.008558107758929732,0.9936056468121647
2012-12-04,-1,-0.001725403897226621,-0.0014947141041756731,-0.0027123611026114184,0.00970290397742246,0.9934508625866585
2012-12-06,-1,-0.0004723877340574573,-0.00043954923076650835,-0.0037493217227538185,0.008558107758929732,0.9934728955266664
2012-12-10,-1,-0.0004469729504110422,-0.00042588689638880665,-0.004718637975081101,0.009468662770587062,0.9929020426907044
2012-12-12,-1,-0.000592677255056376,-0.0005585727990489293,-0.0027123611026114184,0.010286123544132287,0.9927743542752344
2012-12-14,-1,-0.001014601876458195,-0.0009273346167940734,-0.0020995467981884735,0.010286123544132287,0.9927654344150998
2012-12-18,-1,-0.00012746637345922808,-0.00011810650477386955,-0.0020995467981884735,0.009763427442030133,0.9936840538983297
2012-12-20,1,0.0007716975934447766,0.0009420987006193849,-0.0020995467981884735,0.009763427442030133,0.993685682002893
2012-12-24,1,0.0005967738834983249,0.0007414312548687838,-0.0008761742277216268,0.009763427442030133,0.9938041859879938
2012-12-27,-1,-0.00024585146345314674,-0.00023697896080438779,-0.0007586350198458537,0.009763427442030133,0.993489535015927
2012-12-31,1,0.00032986043515189685,0.00041485602614143826,-0.0007586350198458537,0.009763427442030133,0.9931598040755049
2013-01-03,1,0.000650805888282381,0.0007761035463384447,-0.0007586350198458537,0.008455582824979494,0.993632601673268
2013-01-07,1,0.00036936939283154435,0.00044418090964098934,-0.0007586350198458537,0.008455582824979494,0.993756369660546
2013-01-09,1,0.0004068909100242424,0.00047782726784613633,-0.0007586350198458537,0.006545211350650754,0.9943207275236403
2013-01-11,1,0.001017761370551861,0.0011483986783133934,-0.0007586350198458537,0.00582683135853632,0.9954691154190602
2013-01-15,1,0.0010687260480478661,0.0011890664131749052,-0.0007586350198458537,0.00582683135853632,0.9953263664409568
2013-01-17,1,0.0008036390706293597,0.0008509194350882258,-0.0027730737274760347,0.00564188790581683,0.9947720437131988
2013-01-22,1,0.0014331490212019188,0.0015488807433575581,-0.0037151665195216824,0.0042005880064108925,0.9942995260063179
2013-01-24,1,0.0013771508729461387,0.0015116211855916788,-0.0037151665195216824,0.00564188790581683,0.9939881175139424
2013-01-28,1,0.0015604512538379854,0.0017018260189783211,-0.005181769227033837,0.00564188790581683,0.9932899454728061
2013-01-30,1,0.0022070504278400294,0.0024703535929203103,-0.0037151665195216824,0.006571554127771108,0.9936994894035246
2013-02-01,1,0.002917750801807382,0.0033428543286097134,-0.0037151665195216824,0.008544197305913576,0.9935845958784197
2013-02-05,1,0.0022148347491814206,0.0025112772678147766,-0.002954439351393452,0.008544197305913576,0.9938537161667372
2013-02-07,1,0.0022799096555627283,0.0026010442394611265,-0.003326391326989699,0.008763630154743535,0.9933613195657957
2013-02-11,1,0.0024808481085109653,0.0028508960845716794,-0.005287583079736701,0.008946657052484763,0.9928468253105559
2013-02-13,1,0.002666187102442508,0.003048688654746445,-0.005287583079736701,0.008946657052484763,0.9927738660698738
2013-02-15,1,0.002047027059816491,0.002354226578949357,-0.003709876008724005,0.008946657052484763,0.992999058587566
2013-02-20,1,0.0024031810588205204,0.002771271580117687,-0.0026477133796191958,0.0088276192005474,0.9937554714379709
2013-02-22,1,0.0023981475595907364,0.0027408645149336153,-0.003170925737549706,0.0088276192005474,0.9937088366694491
2013-02-26,1,0.002343570350859663,0.002681195497672633,-0.0025580643911524248,0.008812925681139411,0.9942575801111482
2013-02-28,1,0.003043786520731172,0.0034768560878880752,-0.0025580643911524248,0.008646922550941176,0.9940825691310079
2013-03-04,1,0.0038954221383280564,0.004450694410859247,-0.003170925737549706,0.008341103761710966,0.9940446945529813
2013-03-06,0,0.0,0.0,-0.002904142508152673,0.008812925681139411,0.9938045599541585
2013-03-08,0,0.0,0.0,-0.0024645754334422076,0.008812925681139411,0.9937005517526012
2013-03-12,1,0.003431103406416351,0.003855568123031481,-0.002452649648741097,0.008812925681139411,0.9941118894538946
2013-03-14,1,0.003399259674771119,0.003824019958720808,-0.0024541700536003883,0.008812925681139411,0.9940639673267491
2013-03-18,0,0.0,0.0,-0.0008764637679478163,0.009212959661704398,0.9922013980590898
2013-03-20,0,0.0,0.0,-0.002087170980849873,0.009201363894269694,0.992586383503919
2013-03-22,0,0.0,0.0,-0.0006662327167164222,0.010686694218229494,0.9921607465460713
2013-03-26,0,0.0,0.0,-0.0006505646585663221,0.010686694218229494,0.9924532598331874
2013-03-28,0,0.0,0.0,-0.0016978179657849914,0.00892477937171135,0.9930697416667449
2013-04-02,0,0.0,0.0,-0.0016978179657849914,0.010460545479501385,0.9923490932692851
2013-04-04,0,0.0,0.0,-0.002451106677347588,0.00892477937171135,0.9926643309098862
2013-04-08,0,0.0,0.0,-0.003907152813551994,0.0040164372993702555,0.9929622970686207
2013-04-10,0,0.0,0.0,-0.005742566831364303,0.002668470626530019,0.9931914892245984
2013-04-12,0,0.0,0.0,-0.01128759635561784,0.0013664894793074629,0.9917077052727233
2013-04-16,0,0.0,0.0,-0.005735880315062378,0.0014267665431084873,0.9928927913536135
2013-04-18,1,0.0032369026342632013,0.0033720333820908195,-0.006348503714982064,0.0014267665431084873,0.9908068558031902
2013-04-22,1,0.0033843745894197082,0.003516255980786397,-0.006584883121698306,0.0014267665431084873,0.9907746604191954
2013-04-24,1,0.0031293996157121004,0.0032127253529612393,-0.01128759635561784,0.0009835283941697296,0.9897546572213175
2013-04-26,1,0.002316995004928898,0.002354430511061967,-0.00829326522521951,0.000509451777091724,0.9903111755379501
2013-04-30,1,0.0022849514998543475,0.0023055470777198495,-0.00829326522521951,0.000509451777091724,0.9907169090580984
2013-05-02,1,0.002073866127367931,0.0020758120405074826,-0.00829326522521951,0.0016518060708737143,0.9907669134694586
2013-05-06,1,0.0012242548740015026,0.0013353096843792618,-0.008325542569033338,0.0016518060708737143,0.9910397694243865
2013-05-08,0,0.0,0.0,-0.007903354790188331,0.004894199196648551,0.9909051030588939
2013-05-10,0,0.0,0.0,-0.0055867727448988625,0.006251394799398,0.9922914733197568
2013-05-14,0,0.0,0.0,-0.007713555048575509,0.003928206443832411,0.992387792278282
2013-05-16,0,0.0,0.0,-0.007713555048575509,0.006251394799398,0.9918833142124991
2013-05-20,-1,-0.0006132465485287784,-0.0002996095023839494,-0.007713555048575509,0.005763825599035992,0.9923715915397002
2013-05-22,-1,-0.0018063659203672237,-0.001340305207560806,-0.009335096449821806,0.005763825599035992,0.9905539732651653
2013-05-24,-1,-0.0020631497666218257,-0.0015894615335932112,-0.010632384955659465,0.007767747122017181,0.9893679746008692
2013-05-29,-1,-0.0022874248714119575,-0.001806816423788432,-0.009335096449821806,0.008829274986615007,0.9891907126655606
2013-05-31,-1,-0.00219828917396314,-0.0017183632805822448,-0.009335096449821806,0.00906410757863522,0.9886762546174662
2013-06-04,-1,-0.0029470818306231673,-0.0023771892292818756,-0.004915109631935394,0.00906410757863522,0.9887485616700616
2013-06-06,-1,-0.0023983669201644033,-0.0019307990340222147,-0.003495014140841212,0.007693541261947983,0.9898768379193318
2013-06-10,-1,-0.0023670298141116658,-0.0019064680925539538,-0.002963501421677161,0.010745722918298619,0.9882402720244021
2013-06-12,-1,-0.0027681392311047132,-0.002266085819819488,-0.0006968613269427393,0.010745722918298619,0.9875293785193695
2013-06-14,-1,-0.0010926927915038615,-0.0008206046499403873,-0.0006968613269427393,0.009396800409979426,0.988923432157881
2013-06-18,-1,-0.0009001181750213834,-0.0006430863249489255,-0.002822742417070487,0.009396800409979426,0.9892615679597265
2013-06-20,-1,-0.003116809056082374,-0.0026165106712475435,0.0012119816268291001,0.009396800409979426,0.9904224738655811
2013-06-24,-1,-0.0027450887548133773,-0.0023111778680789275,0.0015346748742874157,0.00842658492633621,0.9915649199535024
2013-06-26,-1,-0.0021802172176443877,-0.001815252116088334,0.0009680797423749469,0.009208918593786811,0.9906173386287848
2013-06-28,-1,-0.0017688884684436976,-0.001428496557161144,-0.0009354606487594367,0.007216335411741633,0.9910069094936982
2013-07-02,-1,-0.0017386284412486256,-0.0014016264218603088,-0.0009354606487594367,0.007216335411741633,0.9911957335988443
2013-07-05,-1,-0.0018835607961835662,-0.0015307468539283954,-0.0003993333220839829,0.009446805797959531,0.9904921356601117
2013-07-09,-1,-0.00032786549013790503,-0.00016961004027359397,-0.0032499434436021983,0.0062524011729733105,0.992091326041637
2013-07-11,-1,-0.0002460225637874937,-6.403829114000998e-05,-0.0032499434436021983,0.005647829935798508,0.9922665868488298
2013-07-15,1,0.0005955348483608388,0.0006652613360845596,-0.0032499434436021983,0.004289791491063056,0.9930433542251988
2013-07-17,0,0.0,0.0,-0.0032478603160747467,0.005058623708665411,0.9930231639704713
2013-07-19,0,0.0,0.0,-0.008285605819112165,0.004123526316077147,0.991860447028499
2013-07-23,0,0.0,0.0,-0.010285000579261506,0.0042728600910193005,0.9914193136621519
2013-07-25,0,0.0,0.0,-0.010285000579261506,0.0030643636226434312,0.9929893837894526
2013-07-29,0,0.0,0.0,-0.00884400367504784,0.0042728600910193005,0.9931421363972116
2013-07-31,0,0.0,0.0,-0.00884400367504784,0.0042728600910193005,0.9931959330253349
2013-08-02,1,0.0009879879621688614,0.0010393686816330416,-0.00884400367504784,0.0033305942926666514,0.9932910794441385
2013-08-06,1,0.00011243362250934797,0.00016837170213328552,-0.005691692529637183,0.0033305942926666514,0.9942793541123213
2013-08-08,1,0.0004218002503122518,0.0004597754439420054,-0.006223219559725581,0.0028191081834881265,0.9943219971531465
2013-08-12,1,0.000535859247731275,0.0005374070606197053,-0.006223219559725581,0.003601942375033315,0.993402868980114
2013-08-14,1,0.0003897648891038133,0.0004292543421334759,-0.007144615071664218,0.0031757882143002344,0.9933313880662077
2013-08-16,-1,-0.0006687525686534517,-0.000525557923276653,-0.004953621516068083,0.00450976222663345,0.9939505394937034
2013-08-20,-1,-0.0002500223696636129,-0.0001975791594697328,-0.004526315574567511,0.006049407545357624,0.9936079992889046
2013-08-22,-1,-0.0006276338890782267,-0.00052551475494257,-0.004953621516068083,0.006049407545357624,0.9936116742676023
2013-08-26,-1,-0.0004455842531145678,-0.0003854827019479829,-0.004526315574567511,0.006049407545357624,0.9936692761390677
2013-08-28,-1,-0.00015464432421753428,-0.00014825307334304013,-0.004953621516068083,0.006049407545357624,0.993652234846703
2013-08-30,1,0.00011845831171755576,0.00019023225784398228,-0.004703491251263644,0.006801577815174876,0.9937916425896928
2013-09-04,1,1.9062104246217725e-05,7.749136696916643e-05,-0.003548749091926028,0.006801577815174876,0.993721899164193
2013-09-06,-1,-5.4359670945075946e-05,-1.626690916964938e-05,-0.00356861596214561,0.006801577815174876,0.9933553988420989
2013-09-10,1,0.0008186193172288318,0.0009859263302196587,-0.005632614946223744,0.004340225631606139,0.9939224985117925
2013-09-12,1,0.0008164652722127769,0.0010041609513740993,-0.0036188604809832075,0.006801577815174876,0.9933400119435015
2013-09-16,1,0.0014037057506803257,0.0016787767583591766,-0.0036188604809832075,0.0033778620979179347,0.9939822415714059
2013-09-18,1,0.0019818160982407315,0.002315326109820909,-0.005632614946223744,0.002856825039241231,0.9931659694552911
2013-09-20,1,0.0014321174131801948,0.001685819885954327,-0.0029200307801284095,0.00833416643652151,0.9930101414952572
2013-09-24,1,0.0019234780854567959,0.002234595638133452,-0.003174662821952101,0.00833416643652151,0.9924851323847185
2013-09-26,1,0.0014568995634280184,0.0016757687242668039,-0.0029200307801284095,0.00833416643652151,0.9926381110987988
2013-09-30,1,0.0015342909886444775,0.0017410208704959297,-0.003174662821952101,0.007389505028895057,0.9922289408569153
2013-10-02,1,0.000721072655778026,0.00075029588016253,-0.004797040382696516,0.007389505028895057,0.9919409311042668
2013-10-04,1,0.000738487197274948,0.0007999800075765108,-0.004260436025390489,0.007713158453252453,0.9921283447327597
2013-10-08,1,0.00046302543222822705,0.0005072496273369299,-0.0035503268093011234,0.007713158453252453,0.9925430057573382
2013-10-10,1,0.0009895078187010316,0.0011104558940368708,-0.004260436025390489,0.007133770816855601,0.9923185694346881
2013-10-14,1,0.0004743574261192877,0.00047697871126593794,-0.004260436025390489,0.007133770816855601,0.9922337738230053
2013-10-16,1,0.0006469095012021796,0.000667443300759595,-0.004260436025390489,0.007133770816855601,0.9923251431852468
2013-10-18,1,0.0011450830992665263,0.001203576893617453,-0.004260436025390489,0.0070131866099002035,0.9919822389280941
2013-10-22,1,0.0018150393360341543,0.0019815942742428165,-0.006348971805731003,0.006021460332916785,0.9922030605768611
2013-10-24,1,0.001087914333147138,0.001111057332211356,-0.0070409108270431025,0.006021460332916785,0.9917455851983547
2013-10-28,1,0.0009822036170017258,0.001006309874001683,-0.006348971805731003,0.0070131866099002035,0.9919567690176562
2013-10-30,1,0.0005099931464928315,0.0005526727368618206,-0.005810053827696839,0.0070131866099002035,0.9923224883797012
2013-11-01,1,0.00030334553406389354,0.00039914504470625915,-0.004374456721641514,0.002725144909049536,0.9928148778391965
2013-11-05,1,0.0007854597230746066,0.0008172980022207992,-0.004374456721641514,0.004860188539099922,0.9926731662008553
2013-11-07,1,0.000564757636267814,0.0005797570778784292,-0.004374456721641514,0.004602013574539745,0.9928000757454873
2013-11-11,-1,-0.0009900642911559415,-0.0007000152669410594,-0.006348971805731003,0.004602013574539745,0.9926532847906339
2013-11-13,-1,-0.0005189972801121816,-0.0002934327443106826,-0.006348971805731003,0.0040668654112992544,0.9931975865545112
2013-11-15,1,0.0005915944167500455,0.000664687128283199,-0.006348971805731003,0.002768599242660905,0.9940430055670262
2013-11-19,1,0.0003249017233691468,0.0003992817345708087,-0.003317494132961203,0.0037370593215689868,0.9938977962927764
2013-11-21,-1,-0.0003434838286283326,-0.00019285666701875434,-0.003246445906633652,0.004854694387384797,0.9925839430246385
2013-11-25,0,-9.003181136516057e-05,4.4470330077213676e-05,-0.0035509937751077164,0.0048520880485223945,0.9924550985159606
2013-11-27,1,0.0004202061825083673,0.000427685124313167,-0.004816287292678763,0.0053850444398531785,0.9919771207738732
2013-12-02,1,0.00047695900246080933,0.0004962880877225749,-0.004816287292678763,0.005836293639988392,0.9918031910273993
2013-12-04,1,0.0010151459306236934,0.001146450164242213,-0.008832047116209735,0.005836293639988392,0.9909089663423924
2013-12-06,1,0.0007474132041048391,0.000836579771452557,-0.004816287292678763,0.005836293639988392,0.9911919200131958
2013-12-10,1,0.00029698882230580216,0.00034263010388033935,-0.003819894007209456,0.005836293639988392,0.9914125993206797
2013-12-12,1,0.00042234167769952683,0.0004955965000429525,-0.003819894007209456,0.006213512115287109,0.9906975157842023
2013-12-16,1,0.0007290544486435475,0.0008703473689328676,-0.003819894007209456,0.006213512115287109,0.990965245178916
2013-12-18,1,0.0008526194231060066,0.0009585935856859795,-0.003819894007209456,0.006213512115287109,0.9911623825831541
2013-12-20,1,0.0021373445181276703,0.0024076902597688563,-0.0012099348456243318,0.006213512115287109,0.9931873363435041
2013-12-24,1,0.0021192892185434766,0.002409768553209729,-0.003176703643371201,0.006169571036272926,0.9926487353679381
2013-12-27,1,0.001493274021195415,0.0016505293380224152,-0.0006555895992489564,0.008686765675536582,0.9924950271351725
2013-12-31,1,0.0019354031665362239,0.0021769157603087268,-0.003176703643371201,0.011360323262092936,0.9920391228818869
2014-01-03,1,0.0013810153211869835,0.001540848306201241,-0.003176703643371201,0.011360323262092936,0.9922641319620434
2014-01-07,1,0.00198905954685627,0.0022336484873019084,-0.005176196842211617,0.007060756898458378,0.9926413995296369
2014-01-09,1,0.0013677389664425534,0.0014594517626700795,-0.003513161103085491,0.008283313354259468,0.9927348541189376
2014-01-13,1,0.0012647246361288532,0.0013290728915512332,-0.0006555895992489564,0.008283313354259468,0.993388380443017
2014-01-15,1,0.001113835167328915,0.0011362749982060563,-0.0010882779388241234,0.008283313354259468,0.9932248797314709
2014-01-17,1,0.0015738700248441847,0.0016424517429159528,-0.0010882779388241234,0.008283313354259468,0.9933435600591847
2014-01-22,1,0.0016830751598003357,0.0017616909371220685,-0.0025624066063166468,0.004892181521878112,0.9937209203566822
2014-01-24,1,0.0007294818491166946,0.0007780139755967403,7.798513682116229e-05,0.004892181521878112,0.994628447630343
2014-01-28,1,0.0012834217292551418,0.0012897403180455664,-0.0016937984293308602,0.0037858868099139185,0.9946511435524437
2014-01-30,1,0.0010917459810138906,0.0011197023720050416,-0.0016937984293308602,0.0035215043531519464,0.9953552071580477
2014-02-03,1,0.001000797116774266,0.0010052457765883465,-0.0016937984293308602,0.0037858868099139185,0.9950351182458428
2014-02-05,1,0.0005398174804990446,0.0006080838072413124,-0.0028372521050765457,0.0037858868099139185,0.9945367854998189
2014-02-07,1,0.001050359733243112,0.0010671218512834852,-0.004449316956569065,0.0037858868099139185,0.9941184554596194
2014-02-11,1,0.0019150199935213561,0.002092033828584325,-0.0067741583140059815,0.0035215043531519464,0.9937313379742908
2014-02-13,1,0.0016328319690539043,0.001733257784183926,-0.0067741583140059815,0.006016828251816981,0.993259151681009
2014-02-18,1,0.0020814417877064112,0.002268098817928727,-0.0067741583140059815,0.005175796839408741,0.9935310015231069
2014-02-20,1,0.001959992946942256,0.002113008404074373,-0.00733891413533206,0.005175796839408741,0.9925474125983607
2014-02-24,1,0.0020150020199400384,0.00219429055583574,-0.00733891413533206,0.005175796839408741,0.9923489712488525
2014-02-26,1,0.0013153065708541565,0.001392645349824606,-0.0067741583140059815,0.005175796839408741,0.9930858844579145
2014-02-28,1,0.0010493762911953546,0.0010694595583372192,-0.0067741583140059815,0.006016828251816981,0.9928543328874466
2014-03-04,1,0.0009195933309412188,0.0009444199432150314,-0.006143914532736418,0.005363205146291017,0.9935141686813407
2014-03-06,1,0.00046764230591610136,0.0005208934593487968,-0.0027791889663394418,0.005363205146291017,0.9939489875514429
2014-03-10,1,0.00041481746357969096,0.0004758839182084351,-0.004458943353712413,0.005160206828775127,0.9937425433659951
2014-03-12,1,0.0007747348893086629,0.0007922669287751239,-0.002271768808601837,0.005160206828775127,0.9943490848772518
2014-03-14,1,0.0015893823713240495,0.0017219211899436528,-0.0045056229553822056,0.0049262490066757664,0.9942839652661061
2014-03-18,1,0.002100572231080076,0.0023335235934606635,-0.0045056229553822056,0.004943022211792026,0.9934358480228525
2014-03-20,1,0.001148682470012544,0.0012392279699416828,-0.003967083063198072,0.005155828993496423,0.9933332623981269
2014-03-24,1,0.0010910188169144701,0.001161554951928123,-0.004471903798311267,0.005155828993496423,0.9931507919544238
2014-03-26,1,0.0008142724953493769,0.0008269047186369819,-0.004471903798311267,0.005155828993496423,0.9930825262787858
2014-03-28,1,0.0010747341205315703,0.0011256975931875093,-0.004471903798311267,0.005155828993496423,0.9934022893051404
2014-04-01,1,0.0012365869015055798,0.0012915004159435475,-0.004471903798311267,0.004916230137288625,0.9935771825636709
2014-04-03,1,0.0006180959347378181,0.0006561334991004963,-0.004471903798311267,0.005132457402286608,0.9920522834530682
2014-04-07,-1,-0.0002293141120442286,-8.732637021519063e-05,-0.004302476044303641,0.00669753978741266,0.9918733522107139
2014-04-09,1,0.0003596027313743525,0.0004168066106772843,-0.005338043936618595,0.007599809560439294,0.9911337313352501
2014-04-11,1,0.000393185722742282,0.0004049865690658799,-0.005338043936618595,0.007599809560439294,0.9908795852921304
2014-04-15,1,0.0009037894489546625,0.0009273843436501129,-0.005338043936618595,0.00683092716484943,0.9914388707942602
2014-04-17,1,0.0006026133783327999,0.0006474997468038767,-0.00400124806793662,0.006185039358317299,0.9924350108824496
2014-04-22,1,0.0006794160236682498,0.0006976123690638177,-0.0037270073332669167,0.008477046060181624,0.9922011819982853
2014-04-24,1,0.00039636657484158253,0.00046271677585958107,-0.0037270073332669167,0.010050513109692369,0.9917651423254016
2014-04-28,1,0.0005313025695767791,0.0005916341771822926,-0.004345893978601859,0.010050513109692369,0.9914699641129189
2014-04-30,1,0.0007290290108525599,0.0007581960730350094,-0.004345893978601859,0.010050513109692369,0.9914654299563832
2014-05-02,1,0.00018837331577734598,0.00029842994343375675,-0.0037270073332669167,0.008688652920486597,0.9927656845126122
2014-05-06,1,4.942135582026145e-05,0.0002097380592823817,-0.0028935054841148127,0.008083792058793974,0.9932585938914187
2014-05-08,-1,-0.00022880913975474582,-3.19446416330284e-05,-0.0028935054841148127,0.007192260194247934,0.9943329211984641
2014-05-12,-1,-0.0007503634292503552,-0.0004898129729631035,-0.0036985379894197753,0.007192260194247934,0.9943326320441446
2014-05-14,-1,-0.00017326470667719995,-6.6385884811933e-06,-0.003986245212390732,0.007192260194247934,0.994088061811197
2014-05-16,1,0.0007428409549017888,0.000753149647780653,-0.003986245212390732,0.007262795814349592,0.993882838438472
2014-05-20,1,0.0005565165556108855,0.0005903677560773653,-0.0029799181104894178,0.007262795814349592,0.9936325242816021
2014-05-22,1,0.0008852068748775641,0.0008976753366444542,-0.00463944619846758,0.007262795814349592,0.9932610444286962
2014-05-27,1,0.0006900420442481309,0.0007167611146674012,-0.0029799181104894178,0.007262795814349592,0.9938011841682951
2014-05-29,1,0.0003587229616016986,0.00045019422481326957,-0.0029799181104894178,0.008334410846744446,0.9928126186856909
2014-06-02,1,0.00112876940174631,0.0011545041854756073,-0.003983829363457331,0.007301807741995091,0.9931654629148315
2014-06-04,1,0.00117334526391987,0.0012035957710916844,-0.0052196628889456444,0.006168020172585486,0.9925919294467935
2014-06-06,1,0.0009127682094747932,0.0009208150327798118,-0.007232272540713517,0.006168020172585486,0.9922422299904499
2014-06-10,1,0.00023382555041420066,0.00031733302575424145,-0.004190357915611108,0.006816313588925462,0.9928767123908058
2014-06-12,1,0.0005613366058057558,0.0005782762943364571,-0.0021561427128863877,0.007123455813300797,0.9931618933284477
2014-06-16,1,0.001171408452038857,0.0012495874019698055,-0.004190357915611108,0.004650213869891035,0.9933664592867606
2014-06-18,1,0.001352858032641005,0.0014036966783418986,-0.005175319277619756,0.003130422122448709,0.9936503614716053
2014-06-20,1,0.0016482253182065034,0.0017789907421768272,-0.004190357915611108,0.003130422122448709,0.9936264244907482
2014-06-24,1,0.0016976879313099383,0.0018282039130334967,-0.004190357915611108,0.004548481348885334,0.9934106076548784
2014-06-26,1,0.0020329415461416067,0.0021747807647101765,-0.005137006117242014,0.0038806173472502007,0.9939954753522273
2014-06-30,1,0.0017772218226557682,0.0018772803450365998,-0.006859951275799452,0.0038806173472502007,0.9936192355168098
2014-07-02,1,0.0010605953881345875,0.001071328018244533,-0.0072777037143602254,0.0038806173472502007,0.9931630251344808
2014-07-07,1,0.001016676228751759,0.0010640187908495377,-0.0072777037143602254,0.0038806173472502007,0.9930520735343625
2014-07-09,1,0.001238893330319164,0.0013171741373378244,-0.00832751204251702,0.0037706004001460854,0.9920518007678383
2014-07-11,1,0.001775238002500104,0.0019375480635487946,-0.00832751204251702,0.0024662193253704072,0.9915702886121673
2014-07-15,1,0.0014596583150529403,0.0015858100380134004,-0.007419073170234377,0.0037706004001460854,0.9920426633500874
2014-07-17,1,0.001154924429351922,0.0012449987591027383,-0.007304133689101151,0.004871562583237594,0.9915934949835815
2014-07-21,1,0.001369819671282926,0.0014471959555759975,-0.007304133689101151,0.004871562583237594,0.9920822990491062
2014-07-23,1,0.0014514711466206383,0.0015353826599745727,-0.007304133689101151,0.00496634562508,0.9917820688536348
2014-07-25,1,0.0013944226805742222,0.0014773143576660092,-0.005484163231645229,0.00496634562508,0.991815889629491
2014-07-29,1,0.0003879037019580491,0.0004711190425275072,-0.004843026787005371,0.00496634562508,0.9921080517636387
2014-07-31,-1,-0.0008237448651801296,-0.0005991084666159705,-0.003797095221055663,0.009730295443395157,0.9923099397875937
2014-08-04,-1,-0.0010083184441763294,-0.000776828327732343,-0.0034074877323718813,0.009730295443395157,0.9927321839281973
2014-08-06,-1,-0.0014637697433863956,-0.001207245454703834,-6.756556032885819e-05,0.009730295443395157,0.9932096069772913
2014-08-08,-1,-0.00036678555900847103,-0.0002548922345795983,-0.00044230189684375706,0.009730295443395157,0.9940885462949205
2014-08-12,-1,-0.0008145258682070846,-0.0006045493175009183,-0.0034074877323718813,0.009730295443395157,0.9939433253052474
2014-08-14,1,3.365961920629329e-05,0.00014210599804010809,-0.00380563696744605,0.00459806145128767,0.9939068978295529
2014-08-18,-1,-0.0001340872837105644,-8.459270974431636e-08,-0.0034074877323718813,0.0057879599609756555,0.9936186155314646
2014-08-20,1,0.00039114856609196705,0.00044803395890036614,-0.0035693009791400963,0.003729087148970265,0.993896017841039
2014-08-22,1,0.0002572358233996939,0.00031104585915047236,-0.003973952170780708,0.0057879599609756555,0.9929918228915322
2014-08-26,-1,-0.00017052235013239442,-4.614384814766989e-05,-0.003973952170780708,0.0057879599609756555,0.9930996674581409
2014-08-28,1,0.00029046930193299186,0.0004022492791109096,-0.0052825593763152065,0.0020932770932910595,0.9936226665711142
2014-09-02,1,0.00040203688976167724,0.00045798438655336526,-0.0052825593763152065,0.0031251162819663217,0.9907564138266279
2014-09-04,1,0.0002613665932228165,0.00034895584229188844,-0.0052825593763152065,0.0021942426190086663,0.9906792722930707
2014-09-08,1,0.0009528905334236914,0.0009878808541938016,-0.0052825593763152065,0.004450703138507721,0.9903463851688206
2014-09-10,1,0.0005135189507872477,0.0005397038881072716,-0.003085208738024763,0.00839778010394162,0.9900346139575951
2014-09-12,-1,-0.00044988796965415146,-0.00031273846210912187,-0.003085208738024763,0.00839778010394162,0.9896157497067984
2014-09-16,1,0.0001935080792109974,0.0002615358802969336,-0.0072632009882409795,0.004450703138507721,0.9884778024676387
2014-09-18,-1,-0.00011871400804978774,-1.6461128975862112e-05,-0.011775620362876738,0.00839778010394162,0.9871626143400845
2014-09-22,-1,-0.00013041143684324347,-2.8920848755457722e-05,-0.0072632009882409795,0.00839778010394162,0.9868194655417769
2014-09-24,-1,-0.0005014589041445065,-0.0003391093265034519,-0.007449323918703808,0.00839778010394162,0.9866355888890409
2014-09-26,-1,-0.0006376192080212948,-0.0004844692792970707,-0.0037202320639147623,0.011910306439381273,0.9859972255407046
2014-09-30,1,0.001188927461882019,0.0012440766531619958,-0.004756760348122201,0.011183063986019766,0.9882862714047782
2014-10-02,1,0.0007033592603520585,0.0007329513649027117,-0.007010784535960086,0.011910306439381273,0.9872264731798505
2014-10-06,1,0.0014476676547579947,0.0015276044815819313,-0.007926064722046742,0.012956220377005678,0.987069677356836
2014-10-08,1,0.001862503198325505,0.0020022438708080697,-0.010640077591815313,0.012956220377005678,0.985589314099054
2014-10-10,1,0.0005014127290502471,0.0005350625620497612,-0.009469423475044151,0.012956220377005678,0.9868501642261714
2014-10-14,-1,-0.0007015277993425819,-0.0005539636699199653,-0.00640119500100119,0.012956220377005678,0.9882774348932041
2014-10-16,-1,-0.0001340989393204698,-4.091844051285908e-05,-0.0074719509248834795,0.011910306439381273,0.9886661548598256
2014-10-20,1,0.000897435000648649,0.0009301425351155745,-0.00829735531814055,0.011023832319000237,0.9894420912439388
2014-10-22,1,0.0008839900064201919,0.0009411417732660024,-0.00829735531814055,0.011023832319000237,0.9897857585557992
2014-10-24,1,0.001701825220966445,0.0018718398157658144,-0.00829735531814055,0.007823470766841664,0.9904292185403409
2014-10-28,1,0.0016751291240238216,0.0018263244807387492,-0.00829735531814055,0.007823470766841664,0.9907386837946571
2014-10-30,1,0.0013701708662956428,0.0014460477535866226,-0.0074719509248834795,0.004498909661470301,0.9919807298291407
2014-11-03,1,0.0015876036297731433,0.0016872635437108988,-0.007899957388504372,0.004498909661470301,0.9921942513997003
2014-11-05,1,0.0018108646567803436,0.001965985616482717,-0.0043457902283978375,0.004820758325274384,0.994316369152076
2014-11-07,1,0.0017162060536636433,0.0018940480654361577,-0.00753272834632519,0.004820758325274384,0.993745201882439
2014-11-11,1,0.0016549102986796024,0.0018204517634268671,-0.007899957388504372,0.007823470766841664,0.9919877413803155
2014-11-13,1,0.0007287054835259401,0.0007756255372244704,-0.00753272834632519,0.007823470766841664,0.9925498899922209
2014-11-17,1,0.0010771349037314987,0.0012031902664211699,-0.00753272834632519,0.004820758325274384,0.9922859295134916
2014-11-19,1,0.000872350981465301,0.0009693320409462295,-0.00753272834632519,0.007884298995474454,0.9896463689425139
2014-11-21,1,0.0007209701157822011,0.0007517069465966998,-0.00753272834632519,0.007884298995474454,0.9896204813842985
2014-11-25,1,0.0008900856252304012,0.0009298827497884929,-0.00753272834632519,0.007998021991940977,0.9889193710374838
2014-11-28,1,0.0010240362826463775,0.0010894365631267718,-0.00753272834632519,0.008673140197831851,0.9877775603596703
2014-12-02,1,0.0012887838688122938,0.0014174812017403561,-0.013878919411403765,0.008239514990978344,0.9864310325572705
2014-12-04,1,0.001375003172813841,0.0014911788156785227,-0.013878919411403765,0.0077411987190598355,0.9861830401851502
2014-12-08,1,0.00037697067963033814,0.00040840520116801283,-0.013149616782464506,0.011269151791163834,0.9858067278227736
2014-12-10,0,-3.236147013854147e-05,1.4134827130340576e-05,-0.011705100654350384,0.017228738723837428,0.986140711129954
2014-12-12,-1,-0.0005332151169959767,-0.00043614742608403953,-0.010257602808138817,0.017228738723837428,0.9868696012401472
2014-12-16,-1,-0.0012757815688565427,-0.0010852744919099835,-0.005974446321351611,0.018898718922281156,0.986149812803944
2014-12-18,1,0.0007669289088407495,0.000795150693949111,-0.005974446321351611,0.011794946990612063,0.9890710045994833
2014-12-22,1,0.0003284639229384932,0.0004068240819587709,-0.007323667236594342,0.011794946990612063,0.9887360299627486
2014-12-24,1,0.0011159118335318668,0.0011169860987025513,-0.008382085786022042,0.009298659973572671,0.989330412917321
2014-12-29,1,0.0012486246640302612,0.001280544839638176,-0.010257602808138817,0.008875663384497143,0.9895519140609628
2014-12-31,-1,-0.0001761557010051813,-1.2503843283628011e-05,-0.00834011793347682,0.009298659973572671,0.9907702615257098
2015-01-05,-1,-0.0005116450220196378,-0.0003138046100268887,-0.006856609421512512,0.014025557304362628,0.9894072192419718
2015-01-07,1,0.0001694264330003396,0.0002521267953180171,-0.006856609421512512,0.010998805753943696,0.9898658609133176
2015-01-09,1,0.0001802075445002853,0.0002672799190544252,-0.006856609421512512,0.010099257168146435,0.9891293746722134
2015-01-13,1,0.000165981855097584,0.00023945678106907252,-0.008326220987907088,0.010998805753943696,0.9855974141919893
2015-01-15,1,0.0010067403998798474,0.0010161187048548703,-0.009573696984377449,0.010099257168146435,0.9859078728292172
2015-01-20,1,0.0012608074613391846,0.0012913053923233875,-0.009573696984377449,0.010998805753943696,0.9850000542985741
2015-01-22,1,0.0016180999102113516,0.00174382951680295,-0.009716689404286716,0.010998805753943696,0.9850989647758575
2015-01-26,1,0.0012845424435878397,0.0013658742985955797,-0.009716689404286716,0.010998805753943696,0.9855957197546446
2015-01-28,1,0.000621331239431353,0.0006227204959613099,-0.010591839846048973,0.010998805753943696,0.984984169061111
2015-01-30,1,0.000996970202387473,0.001067265897600009,-0.012550114110432388,0.009048552478577858,0.9851146290294714
2015-02-03,1,0.0020822436859459573,0.0022694000010152187,-0.012550114110432388,0.0035917885948913066,0.9865764934092186
2015-02-05,1,0.0014465760137089673,0.001494725513092681,-0.014353749096231692,0.0035917885948913066,0.9855666306399862
2015-02-09,1,0.00011309696477456056,0.0001990998758128827,-0.012550114110432388,0.0035917885948913066,0.9875915411466873
2015-02-11,-1,-0.00015130637245227457,-1.4685609972063377e-05,-0.012550114110432388,0.0035917885948913066,0.9893588242796927
2015-02-13,-1,-0.0007960448763244728,-0.0005810921409802587,-0.012550114110432388,0.0051858405102598966,0.9887213247868243
2015-02-18,1,0.0003677082260641309,0.000458266394540455,-0.012550114110432388,0.0051858405102598966,0.9881118837844756
2015-02-20,-1,-0.0004204976561561585,-0.00020598293298935727,-0.01308780992006969,0.009173505020438677,0.9872452683403783
2015-02-24,1,0.0010612898408176186,0.0011283135882884363,-0.013565251956471125,0.009173505020438677,0.986350177971144
2015-02-26,-1,-0.0003182767540957664,-0.00020509959696793871,-0.01308780992006969,0.009173505020438677,0.987607863182309
2015-03-02,-1,-0.0001073609716835512,-5.235678023453853e-05,-0.008303196559588099,0.0117108993298651,0.9870773338006861
2015-03-04,1,0.00030473793436494676,0.0003304283808875674,-0.008303196559588099,0.0117108993298651,0.9872134110284236
2015-03-06,-1,-0.0014965506075516146,-0.0012311509865461324,-0.0061163703885553315,0.01242201647750584,0.9884534554849761
2015-03-10,-1,-0.0024050899809849374,-0.0019646946556615827,-0.007677962284206473,0.01242201647750584,0.9880172758940275
2015-03-12,-1,-0.0016958605476959769,-0.0013577681124491404,-0.007318753947962503,0.007327143538425793,0.9893567350687164
2015-03-16,-1,-0.0012290116284082065,-0.0010046732312351944,-0.007318753947962503,0.005777489466533819,0.9902378104728844
2015-03-18,1,0.0005668951534340771,0.0005863323828841356,-0.009270131011867053,0.005777489466533819,0.991329446710358
2015-03-20,1,0.0011163764131720659,0.0012186128836235326,-0.007318753947962503,0.005777489466533819,0.9921681334782093
2015-03-24,1,0.0004563480897827071,0.0004823104637505081,-0.0047981249584194766,0.006525664575014037,0.9925940078287872
2015-03-26,1,0.0003503869955118753,0.0003809786753488137,-0.003923214793390038,0.008520240600361979,0.992244247057198
2015-03-30,1,0.0015580631011999553,0.0017580981765138513,-0.005386785049837228,0.006795255972784197,0.9932098817625292
2015-04-01,1,0.0015925543531014863,0.0017983225458547943,-0.009270131011867053,0.006795255972784197,0.9921784267127679
2015-04-06,1,0.0017463442885961773,0.0019546289647341822,-0.009270131011867053,0.0068737236375833646,0.992190109990827
2015-04-08,1,0.0012005861428639206,0.0013409608723497968,-0.009270131011867053,0.0068737236375833646,0.991452267349366
2015-04-10,1,0.0004232957187731819,0.0004518374977003434,-0.007535577285085338,0.008520240600361979,0.9907830255144016
2015-04-14,-1,-0.00025891242219334233,-0.00014514660995332913,-0.006215276019594617,0.008520240600361979,0.991126356844356
2015-04-16,-1,-0.00043427961089419713,-0.0002886559314680004,-0.006215276019594617,0.00736152506200417,0.9913063957042703
2015-04-20,0,-6.0557535613602824e-05,2.3437485885861696e-05,-0.006215276019594617,0.009322271646077225,0.9893002252998269
2015-04-22,1,0.0006549542863750026,0.0006668367057491575,-0.006215276019594617,0.007898467125982918,0.9895688879016389
2015-04-24,1,0.0012205854093919261,0.001312220352438375,-0.006215276019594617,0.007154267237211149,0.9900498056407654
2015-04-28,1,0.0006672776290287971,0.0006827853548834709,-0.0059452968681062415,0.007154267237211149,0.9900319584255001
2015-04-30,1,4.788425788758136e-05,8.575728587450514e-05,-0.003860358433977148,0.008168898772446809,0.9901875386462696
2015-05-04,1,0.00019039439864182618,0.00025446636077334524,-0.004508677822392292,0.007154267237211149,0.9903271908179103
2015-05-06,-1,-0.00156339734883227,-0.0012570414588201203,-0.004508677822392292,0.007154267237211149,0.990830574620086
2015-05-08,-1,-0.0009353820608402981,-0.0006619236665359061,-0.006591594528610001,0.006233339402105805,0.9916898741046873
2015-05-12,-1,-0.0012672087477951096,-0.000908757594196935,-0.006591594528610001,0.006353253490181904,0.9915088852201713
2015-05-14,-1,-0.00014845499133083856,-4.1439155417581576e-05,-0.006591594528610001,0.008356968845072343,0.9909255443137546
2015-05-18,1,0.001958176063915531,0.0021353632983615494,-0.006591594528610001,0.007056475126476443,0.9925586494284957
2015-05-20,1,0.002823820634892793,0.0031630200776349184,-0.006591594528610001,0.0072993890670876,0.9909677171567297
2015-05-22,1,0.003276574960325551,0.003734154449021354,-0.007967989038450526,0.0072993890670876,0.9903500018161502
2015-05-27,1,0.0018214718383868004,0.0019919661105094947,-0.008445118221106286,0.0072993890670876,0.9896729216186477
2015-05-29,1,0.0017580990259560207,0.0018964913750063165,-0.008850061316114308,0.006684648958737543,0.9894248915761166
2015-06-02,1,0.001294105206516899,0.0013777672779571389,-0.008445118221106286,0.006684648958737543,0.9895287147809048
2015-06-04,1,0.0007586981578081473,0.0007818445216221663,-0.008445118221106286,0.006684648958737543,0.9879926857485124
2015-06-08,1,4.598388853078607e-05,0.00011818717595611698,-0.008517873584198633,0.0072993890670876,0.9876365118076101
2015-06-10,1,0.0010795526460710097,0.0011927242493981664,-0.009068327405391348,0.006684648958737543,0.9869576708726536
2015-06-12,1,0.0014756013306558582,0.001664366613599381,-0.009068327405391348,0.006684648958737543,0.9875689973743881
2015-06-16,1,0.0019222195280801015,0.002169754205429377,-0.009068327405391348,0.00571117078837363,0.9870433800972744
2015-06-18,1,0.0030651490916281197,0.003443247264994038,-0.010778401151557423,0.0022288662688291477,0.9862660250196784
2015-06-22,1,0.002356047780523808,0.002598508495891462,-0.009068327405391348,0.0007358320421898436,0.9870973454021167
2015-06-24,1,0.0014936539546145948,0.0016341115687237484,-0.009068327405391348,0.0026575614884638407,0.9875330861715941
2015-06-26,1,0.0015939550896502941,0.0018211391065048217,-0.008083163184244752,0.01014389288313116,0.9865557014738944
2015-06-30,1,0.0011179748975714712,0.0012792937819538527,-0.009521740795133167,0.01014389288313116,0.9867778128028037
2015-07-02,-1,-0.0017617161281472389,-0.0014957911310585765,-0.007972956983063368,0.012168746455333739,0.9879092225057983
2015-07-07,-1,-0.0009642677748700663,-0.0007978641578970413,-0.01236204070980572,0.01014389288313116,0.9876094988344436
2015-07-09,-1,-0.0022280237120140536,-0.0018990731845204853,-0.008665997333758477,0.01014389288313116,0.9883294283948515
2015-07-13,-1,-0.0008402681597470855,-0.0007354377721294171,-0.008665997333758477,0.008324091044325306,0.9888843400623246
2015-07-15,-1,-0.000843474656025339,-0.0007175118642567403,-0.006004873746363898,0.01256019787465631,0.9873954469621801
2015-07-17,-1,-0.0011263632942458113,-0.0009756642801534456,-0.0023654901863471734,0.008454574850766162,0.9890784279835234
2015-07-21,-1,-0.0016261810415770066,-0.001371170701653904,-0.004230819553298706,0.01068597496698272,0.987980399747219
2015-07-23,-1,-0.00238535259694243,-0.00203560492010475,-0.004230819553298706,0.01068597496698272,0.9883086410337558
2015-07-27,-1,-0.0008422504562007981,-0.0006789672747389706,-0.014494737194468347,0.004931963864397761,0.9882178911459194
2015-07-29,-1,-0.0016936136663990324,-0.0013984275601012898,-0.01469000132138997,0.006757778802942616,0.9862188795462973
2015-07-31,-1,-0.0008612993819266093,-0.0006732945738065487,-0.01469000132138997,0.006757778802942616,0.9864641314309387
2015-08-04,-1,-0.001883708354471408,-0.0015951778983022773,-0.014907440425206451,0.006757778802942616,0.9864513467560234
2015-08-06,-1,-0.0018054199276405676,-0.0015213787340571262,-0.014907440425206451,0.010184704855781164,0.9856528911189143
2015-08-10,-1,-0.0009087494816068073,-0.0007946077780027364,-0.015326558704222587,0.010937007335947393,0.9836711987638085
2015-08-12,1,0.000532066838383229,0.0005884380859118746,-0.015326558704222587,0.007534392320610029,0.9852959068377948
2015-08-14,0,-8.54189994073116e-06,4.040505520605165e-05,-0.015326558704222587,0.008395176596537778,0.9851257471675021
2015-08-18,-1,-0.00046345754146754064,-0.00035549595573190404,-0.015326558704222587,0.008478854052859336,0.9850090575591322
2015-08-20,-1,-0.00024086484858400713,-0.0001991301557406137,-0.015074057607176295,0.012044356716829362,0.9849359035250648
2015-08-24,-1,-0.0017236653436892074,-0.0015081666229377357,-0.010172144099165004,0.012044356716829362,0.9869181905776133
2015-08-26,-1,-0.0008687155707739864,-0.0007691505220870272,-0.009645829506855042,0.009059605777096713,0.9886271876529965
2015-08-28,-1,-0.0006850040915783147,-0.0005836717693724538,-0.009645829506855042,0.009059605777096713,0.9884727622546963
2015-09-01,-1,-0.0014665734232886373,-0.0012751535155228677,-0.004245668672078213,0.012044356716829362,0.987803433050312
2015-09-03,-1,-0.0016882765279948677,-0.0014541053253421731,-0.003652513994453765,0.017390078753789857,0.9876803977016786
2015-09-08,-1,-0.0013770038963904169,-0.0011757073985927695,-0.003652513994453765,0.01338331678840893,0.9885879819330761
2015-09-10,-1,-0.0013795643878752222,-0.0011909877063042912,0.0004989718074780839,0.01338331678840893,0.988280069173148
2015-09-14,-1,-0.0008905108848646052,-0.0007775111790136717,-0.003652513994453765,0.01338331678840893,0.9885671446677607
2015-09-16,1,0.00012094730356037813,0.00014951195341280474,-0.003652513994453765,0.011468755913543247,0.9899497809743099
2015-09-18,1,0.0001169548916073093,0.00012767453246114216,-0.002648060725815927,0.011468755913543247,0.9899449115586628
2015-09-22,-1,-0.0005743262827808855,-0.0004670170597960287,-0.00090686553514421,0.011468755913543247,0.9901503553622685
2015-09-24,1,0.0003057415895238635,0.000334149599028887,-0.002648060725815927,0.013360829848360676,0.989947048989204
2015-09-28,-1,-7.631163221843027e-05,-1.2867574252580015e-05,-0.002648060725815927,0.011468755913543247,0.9907460984726162
2015-09-30,1,0.0015527554190995648,0.0017429601367993926,-0.006093802481001805,0.009143638595689185,0.9916119494455035
2015-10-02,1,0.001766242352966745,0.0019916314627735996,-0.007107646571998466,0.009143638595689185,0.9915305677933532
2015-10-06,1,0.0012237612703504418,0.001362683762554277,-0.006093802481001805,0.005581705715145719,0.9927091822104864
2015-10-08,1,0.002536838817925854,0.002934693106887632,-0.006093802481001805,0.006051289461193799,0.992541711518277
2015-10-12,1,0.002306278100232908,0.002673959268637532,-0.007107646571998466,0.006051289461193799,0.991151968008352
2015-10-14,1,0.00231493896100072,0.00268555548434672,-0.007107646571998466,0.010885961489367492,0.9903704376393927
2015-10-16,1,0.0025574048706914145,0.0029407805690847564,-0.007579143876931597,0.009206009364535039,0.9899367799056603
2015-10-20,1,0.0027277070897491085,0.00314241385802323,-0.007640260716592329,0.010885961489367492,0.9891776695627755
2015-10-22,1,0.0028713838118749196,0.0032830957874123504,-0.007640260716592329,0.010885961489367492,0.989334303686294
2015-10-26,1,0.002198188066236676,0.0024989746812507352,-0.007640260716592329,0.010885961489367492,0.989608029335206
2015-10-28,1,0.001471337392484038,0.0016534350219333746,-0.008183463027303113,0.010885961489367492,0.9892836986594677
2015-10-30,1,0.0019375118546676579,0.0022041698604521646,-0.004837302067850467,0.009206009364535039,0.9902345148015047
2015-11-03,1,0.0017178283954327456,0.0019582462231866786,-0.005679500616808842,0.010353398034829368,0.9897640013810091
2015-11-05,1,0.002524803806765851,0.0028963471672369106,-0.008346145611356874,0.008868494143587584,0.9893311836097755
2015-11-09,1,0.002167530872994903,0.0025409153451908476,-0.005679500616808842,0.008868494143587584,0.9910279190534514
2015-11-11,1,0.002603913355223224,0.0030223467978625577,-0.008290409451705926,0.006226088480024772,0.9912447935597001
2015-11-13,1,0.0020060596194244593,0.0023104312090365888,-0.008290409451705926,0.00722465341160429,0.9909416709661882
2015-11-17,1,0.00183807833283822,0.0020965794782907437,-0.008030852165200487,0.00722465341160429,0.9899868229898232
2015-11-19,1,0.0023111864998758137,0.0026143826893837586,-0.011478337963392881,0.005832449612323554,0.9899347935624478
2015-11-23,1,0.001321428196139683,0.0014007338154397285,-0.011478337963392881,0.006555483429355404,0.9898282485934823
2015-11-25,1,0.0007570561264431178,0.0007940362817992918,-0.005592981521307029,0.009146923314215731,0.9909092736863383
2015-11-30,1,0.0003726706187140553,0.00043478871771660324,-0.005592981521307029,0.00984024774199918,0.9900306167458675
2015-12-02,1,0.000706415351836819,0.0007075257246834618,-0.008030852165200487,0.009146923314215731,0.9899582992713498
2015-12-04,1,0.0006202806789613944,0.0006233312407501943,-0.004494042641739922,0.01011280424509094,0.990561126021174
2015-12-08,1,0.0005173981585792256,0.0005538831049680817,-0.008030852165200487,0.01011280424509094,0.9895566375725958
2015-12-10,0,-5.06818324580231e-05,5.229498889030963e-05,-0.004494042641739922,0.011545805380931293,0.989246794047615
2015-12-14,-1,-0.0005142441715602396,-0.0003269695933897192,-0.004494042641739922,0.011545805380931293,0.9899462995572016
2015-12-16,1,0.0009172416858322129,0.0009689218556656389,-0.005927135944764152,0.011545805380931293,0.9897725534281433
2015-12-18,-1,-0.00017316791499903856,-6.873265281386861e-05,-0.005927135944764152,0.012534235690362296,0.9885583086246007
2015-12-22,1,0.0005764054075943024,0.0005825142684592062,-0.005845018226360757,0.015368499856807126,0.9873255860202315
2015-12-24,1,2.6651207183558327e-05,0.0001602609028775124,-0.005845018226360757,0.015368499856807126,0.9875038915918226
2015-12-29,1,0.000752091762150008,0.0008002908251866534,-0.009435859239936254,0.015368499856807126,0.9868405061741251
2015-12-31,1,1.845129084173633e-05,0.00015521009972924838,-0.004779423918189422,0.015368499856807126,0.9863788542869962
2016-01-05,1,0.0013684840419770983,0.001478466219649808,-0.004779423918189422,0.014151584348537496,0.9866918295427911
2016-01-07,1,0.0007388370373088262,0.0007670283080888674,-0.00840435638400552,0.014151584348537496,0.9867167961800073
2016-01-11,1,0.0010728826659563706,0.0011284197794871,-0.00840435638400552,0.014151584348537496,0.986675105865319
2016-01-13,1,0.0002449951259000018,0.00031130643099835524,-0.00840435638400552,0.014151584348537496,0.9860858696957435
2016-01-15,-1,-0.0005225277601209578,-0.0002685919750939341,-0.008084110081925958,0.012848324538846342,0.9872691830832565
2016-01-20,-1,-0.0010796104218922875,-0.0007798187881684041,-0.0045732251142052175,0.012848324538846342,0.9875553546089425
2016-01-22,1,0.0007750354640035666,0.0008349140698210398,-0.0045732251142052175,0.011659289066360996,0.9896612428760984
2016-01-26,0,-0.00010723932305493965,0.00012334613685280815,-0.005762606127277433,0.011659289066360996,0.9897218051428504
2016-01-28,1,0.0004588954796059696,0.0006251965700319563,-0.005762606127277433,0.011659289066360996,0.9897958634847667
2016-02-01,1,0.001254925242983431,0.0013264012151131222,-0.005762606127277433,0.01058588540863016,0.9907607511949523
2016-02-03,1,0.001172799618407518,0.0012714114597851894,-0.005762606127277433,0.011585211801056965,0.9896089142536993
2016-02-05,1,0.000247873419323038,0.0004443556860414152,-0.0025542814209191687,0.011585211801056965,0.9906494095210718
2016-02-09,1,0.0011156872029511108,0.001172269249221205,-0.0019126382949652958,0.01131682034327801,0.9911169652954179
2016-02-11,1,0.0007448387893812186,0.0008361900082003602,-0.0014924665446836255,0.009240367059966358,0.9921192872115225
2016-02-16,1,0.0003795616906762513,0.0005304049883425774,-0.0014924665446836255,0.007815714031093698,0.9925718153660018
2016-02-18,1,0.0019008414299590956,0.001955856242632384,-0.0014924665446836255,0.007462634462257541,0.9930257614908542
2016-02-22,1,0.0018522136719218438,0.0019096580677422917,-0.0019126382949652958,0.007462634462257541,0.991814051860005
2016-02-24,1,0.0020783746937589292,0.0022494906730423318,-0.0014924665446836255,0.009726054996052997,0.9917766469978758
2016-02-26,1,0.0016855166890586593,0.0018195453658326102,-0.0014924665446836255,0.007385756135716062,0.9931264552824003
2016-03-01,1,0.0014924385079349276,0.001576356352220428,-0.001434582399003516,0.009726054996052997,0.9923956296209788
2016-03-03,1,0.0029190140936323707,0.0032293094785165663,-0.001434582399003516,0.00953354943162316,0.9938110515950488
2016-03-07,1,0.0027196737617674175,0.0029898754832328577,-0.004142992303794932,0.00953354943162316,0.9925165919001122
2016-03-09,1,0.0029318915834145223,0.0032239509680838906,-0.004142992303794932,0.00953354943162316,0.9923533068009335
2016-03-11,1,0.003216348621742914,0.0035772495742799654,-0.004142992303794932,0.00953354943162316,0.9923398001438909
2016-03-15,1,0.0030534326529450062,0.0033952625267454025,-0.004142992303794932,0.00953354943162316,0.9919820337092782
2016-03-17,1,0.003990043251353182,0.004473803695065547,-0.004142992303794932,0.008828165424364945,0.9926712226330885
2016-03-21,1,0.0030701911449259028,0.0034032448379888217,-0.003530732038313593,0.008828165424364945,0.9936332982711847
2016-03-23,1,0.002749181868601509,0.0029880599979448487,-0.005891280617449864,0.007602521267990167,0.990065070262396
2016-03-28,1,0.002565323675677883,0.002781156531509195,-0.004856745223426966,0.007602521267990167,0.9903437026425924
2016-03-30,1,0.002952342264561042,0.003202910596433572,-0.004856745223426966,0.0069299220531261274,0.9906150163648678
2016-04-01,1,0.0038522168525865486,0.004259044944120008,-0.004856745223426966,0.006742080425963397,0.9910287706663102
2016-04-05,1,0.0022879193517321007,0.0024091163011120413,-0.0010877633043394229,0.006886739660061418,0.991694405049485
2016-04-07,1,0.0028511610656140845,0.0030900115671524783,-0.001874699656914267,0.006886739660061418,0.9913768401403341
2016-04-11,1,0.002387164352075661,0.0025196967290840163,-0.001874699656914267,0.007350555997756839,0.9910923338201827
2016-04-13,1,0.0021089278004415087,0.002207616658135752,-0.001874699656914267,0.008330304835890758,0.9911139254780389
2016-04-15,1,0.002900645650615851,0.003152081463847832,-0.001874699656914267,0.007388389904018556,0.9914859521107426
2016-04-19,1,0.0031109657129915983,0.0033837904240538123,-0.0023352687668170783,0.007626018043990579,0.9906945194636398
2016-04-21,-1,-0.000584762379152208,-0.00032985156478727363,-0.001874699656914267,0.007626018043990579,0.9923852316157263
2016-04-25,0,-0.00016515083107431253,3.6948401719384184e-05,-0.0023352687668170783,0.008330304835890758,0.9920574601923863
2016-04-27,1,7.041785029884406e-05,0.00024247919006593286,-0.0029698784638998808,0.00883925109705441,0.9915825478217781
2016-04-29,1,5.6944705328972815e-05,0.00024791702695454976,-0.0029698784638998808,0.00883925109705441,0.9917219208698891
2016-05-03,1,0.000606319988079425,0.0007241186384798331,-0.003482289472543766,0.007626018043990579,0.9917585362068597
2016-05-05,1,0.0005763981811168904,0.0007290028506102703,-0.003482289472543766,0.007626018043990579,0.9917263005381659
2016-05-09,1,0.00040719806658738524,0.0005956788698630114,-0.0034709202282270516,0.00722499174246034,0.9921737335770824
2016-05-11,1,0.0010349910641995316,0.0011100183606176652,-0.0024948216809049517,0.007642779674718012,0.9918043037384489
2016-05-13,1,0.0007470136502076606,0.0009105282418751563,-0.004843501084602853,0.007642779674718012,0.9920468974310584
2016-05-17,1,0.0002763555619603417,0.0004826641908524862,-0.002447517120597476,0.008641450790784043,0.9926446481218724
2016-05-19,0,-0.00023016902409340502,2.7558857165873012e-05,-0.0021360434454758452,0.008641450790784043,0.9931428963695298
2016-05-23,1,0.0002849700461950253,0.0004436166261475006,-0.0021360434454758452,0.008229902271896856,0.993359629435063
2016-05-25,1,3.072315194099719e-05,0.00025559666224387494,-0.0021752571520377924,0.007389488440971782,0.9941633003943504
2016-05-27,1,0.0005690684876584196,0.0007022846102555491,-0.0021752571520377924,0.007389488440971782,0.994062405556178
2016-06-01,0,-0.00020543870182733307,6.767007838216971e-05,-0.001742531611740128,0.008229902271896856,0.9940691415267042
2016-06-03,1,0.0006183771916516826,0.0007691084441975562,-0.0014138954012347868,0.008229902271896856,0.9937277253712488
2016-06-07,0,-0.00013519242434600627,0.00014652656195468462,-0.0021752571520377924,0.008229902271896856,0.9932659311634936
2016-06-09,1,0.000930849072202671,0.0010771778082715859,-0.0029667743121171266,0.00693362872984647,0.9932670233022239
2016-06-13,1,5.033363028777104e-05,0.0003529132552919764,-0.0029667743121171266,0.00693362872984647,0.9930163041855428
2016-06-15,1,0.001266970913970353,0.001343606148044109,-0.0029667743121171266,0.00693362872984647,0.9930856406912665
2016-06-17,1,0.0009750306819126871,0.0011015493305539627,-0.0024152094504119237,0.005829342713400791,0.9934661992890704
2016-06-21,1,0.0014453160579969279,0.0014700098421281931,-0.002844601901280316,0.005191848583014689,0.9935775193757266
2016-06-23,1,0.0015363162579693453,0.0015597355849421431,-0.002487546210139022,0.005829342713400791,0.9933737796985308
2016-06-27,1,0.0018062472407058532,0.001872387095884818,-0.0050894277034991085,0.005829342713400791,0.9925968281909374
2016-06-29,1,0.0017693813762671038,0.0017717031844990622,-0.007181543484902639,0.00441429371527786,0.9921240482652408
2016-07-01,1,0.002908827702835435,0.0030856201886926967,-0.007181543484902639,0.003626673692737024,0.9927803182348153
2016-07-06,1,0.0024488538069108792,0.0025271405670203046,-0.00801154365071224,0.003854372318130699,0.9919212792159062
2016-07-08,1,0.0015459156316925072,0.0015908029031052762,-0.00801154365071224,0.003854372318130699,0.9922949127773488
2016-07-12,1,0.0017709191601069263,0.0018340828563850043,-0.007181543484902639,0.003854372318130699,0.9926852659282245
2016-07-14,1,0.0017104127825738236,0.0017534051201982905,-0.007181543484902639,0.003800471880039783,0.9929469482724103
2016-07-18,1,0.001462179314640212,0.001476974851419067,-0.008684871909675967,0.0036236892249745228,0.9920277131709649
2016-07-20,1,0.0005408914256311404,0.0007025728654626291,-0.009713591291000204,0.004875147612701369,0.9915803711768754
2016-07-22,1,0.0010498575695679277,0.0011578050834658543,-0.011068771619978407,0.004875147612701369,0.9908705780514037
2016-07-26,1,0.0009465959933464792,0.0009850533467690567,-0.010033848995533686,0.005239051537614163,0.9912428741104679
2016-07-28,1,0.0007879576797094285,0.000854081323860231,-0.005968230016892069,0.004875147612701369,0.9921644728817687
2016-08-01,1,0.0009518198180365851,0.000983334177741224,-0.010727932752850883,0.0036236892249745228,0.9914736943803361
2016-08-03,1,4.621188517038555e-05,0.00018056208112094286,-0.010727932752850883,0.003256599577797365,0.9920123418171435
2016-08-05,-1,-0.0009764779022832065,-0.0007126743014202691,-0.005968230016892069,0.0037199782330789794,0.9922555564667218
2016-08-09,-1,-0.00020239270695599073,-8.71258437577256e-05,-0.005968230016892069,0.005646792903026955,0.9917896736246925
2016-08-11,-1,-0.0005341467538466295,-0.00034091837803816604,-0.010727932752850883,0.004545523961495481,0.9900521884603614
2016-08-15,-1,-0.0013527559921524756,-0.0010726942957599399,-0.010727932752850883,0.008823159795813508,0.9893153836436348
2016-08-17,-1,-0.001081749603242788,-0.0008190616524723128,-0.007327545686890988,0.008589488076339932,0.9895946434419889
2016-08-19,-1,-0.000971910375376428,-0.0007599548325718906,-0.004654826248026286,0.01037005312019558,0.9891465292688005
2016-08-23,-1,-0.00047785537283849284,-0.00035952060729403743,-0.003269057592549455,0.012160990025508345,0.9878877213777225
2016-08-25,-1,-0.0012578997283852252,-0.0009905137045148988,-0.005029037424379707,0.012160990025508345,0.9876035345127947
2016-08-29,-1,-0.0018139371589619559,-0.001497225827142448,-0.005029037424379707,0.012160990025508345,0.9878457871130354
2016-08-31,-1,-0.0022937458867142036,-0.0019234507954818223,-0.005029037424379707,0.012160990025508345,0.9878946165336796
2016-09-02,-1,-0.002044082580190215,-0.0016955420464117186,-0.00883237303202154,0.01037005312019558,0.9877910520904091
2016-09-07,-1,-0.0013482103199358728,-0.0011072450869373664,-0.016713471400841784,0.008589488076339932,0.9869775194683733
2016-09-09,-1,-0.0028487470522878576,-0.002456107021402306,-0.011636188079235135,0.008589488076339932,0.9886854262709269
2016-09-13,-1,-0.004968773079858614,-0.004175546588799374,-0.011636188079235135,0.008589488076339932,0.9886889750282689
2016-09-15,-1,-0.003940276161985138,-0.0032834491192098043,-0.011636188079235135,0.01015444895777708,0.9884520197399319
2016-09-19,-1,-0.0023583388650860668,-0.0019114856765123742,-0.011636188079235135,0.007532779799746899,0.9891848565925584
2016-09-21,-1,-0.0005292434977398841,-0.0003119596677032369,-0.011636188079235135,0.0013381430444757646,0.9899026633417495
2016-09-23,-1,-0.0010341149854527826,-0.0007811354473683606,-0.011636188079235135,0.0013381430444757646,0.9901083779383736
2016-09-27,-1,-0.0015064436976992847,-0.001222167926430364,-0.00972272591379192,0.007224291449819419,0.9902341844917668
2016-09-29,-1,-0.002087293129697405,-0.001748139112869552,-0.00972272591379192,0.007224291449819419,0.9906446296337812
2016-10-03,-1,-0.002823493237701419,-0.0024132179274638415,-0.009556964283390694,0.009476621732731498,0.9898489000297104
2016-10-05,-1,-0.0035639280515601776,-0.0030962127900118403,-0.00972272591379192,0.009476621732731498,0.9889978841265183
2016-10-07,-1,-0.004240613570565101,-0.0036735762223384315,-0.009689401629923211,0.009476621732731498,0.988879562917946
2016-10-11,-1,-0.004795816534757899,-0.0041440396939647645,-0.009556964283390694,0.010631359148925747,0.9887436574395162
2016-10-13,-1,-0.0036700268904637347,-0.0031572024723410747,-0.009984470796127447,0.007445775257038229,0.9883786061100417
2016-10-17,-1,-0.0033787713231474194,-0.002921664336279844,-0.009984470796127447,0.006662020508834901,0.9886747366894572
2016-10-19,-1,-0.0033009055118102485,-0.002867899380872339,-0.009984470796127447,0.00828009490431576,0.988292127826549
2016-10-21,-1,-0.0036238939073989815,-0.003152360816221829,-0.009984470796127447,0.00828009490431576,0.9880799258393888
2016-10-25,-1,-0.0026930590712401646,-0.002362251319813571,-0.009984470796127447,0.007327321744701642,0.9881868623815736
2016-10-27,-1,-0.0032389816232464095,-0.0028424264017091654,-0.009011916349553945,0.009243897653696844,0.9871221162811681
2016-10-31,-1,-0.0010596415608175565,-0.0009683270665783832,-0.009011916349553945,0.00747581223640584,0.9881798954071589
2016-11-02,-1,-0.0032424330659880244,-0.0028844233941435664,-0.009011916349553945,0.00747581223640584,0.9893121176453585
2016-11-04,-1,-0.003226643239723005,-0.002889747658254343,-0.007652856820747027,0.00747581223640584,0.9897524646822814
2016-11-08,-1,-0.0018336894715860255,-0.0016693114622848184,-0.00806778056548112,0.005244773368103424,0.9907984492264341
2016-11-10,-1,-0.003322331919248969,-0.002992404686540629,-0.006653213819880264,0.006619364431533122,0.9920931986835524
2016-11-14,-1,-0.0029617057736838343,-0.0026656988559753004,-0.006653213819880264,0.006668861262101188,0.9917894084460595
2016-11-16,-1,-0.00249934287287758,-0.0022821672153986523,-0.006791521734791629,0.006668861262101188,0.9912788731732639
2016-11-18,-1,-0.0021026332318857966,-0.001963113153472078,-0.004019671545332046,0.00747581223640584,0.9909513035429544
2016-11-22,-1,-0.0011290781567475485,-0.0010906569194665658,-0.005994437082003801,0.006668861262101188,0.9911882495853646
2016-11-25,-1,-0.00029840684866572117,-0.000149670634588484,-0.005479444688805956,0.005674874196265991,0.9924961729228223
2016-11-29,0,-0.00014154814337777354,6.853768861349286e-06,-0.006310849118408692,0.004844012238560715,0.9922788425018575
2016-12-01,-1,-0.001210024287806314,-0.0011993382131195059,-0.004715808559792175,0.005674874196265991,0.9926514945450234
2016-12-05,-1,-0.0010763776176179374,-0.0010545604445626466,-0.004715808559792175,0.006783128856466942,0.9921586414075876
2016-12-07,-1,-0.0010495886253205802,-0.0010160227722828825,-0.004715808559792175,0.008259559091840896,0.9913914902848877
2016-12-09,-1,-0.0007348431482992201,-0.0006699467003553195,-0.005528710377694087,0.008259559091840896,0.9911952104443084
2016-12-13,1,0.00019055782868211734,0.0004240626664189629,-0.005528710377694087,0.007796885637029164,0.9914683978170179
2016-12-15,1,3.131633075290882e-05,0.00020383528621174102,-0.005390395906300369,0.007796885637029164,0.9921810620485615
2016-12-19,1,0.0005565656488423099,0.0008096140086429247,-0.005528710377694087,0.007619978414736354,0.9921014356499801
2016-12-21,1,0.0005765278130772804,0.0008383325736124843,-0.006345119692186532,0.007622532054387626,0.9915819295762603
2016-12-23,1,0.00027675417896588176,0.00046498980050615774,-0.006077973344669774,0.007622532054387626,0.9918613073090388
2016-12-28,-1,-0.0004260391122340212,-0.0003636840958079342,-0.006077973344669774,0.007622532054387626,0.9921427215679136
2016-12-30,1,1.7205269193456977e-05,0.00015032172268380936,-0.00813237983120271,0.007622532054387626,0.9914325817346302
2017-01-04,1,0.0005636428509455947,0.0007840398204938208,-0.008569251856056202,0.007754573344343759,0.9906391984645014
2017-01-06,1,0.00024965240203374966,0.00038913350990465426,-0.00813237983120271,0.007607118479095597,0.9917629145931718
2017-01-10,1,7.02097576001069e-05,0.0002207596815658457,-0.005049769276667272,0.007607118479095597,0.9925074064274356
2017-01-12,1,0.00020208127601740018,0.00035560652479362605,-0.004696066329799414,0.007607118479095597,0.9926302771080463
2017-01-17,1,0.000804927761081814,0.0010428154417418132,-0.00813237983120271,0.005582979503904293,0.9929318626606163
2017-01-19,1,0.0007219911296118388,0.0009514821855873231,-0.004835537567888532,0.005583830717121384,0.9926723458545166
2017-01-23,1,0.0003187294959179675,0.0004670363525039935,-0.0025846472685404206,0.005705707659121307,0.9929822446176353
2017-01-25,1,0.0002249784413859293,0.00034521869995620785,-0.0015734524607805892,0.008120204170343528,0.9915332680497805
2017-01-27,1,0.00019325997740092673,0.00033086713959411723,-0.0015734524607805892,0.008666145465643017,0.9910732071669903
2017-01-31,1,0.001206894376844633,0.0014984690036450184,-0.0008985941083505535,0.008120204170343528,0.9928011847654554
2017-02-02,1,5.7999207990724725e-05,0.00011513242652490466,-0.0008985941083505535,0.007986654922216768,0.9924671057505744
2017-02-06,1,1.4632304915842919e-05,5.795543436926866e-05,-0.0034438065708407776,0.007986654922216768,0.9922520585394503
2017-02-08,1,0.0004641329724808766,0.00061471215688112,-0.004020068514210252,0.007986654922216768,0.9915061222769047
2017-02-10,1,0.0013902286190847315,0.0017182723853228028,-0.004020068514210252,0.00848654765032232,0.991099656185385
2017-02-14,1,0.0018330121495780832,0.0023048552863742483,-0.004020068514210252,0.010766384668010297,0.9909754802519214
2017-02-16,1,0.0023457067911088116,0.0028467662664958832,-0.005915980220655408,0.00848654765032232,0.9910293484255775
2017-02-21,1,0.0024533893749520415,0.002934868937502011,-0.006654664854685165,0.00848654765032232,0.9902568927627271
2017-02-23,1,0.0031708513398658916,0.003716701571125807,-0.006654664854685165,0.00848654765032232,0.9909808803621366
2017-02-27,1,0.002486571161233612,0.0028968554225733793,-0.005915980220655408,0.007452522225433746,0.9915393977999778
2017-03-01,1,0.002208248381650814,0.002524407856013679,-0.005915980220655408,0.007452522225433746,0.9913269639762833
2017-03-03,1,0.0016218591242191755,0.0018394738414708482,-0.005271374753156525,0.007584619159181535,0.991883325438008
2017-03-07,1,0.001200080395658549,0.001343800388121023,-0.004733140434378848,0.007584619159181535,0.9921251423799019
2017-03-09,1,0.0010605304120024563,0.0012307753611880594,-0.004305903334694105,0.007584619159181535,0.993088796383011
2017-03-13,1,0.0018147014475453711,0.0020881711059385763,-0.004733140434378848,0.005194577820560124,0.9935814411230476
2017-03-15,1,0.002052996737072029,0.0023485126712961602,-0.004305903334694105,0.005057471868559043,0.9944062832540708
2017-03-17,1,0.0015032360621694773,0.001707465115352027,-0.004305903334694105,0.005057471868559043,0.9945133732590772
2017-03-21,1,0.0019051893084795321,0.002187022912295572,-0.0029399284499920172,0.005057471868559043,0.9955391498945104
2017-03-23,1,0.0017086528750295095,0.0019319465789740084,-0.004284892392561477,0.004738333475153172,0.9957693473673979
2017-03-27,1,0.0024715844394490186,0.002870964306873337,-0.004284892392561477,0.004743138428621754,0.9959799914247726
2017-03-29,1,0.00125772210407893,0.0013857475665009092,-0.004560784160501301,0.005555770721600653,0.9948267745565241
2017-03-31,1,0.0011835144408171904,0.0012819359798505751,-0.004560784160501301,0.004743138428621754,0.9947939277443342
2017-04-04,1,0.0015293418911146747,0.0017325065122362402,-0.005054312876787941,0.005360573593632729,0.9945386225972661
2017-04-06,1,0.0009007596941095453,0.0009179441747542586,-0.005054312876787941,0.007233071428128951,0.9936140472561402
2017-04-10,1,0.0007778496606856882,0.0007940191747140724,-0.006235750442018356,0.007233071428128951,0.9930954684007031
2017-04-12,1,0.0010350549851136247,0.0010885496679716939,-0.006235750442018356,0.007233071428128951,0.9933744378528823
2017-04-17,1,0.0010715739728222394,0.0011277941461266586,-0.004933585740112144,0.007233071428128951,0.9935380981120753
2017-04-19,1,0.0012629463239293148,0.0013464899277904332,-0.006235750442018356,0.006722853545346641,0.9932165822177818
2017-04-21,1,0.0014599088552428865,0.001599471289070007,-0.006235750442018356,0.008385859450214904,0.9928723398617705
2017-04-25,1,0.0019317946115917349,0.002145669512690715,-0.006235750442018356,0.00936429636381332,0.9925520030191435
2017-04-27,1,0.0012230715496390771,0.0012715449638149654,-0.004915474040480979,0.00936429636381332,0.9929819250985242
2017-05-01,1,0.0005771320113276252,0.0006190580067730355,0.0008812802141609539,0.010203249874454041,0.9928897480211977
2017-05-03,1,0.00021227563917496886,0.0003067296922230841,0.0015329458532959595,0.010203249874454041,0.9927394390098474
2017-05-05,1,0.0012138639111755902,0.0012501267209086254,0.001165898609441616,0.00921076555741507,0.994084764893144
2017-05-09,1,0.0006954644724131283,0.0006966121380598497,0.0015329458532959595,0.00921076555741507,0.9941412667873435
2017-05-11,1,0.000583328101888029,0.0006103558355600917,0.001165898609441616,0.00921076555741507,0.9928511739837121
2017-05-15,1,0.001314599842473938,0.0014084057263128828,0.00027314026017803575,0.00854307654629523,0.9934581819054406
2017-05-17,1,0.0008141388563654523,0.000841098326812074,0.001165898609441616,0.00854307654629523,0.9935482551089421
2017-05-19,1,0.00126924508050933,0.0013464852905279384,0.0009498266750427321,0.006604316985584704,0.9944244440615362
2017-05-23,1,0.00145427825860297,0.0015163171953583015,-0.0002928004580617144,0.006012763627134564,0.9946930353701865
2017-05-25,1,0.0020359539226147156,0.002188931561075185,-0.0038525330784310776,0.005222395300513257,0.9948132231993845
2017-05-30,1,0.002441656247127962,0.0026665503443557763,-0.003971334609076295,0.005222395300513257,0.9943719243144735
2017-06-01,1,0.0028425194101431,0.0031059770877457935,-0.004320103106003385,0.004199335326616364,0.9936137859278126
2017-06-05,1,0.0023550771347574384,0.00251755430252616,-0.004320103106003385,0.0039599991102246485,0.9934934888621495
2017-06-07,1,0.0023408156460622805,0.0025008879683376694,-0.004662174178176294,0.002687756242676943,0.9935813529231939
2017-06-09,1,0.0016453425323041354,0.0017415964095291569,-0.0042689920073932745,0.0039599991102246485,0.9948370981046435
2017-06-13,1,0.0015566572059391229,0.001629376799565404,-0.0042689920073932745,0.0039599991102246485,0.994472161408619
2017-06-15,1,0.0014835409290222942,0.0015306208335042564,-0.00473759811380723,0.0027747738404435467,0.9935693880317784
2017-06-19,1,0.0014818990506424439,0.0015293560853693552,-0.0049662757255366525,0.0023020299513816823,0.9934150531332907
2017-06-21,1,0.0008647174862854302,0.0009166143184405256,-0.004420641813600685,0.0029380228185108574,0.9937370163966828
2017-06-23,1,0.0008937781271416049,0.0009087545131690226,-0.004420641813600685,0.005120581892044722,0.9937793177190141
2017-06-27,1,0.0005726453893864838,0.0006523468111580905,-0.004028445561893393,0.005120581892044722,0.993674011327258
2017-06-29,-1,-0.0001813347878860124,-1.2643900293811785e-05,-0.004420641813600685,0.005120581892044722,0.9939047191896058
2017-07-03,-1,-0.0004995387559859347,-0.00028971431347121963,-0.004420641813600685,0.00630447649987651,0.9936914250803406
2017-07-06,-1,-0.0005575115804444909,-0.00035713996357934145,-0.004420641813600685,0.006697549845497004,0.9929078662341322
2017-07-10,-1,-0.0009333297287412798,-0.0006665025624750601,-0.003992529331890725,0.006697549845497004,0.9931767275182352
2017-07-12,1,2.4446193625648517e-05,0.00014171068257639094,-0.003992529331890725,0.00630447649987651,0.9937275142654971
2017-07-14,1,0.0003929185034834638,0.0004490842674510211,-0.0029556562763596228,0.004724722524171682,0.994769084141242
2017-07-18,1,0.0007149396107812751,0.0007556529294052531,-0.0018385484143785215,0.00630447649987651,0.9945362489474134
2017-07-20,1,0.0007451283970124168,0.0007782976833497261,-0.0029556562763596228,0.006374342960492332,0.9938815661596889
2017-07-24,1,0.001138507709637527,0.001237675777224047,-0.0029556562763596228,0.004536839184002297,0.9940220421484931
2017-07-26,1,0.0013447612871883164,0.0014431945764507182,-0.002081513859740523,0.00430370239349997,0.9947041223880849
2017-07-28,1,0.0004557394186339342,0.0004811446538674879,-0.0015157068208937624,0.00605853203270466,0.9952176138703195
2017-08-01,1,0.00027973636080115674,0.00036247589112997056,-0.0019705238597635647,0.00430370239349997,0.9953387133159799
2017-08-03,1,0.0008053614955094302,0.0008166436172634063,-0.0017867398315511954,0.0034422560861080316,0.9960924171242607
2017-08-07,1,0.0007863686993679113,0.0008059268420604996,-0.001494170910222653,0.0034422560861080316,0.9963632252330438
2017-08-09,1,0.0004900215455896253,0.0005288376938868517,-0.0017634253623679064,0.00430370239349997,0.9961050264265447
2017-08-11,1,0.0004748044336722845,0.0005110992216143515,-0.0017634253623679064,0.004828242223939336,0.9958219503331128
2017-08-15,1,0.0008142964088276012,0.0008191247812664277,-0.0030653812024162854,0.004431309133840168,0.9952219449718039
2017-08-17,1,0.000624223702382267,0.0006468564357268907,-0.002690201183392609,0.004431309133840168,0.9958093716148214
2017-08-21,1,0.0006731395097568227,0.0006952303632170106,-0.0035123698386023148,0.004431309133840168,0.9948530559624704
2017-08-23,1,0.0010100924151254598,0.0010315075977315872,-0.004071929175826592,0.003056807229670469,0.9945178747872057
2017-08-25,1,0.0008194631392128895,0.0008416699172215102,-0.0043983005622079095,0.003056807229670469,0.9938330585760756
2017-08-29,1,0.0006135906244617741,0.0006496538125000138,-0.005944956627113928,0.004431309133840168,0.9926834247679517
2017-08-31,1,0.00028297590074755747,0.0003707929995624478,-0.005944956627113928,0.004431309133840168,0.9927340985282213
2017-09-05,1,0.0003422828189360561,0.00041128521557439064,-0.006104642669458944,0.004431309133840168,0.9922992486400602
2017-09-07,1,0.0005197245714800043,0.0005653263188458765,-0.006104642669458944,0.004431309133840168,0.9921444234906113
2017-09-11,1,0.000830903746020718,0.0008322220171047592,-0.006104642669458944,0.004190867328722062,0.9920844864669377
2017-09-13,0,-6.093423016083322e-05,4.999610335039515e-05,-0.005328333886793869,0.006478229111913863,0.9922941880456451
2017-09-15,1,0.000511037126582251,0.0005421334977249534,-0.005328333886793869,0.005801930950426148,0.9925303287660789
2017-09-19,-1,-0.0005208792981241623,-0.00035942387989151055,-0.003716668617367608,0.005801930950426148,0.9929278822423296
2017-09-21,-1,-0.0012788876066406347,-0.0009993001649832396,-0.0013486752592081633,0.006478229111913863,0.9924749811360869
2017-09-25,-1,-0.0016721271895638633,-0.0013366083014048377,-0.0013486752592081633,0.00604492503178833,0.9930701096011529
2017-09-27,-1,-0.002107572978226768,-0.0017650402816419496,-0.0032788973852175426,0.005758500604604239,0.9940856383771238
2017-09-29,-1,-0.0020870701946296252,-0.001710954563078165,-0.0032788973852175426,0.005758500604604239,0.9945722086559455
2017-10-03,-1,-0.0024377050514225412,-0.002027062125044167,-0.0029124251524915894,0.005758500604604239,0.9940986119579411
2017-10-05,-1,-0.0014701240296799215,-0.0012070873453342579,-0.0029124251524915894,0.006347938074448138,0.9940061230672661
2017-10-09,-1,-0.0015681653944071214,-0.0012674385942515872,-0.0039004037711539413,0.006492011020062294,0.9935753601675376
2017-10-11,-1,-0.0006302018498550539,-0.00046631053217987113,-0.0039004037711539413,0.006492011020062294,0.9941048518367924
2017-10-13,-1,-0.00014080975027163915,-6.259403921650116e-05,-0.004511697367224775,0.006492011020062294,0.9938771453478158
2017-10-17,0,-3.056799831684871e-06,3.2695786345867826e-05,-0.0039004037711539413,0.008351881508216892,0.9937440481144698
2017-10-19,1,0.0005353990262937428,0.0005847841200851931,-0.004511697367224775,0.006492011020062294,0.9936512704700702
2017-10-23,1,0.0007429734480457956,0.0008445155832191662,-0.00505397616582938,0.0054194854122560044,0.993664787051148
2017-10-25,1,0.0004333815629304346,0.00050057761397986,-0.004946289068199072,0.0055899808149551715,0.9936792182813651
2017-10-27,1,0.00042243803382104777,0.0004940556344305614,-0.004946289068199072,0.0055899808149551715,0.993803027963366
2017-10-31,-1,-4.5971600544843236e-05,-1.4235434933374338e-05,-0.0019249273131399895,0.0055899808149551715,0.9940303832525832
2017-11-02,1,0.0006111398263475075,0.000667530581824699,-0.004946289068199072,0.004508490921351661,0.9941432965141127
2017-11-06,1,0.0008617649849459602,0.0009629361519870311,-0.007575901528362414,0.003870469521898694,0.9940453332224326
2017-11-08,1,0.001267959618840006,0.0014267457342926487,-0.007575901528362414,0.003870469521898694,0.9941446253881498
2017-11-10,1,0.0006790834495740327,0.0007430323027245499,-0.006775751909339408,0.004155059524986335,0.9946259549713351
2017-11-14,1,0.001085217220712617,0.0011898432819647338,-0.007575901528362414,0.00312515382090949,0.9937510279925489
2017-11-16,1,0.000801964879956511,0.0008705516506402047,-0.006775751909339408,0.0025866990452968934,0.9944224984660245
2017-11-20,1,0.00011466876429423476,0.00016514304427119744,-0.007575901528362414,0.0025866990452968934,0.9924815483216772
