JNU-Tangyin/eata/results/Batch4_SP500/Batch4_SP500-MNST.csv
Date,Action,Predicted_Q25,Predicted_Q75,Actual_Q25,Actual_Q75,RL_Reward
2010-12-14,0,0.0,0.0005709442548510714,-0.0066784011121422005,0.0033868585311024975,0.989430800434503
2010-12-16,0,-0.00018769588735177494,9.901099049252357e-05,-0.00577866021526963,0.007365552969373655,0.9887828491262797
2010-12-20,1,0.0005491740682568906,0.0008311615163427268,-0.0066784011121422005,0.004542020939909133,0.989580429399533
2010-12-22,1,0.0013747423638634149,0.0015641845512400494,-0.0066784011121422005,0.009880870334485082,0.9893134118225306
2010-12-27,0,0.0,0.0,-0.007007693013183813,0.009880870334485082,0.98886693479424
2010-12-29,0,0.0,0.0,-0.006265253524873168,0.012161234675974786,0.9887057061430511
2010-12-31,0,0.0,0.0,-0.006265253524873168,0.012995271736159334,0.9875128862173945
2011-01-04,0,0.0,0.0,-0.006265253524873168,0.012995271736159334,0.9883389663465184
2011-01-06,0,0.0,0.0,-0.006628829165470057,0.012161234675974786,0.9897074544950377
2011-01-10,0,0.0,0.0,-0.00786743874095286,0.012161234675974786,0.9890052439474639
2011-01-12,1,0.0027989648234443957,0.0028283704907597794,-0.008376574166600356,0.012161234675974786,0.9883687102767941
2011-01-14,1,0.002386197867944841,0.002460280030886289,-0.008376574166600356,0.012161234675974786,0.9883844779737456
2011-01-19,1,0.0010120708457076024,0.0011471686398003913,-0.00786743874095286,0.012161234675974786,0.9889990106424666
2011-01-21,1,0.002004135162046149,0.0020300801614562343,-0.00786743874095286,0.008773774669983837,0.9897702833480717
2011-01-25,0,0.0,0.0,-0.00786743874095286,0.006565229222746964,0.9896036138297745
2011-01-27,0,0.0,0.0,-0.008376574166600356,0.006565229222746964,0.9856607506748885
2011-01-31,0,0.0,0.0,-0.013135137331771574,0.003650318309607152,0.9852030960813544
2011-02-02,0,0.0,0.0,-0.017962307727986435,0.003650318309607152,0.9848243052238617
2011-02-04,0,0.0,0.0,-0.017962307727986435,0.003650318309607152,0.9847294435882374
2011-02-08,0,0.0,0.0,0.0,0.0,0.0
2011-02-10,0,0.0,0.0,-0.017301130451991244,0.005599558502281241,0.9851575621081382
2011-02-14,0,0.0,0.0,-0.017301130451991244,0.003650318309607152,0.9860431031456417
2011-02-16,0,0.0,0.0,-0.017301130451991244,0.0026357887008839594,0.9866401110631834
2011-02-18,1,0.0021843705600810837,0.0021904964012555866,-0.017301130451991244,0.0027764509768455166,0.9855015013002707
2011-02-23,1,0.00020812059897365378,0.0004617723004711752,-0.010402215829779474,0.003530351085133387,0.9858294398114056
2011-02-25,1,0.0024739954750831227,0.00252530695430094,-0.008001393249069271,0.0063713522272897255,0.9885961989653839
2011-03-01,1,0.0010025066028839793,0.0011557211746840977,-0.007027515188797195,0.007859784688845841,0.9900877569038093
2011-03-03,1,0.0008164258203375991,0.0010177087704956445,-0.005817130885892333,0.007859784688845841,0.9908789406563548
2011-03-07,1,0.0004934836617847204,0.0007129676454033964,-0.0009532521195475188,0.010393962296059203,0.9909189321644435
2011-03-09,1,0.0020590817487859767,0.0021546831206664544,-0.0011431435561976928,0.013053831418759735,0.9904869405639742
2011-03-11,1,0.0009386673494249643,0.0010415317529714734,-0.0009709804858699859,0.013053831418759735,0.9913057994926333
2011-03-15,1,0.0004312994449467827,0.0005792423247888557,-0.0007887698015670776,0.013053831418759735,0.9912040525790411
2011-03-17,1,0.0007279593902933232,0.0007864898892278179,-0.0004908008593035094,0.013053831418759735,0.9908668178340446
2011-03-21,1,0.0005931423734138156,0.0007014095091851416,-0.0004908008593035094,0.013053831418759735,0.9906729668333277
2011-03-23,1,0.002142961462604923,0.0022114282488470863,-0.0004908008593035094,0.011343090860776572,0.9921702136387679
2011-03-25,1,0.002816491804410502,0.002968039897579263,-0.0009709804858699859,0.0102431119515141,0.9921978955336681
2011-03-29,1,0.0025697135130527196,0.0026834002459510194,-0.0004908008593035094,0.011343090860776572,0.9923511788874675
2011-03-31,1,0.004373156014609692,0.004668187927010724,-0.0009709804858699859,0.0102431119515141,0.9934697089126728
2011-04-04,1,0.004207535063257733,0.004404721802764658,-0.0031174160456611043,0.00879132495414226,0.9915462368554387
2011-04-06,1,0.004570599525415404,0.004817777671106792,-0.008686619443717453,0.006944237036366843,0.9906584606589871
2011-04-08,1,0.0021486915369038715,0.0021700275721025053,-0.008686619443717453,0.0102431119515141,0.9884394004607141
2011-04-12,1,0.0018557887290258006,0.0018640348475219438,-0.008686619443717453,0.0102431119515141,0.9883696961183177
2011-04-14,1,0.0034139470490524193,0.0037459257422387694,-0.008686619443717453,0.011197666421311103,0.9873789306994022
2011-04-18,1,0.002799747001640108,0.003003378011709556,-0.007681722522212235,0.010578123286872312,0.9881698441874628
2011-04-20,0,0.0,0.0,0.0,0.0,0.0
2011-04-25,1,0.0037282177479187406,0.004058508024339552,-0.004806676135466112,0.012190237737915388,0.9886651999984668
2011-04-27,1,0.004156559800908677,0.0045256970703395,-0.004806676135466112,0.012190237737915388,0.9887525674538771
2011-04-29,1,0.005246002898275182,0.005628853400830286,-0.004806676135466112,0.012190237737915388,0.9886310378312476
2011-05-03,1,0.002777094329259886,0.0027786035015581276,-0.0015459657359412026,0.012190237737915388,0.9903297435208883
2011-05-05,1,0.0010302928386555512,0.0013389717825302181,0.001181245694785173,0.012190237737915388,0.991175706531767
2011-05-09,0,0.0,0.0,0.0,0.0,0.0
2011-05-11,1,0.0022141775559607994,0.0023292080548415017,0.001181245694785173,0.011087170085893116,0.9929214040375717
2011-05-13,1,0.0035849975483380862,0.003714213901528502,0.001181245694785173,0.009425221315749044,0.9935999064849028
2011-05-17,1,0.0038468460570294416,0.004065533601839436,-0.00030096952882173586,0.011087170085893116,0.9924892633607924
2011-05-19,0,0.0,0.0,0.0,0.0,0.0
2011-05-23,1,0.004117194487622688,0.0042558565084262956,-0.000749486439011955,0.015021410562497568,0.9905867068219572
2011-05-25,1,0.004581731077991923,0.00478391816367799,-0.003091417767765614,0.011772511967898878,0.9907984764643495
2011-05-27,1,0.004314244572490701,0.004429803509262933,-0.003091417767765614,0.015021410562497568,0.9888730040624361
2011-06-01,1,0.005702769031425435,0.006046018350162689,-0.003360142373131503,0.015021410562497568,0.9886046520776086
2011-06-03,1,0.00544007528575014,0.0057267874086285924,-0.003360142373131503,0.015337677658166765,0.9872095901067756
2011-06-07,1,0.00455756413191498,0.004683162639706187,-0.0022237598608194145,0.015337677658166765,0.9869551599656015
2011-06-09,1,0.005450828311423216,0.005769892877674435,-0.009552701305612938,0.015337677658166765,0.9859580013623187
2011-06-13,1,0.004402698523062113,0.004553904064169636,-0.011683543915914214,0.015337677658166765,0.9848223805647082
2011-06-15,1,0.004456564824517199,0.004663639534271144,-0.010548375778891918,0.014573097700936247,0.9851265020617588
2011-06-17,1,0.004384952706227387,0.004566480877279006,-0.008284477121291347,0.013756772270851585,0.9865427223603709
2011-06-21,1,0.005081819468255602,0.005329330698691909,-0.008644037662258845,0.012636748926677169,0.9851033840792704
2011-06-23,1,0.005620762813281329,0.005990614027382082,-0.010548375778891918,0.01277025405648025,0.9842130551368382
2011-06-27,1,0.006392215697614663,0.006851549049274558,-0.015178813103286923,0.01160747795817608,0.9836952202661902
2011-06-29,0,0.0,0.0,-0.016047801905034246,0.01160747795817608,0.9833434112681162
2011-07-01,0,0.0,0.0,-0.016047801905034246,0.0029126884045796897,0.9850651371701141
2011-07-06,0,0.0,0.0,-0.016047801905034246,0.003559780145237117,0.9838478235887586
2011-07-08,0,0.0,0.0,-0.017567826372673675,0.012366473624977803,0.97739361058612
2011-07-12,0,0.0,0.0,-0.017567826372673675,0.014430936602343736,0.9701626061552283
2011-07-14,1,0.002956802263735941,0.0031140542262432045,-0.017567826372673675,0.022149248479919226,0.9674413540146404
2011-07-18,1,0.001554188820397544,0.0015545589997129528,-0.017567826372673675,0.022149248479919226,0.967849074300712
2011-07-20,1,0.005757617846994851,0.006188132245668691,-0.017567826372673675,0.014430936602343736,0.9686463738600449
2011-07-22,0,0.0,0.0,-0.017567826372673675,0.01406157259455209,0.9698852608303482
2011-07-26,1,0.0019111123074638616,0.00210887796956368,-0.013590394023194615,0.022149248479919226,0.968646858965951
2011-07-28,1,0.0009559531805178778,0.0013085046735244825,-0.013590394023194615,0.019303745548218804,0.9695537951411545
2011-08-01,1,0.00026613771422183126,0.0006939580734920232,-0.013590394023194615,0.028165617471342348,0.9675860180153013
2011-08-03,-1,-0.001280463092170931,-0.0006170134054680908,-0.013590394023194615,0.02724555287452885,0.9673523188534804
2011-08-05,0,0.0,0.0,-0.013590394023194615,0.013754884395614259,0.9737367849634012
2011-08-09,-1,-0.0008272787822367468,-0.00032149634268428796,-0.007407043602323827,0.013754884395614259,0.9819369199904023
2011-08-11,1,0.0012367504873623404,0.001518251540189678,-0.010183823575236442,0.013754884395614259,0.9835392764359357
2011-08-15,1,0.0015790233092670665,0.0017681093395004472,-0.010183823575236442,0.019359609649766255,0.9822669668033854
2011-08-17,1,0.0018522851305152967,0.0019596068596539054,-0.006277693443774244,0.019359609649766255,0.9830013821426388
2011-08-19,1,0.0007559122160120328,0.0010052617661665622,-0.004987043347407271,0.02168548077675996,0.981871794564691
2011-08-23,1,0.0030704792480988697,0.003124119810903565,-0.006277693443774244,0.019359609649766255,0.9835934161998359
2011-08-25,1,0.003016276875300816,0.0030691726975882756,-0.009373506922133403,0.009745112094103735,0.9835518028584734
2011-08-29,1,0.004687060221614329,0.004969471585418634,-0.009373506922133403,0.009745112094103735,0.9839189590614511
2011-08-31,1,0.003192552954160742,0.0032630578083351286,-0.010491510011274591,0.006251721926799581,0.9856212721980024
2011-09-02,0,0.0,0.0,-0.011146205007260993,0.006251721926799581,0.9832296004543785
2011-09-07,0,0.0,0.0,-0.011146205007260993,0.020676852012092038,0.9822554453527547
2011-09-09,0,0.0,0.0,-0.011146205007260993,0.01978590593033929,0.982342043869866
2011-09-13,0,0.0,0.0,-0.011146205007260993,0.01978590593033929,0.9814567812473014
2011-09-15,0,0.0,0.0,-0.011146205007260993,0.01978590593033929,0.9804866792154253
2011-09-19,-1,-0.39551683695535567,-0.3952677585269247,-0.011761334377708444,0.01978590593033929,0.7162762312229933
2011-09-21,1,0.0024202148547828152,0.0025316444650919172,-0.012805916615809015,0.01978590593033929,0.9810405122693089
2011-09-23,0,0.0,0.0,-0.011146205007260993,0.01978590593033929,0.981388450825259
2011-09-27,0,-8.108444804230284e-05,0.0002889099638484526,-0.011761334377708444,0.019456490415186392,0.9787382686226149
2011-09-29,1,0.00021810634213440113,0.0004956697560414628,-0.012508414002702167,0.01978590593033929,0.9776731738043346
2011-10-03,0,0.0,0.0,-0.0064186466878427195,0.020899506951186565,0.9801635959147341
2011-10-05,-1,-0.001226509733874181,-0.0008736213359292632,-0.010230785531824771,0.020899506951186565,0.9791436554787756
2011-10-07,1,4.3814842488515133e-05,0.00024453744042870834,-0.010230785531824771,0.022900221119284875,0.977072248483653
2011-10-11,1,0.0007425781592376644,0.0008979836959499681,-0.01539923458982203,0.02140289550972425,0.9778330917770733
2011-10-13,0,0.0,0.0,-0.016479616533824213,0.02140289550972425,0.97654113410869
2011-10-17,0,0.0,0.0,-0.016479616533824213,0.022900221119284875,0.9763500950421233
2011-10-19,0,0.0,0.0,-0.01668736282535186,0.022900221119284875,0.975514171149717
2011-10-21,1,0.002116346589106409,0.002184073779086236,-0.018049618975459397,0.022900221119284875,0.9753822450678759
2011-10-25,-1,-0.0023761096093303045,-0.0019271429241310889,-0.018049618975459397,0.022900221119284875,0.9780253345727346
2011-10-27,0,0.0,0.0,-0.020504810857138272,0.018680523324316724,0.9780011003750212
2011-10-31,0,0.0,0.0,-0.020504810857138272,0.018680523324316724,0.977290177051615
2011-11-02,0,0.0,0.0,-0.018049618975459397,0.018680523324316724,0.978540162038427
2011-11-04,1,0.0010357026812842299,0.001224639796728056,-0.018049618975459397,0.012526875008383734,0.981172308599459
2011-11-08,0,-2.1438343305991417e-05,0.00029328700159100634,-0.01133712956885648,0.016209033698916846,0.9819705684019041
2011-11-10,-1,-0.0010564801258838323,-0.0006795741734471625,-0.005619572673323508,0.01796114598230723,0.9832955008676598
2011-11-14,0,-0.0001208317279201152,0.00015547119881130739,-0.011594825965127934,0.016209033698916846,0.9838837144414654
2011-11-16,1,0.0006910111909645036,0.0007743580546468413,-0.011594825965127934,0.010395801344940643,0.9838561808432057
2011-11-18,1,1.4624421138072902e-05,0.0001671659933685241,-0.009629559022272003,0.016479628559924936,0.982872897724745
2011-11-22,1,9.864606920740159e-05,0.00015960840284709704,-0.008719997704540884,0.018830990588675354,0.9837137704935809
2011-11-25,-1,-0.0014700056140886679,-0.001206411355190166,-0.007930460313092145,0.018830990588675354,0.9852332754524575
2011-11-29,0,-7.342181975315403e-05,6.18688153686679e-05,-0.009027729181889169,0.016479628559924936,0.9859318784473137
2011-12-01,1,0.00020345970864463442,0.0003680063382996368,-0.011113083593337538,0.016479628559924936,0.9856953493807862
2011-12-05,1,0.0006562415587053551,0.0007682374558831558,-0.011113083593337538,0.009928183975807935,0.9864747995594088
2011-12-07,1,0.0011292574984133334,0.0011981449117727514,-0.011113083593337538,0.014335839519949206,0.9860441124960121
2011-12-09,1,0.0021558383371606538,0.002266273569950002,-0.011113083593337538,0.007675267242126654,0.9862690388458434
2011-12-13,1,0.001208625231840207,0.001234656628299842,-0.009588059320909847,0.014335839519949206,0.985029121765562
2011-12-15,-1,-0.0003184383449371448,-3.2380970084291364e-05,-0.0071722790007762,0.019798898944714673,0.9838517370853506
2011-12-19,1,0.0012317201128691068,0.0013281808330406068,-0.0071722790007762,0.017026608917054185,0.9855136768754994
2011-12-21,1,0.0014249809107143895,0.0015325570266728674,-0.0071722790007762,0.01730202149668911,0.9847806908158713
2011-12-23,0,-0.0001873562650290592,0.00013105507671192385,-0.001220928951224799,0.02031992101588692,0.9839426508947403
2011-12-28,-1,-0.0017730719804056607,-0.0012721293131781424,-0.0008862080307284703,0.02031992101588692,0.9836283249864701
2011-12-30,-1,-0.0015801997785931082,-0.0011223464139888328,-0.00659411041264943,0.01720028294077827,0.984413668685284
2012-01-04,0,-5.829398966443949e-05,5.183301757154669e-05,-0.00659411041264943,0.01720028294077827,0.9844083697244361
2012-01-06,0,0.0,0.0,-0.00659411041264943,0.014625975276336096,0.9856069747639142
2012-01-10,0,0.0,0.0,-0.0038863145321321527,0.014625975276336096,0.9854820194980792
2012-01-12,0,0.0,0.0,-0.0016779420464496432,0.012372756563560579,0.9877186870096788
2012-01-17,0,0.0,0.0,-0.0016779420464496432,0.010142379045311518,0.9896360961358847
2012-01-19,0,0.0,0.0,-0.0035143718408633356,0.009971873608468986,0.9885550275515569
2012-01-23,0,0.0,0.0,-0.0035143718408633356,0.009352664244801693,0.9898972422381134
2012-01-25,0,0.0,0.0,-0.003832026927546728,0.009075256009728321,0.990056402344247
2012-01-27,1,0.0033612242471225927,0.0036683252977484856,-0.003133031808272062,0.009368705144881967,0.9900984549937201
2012-01-31,0,0.0,0.0,-0.0016779420464496432,0.009368705144881967,0.9903167226626732
2012-02-02,0,0.0,0.0,-0.0016779420464496432,0.009924466070964477,0.98973519171193
2012-02-06,0,0.0,0.0,-0.003810281932654491,0.009924466070964477,0.9881578964620317
2012-02-08,0,0.0,0.0,-0.003810281932654491,0.013128720725658788,0.9878499636487319
2012-02-10,0,0.0,0.0,-0.003810281932654491,0.016114689941902176,0.9868509279140713
2012-02-14,0,0.0,0.0,-0.004910812040643839,0.016609694683743233,0.985868177798332
2012-02-16,0,0.0,0.0,-0.002998017321026627,0.016609694683743233,0.9872450559877688
2012-02-21,1,0.002735786256967614,0.002998281418721454,-0.002998017321026627,0.016609694683743233,0.9880988910316969
2012-02-23,1,0.002962291700807261,0.0032429840573620448,-0.001208176901253529,0.01595076444412929,0.9892267425608472
2012-02-27,0,0.0,0.0,-0.003357612358725664,0.01301370693515215,0.9893349739085844
2012-02-29,0,0.0,0.0,-0.001560240676927253,0.01301370693515215,0.9893235332084118
2012-03-02,1,0.004094740772113092,0.004439720438316237,-0.0033682945730622413,0.01232067760005658,0.9900226413003755
2012-03-06,0,0.0,0.0,-0.0007792146392124963,0.01301370693515215,0.9900031603539412
2012-03-08,0,0.0,0.0,-0.001560240676927253,0.012978892340121407,0.989315091849043
2012-03-12,1,0.00626522924031272,0.006886528097768067,-0.0055921868379700005,0.01232067760005658,0.9895594191787823
2012-03-14,1,0.005734467560254702,0.0062288377716668425,-0.0055921868379700005,0.01232067760005658,0.9891457970220698
2012-03-16,0,0.0,0.0,-0.007597869918041085,0.012978892340121407,0.9871763972934061
2012-03-20,0,0.0,0.0,-0.007597869918041085,0.012904199755910076,0.9873058678608243
2012-03-22,0,0.0,0.0,-0.007892337361337815,0.012904199755910076,0.9866483424518225
2012-03-26,1,0.0026495195792466068,0.0028256866396207153,-0.007892337361337815,0.00876024529535896,0.9872110303192903
2012-03-28,1,0.004083666926500966,0.004251311964177501,-0.007892337361337815,0.012904199755910076,0.9860947546626547
2012-03-30,1,0.005131507936522919,0.005601257863623482,-0.008204631636125278,0.01155572955701856,0.9865342901711781
2012-04-03,0,0.0,0.0,-0.008204631636125278,0.017758496904864078,0.9846891057950161
2012-04-05,0,0.0,0.0,-0.008204631636125278,0.014584767654200744,0.9850460088675175
2012-04-10,0,0.0,0.0,-0.008204631636125278,0.015926241090441766,0.98489664577948
2012-04-12,1,0.004805649596439506,0.005060406232591714,-0.006745609320313245,0.015926241090441766,0.9829756310309523
2012-04-16,1,0.002900877584712623,0.0032056237629673108,-0.006745609320313245,0.010944977618877789,0.9842238416719579
2012-04-18,0,0.0,0.0,-0.006745609320313245,0.011012042096551492,0.98385423436644
2012-04-20,0,0.0,0.0,-0.008546637592748294,0.011012042096551492,0.9829224624349763
2012-04-24,1,0.000994902177404756,0.0010707438390259165,-0.008546637592748294,0.012604045261658495,0.9826226229764464
2012-04-26,0,0.0,0.0,-0.008546637592748294,0.012604045261658495,0.9823079908057457
2012-04-30,1,0.002521024729524322,0.0026652852300005515,-0.011493722910492254,0.015266800639152232,0.9811176569254355
2012-05-02,0,0.0,0.0,-0.014643403871013826,0.011012042096551492,0.9825277679111485
2012-05-04,0,0.0,0.0,-0.014643403871013826,0.012604045261658495,0.9807649034949036
2012-05-08,0,0.0,0.0,-0.01097306469213393,0.014012186794035344,0.9819069372632105
2012-05-10,0,0.0,0.0,-0.01097306469213393,0.014012186794035344,0.9849805886944772
2012-05-14,0,0.0,0.0,-0.014643403871013826,0.014012186794035344,0.9844969898762044
2012-05-16,0,0.0,0.0,-0.014643403871013826,0.016632877377425616,0.9836952607738279
2012-05-18,0,0.0,0.0,-0.004928389035608476,0.020446672834499212,0.9841309285792375
2012-05-22,0,0.0,0.0,-0.01190230635780403,0.020446672834499212,0.9829389931592355
2012-05-24,0,0.0,0.0,-0.014371832596256203,0.016632877377425616,0.9839412159573597
2012-05-29,-1,-0.0018792698239975345,-0.0017541459481477258,-0.01190230635780403,0.011561832214090677,0.9850636610065661
2012-05-31,1,0.0011715233507041847,0.0013319613519419927,-0.015642866257467455,0.011561832214090677,0.9823589903891817
2012-06-04,0,0.0,0.0,-0.012151393301404733,0.01668283129914854,0.9812036688052111
2012-06-06,0,0.0,0.0,-0.012151393301404733,0.012866399980930492,0.9815626358455822
2012-06-08,0,0.0,0.0,-0.01317649767845124,0.008589234780090329,0.9819165086550729
2012-06-12,0,0.0,0.0,-0.012215635182458145,0.005119649782621085,0.9824498225285934
2012-06-14,0,0.0,0.0,-0.012215635182458145,0.005119649782621085,0.9825305430869308
2012-06-18,0,0.0,0.0,-0.01317649767845124,0.002400562348230611,0.9827955028830846
2012-06-20,1,0.001392312442054222,0.0015213132603298157,-0.01317649767845124,0.002400562348230611,0.9819207417433378
2012-06-22,-1,-0.001418331648182911,-0.000925414242298885,-0.01353344978114993,0.005119649782621085,0.9805478938028239
2012-06-26,-1,-0.0007749171957368239,-0.000376679607084636,-0.01353344978114993,0.005868422043094776,0.9798584538231385
2012-06-28,-1,-0.005130049121646689,-0.004197502080659351,-0.011189821587805923,0.01726956742554278,0.9824135677209427
2012-07-02,-1,-0.0014540716755702514,-0.0009743907051767105,-0.012215635182458145,0.0031758098162597117,0.9855869727758939
2012-07-05,-1,-0.0017322208071387343,-0.0012403802367762782,-0.01353344978114993,0.0031758098162597117,0.9846269652279865
2012-07-09,-1,-0.0024404245678132414,-0.00190344397028518,-0.013220119201359192,0.009189905661995804,0.9830098222306163
2012-07-11,-1,-0.004133657641568323,-0.0033072118431843284,-0.016008620599272397,0.01726956742554278,0.9810030579915975
2012-07-13,-1,-0.0022291895393412417,-0.0016524880925502905,-0.02414006365419074,0.009189905661995804,0.9731317244433803
2012-07-17,-1,-0.0025997994236829623,-0.002019294930552865,-0.02414006365419074,0.01726956742554278,0.9686469789979065
2012-07-19,-1,-0.004198159109932197,-0.003482704945343404,-0.019691525359178088,0.01753530564024257,0.9698758669738584
2012-07-23,-1,-0.005466377752590084,-0.004595967394990857,-0.01647850053373619,0.01726956742554278,0.9720245194271855
2012-07-25,-1,-0.004806210720497313,-0.004052397861089527,-0.01647850053373619,0.012105476602008787,0.9721804215925225
2012-07-27,0,0.0,0.0,-0.019691525359178088,0.00981433759210114,0.9719925362586932
2012-07-31,0,0.0,0.0,-0.01647850053373619,0.00981433759210114,0.9725993841413612
2012-08-02,-1,-0.00620510728625925,-0.005369406152732426,-0.012940128477936198,0.00981433759210114,0.9736935416183498
2012-08-06,-1,-0.005708923440754357,-0.004918421716017313,-0.01647850053373619,0.0071442354153061285,0.9745488055191547
2012-08-08,-1,-0.0045929089212748886,-0.003944824909689967,-0.02058869508355897,0.0071442354153061285,0.9738254476910114
2012-08-10,-1,-0.013490550583498327,-0.011837269368210529,-0.013276895082628828,0.0071442354153061285,0.9796193598469628
2012-08-14,-1,-0.010235964108213754,-0.008973482977952675,-0.015566355162950294,0.005093931599673125,0.9819451447145732
2012-08-16,-1,-0.010172816197249163,-0.008932315257941473,-0.015566355162950294,0.006423042917342091,0.9805005401753765
2012-08-20,-1,-0.01001669883542071,-0.00880699320746158,-0.016131749183815127,0.005093931599673125,0.9812666254999665
2012-08-22,-1,-0.009361686567015127,-0.008233961015199256,-0.016131749183815127,0.006423042917342091,0.9791223701615314
2012-08-24,0,0.0,0.0,-0.015218184911383329,0.006423042917342091,0.978638586004294
2012-08-28,0,0.0,0.0,-0.015218184911383329,0.006423042917342091,0.9783377837171957
2012-08-30,0,0.0,0.0,-0.015218184911383329,0.007955641119293349,0.9783999668222678
2012-09-04,-1,-0.009035838767048174,-0.007909651230592027,-0.01483448979762178,0.01318709463300026,0.9796823675912961
2012-09-06,-1,-0.00806373885037206,-0.007075891878817114,-0.013138577093456179,0.01318709463300026,0.9820167855091194
2012-09-10,-1,-0.008203320045551153,-0.007237652538625669,-0.010820268584617805,0.018054467692873784,0.980735745007426
2012-09-12,-1,-0.013755894340899761,-0.012130760701156224,-0.00820969464040635,0.018054467692873784,0.9802551548637263
2012-09-14,-1,-0.009941087561645263,-0.008747040245410185,-0.00820969464040635,0.018054467692873784,0.9820725050840639
2012-09-18,0,0.0,0.0,-0.005795805001193894,0.01917895624673342,0.983360749308299
2012-09-20,0,0.0,0.0,-0.008801260155487404,0.015813369756656204,0.9842195996847524
2012-09-24,0,0.0,0.0,-0.014474204132255152,0.015813369756656204,0.978053393845405
2012-09-26,0,0.0,0.0,-0.0203903499475576,0.018054467692873784,0.9695254074785152
2012-09-28,0,0.0,0.0,-0.022449273670160665,0.018054467692873784,0.9680975880968643
2012-10-02,0,0.0,0.0,-0.02618630672555075,0.01592489490390783,0.967634914344082
2012-10-04,0,0.0,0.0,-0.02618630672555075,0.01671480801601259,0.9666892409076719
2012-10-08,0,0.0,0.0,-0.02618630672555075,0.00948698289731242,0.9679395234771359
2012-10-10,0,0.0,0.0,-0.02253358721707843,0.016169979836851523,0.9692132229896936
2012-10-12,0,0.0,0.0,-0.02253358721707843,0.010553450573829726,0.9708199223436523
2012-10-16,-1,-0.00047943626507540463,-0.000217976380662412,-0.02618630672555075,0.003077207062278018,0.9703912417051314
2012-10-18,-1,-0.0009837089303584628,-0.0008525079645490273,-0.02618630672555075,0.009393306964961825,0.9714155311532178
2012-10-22,-1,-0.00730547511829869,-0.006659338741405551,-0.019093099808789996,0.015780407541182692,0.9769108337055095
2012-10-24,-1,-0.004636798206234906,-0.004353367675700996,-0.014092512108749518,0.009393306964961825,0.9861915279393048
2012-10-26,-1,-0.005667793403288424,-0.005201362464096647,-0.008572248180147915,0.015780407541182692,0.982270572958887
2012-11-01,0,0.0,0.0,-0.005837940014436287,0.015780407541182692,0.9840613215874078
2012-11-05,0,0.0,0.0,-0.004499984130248168,0.00890568625260644,0.9858449193667528
2012-11-07,-1,-0.004562540611027938,-0.004380517649776119,-0.004499984130248168,0.00890568625260644,0.9848185662602297
2012-11-09,-1,-0.002663511767729774,-0.0025195650193032956,-0.003509740933523594,0.00890568625260644,0.985875723999841
2012-11-13,-1,-0.002279834824056912,-0.0021590122054128353,-0.003509740933523594,0.01553068744757596,0.9836551943325504
2012-11-15,-1,-0.003927907896581661,-0.0038019725773640934,-0.004499984130248168,0.01553068744757596,0.9821791948414251
2012-11-19,0,0.0,0.0,-0.005059723799209918,0.015145567437776456,0.9828393351647247
2012-11-21,0,0.0,0.0,-0.0092109296812704,0.008777312916006606,0.9828551260982933
2012-11-26,0,0.0,0.0,-0.0092109296812704,0.008777312916006606,0.9827956074356726
2012-11-28,0,0.0,0.0,-0.007825406503443193,0.006560029559664339,0.9876616768778194
2012-11-30,1,0.003014607144048798,0.003778597614966992,-0.007825406503443193,0.008305247116854337,0.9869200019396329
2012-12-04,1,0.0025715435102453147,0.0032805808053148,-0.0092109296812704,0.015145567437776456,0.984556629755516
2012-12-06,0,0.0,0.0,-0.013140090612780753,0.015145567437776456,0.9826041337804036
2012-12-10,0,0.0,0.0,-0.013140090612780753,0.0135917844759135,0.9824981480779417
2012-12-12,1,0.008588811805489475,0.010232479672439527,-0.019275148150542546,0.008097403580648007,0.9794827380713252
2012-12-14,1,0.004933832032194038,0.005924178722380733,-0.0092109296812704,0.008097403580648007,0.9841799924239433
2012-12-18,1,0.0028557600737290903,0.0036151752709243186,-0.010857100694111083,0.005720145673661178,0.9844613341548558
2012-12-20,0,0.0,0.0,-0.010857100694111083,0.008097403580648007,0.9836226387571743
2012-12-24,0,0.0,0.0,-0.014643613614303361,0.007482324793347567,0.9826842874607783
2012-12-27,0,0.0,0.0,-0.014643613614303361,0.013802082604254067,0.9819020461779533
2012-12-31,0,0.0,0.0,-0.014643613614303361,0.013802082604254067,0.981935366758628
2013-01-03,0,0.0,0.0,-0.012396553778175712,0.007482324793347567,0.9844740879099756
2013-01-07,-1,-3.017772971043298e-05,-2.567449746987642e-05,-0.010378277993692713,0.013802082604254067,0.9856978157989467
2013-01-09,0,0.0,0.0,-0.012396553778175712,0.015126421894506567,0.9843198244029973
2013-01-11,0,0.0,0.0,-0.012396553778175712,0.013531445220539444,0.9860310918575866
2013-01-15,0,0.0,0.0,-0.014169565874335753,0.015126421894506567,0.9847702607003368
2013-01-17,0,0.0,0.0,-0.0125205631125301,0.015462735551950955,0.9824847684642694
2013-01-22,0,0.0,0.0,-0.0125205631125301,0.01685402565962262,0.9828831375114907
2013-01-24,0,0.0,0.0,-0.0125205631125301,0.018989535295718354,0.9823847776925243
2013-01-28,1,0.0005200826264971507,0.0006106925226231287,-0.015396031012433673,0.018989535295718354,0.9819858407211187
2013-01-30,1,0.0007008104916652975,0.0007772298815785713,-0.015396031012433673,0.0173688858034201,0.9817145751275165
2013-02-01,0,0.0,0.0,-0.017073789908439267,0.0173688858034201,0.981279638192895
2013-02-05,0,0.0,0.0,-0.017073789908439267,0.0173688858034201,0.9809708463012515
2013-02-07,0,0.0,0.0,-0.017073789908439267,0.01449772349325276,0.9820195506987583
2013-02-11,0,0.0,0.0,-0.017073789908439267,0.01449772349325276,0.9827837488084237
2013-02-13,-1,-0.0019423100403247867,-0.001527632971077206,-0.017073789908439267,0.01449772349325276,0.983841903300741
2013-02-15,1,0.0032918400888151626,0.00367714644296163,-0.017073789908439267,0.01449772349325276,0.984611005300457
2013-02-20,1,0.0024085977937784,0.0026222792390437097,-0.015638083247101985,0.0173688858034201,0.9844973453400785
2013-02-22,1,0.001806550090581321,0.0018855082733571361,-0.015638083247101985,0.01449772349325276,0.9837585638483652
2013-02-26,1,0.0005048556845406837,0.00057696248901994,-0.013373323239613131,0.01449772349325276,0.9852671847375433
2013-02-28,1,0.00214199152086947,0.002304668754388669,-0.015638083247101985,0.005298026433382801,0.9849702361981488
2013-03-04,1,0.0017154392685628278,0.001850154025924693,-0.013373323239613131,0.011847192635385122,0.9850871910204683
2013-03-06,1,0.001381313262448661,0.0015471934854596394,-0.009626099998588107,0.019596760384993757,0.9841401214294161
2013-03-08,-1,-0.0009062770928438958,-0.0007548289838708902,-0.008074878232360803,0.021385630270821812,0.9830562928542051
2013-03-12,-1,-0.0001979424871160646,-9.556985090087704e-05,-0.005915025160956244,0.025938707880963852,0.9815600154243171
2013-03-14,1,0.0013433280176393507,0.0017154473057202763,-0.005915025160956244,0.025938707880963852,0.9811283630336587
2013-03-18,1,0.0014296971934573486,0.0017098534816449473,-0.008074878232360803,0.022298266219767535,0.9803911227876652
2013-03-20,0,0.0,0.0,-0.012136196676721632,0.01963010653246003,0.9818511429131364
2013-03-22,0,0.0,0.0,-0.0071569257208660185,0.01963010653246003,0.9837084992050067
2013-03-26,0,0.0,0.0,-0.0071569257208660185,0.019824001545665118,0.9826392155670745
2013-03-28,0,0.0,0.0,-0.0071569257208660185,0.019824001545665118,0.9830142479630207
2013-04-02,0,0.0,0.0,-0.0071569257208660185,0.019593842722147363,0.9838455332637274
2013-04-04,-1,-0.0010906707468552935,-0.000782412735873947,-0.008323714784352905,0.01683183628698149,0.9856530133863373
2013-04-08,-1,-0.0013329911481117598,-0.0011933543540554633,-0.008323714784352905,0.01683183628698149,0.9856937455532584
2013-04-10,1,0.0013780605640211145,0.0016460856426555783,-0.008323714784352905,0.016265996057391305,0.9869196540006095
2013-04-12,1,0.005002427017708445,0.005285099406988913,-0.009122592642373072,0.01018309765443624,0.9846005087891412
2013-04-16,1,0.004607500078465373,0.004851152035299723,-0.008323714784352905,0.01018309765443624,0.9843014209502863
2013-04-18,1,0.0035479459901561162,0.003668252098002882,-0.007760680468330503,0.014900329210828036,0.9844104247601266
2013-04-22,1,0.0035278947630498357,0.0036277974833675477,-0.008934876703007667,0.014900329210828036,0.9837927612313773
2013-04-24,1,0.005484203056227436,0.0060356139701801675,-0.008934876703007667,0.005048701829986501,0.9839950685364102
2013-04-26,1,0.004988165949578503,0.0054888871200380876,-0.008934876703007667,0.005048701829986501,0.9841102155361422
2013-04-30,1,0.004436839908282516,0.004836773349143732,-0.010449011113451822,0.005048701829986501,0.9836723725723948
2013-05-02,1,0.0037363297612388923,0.004038359624381175,-0.010449011113451822,0.005048701829986501,0.9845221903194974
2013-05-06,1,0.004359266574535492,0.004760371064140087,-0.010449011113451822,0.005048701829986501,0.9815985194023581
2013-05-08,0,0.0,0.0,-0.011191353176221192,0.005048701829986501,0.9822476122145131
2013-05-10,0,0.0,0.0,-0.010449011113451822,0.01183589384521029,0.982978925653501
2013-05-14,0,0.0,0.0,-0.011191353176221192,0.008830215018353939,0.9846005649507517
2013-05-16,0,0.0,0.0,-0.01131949353257498,0.008139876560764097,0.9840607741634125
2013-05-20,0,0.0,0.0,-0.011265030282612816,0.008139876560764097,0.9845572155752033
2013-05-22,0,0.0,0.0,-0.01370848689701112,0.00658874000134578,0.9821285282664188
2013-05-24,0,0.0,0.0,-0.01199140615298181,0.008830215018353939,0.9822830214436774
2013-05-29,0,0.0,0.0,-0.01199140615298181,0.009463206212379985,0.9823979567541431
2013-05-31,0,0.0,0.0,-0.01199140615298181,0.012780821578678134,0.9801075324996407
2013-06-04,0,0.0,0.0,-0.008515207485693127,0.009879602970716219,0.9851511283613382
2013-06-06,0,0.0,0.0,-0.0035890237481989414,0.009463206212379985,0.9864836256080799
2013-06-10,1,0.006708835707810566,0.007417881428825674,-0.008515207485693127,0.00717488380742445,0.9869356330888754
2013-06-12,1,0.0057908104904370195,0.006318930883348751,-0.003984658630415921,0.007419687821159894,0.9875495840664202
2013-06-14,1,0.004682178281607801,0.005047174840939897,-0.003984658630415921,0.009879602970716219,0.9891055728529295
2013-06-18,1,0.004373245063643024,0.004623870295038376,-0.003984658630415921,0.011569729393351756,0.9875350916456183
2013-06-20,1,0.003013617702241811,0.0030878354945246935,-0.0025616467474491233,0.011569729393351756,0.9905348484620775
2013-06-24,1,0.003520110853725088,0.0036747702687611886,-0.0025616467474491233,0.01462211869988288,0.9900143930907984
2013-06-26,1,0.0034556251939086365,0.003566159949949364,-0.0028498174047991453,0.01462211869988288,0.9890788269024346
2013-06-28,1,0.005178523438798557,0.0055306176909555565,-0.006702747653200293,0.006384819001898372,0.9882553222031292
2013-07-02,1,0.004528121584045174,0.00478029096379327,-0.005865988016339327,0.00944377021717353,0.988437391983486
2013-07-05,1,0.004309667289813859,0.004516168884871445,-0.005865988016339327,0.013762148483088796,0.987431599735598
2013-07-09,1,0.003335795964124955,0.003387040746181483,-0.005865988016339327,0.013762148483088796,0.9879121537851407
2013-07-11,1,0.004208894680400722,0.004467631717421598,-0.006789089611983377,0.01412254790980555,0.9874748724271362
2013-07-15,1,0.003948954005711549,0.00411715372692192,-0.006789089611983377,0.012358579042479268,0.9877909955978038
2013-07-17,1,0.0043185048881845475,0.004521710737640964,-0.009881640094288588,0.00944377021717353,0.9873565650165743
2013-07-19,1,0.003881708040952692,0.003965438691750577,-0.0148915981973713,0.00570434896767201,0.9855507744950049
2013-07-23,1,0.004758968164794195,0.00496226035101831,-0.0148915981973713,0.00570434896767201,0.9854578665257857
2013-07-25,1,0.0037754131833912185,0.0038205255168671406,-0.009881640094288588,0.012358579042479268,0.9861870546970112
2013-07-29,1,0.001549317856463818,0.0018206435948785122,-0.00875118944301796,0.012358579042479268,0.988071924133286
2013-07-31,1,0.0010115642409458962,0.0014015244901105508,-0.01136532815292538,0.006116697582311039,0.9878478845565821
2013-08-02,1,0.0016371021780397035,0.0020056765116977663,-0.012534077867107963,0.002555459539153756,0.9884281095796791
2013-08-06,1,0.0008718527934853555,0.0012611650630166707,-0.0148915981973713,0.0045166507073443034,0.9844623085545245
2013-08-08,1,0.001230058085788929,0.0015548154426791754,-0.01543555071028754,0.002555459539153756,0.9846752907790239
2013-08-12,1,0.001971613246104768,0.0021168035589818343,-0.01543555071028754,0.003448388432215459,0.9842309235690899
2013-08-14,-1,-0.0008747958240734773,-0.0003151691879435259,-0.010624460739715614,0.003448388432215459,0.9861391539447472
2013-08-16,-1,-0.0018435717404376934,-0.0011850703034311345,-0.00938542257003719,0.008575483699940968,0.9874932683485951
2013-08-20,0,0.0,0.0,-0.00938542257003719,0.013920357929030042,0.9857866726617663
2013-08-22,0,0.0,0.0,-0.010624460739715614,0.008575483699940968,0.9851072973503315
2013-08-26,-1,-0.0021463533387526,-0.0014552092230917764,-0.012808194198756133,0.008575483699940968,0.9857676144480023
2013-08-28,-1,-0.00247888915671659,-0.0018043723311510886,-0.012387411407225424,0.008575483699940968,0.9858822319700352
2013-08-30,-1,-0.0016597643694998684,-0.0011789062725901939,-0.014490322848134816,0.004383215172412115,0.9854908456957724
2013-09-04,-1,-0.0011159213645837009,-0.0007600369216686435,-0.010542663574731676,0.0028789249854362623,0.9892975415539802
2013-09-06,-1,-0.001874683951874737,-0.0014160833531031626,-0.00916008986393347,0.00341378571338735,0.9898640013676175
2013-09-10,-1,-0.0020818250012805094,-0.0015548803159034594,-0.00916008986393347,0.00341378571338735,0.9889255630404438
2013-09-12,-1,-0.002753640255768697,-0.002150024622382049,-0.00908371843728069,0.007793307151258663,0.9888787342261235
2013-09-16,-1,-0.0016998053096964638,-0.0012770744234344316,-0.00908371843728069,0.007793307151258663,0.987984204242981
2013-09-18,-1,-0.0007226289131647724,-0.00038033525381383484,-0.00908371843728069,0.006973784279011613,0.988468769365577
2013-09-20,-1,-0.0022554408243000107,-0.0017173609956605122,-0.007730636453042512,0.00861927431147682,0.9893291139804506
2013-09-24,-1,-0.0035970433731851033,-0.002868350288815384,-0.007245026703993051,0.00861927431147682,0.9897511569102656
2013-09-26,-1,-0.00411501955000961,-0.0033476208793669043,-0.006424486315277475,0.010964748283509036,0.9891472609631621
2013-09-30,-1,-0.004742178679130493,-0.00392341453499756,-0.004437106453975361,0.011751535378497767,0.9883545280867554
2013-10-02,-1,-0.006703882100027269,-0.005951879046268791,-0.004437106453975361,0.011751535378497767,0.9873313505810322
2013-10-04,-1,-0.006139819457488979,-0.005501311943500447,-0.00530765333623965,0.011751535378497767,0.9877027011895496
2013-10-08,-1,-0.004162789617096145,-0.003789323596184494,-0.00530765333623965,0.011751535378497767,0.9893323911429244
2013-10-10,-1,-0.004082566319008521,-0.0036888183739362517,-0.006031993969372371,0.011638440733788832,0.9893469864632919
2013-10-14,-1,-0.002567915352488536,-0.002358828469017582,-0.009150353165925681,0.011095937339746065,0.988999472904689
2013-10-16,-1,-0.00199913885863003,-0.0018276661760848252,-0.009150353165925681,0.011095937339746065,0.9891983916318191
2013-10-18,-1,-0.0015787535870438623,-0.0014142863667418756,-0.009150353165925681,0.010954077316239276,0.9897872301862031
2013-10-22,-1,-0.001752419910610229,-0.0015597888947231986,-0.009150353165925681,0.010954077316239276,0.9897516110987437
2013-10-24,-1,-0.0001503759448918811,-0.00012984636991178963,-0.007876419499903817,0.0072729821607316735,0.9907841550075192
2013-10-28,1,0.0007681481134088487,0.0009048879782260412,-0.007876419499903817,0.005173216059259736,0.9915561384313522
2013-10-30,1,0.0013761983687180092,0.0016987780126938431,-0.005249224594320919,0.01117701908264572,0.9900067261544168
2013-11-01,1,0.00037857727588103303,0.0005686972420349788,-0.003886359135409241,0.01117701908264572,0.9902669486240536
2013-11-05,1,5.652589230966789e-05,0.00012730040658995648,-0.003886359135409241,0.013166239857958235,0.9884176392606921
2013-11-07,0,-4.768365336434773e-05,2.797626295474086e-05,-0.0033204962074109105,0.01361506314844576,0.9885092079249419
2013-11-11,-1,-0.002934611402270126,-0.0025476024888399155,-0.00210856257211862,0.01361506314844576,0.9895229694101833
2013-11-13,-1,-0.0014762882264472818,-0.0012953169442007316,-0.003886359135409241,0.01132662684614156,0.9901838443047439
2013-11-15,-1,-0.0007307864053320192,-0.0006695270210567255,-0.0033204962074109105,0.01361506314844576,0.9892113170952694
2013-11-19,-1,-0.0005947870492332311,-0.0003457965893322749,-0.003225906680779973,0.01837085089370643,0.988214296297281
2013-11-21,-1,-0.00028493906633626125,-4.156895841121754e-05,-0.0023831776300292187,0.01837085089370643,0.987868887486665
2013-11-25,1,4.416920490093242e-05,0.0003463360307841703,-0.0023831776300292187,0.01837085089370643,0.9874177309929476
2013-11-27,1,0.0012844879416335233,0.001720514511105727,-0.0023831776300292187,0.01399422817543402,0.9898014067580273
2013-12-02,1,0.001441133740389401,0.0019208208319571765,-0.0009724189811209029,0.01399422817543402,0.9903484690341502
2013-12-04,1,0.0032869333877369074,0.004006166887064601,-0.0023831776300292187,0.011361104992945407,0.9911474320810519
2013-12-06,1,0.00390922307461449,0.004788575802815153,-0.0024085294857071884,0.011594372311282589,0.9900563611898209
2013-12-10,1,0.004374120581493394,0.005332101461767518,-0.0047682292809334646,0.011594372311282589,0.9892030078555336
2013-12-12,1,0.0037674543029016056,0.004682252498107093,-0.0016018540607221278,0.01399422817543402,0.9893249464944995
2013-12-16,1,0.004112843664049046,0.0050189353755725075,-0.002234033885494787,0.011594372311282589,0.9901914121039737
2013-12-18,1,0.003667362566487081,0.004408746229426058,-0.0029184590677742614,0.009966933588392665,0.9911295590443687
2013-12-20,1,0.004173497027197942,0.004995772667466619,-0.0029184590677742614,0.009560319399690653,0.9914990622547161
2013-12-24,1,0.005256916125946327,0.006292455889630686,-0.008449268854274997,0.007272065360151994,0.9895193540277702
2013-12-27,1,0.005270990389066614,0.00629174077978625,-0.008449268854274997,0.009560319399690653,0.9893036303466729
2013-12-31,1,0.005603356349704719,0.006688501096522838,-0.012323048223136486,0.009966933588392665,0.988116134090528
2014-01-03,1,0.005049882674257464,0.006025590835275213,-0.012323048223136486,0.009560319399690653,0.9876318845425425
2014-01-07,1,0.0042374304291010224,0.005027074812419914,-0.011480402157049097,0.007428960873220291,0.9886525445566628
2014-01-09,1,0.003015462382334975,0.003547878588969614,-0.01103887634542941,0.007428960873220291,0.989004071920811
2014-01-13,1,0.004528179616162132,0.005292005131250173,-0.01103887634542941,0.010481480352114245,0.9878368389708353
2014-01-15,1,0.005671352178930541,0.00654436495232292,-0.011520923051539424,0.010481480352114245,0.987109269220156
2014-01-17,1,0.0051913189023017284,0.005956518106208354,-0.011520923051539424,0.010481480352114245,0.9876101392007315
2014-01-22,1,0.0050438896627620616,0.005732645510111418,-0.011520923051539424,0.016414139171274583,0.9866887255050059
2014-01-24,1,0.0035538274116898197,0.004021541252172642,-0.007654650362124394,0.016414139171274583,0.9881167668463621
2014-01-28,1,0.003854081472193047,0.004209596259516155,-0.01103887634542941,0.013917928928176336,0.9861143409430764
2014-01-30,1,0.0032534224776938083,0.0034925826836945317,-0.007654650362124394,0.017012151152098687,0.9857412487098495
2014-02-03,1,0.0018238388133203567,0.0019528037989897961,-0.00573366724972034,0.02071363045508498,0.9848786908935688
2014-02-05,1,0.001284363454468053,0.0013062599154700294,-0.006951915849774098,0.02071363045508498,0.9843776837078922
2014-02-07,1,0.002085569095867188,0.00222483773791081,-0.006951915849774098,0.017170716553575868,0.9852172364704614
2014-02-11,1,0.004193306063314987,0.004677446006055133,-0.006951915849774098,0.006287726647007287,0.9872740909180995
2014-02-13,1,0.00254551882564537,0.0027561963074982246,-0.006316595577356564,0.006287726647007287,0.9865401522830208
2014-02-18,1,0.0023912462419574117,0.002532799983174268,-0.006316595577356564,0.008696199096940065,0.9862271373420954
2014-02-20,1,0.0027948419671389047,0.002941769368437673,-0.00958519291373846,0.002985772437402912,0.9864239435640545
2014-02-24,1,0.002060782218849723,0.0020689182179172436,-0.013700409756407532,0.002985772437402912,0.9856240104413267
2014-02-26,0,-7.634515024945243e-05,0.00019279391576524762,-0.012244112159954943,0.004720387642532084,0.9884797138874808
2014-02-28,1,0.0007484329287098873,0.0009420746199952379,-0.012244112159954943,0.0052804345971808496,0.9894467447737199
2014-03-04,1,0.0011869121215230642,0.0012780849825976513,-0.009070716433835974,0.0052804345971808496,0.9903530629154207
2014-03-06,1,0.0003591190945401839,0.0005520948972432211,-0.012244112159954943,0.0052804345971808496,0.9895270962927918
2014-03-10,1,0.0006858297856970519,0.0008039734923348315,-0.015067258903840744,0.004720387642532084,0.988753712349829
2014-03-12,1,0.0007960327993528222,0.000867048623511309,-0.015822654263650544,0.004818047283200082,0.9862781675972621
2014-03-14,-1,-0.0010441668388833907,-0.0008004113247214151,-0.015822654263650544,0.004818047283200082,0.9846151585118247
2014-03-18,-1,-0.0007754744459896818,-0.00055805521743146,-0.015822654263650544,0.004818047283200082,0.9846926581768907
2014-03-20,-1,-0.001639359343413388,-0.0013030041054863887,-0.01390864228805003,0.011926047780896286,0.9828140609297069
2014-03-24,-1,-0.0022432579148764504,-0.0018598012374521863,-0.012683793949055994,0.011926047780896286,0.9831697008819962
2014-03-26,-1,-0.002342062384549001,-0.0019309366250709347,-0.012683793949055994,0.011926047780896286,0.9830713839779541
2014-03-28,-1,-0.0022953994157846463,-0.0018482919333356652,-0.01456489953222479,0.012183386161659747,0.9828156964174518
2014-04-01,-1,-0.0013763779082928563,-0.0010557787320744476,-0.01456489953222479,0.008757472947119389,0.9832886486716628
2014-04-03,-1,-0.0031907579525379333,-0.002649786615119815,-0.01053245386515653,0.008757472947119389,0.985191770002364
2014-04-07,-1,-0.005047065734273966,-0.004250723049368162,-0.007807971063944416,0.008757472947119389,0.9860406522183301
2014-04-09,-1,-0.0037287581660873765,-0.0031244494724918335,-0.007807971063944416,0.008757472947119389,0.9875831949502886
2014-04-11,-1,-0.00748632163713994,-0.006474823673017657,-0.005183986185934386,0.013473789247570717,0.9865394135732857
2014-04-15,-1,-0.006862566766079737,-0.005867603857135402,-0.005183986185934386,0.013473789247570717,0.9872557706901867
2014-04-17,-1,-0.00509733375344828,-0.00431035005557584,-0.005183986185934386,0.007840761569168724,0.9907080021631036
2014-04-22,-1,-0.00501450891393947,-0.004238962727175572,-0.006249400844684554,0.005159437845162699,0.990758252740199
2014-04-24,-1,-0.004702482260004625,-0.004039275113589246,-0.005987747029009638,0.005520374650897961,0.9905331722085007
2014-04-28,-1,-0.004827410867732949,-0.004126543160863923,-0.005987747029009638,0.004539961182049093,0.9910065092932165
2014-04-30,-1,-0.003713029010786064,-0.003231285108208427,-0.005987747029009638,0.004539961182049093,0.9912111768067166
2014-05-02,-1,-0.0034842374845707007,-0.003039449485649707,-0.005987747029009638,0.004867713745993478,0.9910597521182276
2014-05-06,-1,-0.0035769694105166005,-0.003111935782252806,-0.005612546106549227,0.005920106010732656,0.9887363409657743
2014-05-08,-1,-0.004109559201986165,-0.003542325647857369,-0.0034447245094630157,0.004867713745993478,0.9894189462583035
2014-05-12,-1,-0.0013448096208537178,-0.0010779417193495836,-0.0034447245094630157,0.004539961182049093,0.992187819136363
2014-05-14,-1,-0.0008994241085641247,-0.0007321761610074307,-0.0034447245094630157,0.004867713745993478,0.9918460125654086
2014-05-16,-1,-0.0005067301818421064,-0.00041439309076370546,-0.005612546106549227,0.005920106010732656,0.9898086003041142
2014-05-20,-1,-0.0007409961508422792,-0.0006502668379349881,-0.0034447245094630157,0.00820245144865543,0.9895875229416552
2014-05-22,-1,-0.0007356563132281872,-0.0006452973115568999,-0.0021836706774248055,0.010591341563268023,0.9891357698127103
2014-05-27,-1,-0.0009883319970623787,-0.0008785231755050884,-0.0021836706774248055,0.010591341563268023,0.9882803466924556
2014-05-29,-1,-0.0008659379518770665,-0.0007613622589644027,-0.006166013774277871,0.010591341563268023,0.9879926224346277
2014-06-02,-1,-0.0008264494802054075,-0.0007318299027425583,-0.008392999724683397,0.01697078989322923,0.9868271025375158
2014-06-04,-1,-0.0014614415576467876,-0.0012857780209444706,-0.008392999724683397,0.010591341563268023,0.9886475553924107
2014-06-06,-1,-0.0006265994048642381,-0.0006130924967987556,-0.008392999724683397,0.010591341563268023,0.9885425774724245
2014-06-10,1,5.573899559167594e-05,0.00011471148035569349,-0.008864143181925537,0.007955959355176775,0.9890211056435235
2014-06-12,1,0.0004137687883814103,0.0005288262070357171,-0.008864143181925537,0.009835522869101835,0.9880546960037947
2014-06-16,1,0.00047799882051571607,0.0006259520201014623,-0.009084879646628073,0.00514720556639757,0.9889496156432236
2014-06-18,1,0.00028597014767388785,0.0003390570087342368,-0.010979669829081329,0.00255554230359492,0.9878434116082566
2014-06-20,1,0.0011379308750130456,0.0013502508091379878,-0.011745506887805467,0.00255554230359492,0.9851970179159609
2014-06-24,1,0.000463767181376387,0.000554400075771274,-0.010979669829081329,0.00255554230359492,0.9865964973996326
2014-06-26,-1,-0.0007816275782803472,-0.0006765257743564475,-0.010159785618599725,0.006566536395713229,0.986673340175512
2014-06-30,-1,-0.0001886194069597446,-0.0001298352369198308,-0.011745506887805467,0.004496130290488442,0.9867199979457019
2014-07-02,-1,-0.00020573273419575197,-0.0001917348572438518,-0.012082046309210908,0.004496130290488442,0.9866693886700761
2014-07-07,1,0.0007731931583563387,0.0010417024204934467,-0.012082046309210908,0.006652170208271148,0.9858013035540215
2014-07-09,1,2.3742371628182265e-05,0.00016321371509658042,-0.012082046309210908,0.011796116110285913,0.985494556339923
2014-07-11,1,0.001161865990552918,0.0014923945543601934,-0.013965499764223455,0.011796116110285913,0.9829516473201338
2014-07-15,1,0.0006850994435962437,0.0010880575716824097,-0.012082046309210908,0.011796116110285913,0.9836583217755006
2014-07-17,-1,-0.0003655725379541739,-9.631159249390829e-05,-0.00432826701641184,0.011796116110285913,0.9847508991754078
2014-07-21,-1,-0.002415974452855383,-0.002352143612771307,-0.00432826701641184,0.011796116110285913,0.9797126627476321
2014-07-23,-1,-0.001328994200760865,-0.0012240229523850744,-0.006310844382395084,0.011022263148604794,0.9801640849032884
2014-07-25,-1,-0.0005086446553675018,-0.0002813820806319506,-0.011619350678718545,0.008471876035051926,0.9805647168700463
2014-07-29,-1,-0.0016486812044495891,-0.0015971247661881998,-0.007831278234990437,0.008471876035051926,0.9813549253871515
2014-07-31,-1,-0.0017892748014298363,-0.0017343794759719783,-0.006310844382395084,0.011022263148604794,0.9808470049925111
2014-08-04,-1,-0.000933666471681201,-0.0007556654734582708,-0.006310844382395084,0.011022263148604794,0.9814833898980742
2014-08-06,-1,-0.0014908301568832957,-0.0014848312463802032,-0.007429652232573358,0.008471876035051926,0.9811080803107586
2014-08-08,-1,-0.00046090189291017136,-0.00030237892938398157,-0.005509263139542189,0.0077962840457071955,0.9847867204575351
2014-08-12,-1,-0.00021843881496461196,-6.581877664175328e-05,-0.005509263139542189,0.007228546936666991,0.9846086002861749
2014-08-14,-1,-0.00016215273497435366,-4.329589071613187e-05,-0.008118409358194476,0.007228546936666991,0.9843642403784205
2014-08-18,-1,-0.0006738555640004009,-0.0006112502889732256,-0.006406554756796429,0.006853257465806289,0.9913545992875924
2014-08-20,-1,-0.00027451526926959937,-0.00012423419774320005,-0.005738848848082562,0.006681710528401337,0.9917919846240847
2014-08-22,-1,-0.0005361952373900561,-0.00037844122235470277,-0.0044597105834894065,0.007228546936666991,0.9910985380346763
2014-08-26,-1,-0.0008884875574587421,-0.0008521633348453337,-0.005738848848082562,0.00897599933554255,0.9897642964458325
2014-08-28,-1,-0.0006893354043756765,-0.000658814350275947,-0.007145907961715676,0.008592623024805148,0.9892744485919188
2014-09-02,1,0.0002200164174587869,0.00041979854845190985,-0.007145907961715676,0.008009467837174279,0.9898299211038523
2014-09-04,-1,-0.0017048777582744019,-0.0014913289471583046,-0.007145907961715676,0.008009467837174279,0.9899815463847805
2014-09-08,-1,-0.0011380346954567278,-0.0010038790851681627,-0.007145907961715676,0.009419996542405051,0.9896578043040227
2014-09-10,1,7.929503223040769e-05,0.0001714667864675166,-0.007145907961715676,0.009419996542405051,0.9888777696539969
2014-09-12,-1,-0.00023559478738579304,-0.00018187380553186163,-0.006773646062643205,0.009419996542405051,0.9888543437274991
2014-09-16,-1,-0.00015920468279333167,-0.00011957844730030895,-0.008064741550017929,0.01155283841603506,0.9874544440486306
2014-09-18,-1,-0.00028384999206228185,-0.0002580835005693452,-0.010883394727813531,0.01155283841603506,0.9858853828175446
2014-09-22,1,0.0002971119893530957,0.0004085696344216917,-0.010883394727813531,0.01305028722089598,0.9853894094540326
2014-09-24,1,0.00028455946681479427,0.0003825475359639006,-0.007540691413051074,0.014655329505801073,0.9853426734019214
2014-09-26,-1,-0.00034522217788407515,-0.00034010729473462156,-0.006490039446582263,0.014655329505801073,0.9864509918570388
2014-09-30,1,1.5660957217020812e-05,5.8336835823389726e-05,-0.006490039446582263,0.014655329505801073,0.9869296402465424
2014-10-02,1,0.0002841672839767129,0.00043801257265319184,-0.005890893938212101,0.014655329505801073,0.9868155690164827
2014-10-06,1,0.0008709080964129871,0.0011125116567071618,-0.005890893938212101,0.014766347666825677,0.9868216448977056
2014-10-08,1,0.0020519742074270814,0.002457067068837573,-0.007123359121510692,0.012758514178798266,0.9877855257062463
2014-10-10,1,0.0015314392575942783,0.0018412804591265864,-0.005890893938212101,0.014766347666825677,0.98447541050638
2014-10-14,1,0.0013774299802425862,0.0016611770281669542,-0.005972751212551633,0.01343024420713973,0.9854769317475514
2014-10-16,0,-4.952654963186174e-05,2.9399780472521593e-05,-0.004796969793709234,0.01343024420713973,0.9867324568332081
2014-10-20,1,0.0012630693375524924,0.0015257609010076278,-0.004796969793709234,0.012537846634897477,0.988280048414275
2014-10-22,1,0.0018444732446119476,0.002183799248162063,-0.004796969793709234,0.009386370345553608,0.9896313034460585
2014-10-24,1,0.0013126645169148038,0.0015470336015458506,-0.004824255551822411,0.009386370345553608,0.9894137447663518
2014-10-28,1,0.001235475960285226,0.0014646242828747983,-0.005866864330062146,0.012537846634897477,0.9887205029335688
2014-10-30,1,0.0020729072930963637,0.0024539000427478553,-0.005866864330062146,0.013721871098518072,0.9886868388013613
2014-11-03,1,0.002716177287877699,0.0031998845706160705,-0.006776718036095149,0.009610280355000764,0.9879984987882564
2014-11-05,1,0.0018821422626734837,0.002236933737650299,-0.006201551534571279,0.009610280355000764,0.9878569087965829
2014-11-07,1,0.003863459945435163,0.004502532700006574,-0.006201551534571279,0.0029903868805642485,0.9909694593086067
2014-11-11,1,0.0037649835623710434,0.004412721396591953,-0.003961697184997412,0.0029903868805642485,0.991642071907602
2014-11-13,1,0.0036417555700354034,0.0042266031190424,-0.006201551534571279,0.001957664572070875,0.9896416458359012
2014-11-17,1,0.003696123296338983,0.004248107161485465,-0.006201551534571279,0.001957664572070875,0.9900746191234355
2014-11-19,1,0.003926017865201717,0.004532284122185394,-0.006201551534571279,0.01259956278364971,0.9881222511218207
2014-11-21,1,0.0034272308653773556,0.003937517358232343,-0.004851903997346715,0.01259956278364971,0.9886126877811627
2014-11-25,1,0.003624556012296889,0.0041610571206220255,-0.0035689371271350988,0.006409168454473224,0.9893381080784704
2014-11-28,1,0.003698119571831377,0.00421555394066728,-0.005239138428042646,0.004519630078499492,0.9891275133792308
2014-12-02,1,0.0033047270374597293,0.003814497478664267,-0.005676462729054586,0.004519630078499492,0.9891359572708953
2014-12-04,1,0.0018808404224868798,0.002143772341515141,-0.0030652386376714396,0.006409168454473224,0.9905125340585242
2014-12-08,1,0.001140192257520966,0.0012223826477137606,-0.0030652386376714396,0.013219108281385429,0.9880693631532368
2014-12-10,1,0.0005097618137442616,0.0005732518955566068,-0.004767358935493765,0.015731341547716618,0.9871663398320731
2014-12-12,1,9.162808756621894e-05,0.00019614311865585844,-0.004767358935493765,0.012579243973929318,0.9869066252710444
2014-12-16,1,0.0007428519541703062,0.0007483080812126302,-0.006601107717082674,0.016777953451816624,0.9848712217226878
2014-12-18,1,0.0013985835324121765,0.001405760941138439,-0.009802482143328867,0.012579243973929318,0.9857020977207371
2014-12-22,1,0.0008204252061179924,0.0009210731452346223,-0.009802482143328867,0.012946992802573283,0.9852713124124436
2014-12-24,1,0.0012101395318169553,0.0012325000782658347,-0.009802482143328867,0.012946992802573283,0.9849602053922447
2014-12-29,1,0.0006936543791901321,0.0007680261614231333,-0.009934157797671012,0.012946992802573283,0.985011606908865
2014-12-31,1,0.00016985226390255374,0.00029117252380251023,-0.006644999601863389,0.01358749057937145,0.9840987193764164
2015-01-05,1,0.0006910402137516734,0.0007279232847303089,-0.0079906597385481,0.01358749057937145,0.9841927382352879
2015-01-07,1,0.002345981655374794,0.002545346440368473,-0.0079906597385481,0.012445663915610264,0.9862256762134218
2015-01-09,1,0.003257813425196343,0.0034551133616689,-0.01031220438199126,0.010761721161356404,0.985995014860655
2015-01-13,1,0.00165584612260182,0.0016763836285869963,-0.009704674911501131,0.012445663915610264,0.9874033494513172
2015-01-15,1,0.001836242146490661,0.0018936978891625266,-0.009704674911501131,0.010082870672151405,0.9891176504541975
2015-01-20,1,0.002054266292370985,0.002082632121508759,-0.0079906597385481,0.010082870672151405,0.9899786453940153
2015-01-22,1,0.0028285720947369875,0.0029158759037345,-0.0079906597385481,0.0073597489213261345,0.9906503791787362
2015-01-26,1,0.002890159965270895,0.0030110645797956073,-0.0079906597385481,0.009450417004780928,0.9900756939208574
2015-01-28,1,0.0021571742073898913,0.0021657740898097704,-0.0076577695566033286,0.009450417004780928,0.9897196261373189
2015-01-30,1,0.00048824117957637454,0.0006164261804214402,-0.004145601265417565,0.009485260882979943,0.9867220208167888
2015-02-03,1,0.0006778214956051828,0.00075371290485039,-0.004910773948911715,0.009485260882979943,0.9867263295373185
2015-02-05,1,0.0005833488683225159,0.0007145379521461943,-0.008172828779724261,0.007815391832561379,0.9863834417209459
2015-02-09,-1,-0.0003330475638591931,-0.0001038743578957032,-0.004910773948911715,0.007815391832561379,0.9864828635201773
2015-02-11,1,0.00039081273260313407,0.0005458400989934804,-0.004910773948911715,0.007815391832561379,0.9872923723589543
2015-02-13,1,0.00013522238312771987,0.00029211698346395977,-0.004910773948911715,0.009485260882979943,0.9863820842945302
2015-02-18,1,0.0005330628525780313,0.0006624164043031726,-0.008172828779724261,0.007237812502997965,0.9867176200628415
2015-02-20,1,0.0002223531594686258,0.0004274345506408274,-0.008172828779724261,0.008626813631857624,0.9862429709862891
2015-02-24,1,0.0012427060471901122,0.0013137601610027252,-0.008172828779724261,0.006050831829541221,0.9872204783957444
2015-02-26,1,0.0006267258010329215,0.0008014250961440007,-0.008480941439695423,0.004616325973849376,0.9869071788756362
2015-03-02,1,0.0027588958519119957,0.0028719785590086205,-0.008480941439695423,0.006731632234702353,0.9906314648341285
2015-03-04,1,0.0028028580059838194,0.003005404180926448,-0.012652725603618305,0.006731632234702353,0.9899419094112533
2015-03-06,1,0.0014521060392662117,0.0014652453828659837,-0.010212360604379906,0.010669214847341018,0.9899697907587026
2015-03-10,1,0.0007471181848308706,0.0008647899970559504,-0.008594677307952313,0.010669214847341018,0.9904643966591042
2015-03-12,0,-9.497462852917429e-05,0.00021934638042142975,-0.008594677307952313,0.006731632234702353,0.9908280908340329
2015-03-16,1,0.0005813359557893837,0.0007371944860958715,-0.008594677307952313,0.0054108327636485844,0.991609696100911
2015-03-18,1,0.0004283567096446759,0.0005573318027657006,-0.005933268299620464,0.006731632234702353,0.9916234264895177
2015-03-20,1,0.00034483301144140057,0.0004955404388922261,-0.007408201759895707,0.006731632234702353,0.9911153585225339
2015-03-24,1,0.0003353857541606057,0.0005011788231566218,-0.007408201759895707,0.006632807583556022,0.9914275271551151
2015-03-26,0,-0.0001949467608357169,7.322946533008692e-06,-0.004847211934910986,0.010186990777018325,0.9918696063987884
2015-03-30,1,0.001065151014471401,0.001093642712987781,-0.007408201759895707,0.006562618944420575,0.9917274718438984
2015-04-01,-1,-0.0007489103109175766,-0.0004612457394753145,-0.007408201759895707,0.006562618944420575,0.9918180845627806
2015-04-06,1,0.0010764485619623905,0.0011335970054158061,-0.005010671172639365,0.006562618944420575,0.9913207995039341
2015-04-08,1,0.0007824031222069464,0.000790421957454562,-0.008074088674478164,0.006562618944420575,0.9908801065012708
2015-04-10,1,0.0009012943973859783,0.0009386931531276919,-0.009257065923136442,0.010514671546930298,0.9852975303758336
2015-04-14,1,0.001117108932544394,0.001142391911385831,-0.009257065923136442,0.012260597192417321,0.9834481839559684
2015-04-16,1,0.0014041838900087109,0.001464916363171616,-0.012102607323252397,0.01365669315976127,0.9824094449594901
2015-04-20,1,0.0014369228962698084,0.0014846571184986377,-0.012102607323252397,0.010514671546930298,0.9830813283493235
2015-04-22,1,0.0014615084344500261,0.00151985326894714,-0.012102607323252397,0.010514671546930298,0.982265725865465
2015-04-24,1,0.0018549958687703277,0.001981259943881608,-0.012102607323252397,0.008556072586178779,0.9820128941605698
2015-04-28,1,0.0011814543781489984,0.0011856184487923048,-0.011800531795658362,0.010289830007648191,0.982090202550243
2015-04-30,-1,-0.00021155008035972573,-1.176423182029868e-06,-0.00983118286225943,0.010289830007648191,0.9827828162484117
2015-05-04,1,0.0005253436069372938,0.0006569744468709817,-0.00983118286225943,0.001228153364480205,0.9836419549129254
2015-05-06,1,3.456463088785666e-05,0.0002301849892454768,-0.009573191975984004,0.008030358563531157,0.9838556161950954
2015-05-08,-1,-0.002956386358146043,-0.0023845235023189425,-0.009396601057947393,0.0015179714221863405,0.9901217364878682
2015-05-12,-1,-0.002172095050586227,-0.0017008954422275228,-0.008165447593574585,0.0015179714221863405,0.991743094781951
2015-05-14,-1,-0.0012328243127010753,-0.0009424973577597722,-0.00804191170254908,0.002702884470610927,0.9926039937902307
2015-05-18,-1,-0.0016284458672541286,-0.0012905224204649676,-0.008165447593574585,0.00802736197184985,0.9904422084356783
2015-05-20,-1,-0.002115228144521154,-0.0017192772420088847,-0.006908864994151085,0.009596433908438149,0.9902225394356873
2015-05-22,-1,-0.0023753804217903295,-0.0019299562089263012,-0.006908864994151085,0.009596433908438149,0.9907797427506567
2015-05-27,-1,-0.0027998515070319736,-0.0022656378017803687,-0.0052606377373133105,0.0032249095855799246,0.9921651543670624
2015-05-29,-1,-0.0034199360442819775,-0.002819454191785576,-0.0020585207346805147,0.010247547265052715,0.9900359435453114
2015-06-02,-1,-0.0026903170897013273,-0.002263863942754926,-0.0028894721593380936,0.010247547265052715,0.9890263458063236
2015-06-04,-1,-0.002347469822861088,-0.0019713924544780773,-0.0036890218523435506,0.010238557490008793,0.9892628724179494
2015-06-08,-1,-0.003280645736315864,-0.002747599178032687,-0.0028894721593380936,0.011499222264511375,0.9883248294817207
2015-06-10,-1,-0.002429124318718834,-0.002040182990726152,-0.0028894721593380936,0.010013658908257703,0.9888892499964953
2015-06-12,-1,-0.0020180532927493505,-0.001690136792439394,-0.0028894721593380936,0.013956064001784474,0.987341074564445
2015-06-16,-1,-0.0009986950386049404,-0.0008147881409884254,-0.0028894721593380936,0.011499222264511375,0.9892786253997139
2015-06-18,-1,-0.0007312080029260846,-0.000577048154126025,-0.003179729408818009,0.01083564385720184,0.9896779077877818
2015-06-22,-1,-0.000951705665534409,-0.0007611116073432977,-0.003179729408818009,0.01325724015189244,0.9882822809445142
2015-06-24,-1,-0.0014017118940192106,-0.001131396548249159,-0.0028499255995254606,0.01923011766392767,0.9867249461306947
2015-06-26,-1,-0.0003188406496342091,-0.00016923978862517966,-0.0028499255995254606,0.01083564385720184,0.989175126495476
2015-06-30,-1,-0.001190861128868723,-0.0009566722232170069,-0.0013275102170689388,0.01083564385720184,0.989858002816651
2015-07-02,-1,-0.0016572839936341345,-0.0013407214905000685,0.0015995661039016483,0.01083564385720184,0.9893008254385209
2015-07-07,-1,-0.0008194507304739768,-0.0006312829578076633,-0.0013275102170689388,0.011696649539106428,0.988782753885131
2015-07-09,-1,-0.0015868319426228998,-0.0012939855703101408,0.0015995661039016483,0.014795672123654187,0.9857407948853487
2015-07-13,-1,-0.0002460420404426196,-0.00013528407797180962,-0.001439916153590317,0.011696649539106428,0.9856281162662501
2015-07-15,0,-8.799916628683999e-05,2.940358579903179e-07,-0.003493095026662149,0.010509725410813835,0.9855953603563503
2015-07-17,1,0.0002659087944466591,0.0002820270692586599,-0.0017928283312470899,0.014795672123654187,0.9831734148509486
2015-07-21,1,0.000822425728119252,0.0008769259838618891,-0.002083513522157538,0.010431491876976505,0.9845419733346208
2015-07-23,1,0.003797016002964158,0.004306627185677486,-0.014500524617806503,0.008992829485621657,0.9841454236803867
2015-07-27,1,0.00372159975169747,0.004215410672121261,-0.022502582924913774,0.008992829485621657,0.980972337365353
2015-07-29,1,0.003951753277866975,0.00440147288348221,-0.022502582924913774,0.010431491876976505,0.9794428123762091
2015-07-31,1,0.00411556199677821,0.004573423956473321,-0.022502582924913774,0.01136409316521442,0.9793430787261835
2015-08-04,1,0.003952904105497184,0.004406379172292105,-0.02248664358678837,0.009303696581700962,0.9790756096360013
2015-08-06,1,0.00281876883970065,0.003120882657530952,-0.01892859539156311,0.009278680012853518,0.9822943477139724
2015-08-10,1,0.002599984452548554,0.002848517685293034,-0.015020443956859803,0.009278680012853518,0.983764764462572
2015-08-12,1,0.0019856360532053497,0.002168322808022682,-0.01892859539156311,0.009278680012853518,0.9831390401523427
2015-08-14,1,0.003951125840234113,0.004403014547843202,-0.01892859539156311,0.0032518546530396425,0.9844284223242012
2015-08-18,1,0.003535982352130036,0.0039000290356716203,-0.01892859539156311,0.005542376937210337,0.9845842531844627
2015-08-20,1,0.0027332192001589743,0.0030384578142975504,-0.011248188832653529,0.0068484635402170915,0.9867846773254725
2015-08-24,1,0.0006373595886468399,0.0006590791881711085,-0.006209007136904625,0.0068484635402170915,0.9896215478654707
2015-08-26,1,0.001233825658304123,0.0012994545289368223,-0.0052749574276205555,0.0068484635402170915,0.9905055460903693
2015-08-28,1,0.001557202908437804,0.0016593786806392776,-0.007557027968069447,0.005003444253711178,0.9897573687762107
2015-09-01,1,0.0003719380071896579,0.00041741803530304425,-0.0052749574276205555,0.005003444253711178,0.9915626636397985
2015-09-03,1,4.085236484462345e-05,0.00015631784274807911,-0.005540880107062785,0.004477447300986621,0.9919205550102465
2015-09-08,1,0.0006244557078046588,0.0006481988425527498,-0.005540880107062785,0.004477447300986621,0.9924221588434033
2015-09-10,-1,-0.0001468437010575638,-4.9116958985177003e-05,-0.004739830643708467,0.005694246273729747,0.9933642097238143
2015-09-14,-1,-0.00018949143686461465,-8.744302475456329e-05,-0.0028029416445048564,0.006533292113069985,0.9933006470900138
2015-09-16,1,0.00039910313237359537,0.0004065067184456379,-0.006715593225972689,0.005694246273729747,0.9906894934927959
2015-09-18,1,0.00045028579652939423,0.00046513854917411133,-0.006715593225972689,0.008995773002372497,0.9896577884727675
2015-09-22,-1,-0.00017964629826608533,-4.839511223705029e-05,-0.006715593225972689,0.009780282691556579,0.9874459754728523
2015-09-24,1,0.0011152818876288516,0.0011934086564975395,-0.006715593225972689,0.009780282691556579,0.9871430519939364
2015-09-28,1,0.0001370500977441908,0.00020404545802855955,-0.005429689360762061,0.009780282691556579,0.9877828504370977
2015-09-30,-1,-0.0011535911355922022,-0.0008568774449726374,-0.0060683109133538825,0.009780282691556579,0.9875879067807303
2015-10-02,-1,-0.0009188880827084957,-0.0006960368001308864,-0.0060683109133538825,0.009780282691556579,0.9862927750160707
2015-10-06,-1,-0.0008683038070098187,-0.0006596645019661113,-0.0060683109133538825,0.009780282691556579,0.9866576507173596
2015-10-08,-1,-0.0005445965676109548,-0.0003513027215259801,-0.007142687073818372,0.006225617435774114,0.9866596071474563
2015-10-12,-1,-0.00126917938237661,-0.0010321534208558507,-0.008397960583745086,0.007129837088911583,0.9821329192623085
2015-10-14,-1,-0.0037199784723006765,-0.0031985310968243525,-0.0060683109133538825,0.013577640954277286,0.9840090447239096
2015-10-16,-1,-0.002653180522093038,-0.002264524795951132,-0.008397960583745086,0.0038499399135501077,0.984290761561554
2015-10-20,-1,-0.0011872486388167353,-0.0009320164998441018,-0.010285608437550687,0.0020508602134147753,0.9859258577617421
2015-10-22,-1,-0.0007421144557282768,-0.0005194059695907133,-0.010285608437550687,0.002417541371494496,0.9859568044569872
2015-10-26,-1,-0.0009323074975337183,-0.0006985996166129335,-0.010285608437550687,0.005080375670426907,0.9851133056285074
2015-10-28,-1,-0.0013558607229458054,-0.0010464684567035654,-0.010285608437550687,0.013141340004873468,0.9837395058558969
2015-10-30,-1,-0.0025390716682386853,-0.0021085497006265077,-0.010285608437550687,0.013141340004873468,0.984746786408934
2015-11-03,-1,-0.002805447059868565,-0.0023602696784180864,-0.011822024419921855,0.01596986225452422,0.9835448310921209
2015-11-05,-1,-0.0028972836468369135,-0.0024916743298534424,-0.01134290752774882,0.01742437543255432,0.9824440933632513
2015-11-09,1,0.00025289198432410637,0.000271885281159966,-0.01134290752774882,0.01596986225452422,0.9874294323776531
2015-11-11,1,0.0008126488387041807,0.0008574079990678661,-0.011822024419921855,0.013141340004873468,0.9869154873013132
2015-11-13,-1,-0.0006409091373147456,-0.000501240091526997,-0.011511939066425982,0.014785334662984952,0.9872497373591667
2015-11-17,1,9.808074415151722e-05,0.0001302484847520172,-0.009187078980051135,0.014785334662984952,0.9876850893624275
2015-11-19,1,0.00011329175552196336,0.00015347379028334994,-0.012688188363744128,0.01284775323773551,0.9865182654340469
2015-11-23,1,0.0002873325396328531,0.0003166651665963188,-0.012688188363744128,0.011508815933374737,0.987148597333666
2015-11-25,1,0.0019123081712932078,0.002131737659124062,-0.012688188363744128,0.006723631856510468,0.9884014324102316
2015-11-30,1,0.0010420767406519196,0.0010992272424981643,-0.01187100839421677,0.009677107368337426,0.9882950326510789
2015-12-02,1,0.0017832828685958504,0.0020236309111355895,-0.00919971359529827,0.006723631856510468,0.9892980290272981
2015-12-04,1,0.002255001409287254,0.0025617499197123175,-0.009831176246264846,0.006723631856510468,0.9888384919792376
2015-12-08,1,0.0021365692847426622,0.002425045989169474,-0.009831176246264846,0.0058768655048717245,0.9889719218794881
2015-12-10,1,0.0015800900667299433,0.0018504072906422098,-0.0077690127820533835,0.009677107368337426,0.9898388950868973
2015-12-14,1,0.0021507100988849633,0.002558091735697435,-0.0077690127820533835,0.00875940665027171,0.9895359564988563
2015-12-16,1,0.0025065462661169164,0.0029662362872228255,-0.008789821488133382,0.00875940665027171,0.9885045373053621
2015-12-18,1,0.0011675834626156676,0.0014842631558819185,-0.00856495737217521,0.009677107368337426,0.9886715018004598
2015-12-22,1,0.0018658328938448469,0.002295418767559684,-0.008789821488133382,0.009862198280958558,0.9861960936156065
2015-12-24,1,0.002017624528297589,0.002445780538797,-0.010364197454056041,0.00946718496401747,0.9846425319638737
2015-12-29,1,0.0015516010042817,0.0018477130298432845,-0.010364197454056041,0.0033378918006192635,0.984839503751175
2015-12-31,1,0.0013164480972334902,0.0015690668899569127,-0.014666806887737097,0.00946718496401747,0.9838577834443396
2016-01-05,1,0.00035502171200993556,0.0004500349530960107,-0.010720027086337715,0.0033378918006192635,0.9852395315372074
2016-01-07,1,0.0011413493261889646,0.0014645678113932715,-0.018023168188723165,-0.0020287817278828602,0.9811935862529618
2016-01-11,1,0.001446721638873005,0.001825188131327503,-0.02554080431474605,-0.0020287817278828602,0.9791460706513935
2016-01-13,1,0.00024418606760157437,0.00038363614704310645,-0.020240369404081242,-0.0016585516945408054,0.9795884014561691
2016-01-15,-1,-0.002379485884545729,-0.0021203871716223904,-0.020240369404081242,0.01633365798119648,0.9791443160470534
2016-01-20,-1,-0.0024138883226486486,-0.002202655843103439,-0.016256356551834897,0.011544886376994096,0.9810529444814409
2016-01-22,-1,-0.0008316910672260468,-0.0008314509447453849,-0.016256356551834897,0.012946511701440717,0.9819976080251034
2016-01-26,-1,-0.0030173536008042345,-0.002692699902011804,-0.011103214358629654,0.016259982469810585,0.9820709210369726
2016-01-28,-1,-0.003323330094514811,-0.0029797777974030423,-0.01621956020601708,0.016259982469810585,0.9813199782815171
2016-02-01,-1,-0.003173360533613793,-0.002860740967657553,-0.017465931056047403,0.016259982469810585,0.9793682857275361
2016-02-03,-1,-0.004629727915529748,-0.004062784991312672,-0.017465931056047403,0.016259982469810585,0.9788204212312335
2016-02-05,-1,-0.008242894054847367,-0.007258755083921566,-0.009708847441601812,0.016259982469810585,0.9810312579328132
2016-02-09,-1,-0.009585981924594835,-0.008478799569738488,-0.007201420907549255,0.016259982469810585,0.9815753132245049
2016-02-11,-1,-0.009110695674068442,-0.008075405617184799,0.0007062534158056169,0.01608692331928364,0.9812205011993771
2016-02-16,-1,-0.007410063675131312,-0.006581280498076039,-0.007201420907549255,0.012019932269700745,0.9844229801592456
2016-02-18,-1,-0.006207461836405187,-0.005562112394106591,-0.007201420907549255,0.013307185024063726,0.9839563784052406
2016-02-22,-1,-0.0054154174539542375,-0.004827998786010075,-0.009441703323380993,0.010888991929171355,0.9853347176512942
2016-02-24,-1,-0.004195022064982297,-0.0037707245546639923,-0.013411030000211197,0.006908727513607486,0.9866672780318704
2016-02-26,-1,-0.004765262492626309,-0.004262151615630462,-0.012208728218070461,0.010888991929171355,0.9863414916053654
2016-03-01,-1,-0.0048598396293320235,-0.004350976288015359,-0.008210746839574113,0.009858621812816134,0.9888598044114439
2016-03-03,-1,-0.004568358130473945,-0.004131303357869835,-0.008053919819537346,0.010495008672132242,0.9888827464521339
2016-03-07,-1,-0.0042669381332772266,-0.0038895290272711134,-0.0036516520872382887,0.010495008672132242,0.9891098979379821
2016-03-09,-1,-0.005114439237775896,-0.004501300292563927,-0.011424464197708284,0.009884061495065835,0.9894927632364713
2016-03-11,-1,-0.003297503258492012,-0.002947515999997266,-0.012208728218070461,0.0032572909437139663,0.9908165959308971
2016-03-15,-1,-0.002500566754696637,-0.0023446522853251064,-0.011424464197708284,0.0032572909437139663,0.9911392693045024
2016-03-17,-1,-0.0008891315228745705,-0.0008047076003040724,-0.011424464197708284,0.0026218003642631974,0.992752361334373
2016-03-21,-1,-0.0012413795808971953,-0.0012101654064226339,-0.010363601610007933,0.0032572909437139663,0.9927038407799954
2016-03-23,-1,-0.001479465239239542,-0.001473095504145698,-0.011424464197708284,0.0032572909437139663,0.9916801780564566
2016-03-28,-1,-0.002158321161747791,-0.002024120827513508,-0.011562176560672623,0.0032572909437139663,0.9917529937395347
2016-03-30,-1,-0.0018133451613792143,-0.001701481623883133,-0.011562176560672623,-0.0006793626922431509,0.9920734252797785
2016-04-01,-1,-0.0021807956379527064,-0.001973837585818165,-0.01065814099300904,0.0010632810947646901,0.9864412005950558
2016-04-05,-1,-0.001112617721865884,-0.0010044111522635143,-0.011274096038566833,0.00677484418391466,0.9844561304620815
2016-04-07,-1,-0.0012269027550652345,-0.0010861188834264328,-0.010267574769306002,0.00677484418391466,0.9852096101770893
2016-04-11,-1,-0.002050697816768976,-0.0020188180401304904,-0.009359963847365652,0.013487380174804303,0.9851267206314763
2016-04-13,-1,-0.002440716011456634,-0.002359794671953623,-0.009565282195884917,0.01512553207821294,0.9833612160258923
2016-04-15,-1,-0.0017990401738957737,-0.001747295001986474,-0.010512059216806792,0.01512553207821294,0.9830514249571326
2016-04-19,-1,-0.0011232490771155206,-0.0009596951466299945,-0.010512059216806792,0.01512553207821294,0.9827842610985374
2016-04-21,-1,-0.0014248527051496603,-0.0012188426627171415,-0.009199770215395628,0.01512553207821294,0.9843612017035713
2016-04-25,-1,-0.0012420871822809818,-0.0010215689727281676,-0.005110537595065259,0.014382849439661416,0.9853908270157612
2016-04-27,-1,-0.0012370582103266381,-0.001001342244921009,-0.003795026004015065,0.014382849439661416,0.9851000437976344
2016-04-29,1,0.0018562546657665282,0.002527725529855102,-0.003795026004015065,0.00634174970023943,0.9914350635748779
2016-05-03,1,0.002390504541750267,0.003140068672102468,-0.0034843557695598895,0.005675013747339982,0.9925940082495783
2016-05-05,1,0.0019971820492392833,0.002639103136700668,-0.0034843557695598895,0.0075843144823628285,0.9926899931077054
2016-05-09,1,0.0027859462803987386,0.003541219778865921,-0.0035667647639281526,0.0075843144823628285,0.9927034461166654
2016-05-11,1,0.0033248614942034097,0.00417651871710129,-0.0034159124622727094,0.007461342911462521,0.9943135820737032
2016-05-13,1,0.0021803858852311514,0.0027871274814805173,-0.0035667647639281526,0.007461342911462521,0.9937884406191754
2016-05-17,1,0.002699573147564806,0.003405349796585156,-0.0034159124622727094,0.007461342911462521,0.9943173613243101
2016-05-19,1,0.0028653159035425704,0.0036187395727179696,-0.0034159124622727094,0.008964428793158449,0.9942623680388905
2016-05-23,1,0.003185615198596463,0.004005051182166985,-0.0016687468033499634,0.009453232731738892,0.9941712665754083
2016-05-25,1,0.003458261890827988,0.004304423216579244,-0.0016687468033499634,0.008964428793158449,0.994416480312681
2016-05-27,1,0.0032744245047332627,0.004044060679298013,-0.0034159124622727094,0.009029740474626867,0.9927836997670509
2016-06-01,1,0.0035372220731263965,0.004338437417895103,-0.0025701814151745323,0.009149629700506385,0.9922067307801842
2016-06-03,1,0.004103301334377177,0.004996688242485394,-0.00404932194013386,0.010017035597625224,0.9911747567663789
2016-06-07,1,0.004137975939267725,0.005005899985231132,-0.00312118189866742,0.009353764888754163,0.9915557823638036
2016-06-09,1,0.004162054774650833,0.004998957146923815,-0.00312118189866742,0.009353764888754163,0.9916284459500666
2016-06-13,1,0.003043379030070275,0.0037114095089169686,-0.001543456931845795,0.009353764888754163,0.9929709454348754
2016-06-15,1,0.004308841562510926,0.005206728969106662,-0.001543456931845795,0.007772736209282197,0.9930466529494093
2016-06-17,1,0.004348431552096308,0.00518837128975126,-0.0031084405658507734,0.0064646637122138875,0.9911670678164132
2016-06-21,1,0.004425111310202095,0.00523082495571695,-0.0031084405658507734,0.0064646637122138875,0.9912441410091858
2016-06-23,1,0.00428421549563831,0.00505796336926784,-0.0024695830671373495,0.007772736209282197,0.9911068525913065
2016-06-27,1,0.003279971829795878,0.0038832279436673547,-0.0031084405658507734,0.0064646637122138875,0.9919659167287574
2016-06-29,1,0.0018233708342493412,0.0020008381534197756,-0.0031534895510073164,0.0064646637122138875,0.9924280945484538
2016-07-01,1,0.0008430836115635962,0.0009071343659176186,-0.0031084405658507734,0.0064646637122138875,0.9931427171744108
2016-07-06,1,0.0009994201432111658,0.0010395626513275955,-0.004131477085223573,0.005065975672319475,0.992397085881948
2016-07-08,1,0.0014956249760239011,0.0015697064342464601,-0.004131477085223573,0.0064836881229752095,0.9911994130224515
2016-07-12,1,0.0013989883778040163,0.0014847282767120743,-0.007513012687024645,0.0064836881229752095,0.9903956419516748
2016-07-14,1,0.0019697913584837065,0.0021745900770201074,-0.007513012687024645,0.008394292095587863,0.9900636981675544
2016-07-18,1,0.000591594424181083,0.0006532669777760932,-0.004207557513257515,0.008394292095587863,0.9917703411679274
2016-07-20,1,0.0006992479854666055,0.0007451370710342484,-0.007513012687024645,0.0057639876800588885,0.9919272219186853
2016-07-22,1,0.0009208435628539758,0.0009747048977038138,-0.007513012687024645,0.005075008971121588,0.9922090375237852
2016-07-26,1,0.0002523330572408876,0.0002985376665468857,-0.007649499378723123,0.005075008971121588,0.9921386731222004
2016-07-28,1,0.0002161670535724661,0.00027694818345256104,-0.006982521790411147,0.004639646000422921,0.9927779747519737
2016-08-01,1,0.000742928708175805,0.0007707813229168933,-0.007654589715735726,0.0037079700154018336,0.9926719474424147
2016-08-03,1,0.00043264297253964984,0.0004676425936857216,-0.006332555548836035,0.0037079700154018336,0.9930890687322942
2016-08-05,1,0.0009017633714587326,0.0009684696996148196,-0.006332555548836035,0.0018781314903203328,0.9941176097180615
2016-08-09,1,0.0005446337347673029,0.000614698731462657,-0.006332555548836035,0.0018781314903203328,0.9947577829863269
2016-08-11,1,0.0007800371312767021,0.0008538495725190088,-0.008015553070605199,0.0005310174325232553,0.9937969660436426
2016-08-15,1,0.0004645731299257316,0.00046959784408979446,-0.011089325081692435,0.0005310174325232553,0.9924977950917085
2016-08-17,0,-2.5236776337444458e-05,3.256750057014477e-05,-0.008077541088473469,0.0011048636642770548,0.9917354556745366
2016-08-19,1,9.162559633594825e-05,0.00011737779945148342,-0.008077541088473469,0.0011048636642770548,0.9918194564782613
2016-08-23,-1,-0.0004458703229219128,-0.00035565413440053926,-0.00702528614678337,0.0011048636642770548,0.9924705775228263
2016-08-25,-1,-0.000485178579720515,-0.00038746979013609234,-0.00702528614678337,0.0011048636642770548,0.9920199432620533
2016-08-29,-1,-0.0013601550481858668,-0.0011216093393258005,-0.006216828630276994,0.0015278076118971553,0.9921004930401154
2016-08-31,-1,-0.0021724523178938302,-0.0018177112877308767,-0.006492332075412343,0.0015278076118971553,0.9921827703927387
2016-09-02,-1,-0.002505279173084812,-0.0020866558217843365,-0.00698263739743351,0.002083762991888356,0.9916792188914445
2016-09-07,-1,-0.003033339085974439,-0.002544015144653678,-0.0064574531530063,0.002083762991888356,0.9920718435339915
2016-09-09,-1,-0.004187183977652176,-0.003577515704262191,-0.006173465501367062,0.005743100551746242,0.9925235853270599
2016-09-13,-1,-0.005964971389730844,-0.005083658002433655,-0.006173465501367062,0.0038850354218157,0.9926990420790226
2016-09-15,-1,-0.005347460046895947,-0.004541203638289458,-0.005978330419097613,0.006167556177209788,0.9928767303181694
2016-09-19,-1,-0.005301057336671971,-0.0044824083685985235,-0.006141264103397376,0.0033664426775938776,0.9937173376515215
2016-09-21,-1,-0.0032332503734551826,-0.002753152351389015,-0.006141264103397376,0.0067131595316691686,0.9926876819021211
2016-09-23,-1,-0.002662419653214065,-0.002274349669346571,-0.006141264103397376,0.005348331469996576,0.9928960583302733
2016-09-27,-1,-0.0028816145067968937,-0.0024629648237609143,-0.006141264103397376,0.0067131595316691686,0.9921369227831833
2016-09-29,-1,-0.003050477163337291,-0.0026499767176276605,-0.006141264103397376,0.0067131595316691686,0.9907491189978979
2016-10-03,-1,-0.0027679622514791766,-0.002405122597325916,-0.006008224761459536,0.005348331469996576,0.99096785610912
2016-10-05,-1,-0.003138992825364579,-0.00271167171526244,-0.006008224761459536,0.005348331469996576,0.9906110398843984
2016-10-07,-1,-0.0037459045741221283,-0.003298770634083822,-0.009415153364797327,0.004758404519177311,0.9885381752513883
2016-10-11,-1,-0.0033139799487153436,-0.002808350722864511,-0.0060162075449228004,0.005348331469996576,0.9891911648702285
2016-10-13,-1,-0.002350044393180206,-0.001955447139892654,-0.02056491218599825,0.004473947669674022,0.9874272705556345
2016-10-17,-1,-0.002898767020869303,-0.0024496093959177536,-0.02483546354234452,0.004473947669674022,0.9863258752252017
2016-10-19,-1,-0.00179892477539954,-0.0014906172625963419,-0.02483546354234452,0.004473947669674022,0.9858756779991402
2016-10-21,-1,-0.0017655064019870752,-0.0014709160869836816,-0.02483546354234452,0.004393706584032841,0.9860845888987362
2016-10-25,-1,-0.0007949080879328528,-0.0006279219420288263,-0.02483546354234452,0.00512869300346307,0.9827111874285982
2016-10-27,-1,-0.0022514631219781606,-0.0019411267073667993,-0.014878748143986388,0.00512869300346307,0.9841993169285271
2016-10-31,-1,-0.001751055632808771,-0.0015145775380062064,-0.014878748143986388,0.0074995896007046545,0.9840481227631429
2016-11-02,-1,-0.0023650407863912903,-0.002007406827719761,-0.02486528538912538,0.0074995896007046545,0.9830111281105681
2016-11-04,-1,-0.0035121004858291844,-0.0030553296882995084,-0.011543055027781106,0.010237497409542384,0.9841262141256485
2016-11-08,-1,-0.0027851199256953858,-0.002443884693163069,-0.011614141619231293,0.010237497409542384,0.9840637136409656
2016-11-10,-1,-0.004683616889859675,-0.004146995240230402,-0.011512795449848817,0.012511871658227168,0.9841516087954854
2016-11-14,-1,-0.00582733932341954,-0.005157264352365002,-0.008054564241682459,0.016950230850693998,0.9835343652440023
2016-11-16,-1,-0.0050994696399210265,-0.004497090979573622,-0.011512795449848817,0.011716950473697994,0.9843091094448658
2016-11-18,-1,-0.004809879818127666,-0.004286043159169508,-0.011614141619231293,0.011716950473697994,0.9836613993187744
2016-11-22,-1,-0.0006023570476271127,-0.000597158844869872,-0.011614141619231293,0.00988940812880107,0.9863055493521814
2016-11-25,-1,-0.0008732720784536926,-0.0008608700928796279,-0.011614141619231293,0.00988940812880107,0.9865706149829422
2016-11-29,-1,-0.0004279932595167707,-0.0003762842778909469,-0.01218303327217031,0.007131697007489838,0.9865210651437012
2016-12-01,-1,-0.0015771655980613476,-0.0014856430841777525,-0.012092254538373448,0.007131697007489838,0.9872271376372159
2016-12-05,-1,-0.00028489931448721966,-0.00019695524488165642,-0.012092254538373448,0.007235233034338927,0.9869718087276176
2016-12-07,-1,-0.0011190785053534305,-0.0010420662969620226,-0.012659588381469428,0.007235233034338927,0.9867565902685739
2016-12-09,-1,-0.0008811782792379624,-0.0008683987314509606,-0.013752360865541595,0.00600360282531305,0.9872357965966698
2016-12-13,1,0.00023062215168117748,0.0003998481076019821,-0.014448767489913967,0.00600360282531305,0.9868189154134441
2016-12-15,-1,-0.0004850601052416083,-0.00043509994915091703,-0.013752360865541595,0.0071052498770091095,0.9859888552539509
2016-12-19,-1,-0.0005684501106889776,-0.000514475786550119,-0.013008921467051755,0.0071052498770091095,0.9863153322493731
2016-12-21,1,0.0007808173556874168,0.0010362922424966268,-0.013008921467051755,0.0042605734580097665,0.9883784909570261
2016-12-23,1,0.0006873087695265919,0.00089834401117584,-0.013356265253551639,0.003861948987010977,0.9878845268300622
2016-12-28,1,0.001030576931178738,0.0013459609340512949,-0.012921885875036707,0.003861948987010977,0.9876226211516607
2016-12-30,1,0.00047673160938966014,0.0006864926158838103,-0.012456771527287754,0.0040963612462060345,0.9882816472610662
2017-01-04,1,0.0019880682910063357,0.002431176348123471,-0.012921885875036707,0.00369166510795968,0.9887222842528788
2017-01-06,1,0.0017823383760506833,0.0021975865199938315,-0.012921885875036707,0.003769802527691366,0.9886891232342273
2017-01-10,1,0.0004377972012073869,0.0006598008785814436,-0.01073011708240835,0.005322087963273745,0.9902177150398785
2017-01-12,1,0.0003077217901369644,0.0005151416869455525,-0.009169753939660723,0.004587715446631535,0.9914028316794125
2017-01-17,1,0.0008881441958469979,0.0011562818381960537,-0.009169753939660723,0.0040963612462060345,0.9929183865293839
2017-01-19,1,0.0006049644940331469,0.0008405107451840261,-0.00285866901767395,0.0040963612462060345,0.993487282513422
2017-01-23,1,0.0006659797478056601,0.0008958322275178397,-0.00285866901767395,0.004587715446631535,0.993122877059825
2017-01-25,1,0.0002645839341270959,0.00042137899573817115,-0.0009750486144918486,0.004420407305841257,0.9937490342446125
2017-01-27,-1,-0.00020242914629151185,-0.00010307014278488995,-0.0009750486144918486,0.004420407305841257,0.9925665537129463
2017-01-31,-1,-0.00010381628487504197,-1.6560100343742095e-06,-0.002902168954923238,0.005987902636544486,0.9914952037120875
2017-02-02,-1,-0.001802057702608537,-0.0017464901440372447,-0.0009750486144918486,0.009612253999732007,0.9860825311395347
2017-02-06,-1,-0.0014559055494931606,-0.0014117296800758164,-0.006519618271939746,0.008206069411789575,0.9862660704301467
2017-02-08,-1,-0.0005557317489280269,-0.000456767902101816,-0.007749470285807403,0.006002951861862942,0.9865676624631587
2017-02-10,0,-0.0001388587015419143,3.168050053993683e-05,-0.008231391616922941,0.005169829047801923,0.9863395857879813
2017-02-14,-1,-0.0003639628175734721,-0.00022023168116096713,-0.007749470285807403,0.009627117652401346,0.986039296233212
2017-02-16,0,-5.578109910090779e-05,0.00014509492543065996,-0.008231391616922941,0.009627117652401346,0.9854965140130203
2017-02-21,1,0.0003202312864288249,0.000570236268635726,-0.008231391616922941,0.008764689466819029,0.9854933393672044
2017-02-23,1,0.0002089378952204458,0.0004253644738672004,-0.008433753047960495,0.010506638885875639,0.9846114485650643
2017-02-27,-1,-0.0007530782048255117,-0.0006530641534792247,-0.007782259953229777,0.010506638885875639,0.9863772057535868
2017-03-01,-1,-0.0007152183539929269,-0.0006084508153430519,-0.006369907717375358,0.008477067613881143,0.9873893661427596
2017-03-03,1,0.0012438864555627822,0.0016224828859119262,-0.007782259953229777,0.005605896233009432,0.9915135342587121
2017-03-07,1,0.0004803639770434167,0.0007305974790706213,-0.007782259953229777,0.006036727015264885,0.9924258113459195
2017-03-09,1,0.0010258686359583581,0.0013813400001266764,-0.005427084725707261,0.005251034291330442,0.9930244349854477
2017-03-13,1,0.00071716644655133,0.0010220772503030668,-0.004054141876017266,0.005251034291330442,0.9936633778010173
2017-03-15,1,0.001436709477909427,0.0018725656846619602,-0.005531077154477693,0.0029161752555313227,0.993992042473167
2017-03-17,1,0.001258958153922826,0.0016758961207638551,-0.005159315927820809,0.003114218901567359,0.9941817076356932
2017-03-21,1,0.001729360863399325,0.0022373770490433974,-0.005696157310239229,0.003114218901567359,0.9940143084515558
2017-03-23,1,0.0011726729308942628,0.0015348838576889332,-0.005389100619663223,0.003114218901567359,0.9940694690002981
2017-03-27,1,0.0015493758993913379,0.001975654395193425,-0.005389100619663223,0.0022517735458609006,0.9942591702834727
2017-03-29,1,0.001815098613773888,0.0022797057818135327,-0.006210965509078929,0.0022517735458609006,0.9938324939778501
2017-03-31,1,7.025547638331157e-05,0.00030208098831602953,-0.006210965509078929,0.0022517735458609006,0.994406473892643
2017-04-04,1,0.00019526226051788241,0.00045649017330573157,-0.004908757276204042,0.0025106064317735135,0.9947517006721379
2017-04-06,-1,-0.001272969979698412,-0.001215932236139838,-0.004908757276204042,0.004391525741002356,0.9918983065437472
2017-04-10,-1,-0.001946192133181179,-0.001745898076939583,-0.006210965509078929,0.0058628218674249746,0.9904873631254687
2017-04-12,-1,-0.0016598273408433592,-0.0015359691273086366,-0.004908757276204042,0.0058628218674249746,0.990860158417542
2017-04-17,-1,-0.0019909212837158083,-0.001819038560777154,-0.004833673426686619,0.0058628218674249746,0.9912429165711579
2017-04-19,-1,-0.0005718633470391094,-0.0004600148623687132,-0.0055053706170674795,0.004391525741002356,0.9912414671427475
2017-04-21,-1,-0.000300396357015681,-0.00015578065436859756,-0.0038775189462066256,0.004391525741002356,0.9914009138717339
2017-04-25,0,-2.428469640651141e-05,0.00017793751049540384,-0.0038775189462066256,0.014922128763303483,0.9898875320436815
2017-04-27,-1,-0.0006300451256669563,-0.0005613551672482898,-0.0030279882440448483,0.017778593056857184,0.988756810060635
2017-05-01,-1,-0.0006541614385648648,-0.0005371962691287849,-0.0030279882440448483,0.017778593056857184,0.9894412821317693
2017-05-03,-1,-0.0004470675820903794,-0.00031796265011073275,-0.0030584459443791863,0.017778593056857184,0.9894360937148637
2017-05-05,1,0.0004326439845833061,0.0006409224720904931,-0.00318053019434324,0.010386984167060633,0.9918697026578794
2017-05-09,1,0.0010371372243608507,0.0013635791816952057,-0.00318053019434324,0.00840839819278922,0.9929956149922906
2017-05-11,1,0.0008107913891705713,0.0010786229248796807,-0.00415721465422094,0.00840839819278922,0.9923253795525425
2017-05-15,1,0.0005022426408759088,0.0007150538058709807,-0.003273762097014678,0.009926606884327786,0.992156195525715
2017-05-17,1,0.0005359398624938081,0.0008016287120334618,-0.002998646118351772,0.011075121296920475,0.9922662277105347
2017-05-19,1,0.0012612094251875747,0.0016320140484901544,-0.003273762097014678,0.010861118735608327,0.9918985570051393
2017-05-23,1,0.0019148486002868025,0.00234617942557047,-0.003273762097014678,0.00840839819278922,0.9932509353491682
2017-05-25,1,0.0023749458334329223,0.0028427438700683073,-0.004460124314693199,0.007339069748710874,0.9928959288700768
2017-05-30,1,0.0028816436164922346,0.0034749343750240308,-0.007101802946985349,0.007339069748710874,0.9912913847835452
2017-06-01,1,0.002914181911020033,0.0034914087060275434,-0.007586769339073928,0.008021132102056037,0.9899942649282294
2017-06-05,1,0.0020110640881343053,0.002356743835336624,-0.007586769339073928,0.008021132102056037,0.9901113696249081
2017-06-07,1,0.0018052782252515954,0.0021111389950348486,-0.007586769339073928,0.010861118735608327,0.9895890012993294
2017-06-09,1,0.0016578023278585392,0.001962957575633846,-0.005116695682246019,0.010861118735608327,0.9900297187834654
2017-06-13,1,0.001682996405024615,0.0019589062746751544,-0.007241499863625821,0.009311976356876178,0.9897329723810624
2017-06-15,1,0.0021985307923638227,0.0025500690104141455,-0.007241499863625821,0.0093356717021289,0.9892343534380372
2017-06-19,1,0.001721887416130218,0.001995303614807952,-0.005116695682246019,0.008002190716142298,0.9903174162346099
2017-06-21,1,0.0015042775768972694,0.0017026103846579882,-0.005116695682246019,0.008002190716142298,0.9903382200087731
2017-06-23,1,0.002021082291552136,0.0022992824239802725,-0.004319854438277692,0.007576124668534291,0.9916802541903842
2017-06-27,1,0.0002918838217641558,0.0002948687425073416,-0.0028238308871550923,0.008002190716142298,0.9921907159073153
2017-06-29,1,0.0003179228384831293,0.0003663075218277499,-0.0028238308871550923,0.00794803686533873,0.9930760734299547
2017-07-03,1,0.0005524334784194798,0.000672398444546923,-0.0028238308871550923,0.00794803686533873,0.9925259481451689
2017-07-06,1,0.0010396893805460264,0.0012384018420994805,-0.0017584684991886954,0.007576124668534291,0.9936257624000385
2017-07-10,1,0.0008265962494584676,0.0009654008689498146,-0.0017584684991886954,0.007576124668534291,0.9935022497582319
2017-07-12,1,0.0007519872232427651,0.0008844950692988957,-0.0030217842434910993,0.007141432408698294,0.993558518536711
2017-07-14,1,0.0016309607133731332,0.001897329928846511,-0.0030217842434910993,0.007141432408698294,0.9934325912104037
2017-07-18,1,0.0016965370628044334,0.0019682436025241627,-0.0022643390979198907,0.007141432408698294,0.9938025152281803
2017-07-20,1,0.0009620979817972176,0.001025359189841103,-0.005427506712275029,0.005919487151946051,0.9930302065303008
2017-07-24,1,0.000835406190315765,0.0008736388837121639,-0.005427506712275029,0.006501270884777171,0.9927207635169899
2017-07-26,1,0.0034915847235641225,0.003938313836171723,-0.005427506712275029,0.006501270884777171,0.9924355235135925
2017-07-28,1,0.002670775328295871,0.002945303646306663,-0.004114280435435214,0.005884165549362233,0.9931231249318471
2017-08-01,1,0.002469057521497146,0.002726397857885706,-0.0034405736354677714,0.005599801623236302,0.9938495314394045
2017-08-03,1,0.002122769938193254,0.0023013268323630017,-0.0034405736354677714,0.005884165549362233,0.9933948714947214
2017-08-07,1,0.0021541439544616337,0.002357289910341786,-0.0025584515823012933,0.005884165549362233,0.9937130208128188
2017-08-09,1,0.0011855586608955026,0.0012258999500053406,-0.0005377956826631898,0.005884165549362233,0.9942204587072732
2017-08-11,1,0.0023659203601108674,0.0025676826811041444,-0.000803951504648473,0.005599801623236302,0.9956631346379925
2017-08-15,1,0.0022884196086528923,0.002468523892985219,-0.0013958213103953464,0.005599801623236302,0.9949398041750331
2017-08-17,1,0.002074127107406407,0.0022359507596485338,-0.0013958213103953464,0.005445979112090995,0.9952045709262669
2017-08-21,1,0.002513200943340863,0.0027426008991672532,-0.0025584515823012933,0.004948239702290274,0.9948346455717116
2017-08-23,1,0.002421718147254872,0.0025781855420091357,-0.0038249519023374695,0.0046970229292552425,0.9950648233973158
2017-08-25,1,0.0021928925094873153,0.0023036219597352913,-0.005830515568989555,0.0046970229292552425,0.9946624292919853
2017-08-29,1,0.0019701013797341553,0.0020297354950224262,-0.006045771223320026,0.0046970229292552425,0.9944441241810804
2017-08-31,1,0.0020910841616667585,0.0021610664410768544,-0.006045771223320026,0.0046970229292552425,0.9943116236570723
2017-09-05,1,0.0020170555211304797,0.002046685257313232,-0.006045771223320026,0.0037402548428767347,0.9943617239846637
2017-09-07,1,0.0015361699661722477,0.0015924154715767605,-0.006045771223320026,0.0037402548428767347,0.9944545068610432
2017-09-11,1,0.0014963309285168016,0.0015592923451049252,-0.006045771223320026,0.0033316131507935415,0.9946370667648917
2017-09-13,1,0.0011743685763551375,0.0012713075944648588,-0.00558184018627434,0.0033316131507935415,0.9951843556923866
2017-09-15,1,0.0007336196509354815,0.0008916454358625767,-0.0044867444636320425,0.0035244973099091475,0.9955148869779401
2017-09-19,1,0.0004634585381566558,0.0006656539562093839,-0.0027786866203397733,0.004406138829359445,0.9958510771106102
2017-09-21,-1,-0.0007291454779186836,-0.0003470097128491492,-0.0027596161196074263,0.004406138829359445,0.9961081726414308
2017-09-25,-1,-0.001104914415402761,-0.0006880121568605835,-0.002073980674194326,0.004834916419864,0.996323320033503
2017-09-27,0,-7.872332234687461e-05,0.00018357075814566298,-0.002073980674194326,0.0055375295032864084,0.9959445421914366
2017-09-29,1,0.0003014328557976961,0.0004976210389767382,-0.001826094140631207,0.004834916419864,0.9964338236249655
2017-10-03,1,2.0375872149393064e-06,0.0002450563266904038,-0.0011212616742832973,0.0055375295032864084,0.9956597150625662
2017-10-05,-1,-0.0003595994674719229,-4.190210878225113e-05,-0.002263839307885376,0.0055375295032864084,0.9954612154270835
2017-10-09,-1,-0.000929904116930255,-0.0005110821399817514,-0.0023925206867364815,0.0055375295032864084,0.995163858773128
2017-10-11,-1,-0.000567496213399032,-0.0002171166749004624,-0.0023925206867364815,0.005740639975287051,0.9950591815963192
2017-10-13,1,0.00029309367871355033,0.00041328792738572315,-0.002333321117838899,0.007323927697820329,0.9927702743277033
2017-10-17,1,0.0012785711374110969,0.0013251744872941904,-0.002333321117838899,0.008353029335037732,0.9923493552546732
2017-10-19,1,0.0007670524037994414,0.0007924645402874341,-0.0018893803518615572,0.008353029335037732,0.9916459032275773
2017-10-23,1,0.0010068471718319382,0.0010169411760704667,-0.002333321117838899,0.007300364620793945,0.9912735395088456
2017-10-25,1,0.0009527142001406641,0.0009577974115596933,-0.0005610265295632122,0.006923406844403046,0.9918614816795662
2017-10-27,1,0.0008652213577765468,0.0008948932139526172,-0.0005610265295632122,0.007174089571666592,0.991699126275184
2017-10-31,1,0.0011970261435839558,0.0012218080346597085,-0.002333321117838899,0.006923406844403046,0.99228402184477
2017-11-02,1,0.0009108718554095466,0.0009560998031876683,0.0002429205396397394,0.007174089571666592,0.9920126839016846
2017-11-06,1,0.0011297338105759065,0.0011326613920800404,0.0002429205396397394,0.007174089571666592,0.9918192665998291
2017-11-08,1,0.001102842764930679,0.001123865839697126,-0.0008052857241421554,0.007143433342385299,0.9911960332183702
2017-11-10,1,0.0031459447274006084,0.003400016721895812,-0.003523111951719531,0.006853857074071938,0.9931483460803114
2017-11-14,1,0.004154337917957626,0.004567941880379307,-0.003523111951719531,0.006578668585086551,0.9933447304974473
2017-11-16,1,0.0029766319144345276,0.003163079989959161,-0.003523111951719531,0.0070841023151479564,0.9936441902268024
2017-11-20,1,0.002177709464996338,0.0022289312379399073,-0.0011627545033534611,0.0070841023151479564,0.9944218735565417
2017-11-22,1,0.001913286743002879,0.0019150863422802559,-0.003235894976185606,0.0070841023151479564,0.9939989122748311
2017-11-27,1,0.0021907997646552694,0.002246165759900289,-0.003235894976185606,0.005593897535101685,0.9942016068985029
2017-11-29,1,0.002091102804699989,0.0021320603324151213,-0.0035673681905704835,0.006290324567628993,0.9933108697775499
2017-12-01,1,0.002413791947404797,0.002478132438531805,-0.004505660329538499,0.005937663416028152,0.993123935909699
2017-12-05,1,0.002773593489517207,0.0029312170577648292,-0.0035673681905704835,0.005937663416028152,0.9934282310470303
2017-12-07,1,0.0021321766260000907,0.0022040780893725466,-0.0030393468379676055,0.006216312019878055,0.9940688684579364
2017-12-11,1,0.0025311086350042113,0.002669212354591442,-0.0030393468379676055,0.006216312019878055,0.9924662981337583
