JNU-Tangyin/eata/results/Batch4_SP500/Batch4_SP500-GGG.csv
Date,Action,Predicted_Q25,Predicted_Q75,Actual_Q25,Actual_Q75,RL_Reward
2010-12-14,0,0.0,0.0025081644138428075,-0.005024264556947768,0.005960916972183204,0.9954936508438283
2010-12-16,1,0.002507841676649138,0.002810157816389442,-0.004082042359113958,0.005960916972183204,0.99369440774135
2010-12-20,1,0.002484091616111064,0.0027631744536449135,-0.004082042359113958,0.005960916972183204,0.993165728217236
2010-12-22,1,0.0028185054257847232,0.003153061949532793,-0.005024264556947768,0.005960916972183204,0.992417356986833
2010-12-27,1,0.006970403908514057,0.0077958565617156275,-0.004082042359113958,0.007113458624470003,0.991409804171318
2010-12-29,1,0.006431111065179671,0.007150481862934178,-0.004082042359113958,0.007337707748415921,0.9923475392241877
2010-12-31,1,0.005299172186540678,0.005822172778036533,-0.0019318115174318106,0.007592294541026328,0.9932945446955102
2011-01-04,1,0.004177297482688453,0.004379737991870365,-0.0030708930635933497,0.007337707748415921,0.9922556348213922
2011-01-06,1,0.0031754235708542256,0.0031799060640437973,-0.0019318115174318106,0.007337707748415921,0.9924789181145727
2011-01-10,1,0.003220859888706755,0.003270989698863884,0.00048759668249888344,0.007592294541026328,0.9922656879939269
2011-01-12,1,0.002809916557495665,0.0028707930829589843,-0.0019318115174318106,0.008082136154969624,0.9909189957847204
2011-01-14,1,0.0008038769678624603,0.0012508253179868002,0.00048759668249888344,0.009811289574751579,0.9904349524093895
2011-01-19,1,0.0018269188125170594,0.0021452259355976807,-0.002825357586745304,0.008082136154969624,0.9911616423773452
2011-01-21,1,0.0012949682753257026,0.0016834515264146973,-0.0028231363775191552,0.007794535222831089,0.9914283281551037
2011-01-25,1,0.0019029517755421285,0.002174520560636416,-0.008176169018540808,0.007794535222831089,0.9885940831956717
2011-01-27,1,0.0027890029544833505,0.0029131726677166904,-0.008176169018540808,0.007794535222831089,0.9882901444307968
2011-01-31,0,0.0,0.0,-0.013378817995212955,0.007456591830635703,0.9876404157252773
2011-02-02,0,-0.0004095185202579142,3.106698994789683e-05,-0.006320977742860836,0.009017730237862821,0.9879879853586373
2011-02-04,-1,-0.0004717125708663928,-2.0917898891810883e-05,-0.008061857696096665,0.009017730237862821,0.9872536072873652
2011-02-08,1,0.00038524165140939163,0.0007179936834145494,-0.008061857696096665,0.009017730237862821,0.9875013280775928
2011-02-10,0,0.0,0.0,-0.008061857696096665,0.009017730237862821,0.9870122641906391
2011-02-14,0,0.0,0.0,-0.010532862682146451,0.007733604349487254,0.9873330541111075
2011-02-16,0,0.0,0.0,-0.013652525631686847,0.009140408020650007,0.9863701354423365
2011-02-18,0,0.0,0.0,-0.013652525631686847,0.013730990165109553,0.9851938149001689
2011-02-23,-1,-0.0018620908413802546,-0.0013159809361289589,-0.005392211280037722,0.013730990165109553,0.9879352819326098
2011-02-25,-1,-0.0016126794632137648,-0.0010658775895322822,-0.005392211280037722,0.011946183276237254,0.9879040147706803
2011-03-01,-1,-0.0017645208202713373,-0.001242577765132903,-0.002398445455341543,0.011946183276237254,0.9878753901964806
2011-03-03,1,6.736005109423088e-05,0.00035661892363967587,-0.002398445455341543,0.012532894870677883,0.9886795956270182
2011-03-07,-1,-0.0009571865466265635,-0.0005440147992461627,-0.003155955733773834,0.012532894870677883,0.9890472290420615
2011-03-09,1,1.4723628734868545e-05,0.00027570550858811184,-0.004099226152204261,0.011719598851839819,0.9897831430773548
2011-03-11,-1,-0.0007105737100230626,-0.00035383574499484494,-0.005181762407131259,0.01107671187756242,0.9908132534370059
2011-03-15,-1,-0.0007506754054301805,-0.000436656438739403,-0.006788270523686447,0.01107671187756242,0.9906358643929012
2011-03-17,-1,-0.0004361806512462736,-0.00018840172951361687,-0.006788270523686447,0.010753259158168181,0.99123756141564
2011-03-21,0,0.0,0.0,-0.007424141325334883,0.009443058478442231,0.9894995092666337
2011-03-23,0,-3.9721335746343265e-05,8.718655444374916e-05,-0.007424141325334883,0.010902364639100577,0.9889594507121171
2011-03-25,0,0.0,0.0,-0.007424141325334883,0.009845850237008786,0.9888112387306774
2011-03-29,1,0.0003665960172336845,0.0004482088527506243,-0.007424141325334883,0.012392126030245382,0.988227310976914
2011-03-31,0,0.0,0.0,-0.007655042954229623,0.009931665820973719,0.9857004181209453
2011-04-04,0,0.0,0.0,-0.007424141325334883,0.009931665820973719,0.9857479211588605
2011-04-06,0,0.0,0.0,-0.008040926149673812,0.009931665820973719,0.9847293899654392
2011-04-08,0,0.0,0.0,-0.0068364847423117575,0.011708032171546078,0.9849428749519211
2011-04-12,0,0.0,0.0,-0.006539371182553029,0.013327818843006371,0.9846309085185144
2011-04-14,0,0.0,0.0,-0.006032654666783286,0.013327818843006371,0.9848549562494063
2011-04-18,1,0.00013947395403238487,0.00032730651377170755,-0.006866242864269274,0.011708032171546078,0.9865851589219446
2011-04-20,1,0.00042118709682738585,0.0005665811141993108,-0.006866242864269274,0.015310867873375475,0.9855537143631993
2011-04-25,0,0.0,0.0,-0.00932677451012595,0.012369048515002446,0.985274408388968
2011-04-27,0,0.0,0.0,-0.00932677451012595,0.01207259153206185,0.9853880091222378
2011-04-29,1,0.003762082421843351,0.004125053810336022,-0.006866242864269274,0.009753193368866587,0.9889226070151602
2011-05-03,0,0.0,0.0,-0.009574501582437563,0.01207259153206185,0.9879355899638074
2011-05-05,1,0.003731797423119111,0.004072059014200703,-0.008948472618433368,0.01207259153206185,0.9892366357495781
2011-05-09,1,0.003991383274780514,0.004371789371962773,-0.009791107313510279,0.010431599599580395,0.9885767236320997
2011-05-11,1,0.003952238847422655,0.004317637674394708,-0.009791107313510279,0.007312712738939647,0.9892128716708002
2011-05-13,1,0.004224710598280065,0.004630219148773003,-0.012572537544992258,0.007077599926140574,0.9875762092316736
2011-05-17,1,0.0029103287190830524,0.003151501851888497,-0.010088380228559804,0.010431599599580395,0.9883292144248973
2011-05-19,1,0.0037633724215132376,0.004094009108330852,-0.010088380228559804,0.005821302623666769,0.9894626473860187
2011-05-23,1,0.002728622145694611,0.002908405231752389,-0.009264169321189258,0.010431599599580395,0.9895675488907563
2011-05-25,1,0.002583312899648057,0.002712852204320564,-0.010017645231952704,0.007077599926140574,0.9895387924509311
2011-05-27,1,0.0028699479280228308,0.003038860084527292,-0.010746133479923417,0.005821302623666769,0.9892301220748997
2011-06-01,1,0.002891946227762471,0.0030508660406230216,-0.00980427165222902,0.007746249030845153,0.9898535351393752
2011-06-03,1,0.0024432471697984435,0.0025295051600941346,-0.00980427165222902,0.01222625212207808,0.9895317632199697
2011-06-07,1,0.0018862588740648936,0.0019061954650498724,-0.005917210420109094,0.014240286530578206,0.9886617807504191
2011-06-09,1,0.0017830650573668959,0.0017887878458272884,-0.005455013513363463,0.014240286530578206,0.9888197598644294
2011-06-13,1,0.001065868778241249,0.001110257965205266,-0.005697842929353701,0.014240286530578206,0.9879128083696918
2011-06-15,1,0.0012272371487973685,0.0012503156755351759,-0.005697842929353701,0.012653489360555263,0.9881016295682294
2011-06-17,1,0.0013413266008377345,0.0013424981655024495,-0.010746133479923417,0.012653489360555263,0.9877596842799493
2011-06-21,1,0.0026678444376949523,0.00286272879969406,-0.010746133479923417,0.012023204889683475,0.9884397390856962
2011-06-23,1,0.002128283921474782,0.0022572404235841996,-0.005697842929353701,0.012023204889683475,0.9890118169866671
2011-06-27,1,0.0007019341533231554,0.0008449210815916863,-0.005968708696404868,0.012023204889683475,0.988572231511852
2011-06-29,1,0.0015540976535226153,0.0016157795635756236,-0.016196367026756513,0.006817826133539823,0.984019434250483
2011-07-01,1,0.002654738346696849,0.0027739706233385437,-0.016196367026756513,0.0006416732571186374,0.983539915720618
2011-07-06,1,0.0038767699497970903,0.004150541680331862,-0.022132753048590255,-0.0003470463022176256,0.9820082355085077
2011-07-08,1,0.0038014679822387983,0.004102163145867262,-0.026444053575015666,-0.0003470463022176256,0.9789452248696283
2011-07-12,1,0.0019110839763457224,0.0019669951399838444,-0.030042398886207407,-8.575074636034416e-05,0.9742655258222642
2011-07-14,1,0.0007956182687313193,0.000864408293597148,-0.04147993262610128,0.0012212080308485254,0.9712537403837772
2011-07-18,-1,-0.0008875041019107562,-0.0005253242901788195,-0.04147993262610128,0.00876181141921042,0.9706073285132134
2011-07-20,0,-0.000199780577167141,5.58758788585809e-05,-0.04147993262610128,0.004676142328065908,0.969188910474079
2011-07-22,-1,-0.0005280562660110605,-0.00019909276211456807,-0.044204295720618,0.0012212080308485254,0.9650717647118053
2011-07-26,-1,-0.0005350292861360784,-0.000277094152475857,-0.044204295720618,0.01670006022091335,0.9625384276183087
2011-07-28,-1,-0.004243427513634838,-0.0035165186008045525,-0.041390940812291985,0.019409063825142178,0.9651957992680604
2011-08-01,-1,-0.004766816337862462,-0.003992329050143089,-0.041390940812291985,0.025248685273629896,0.9612881184411542
2011-08-03,-1,-0.006298156288411276,-0.005328867223415307,-0.03846482023035482,0.025248685273629896,0.9625799527217346
2011-08-05,-1,-0.008640562585623165,-0.007383894762113411,-0.03779271077662041,0.025248685273629896,0.9632918547229847
2011-08-09,-1,-0.00935587965820146,-0.008017203093497655,-0.032616565207137425,0.025248685273629896,0.9686232729156943
2011-08-11,-1,-0.007589969279801482,-0.006521850186083091,-0.032616565207137425,0.021146109094851227,0.9710158461894397
2011-08-15,-1,-0.006501394260928813,-0.005549562737453671,-0.032616565207137425,0.023312625549845006,0.9714995996413175
2011-08-17,-1,-0.0077044591827042826,-0.006646841495619737,-0.02767027479778038,0.02709640810546026,0.9706775812977204
2011-08-19,-1,-0.0104897650555664,-0.009125823352775335,-0.015936232895561134,0.02709640810546026,0.9733670124719112
2011-08-23,-1,-0.00710811199281447,-0.00620276149661737,-0.027780192076775338,0.02191341389202333,0.9750363500483419
2011-08-25,-1,-0.008091786181726117,-0.007056558169433787,-0.027533023375923827,0.026353369322657322,0.9748445869673205
2011-08-29,-1,-0.005196667212768734,-0.004490552016748876,-0.027533023375923827,0.020214996861615854,0.9767270501114655
2011-08-31,-1,-0.005083030718525759,-0.0043650939652144635,-0.037294776295169765,0.020214996861615854,0.9750532963287217
2011-09-02,-1,-0.00736767654870144,-0.00635717271964552,-0.037294776295169765,0.020214996861615854,0.9741423072570966
2011-09-07,-1,-0.006486690390151114,-0.0055748553743937765,-0.037294776295169765,0.020214996861615854,0.9723704199041086
2011-09-09,-1,-0.008501695281240899,-0.007401167983972873,-0.032488065649152804,0.023299894071880583,0.9724082553519053
2011-09-13,-1,-0.0067716729583776,-0.005911496493597267,-0.032488065649152804,0.023299894071880583,0.9721705261473071
2011-09-15,-1,-0.004604605288876151,-0.0040442285128191565,-0.032488065649152804,0.023042712092300043,0.9726841199120783
2011-09-19,-1,-0.0043113027030079005,-0.0038189295957817863,-0.032488065649152804,0.023042712092300043,0.9711119411153071
2011-09-21,-1,-0.005487586022142712,-0.004993711550771334,-0.015582411435442428,0.0255818233839157,0.9725096605781912
2011-09-23,-1,-0.005545704448506397,-0.005038532804598067,-0.01549463923270361,0.025670261087710408,0.9737279399736374
2011-09-27,-1,-0.0038170807611020386,-0.0034739090858397063,-0.015582411435442428,0.02490024413900101,0.974719454561984
2011-09-29,-1,-0.004013576085070945,-0.0036763599470526873,-0.01549463923270361,0.026365587916764174,0.9723076328942847
2011-10-03,-1,-0.0069062745626450265,-0.006274129633713432,-0.012184554340950546,0.026365587916764174,0.9740900102942078
2011-10-05,-1,-0.0034796455987105967,-0.003273926191485413,-0.01549463923270361,0.02490024413900101,0.9764730485077279
2011-10-07,-1,-0.002860593964332259,-0.002674036811796036,-0.01549463923270361,0.026365587916764174,0.9758786868017293
2011-10-11,-1,-0.0006335578144947773,-0.0004730428936917021,-0.01549463923270361,0.02490024413900101,0.9775385068698981
2011-10-13,-1,-0.0005947889658540879,-0.000473374456982372,-0.015545095938518855,0.023005374642377285,0.9769597898902623
2011-10-17,0,0.0,0.0,-0.015679443281113155,0.026365587916764174,0.9763358393149052
2011-10-19,0,0.0,0.0,-0.015961636086815386,0.023005374642377285,0.9778470922762129
2011-10-21,1,0.001018218314834123,0.0013490257894377235,-0.016342229357748567,0.02186205787753251,0.9782341221004888
2011-10-25,1,0.0014293735428963074,0.001806643865368015,-0.016680616233310137,0.020705978225935236,0.9791288129444252
2011-10-27,0,0.0,0.0,-0.01906569218577304,0.004145737511400165,0.9807787492299508
2011-10-31,0,0.0,0.0,-0.016680616233310137,0.009138586620589896,0.9792987042583119
2011-11-02,0,0.0,0.0,-0.015961636086815386,0.009138586620589896,0.978531543131058
2011-11-04,0,0.0,0.0,-0.015961636086815386,0.00627492403782887,0.9801570944908157
2011-11-08,1,0.007528771456436302,0.008891232754650874,-0.015961636086815386,0.003833045065706787,0.9780600668554119
2011-11-10,0,0.0,0.0,-0.015961636086815386,0.00627492403782887,0.9803679819638567
2011-11-14,0,0.0,0.0,-0.019928291067036447,0.003833045065706787,0.979862920513175
2011-11-16,0,0.0,0.0,-0.02634870323607865,0.003833045065706787,0.9783194355148221
2011-11-18,0,0.0,0.0,-0.02230981519377416,0.003833045065706787,0.9796886109009298
2011-11-22,1,0.0037936210977152444,0.004628280308549318,-0.02230981519377416,0.00517943756974675,0.977622902406478
2011-11-25,1,0.0028539850737475986,0.0036435544364660025,-0.012249439860611767,0.01052532747477353,0.9806536196516321
2011-11-29,1,0.004597972183288831,0.005624661295618526,-0.012249439860611767,0.009914874981960227,0.982077795489181
2011-12-01,1,0.0054306699025162275,0.006493285775908198,-0.011094903024690846,0.009914874981960227,0.9836067756878234
2011-12-05,1,0.005489646758750345,0.006518369546503052,-0.011094903024690846,0.010126100906785,0.9834155035469512
2011-12-07,1,0.005207951213685479,0.006180890593368704,-0.02230981519377416,0.010126100906785,0.982467856451342
2011-12-09,1,0.00525867595515142,0.006273187373377385,-0.011094903024690846,0.010126100906785,0.984906351241792
2011-12-13,0,0.0,0.0,-0.00538926300766241,0.011434812174362386,0.9866587159783878
2011-12-15,0,0.0,0.0,-0.0042065204508726335,0.01231479787564307,0.9878552433703769
2011-12-19,1,0.03300082093081384,0.03957231419334406,-0.0042065204508726335,0.016061813078332703,0.9721387963110749
2011-12-21,1,0.0015582723913533548,0.0018672633413854749,-0.005136577355451012,0.013247720035467318,0.9877801917691001
2011-12-23,1,0.0019539733987922886,0.0022619459539396326,-0.005136577355451012,0.013247720035467318,0.9881361344792182
2011-12-28,1,0.0009186673250272583,0.0009782773332529062,-0.004854757213591394,0.013247720035467318,0.9879093214760978
2011-12-30,1,0.0009226425491499007,0.0009254258090111066,-0.0012604225999869063,0.013247720035467318,0.9871378262099684
2012-01-04,1,0.001580476676027084,0.0017042397590367284,-0.004854757213591394,0.016061813078332703,0.9846651106366326
2012-01-06,1,0.0012644284351534711,0.0014140179968175405,-0.0033806827895027933,0.019302333075206905,0.9848589262666751
2012-01-10,1,0.0004996658994686848,0.0005383118942955276,-0.0035526822117631124,0.019302333075206905,0.9850969651578375
2012-01-12,-1,-0.00043664622981220817,-0.0001215643169479875,-0.0035526822117631124,0.016061813078332703,0.9865711273084902
2012-01-17,1,0.0012018554389412778,0.0012111615601939564,-0.0035526822117631124,0.017837100384728122,0.986457423680015
2012-01-19,1,0.0018721167955543891,0.0019021672241810983,-0.004344579192693247,0.014000480712834109,0.9864701147001216
2012-01-23,1,0.0024868834766207807,0.0027500425560231046,-0.004344579192693247,0.015468839130557095,0.9868634435990502
2012-01-25,1,0.0029491628767456517,0.0032865965045577516,-0.004344579192693247,0.020389733980693582,0.9861410153421328
2012-01-27,1,0.0017007772378190853,0.0017608773188455902,-0.003571201987290877,0.020389733980693582,0.9861134409007573
2012-01-31,1,0.003499083881772741,0.0038401810988294128,-0.0044276214048648765,0.015468839130557095,0.9875805684126139
2012-02-02,0,0.0,0.0,-0.0044276214048648765,0.011398102575293965,0.9902474363552455
2012-02-06,0,0.0,0.0,-0.005351208578052921,0.008501704316398316,0.9896034756036204
2012-02-08,0,0.0,0.0,-0.005351208578052921,0.011398102575293965,0.9888712583810724
2012-02-10,0,0.0,0.0,-0.005351208578052921,0.014512962435646497,0.9879659613729213
2012-02-14,1,0.0023958846868543005,0.0025942132179394995,-0.007416075657202448,0.014512962435646497,0.9884359046764151
2012-02-16,0,0.0,0.0,-0.005351208578052921,0.011398102575293965,0.9894154377095005
2012-02-21,0,0.0,0.0,-0.005945489347416773,0.008501704316398316,0.9895468954522014
2012-02-23,0,0.0,0.0,-0.009412706696949961,0.007467238161061034,0.9898328239834909
2012-02-27,0,0.0,0.0,-0.009412706696949961,0.008150341622821014,0.9891780790019506
2012-02-29,1,0.0018009751222046394,0.0018290027233834778,-0.009412706696949961,0.011971698814799364,0.9886446703452285
2012-03-02,1,0.0019116916141236869,0.0019222867434936664,-0.00911532318229662,0.014230316672235697,0.9890096519712956
2012-03-06,0,0.0,0.0,9.50329553850493e-05,0.016191629713997353,0.9898873301305927
2012-03-08,0,0.0,0.0,9.50329553850493e-05,0.014216276192180584,0.9908679124843401
2012-03-12,1,0.001995721357860851,0.002040527433610788,-0.00911532318229662,0.008903214241966457,0.9898926152691494
2012-03-14,1,0.002161895279497866,0.0022441811504871584,-0.0024167390726066084,0.013149803626862615,0.9899188267949828
2012-03-16,1,0.002563682224050128,0.0027143943798069257,-0.005239071030130375,0.014216276192180584,0.9885610966486167
2012-03-20,1,0.002159948821920973,0.0022574943499296335,-0.0011339433311064581,0.01631989538944761,0.9882427603581497
2012-03-22,1,0.0029782344428110944,0.003319968306248324,-0.0008551882841628059,0.01631989538944761,0.988308815208553
2012-03-26,1,0.0029834581687560135,0.003294510905842446,-0.005239071030130375,0.015139061299644322,0.9873387947699647
2012-03-28,1,0.0030263514440272282,0.0033156943154763583,-0.005874733475859275,0.015139061299644322,0.9841851002802917
2012-03-30,1,0.0033185820919822903,0.0037199492373756436,-0.009738325997414022,0.016542683061606372,0.9827208514240772
2012-04-03,1,0.003815383298504625,0.004296245168962253,-0.009738325997414022,0.015504155127308456,0.9833005048403303
2012-04-05,1,0.003120836846810171,0.0034305202552584804,-0.01271693470264898,0.015504155127308456,0.9819348947781081
2012-04-10,1,0.002075168804163042,0.0022631150093612687,-0.00915853689913964,0.015504155127308456,0.9843738468379991
2012-04-12,0,0.0,0.0,-0.009746688213742291,0.0076570719678048715,0.9847582913622657
2012-04-16,0,0.0,0.0,-0.012284777115706018,0.0054928856190340075,0.9845663999151407
2012-04-18,0,0.0,0.0,-0.012284777115706018,0.005077542033810659,0.9856096489628188
2012-04-20,0,0.0,0.0,-0.012284777115706018,0.004760539372292059,0.9853980091398795
2012-04-24,1,0.03237587215690142,0.0359261537528182,-0.009746688213742291,0.004760539372292059,0.9630412665235777
2012-04-26,0,0.0,0.0,-0.00915853689913964,0.00529196013628651,0.9896587697245717
2012-04-30,0,0.0,0.0,-0.00454970672432399,0.00529196013628651,0.9911030037687685
2012-05-02,0,0.0,0.0,-0.011527791782468414,0.00529196013628651,0.9880462169180706
2012-05-04,0,0.0,0.0,-0.011527791782468414,0.00529196013628651,0.9874814094229045
2012-05-08,0,0.0,0.0,-0.011527791782468414,0.006295998080797436,0.9860387654885162
2012-05-10,0,0.0,0.0,-0.005975122308502089,0.0075889578735534365,0.9859818973581417
2012-05-14,0,0.0,0.0,-0.005975122308502089,0.009531686730822244,0.985911207181089
2012-05-16,0,0.0,0.0,-0.016117081996007587,0.009531686730822244,0.9842369442071052
2012-05-18,-1,-0.003628838701088198,-0.0029022035114694526,-0.005975122308502089,0.010297019274984399,0.9838862814180129
2012-05-22,-1,-0.0031945432638890788,-0.0025050048967856075,-0.00982454180426386,0.010297019274984399,0.9844277572380328
2012-05-24,-1,-0.0024874794992428857,-0.001902761982455004,-0.016117081996007587,0.010297019274984399,0.9835825457729073
2012-05-29,-1,-0.0013978457010907646,-0.00093888218904937,-0.024305512764409575,0.00781733653246275,0.983278227407373
2012-05-31,-1,-0.003953677398279389,-0.0031145920075211038,-0.01729968063914982,0.00781733653246275,0.9855951078470462
2012-06-04,-1,-0.005820676649813877,-0.004814555035148188,-0.014031520133537149,0.010297019274984399,0.9834269213763628
2012-06-06,-1,-0.002941383941021894,-0.0022759957621129646,-0.014031520133537149,0.010297019274984399,0.9841431105369489
2012-06-08,-1,-0.0028453066731576266,-0.0021996062154621037,-0.01729968063914982,0.007978803347486772,0.983622932859282
2012-06-12,-1,-0.0010683779086859224,-0.0006951764806664999,-0.016238070447526776,0.0060909019869080806,0.9841321894366378
2012-06-14,-1,-0.0032228758654871095,-0.002573369771462403,-0.015128544775193667,0.007978803347486772,0.9846572872511182
2012-06-18,-1,-0.0038236308434037502,-0.0031755200489956446,-0.015128544775193667,0.006823224108340474,0.9849357445913012
2012-06-20,-1,-0.0042171610589438495,-0.003519471629742724,-0.015128544775193667,0.0073591230846080866,0.9848137459502477
2012-06-22,-1,-0.0033557951370149935,-0.002789015941949878,-0.014031520133537149,0.0073591230846080866,0.986081514191756
2012-06-26,0,0.0,0.0,-0.014031520133537149,0.0073591230846080866,0.9850152570936203
2012-06-28,0,0.0,0.0,-0.011946527850244214,0.010226216404474459,0.982367551674726
2012-07-02,-1,-0.004075481624721601,-0.0035196928154410632,-0.01126593600410126,0.008214112669049346,0.9847831600209638
2012-07-05,-1,-0.0031153511044617584,-0.002680459273017917,-0.01126593600410126,0.007116769844845267,0.9860978812887923
2012-07-09,-1,-0.003825310458451383,-0.0033458245602036732,-0.010280561816532916,0.009765612947848947,0.9850228211928563
2012-07-11,-1,-0.004629787096775812,-0.004062160063846291,-0.003108061357750097,0.01348369455137985,0.9842027819555396
2012-07-13,-1,-0.004265939882896425,-0.003755237030404481,0.00044089874341476704,0.01348369455137985,0.9839891903531321
2012-07-17,-1,-0.00387894015922416,-0.0034448811942778407,-0.003108061357750097,0.01348369455137985,0.9841454947806144
2012-07-19,0,0.0,0.0,-0.003108061357750097,0.01348369455137985,0.9854971179539455
2012-07-23,0,0.0,0.0,-0.003108061357750097,0.01348369455137985,0.9851815390751653
2012-07-25,0,0.0,0.0,0.00044089874341476704,0.01348369455137985,0.9867014741485555
2012-07-27,0,0.0,0.0,-0.0033340950506654914,0.009468276533585403,0.9899094807955834
2012-07-31,0,0.0,0.0,-0.005542431901895547,0.009468276533585403,0.9898730074658525
2012-08-02,0,0.0,0.0,-0.005542431901895547,0.009468276533585403,0.9896764456374251
2012-08-06,1,8.678651871630097e-05,0.0001849425636768995,-0.005542431901895547,0.008471563653354618,0.9905543014390692
2012-08-08,1,0.001160072567304151,0.001417676446443221,-0.005542431901895547,0.008471563653354618,0.9905276865793443
2012-08-10,1,0.002043729759760616,0.0023901442022168876,-0.0073869619600497585,0.008094667982778903,0.99139661103448
2012-08-14,1,0.001009313116620558,0.0011924099415035734,-0.003924286929042318,0.008094667982778903,0.9925765869507414
2012-08-16,1,0.0018727575861590148,0.0022002567939182964,-0.003924286929042318,0.007844273609266754,0.9924639764502559
2012-08-20,1,0.0018866943045307727,0.002230207701974799,-0.003471527553619837,0.006762263761379039,0.9928549444539747
2012-08-22,1,0.0023972868978986927,0.002832835581408119,-0.005032661337504816,0.0052883076262387006,0.9917924229334066
2012-08-24,1,0.0024983896357151413,0.00297545390899748,-0.005247947284384132,0.005480697005534942,0.9919306610909127
2012-08-28,1,0.002417391121164107,0.0028921775750743407,-0.006075300789374004,0.005480697005534942,0.9906718088649806
2012-08-30,1,0.0011159879428433417,0.001363395623130319,-0.005247947284384132,0.007935747870680217,0.9910192148234301
2012-09-04,1,0.002271866658857332,0.0027134561499579323,-0.006075300789374004,0.004518106548561284,0.9909019252740612
2012-09-06,1,0.0031196836543336453,0.0037537404358407743,-0.008405565497316178,0.004518106548561284,0.9914391071445899
2012-09-10,1,0.003835739749226391,0.0045815302979122004,-0.007330640751102695,0.004070445741629394,0.9912147046513777
2012-09-12,1,0.0035651154075001298,0.00424532267636743,-0.011017127712117838,0.004070445741629394,0.9899541887678305
2012-09-14,1,0.004043404146770738,0.004805740146410049,-0.011017127712117838,0.0015986644823319537,0.9895213673861963
2012-09-18,1,0.0037827690333186548,0.004560613357309726,-0.011017127712117838,0.004070445741629394,0.989714042007207
2012-09-20,1,0.0034672487659848763,0.00424913509540205,-0.01042082392833317,0.0049593325882641695,0.9897655454952646
2012-09-24,1,0.003661679058360893,0.00448519356274771,-0.011374958146042537,0.004319282402036039,0.9885645821279991
2012-09-26,1,0.002214173831734327,0.0028021337385240484,-0.010028372736307188,0.004319282402036039,0.9899749140000949
2012-09-28,1,0.0028118019777040562,0.003489895178535088,-0.010028372736307188,0.004319282402036039,0.9900565745822413
2012-10-02,1,0.002274904648698881,0.002874715586528907,-0.008644246382083335,0.006194402868444331,0.989256264242255
2012-10-04,1,0.0016137097326836345,0.0020465250746714734,-0.008763586339688705,0.008578837717058136,0.9887905755801564
2012-10-08,1,0.0016283218120804865,0.0020645112348606793,-0.01042082392833317,0.01572801868747433,0.9873749740102019
2012-10-10,1,8.409666548581357e-05,0.0002615917408266148,-0.008798017658898576,0.01572801868747433,0.9877238819076114
2012-10-12,0,0.0,0.0,-0.010822991912042038,0.01572801868747433,0.9870951376405808
2012-10-16,1,0.0018199858617664643,0.0021842933633452405,-0.012660493023791288,0.008578837717058136,0.9860325468865488
2012-10-18,0,0.0,0.0,-0.012660493023791288,0.008578837717058136,0.9866599804668379
2012-10-22,0,0.0,0.0,-0.009096891684977832,0.015587395942182931,0.9862903938021387
2012-10-24,0,0.0,0.0,-0.0063567815761577835,0.015587395942182931,0.9860532091750333
2012-10-26,0,0.0,0.0,-0.0063567815761577835,0.015587395942182931,0.9863008663740624
2012-11-01,1,0.0021170025203672057,0.0024334294257520117,-0.008354896179743589,0.010500264078208553,0.9883848744030423
2012-11-05,1,0.0020335312939140067,0.0023219013872796913,-0.005299491253445457,0.009601244502493502,0.9889787231284239
2012-11-07,1,0.001090491880960927,0.0011774905891783938,-0.004590598198383691,0.009601244502493502,0.9893757846311052
2012-11-09,0,0.0,0.0,-0.0012892699750712195,0.009601244502493502,0.9899373409197069
2012-11-13,0,0.0,0.0,-4.899242740286964e-05,0.009601244502493502,0.9905574252001111
2012-11-15,0,0.0,0.0,-4.899242740286964e-05,0.009601244502493502,0.9919469323408324
2012-11-19,-1,-0.0029115870149547833,-0.0023936726568061554,-4.899242740286964e-05,0.010232597198892723,0.9902071271307826
2012-11-21,-1,-0.002032638708311824,-0.001594237904433326,-0.0005749606457159304,0.009158437722827293,0.9920372263213432
2012-11-26,-1,-0.0005410925988647105,-0.00033981902818341415,-0.0024804828125018913,0.008065194884147007,0.9929148756467462
2012-11-28,1,0.00010665158972767073,0.0001868819216843695,-0.0052090574861974655,0.008065194884147007,0.9925663895849292
2012-11-30,-1,-0.0009716983649771208,-0.0006824903673272309,-0.0052090574861974655,0.00900679962277714,0.9921608393748615
2012-12-04,-1,-0.001548507461753664,-0.001142382917438548,-0.00303465981951592,0.00954901846219232,0.9906884779089856
2012-12-06,-1,-0.0005566133911858295,-0.00026563108499797026,-0.00751707820427427,0.008065194884147007,0.9915931291875587
2012-12-10,-1,-0.0005166106082091541,-0.00021391455659337658,-0.00751707820427427,0.008790706373970301,0.9908217539683356
2012-12-12,0,-4.1619283425214405e-05,0.0001806718046305951,-0.009577043422511419,0.008790706373970301,0.9905714559396921
2012-12-14,-1,-0.000998663842613756,-0.0006427011342862286,-0.009341402413278138,0.008790706373970301,0.9905251493890703
2012-12-18,-1,-0.000959220529490754,-0.0005344149785064727,-0.009341402413278138,0.007925418299421281,0.9907827010125906
2012-12-20,1,0.0009359323727906811,0.0009860428342397091,-0.009341402413278138,0.008390079206772321,0.9903995711211524
2012-12-24,0,0.0,0.0,-0.006386099603292772,0.009721842393844708,0.9905290585046543
2012-12-27,0,0.0,0.0,-0.006386099603292772,0.009721842393844708,0.9906154447298563
2012-12-31,1,0.0003700533858767414,0.0004166434878476367,-0.006386099603292772,0.009745629571159065,0.9887756591800942
2013-01-03,0,0.0,0.0,-0.006386099603292772,0.008390079206772321,0.9901532740825233
2013-01-07,0,0.0,0.0,-0.0026647432214091374,0.009597934116252078,0.9898710577908951
2013-01-09,0,0.0,0.0,-0.0026647432214091374,0.008390079206772321,0.990786022504234
2013-01-11,0,0.0,0.0,-0.001006409503161821,0.008390079206772321,0.9909433940519492
2013-01-15,0,0.0,0.0,0.0006692285028137828,0.008390079206772321,0.991184881278861
2013-01-17,0,0.0,0.0,-0.0007898632887390954,0.00686814673783615,0.9922138162380043
2013-01-22,0,0.0,0.0,-0.0017464129003865857,0.005964454709522943,0.9921556711095779
2013-01-24,0,0.0,0.0,-0.004054385261902079,0.005964454709522943,0.9913574061779558
2013-01-28,1,0.0015260526192127952,0.0016922882096287793,-0.004054385261902079,0.00686814673783615,0.990087392486322
2013-01-30,1,0.004140654083419944,0.00467020555076559,-0.0017464129003865857,0.00686814673783615,0.9924583658104752
2013-02-01,0,0.0,0.0,-0.0030879213704752702,0.0060144639632083215,0.9921309197172493
2013-02-05,0,0.0,0.0,-0.002607482831427276,0.0060144639632083215,0.9922519429761427
2013-02-07,0,0.0,0.0,-0.003722215233792811,0.008094647991759305,0.9912293850705788
2013-02-11,0,0.0,0.0,-0.003722215233792811,0.008094647991759305,0.9915098511773909
2013-02-13,0,0.0,0.0,-0.003722215233792811,0.006918206595262555,0.991690869503423
2013-02-15,0,0.0,0.0,-0.004314057575634168,0.006918206595262555,0.9914768773128241
2013-02-20,0,0.0,0.0,-0.004314057575634168,0.007687881617725779,0.9915022562229119
2013-02-22,0,0.0,0.0,-0.005669994468409352,0.004400494308792719,0.9915927213958512
2013-02-26,0,0.0,0.002872688456868676,-0.005669994468409352,0.004400494308792719,0.9938868025364705
2013-02-28,0,0.0,0.0,-0.005669994468409352,0.004400494308792719,0.9931161589754287
2013-03-04,0,0.0,0.0,-0.0074623519779237505,0.004400494308792719,0.9927068127011323
2013-03-06,0,0.0,0.0,-0.008691795411883182,0.0037546517317893473,0.992874320554348
2013-03-08,1,0.0018064298123498276,0.0019611437598940273,-0.008691795411883182,0.002323126602948598,0.9935054089824331
2013-03-12,1,0.0016008127932951827,0.0017081463005077981,-0.008691795411883182,0.004538291602504137,0.992325291623365
2013-03-14,1,0.0020868657454414605,0.002297119292316043,-0.010284975783911729,0.004538291602504137,0.9914242506640074
2013-03-18,0,0.0,0.0,-0.011452187053939002,0.006922968768950948,0.9891089079630303
2013-03-20,0,0.0,0.0,-0.01183365396841964,0.004985441037940833,0.9886325554236247
2013-03-22,-1,-0.0002704537884972005,-2.2481052882603004e-05,-0.010284975783911729,0.006876444719526237,0.9895631741896516
2013-03-26,-1,-0.0004422601385244832,-0.00017340734224771692,-0.00680787791180408,0.008704985406794017,0.9892893506743229
2013-03-28,1,0.0007301786176491451,0.0007837844185500481,-0.00680787791180408,0.008704985406794017,0.9869560539083382
2013-04-02,1,0.00018671391555775106,0.0002899721653773559,-0.003799399266315959,0.010309064806869857,0.9869129737229906
2013-04-04,-1,-0.0003601556731315902,-0.00018951501111949093,-0.003799399266315959,0.012528858155827395,0.9853483085290001
2013-04-08,-1,-0.0009713153624702885,-0.0007001456037903503,-0.0014693309088390574,0.014143239713194759,0.9836238362832117
2013-04-10,-1,-0.0002688317793536869,-5.302327486713949e-05,-0.0033214874910384284,0.013423032827865475,0.9846875478616504
2013-04-12,-1,-0.0017024943600931792,-0.001257405915829159,-0.002398498094807768,0.013423032827865475,0.9848938179516435
2013-04-16,-1,-0.0027027893051653033,-0.0021660705235356237,-0.002398498094807768,0.012528858155827395,0.9868175466937137
2013-04-18,-1,-0.0030052232765315494,-0.002480585159537409,-0.001006757804328311,0.012528858155827395,0.9872177722251276
2013-04-22,-1,-0.002332317263943702,-0.0019139582785407954,-0.001006757804328311,0.012528858155827395,0.987635037887181
2013-04-24,-1,-0.0016106479078041855,-0.0012802482878778248,-0.0017364138980501343,0.01224000860475103,0.9880701930250322
2013-04-26,-1,-0.0007829697404265458,-0.0005423403541671313,-0.002416551665340733,0.011467190458339943,0.9907751147208639
2013-04-30,-1,-0.0002471704769378255,-7.805116550656076e-05,-0.002416551665340733,0.011467190458339943,0.989947390120456
2013-05-02,-1,-0.0003774546825862855,-0.00023200347039690876,-0.0018746170123727928,0.011467190458339943,0.9910107985424526
2013-05-06,1,0.0007984977602774045,0.0008011645489595135,-0.0018746170123727928,0.007830837851757644,0.9924291280829882
2013-05-08,1,0.0009777636450163745,0.0010116570208463412,-0.0018746170123727928,0.006144452758916628,0.9916727789713866
2013-05-10,1,0.0005078790530285036,0.000557352365698636,-0.0022046889427798336,0.007830837851757644,0.9910135257007638
2013-05-14,1,0.0010384185700449647,0.0010998990468673254,-0.004978694021381538,0.006144452758916628,0.990868268375014
2013-05-16,1,0.001097014414490064,0.0011730386519071363,-0.006676559663704981,0.007830837851757644,0.9902038758766407
2013-05-20,0,0.0,0.0,-0.006676559663704981,0.009755987746520294,0.9894255928040054
2013-05-22,0,0.0,0.0,-0.00812585997535401,0.009755987746520294,0.9892682824992693
2013-05-24,0,-0.0001026856598342996,4.358943649893245e-05,-0.010407504442627709,0.009755987746520294,0.9886828957555113
2013-05-29,1,0.0011220010609642786,0.0011573576895282055,-0.010407504442627709,0.008096149805845795,0.98972524791835
2013-05-31,1,0.0012533833262898704,0.001280939093784725,-0.010407504442627709,0.008096149805845795,0.9896574516676352
2013-06-04,1,0.0016594667760843355,0.0017748570277073181,-0.010407504442627709,0.010551923608784746,0.989359598083713
2013-06-06,1,0.0007863080721969397,0.0008077604253740359,-0.00812585997535401,0.010743348310109998,0.9900698912773198
2013-06-10,1,0.0007985224901892318,0.0008284333189538513,-0.00812585997535401,0.010743348310109998,0.9896586140583186
2013-06-12,1,0.0004478767165950455,0.0004964934338974363,-0.005410830225201751,0.012369278472576272,0.9894432687290471
2013-06-14,1,0.0006430694337832857,0.0006538041885672633,-0.003092568270001587,0.012369278472576272,0.9900100599104412
2013-06-18,1,0.001275844811293155,0.0013610753439958954,-0.004752810608788898,0.011088255159301874,0.9907411303516291
2013-06-20,1,0.0002512977128886198,0.00031468893461388155,-0.0023502605529499843,0.011088255159301874,0.9917586196767875
2013-06-24,1,8.949831558731217e-05,0.00013519980358504206,-7.75153367795951e-05,0.011088255159301874,0.9923274282146467
2013-06-26,1,0.0004352473285316542,0.0004367147914827262,-0.0022360880620544994,0.011088255159301874,0.9920887682260225
2013-06-28,1,0.001064780357545162,0.001149832054862175,-0.0023502605529499843,0.010658500774057368,0.9927974114982407
2013-07-02,1,0.0010835073120195565,0.0011768989285154245,-0.0022360880620544994,0.010830783196405343,0.9925385777494422
2013-07-05,1,0.001659230676340974,0.0018276154898472373,-0.0022360880620544994,0.010830783196405343,0.9907258267396963
2013-07-09,1,0.002391327505935696,0.002668785617972924,-0.0023502605529499843,0.00979862441548527,0.990912693861751
2013-07-11,1,0.0027779601563855186,0.0030944330573499253,-0.0029045380524797965,0.0037582028867072653,0.9911307229221367
2013-07-15,1,0.0024817873728363218,0.002749189073650087,-0.0029045380524797965,0.0044178060236154375,0.9915334672468518
2013-07-17,1,0.0022607678665675303,0.0024852636006557705,-0.0019086606635367758,0.0058107063758512986,0.9916829199084357
2013-07-19,1,0.0019054346084094603,0.002062039347807354,-0.0037924077779579587,0.00692715658906434,0.9900772622234432
2013-07-23,1,0.0023257951357555555,0.0025505352901547544,-0.007921573076928454,0.00692715658906434,0.989665859765089
2013-07-25,1,0.002201265938443832,0.002399502476880696,-0.0031374174400888508,0.00692715658906434,0.9899175709635837
2013-07-29,1,0.0018457607168973357,0.0020051801448312916,-0.005135134483690749,0.00692715658906434,0.9898411008719693
2013-07-31,1,0.00268163274440258,0.002970351488492529,-0.00634646787326471,0.006347012534056404,0.9891058053296938
2013-08-02,1,0.0038558376950525346,0.004289900813412579,-0.008518041081283088,0.0058107063758512986,0.9902938902292704
2013-08-06,1,0.0033103429932022158,0.0036733667657844636,-0.00634646787326471,0.006347012534056404,0.9906788097824646
2013-08-08,1,0.002879871436805524,0.0031718916699150722,-0.005135134483690749,0.007438732151157953,0.9912036807777674
2013-08-12,1,0.002981942359984387,0.003274499842403643,-0.005135134483690749,0.009868561583918438,0.9902071820051401
2013-08-14,1,0.002681601111698935,0.0028796887689600953,-0.006169612910810072,0.009868561583918438,0.9895237320018186
2013-08-16,1,0.00199969440375203,0.002096428945763193,-0.005135134483690749,0.009052262738583299,0.9911401721490322
2013-08-20,1,0.0020984146976650245,0.00222368756428111,-0.004819130838937495,0.009155809905341776,0.9914617546583301
2013-08-22,1,0.002044457095080955,0.0021267190677518332,-0.005012753110638356,0.007438732151157953,0.9916808005656425
2013-08-26,1,0.0014111969701213767,0.0014319853665114592,-0.0049982922773214615,0.007438732151157953,0.9916222203040835
2013-08-28,1,0.0005771043767609429,0.0007090355687813225,-0.004686273141108118,0.009155809905341776,0.9925143373087483
2013-08-30,1,0.0004059132923200924,0.0005159862556492972,-0.004686273141108118,0.009627508823423593,0.9925796675469437
2013-09-04,1,0.00047113777176820793,0.0006023079697879709,-0.004686273141108118,0.009627508823423593,0.992777218466803
2013-09-06,0,-9.728990997816267e-05,0.00015004684733014434,-0.0049982922773214615,0.010884662370027364,0.9924267741365549
2013-09-10,1,7.471918734434067e-05,0.00034889831012554877,-0.0055880115139506775,0.007404754408665197,0.993041271807928
2013-09-12,-1,-0.0004138314338656727,-9.34325390541189e-05,-0.0055880115139506775,0.009410848543823635,0.9916136662350487
2013-09-16,0,-7.829518358252487e-05,0.00016819837568118282,-0.0055880115139506775,0.011117459160325343,0.9907368170146609
2013-09-18,1,0.0013695257167381084,0.001379187729302274,-0.005967468856260874,0.009410848543823635,0.990498386373059
2013-09-20,1,0.0012064816263193633,0.0012124148311449738,-0.0074099227145514755,0.009410848543823635,0.9900811425026649
2013-09-24,1,0.0005626510512038111,0.0006996130486017015,-0.005967468856260874,0.010014179074202798,0.9901277849539444
2013-09-26,1,0.0014733815566145983,0.0015039539591418646,-0.005967468856260874,0.009806095823784756,0.9905638657328746
2013-09-30,1,0.0015158772282020338,0.001550299151508375,-0.008094711208792394,0.009806095823784756,0.9903659477151742
2013-10-02,1,0.001742307244261219,0.0017919752232365557,-0.008094711208792394,0.009070485905820186,0.9906211634248284
2013-10-04,1,0.0018360935449088325,0.0019069616987195802,-0.008094711208792394,0.00818405436943689,0.9910235999543958
2013-10-08,1,0.0009220581806857102,0.0009743800579713447,-0.0051824963564296896,0.009070485905820186,0.9913194029976878
2013-10-10,1,0.0015432369968534747,0.0015807578996317939,-0.0051824963564296896,0.00818405436943689,0.9917880264732402
2013-10-14,1,0.0019061195669520614,0.0019555722651252135,-0.0051824963564296896,0.00818405436943689,0.9919561336835022
2013-10-16,1,0.0007039458166744709,0.000823516403904741,-0.003398144696046072,0.009070485905820186,0.9918927661220149
2013-10-18,1,0.00120350588432104,0.001225248614533444,-0.003314481094199317,0.009070485905820186,0.9923509909856187
2013-10-22,1,0.001969106297751573,0.002077746883176307,-0.004855630520650322,0.006583217658411228,0.9919775383384553
2013-10-24,1,0.0024199918250333943,0.0026010909990225447,-0.0077940416595354825,0.006583217658411228,0.991696103616054
2013-10-28,1,0.0010666999012250008,0.0011127384406361509,-0.0036365450777381446,0.006583217658411228,0.9926976278503734
2013-10-30,1,0.0010878652378430685,0.0011237324624374873,-0.003314481094199317,0.006583217658411228,0.9929938107835089
2013-11-01,1,0.0009424126821149762,0.0010469106661654605,-0.00463876694187948,0.00486994284862566,0.992341912526187
2013-11-05,1,0.0011468069802389107,0.001229941612544189,-0.00463876694187948,0.004339202783802341,0.9926172440439963
2013-11-07,1,0.0002465427170894474,0.00040053718136707844,-0.003314481094199317,0.0048987326884961995,0.9937210587081906
2013-11-11,0,-0.00026882330056024267,1.3719954988514194e-05,-0.002864995709518663,0.0048987326884961995,0.9942195973506265
2013-11-13,0,-0.00013874450133553266,0.00018740447523886504,-0.00463876694187948,0.0037925237969825268,0.9937394441308545
2013-11-15,0,-0.00019573718841354028,0.0001225159203656858,-0.003950881175506753,0.003802120410272707,0.9936711462364939
2013-11-19,-1,-0.0007189833904731077,-0.00037570968530520105,-0.0010339917072587344,0.005205613002512647,0.9942268566142497
2013-11-21,-1,-0.0008553202925168056,-0.0004961573352145743,-0.0009399621815445288,0.005205613002512647,0.9944537276351646
2013-11-25,-1,-0.0006051594910697504,-0.0003003618137771963,-0.0009399621815445288,0.005205613002512647,0.9945423368162571
2013-11-27,-1,-0.0002522734974563292,-3.159486598600873e-05,-0.0008223500395996265,0.0077700884130070804,0.9940999332731417
2013-12-02,-1,-0.0007099018181047843,-0.000480636160711889,-0.00029386205654185387,0.0077700884130070804,0.9947305706281535
2013-12-04,-1,-0.0007272433390500216,-0.0004841640290561796,-0.00029386205654185387,0.0077700884130070804,0.9940538335485922
2013-12-06,-1,-0.000701737895141268,-0.00045153717831839836,-0.00029386205654185387,0.00708973740311009,0.9934529389863519
2013-12-10,-1,-0.0006074582535016952,-0.00036595804802668657,6.665990563446468e-05,0.007141351677085226,0.9932683901953006
2013-12-12,-1,-0.0013453436226074107,-0.0010418416263481742,6.665990563446468e-05,0.007974590310168258,0.9929424089341924
2013-12-16,-1,-0.001066817299344447,-0.0007967504504646977,6.665990563446468e-05,0.007987039732883663,0.9922870258229224
2013-12-18,-1,-0.0010799735397348052,-0.0007823133868683048,-0.000907413250935932,0.007203460175036401,0.9926739644951207
2013-12-20,-1,-0.0003165012750338602,-0.0001546201956806884,-0.003381262133248066,0.005359896543868838,0.993060222157496
2013-12-24,1,0.000811701219458452,0.0008876379741092566,-0.00810052492827177,0.005359896543868838,0.9901137360747938
2013-12-27,1,0.0007450147484450682,0.0007707266047425741,-0.011989968296615396,0.0028730290436217816,0.9896304777565156
2013-12-31,1,0.0005424278973507865,0.0005684471342989497,-0.011989968296615396,0.005359896543868838,0.9888097394543353
2014-01-03,1,9.36097546712603e-05,0.00015536276632685064,-0.017463145333978816,0.005359896543868838,0.9858601602328261
2014-01-07,-1,-0.00017951207266946541,-9.846887754600493e-05,-0.012124564703529513,0.006263856121957525,0.9856998273057324
2014-01-09,-1,-0.00020643134324536776,-8.187844595353405e-05,-0.012124564703529513,0.011033009488592295,0.9840096826914317
2014-01-13,-1,-0.00043706940622845083,-0.00029058741881849505,-0.009726861566203142,0.010958542834041076,0.9845910655077688
2014-01-15,1,0.0008093026152023119,0.0008344555675827382,-0.009726861566203142,0.010958542834041076,0.9842073980866127
2014-01-17,1,0.00026022734675101877,0.000327813599645701,-0.009726861566203142,0.01336172304880973,0.9833933252153125
2014-01-22,-1,-0.0006633930826117175,-0.00044651693916521174,-0.01269251000124504,0.016609962530851674,0.9814041463542241
2014-01-24,-1,-0.0037547415876922298,-0.003139769562190751,-0.009726861566203142,0.016609962530851674,0.9832458892856087
2014-01-28,-1,-0.003951958526595885,-0.003348684343854485,-0.0032600927203123697,0.016609962530851674,0.9823504340725451
2014-01-30,-1,-0.0037377108309516625,-0.0031724220891186355,0.002713427383075912,0.016609962530851674,0.9825463796485739
2014-02-03,-1,-0.006110116459793676,-0.0053287818604868305,0.00466059254063071,0.016609962530851674,0.9838510209990663
2014-02-05,-1,-0.005066741587305263,-0.004383869537075584,-0.0002959237853257728,0.01336172304880973,0.9861810348248554
2014-02-07,-1,-0.0030347551987105386,-0.0026001561617430744,-0.002330278590707638,0.009534249354720978,0.9892805217823433
2014-02-11,-1,-0.0019088002432186644,-0.0016414177755447747,-0.006212590704984284,0.008794174294350969,0.9904384913182511
2014-02-13,-1,-0.0008452207510911253,-0.0006831354719645614,-0.007705698428807647,0.007709675840752134,0.9913989853594208
2014-02-18,0,-4.038387153548455e-05,3.1133611187242284e-05,-0.007705698428807647,0.006371416515563179,0.9918001030775881
2014-02-20,1,0.0003451913890321599,0.00035369089503712074,-0.006212590704984284,0.004491886277435573,0.9938537014940215
2014-02-24,-1,-0.00031494915605784874,-0.00023284719196691445,-0.006212590704984284,0.006371416515563179,0.9933038489359548
2014-02-26,1,0.0006888355096125569,0.0007638715626752054,-0.007705698428807647,0.002909419420505997,0.9928322492974475
2014-02-28,1,0.0010887757401423928,0.001224744606345285,-0.007705698428807647,0.002331834972851404,0.992663866606712
2014-03-04,1,0.0006261589775026257,0.00065804534128237,-0.006212590704984284,0.003993909118125094,0.991700416039435
2014-03-06,1,0.0006721286051285838,0.0007401435547120608,-0.0056459663154412865,0.003993909118125094,0.9916875235298275
2014-03-10,1,0.0008703042651125698,0.0010200717600083791,-0.00963337969965718,0.003993909118125094,0.9897857996011202
2014-03-12,1,9.624332911455915e-05,9.870450376872588e-05,-0.007739070011925166,0.009241247165501431,0.9887874139046261
2014-03-14,-1,-0.0005872953090513305,-0.0005080950476149899,-0.01581686449715703,0.009241247165501431,0.9877412866174048
2014-03-18,1,0.00011444711979525268,0.00015809147140935718,-0.01581686449715703,0.008386805971108644,0.987980169203412
2014-03-20,1,0.0003906160533298542,0.0004990676845453395,-0.01581686449715703,0.009241247165501431,0.9875783151877875
2014-03-24,-1,-0.0002963318148715937,-0.00027368024472163987,-0.007568416978271903,0.009132110297211407,0.9880944884642389
2014-03-26,-1,-0.0011003410201669392,-0.0009879655958660914,-0.007568416978271903,0.009132110297211407,0.988151420884186
2014-03-28,-1,-0.00039895370849332045,-0.0003974839627269014,-0.008788110429551119,0.008708294436589818,0.9882416647010983
2014-04-01,1,0.001248515048472699,0.0014882230557694037,-0.008788110429551119,0.004128723265843025,0.9901575468800204
2014-04-03,1,0.00039162824575687745,0.0004496811997605647,-0.008788110429551119,0.004128723265843025,0.9902773845935147
2014-04-07,-1,-0.0012576723278982832,-0.0011373605323933204,-0.0052523958164178985,0.007028304911730711,0.991190583213238
2014-04-09,1,0.000645013057445608,0.0008158875111411825,-0.0052523958164178985,0.003323312596028601,0.9931264445707052
2014-04-11,-1,-0.0007689407708457075,-0.0007566411669101085,-0.0009220990630684944,0.004359728139247728,0.9937432309569515
2014-04-15,-1,-0.0007237266141950134,-0.0006787887819967176,-0.0052523958164178985,0.003323312596028601,0.9929877805131647
2014-04-17,-1,-0.00012356210149099396,-9.290252306010377e-05,-0.006483835889070212,0.003323312596028601,0.9929437668986989
2014-04-22,1,7.804439436744434e-06,6.145676120923816e-05,-0.007373855139053526,0.003323312596028601,0.9920420237416459
2014-04-24,-1,-0.0006018600990633976,-0.0005773146138208792,-0.006483835889070212,0.0042585194482060405,0.9925378685459255
2014-04-28,-1,-0.0012546473507826575,-0.0011120398938317144,-0.003775243911380315,0.007912099155271267,0.9913741583245406
2014-04-30,-1,-0.0009811420912018134,-0.0008812770596547048,-0.005821386031708717,0.007912099155271267,0.9913183817988893
2014-05-02,-1,-0.0007008236278419111,-0.0006477911469953985,-0.005821386031708717,0.007912099155271267,0.9910838349638963
2014-05-06,-1,-0.0002527899717338543,-0.0002385966759842823,-0.004248943093199087,0.007212456537161181,0.9919203869642721
2014-05-08,-1,-0.0007804445101815473,-0.000683894457134269,-0.004248943093199087,0.008824681167184763,0.9909488328376016
2014-05-12,1,0.0001507643166805131,0.0001850854061043294,-0.004248943093199087,0.007778439754660085,0.9916168542573415
2014-05-14,-1,-0.0007882363434323415,-0.0007283049125138573,-0.004248943093199087,0.007778439754660085,0.9921065206010242
2014-05-16,-1,-0.0005063196972123669,-0.0004968117787750286,-0.0029413157204732964,0.007212456537161181,0.9929613234075375
2014-05-20,-1,-0.0011842738093269455,-0.0010974297318551217,-0.0008607773021858721,0.007778439754660085,0.9935441391622043
2014-05-22,-1,-0.0004519056509816179,-0.0004285249408287414,-0.0008607773021858721,0.007516650541132347,0.9939915778900276
2014-05-27,1,0.0006574521374927867,0.0008384789828236498,-0.0029413157204732964,0.0053937841251057396,0.9952140454476588
2014-05-29,1,7.136130271899108e-05,0.00014616754018662405,-0.0023267303949980455,0.007050374077109969,0.9948188121502334
2014-06-02,1,0.00022440866515615758,0.0002961475615920348,-0.0023267303949980455,0.0074418311522570476,0.9940946905490365
2014-06-04,1,0.000580543244452701,0.0007283407458534134,-0.0027190562503413896,0.00911865168719143,0.9936842775457889
2014-06-06,1,0.0013231463337225597,0.0015583395044486018,-0.0027190562503413896,0.005472090351336003,0.994526373750674
2014-06-10,1,0.0022274619413900918,0.0026421816140225806,-0.0054271341629153385,0.00487600281527834,0.9939617261551245
2014-06-12,1,0.0016967934404184106,0.0020313744225228594,-0.0054938229354900975,0.00487600281527834,0.9935887314812749
2014-06-16,1,0.0014983064887250331,0.001787991228153377,-0.0062252465816288755,0.00487600281527834,0.9931716003828635
2014-06-18,1,0.0007094150998502827,0.0007557379061184544,-0.0072041762306922965,0.004298891985529555,0.992473814664057
2014-06-20,1,0.0005976266711892142,0.0005999140566974767,-0.0072041762306922965,0.004324994060939643,0.9915689259191046
2014-06-24,1,0.000160255928254265,0.00021613727187366402,-0.0066832557245169125,0.005117033517897916,0.9917396120043341
2014-06-26,-1,-0.0016193141561279285,-0.0012080611633648423,-0.0066832557245169125,0.005117033517897916,0.99166725622488
2014-06-30,0,-0.00011936274541924383,6.110734808409055e-05,-0.0066832557245169125,0.004570586689901756,0.9923313198774226
2014-07-02,1,0.0009694932723895983,0.000998847453235805,-0.008214242116501238,0.004330409327599783,0.990727154787095
2014-07-07,1,0.0013002183168034612,0.0014069193112221546,-0.008214242116501238,0.004330409327599783,0.990203690333308
2014-07-09,1,0.0013228854172036876,0.00149536965236931,-0.008214242116501238,0.004330409327599783,0.9906228298432038
2014-07-11,1,0.0010174990065931503,0.0011950401827340632,-0.006695683539163826,0.00473331116629107,0.9909471370608111
2014-07-15,1,0.0009351445199297028,0.001112823184288347,-0.005647542030925751,0.004924322700604562,0.991201588218225
2014-07-17,-1,-0.00021835563959607523,-0.00020891359640131497,-0.005297826515669159,0.007354837530489896,0.9915248213137973
2014-07-21,1,0.000598442248617151,0.0007342600018018773,-0.005297826515669159,0.007354837530489896,0.9918625514893276
2014-07-23,1,0.0008593656081946679,0.0010498477055715313,-0.005297826515669159,0.007354837530489896,0.991968273831424
2014-07-25,1,0.001714922056084781,0.002018728024474857,-0.005297826515669159,0.005731399949317432,0.9928537825802708
2014-07-29,1,0.0017182014065653898,0.002010452779646194,-0.005297826515669159,0.007184492462334409,0.9925993104722305
2014-07-31,1,0.00020709896190552644,0.00028395919525324605,-0.004901028171874952,0.007184492462334409,0.9938977376758467
2014-08-04,1,0.00014641317650656064,0.00019496583971237652,-0.004301032960398325,0.007184492462334409,0.9940871009748135
2014-08-06,-1,-0.0002797906672274631,-0.0002440401738801347,-0.004301032960398325,0.007184492462334409,0.9940113999717962
2014-08-08,1,0.00018631101926974187,0.00022237643841094534,-0.0021954712917203007,0.005687949758208901,0.9949136474628442
2014-08-12,1,0.00014551849966025363,0.0001770662211664577,-0.002355473475139534,0.005687949758208901,0.9945619013344148
2014-08-14,1,0.0005478295887850836,0.0006156614005947185,-0.00522860984925674,0.004928336905474879,0.9946469597453776
2014-08-18,1,0.00044668808530090847,0.0004572334479436114,-0.006550546216763359,0.004160308455047277,0.9950584106520153
2014-08-20,1,0.0008470901054976323,0.00092453063443359,-0.006550546216763359,0.0015972968237231806,0.9952146170743317
2014-08-22,1,0.001367630191213011,0.0015905184138953008,-0.006673974710058238,0.0014052709257158197,0.9945057563163469
2014-08-26,1,0.0014123563046126728,0.0016253600044646046,-0.006673974710058238,0.0014052709257158197,0.9946982875875573
2014-08-28,1,0.00019384408955460674,0.000232203342848308,-0.006673974710058238,0.0014052709257158197,0.994670350795545
2014-09-02,1,0.0011308596745505967,0.0012770459446158344,-0.006673974710058238,0.0014052709257158197,0.9944352386375431
2014-09-04,1,9.284179690625258e-05,0.00015635881176568906,-0.0072486579771799675,0.0016948241462427216,0.9939413789617971
2014-09-08,1,0.0003055502380218902,0.00032654898282498336,-0.0072486579771799675,0.001831662652792668,0.9936784647267268
2014-09-10,1,0.00028172766197594553,0.0002840288260230649,-0.0072486579771799675,0.001831662652792668,0.9925944417545501
2014-09-12,1,0.0001688065815603644,0.00018372980859190325,-0.0077724977505852656,0.0017504219318661804,0.9913035986188962
2014-09-16,-1,-0.0006238915089936097,-0.0004913583594185207,-0.007027738820997319,0.001831662652792668,0.9904028390830869
2014-09-18,-1,-0.0007528477248871957,-0.0005998885524066242,-0.007027738820997319,0.005047878743921215,0.9888309133718283
2014-09-22,-1,-0.001326783924728674,-0.0011066358371225036,-0.004363701918820188,0.006771184897132533,0.988834081703626
2014-09-24,-1,-0.0013330799165300056,-0.0011120738092798522,-0.008910201926322942,0.010993785981889064,0.9866317936013014
2014-09-26,-1,-0.0017571399590103095,-0.0014990990457242922,-0.004742243444114367,0.01231232667056314,0.9853801399801336
2014-09-30,-1,-0.0016873965225991927,-0.0014386459769874084,-0.004742243444114367,0.015460940010265867,0.9839701288807849
2014-10-02,-1,-0.0018222238243936434,-0.001591055381642788,-0.004742243444114367,0.015460940010265867,0.9842898264475363
2014-10-06,-1,-0.002160238622927536,-0.001841922068073786,-0.004742243444114367,0.020428434443900367,0.9835956885831182
2014-10-08,-1,-0.0022698288853015293,-0.00194701188956126,-0.004644511178061084,0.020428434443900367,0.984977722078454
2014-10-10,-1,-0.003803067126015287,-0.003273395791487021,-0.0031045613378023864,0.020428434443900367,0.9855440527052236
2014-10-14,-1,-0.002590693741223262,-0.0022188690184590035,-0.0008934366024176933,0.014513024081790424,0.9870022474641835
2014-10-16,-1,-0.0007073235237267936,-0.0005950919492360002,-0.004341230045447897,0.008584833775783908,0.9890385500799804
2014-10-20,-1,-0.0011094406596030247,-0.0009317917054630442,-0.004341230045447897,0.007292821357776808,0.9890924356091789
2014-10-22,-1,-0.0009830751190844401,-0.0008416244202687326,-0.004341230045447897,0.006452278404291998,0.9909800091968811
2014-10-24,1,9.15038910059329e-06,3.9030584995617036e-05,-0.0038560647090144103,0.006452278404291998,0.992417874451424
2014-10-28,1,0.0015160024230415623,0.001717793213379865,-0.0038560647090144103,0.006489482280649905,0.9937666934911249
2014-10-30,1,0.0008317576805625751,0.0009567309583140623,-0.0038560647090144103,0.006489482280649905,0.9940992075101549
2014-11-03,1,0.00118520381360052,0.0013332464230946784,-0.0038560647090144103,0.006252871228640308,0.994751344241687
2014-11-05,1,0.0010319450479637688,0.0011577652961063825,-0.0033465137123381648,0.006489482280649905,0.9944592381914589
2014-11-07,1,0.0014084973245944285,0.0016041811075551194,-0.0038560647090144103,0.006252871228640308,0.9940158518334353
2014-11-11,1,0.001722213803372322,0.0019664308745749232,-0.004803809720527446,0.006252871228640308,0.992694962800343
2014-11-13,1,0.0011340221517042533,0.0012806977830807462,-0.004275003685268706,0.006252871228640308,0.9923416834971214
2014-11-17,1,0.0013257157920614387,0.0015089052446792238,-0.007106496218209937,0.005872418565724343,0.9919225496738968
2014-11-19,1,0.0014087068464190779,0.0016475587725987327,-0.0049066333272420794,0.006404848273451141,0.9908831880702348
2014-11-21,1,0.0017307446615746653,0.0020108646279597383,-0.0049066333272420794,0.006404848273451141,0.9909492424825807
2014-11-25,1,0.0023083685847203276,0.0026711495820248244,-0.0049066333272420794,0.0059871917341772695,0.990749198518893
2014-11-28,1,0.0017581567630480595,0.002024270332035144,-0.003256687561836376,0.007104724941264247,0.9910735792321853
2014-12-02,1,0.0013872154606985095,0.0015723359666258794,-0.00714334126965563,0.007104724941264247,0.9905833703962929
2014-12-04,1,0.001800713892014207,0.002032284510418674,-0.008014460940447785,0.0059871917341772695,0.9903671666133298
2014-12-08,1,0.0009519023642511411,0.0010273179905317849,-0.008014460940447785,0.007104724941264247,0.990031817583894
2014-12-10,1,0.0005864817283624125,0.0006347831709169094,-0.008014460940447785,0.008376530184319584,0.9902170887138443
2014-12-12,1,0.00023806779307992046,0.00024167744597327075,-0.008395186428922344,0.008376530184319584,0.9904946673495895
2014-12-16,1,0.00024349111586921887,0.00028952002140445024,-0.008688791210479056,0.008376530184319584,0.9902470331635481
2014-12-18,1,0.0015158159529841723,0.0017317296488671091,-0.008688791210479056,0.003632986207172927,0.9910876491037075
2014-12-22,1,0.0008890724982312246,0.0009500211624131425,-0.008688791210479056,0.008818461536771295,0.9903119514548798
2014-12-24,1,0.0012243040928368563,0.0013410415897372554,-0.009366541539606348,0.003632986207172927,0.9902989603003164
2014-12-29,1,0.001243493598523728,0.001349508496959916,-0.011908168086051742,0.0022537121459492056,0.9870722184611395
2014-12-31,1,0.0008760393033342113,0.0009483740867139612,-0.011908168086051742,0.0027222453284820357,0.9873528935207689
2015-01-05,1,0.0005762523249009447,0.0005983954112067857,-0.010632207010761664,0.004483278068210147,0.9876818415069941
2015-01-07,1,0.000745328759149817,0.0008176364576082007,-0.009014938153002954,0.004483278068210147,0.9882592139086104
2015-01-09,1,0.0007834545879894094,0.0008747574668330909,-0.007915299333490555,0.008299534274146255,0.9888346914568661
2015-01-13,1,0.00046421546496222424,0.0005284272750436125,-0.0054627067656938255,0.008299534274146255,0.9895726359591881
2015-01-15,-1,-0.000281459947399318,-0.00024308754238975123,-0.0038592097820992666,0.00991806500266276,0.9895764255271337
2015-01-20,-1,-0.00041494631730915516,-0.0003683947572517918,-0.002103534028465432,0.00991806500266276,0.9898945439299665
2015-01-22,1,0.0005428185602212485,0.0006028835607155604,-0.002103534028465432,0.009275536084272683,0.990700256307633
2015-01-26,1,0.00047363255719615313,0.0005477697582905607,-0.0016796258776617889,0.009275536084272683,0.9903419427360078
2015-01-28,-1,-0.0018450023740703056,-0.0016255484092652702,-0.0013256956718954412,0.009935474543060104,0.9924643737565239
2015-01-30,-1,-0.002051521052994468,-0.0018122537057190127,-0.0013256956718954412,0.010844481963620286,0.9914034295724736
2015-02-03,-1,-0.0018763714824883279,-0.0016510305139901087,-0.0023777811266545972,0.010844481963620286,0.9912077290351166
2015-02-05,-1,-0.001637093555647501,-0.0014320676918536052,-0.004328853498232121,0.009935474543060104,0.991134001301987
2015-02-09,-1,-0.0011101756004260797,-0.000952098308259336,-0.006907313584971016,0.008573477256320097,0.9907588957918889
2015-02-11,-1,-0.0013090085915887946,-0.0011276676223651312,-0.006907313584971016,0.009950661483887506,0.9900216962403463
2015-02-13,-1,-0.0008988531539071123,-0.0007411391425161311,-0.012415380487024546,0.007895617354464838,0.9901163902280671
2015-02-18,-1,-0.0009799552449091756,-0.0008128254203985464,-0.01392448118162901,0.008909488833130568,0.9887685059387239
2015-02-20,-1,-0.0004651936215170458,-0.0003288730518119879,-0.015160881055102143,0.007895617354464838,0.9889364440038189
2015-02-24,-1,-0.001064893748605404,-0.0008589756079793565,-0.013774522612793333,0.007895617354464838,0.9896553008268575
2015-02-26,-1,-0.001178924426523119,-0.0009326418728196821,-0.013774522612793333,0.0038950305897262893,0.989898792110668
2015-03-02,-1,-0.0006462304951096585,-0.00046759821610004623,-0.013774522612793333,0.004579147056983385,0.9907367068107428
2015-03-04,-1,-0.0018087714079667954,-0.0014816207567699448,-0.01067704644417943,0.007166101143227504,0.9913970240500954
2015-03-06,-1,-0.0032500859373010317,-0.00268889996539303,-0.006614521300088302,0.007166101143227504,0.9913446424619572
2015-03-10,-1,-0.0031950275853531054,-0.0026861673908840458,-0.006614521300088302,0.007066287030133395,0.9921745234722227
2015-03-12,-1,-0.0017072507150531413,-0.001436776912857431,-0.007899993570889986,0.004456208600969183,0.9927567098953795
2015-03-16,-1,-0.0022995033113166405,-0.001953963782553152,-0.005987208439820287,0.004456208600969183,0.9936809023053117
2015-03-18,-1,-0.0020097144315929473,-0.0016943773305733122,-0.004627424333810118,0.006876395921743826,0.9939117305401621
2015-03-20,-1,-0.002202190468933389,-0.0019167653095410633,-0.004627424333810118,0.007066287030133395,0.9932354386295869
2015-03-24,-1,-0.0016271146006077832,-0.0014717373301013459,-0.004484616635328452,0.007066287030133395,0.9930636130019864
2015-03-26,-1,-0.002264656462011919,-0.0019972058745020374,-0.004484616635328452,0.007066287030133395,0.9926677057343629
2015-03-30,-1,-0.001484588994922703,-0.0013426997024622504,-0.004484616635328452,0.007066287030133395,0.9926378252035342
2015-04-01,-1,-0.001414854972282948,-0.0012777444061869028,-0.005558785344375287,0.006876395921743826,0.9924477294246552
2015-04-06,-1,-0.0007635660394514882,-0.0007165479070489261,-0.005558785344375287,0.005756886392093815,0.9924231722340557
2015-04-08,-1,-0.0011212300441838892,-0.0010497162186329768,-0.005558785344375287,0.005756886392093815,0.9927131289910207
2015-04-10,-1,-0.001491146442188662,-0.0013590409884113512,-0.004458616121072947,0.007004054564706048,0.9924881484055253
2015-04-14,-1,-0.0012339814361931904,-0.001140714739613511,-0.004458616121072947,0.007004054564706048,0.9925337392011412
2015-04-16,-1,-0.0004952269657834091,-0.000474626799110597,-0.004458616121072947,0.006608431524574562,0.9927825367709815
2015-04-20,-1,-0.0005212480605394408,-0.000520593855495549,-0.0037978588174258725,0.005134643596369214,0.9938642962366354
2015-04-22,-1,-0.00016824179532265094,-8.522651375011953e-05,-0.0037978588174258725,0.005134643596369214,0.9941144156981344
2015-04-24,-1,-0.0006071841040978445,-0.000597998336426462,-0.0037978588174258725,0.005134643596369214,0.9941881060996223
2015-04-28,-1,-0.00018338209011065692,-0.00012080927197080272,-0.004695232033194985,0.0047723941999417725,0.9944251276282224
2015-04-30,0,-0.00010279015353721729,4.247730750849671e-06,-0.004695232033194985,0.0039763672434594945,0.9947378042166863
2015-05-04,1,0.00015428506491817998,0.0002689081231023227,-0.004695232033194985,0.0039763672434594945,0.9951434147875375
2015-05-06,-1,-0.0001333879949006118,-8.468093703601121e-05,-0.0045138314084397155,0.0039763672434594945,0.9951676523592744
2015-05-08,-1,-0.00023949207924354725,-0.0002212027044142711,-0.004029364360754901,0.0027692765650108126,0.9955750736462817
2015-05-12,-1,-0.00027798050880919735,-0.00026899593966719893,-0.004029364360754901,0.0039763672434594945,0.9953236970961424
2015-05-14,1,0.0009592561342219154,0.0011882368460087143,-0.00538974866318207,0.0027692765650108126,0.9953458481439441
2015-05-18,1,0.0010146781777528179,0.0012574327909239233,-0.006238824281832519,0.0027692765650108126,0.9949765883036852
2015-05-20,1,0.0010730394483970495,0.0013439715919473943,-0.005694622407566713,0.0039763672434594945,0.9949568541690205
2015-05-22,1,0.0011188484378008754,0.0014103456263104383,-0.0055996394097532105,0.0030880922116148747,0.9950809168728756
2015-05-27,1,0.0009606462718839012,0.0012081093934444846,-0.0034717978929709736,0.0016621215970428769,0.995611396457885
2015-05-29,1,0.0005628148590937879,0.0007454503078464414,-0.002273227130050178,0.0032364844540929594,0.9958285169550255
2015-06-02,1,0.0007050701116010922,0.000904573221485126,-0.0028520771785354544,0.0033775526688755125,0.9946557728057013
2015-06-04,1,0.0006179190410815861,0.0008047331813401692,-0.0022859195229190947,0.004795963517022854,0.9946959833163725
2015-06-08,1,0.00038248539304818667,0.000511899042214218,-0.0033324882840311395,0.004795963517022854,0.9945554115368684
2015-06-10,1,0.0003466641060587571,0.0004393298692617183,-0.007634837588998674,0.0031035937935097475,0.9932853244803814
2015-06-12,1,0.00013176270614566064,0.00018583774496506758,-0.0050674790471134604,0.0031035937935097475,0.9936017769767337
2015-06-16,1,0.00041880817437751726,0.0005669818689847729,-0.0050674790471134604,0.0031035937935097475,0.9923905820646312
2015-06-18,1,0.0005572704432814677,0.0007095817560192416,-0.007634837588998674,0.00197957152979153,0.9915005234159411
2015-06-22,-1,-0.0006434732400706026,-0.0005479927506042057,-0.007013012890782491,0.0031035937935097475,0.990859979212427
2015-06-24,-1,-0.0007346320940003431,-0.0006171006165825918,-0.007013012890782491,0.004795963517022854,0.9883716064412509
2015-06-26,-1,-0.0003169805621671351,-0.0002610570311692243,-0.008661801494655529,0.0031035937935097475,0.988286933019774
2015-06-30,-1,-0.0006209911288669216,-0.0005392848251918151,-0.006494010127401875,0.005466277278439607,0.9886802023851434
2015-07-02,-1,-0.000344077120010459,-0.000318243029477235,-0.006494010127401875,0.004510731925336648,0.9887465628582507
2015-07-07,-1,-0.0003598596480699547,-0.00032343570511836356,-0.006494010127401875,0.004510731925336648,0.9889937619634046
2015-07-09,-1,-0.000861781349606448,-0.0007925602913873346,-0.004283797143580716,0.007974369462323806,0.9897323919512799
2015-07-13,-1,-0.00038753409957031915,-0.00037167014382995906,-0.004283797143580716,0.007974369462323806,0.989505772821957
2015-07-15,-1,-0.0007241054044898882,-0.0007015357831691234,-0.004283797143580716,0.008155337715025439,0.990054038283058
2015-07-17,-1,-0.001377971164428663,-0.0012607465132501681,-0.002354300632955335,0.008155337715025439,0.9909905818787434
2015-07-21,-1,-0.0007503567713791501,-0.0007161943256933269,-0.0025059672028047613,0.0077688450146718695,0.9918394263549108
2015-07-23,1,0.0002960167431031353,0.000423518629553964,-0.005604285894203545,0.006300289301277755,0.9926807999927404
2015-07-27,0,-6.130735191071335e-05,5.010574300734499e-06,-0.00910554632708344,0.006300289301277755,0.9898708843057047
2015-07-29,1,0.00040749817689955475,0.0004862943328363881,-0.00910554632708344,0.0037754737392863107,0.9901868321851685
2015-07-31,1,3.7109632516870606e-05,5.193030889017667e-05,-0.00910554632708344,0.0077688450146718695,0.9885382731125394
2015-08-04,1,0.00027222380377603996,0.00034707855259577433,-0.015056948999915696,0.008192560420460931,0.9860590348729521
2015-08-06,1,8.650989425291538e-05,0.00011852888371934073,-0.015056948999915696,0.010153807248746047,0.9856294884429256
2015-08-10,1,0.0007767283731611312,0.0009210705607846096,-0.015056948999915696,0.010153807248746047,0.9853409428305222
2015-08-12,1,0.00041976066008580246,0.0004757813798466989,-0.008365483369539743,0.010153807248746047,0.9861747740573091
2015-08-14,1,9.168394491850714e-05,0.00010029333658696813,-0.012628995420122597,0.010153807248746047,0.9857065948860736
2015-08-18,-1,-6.383089206447354e-05,-4.7460612072150575e-05,-0.012628995420122597,0.012520259487468068,0.9847339280884096
2015-08-20,-1,-0.0005298656357986653,-0.00046857911262257056,-0.007747418677388798,0.012520259487468068,0.9851511540489801
2015-08-24,-1,-0.0012651222302241482,-0.0011211109052538261,-0.0028827569228100326,0.013872081079724742,0.9859131581133658
2015-08-26,-1,-0.0009536607916498206,-0.0008592881261602291,-0.011480790545569622,0.012520259487468068,0.985149977975171
2015-08-28,-1,-0.0005855982934784413,-0.0005154194362630355,-0.01229289824026731,0.012520259487468068,0.9858625133281711
2015-09-01,-1,-0.001465849668481842,-0.0012859477874195718,-0.010924285248502624,0.013485020885303744,0.987182296511385
2015-09-03,-1,-0.000683549963540727,-0.0006000719218409665,-0.010924285248502624,0.014974589412144605,0.9873488253272634
2015-09-08,1,9.518555823990988e-05,0.00014448882780790433,-0.010924285248502624,0.014974589412144605,0.9862100904386193
2015-09-10,-1,-0.00026139726110972365,-0.00024437768174775297,-0.010924285248502624,0.017520132092149865,0.9841805851121038
2015-09-14,-1,-0.0004311326455194341,-0.0003958323754572364,-0.013063325909849429,0.017520132092149865,0.9833140854193849
2015-09-16,1,0.00020926551583993184,0.0002386179277061507,-0.015064904849370273,0.01699201504213692,0.9829498104654216
2015-09-18,-1,-0.0003201449176677969,-0.0003033275238537933,-0.013758621071899076,0.01699201504213692,0.9836814517005807
2015-09-22,-1,-0.000803118752229327,-0.0007151243924224354,-0.012995394889993019,0.01510856399847719,0.9848717153713815
2015-09-24,-1,-0.0012558420886842208,-0.0011351842459156416,-0.012269423195632281,0.0182413383421235,0.9830334063263911
2015-09-28,-1,-0.0014064678271197614,-0.00127016436125386,-0.012269423195632281,0.0182413383421235,0.9834213453281211
2015-09-30,-1,-0.0005464496242495967,-0.0005133669678946944,-0.012632345205188522,0.0182413383421235,0.982191667918575
2015-10-02,1,1.8215238650335334e-05,6.714925117854199e-05,-0.012632345205188522,0.016186824401769183,0.9828755666810497
2015-10-06,1,0.0011867270369663391,0.0014202467258357166,-0.012632345205188522,0.01756148264861139,0.9834740223584401
2015-10-08,1,0.002439088979466283,0.0028370035574537718,-0.012632345205188522,0.011005845044234849,0.9849883803850448
2015-10-12,1,0.001322231431368127,0.0015630601251012885,-0.012102576219921104,0.011005845044234849,0.9858015777849485
2015-10-14,1,0.0004183937492833746,0.000533599183025285,-0.008934668580030926,0.011005845044234849,0.9872569949498936
2015-10-16,1,0.00019627198403129626,0.0002860970791383385,-0.010627040539671086,0.011005845044234849,0.9859535143229459
2015-10-20,-1,-0.00010147450822377009,-6.913196477393755e-05,-0.008686599192279452,0.009001354818057947,0.9862686260848568
2015-10-22,1,0.001847875610763748,0.0021456957338896795,-0.008017137786483561,0.009001354818057947,0.9883605136164899
2015-10-26,1,0.001447036214995112,0.0016848396939454476,-0.008017137786483561,0.006459750863062298,0.9890542598312724
2015-10-28,1,0.002199192523781095,0.002532753055079978,-0.007171742913543409,0.006459750863062298,0.9906740850842293
2015-10-30,1,0.0018487275664194188,0.002148717946071742,-0.007171742913543409,0.006459750863062298,0.9909591703196613
2015-11-03,1,0.0028594658370057697,0.0032828883610411504,-0.008017137786483561,0.004782724990960896,0.9913070868581778
2015-11-05,1,0.002835635833031498,0.0032383325805605432,-0.008017137786483561,0.003908594042897777,0.990942100773476
2015-11-09,1,0.002321064044992727,0.0026684345665752935,-0.00836886824877461,0.003908594042897777,0.9905781699514339
2015-11-11,1,0.0019829278558950326,0.0022693727692714846,-0.00836886824877461,0.003908594042897777,0.9904341478582284
2015-11-13,1,0.0009091465388742369,0.0010551388059360776,-0.00836886824877461,0.003908594042897777,0.9914537031350662
2015-11-17,1,0.0009997564224098433,0.0011709297117583025,-0.008200957313304804,0.003908594042897777,0.9917137449278155
2015-11-19,1,0.001778546948381932,0.0020193438160001275,-0.008200957313304804,0.0016959012161489977,0.9928203596757398
2015-11-23,1,0.001705299694425541,0.0019353639328349257,-0.008200957313304804,0.0036319038594945334,0.9915606444909304
2015-11-25,1,0.0018752964187454253,0.002127989673066346,-0.008200957313304804,0.0036319038594945334,0.9914120629752693
2015-11-30,1,0.0014534099018873908,0.0015875973404280855,-0.008200957313304804,0.0016165379501401269,0.9914782461054077
2015-12-02,1,0.001188456937542879,0.001314601384815531,-0.007788635511622648,0.0016165379501401269,0.9916835869362417
2015-12-04,1,0.0003668938208838356,0.00040997994251627557,-0.010371749644290648,0.0016165379501401269,0.9914371926170925
2015-12-08,-1,-0.0011380872676258627,-0.0008807473407255522,-0.011269067386764477,0.0016165379501401269,0.9909897306215345
2015-12-10,-1,-0.0010216667926825833,-0.0008087821621617637,-0.012335492750354268,0.003834453492065227,0.990153197737703
2015-12-14,-1,-0.0011782248862794954,-0.0010063772169740096,-0.011269067386764477,0.004721719025908818,0.9897349227238277
2015-12-16,-1,-0.0008681686608415883,-0.0007243825554983759,-0.011269067386764477,0.004721719025908818,0.9896935553620689
2015-12-18,-1,-0.000309436752276555,-0.0002743479965677436,-0.011269067386764477,0.004997057608414757,0.9891509999336121
2015-12-22,1,0.0008308252562457957,0.0009381431473885258,-0.013453022384766243,0.0046303748578278075,0.9889277600975656
2015-12-24,1,0.0009511343085953268,0.0010700669703941179,-0.017973540322783678,0.0046303748578278075,0.983973970153644
2015-12-29,1,0.000890794151860591,0.001003135154718041,-0.017973540322783678,0.004997057608414757,0.9827419742592876
2015-12-31,1,0.0007552930770059433,0.0008823886578776833,-0.019841716566111948,0.00642323554759334,0.9801345610309367
2016-01-05,1,0.00025026149987208133,0.0003025424067912047,-0.019841716566111948,0.01140349109423147,0.9797301793211759
2016-01-07,-1,-0.001233225612489044,-0.0010991340510442015,-0.01336033221446348,0.016035653077338095,0.9802020147688694
2016-01-11,-1,-0.0015934096548357883,-0.0014191236638362308,-0.010936956303108473,0.016035653077338095,0.9807393886280318
2016-01-13,-1,-0.002933487742674354,-0.002550006612083786,-0.010492517444499482,0.016035653077338095,0.9818119773220857
2016-01-15,-1,-0.0040838331234334686,-0.003465446739881033,-0.010492517444499482,0.017703974388398158,0.9800369553115977
2016-01-20,-1,-0.003978522597630938,-0.003393548840512411,-0.010492517444499482,0.020564362238317254,0.9788643796744037
2016-01-22,-1,-0.003280667598095281,-0.0028373396495243526,-0.008852342684193864,0.024418900217644843,0.9791489217843558
2016-01-26,-1,-0.0012744610570378677,-0.0010067251568913413,-0.008852342684193864,0.019682595238852546,0.984131622323683
2016-01-28,-1,-0.0007700503104680884,-0.0006005740880262576,-0.008149907104372718,0.018988820381507353,0.9852787533514694
2016-02-01,-1,-0.00048607045536778196,-0.00038782850164190645,-0.0059804153360429185,0.017522412224688276,0.9871745580505803
2016-02-03,-1,-0.00031076167688360884,-0.0002315480321271165,-0.004070079778850474,0.017522412224688276,0.9882458840917561
2016-02-05,1,0.0005878766173269059,0.0005989784866614449,-0.004070079778850474,0.017522412224688276,0.9885910826411479
2016-02-09,1,0.0005692220071119012,0.0006324373982745681,-0.004774900716826321,0.017522412224688276,0.988573743374028
2016-02-11,1,4.524264930243202e-05,9.83566738534951e-05,-0.004441417962304527,0.017522412224688276,0.9884454517046274
2016-02-16,1,0.0011750987407485466,0.0012406963720109178,-0.00714311226409239,0.013030421295040026,0.990284322957009
2016-02-18,1,0.0009857773011980146,0.0010118783633796804,-0.004441417962304527,0.014593745610121842,0.9903816334821737
2016-02-22,1,0.0015224998231531315,0.0015585579927733222,-0.0031127104906252512,0.013030421295040026,0.991407371575194
2016-02-24,1,0.001362749882571465,0.0014133675050651642,-0.00714311226409239,0.013030421295040026,0.9904146617020119
2016-02-26,1,0.0014497074592259036,0.0015302238169245344,-0.007903300030998943,0.013030421295040026,0.9897272611392259
2016-03-01,1,0.0030285520029131215,0.0033980884167612844,-0.007903300030998943,0.012187958419973142,0.9895961176229905
2016-03-03,1,0.003766820302224438,0.00431505804934971,-0.007903300030998943,0.013323874052137497,0.9884192816712596
2016-03-07,1,0.004068351625551731,0.00458933081538518,-0.008332540136272326,0.008488545321198825,0.9872437059639431
2016-03-09,1,0.002794864425362936,0.0030787596563727265,-0.00813462100315264,0.008488545321198825,0.987704299104617
2016-03-11,1,0.002425356831190585,0.0026318540859088736,-0.00813462100315264,0.009583793965990569,0.9880542522500629
2016-03-15,1,0.00204232155681679,0.0021850332737576054,-0.007443080172571228,0.012994310259028578,0.9874137465471018
2016-03-17,1,0.0036539416460589606,0.0041068946698472,-0.008866495665451609,0.009583793965990569,0.9882037773300355
2016-03-21,1,0.0035360639217556166,0.003970152965236919,-0.008866495665451609,0.009583793965990569,0.9883484472635192
2016-03-23,1,0.002986501464602969,0.0033800463162275618,-0.008866495665451609,0.009583793965990569,0.9868673806451608
2016-03-28,1,0.0028553329342492703,0.0032125900809996935,-0.011693725895069161,0.007639860578218219,0.9869355544068136
2016-03-30,1,0.004054489396351324,0.004631540708554913,-0.011693725895069161,0.007639860578218219,0.9880095441496329
2016-04-01,1,0.004896660787247237,0.005591811320617722,-0.012929153440327294,0.006853506389589982,0.987352103198432
2016-04-05,1,0.0031972450601125404,0.0036285022316712304,-0.011693725895069161,0.006853506389589982,0.989501315625292
2016-04-07,1,0.0028850602608253683,0.0032627121181123576,-0.011507811742566878,0.006551558546226758,0.9895126717640105
2016-04-11,1,0.0024362598193007606,0.0026828545440289843,-0.011507811742566878,0.006551558546226758,0.9884147176296224
2016-04-13,1,0.0030785283687866315,0.003402888153167632,-0.011507811742566878,0.005091027176240524,0.9880695460641321
2016-04-15,1,0.003165066926314686,0.003557982213618981,-0.011507811742566878,0.006551558546226758,0.9877335525157465
2016-04-19,1,0.0032356828875236216,0.0036360470661591674,-0.011507811742566878,0.005840281748968971,0.9873889178977041
2016-04-21,1,0.001685258285707375,0.001889751354053643,-0.011507811742566878,0.005840281748968971,0.9897142942261885
2016-04-25,1,0.0014975357933459188,0.0016833484163419244,-0.00781628484965265,0.007230040974171544,0.989906606037881
2016-04-27,1,0.0014664495906620146,0.001618556313889595,-0.00781628484965265,0.007422471911620241,0.9896951694423067
2016-04-29,1,0.0006513139652963519,0.0006837307301408185,-0.006365195544553978,0.007422471911620241,0.9907379779854304
2016-05-03,1,3.051028495066894e-05,0.00012011793090878798,-0.006365195544553978,0.007422471911620241,0.9908035754445447
2016-05-05,-1,-0.0006186323242940541,-0.0004383126514155703,-0.006365195544553978,0.012961180663930313,0.9903180614646068
2016-05-09,-1,-0.0005865120053392767,-0.0003665007872813295,-0.006365195544553978,0.008942866720474226,0.9912927726687839
2016-05-11,0,-0.0001309029304925663,2.3955712589378384e-05,-0.00608642222302236,0.006128270731851107,0.9922129658774211
2016-05-13,-1,-0.00023257084736270721,-6.36026652226658e-05,-0.00608642222302236,0.005617788711638047,0.9925912310687598
2016-05-17,1,0.0002747081463043111,0.00033503137530616767,-0.0058112168305628825,0.005582911053691675,0.9927275048627746
2016-05-19,-1,-0.0003554509484823928,-0.0002351079905216053,-0.004626757462195913,0.005732176003253778,0.9935249186046643
2016-05-23,1,8.561135105243764e-05,0.00015987673511269325,-0.0053876551908491445,0.005732176003253778,0.9930185115297593
2016-05-25,1,1.424389735946727e-06,0.00010931736875305982,-0.0053876551908491445,0.005732176003253778,0.9927304139257445
2016-05-27,-1,-0.0002605598725851131,-0.00010327684752873244,-0.0062596832600775,0.004789972061499956,0.9885487167040978
2016-06-01,-1,-0.0010738010259250612,-0.0007554943822021132,-0.0062596832600775,0.008537626498566198,0.9874835560096562
2016-06-03,-1,-0.0014281443162378713,-0.0010469939617387125,-0.0062596832600775,0.008537626498566198,0.9872902167329907
2016-06-07,-1,-0.0018571815759536009,-0.0013936187838203345,-0.0075786924807126526,0.007360393564559403,0.9868993829081927
2016-06-09,-1,-0.0019497156129690033,-0.0014863077947211117,-0.0075786924807126526,0.01401098110181102,0.9853446416937747
2016-06-13,-1,-0.0028603524265902475,-0.0022639556117498077,-0.007043659517835324,0.01401098110181102,0.9850672566892569
2016-06-15,-1,-0.003200273769130433,-0.002554903349538483,-0.007043659517835324,0.01401098110181102,0.9851310098321466
2016-06-17,-1,-0.0020852387469280946,-0.0016629965711246033,-0.007043659517835324,0.01401098110181102,0.9854779184019644
2016-06-21,-1,-0.0018518272959999907,-0.001456843212756623,-0.006043242961649878,0.011865184245154684,0.9862794246783555
2016-06-23,-1,-0.0011005664424413185,-0.0008043158632182881,-0.0075786924807126526,0.011358615150317695,0.9832274416522457
2016-06-27,-1,-0.0036279353696200677,-0.003041624527823537,-0.004691396810472495,0.011358615150317695,0.9863345181164183
2016-06-29,-1,-0.0022572594348238256,-0.0018688924200123943,-0.006043242961649878,0.0076700631255449785,0.9875669760488884
2016-07-01,-1,-0.0022029540158973364,-0.0017981261415174505,-0.005533503973505254,0.0076700631255449785,0.9883508150926626
2016-07-06,-1,-0.002873574724407983,-0.0023917883643295866,-0.004637734403140574,0.0076700631255449785,0.988702201122086
2016-07-08,-1,-0.0012069481816211465,-0.0009770543195466452,-0.004637734403140574,0.006682101062265893,0.9902173221731352
2016-07-12,-1,-0.0007010700856151882,-0.0005484667576588485,-0.004637734403140574,0.005805249092755902,0.990950244018041
2016-07-14,-1,-0.0005747051266497742,-0.0004615353719113124,-0.0041837988229153095,0.006679348067558002,0.9906624897846324
2016-07-18,-1,-0.0008576804496805018,-0.0006956536397904501,-0.0043438618864105,0.006679348067558002,0.990494209195518
2016-07-20,-1,-0.000758637120106207,-0.0006059024165447101,-0.0051179235936261456,0.005805249092755902,0.9906308179805764
2016-07-22,-1,-0.00230812922096354,-0.0020165852062705575,-0.0037916552866867435,0.006679348067558002,0.9940165775412009
2016-07-26,-1,-0.001897372311485893,-0.0016600451885873128,-0.0037916552866867435,0.005718524797704598,0.9941522010882823
2016-07-28,-1,-0.0018083968493901596,-0.001628363753104187,-0.0032795461825797442,0.005718524797704598,0.9942937893431977
2016-08-01,-1,-0.0018454643640988294,-0.001639964941247565,-0.002977022927670929,0.004106329567712489,0.9944553727082148
2016-08-03,-1,-0.0019761415660769824,-0.0017586277778555866,-0.0037916552866867435,0.004106329567712489,0.993836050920309
2016-08-05,-1,-0.00175520737006471,-0.0015580893770777875,-0.0053089818644802495,0.004106329567712489,0.9929598209351285
2016-08-09,-1,-0.0011319662091557982,-0.0010594660561102087,-0.0067120100191875075,0.004720927733147608,0.9925098595005671
2016-08-11,-1,-0.0009165235750442183,-0.0008734243720370006,-0.008877379165230731,0.003954733483300153,0.9911442931017987
2016-08-15,-1,-0.0014567242501496171,-0.0013088027700781458,-0.009364228476053832,0.004720927733147608,0.9895636345248402
2016-08-17,-1,-0.0014471362836719335,-0.0013103634232432156,-0.009364228476053832,0.007103693885856457,0.9886220024675151
2016-08-19,-1,-0.00045120487800649116,-0.0004300361300773613,-0.010601787932846005,0.006671717768794762,0.9886894979516744
2016-08-23,1,0.00019724921972947017,0.0003379354191692116,-0.010671694083289537,0.006671717768794762,0.9883244347088905
2016-08-25,-1,-0.00035774797941760274,-0.00034200784485802313,-0.012989155933672092,0.008047081803146058,0.9862433190000041
2016-08-29,-1,-0.00023058653432238806,-0.00020165133405468182,-0.012989155933672092,0.008047081803146058,0.9860648639560827
2016-08-31,-1,-0.0005967886042862128,-0.0005945384430598807,-0.012687772461180764,0.01181719245150081,0.9859757652305112
2016-09-02,1,0.0003301552558957336,0.0005009556505604505,-0.012687772461180764,0.011653759123735232,0.9869511994535493
2016-09-07,1,0.00017740976540397193,0.00031628836536370524,-0.012687772461180764,0.01181719245150081,0.9861371166559105
2016-09-09,-1,-0.0005987487881582422,-0.0005469961724986627,-0.010671694083289537,0.01181719245150081,0.9859265567805021
2016-09-13,-1,-0.0011503285317518664,-0.001050027246668516,-0.010671694083289537,0.011653759123735232,0.9866790312181687
2016-09-15,-1,-0.000494261245856859,-0.0004663470960665594,-0.010671694083289537,0.010255841586382642,0.9871470264628514
2016-09-19,-1,-0.00042704532138208243,-0.00042139992017257717,-0.007534108455032395,0.010255841586382642,0.9874502027070221
2016-09-21,-1,-0.0007342105530362648,-0.000662568252369655,-0.006874328181243684,0.010255841586382642,0.987448179374853
2016-09-23,-1,-0.0008637621039437431,-0.0007761029538813886,-0.005841288709421511,0.010255841586382642,0.987359281654648
2016-09-27,-1,-0.0011296816251879416,-0.0009958698864866217,-0.007854077031059064,0.010255841586382642,0.9870331728447822
2016-09-29,-1,-0.0008010297165479638,-0.0007339130566413562,-0.006052631090583246,0.007700889061269771,0.9880533855643221
2016-10-03,-1,-0.0002703595323829051,-0.000253172496912201,-0.006052631090583246,0.00523172493123953,0.9884192351779888
2016-10-05,1,0.00029287990969645,0.0003874059675679503,-0.006052631090583246,0.004410689410400753,0.989610464451422
2016-10-07,-1,-0.0007625355768413921,-0.0007234923111312287,-0.004173096284979181,0.00523172493123953,0.9913386567147654
2016-10-11,-1,-0.0018410159710010973,-0.0016455114007326434,-0.0021398008834381706,0.007263500014050098,0.9914693330647186
2016-10-13,-1,-0.0011306326828293366,-0.0010458339811612192,-0.0021398008834381706,0.008751218896549414,0.9905468273460604
2016-10-17,-1,-0.0005349047424054392,-0.0005328674104477031,-0.0021398008834381706,0.011920224271698197,0.9898726390879905
2016-10-19,-1,-0.00022777876286510362,-0.00017643892466244344,-0.0021398008834381706,0.009711533004338236,0.9901322950963167
2016-10-21,1,0.001173252550068581,0.0014118240711371876,-0.004173096284979181,0.008371665157945811,0.9924185497539743
2016-10-25,1,0.0008207425115971769,0.0010226590555618633,-0.0017610564364320396,0.009711533004338236,0.9928041488630198
2016-10-27,1,0.0008367345960237478,0.0010503051243036608,-0.001506054808024905,0.009711533004338236,0.9924708824182027
2016-10-31,1,0.000907030992943785,0.001127128277360109,-0.0027015020072225565,0.009711533004338236,0.9916568341671796
2016-11-02,1,0.0005648508750919069,0.0007118742231634186,-0.0017610564364320396,0.010652917132828298,0.991367864065141
2016-11-04,1,0.0007493741190797561,0.0009166139580509028,-0.002740901112113182,0.010652917132828298,0.9910543426346001
2016-11-08,1,0.0011637364263155005,0.0013887364297296484,-0.002740901112113182,0.010615277063238171,0.9911293046632457
2016-11-10,1,0.002304535067852888,0.002702458059883583,-0.002740901112113182,0.009508771928683081,0.9929924570881753
2016-11-14,1,0.003517111368391837,0.004120096101737971,-0.00364507378079822,0.008514833112110149,0.9936599787710078
2016-11-16,1,0.002238571921648383,0.0025211516606203363,-0.00364507378079822,0.008207402455995638,0.993898070831852
2016-11-18,1,0.0024596554016766753,0.002820805097433987,-0.003818619425808032,0.008691625775058597,0.9932667632201831
2016-11-22,1,0.0029231774784687983,0.0033678198101074657,-0.005502031351423738,0.008207402455995638,0.9932714364039403
2016-11-25,1,0.002958060390162757,0.003367790861501009,-0.005502031351423738,0.008691625775058597,0.992917834851937
2016-11-29,1,0.002861624257394204,0.0033170269658925567,-0.004183532331093984,0.008691625775058597,0.9933867213572226
2016-12-01,1,0.003336828241945507,0.0038804261284004,-0.004183532331093984,0.006456560817536318,0.9934507883959297
2016-12-05,1,0.0033615746344315997,0.003897105886586122,-0.003548306872839952,0.006456560817536318,0.9935162562470695
2016-12-07,1,0.003737940564331456,0.00431461533321674,-0.004691093692519499,0.005036741182885905,0.9925252506155039
2016-12-09,1,0.004024502796467197,0.004645467641615995,-0.004691093692519499,0.007183730262730319,0.9917435715265241
2016-12-13,1,0.0030702921423641444,0.003416684714997592,-0.006209033030753033,0.008417614968427587,0.9918229273535825
2016-12-15,1,0.003119130827482138,0.003494877356544286,-0.006209033030753033,0.011291095531880546,0.9915476838871587
2016-12-19,1,0.0026409995550298153,0.002909141834758826,-0.004519320991684122,0.00934831406838062,0.9921635492634319
2016-12-21,1,0.002316876536171176,0.0025498564083902943,-0.003946593589508251,0.00934831406838062,0.9925507676522356
2016-12-23,1,0.002249918982081474,0.002455869486526447,-0.002968288644976743,0.009488280758583174,0.9924420648142152
2016-12-28,1,0.0020168887055420615,0.0022046138943559966,-0.0028028277251508048,0.011783372431687911,0.9924404119064549
2016-12-30,1,0.0017490175005032637,0.0018929975304676676,-0.0028028277251508048,0.011783372431687911,0.9925204915877391
2017-01-04,1,0.0023399815136150182,0.002563463829524941,-0.003550332264177476,0.009488280758583174,0.9922947766807514
2017-01-06,1,0.0020200800736342446,0.0021934689588808125,-0.003550332264177476,0.009488280758583174,0.9924103737261445
2017-01-10,1,0.002102733937627802,0.002268585133564823,-0.003550332264177476,0.007879462206727661,0.9929433235174435
2017-01-12,1,0.002291125368970151,0.002508087372134211,-0.002018757996958203,0.007879462206727661,0.9933870341181373
2017-01-17,1,0.0024750726821834144,0.002734652478873162,-0.002018757996958203,0.007336532448584024,0.9935116876853906
2017-01-19,1,0.0023624511065018514,0.0025894315035636774,-0.001775217182981204,0.006772983852060726,0.9937701397697819
2017-01-23,1,0.0025469025139338306,0.002804059484782273,-0.001775217182981204,0.007336532448584024,0.9936253178126393
2017-01-25,1,0.0025998002830801407,0.0028120852244432927,-0.002654248902420541,0.006623331756252139,0.9936475432874433
2017-01-27,1,0.003139982915213531,0.003449189653997899,-0.0020681437735274367,0.007336532448584024,0.9936613057308677
2017-01-31,1,0.0028282883884398146,0.0030839452020671745,-0.003267133845012574,0.007723157520017402,0.9909193625765503
2017-02-02,1,0.0016609960576402759,0.001688324627235757,-0.003267133845012574,0.0074695322965028215,0.9910528189609138
2017-02-06,1,0.00206095030142477,0.0021516843688119637,-0.002745666039045635,0.006623331756252139,0.9919028977405427
2017-02-08,1,0.0022476835547850143,0.00240049322805599,-0.004933855173558481,0.006623331756252139,0.9914897619666827
2017-02-10,1,0.002253840374146026,0.0023889867668262076,-0.004933855173558481,0.0074695322965028215,0.9912082675795959
2017-02-14,1,0.0019878200432170232,0.0020846766228737133,-0.002745666039045635,0.00866893884112784,0.991158363322002
2017-02-16,1,0.0017966937429761821,0.0018505209515354685,-0.004264085266041699,0.00866893884112784,0.9910649018637832
2017-02-21,1,0.0018788753360309926,0.001930990882314998,-0.006474491299127839,0.006224511384031272,0.9901840186188131
2017-02-23,1,0.0013528121989526713,0.0013837149829370018,-0.004264085266041699,0.00821869663831521,0.9902484350708632
2017-02-27,1,0.001986906876842552,0.00204229835161917,-0.006143644882603564,0.006202450014720626,0.9905100545709549
2017-03-01,1,0.00251502752287614,0.0026693379497892706,-0.004264085266041699,0.006131537515096789,0.9930577610022119
2017-03-03,1,0.0012777795308599313,0.001365235913111888,-0.002461540439448286,0.006669220891653909,0.9938539406059009
2017-03-07,1,0.00021017913205317992,0.0004782163257818947,-0.003457401496219282,0.006669220891653909,0.9939196114555109
2017-03-09,0,-0.00011014372865302924,0.00017694463543114288,-0.0029449626591723827,0.007821174087659697,0.9939263895302856
2017-03-13,1,0.00032476251476601533,0.0005485141996422661,-0.0029449626591723827,0.006669220891653909,0.994297978448821
2017-03-15,1,0.0006015162145380349,0.0007773555179221561,-0.004267404880470359,0.006505456354000112,0.9936874706686053
2017-03-17,1,0.0013940368384547787,0.0014204904527412563,-0.004320305609064672,0.007258967975074472,0.9929980611375067
2017-03-21,0,-7.334396158283085e-05,0.0001567357842098072,-0.0029449626591723827,0.007258967975074472,0.9940621312108892
2017-03-23,1,0.00017312797526096695,0.000387093369712183,-0.0029449626591723827,0.006505456354000112,0.9940851132715063
2017-03-27,-1,-0.0003021559244511167,-2.8869577446435013e-05,-0.0014698848652854918,0.008477998218126077,0.9930149550955891
2017-03-29,-1,-0.00047972662273588606,-0.00013737937979253388,-0.0004296985928681085,0.011680394866160203,0.9884913393004827
2017-03-31,-1,-0.00022133036515911307,-6.1703161852097455e-06,-0.0029449626591723827,0.011680394866160203,0.9886656253959212
2017-04-04,-1,-0.00042993099240401067,-0.00020045295369448617,0.0008551380537031945,0.011680394866160203,0.9888015244633611
2017-04-06,1,0.0001906125961837586,0.00029571972475776726,0.0009488371404606371,0.011680394866160203,0.9890813731754174
2017-04-10,1,0.0006220082957813577,0.0006444091402016587,0.0008551380537031945,0.011680394866160203,0.9893188084989366
2017-04-12,1,0.00014663801549744462,0.00022877202475396163,0.0008551380537031945,0.011680394866160203,0.9901262065600969
2017-04-17,1,7.955834260508295e-05,0.00018002685250676095,0.0008551380537031945,0.010095004038291852,0.990318900190802
2017-04-19,1,0.00025747626365050017,0.0003276897534867585,3.400438673618943e-05,0.010095004038291852,0.9895655013724746
2017-04-21,1,0.0007986687661057817,0.0008024918281280421,3.400438673618943e-05,0.008689440306293175,0.9902932816780236
2017-04-25,1,0.0010447238234612384,0.0010497863178256012,-0.002085719512448166,0.0064944191164745604,0.9912928040511636
2017-04-27,1,0.0032701163714956077,0.0035750686425967577,-0.0030897078035668274,0.003724394288414267,0.9954440937145954
2017-05-01,1,0.0030558854634507695,0.0033319642473837756,-0.002085719512448166,0.003724394288414267,0.9956655348093342
2017-05-03,1,0.003152504425777342,0.0034612357528202853,-0.002085719512448166,0.0054455505066921634,0.9948073124972855
2017-05-05,1,0.003439794293131139,0.003786488400880023,-0.0030897078035668274,0.0038770877806283484,0.99434685972359
2017-05-09,1,0.0031774119683597715,0.003475461183991105,-0.0037559834238291385,0.0038770877806283484,0.9939724112271848
2017-05-11,1,0.0030416503343445567,0.003311178771107852,-0.0037559834238291385,0.004010862786968018,0.9942360235292518
2017-05-15,1,0.002984170467362831,0.003239099208668585,-0.004345722852580191,0.003914248162201916,0.9936478931395342
2017-05-17,1,0.0024444970313693168,0.002609372937606119,-0.00233527087642204,0.003914248162201916,0.994542878503943
2017-05-19,1,0.002467758925503582,0.002638767834695248,-0.00233527087642204,0.005816681065801732,0.9941955385709728
2017-05-23,1,0.0020645168599381925,0.002166288804105504,-0.005191377155205916,0.005816681065801732,0.992931134969519
2017-05-25,1,0.0017530289669708359,0.0017985222249611477,-0.00233527087642204,0.005816681065801732,0.9933054067639864
2017-05-30,1,0.0018080146994256883,0.0018795057481358094,-0.0059621984684801585,0.005816681065801732,0.9928634273677913
2017-06-01,1,0.002171711455261126,0.0022742621082454183,-0.011533491577550835,0.005816681065801732,0.9927553135536966
2017-06-05,1,0.002241161394963785,0.0023601215232203917,-0.011533491577550835,0.005341668040876087,0.9933789743747237
2017-06-07,1,0.0018086483295441688,0.0018649517215121882,-0.009857217620465212,0.005341668040876087,0.9932058433901145
2017-06-09,1,0.0018600259911484129,0.0019218616234216541,-0.009857217620465212,0.004481603743709221,0.993436691878379
2017-06-13,1,0.0013968242828853094,0.0013976558225071442,-0.004181166031584284,0.004567254457832619,0.9942106304359601
2017-06-15,1,0.0015033288418553458,0.001520247898111067,-0.009857217620465212,0.003953319226068477,0.9936606161031651
2017-06-19,1,0.0019138872406818416,0.002006263464522431,-0.009857217620465212,0.0028862649314927292,0.9940068176891077
2017-06-21,1,0.001269121053868793,0.0012805764300786136,-0.003741371662784547,0.0031349044159593746,0.9943800738731545
2017-06-23,1,0.001270886197714048,0.0012739959058019426,-0.0075874129641472126,0.002955845664727135,0.9939179422169241
2017-06-27,1,0.0006751396724836962,0.0007526487973494905,-0.0075874129641472126,0.002955845664727135,0.9937871804422581
2017-06-29,1,0.00033146740550872307,0.0004047706877027162,-0.0075874129641472126,0.002955845664727135,0.9899623739860373
2017-07-03,1,0.0003360047496649493,0.0004157156213256351,-0.00805615345803799,0.002693597201504575,0.9884677641430863
2017-07-06,1,6.944774127417463e-05,0.00017739074858787282,-0.0075874129641472126,0.002693597201504575,0.9888634307884608
2017-07-10,1,1.0308473496142899e-05,0.0001317845013609956,-0.0075874129641472126,0.006044205926232989,0.9882869795025137
2017-07-12,1,0.00011938940785779421,0.00022964519271766496,-0.0092181248293405,0.0043210031251259854,0.9878596248101557
2017-07-14,-1,-0.0001973789382641316,-5.5208856784863005e-05,-0.0092181248293405,0.0043210031251259854,0.9878637125422807
2017-07-18,-1,-0.00046491357601698754,-0.0002777424036887414,-0.0092181248293405,0.007826723245249733,0.9868713613780883
2017-07-20,-1,-0.0001525024624840014,-2.32052879482483e-05,-0.014189827290622844,0.007304941632246655,0.9867584005756187
2017-07-24,-1,-0.0003365943845347134,-0.00019291187189016937,-0.014189827290622844,0.007304941632246655,0.9865256877873108
2017-07-26,-1,-0.0008884465627534533,-0.0006706431090969666,-0.014189827290622844,0.007773384996350269,0.9862027882480502
2017-07-28,1,0.0005484064538306752,0.0006085973406798161,-0.010241554998135517,0.007773384996350269,0.9908777159970898
2017-08-01,1,0.0003857156174648958,0.0004794647457910533,-0.009218987953022319,0.007408015321142922,0.9918193355264039
2017-08-03,1,0.00031787683056210805,0.00040912469189452683,-0.009218987953022319,0.007773384996350269,0.9910855974051069
2017-08-07,1,0.0007148541326647043,0.0007508823742703515,-0.01091230172667109,0.007767545430371961,0.9905180334970184
2017-08-09,1,0.00025490570072159044,0.0003556869371458367,-0.009218987953022319,0.00904240375933513,0.9907162447422287
2017-08-11,-1,-0.0004934009733533591,-0.00028074792460379416,-0.0034936851153042217,0.00904240375933513,0.99085724293215
2017-08-15,1,2.8928892482155567e-05,0.00016630269892220235,-0.0034936851153042217,0.008439820236607123,0.9917655771276525
2017-08-17,-1,-0.0005351910622288277,-0.0003178233041582631,-0.00035095409975256136,0.00961662537972174,0.9915996789499858
2017-08-21,-1,-0.0006747731892206726,-0.00044246123894729707,0.0009571294139003978,0.009747253403579624,0.9913806993323794
2017-08-23,-1,-0.0008799298830885627,-0.0006258123042861351,0.0009571294139003978,0.009747253403579624,0.9919770640819467
2017-08-25,-1,-0.0009068185201829046,-0.0006349156817983331,-1.7702963591575944e-05,0.009747253403579624,0.9924303826050105
2017-08-29,-1,-0.001021764575858727,-0.0007391368008370085,-1.7702963591575944e-05,0.010116777263916184,0.9922954203049917
2017-08-31,-1,-0.0006160356619384539,-0.00038321278394701285,-1.7702963591575944e-05,0.009747253403579624,0.9933052276541695
2017-09-05,-1,-0.0011413060365065737,-0.0008291258452056442,-1.7702963591575944e-05,0.009197523656714605,0.9938500001627634
2017-09-07,-1,-0.0010533138247303103,-0.0007516078140263207,-1.7702963591575944e-05,0.008490548097569158,0.9941515599103191
2017-09-11,-1,-0.0009013076636598551,-0.0006190176030750116,-0.0007456332820771478,0.007002792917404875,0.9943354476720933
2017-09-13,-1,-0.0007087473576516668,-0.00046257156572235866,-0.0007456332820771478,0.007002792917404875,0.9945436267299342
2017-09-15,1,3.6840003278412704e-07,0.00013947033002330604,-0.0007456332820771478,0.0060943157702113455,0.9954436197624869
2017-09-19,1,0.0016138925290673438,0.0017771838509364718,-0.0024230500803765955,0.004604380176272229,0.9951614669105845
2017-09-21,1,0.0015568566922226099,0.001703974749708615,-0.0024230500803765955,0.004604380176272229,0.9946865101693111
2017-09-25,1,0.0015337475490948224,0.0016801373944772984,-0.004190391867312341,0.006848976259711232,0.9937240278554218
2017-09-27,1,0.0017695078382378494,0.001964517651324908,-0.004190391867312341,0.006848976259711232,0.9934739968744136
2017-09-29,1,0.0017425129780651895,0.001930398845583162,-0.004965529063844527,0.009945601543979896,0.9911382552680654
2017-10-03,1,0.001827499813655126,0.002027251536751677,-0.005934800163428103,0.009120046949331185,0.9906049420500953
2017-10-05,1,0.0018990547787228846,0.0021119230550369367,-0.006889660410697393,0.009120046949331185,0.9902206186698913
2017-10-09,1,0.0015357357522641033,0.001685774848296402,-0.005934800163428103,0.0091631083404871,0.990274322847686
2017-10-11,1,0.0015793660573585784,0.0017405241620537407,-0.005934800163428103,0.0091631083404871,0.9901349619828929
2017-10-13,1,0.0016500225652907752,0.0018126147369493249,-0.007434482864429638,0.0091631083404871,0.98941930425824
2017-10-17,1,0.0014501494016898012,0.0015746542543533697,-0.007434482864429638,0.007968501105405878,0.9901115546970416
