JNU-Tangyin/eata/results/Batch4_SP500/Batch4_SP500-IDXX.csv
Date,Action,Predicted_Q25,Predicted_Q75,Actual_Q25,Actual_Q75,RL_Reward
2010-12-14,0,0.0,0.0,-0.006919054957358489,0.006061478454541521,0.9951685298200239
2010-12-16,0,0.0,0.0,-0.007219540146986095,0.006118038662116673,0.9932818316412868
2010-12-20,0,0.0,0.0,-0.007219540146986095,0.006118038662116673,0.9927929640100985
2010-12-22,0,0.0,0.0,-0.0065616052239438494,0.006118038662116673,0.9930996892000924
2010-12-27,0,0.0,0.0,-0.0065616052239438494,0.006731727187620145,0.9923357884310242
2010-12-29,0,0.0,0.0,-0.004326736921905347,0.008407323885299509,0.9923162421986153
2010-12-31,0,0.0,0.0,-0.0026445534364108727,0.010957909009483006,0.9910944113441157
2011-01-04,0,0.0,0.0,-0.0010036113894443474,0.011750229983505812,0.9914536334056262
2011-01-06,0,0.0,0.0,5.064479431283455e-06,0.01191993545915588,0.9904710277597615
2011-01-10,-1,-0.00038718518189989983,-0.000309425711363039,9.397057998500541e-05,0.01191993545915588,0.9902401629029468
2011-01-12,1,0.0015923303840113198,0.0016551852651308955,9.397057998500541e-05,0.01191993545915588,0.9911862795712321
2011-01-14,1,0.0005712190163768647,0.0008185767373606047,0.0005026462820770657,0.01239476365028164,0.9909947664100864
2011-01-19,1,0.0008468486448439743,0.0010661875354968787,0.0005026462820770657,0.011750229983505812,0.991857981522872
2011-01-21,1,0.0004009923694895895,0.0006962534723638632,0.0005026462820770657,0.01239476365028164,0.9908036196645057
2011-01-25,1,0.002147841357952086,0.002181664471058124,-0.0007127945136511456,0.011750229983505812,0.9901752282994529
2011-01-27,1,0.0029602960918245365,0.0030703346861398408,-0.001467410937198647,0.011750229983505812,0.9894010112752071
2011-01-31,1,0.001481967869797437,0.0015939440531246934,-0.000812241779467827,0.011532690115955464,0.9911843889674993
2011-02-02,1,0.0016603319883938797,0.0017689998683004403,-0.000812241779467827,0.011566190513135169,0.9909334671503547
2011-02-04,0,0.0,0.0,-0.003976338273751228,0.009418609252530803,0.9904112543938919
2011-02-08,1,0.0005191035856864643,0.0005193245973874904,-0.003976338273751228,0.009890053686572434,0.9904456069438239
2011-02-10,1,0.0004421379702613498,0.00045204673526835965,-0.007852553609296157,0.009890053686572434,0.990062194016074
2011-02-14,0,0.0,0.0,-0.011572974600627204,0.007310501380078981,0.9903929555041254
2011-02-16,0,0.0,0.0,-0.011572974600627204,0.00612655286131114,0.9901186274620433
2011-02-18,1,0.004961563616704196,0.0053524719817096954,-0.011572974600627204,0.0072699223662215625,0.9892918046186705
2011-02-23,0,0.0,0.0,-0.007006327216675093,0.0072699223662215625,0.9920062936765287
2011-02-25,0,0.0,0.0,-0.006280665789403087,0.00612655286131114,0.9931334541250162
2011-03-01,0,0.0,0.0,-0.007933020553752935,0.006527750051056458,0.9925029464211526
2011-03-03,0,0.0,0.0,-0.007933020553752935,0.005271599411102945,0.9932075836626735
2011-03-07,0,0.0,0.0,-0.0036821674463634285,0.005883937159821598,0.993209356083878
2011-03-09,0,0.0,0.0,-0.006063794963519086,0.005271599411102945,0.9930736375639916
2011-03-11,0,0.0,0.0,-0.006063794963519086,0.005271599411102945,0.9933088921020011
2011-03-15,1,0.0006809648531163066,0.0008181723992376081,-0.0043109313392037385,0.005271599411102945,0.9941249745818802
2011-03-17,1,0.0006208880448503292,0.0007530004636825127,-0.0032166560519757774,0.005405331807684719,0.9943641931508646
2011-03-21,1,8.954995962489763e-05,0.0003512632707571439,-0.0043109313392037385,0.004212318211183754,0.9931637391404236
2011-03-23,-1,-0.0004112277230848872,-5.254911997391149e-05,-0.0043109313392037385,0.006291435611308212,0.991900243065848
2011-03-25,-1,-0.0005340060317607237,-0.00015357077452773926,-0.0043109313392037385,0.006291435611308212,0.9920699546549419
2011-03-29,-1,-0.0005693111339632609,-0.00020578064253283014,-0.003117451477572664,0.0067148596772486635,0.9920110816307344
2011-03-31,0,-0.0002962001136616423,3.616723061262571e-05,-0.003117451477572664,0.0067148596772486635,0.9920663190826428
2011-04-04,1,0.0007542842478668071,0.0009397839842036268,-0.0043109313392037385,0.006328505881850813,0.9927998253661126
2011-04-06,1,0.0004707167558706042,0.0006520137603198708,-0.003117451477572664,0.0067148596772486635,0.9927665132698884
2011-04-08,0,-3.8625896043340035e-05,0.00021240389674520685,-0.00246756239940413,0.007226970751637236,0.9925193985685209
2011-04-12,-1,-0.0006079049973011549,-0.0002795342065123271,-0.0019486357181367894,0.007750814915498744,0.9921414190212098
2011-04-14,0,-3.1704492002056087e-06,0.00023219434268317558,-0.00246756239940413,0.007226970751637236,0.9919959494104882
2011-04-18,-1,-0.0003564124238424907,-9.753985364792557e-05,-0.0033670579370441867,0.006553709029269811,0.9931114087088978
2011-04-20,1,0.0002712275294362251,0.0004816379773453978,-0.0033670579370441867,0.006553709029269811,0.9933029036297845
2011-04-25,-1,-0.00043171967600827833,-8.705118950062211e-05,-0.008277509266325058,0.006553709029269811,0.991572008295781
2011-04-27,1,0.0006584345899589487,0.0008099740694888897,-0.008277509266325058,0.005048817954925435,0.9916117673225149
2011-04-29,1,0.0005566708222067007,0.000732420892964566,-0.008277509266325058,0.0064747466584951915,0.9909493814978232
2011-05-03,1,8.045653541705598e-05,0.0002903057298019198,-0.008277509266325058,0.0064747466584951915,0.990424595568482
2011-05-05,1,0.000873379264678485,0.0008875005732017165,-0.014678261906814434,0.005496167310491325,0.9894116772017638
2011-05-09,1,0.0015618110483735684,0.0016687953405489127,-0.015243456118526146,0.004739958276196235,0.9887011901600493
2011-05-11,1,0.001478802660972635,0.0015610499003317682,-0.015243456118526146,0.004739958276196235,0.9881695473878076
2011-05-13,1,0.0010239381109958517,0.0010690583478792262,-0.014749973769240352,0.004739958276196235,0.9882590313209462
2011-05-17,1,0.0002586070863247364,0.00032086434309237983,-0.014983231343189973,0.005090624851825593,0.9875635652030718
2011-05-19,1,0.001005104138326557,0.001021770135997585,-0.014983231343189973,0.004739958276196235,0.9883352574265373
2011-05-23,-1,-0.0007701096020419443,-0.0005423506663328465,-0.013009873900350166,0.006225055315933975,0.9892800431762768
2011-05-25,-1,-0.0012764428769363543,-0.0009693076821715068,-0.013009873900350166,0.006225055315933975,0.9897668530190964
2011-05-27,-1,-0.0010109090846166912,-0.0006933311843929014,-0.013009873900350166,0.005090624851825593,0.9900627730600653
2011-06-01,-1,-0.0015120056559901473,-0.0011335986477024865,-0.011974629542712716,0.008717680767481664,0.9895727694653127
2011-06-03,-1,-0.0026524374297847834,-0.002130439569749561,-0.00402724399427477,0.01034297715832006,0.989976544988546
2011-06-07,-1,-0.0027626131364503663,-0.002243545375270419,-0.0028202191188479173,0.01367746449648554,0.9902544474442694
2011-06-09,-1,-0.0029341878899018965,-0.002398916208960924,-0.0028202191188479173,0.01367746449648554,0.9901218581208387
2011-06-13,-1,-0.0034822204286327546,-0.0029037603123216837,-0.0027243205924683484,0.01367746449648554,0.9890164501636176
2011-06-15,-1,-0.0035551373058951034,-0.002965473784344315,-0.0027243205924683484,0.011709659524842132,0.9899046527837735
2011-06-17,-1,-0.002962538000407278,-0.002507328602533886,-0.003956108405508961,0.011709659524842132,0.9898325181621539
2011-06-21,-1,-0.001544548500516952,-0.0012755561342376507,-0.003956108405508961,0.009930395300223256,0.9902622023299988
2011-06-23,-1,-0.002248908014990344,-0.0018417288342694965,-0.003956108405508961,0.013807320260448692,0.9856327818408428
2011-06-27,-1,-0.001927218753889125,-0.0015648316909299118,-0.005848295793257558,0.013807320260448692,0.9854809389505329
2011-06-29,0,0.0,0.0,-0.010998726306282253,0.011709659524842132,0.9854961581659154
2011-07-01,0,0.0,0.0,-0.011678451541409403,0.009930395300223256,0.9855146567998622
2011-07-06,0,0.0,0.0,-0.013595021482038153,0.00783783418417458,0.9847631425112753
2011-07-08,0,0.0,0.0,-0.015168989673354429,0.0070102104112314545,0.9828725754533414
2011-07-12,0,0.0,0.0,-0.015168989673354429,0.00783783418417458,0.9786596900785897
2011-07-14,0,0.0,0.0,-0.02066002813352081,0.010906456692534084,0.9750954080945393
2011-07-18,0,0.0,0.0,-0.02066002813352081,0.02184720661006674,0.9745858529284402
2011-07-20,0,0.0,0.0,-0.02066002813352081,0.010927466289228447,0.9753454842798323
2011-07-22,0,0.0,0.0,-0.0318011028454582,0.0016427344969038376,0.9772687947067347
2011-07-26,0,0.0,0.0,-0.0318011028454582,0.004416497232148688,0.9761512473430987
2011-07-28,0,0.0,0.0,-0.02066002813352081,0.0016427344969038376,0.9772382030865684
2011-08-01,0,0.0,0.0,-0.02066002813352081,0.02278092114872555,0.974170454562697
2011-08-03,1,0.00034037488543031224,0.00034832685540246575,-0.016450727884580112,0.02278092114872555,0.9751585440163028
2011-08-05,0,0.0,0.0,-0.018428629012130646,0.02278092114872555,0.9755629752035898
2011-08-09,0,0.0,0.0,-0.012220649772149667,0.02278092114872555,0.9793994672297174
2011-08-11,0,0.0,0.0,-0.013537074993684875,0.008077420269122481,0.9810975676539836
2011-08-15,0,0.0,0.0,-0.013537074993684875,0.008101107464152778,0.9815376030122434
2011-08-17,0,0.0,0.0,-0.013537074993684875,0.009216336636024013,0.9813151037261724
2011-08-19,-1,-0.0019882760037937706,-0.0017396268078072909,-0.012950627938703314,0.009216336636024013,0.9834882683501448
2011-08-23,-1,-0.00065229299444295,-0.0005687589105288347,-0.014497641354203426,0.008693103418774873,0.9839983330827156
2011-08-25,-1,-0.0004996630799785115,-0.0004306377063043235,-0.01382045152703435,0.008693103418774873,0.9838624203977415
2011-08-29,1,0.0018745557588139522,0.0020892096088157225,-0.01382045152703435,0.008101107464152778,0.9858567684957937
2011-08-31,1,0.0016897854089484737,0.0018598026763833372,-0.014595605167471647,0.008101107464152778,0.9846286249641385
2011-09-02,-1,-0.0014446220133821357,-0.0012678765949528342,-0.014595605167471647,0.008101107464152778,0.9842063447335303
2011-09-07,0,0.0,0.0,-0.014595605167471647,0.008693103418774873,0.9838890280851086
2011-09-09,0,0.0,0.0,-0.01382045152703435,0.010832540374680847,0.9856551107650906
2011-09-13,0,0.0,0.0,-0.01382045152703435,0.01243944603194586,0.9850229602317305
2011-09-15,0,0.0,0.0,-0.01382045152703435,0.010869746380198437,0.9854047451347012
2011-09-19,0,0.0,0.0,-0.014504862395284132,0.010869746380198437,0.9844498319892031
2011-09-21,0,0.0,0.0,-0.006755611094658869,0.011645817302165011,0.9847662153042837
2011-09-23,0,0.0,0.0,-0.003465581035487356,0.014490735719249796,0.9838635129627391
2011-09-27,0,0.0,0.0,-0.010430789416486399,0.014399057224277652,0.9826295824791595
2011-09-29,-1,-0.0025460396104188734,-0.002279969739064712,-0.005252286062002714,0.020034715246586857,0.9818482956777302
2011-10-03,-1,-0.0036366208152219066,-0.0033193411920475744,-0.00204579360568754,0.020034715246586857,0.9833068435411234
2011-10-05,-1,-0.002420565113446883,-0.0022269323657447054,-0.005252286062002714,0.020034715246586857,0.983073768177119
2011-10-07,0,0.0,0.0,-0.004147553891743812,0.01974947378033236,0.9837576812685542
2011-10-11,0,0.0,0.0,-0.003193269150281242,0.014348736540045308,0.9842326663813883
2011-10-13,0,0.0,0.0,-0.015491591668156538,0.014348736540045308,0.9826194213346474
2011-10-17,0,0.0,0.0,-0.011205666413300305,0.018297368215886914,0.9828645546620363
2011-10-19,0,0.0,0.0,-0.011205666413300305,0.018297368215886914,0.9828800782648299
2011-10-21,0,0.0,0.0,-0.015491591668156538,0.018297368215886914,0.9818303793923862
2011-10-25,0,0.0,0.0,-0.014278379829950217,0.013886208348705976,0.9828973179166113
2011-10-27,0,0.0,0.0,-0.02276627855194773,0.010202303489095624,0.9836356071508479
2011-10-31,-1,-0.0017253240755430747,-0.001476330703669852,-0.013926479323078993,0.013886208348705976,0.9825663255177765
2011-11-02,-1,-0.0021158383872193097,-0.001794254901980106,-0.010794569607743134,0.013886208348705976,0.9831504464052095
2011-11-04,-1,-0.001374006645690283,-0.0011525546931896503,-0.013926479323078993,0.013846494049597417,0.982414698485066
2011-11-08,-1,-0.0007253317397876423,-0.0005825398216666977,-0.013926479323078993,0.011478799748600933,0.9833734122398918
2011-11-10,-1,-0.0011104758198533073,-0.0009726768935207019,-0.013926479323078993,0.017715697127221902,0.9820220044834785
2011-11-14,-1,-0.0011116203028931101,-0.0009607345386630642,-0.013632682686478896,0.011478799748600933,0.9829148437471538
2011-11-16,-1,-0.001079015504691383,-0.0009325181182319171,-0.010342395882087577,0.010901926977286314,0.9835696102699675
2011-11-18,-1,-0.000664660679897482,-0.000621663695796876,-0.007434538994821277,0.007056823139076878,0.9857289528864829
2011-11-22,-1,-0.00039540242394248246,-0.000382466347331071,-0.005782500983509739,0.010353853404899246,0.9859056247996101
2011-11-25,-1,-0.0009167393935270483,-0.0008849404761803638,-0.005591145888320005,0.017867007920851122,0.9857280493564079
2011-11-29,1,0.0003152587441905591,0.00044014154167201953,-0.005782500983509739,0.017867007920851122,0.9861444071903601
2011-12-01,1,0.0011522566024176272,0.0013733239709501617,-0.007434538994821277,0.014456665842974514,0.9869113429615349
2011-12-05,1,0.0009078952857197802,0.0010846588398539985,-0.005782500983509739,0.014647690935712289,0.9875263112374967
2011-12-07,1,0.0006114935312294872,0.000728579710107134,-0.005782500983509739,0.014647690935712289,0.987285449936994
2011-12-09,1,0.0014938317396090196,0.0017855399048399517,-0.0031241902564877835,0.009280747743186303,0.9903136781354932
2011-12-13,1,0.002606537306635578,0.003201200667943033,-0.0016172119109394427,0.010543088695870952,0.9906619340462648
2011-12-15,1,0.0019936467207712517,0.0024616298774425716,-0.00102670549893355,0.014534956417964533,0.990410475100549
2011-12-19,1,0.0016188386417156984,0.0020066208687132066,0.0006810149439233388,0.017009350169711307,0.9897913393747494
2011-12-21,1,0.0021241657199005427,0.002534123124111164,0.0006810149439233388,0.014208358098510494,0.9906934213626366
2011-12-23,1,0.0022622252612157726,0.002645243123823599,0.0016913170770872215,0.010543088695870952,0.9917003080573684
2011-12-28,1,0.0009201655872479015,0.0010181017443881327,0.0016913170770872215,0.009533457414290337,0.9905386546720343
2011-12-30,1,0.001794721133574657,0.002082597786942011,0.0016913170770872215,0.009533457414290337,0.9916418541381443
2012-01-04,1,0.002588717976477474,0.0029848997596200483,0.0033949244218022387,0.009533457414290337,0.9924390944996572
2012-01-06,1,0.0027683121152296316,0.003207440848501659,0.0016913170770872215,0.009533457414290337,0.9919898495912891
2012-01-10,1,0.0029541489332354366,0.003404112636828264,0.001352350322054139,0.009533457414290337,0.9922680079824218
2012-01-12,1,0.002547705594514212,0.0028627879678094943,-0.0002952122465246573,0.008228620913523284,0.9920100907233915
2012-01-17,1,0.0034071555028908716,0.0038908563557593636,-0.0002952122465246573,0.008228620913523284,0.9923714727080836
2012-01-19,1,0.0036212426118212657,0.004075322168534918,-0.0002952122465246573,0.007314850000012372,0.9927826800252997
2012-01-23,1,0.0052239132097869866,0.00604560083041244,-0.0016057657791027444,0.006154054234266186,0.992099183711517
2012-01-25,1,0.004900172136223285,0.005632721971904872,-0.0032642601844647553,0.005542046686050099,0.9915650898390875
2012-01-27,1,0.002354822419371316,0.002663040097244233,-0.0032642601844647553,0.005542046686050099,0.9938521518819109
2012-01-31,1,0.003886890650862153,0.0044490758508162346,-0.004827964595061388,0.0050273335967292105,0.9929009055687995
2012-02-02,1,0.0034639114045690554,0.0038475590178595077,-0.006225352683398293,0.002942450971224326,0.9931387628146706
2012-02-06,1,0.0033700927590981766,0.0037796535636254337,-0.006225352683398293,0.002942450971224326,0.9925614282154163
2012-02-08,1,0.0034246506313838233,0.0038441580760115546,-0.006225352683398293,0.004703841063174864,0.992464136747905
2012-02-10,1,0.0030651181211785866,0.0034139504729044454,-0.006776026620709671,0.005542046686050099,0.9912314815251325
2012-02-14,1,0.0033113503257349883,0.0036730676268266543,-0.006776026620709671,0.00472488804759097,0.9907627104848126
2012-02-16,1,0.003684233312082073,0.004078520541896107,-0.006776026620709671,0.00309534771884265,0.9904260485759063
2012-02-21,1,0.003551670976928948,0.003949642647290302,-0.007163402955059137,0.00487325223040044,0.9904389297828993
2012-02-23,1,0.0024554198889415934,0.002635397196777985,-0.00842829597425012,0.00487325223040044,0.9906318847678326
2012-02-27,1,0.0007188027776841507,0.0008608673199022717,-0.00842829597425012,0.008397966042728112,0.9901812217360549
2012-02-29,1,0.0006065767288020896,0.0007038558065289165,-0.005299724835364275,0.008397966042728112,0.9908088046022506
2012-03-02,1,0.0004476787760864278,0.0005446357481124795,-0.004042092008609673,0.009375641431068964,0.9910155274568326
2012-03-06,1,7.105171930441603e-05,0.00018241962878280785,-0.0038880009672431297,0.009375641431068964,0.9917755242184316
2012-03-08,1,0.000513222245093911,0.0005642590797632667,-0.004042092008609673,0.009375641431068964,0.9919873872933367
2012-03-12,-1,-0.0008525126941057578,-0.0005811618034266531,-0.0050061238789941825,0.00796614755658246,0.9923570503106455
2012-03-14,1,4.807594186666183e-05,0.00017437194435209033,-0.004544811457799111,0.00796614755658246,0.9923329575644823
2012-03-16,1,0.00040760099557131076,0.0004594800084869538,-0.007479663382213348,0.006686300651687196,0.9919633191531328
2012-03-20,1,0.00018227759326707458,0.00028754012682332807,-0.006738208959656085,0.009375641431068964,0.9907692182396165
2012-03-22,1,0.00012765269797244226,0.00020649843201118412,-0.006738208959656085,0.009375641431068964,0.9900928623206529
2012-03-26,1,0.00035967368886314195,0.0004604257272648654,-0.008144595218767325,0.006686300651687196,0.9906355185421265
2012-03-28,1,0.0003796457901765676,0.0004937613120107395,-0.008144595218767325,0.007265982647294846,0.9902832827425122
2012-03-30,1,0.0007372681050996453,0.0007900613676776507,-0.008144595218767325,0.007265982647294846,0.9898740198223128
2012-04-03,1,0.0008993371245260451,0.0009159672170505114,-0.008144595218767325,0.00911259392489267,0.9897700417390114
2012-04-05,0,-1.81752979050067e-05,0.0001648357376801677,-0.011269389217085687,0.00911259392489267,0.9890715547594979
2012-04-10,-1,-0.001130297018201176,-0.0008222537448744129,-0.004148387191166115,0.010335965219440541,0.9892204194346919
2012-04-12,-1,-0.0004222940843838679,-0.00019424700363447872,-0.008391392412208314,0.00911259392489267,0.9898679969443706
2012-04-16,-1,-0.0014427020248633509,-0.0010848346064118875,-0.005129790444437586,0.00911259392489267,0.9899118548291529
2012-04-18,-1,-0.0004339192238800092,-0.00017882668225576792,-0.010949496361637405,0.005872046100662069,0.9913804730687672
2012-04-20,-1,-0.001871786296169303,-0.0013962217557801655,-0.012203687813493753,0.004587407571778096,0.9905047787311825
2012-04-24,-1,-0.0012938002923329926,-0.0009533180797586292,-0.010949496361637405,0.007265982647294846,0.9899025545839861
2012-04-26,-1,-0.0005059085496886069,-0.0002800188808099233,-0.010949496361637405,0.0056426705734400635,0.9896552538450749
2012-04-30,-1,-0.0004601731292381468,-0.00022520873214004658,-0.010949496361637405,0.0056426705734400635,0.9900075938770494
2012-05-02,0,-9.985516365321721e-05,9.231206079031668e-05,-0.012587046603266108,0.002753110660975161,0.9893703479881653
2012-05-04,-1,-0.0008815754158858912,-0.0006117658579397179,-0.012587046603266108,0.004998091297993095,0.9883728991996585
2012-05-08,-1,-0.00044900011330276763,-0.00020777427728313372,-0.012587046603266108,0.00801426350366657,0.9877997408489201
2012-05-10,-1,-0.0012863365887577096,-0.0009178808759374006,-0.012200940792880786,0.008705890538301663,0.9878667113759838
2012-05-14,-1,-0.0022099769210033923,-0.0017140743598399592,-0.007972105965504328,0.008705890538301663,0.9879660535408427
2012-05-16,-1,-0.0021331779118089742,-0.0016860818316619618,-0.006661077009486653,0.011564655149298388,0.9869618696500456
2012-05-18,-1,-0.003319773753937753,-0.0027695527195239367,-0.0021279728024107608,0.015425691420184556,0.9866193594066345
2012-05-22,-1,-0.002525697962066433,-0.002048099815581241,-0.0021279728024107608,0.015425691420184556,0.9862269871926977
2012-05-24,-1,-0.0018046053459557457,-0.0014068865479427211,-0.004888395022867611,0.015795899117889527,0.9851365377337068
2012-05-29,-1,-0.0011213127744281247,-0.0008458256404264486,-0.006621645760216804,0.015795899117889527,0.9849295070663248
2012-05-31,-1,-0.002034580915627987,-0.0016541878826836698,-0.004888395022867611,0.016855465503393667,0.9841002029768189
2012-06-04,-1,-0.00266423244718082,-0.0022335258537394924,-0.0017862016038971249,0.01888708187945541,0.9833750174298399
2012-06-06,-1,-0.0013074621666297073,-0.0010551172137383687,-0.0053078343624895705,0.018761643334489278,0.9849016348833651
2012-06-08,-1,-0.0008221406134995575,-0.0006549416563804116,-0.006621645760216804,0.018761643334489278,0.9850652066215728
2012-06-12,-1,-0.00036891908778228876,-0.0003011085514434452,-0.006993342034538648,0.018761643334489278,0.984004180864653
2012-06-14,1,0.0009423890810939623,0.0010602811335559056,-0.013475084849201678,0.016855465503393667,0.9841953662016051
2012-06-18,1,0.0021552280277220173,0.002455955876444113,-0.014555891213197461,0.015016687466586937,0.9842075176525054
2012-06-20,1,0.002496991060610069,0.002764240949688035,-0.014555891213197461,0.014478021391453912,0.9857178340014353
2012-06-22,1,0.002179356673491494,0.0024212554227091235,-0.017679163833381313,0.013007112403431723,0.985505468977912
2012-06-26,1,0.0024027689544538584,0.0027216932601917803,-0.017679163833381313,0.008906291327010617,0.9858630237262735
2012-06-28,1,0.0019705026572880203,0.002204505683735056,-0.014555891213197461,0.008906291327010617,0.9867357613585346
2012-07-02,1,0.0033402935016852496,0.0037632176123784567,-0.014555891213197461,0.003666938540687074,0.9874120584895715
2012-07-05,1,0.0025518368413283386,0.002856799268440082,-0.01449806974258703,0.003666938540687074,0.9882433576241502
2012-07-09,1,0.002583453031557496,0.0029233511010913625,-0.01449806974258703,0.005463130431049654,0.9872232352164844
2012-07-11,1,0.002796358649798549,0.0031955992093434023,-0.01144203348727668,0.005463130431049654,0.9881391235902689
2012-07-13,1,0.001660377373800414,0.0018934988917125588,-0.006386832315422149,0.0073131865150239585,0.9883514978147788
2012-07-17,1,0.0015637013761307945,0.0017696689089744433,-0.006386832315422149,0.005463130431049654,0.989112755489825
2012-07-19,0,0.0,0.0,-0.006386832315422149,0.008747980171972744,0.9884229751774337
2012-07-23,-1,-0.0007862588377263528,-0.000721584323234483,-0.004545107285610758,0.008747980171972744,0.9907288074523306
2012-07-25,-1,-0.0008428028843277334,-0.00076703780924521,-0.004545107285610758,0.008747980171972744,0.9908791114843415
2012-07-27,-1,-0.0007111110690467005,-0.0006063686636254958,-0.004545107285610758,0.007644699390954225,0.991567648445742
2012-07-31,0,0.0,0.0,-0.0036498469339476575,0.008629371069351466,0.9916237780325
2012-08-02,0,0.0,0.0,-0.0030241134899327256,0.008629371069351466,0.9917392317074938
2012-08-06,0,0.0,0.0,-0.0030241134899327256,0.008629371069351466,0.9921996014625449
2012-08-08,0,0.0,0.0,-0.0025253576462214993,0.010423519853778426,0.9918576033714376
2012-08-10,0,0.0,0.0,-0.0025834813438663754,0.008203212618222785,0.9933840185754861
2012-08-14,0,0.0,0.0,-0.0025834813438663754,0.010423519853778426,0.9933469904808562
2012-08-16,0,0.0,0.0,-0.0025834813438663754,0.006594686825362459,0.9941793889399868
2012-08-20,0,0.0,0.0,-0.002766905919482644,0.0064787450580383625,0.9932117655847901
2012-08-22,0,0.0,0.0,-0.0024466297160813145,0.007752559040011165,0.9933013129366564
2012-08-24,0,0.0,0.0,-0.0024466297160813145,0.008952950016522288,0.9928230972082915
2012-08-28,0,0.0,0.0,-0.0025834813438663754,0.006728657524138197,0.9928272634814526
2012-08-30,1,0.0008534144070450382,0.000861178204895669,-0.0024401776166238275,0.006728657524138197,0.9928421027656473
2012-09-04,1,0.0018135818139999576,0.0019674783730909366,-0.0025834813438663754,0.006080263404091634,0.9929905538446385
2012-09-06,1,0.0019895611316755792,0.002118974733501566,-0.0025834813438663754,0.006080263404091634,0.993356095013177
2012-09-10,1,0.002342464387611341,0.0025877569062017656,-0.002250002610512822,0.006080263404091634,0.9935523874089547
2012-09-12,1,0.002277398295896413,0.002481057675531013,-0.002250002610512822,0.00593380138277971,0.9925934208276058
2012-09-14,1,0.0021604894556294493,0.002323054006253074,-0.004159046614257737,0.00593380138277971,0.9916923567685625
2012-09-18,1,0.0015312267770239217,0.0016340498333531146,-0.002250002610512822,0.008389576647839455,0.9922726138411352
2012-09-20,1,0.0018758571169829063,0.00204512609572797,-0.002250002610512822,0.006633903111992053,0.9924210995252347
2012-09-24,1,0.002503575373119348,0.0027737186054785142,-0.004159046614257737,0.005200075872448447,0.9922260808566861
2012-09-26,1,0.0016955514204369851,0.0018176687768835858,-0.009318423556937244,0.005200075872448447,0.9918786271917152
2012-09-28,1,0.0020636133552432365,0.0022717956285645538,-0.009318423556937244,0.0048073113033704614,0.9919344723910826
2012-10-02,1,0.0012716211828713545,0.0013504392517105588,-0.008301594747723353,0.0048073113033704614,0.9923007635022536
2012-10-04,0,0.0,0.0,-0.008507248791241503,0.004619182530763866,0.9920208786509712
2012-10-08,0,0.0,0.0,-0.009318423556937244,0.004619182530763866,0.9916458870936896
2012-10-10,0,0.0,0.0,-0.009318423556937244,0.004619182530763866,0.9914685238655677
2012-10-12,0,0.0,0.0,-0.008507248791241503,0.003489557501185155,0.9923417202503624
2012-10-16,0,0.0,0.0,-0.008507248791241503,0.003085876292938739,0.9927996421610182
2012-10-18,-1,-5.7093053469415084e-05,-4.9905559585205014e-05,-0.008507248791241503,0.003085876292938739,0.9917189323108302
2012-10-22,0,0.0,0.0,-0.008072674710552879,0.0022638503916055292,0.992138457042465
2012-10-24,0,0.0,0.0,-0.0075387090075121664,0.003489557501185155,0.9918373676209774
2012-10-26,0,0.0,0.0,-0.008072674710552879,0.003489557501185155,0.990858433436594
2012-11-01,0,0.0,0.0,-0.007933893276920545,0.0035723999061009434,0.9903785753128752
2012-11-05,0,0.0,0.0,-0.007967483752285696,0.0035723999061009434,0.9903955529588053
2012-11-07,0,0.0,0.0,-0.007286753756688908,0.004630310643156139,0.9905096473293904
2012-11-09,0,0.0,0.0,-0.002765439962265594,0.004630310643156139,0.9919031067888545
2012-11-13,0,0.0,0.0,-0.002765439962265594,0.006491105081281821,0.9912210418400338
2012-11-15,0,0.0,0.0,-0.00239538273634542,0.006862481392382108,0.9912153282657117
2012-11-19,0,0.0,0.0,-0.00239538273634542,0.0050822767738109296,0.9925900151095335
2012-11-21,0,0.0,0.0,-0.002128358497472507,0.00675047285709377,0.992423460041309
2012-11-26,0,0.0,0.0,-0.004952619546525226,0.0050822767738109296,0.9931333152387269
2012-11-28,-1,-0.8131272203067695,-0.7078983051850808,-0.0010138683283596915,0.0050822767738109296,0.5677381669559886
2012-11-30,1,0.00011682321870083658,0.00016713669378362587,-0.004952619546525226,0.0050822767738109296,0.9928230549152278
2012-12-04,-1,-0.0003369397138366511,-0.00031275968069537725,-0.0015701472330957025,0.00675047285709377,0.9927138531188124
2012-12-06,0,0.0,0.0,-0.0015701472330957025,0.006911899222398388,0.9924947435781657
2012-12-10,0,0.0,0.0,-0.0015701472330957025,0.007776361848372963,0.9920013391756654
2012-12-12,0,0.0,0.0,-0.0024052333318100184,0.00675047285709377,0.9927843786464037
2012-12-14,0,0.0,0.0,-0.006111869023852568,0.006179224140579812,0.9923027415951898
2012-12-18,0,0.0,0.0,-0.007021034127571787,0.006179224140579812,0.9921661854185787
2012-12-20,0,0.0,0.0,-0.01042432793015969,0.006819669695977712,0.9909870480437996
2012-12-24,0,0.0,0.0,-0.007054671885278142,0.009963649297387698,0.9906624846060349
2012-12-27,0,0.0,0.0,-0.003438010298752976,0.01179851733947869,0.990713303419359
2012-12-31,0,0.0,0.0,-0.007054671885278142,0.009963649297387698,0.9902029485432584
2013-01-03,0,0.0,0.0,-0.010040871512268477,0.006819669695977712,0.9900188814211469
2013-01-07,0,0.0,0.0,-0.010040871512268477,0.0029350857981665208,0.9902369431838846
2013-01-09,0,0.0,0.0,-0.010040871512268477,0.0014041041170970525,0.99105520915025
2013-01-11,0,0.0,0.0,-0.010040871512268477,0.001277146401480977,0.9910188291836379
2013-01-15,0,0.0,0.0,-0.008956123990705837,0.001277146401480977,0.9913324912134681
2013-01-17,0,0.0,0.0,-0.008956123990705837,0.001277146401480977,0.9911828300272222
2013-01-22,0,0.0,0.0,-0.008131146487729363,0.0013747192406420553,0.9924587523179853
2013-01-24,0,0.0,0.0,-0.008956123990705837,0.0013747192406420553,0.99231191446014
2013-01-28,0,0.0,0.0,-0.009195171234463423,0.00026652044474325786,0.9933684217111344
2013-01-30,-1,-0.0005954616509919055,-0.0005899485260839805,-0.008131146487729363,0.0010986060586933909,0.9942786413256636
2013-02-01,-1,-0.0007362937431811568,-0.000723168108491956,-0.0072733668307545995,0.0010986060586933909,0.9946529642315214
2013-02-05,-1,-0.0008454662219174195,-0.000834486929193193,-0.007336876529357359,0.0010986060586933909,0.993465388005458
2013-02-07,-1,-0.00046757095961003504,-0.0004025140983483442,-0.009195171234463423,0.0021056665224188165,0.9927152120683201
2013-02-11,-1,-0.0003123808802968852,-0.00020029967257632252,-0.009195171234463423,0.004242668175775808,0.9925003086420401
2013-02-13,-1,-0.0014829729963742684,-0.0013943234563612225,-0.006261910439013519,0.005708936306025425,0.9925375914862514
2013-02-15,-1,-0.0015365166355584808,-0.001464658077886719,-0.009366602445453743,0.005708936306025425,0.9921801117229553
2013-02-20,-1,-0.0005667455356167354,-0.00047286275207594894,-0.009366602445453743,0.004242668175775808,0.9924959926331661
2013-02-22,-1,-0.000580397895255324,-0.0005108211906757614,-0.00584566346222174,0.004242668175775808,0.9931555144118098
2013-02-26,-1,-0.0007809710362382894,-0.0007231411714791649,-0.005684012143315597,0.004908351491768492,0.9926257071205594
2013-02-28,-1,-0.000669627403466498,-0.0006364594645179737,-0.006236439944184091,0.004908351491768492,0.9929354487142839
2013-03-04,-1,-0.0006149759198104488,-0.0005349677003876602,-0.006236439944184091,0.004908351491768492,0.9925044256516345
2013-03-06,0,0.0,0.0,-0.006236439944184091,0.004908351491768492,0.9929501267462543
2013-03-08,-1,-0.0004536610413027927,-0.0004238391263045277,-0.0039592001393917815,0.005420053949615784,0.9932491750580268
2013-03-12,-1,-0.0003749237108781661,-0.000353412167933407,-0.003529707045872928,0.005420053949615784,0.9933294813545311
2013-03-14,1,0.00047735202110070805,0.0006176975977541875,-0.006236439944184091,0.004431554945589614,0.9930239179467216
2013-03-18,1,8.228769589052739e-05,0.0001877791513005842,-0.006236439944184091,0.005420053949615784,0.9921438827149895
2013-03-20,1,0.0001437424615089999,0.0002397762437385456,-0.00788883382402099,0.005420053949615784,0.9917791952842414
2013-03-22,1,3.082320792994037e-05,6.982784948009582e-05,-0.00788883382402099,0.006367952629143718,0.990988855283125
2013-03-26,0,0.0,0.0,-0.01192174901323705,0.004720591116467005,0.9887689803067936
2013-03-28,0,0.0,0.0,-0.01192174901323705,0.006554210607477802,0.9872510396400263
2013-04-02,-1,-0.0014091550361327754,-0.0012453858919871834,-0.008256266798571152,0.006554210607477802,0.9875281738683259
2013-04-04,0,0.0,0.0,-0.009957704098658926,0.005506531559183111,0.9870589524365185
2013-04-08,-1,-0.0010704540576192453,-0.0008985935165924937,-0.009957704098658926,0.006893186788323373,0.9866580641562246
2013-04-10,-1,-0.0008650880825355513,-0.0007250256262821084,-0.009957704098658926,0.010451445313983235,0.9860457075675563
2013-04-12,-1,-0.0020631955116919235,-0.0017807970687180297,-0.008153048374971793,0.010793214126949651,0.9864643031992475
2013-04-16,0,0.0,0.0,-0.007854428431055067,0.010793214126949651,0.9866614693510878
2013-04-18,0,0.0,0.0,-0.010047097313948249,0.010793214126949651,0.9860309991541153
2013-04-22,0,0.0,0.0,-0.010047097313948249,0.010451445313983235,0.9864724251967877
2013-04-24,1,0.00025155662481415257,0.0003019498459047819,-0.008974037970453465,0.010451445313983235,0.9883255178822962
2013-04-26,1,0.0019403312552405626,0.0021398476547641976,-0.008974037970453465,0.007003352790545857,0.9890037772194402
2013-04-30,1,0.0015359823788910765,0.0016574447497880306,-0.009300406028685922,0.008601735215696316,0.9887269992246172
2013-05-02,1,0.0007606273564660317,0.000793372348523296,-0.008789344754995584,0.008601735215696316,0.9901454732719579
2013-05-06,1,0.0014499660718151957,0.0015829820483711174,-0.008789344754995584,0.008197344687094363,0.9900818047001102
2013-05-08,1,0.002246972756759927,0.002514741296115881,-0.008789344754995584,0.0064265177105578665,0.9903268206373774
2013-05-10,1,0.002326744141325137,0.0026031418916421054,-0.008789344754995584,0.005703449652157305,0.9908479955323467
2013-05-14,1,0.002699647221723195,0.003033957385738372,-0.008789344754995584,0.0064265177105578665,0.9912995098522216
2013-05-16,1,0.0017555083065878042,0.0019673011159471714,-0.006373396904976835,0.008197344687094363,0.9909299251511757
2013-05-20,1,0.0010997470678592316,0.0011936987638056392,-0.004682078997109108,0.009430312625681982,0.9905710252375282
2013-05-22,1,8.317946065987468e-07,7.224917574871038e-05,-0.006373396904976835,0.009430312625681982,0.9906066706034589
2013-05-24,1,0.0005060254411870038,0.0005209409331065934,-0.005050875735949997,0.009430312625681982,0.990428187585564
2013-05-29,1,0.0003849711501139893,0.0004079625216882199,-0.004414298899394445,0.009430312625681982,0.9906269128803127
2013-05-31,1,0.00010410968461158268,0.00013527335493539796,-0.0025898475422239144,0.009430312625681982,0.9907935799783842
2013-06-04,1,0.0008741418961366277,0.0009661403195693086,-0.004414298899394445,0.010569956534997486,0.9905098436451512
2013-06-06,1,0.0009420187793964653,0.0010398964567950742,-0.006012111903516856,0.01191166292907317,0.9889560045818986
2013-06-10,1,0.00040448443785865595,0.00042369284528519496,-0.006012111903516856,0.013596809632227489,0.9883190728947567
2013-06-12,1,0.0010559400337684965,0.0011132229794742295,-0.009716826214489898,0.01633540710584466,0.9878423638764197
2013-06-14,1,0.0022951986956229672,0.002544010243088037,-0.009716826214489898,0.01633540710584466,0.9885709842534278
2013-06-18,1,0.002576776317176702,0.002884832511857634,-0.009716826214489898,0.012648337308984032,0.9891721864998558
2013-06-20,1,0.0023206030455905323,0.0026305820476010397,-0.004940371953881765,0.012648337308984032,0.9902272865049027
2013-06-24,1,0.0018248013815873232,0.002240248221680509,-0.00648394085045615,0.012341707159172639,0.9901852852926628
2013-06-26,1,0.002045707491170205,0.0024473534347588576,-0.00648394085045615,0.012341707159172639,0.9903691071018077
2013-06-28,0,0.0,0.0,-0.006036156557152465,0.012418408017261587,0.9894910785420152
2013-07-02,0,0.0,0.0,-0.004866880756222228,0.012418408017261587,0.9904042432946091
2013-07-05,0,0.0,0.0,-0.0032884164676652474,0.011834878611182188,0.9915657881671839
2013-07-09,0,0.0,0.0,-0.004866880756222228,0.007990901926885542,0.9916571685589051
2013-07-11,0,0.0,0.0,-0.004866880756222228,0.006183099616472867,0.9927090111742077
2013-07-15,1,0.0022413372642908318,0.002578948905543301,-0.004866880756222228,0.004576896290987281,0.9941619163405371
2013-07-17,1,0.002297494710941106,0.0026472996253396816,-0.004725173883344605,0.0043669593158368524,0.9941480821267047
2013-07-19,1,0.0020776364559923184,0.0023771234051727266,-0.005480376442458386,0.002872149233147154,0.9940429678651219
2013-07-23,1,0.0027082110512610096,0.0031024346474938496,-0.003328482976320568,0.0029692283839919138,0.9948606026782459
2013-07-25,1,0.0023004985969447746,0.0026290889509694637,-0.005291887728421567,0.0024091641492347926,0.9943189678139003
2013-07-29,1,0.002481234274258908,0.0028421831425490046,-0.003328482976320568,0.0024091641492347926,0.9950811992011647
2013-07-31,1,0.002326003163946529,0.0026610880992873967,-0.005291887728421567,0.0024091641492347926,0.9938428394412718
2013-08-02,1,0.002463080222754789,0.002810109680840356,-0.006819919399791386,0.00222064721873473,0.9934649431693853
2013-08-06,1,0.0022755154089009037,0.002617965346878465,-0.00665231223694226,0.0024091641492347926,0.9930997443161578
2013-08-08,1,0.0018829931185294548,0.0021434195645603196,-0.005291887728421567,0.0022530069356829835,0.9935704413558848
2013-08-12,1,0.001959183915635895,0.002234005957536686,-0.005291887728421567,0.0040262378004383365,0.9930276164691304
2013-08-14,1,0.0018117967021595753,0.002073831954458593,-0.00665231223694226,0.0040262378004383365,0.9929105054870155
2013-08-16,1,0.0016967083469165652,0.001948624217526449,-0.0036989043566408347,0.0042857679464363965,0.9933567858644967
2013-08-20,1,0.0018644485710994807,0.002137447517913626,-0.0036989043566408347,0.004980245903377761,0.9930713323943665
2013-08-22,1,0.0017695529424866516,0.002004956407750825,-0.0027273625145243733,0.0038916492617800903,0.9937174351585994
2013-08-26,1,0.0016547496423858221,0.0018608320601240127,-0.0037376867105928754,0.004811190510802976,0.9928638108716824
2013-08-28,1,0.001124137967153809,0.0012653514631825854,-0.002875189932231133,0.006229638299279251,0.9937127314692076
2013-08-30,1,0.0007481516545823231,0.0008451030317898475,-0.0013942794963098992,0.007583267902441818,0.9938645986064595
2013-09-04,1,0.0010012663242834014,0.0010963846712899099,5.6018021742849076e-05,0.007583267902441818,0.9938973201900588
2013-09-06,1,0.0010555023585737413,0.0011823759424619685,-0.0003943099185834246,0.007583267902441818,0.9929718767012495
2013-09-10,1,0.001236201124759181,0.0013675365709161925,-0.003404701932796635,0.006178365717286312,0.9933199765883789
2013-09-12,1,0.0010005085857444354,0.0011084034546405453,-0.002875189932231133,0.007260394763888218,0.9929639431603381
2013-09-16,1,0.0004389037358187522,0.0005215051706011148,-0.002875189932231133,0.010069901149123081,0.9916923301926036
2013-09-18,1,0.0014745221464651872,0.0015930258456892123,-0.003404701932796635,0.008032779178759423,0.9917687080650496
2013-09-20,1,0.001380155914644059,0.001482625178277715,-0.003404701932796635,0.008032779178759423,0.9919041936416619
2013-09-24,1,0.0003909956427538953,0.0004822224007334487,-0.0038275679818630037,0.007878961432780609,0.9910145281590834
2013-09-26,1,0.0007062725175420014,0.0007485241409877013,-0.004052972167680755,0.010155534174505076,0.9902181395950653
2013-09-30,1,0.001368676484345527,0.0014379886267704015,-0.004052972167680755,0.011557595049411756,0.9894320431498228
2013-10-02,1,0.002281923366565408,0.002471761395461578,-0.004428895629451824,0.00868662048975964,0.9904508612527476
2013-10-04,1,0.0020733105661667963,0.002258237716496138,-0.003963884548008081,0.00868662048975964,0.9913863589780366
2013-10-08,1,0.0009247818194067308,0.0009327685563980006,-0.0021186848198329927,0.00868662048975964,0.9912431556456065
2013-10-10,1,0.0013257171087386866,0.0013526319341610827,-0.0021186848198329927,0.006761266067797469,0.9919977850275105
2013-10-14,1,0.0012792414706141587,0.0013220829084513795,-0.004428895629451824,0.005984267435071082,0.9923272918093075
2013-10-16,1,0.0012615344401689624,0.001277194022982498,-0.005349669947903075,0.005930202371644466,0.9917745519601477
2013-10-18,1,0.0012909383287187555,0.0013180640305577138,-0.005349669947903075,0.005930202371644466,0.9915878159426091
2013-10-22,-1,-0.0007439373692051089,-0.0004451934714807602,-0.005082407088885052,0.006761266067797469,0.9923729199884358
2013-10-24,1,1.3464050289720229e-05,0.0002036330310945145,-0.0021186848198329927,0.005930202371644466,0.9935004473814706
2013-10-28,1,0.001071941374580214,0.0011385544031456926,-0.005082407088885052,0.005044517189402384,0.9939974042261912
2013-10-30,1,0.0007361957171830617,0.0008561077039332286,-0.007522696453998629,0.0036150915549155484,0.9941718618808468
2013-11-01,1,0.0012200013177258405,0.0012523749955517265,-0.007522696453998629,0.005044517189402384,0.9936241087920837
2013-11-05,1,0.0015939134775640254,0.0016723724776328114,-0.007522696453998629,0.003212266410969802,0.9934430165890853
2013-11-07,1,0.0012781381508298881,0.0013203904849997973,-0.007522696453998629,0.003212266410969802,0.9934165435926772
2013-11-11,1,0.0009536167377141061,0.0009831481702120542,-0.0062935715163397014,0.0017716395000148212,0.9941442178357025
2013-11-13,1,0.000361624375424661,0.00045331348521641826,-0.005633122573969776,0.0017716395000148212,0.9945967818112295
2013-11-15,1,0.000605517938592766,0.0006517092640848372,-0.005633122573969776,0.0017716395000148212,0.9941207837208108
2013-11-19,1,0.00037449174743674093,0.0004808615542123967,-0.005493121648812177,0.0017716395000148212,0.9944899194162773
2013-11-21,1,0.0001583554094772652,0.00029302509527342693,-0.005493121648812177,0.0025387982842846307,0.9939820669179923
2013-11-25,0,-9.617880810999622e-05,4.2582613412791095e-05,-0.004100934666670381,0.006372489777810412,0.9946914763344358
2013-11-27,0,-7.860446479554946e-05,4.0376150205678415e-05,-0.0033540365443988614,0.00708429677055635,0.994484628632143
2013-12-02,1,0.00013497322750673875,0.00022185067709503127,-0.0033540365443988614,0.006372489777810412,0.9948052929088544
2013-12-04,1,0.00021123746779574433,0.00025695587458064235,-0.0033540365443988614,0.007219727244426071,0.9938831645060314
2013-12-06,1,9.107423092583218e-07,6.724977858371559e-05,-0.003814453263024254,0.009081600016641933,0.9924572249030439
2013-12-10,-1,-0.00018212362606204397,-8.814194095604607e-05,-0.0030641414091645727,0.009081600016641933,0.9922977509383615
2013-12-12,-1,-0.0008726941820929611,-0.0006975751448446884,-0.002730958679544186,0.009081600016641933,0.9927654495972558
2013-12-16,-1,-0.00014394465960412703,-6.701705295857673e-05,-0.002730958679544186,0.010448037340817215,0.9920660612061322
2013-12-18,1,9.708368594789955e-05,0.00013762730351564608,-0.002030584393461039,0.010448037340817215,0.9920520647929885
2013-12-20,1,0.0004212840261696531,0.0004297749514024196,-0.0012222893725282544,0.009615660185589547,0.992490906781017
2013-12-24,1,0.0008054821826677598,0.0008622325489681722,-0.002730958679544186,0.009615660185589547,0.9923048527659205
2013-12-27,1,0.0006875633919255753,0.0006953210199633018,-0.003066055690650129,0.007017066777809959,0.9926368202916681
2013-12-31,1,0.0004153548875994213,0.00044390224037763726,-0.0006856590433842705,0.007017066777809959,0.9925851538223659
2014-01-03,1,0.00043832453668383976,0.0004639054936412161,-0.0006856590433842705,0.005508455349210727,0.9913599089840699
2014-01-07,1,0.0006261207928192629,0.0006307667271773449,0.0005253679616728465,0.007017066777809959,0.9899280455897942
2014-01-09,1,0.0004914933563030534,0.000522503431697548,0.0005253679616728465,0.00958709527312862,0.9892707843436359
2014-01-13,1,0.0003687130864921498,0.0004089299210606795,0.0024922191056608416,0.012446240290621307,0.9881997505404969
2014-01-15,1,0.0011780583842301274,0.001244734157232461,0.0024922191056608416,0.010195765677424265,0.9896459963275971
2014-01-17,1,0.0014533760533505377,0.0015583193783278257,0.0013721017127716088,0.011393150596202214,0.989671061248555
2014-01-22,1,0.0012104406528463522,0.0012454861455291548,-1.015786911565323e-05,0.011393150596202214,0.9891355453203362
2014-01-24,1,0.0005600902125733084,0.0006294318760473689,0.0011874226117930798,0.011393150596202214,0.9885444171678751
2014-01-28,1,0.0006784517503199826,0.0007157842501865634,0.0022486907285144933,0.011393150596202214,0.9886256562292527
2014-01-30,1,0.0006922697074249703,0.0007316962334723739,0.0004568374803540347,0.011393150596202214,0.9885888512775177
2014-02-03,-1,-0.00020862482836231497,-8.529079620306563e-05,0.0004568374803540347,0.011716480469584631,0.9895235899997646
2014-02-05,1,0.001135353344643365,0.0011576933710465425,-0.0006015830919110693,0.011393150596202214,0.9928670144791264
2014-02-07,1,0.0016095784740546432,0.0016993526393777783,-0.0006015830919110693,0.010267251502676475,0.9937160031268946
2014-02-11,1,0.0022816101336135463,0.0024717511986788914,-0.0006015830919110693,0.006431493916759726,0.9947711085134543
2014-02-13,1,0.0025586876630100427,0.002776365697133646,-0.0014256879654414665,0.006431493916759726,0.9936926801130086
2014-02-18,1,0.0027394794395334283,0.002961270362197092,-0.0036862651333893237,0.006431493916759726,0.9922081757198564
2014-02-20,1,0.002743865920102613,0.002961969035675342,-0.005072295146446069,0.005592711777333429,0.992057292790428
2014-02-24,1,0.002564531985533829,0.002774264376662509,-0.005072295146446069,0.005267747222100171,0.9920741723404609
2014-02-26,1,0.002901932607909684,0.0031961717943525063,-0.006268389844755022,0.005267747222100171,0.9917583934392746
2014-02-28,1,0.002602626553954728,0.0028397104542012275,-0.006268389844755022,0.005267747222100171,0.991933803100004
2014-03-04,1,0.002389096313800269,0.00257919833754891,-0.0025012767527496644,0.004085305747992096,0.9928677268656387
2014-03-06,1,0.0025835406144576337,0.002819679537572439,-0.0025012767527496644,0.0053152829408877915,0.992345470016531
2014-03-10,1,0.003015567591150843,0.0033431245984392637,-0.010825795387804118,0.004085305747992096,0.9905497776072735
2014-03-12,1,0.002999781077891682,0.0033124856630776093,-0.010825795387804118,0.00610953794634818,0.9900908370960909
2014-03-14,1,0.0029806162853839484,0.0032919882605299015,-0.014823471459656928,0.004149407654506411,0.9892780871982921
2014-03-18,1,0.0016680619691655768,0.001760219147760978,-0.010825795387804118,0.004149407654506411,0.9913566490500796
2014-03-20,1,0.0013112378507974935,0.001365004885663104,-0.007489538568657473,0.004149407654506411,0.9919180679457108
2014-03-24,1,0.0012863844780042735,0.0013859443348445207,-0.00319195639482199,0.004149407654506411,0.9925913277465775
2014-03-26,1,0.0012177451625230385,0.0013087728327894413,-0.002218042080659027,0.006710959879954755,0.9923700478732077
2014-03-28,1,0.001178035058745466,0.001264741051041273,-0.002218042080659027,0.007659693618993877,0.9911913134673322
2014-04-01,1,0.0012077850259555743,0.0012988512778878368,-0.002218042080659027,0.008315480939218446,0.9903931350669525
2014-04-03,1,0.0016254028765740915,0.0017658682872556792,-0.002218042080659027,0.008315480939218446,0.9907785053260377
2014-04-07,1,0.0006650498730445935,0.0006733766006756165,0.00015032917511885268,0.009667666965368485,0.9916713954504182
2014-04-09,1,0.0007454286922497156,0.0007641733608263231,-0.0009429013532067451,0.009667666965368485,0.99189664762426
2014-04-11,-1,-0.000349433060678902,-0.0002125988608946051,0.0007310495218938259,0.009667666965368485,0.99294805409269
2014-04-15,-1,-0.00030897423180420495,-0.00017171972031862563,0.00015032917511885268,0.009667666965368485,0.9918059833874585
2014-04-17,-1,-0.00038355919752544864,-0.00024039322727911283,0.00015032917511885268,0.009667666965368485,0.9913659608236786
2014-04-22,-1,-0.0006321883251722085,-0.0004307453936615677,-0.0007086221450147276,0.009667666965368485,0.9913745575364032
2014-04-24,-1,-0.0004588306871479678,-0.00026168481494765307,-0.0007086221450147276,0.009156910191409035,0.9919690196978755
2014-04-28,1,0.0002944616397652677,0.0004009580103607427,-0.0007086221450147276,0.006084376314149126,0.9932415309369804
2014-04-30,1,0.0005643177020183763,0.0006530675271084701,-0.0019391497241057598,0.004950736431024178,0.9934645924685547
2014-05-02,1,0.0007407194130821216,0.0008199650265163015,-0.0019391497241057598,0.004777436676951463,0.9938411818808408
2014-05-06,1,0.0007745463384265729,0.0008632410092391165,-0.0019391497241057598,0.00493623426493377,0.9938802059110714
2014-05-08,1,0.0004527646138877264,0.0006096632159275845,0.00017674065734856175,0.004777436676951463,0.9944088356803441
2014-05-12,1,0.0008711342829776903,0.0009603006364350667,-0.0019467899439347238,0.00471151749249341,0.9947271822877077
2014-05-14,0,-0.00021250617256734204,1.524672523120019e-06,-0.0009244227059296525,0.004777436676951463,0.995352224383848
2014-05-16,-1,-0.00041085482476328685,-0.0001848114891804261,-0.0009244227059296525,0.004777436676951463,0.9956133128893415
2014-05-20,-1,-0.0003603645178644661,-0.0001458023921983234,-0.00043928348305338814,0.004762697775405734,0.9954884392945277
2014-05-22,-1,-0.0002630867131622978,-6.346743170285705e-05,-0.0016966646351887606,0.004892017560296582,0.9950946994471779
2014-05-27,-1,-0.000301281420265215,-8.536603730459021e-05,-0.0016966646351887606,0.005207977870171379,0.9945515616481166
2014-05-29,-1,-0.0007263781119737959,-0.0004565786577213071,-0.0016966646351887606,0.005207977870171379,0.9948213872878527
2014-06-02,-1,-0.00039903113873649505,-0.00018698551974887867,-0.0036371958891538133,0.005120631039484861,0.9951767249628672
2014-06-04,0,-5.574627002716314e-05,0.00011105075735626653,-0.004434806812238721,0.0049030746161530135,0.9941990980325431
2014-06-06,0,-0.00018679980856207653,7.929763363780226e-06,-0.005027507015757222,0.005525762679859057,0.9936053240456669
2014-06-10,1,6.551605423233184e-05,0.00018862821987020823,-0.0052649905900853805,0.005525762679859057,0.9933105189302185
2014-06-12,1,0.00021180859691102968,0.00030305390619104946,-0.0052649905900853805,0.0049030746161530135,0.9936981411972585
2014-06-16,1,7.389146086663536e-05,0.00017337232128615245,-0.00564196643144935,0.005525762679859057,0.9924649847621987
2014-06-18,0,-7.891667922349586e-06,0.0001211266693103304,-0.007971761137148462,0.005525762679859057,0.991889978471952
2014-06-20,0,-3.0220767236158522e-05,0.00010383605446726094,-0.008922985603528935,0.005525762679859057,0.9917244821115017
2014-06-24,1,0.000430462090124754,0.0005113164710891628,-0.008922985603528935,0.0069973680129696006,0.9912265103750806
2014-06-26,-1,-0.00045231259294317336,-0.00018289940519179433,-0.0094760515255878,0.0069973680129696006,0.9902274378331033
2014-06-30,1,0.0005662334668838241,0.0006833771059114276,-0.0094760515255878,0.0069973680129696006,0.9896926775443856
2014-07-02,1,0.0016139205044181648,0.0016677868070424677,-0.010295138215791002,0.003636214978091678,0.9895224365703114
2014-07-07,1,0.0019354301634923188,0.0020973229886779715,-0.009969095402205303,0.003991938892787512,0.9897172231951765
2014-07-09,1,0.0018984144628988193,0.0020884663308132732,-0.009969095402205303,0.0046997998998933605,0.9898427329117493
2014-07-11,1,0.0018814607313612404,0.0020959371923508167,-0.009969095402205303,0.009107031040764864,0.9897057873469506
2014-07-15,1,0.0017185690806242855,0.0019221681675189286,-0.009969095402205303,0.0064839664975059755,0.990197155285769
2014-07-17,1,0.0006691179413631522,0.0007129888616867095,-0.009006529280508628,0.0075826260605828515,0.9908195584535161
2014-07-21,1,0.0006617156476306961,0.0007166430902937805,-0.007839103362311126,0.007604654882889181,0.9909332303087606
2014-07-23,1,0.0016754747642933837,0.0018579475022722316,-0.009589870748339516,0.006323328598681226,0.9900855685244241
2014-07-25,1,0.00024163255242434158,0.0002466545906919056,-0.009589870748339516,0.006323328598681226,0.9905645676311604
2014-07-29,1,4.140213531684359e-05,6.065240286318852e-05,-0.00869644182840501,0.007604654882889181,0.990411495864246
2014-07-31,-1,-0.0011613712144936082,-0.0010172525037752322,-0.005066691627541116,0.007604654882889181,0.9912536196231848
2014-08-04,-1,-0.0002934814282043154,-0.0002637428850475299,-0.005066691627541116,0.006323328598681226,0.9919587918803795
2014-08-06,-1,-0.0003859777037479867,-0.0003400749692791916,-0.003495854740042301,0.007604654882889181,0.9911923292507562
2014-08-08,-1,-0.0004265390218427578,-0.0003254918956135403,-0.007083016293848531,0.006323328598681226,0.9913274717802423
2014-08-12,-1,-0.0012017294602347922,-0.0009844788669636144,-0.005564382393290651,0.006206337109154569,0.9923634688280296
2014-08-14,-1,-0.0014277523218358052,-0.00115024142362139,-0.005564382393290651,0.0036187841842675334,0.9926137200850953
2014-08-18,-1,-0.0014956371872619336,-0.0012057187790276997,-0.005564382393290651,0.0036187841842675334,0.9922664138917041
2014-08-20,-1,-0.0024320497661084557,-0.002032038814372682,-0.007083016293848531,0.0022991147593837587,0.9934187057216113
2014-08-22,-1,-0.003104095538272637,-0.002624584831050279,-0.007867982973852165,0.0008278915211632498,0.9928143623575685
2014-08-26,-1,-0.0019237069873347334,-0.0016262583629925325,-0.007867982973852165,0.0008278915211632498,0.9916232795969792
2014-08-28,-1,-0.0032559095415249442,-0.0027298109667005755,-0.00983422456836111,0.002535287342232821,0.9912768796763533
2014-09-02,-1,-0.0026562720170418236,-0.002242808216951398,-0.012380056842497465,0.004141524047164825,0.9901525277111948
2014-09-04,-1,-0.0029948904776099707,-0.0024451516324355766,-0.012380056842497465,0.004984730799596405,0.9896895360435191
2014-09-08,-1,-0.003557388913155228,-0.0029495076865782258,-0.012380056842497465,0.004984730799596405,0.9895503529390915
2014-09-10,-1,-0.0037997590339234593,-0.00315708613185617,-0.012380056842497465,0.005702687546799751,0.9889635560502329
2014-09-12,-1,-0.004040390112457952,-0.003383289771725286,-0.014292438501405984,0.005702687546799751,0.9881579775772599
2014-09-16,-1,-0.003970856725125324,-0.003357432491813611,-0.013098251955448791,0.004984730799596405,0.9887229255250752
2014-09-18,-1,-0.004372408014220934,-0.0037738928994648525,-0.01203285752923604,0.004984730799596405,0.9889708301026707
2014-09-22,-1,-0.005816438373236692,-0.005095118146569946,-0.0058738434425492534,0.00993746639143832,0.988780531046335
2014-09-24,-1,-0.0035510224691874433,-0.0031329317561548872,-0.0058738434425492534,0.00993746639143832,0.9894406953724509
2014-09-26,-1,-0.003620576340968993,-0.003226918888103103,-0.004751555353878526,0.01236253602949944,0.9857741465430766
2014-09-30,-1,-0.0026744595805993886,-0.002403377256070264,-0.0020178554170329184,0.01626297438649466,0.9846003418840731
2014-10-02,-1,-0.0009785378044603378,-0.0009320914521733796,-0.0044928855347282845,0.01236253602949944,0.986358654824907
2014-10-06,-1,-0.0015606154386404883,-0.0013824651624578246,-0.004751555353878526,0.01236253602949944,0.9857777532914747
2014-10-08,-1,-0.0013753453416700814,-0.001206708564622159,-0.004738066140508096,0.01095610143925771,0.9860693019769848
2014-10-10,-1,-0.002136707465993322,-0.0018877508711113195,-0.00205767502958625,0.0125945726893644,0.9859470450566902
2014-10-14,-1,-0.0026745472133208647,-0.0023761023050486133,0.0017527298811831809,0.01701953828220441,0.9837495347780832
2014-10-16,-1,-0.002263316755416693,-0.0020310180597956588,0.0017379578755131338,0.01701953828220441,0.9840284593659807
2014-10-20,-1,-0.0015342178236691115,-0.0013735646454937104,-0.0029863283985194907,0.01701953828220441,0.9846955004829853
2014-10-22,1,0.0001348549340150224,0.00019284560046430775,-0.004651330537951345,0.013159039319441904,0.9861692973576303
2014-10-24,1,0.003343439856840205,0.0038537364392416578,-0.004919450514669176,0.010789031609383078,0.9901478895189664
2014-10-28,1,0.005335045328593511,0.006115641506881119,-0.005203134896484844,0.008696521995309054,0.9909313580052301
2014-10-30,1,0.00518090685886042,0.005924974706645936,-0.005203134896484844,0.008696521995309054,0.9913350235017488
2014-11-03,1,0.005116249460340325,0.005851905415545859,-0.005203134896484844,0.010241817014962417,0.9910717462111808
2014-11-05,1,0.0052368040238775886,0.005971612172370792,-0.005203134896484844,0.006727481466016928,0.9908875950763797
2014-11-07,1,0.005551246014829092,0.006340585815722161,-0.0052842259559557105,0.004784392166513967,0.9906872159296499
2014-11-11,1,0.007225514503786234,0.008240251675929629,-0.006361185533593362,0.003944500098190073,0.9900348650928897
2014-11-13,1,0.007391254618974543,0.008459613410411376,-0.006361185533593362,0.004195069869426114,0.9899061039311091
2014-11-17,1,0.006488892345555277,0.007428560611318974,-0.0094081042903873,0.004195069869426114,0.9896052325372537
2014-11-19,1,0.006062419398234897,0.006930528779883718,-0.006392924251495911,0.008312545806418352,0.9899203867519376
2014-11-21,1,0.0059281933581640115,0.0068045098233072265,-0.006392924251495911,0.008312545806418352,0.9904144934383532
2014-11-25,1,0.005862487942327773,0.00671791155258736,-0.0060408677511198,0.008312545806418352,0.9906321895687397
2014-11-28,1,0.005970722642535502,0.0068244793609809635,-0.0060408677511198,0.009665853621067502,0.9902967245556354
2014-12-02,1,0.005728592107676058,0.006533405156713814,-0.0060408677511198,0.008312545806418352,0.990170068288154
2014-12-04,1,0.005406847346537132,0.006148222880464969,-0.007297107473807695,0.008312545806418352,0.9897462269117783
2014-12-08,1,0.004652491208453062,0.005245140602359211,-0.007297107473807695,0.009665853621067502,0.9899723612996054
2014-12-10,1,0.004253841908837047,0.004782240695282974,-0.006485666974886107,0.008373433219965904,0.9906391981234163
2014-12-12,1,0.005100724722843178,0.005798412199719735,-0.006485666974886107,0.008862549322211973,0.9898047981782953
2014-12-16,1,0.0027705033413516046,0.003085589924739957,-0.005761820078949838,0.010094272756351599,0.9901537258571662
2014-12-18,1,0.0036708656620292285,0.004085557301804181,-0.005761820078949838,0.008862549322211973,0.9911165198279182
2014-12-22,1,0.003023883988777081,0.003284027864961028,-0.005761820078949838,0.010094272756351599,0.9895771043609541
2014-12-24,1,0.003182994489585319,0.003484211855870293,-0.005613466461662647,0.010509996323958694,0.9896941849465091
2014-12-29,1,0.0033283683125683566,0.0036396868530717726,-0.006485666974886107,0.009001123844747671,0.9887066069931235
2014-12-31,1,0.002923278492855806,0.003203218232288824,-0.006485666974886107,0.009001123844747671,0.9878707611340701
2015-01-05,1,0.0020767427735273805,0.002221167860020105,-0.00614603550218904,0.009001123844747671,0.9878942838867291
2015-01-07,1,0.0027732570124724336,0.003014017319847747,-0.007641287264476766,0.007638326373839982,0.988205181911675
2015-01-09,1,0.0026500582372679525,0.0028680682083919587,-0.008851306221548706,0.007638326373839982,0.9875724579373314
2015-01-13,1,0.0034819660646121845,0.00376341783491408,-0.008851306221548706,0.007843454315321751,0.9880210433956287
2015-01-15,1,0.003461270434793952,0.0036994993125815936,-0.008094808340594634,0.007843454315321751,0.989541972564115
2015-01-20,1,0.0038090681265361584,0.004116009585257138,-0.008851306221548706,0.007843454315321751,0.9885377082391864
2015-01-22,1,0.004446557148666234,0.004806432099654364,-0.008851306221548706,0.007843454315321751,0.9895135541944592
2015-01-26,1,0.004347523245486917,0.0046862433233504424,-0.00941124670345083,0.005055889659854816,0.9895217706051711
2015-01-28,1,0.0035724049730142702,0.003836886957394796,-0.008716855923625746,0.006322835928279344,0.9911195956709017
2015-01-30,1,0.002342730864381278,0.002408213599940533,-0.008094808340594634,0.00682648634816309,0.9919200846026709
2015-02-03,1,0.0016824811403189223,0.001715186062986283,-0.008281455167895342,0.00682648634816309,0.9918540132584969
2015-02-05,1,0.0009679780624982123,0.0011077200281756408,-0.008281455167895342,0.00682648634816309,0.9914388367805351
2015-02-09,-1,-0.00032514737324478016,-9.199817274106997e-06,-0.010139598460017708,0.00682648634816309,0.9910599042908549
2015-02-11,0,-8.55790330627521e-05,0.00025575966381262665,-0.010139598460017708,0.0028240268081144862,0.9922440293887084
2015-02-13,-1,-0.0009546149961312902,-0.0004310399068211694,-0.010139598460017708,0.0028240268081144862,0.991333431493621
2015-02-18,-1,-0.0010940802528272083,-0.0006128183945001719,-0.008905185297010353,0.00220534344977511,0.9922396189656534
2015-02-20,-1,-0.0012768624901482594,-0.0007441031155579728,-0.009628354716069492,0.00220534344977511,0.9913825264847782
2015-02-24,-1,-0.0018649736513934065,-0.0012591715702110547,-0.011023321642908047,0.0032463422309226622,0.9908567036193184
2015-02-26,-1,-0.001249188433440487,-0.00076078735760059,-0.012215149377283633,0.00220534344977511,0.9904063229651683
2015-03-02,-1,-0.0011272741332851955,-0.0006456088252639654,-0.012215149377283633,0.004417248366538549,0.9895745363874346
2015-03-04,-1,-0.0017297323353947889,-0.0011858604458127211,-0.012215149377283633,0.004417248366538549,0.9891639852489099
2015-03-06,-1,-0.003332219296315267,-0.002550654082058383,-0.011023321642908047,0.009190362311329338,0.9898619687976691
2015-03-10,-1,-0.005037956868941153,-0.004016260947414852,-0.010501797430690405,0.011872974156995082,0.9893003464080019
2015-03-12,-1,-0.005305614164398848,-0.00424907405600686,-0.010501797430690405,0.011872974156995082,0.9891548824810921
2015-03-16,-1,-0.0045642125901634405,-0.0036251180004631357,-0.010501797430690405,0.009190362311329338,0.9906577374954038
2015-03-18,-1,-0.004226876180281542,-0.0033822840844549952,-0.010501797430690405,0.009190362311329338,0.9902544566155189
2015-03-20,-1,-0.002489065110026868,-0.0019558012537790083,-0.01084208942590409,0.009190362311329338,0.9898080210377749
2015-03-24,-1,-0.0014609593386062285,-0.00114929721470875,-0.007518402506850406,0.01039586531996775,0.9894420064499736
2015-03-26,-1,-0.0020115157190936967,-0.0016404578034450112,-0.0056870960038565834,0.018350981315878506,0.9875447902099769
2015-03-30,-1,-0.0005482500356562607,-0.0003393998813996153,-0.011113628343161808,0.01039586531996775,0.9839899037409291
2015-04-01,-1,-0.0016771107508061567,-0.0013453536874539988,-0.014075028660490953,0.01039586531996775,0.9824012573433124
2015-04-06,-1,-0.0011827490892796274,-0.0009198005958677091,-0.017214230195496893,0.016134574877694503,0.979112459155715
2015-04-08,1,5.480002319539827e-05,6.466292843497282e-05,-0.01815386332810994,0.010070407009561544,0.9785893542150299
2015-04-10,1,0.0001424798551529073,0.00014808177640543148,-0.01815386332810994,0.018165352586472207,0.9781147920382848
2015-04-14,-1,-0.0009523588623911943,-0.0007846889253860542,-0.01815386332810994,0.018165352586472207,0.9780851743372241
2015-04-16,-1,-0.0010599213707104794,-0.0008666626726198645,-0.01815386332810994,0.018695850330684643,0.9773807354064554
2015-04-20,-1,-0.001046543451171848,-0.0008386971295660172,-0.01815386332810994,0.018695850330684643,0.9781594371522634
2015-04-22,1,3.3705019728990716e-05,0.00011249497562688327,-0.01815386332810994,0.015642414761276008,0.9788437741101305
2015-04-24,1,0.0023032929910597197,0.0025367699273964026,-0.01815386332810994,0.009913453679720482,0.9810332770277065
2015-04-28,-1,-0.0030070464957337537,-0.002587182180012966,-0.006723474492931253,0.009913453679720482,0.985496309936151
2015-04-30,-1,-0.005944527299079447,-0.0051709552616082885,-0.004197877037608479,0.009913453679720482,0.9867720510526475
2015-05-04,-1,-0.003954797921317221,-0.0034099426187826553,-0.004197877037608479,0.007755352237795239,0.9909338269203538
2015-05-06,-1,-0.0052473618562045654,-0.004529478082491232,-0.004197877037608479,0.007069693304330143,0.9913266319941377
2015-05-08,-1,-0.003932583049243133,-0.0033996902362839207,-0.006723474492931253,0.005371626787104954,0.9927562498311767
2015-05-12,-1,-0.004234093642107988,-0.0035921483479896058,-0.007694999378254379,0.005371626787104954,0.9926346941921299
2015-05-14,-1,-0.0028516864421255167,-0.0024380738785451184,-0.008993288205501656,0.004185547811032387,0.9934579372968914
2015-05-18,-1,-0.0020859506176081183,-0.0017621185195550793,-0.008993288205501656,0.004185547811032387,0.9930845565865524
2015-05-20,-1,-0.001520992336491445,-0.001265377051728992,-0.008993288205501656,0.004185547811032387,0.9930567685646144
2015-05-22,-1,-0.0006603956596348041,-0.0005330217703833132,-0.00920192461716177,0.0021924829912894853,0.9930477917889317
2015-05-27,-1,-0.0015956584694290783,-0.0013235237213018274,-0.010860901972734194,0.0021924829912894853,0.9924110086695972
2015-05-29,-1,-0.0026013587647457804,-0.0021886478220525547,-0.010860901972734194,0.0021924829912894853,0.9922927497698341
2015-06-02,-1,-0.002509118090738091,-0.002157742603896213,-0.010819752138662039,0.0034703131511596257,0.9921539690403488
2015-06-04,-1,-0.003021487253490748,-0.0026146523859806644,-0.011169538116287812,0.0034703131511596257,0.991888237137279
2015-06-08,-1,-0.0023888588461489155,-0.002146315781516507,-0.011169538116287812,0.0034703131511596257,0.9917223110493034
2015-06-10,-1,-0.0020385981058343946,-0.0018750604014785986,-0.010923323354946644,0.0034703131511596257,0.9914667327947426
2015-06-12,-1,-0.0018323817378142944,-0.0017208101587474344,-0.010923323354946644,0.01048015600597906,0.99032303670884
2015-06-16,1,0.0001675130108673308,0.00039338170322205203,-0.010923323354946644,0.004723809385388741,0.9910553690147802
2015-06-18,1,0.0009240817204456108,0.0012665068535974524,-0.010923323354946644,0.0013603405269382416,0.990702476521984
2015-06-22,1,9.001946539573388e-05,0.0002689974246346355,-0.010752117030866856,0.004610136252817212,0.9910566267330199
2015-06-24,-1,-0.0014262412484053455,-0.0013648534395234058,-0.009632408939578533,0.009419669006200358,0.985291896729724
2015-06-26,-1,-0.0023611613926257744,-0.002175372322488851,-0.009666932678340068,0.009419669006200358,0.9854536207811949
2015-06-30,-1,-0.002031739702235611,-0.0018758484925529605,-0.009666932678340068,0.00933369944572671,0.9852477891734898
2015-07-02,-1,-0.003862103797115847,-0.0034526604127451893,-0.0074753618196130925,0.013150642240416332,0.9813937660010749
2015-07-07,-1,-0.002649504784283726,-0.002454239621596414,-0.009132668808249353,0.015866439581284662,0.9806115275428828
2015-07-09,-1,-0.0019273523173928804,-0.0018513869428424597,-0.0074753618196130925,0.019424875499173433,0.9805099431449852
2015-07-13,-1,-0.0006538318843187644,-0.000605742892489002,-0.0074753618196130925,0.01823368942431418,0.9808448733114631
2015-07-15,-1,-0.0008279214207651496,-0.0007727192208729652,-0.005126653124650556,0.01823368942431418,0.9811836859099957
2015-07-17,-1,-0.0014796201348567376,-0.0014405521622431864,-0.001745670887302387,0.01823368942431418,0.9811032695433972
2015-07-21,-1,-0.0006117790473076457,-0.0005174614126318452,-0.0031498073053104862,0.01823368942431418,0.9812987711509809
2015-07-23,1,0.001979110565501363,0.0024431343765640807,-0.0031498073053104862,0.014601125861542772,0.9871454375607495
2015-07-27,1,0.001315377405985811,0.001665366311086629,-0.004213609105221201,0.014601125861542772,0.9844692847152612
2015-07-29,1,0.0010033545331433183,0.0012566114644028668,-0.004905905293344573,0.01823368942431418,0.9832361981735984
2015-07-31,1,0.0040433539136467515,0.004624902019618603,-0.004905905293344573,0.014601125861542772,0.9860287162365944
2015-08-04,1,0.004325853800816844,0.004937857404912304,-0.01299060532631554,0.012396004125705355,0.9851669842017023
2015-08-06,1,0.005431802761713855,0.006222897654730494,-0.01299060532631554,0.012396004125705355,0.9843297405915309
2015-08-10,1,0.0064076164337638075,0.007310199370679928,-0.01299060532631554,0.007756304022599499,0.9829778908169284
2015-08-12,1,0.006250143268616684,0.007148708885042465,-0.01299060532631554,0.013268015822819834,0.9830523395973135
2015-08-14,1,0.00633667449419656,0.007237257546450972,-0.01299060532631554,0.013532012011676505,0.9823415981682205
2015-08-18,1,0.006182835936644064,0.0070156739122656745,-0.01299060532631554,0.014250413529462045,0.9823990830196041
2015-08-20,1,0.0054752998177727726,0.006305738897350384,-0.01299060532631554,0.014250413529462045,0.9833845198698095
2015-08-24,1,0.00207003598006495,0.0023731950094983906,-0.006342459435179092,0.014250413529462045,0.9867606073174306
2015-08-26,1,0.0028071696493168373,0.0032275131294496294,-0.006073196914162257,0.013270804235730333,0.9880069207196474
2015-08-28,1,0.003563466909552453,0.004087133933462255,-0.00963819808515457,0.012650737185737537,0.9863103633899601
2015-09-01,1,0.0020136250221090895,0.0023340362214726816,-0.006206906087019755,0.013270804235730333,0.9869255727249161
2015-09-03,1,0.0030832380433015293,0.0035155726348195327,-0.0074964872074877184,0.013270804235730333,0.9867410955205714
2015-09-08,1,0.003987630387981048,0.004537634097742971,-0.007885933967950173,0.012650737185737537,0.9854310076551404
2015-09-10,1,0.004221130444942996,0.004798037980623067,-0.007885933967950173,0.012633054524525492,0.9857197236812599
2015-09-14,1,0.00488912316587265,0.005614811615932752,-0.0074964872074877184,0.012633054524525492,0.9859162153783781
2015-09-16,1,0.006573987008208726,0.007644829309614061,-0.01617026772058053,0.011827579474115734,0.9835213615838139
2015-09-18,1,0.0036763140635525226,0.004076928041453972,-0.009778737794959988,0.011986633272381544,0.9842574996835911
2015-09-22,1,0.0019414130603418807,0.0019566172224291176,-0.009778737794959988,0.011986633272381544,0.984433302674584
2015-09-24,1,0.0026208138270025676,0.002824877187964034,-0.016683196912456816,0.011986633272381544,0.9840389813845438
2015-09-28,0,-5.5898268771636646e-05,0.00012840848396546373,-0.007378383322852065,0.013748921172810713,0.9845737766365226
2015-09-30,1,0.0013238923192264809,0.0013420612622547646,-0.009778737794959988,0.012475159680052464,0.9812389249535766
2015-10-02,1,0.0017713922088099033,0.001890898953011559,-0.016683196912456816,0.012475159680052464,0.9813335545968482
2015-10-06,1,0.00010645222658013035,0.00017921177766332946,-0.003515956737378935,0.013403033873016622,0.982445655429633
2015-10-08,1,0.0010701476224784096,0.001144479704893975,-0.003515956737378935,0.01276797763374616,0.9834183088612799
2015-10-12,1,0.0021002731714668886,0.002329552449260763,-0.005718435695863092,0.010966797556509915,0.9848061167708155
2015-10-14,1,0.0006513214518380548,0.0007101839485147959,-6.0548476042792754e-05,0.010966797556509915,0.9858562677006792
2015-10-16,1,0.0013831051053273184,0.0015149418568311387,-0.006706491180450493,0.007925409896113443,0.9854118754537575
2015-10-20,1,0.0013369591908382365,0.0014335096774239552,-0.006706491180450493,0.010966797556509915,0.9849423617391162
2015-10-22,1,0.0005885784826118526,0.0006156316638263621,-0.0026271917312495983,0.010966797556509915,0.9852791150755204
2015-10-26,1,0.0014998231226432776,0.00156055184109966,-0.0026271917312495983,0.007156641427633761,0.9870202116817972
2015-10-28,-1,-0.0020607148527073058,-0.0016741910711036729,-0.002190791366129163,0.007156641427633761,0.990561439644318
2015-10-30,-1,-0.002432528592548195,-0.0019893137976365535,-0.0013016632549589441,0.006135945669294044,0.9914358414643687
2015-11-03,-1,-0.0018906560803025763,-0.0014976659038792367,-0.0013016632549589441,0.005707243018658465,0.9919971985225852
2015-11-05,-1,-0.0010784687815723038,-0.0008221209526749246,-0.002190791366129163,0.005600786237558605,0.9913454398025565
2015-11-09,-1,-0.000923882243027168,-0.0007041084346494965,-0.003167127262467831,0.005600786237558605,0.9910643568828786
2015-11-11,-1,-0.0017565350222316961,-0.0014174641322568502,-0.003167127262467831,0.005600786237558605,0.9913914733692902
2015-11-13,-1,-0.003912003052718943,-0.003271059344224253,-0.0023707698765352407,0.005600786237558605,0.9915731045755598
2015-11-17,-1,-0.003677902959359266,-0.0030321931316653304,-0.0023707698765352407,0.005671676201456203,0.991895394171085
2015-11-19,-1,-0.003165985371950592,-0.002589888311670709,-0.0023707698765352407,0.005450720833879656,0.992689525924683
2015-11-23,-1,-0.0038795258037781066,-0.003167586897404496,-0.001505720454830951,0.006831298723836882,0.9908051312407036
2015-11-25,-1,-0.003319901154781297,-0.0026750813056895663,-0.0006382933437493554,0.006247247139002366,0.9914096198786267
2015-11-30,-1,-0.003135766615895742,-0.002512600662537553,-0.0006382933437493554,0.0072074229033648384,0.9910020662504304
2015-12-02,-1,-0.0020023195408505052,-0.0015645763120754892,-0.005236482307221117,0.005797050927965522,0.991665480877948
2015-12-04,-1,-0.00318297771669575,-0.0025817796981287143,-0.005236482307221117,0.0072074229033648384,0.9912411384655851
2015-12-08,-1,-0.004100063300095085,-0.003363212577646899,-0.007230469044578763,0.0072074229033648384,0.9902799947482435
2015-12-10,-1,-0.004207671763408478,-0.003476831695940657,-0.008796378128996184,0.0072074229033648384,0.9900967149541878
2015-12-14,-1,-0.0029562908602871075,-0.0024716989778750145,-0.009380498885111312,0.009215461706046169,0.9890061797876998
2015-12-16,-1,-0.0027565587036370047,-0.0022755676502213065,-0.01117658367381851,0.010083763178716721,0.9887932026998608
2015-12-18,-1,-0.0027155922503003275,-0.002241337747786732,-0.01117658367381851,0.010083763178716721,0.9888725959244765
2015-12-22,1,8.68589191034252e-06,2.3171362962585923e-05,-0.013145296774019025,0.00746330695154262,0.9887393659136533
2015-12-24,1,0.0004141578531142475,0.00046769866065831897,-0.013145296774019025,0.003911629825257144,0.9886723013506026
2015-12-29,1,0.0011296511389481765,0.001312223361657254,-0.013145296774019025,-0.0022032828454517234,0.9882331552178666
2015-12-31,1,0.000986965395764082,0.001189897940369282,-0.010826687625619858,0.010083763178716721,0.9844679610591692
2016-01-05,1,0.0006604869546945,0.0008154414547476185,-0.00938254027176186,0.0030166054659132822,0.9862284431986604
2016-01-07,1,0.00016834473546189615,0.0002690958536671507,-0.009117862333847591,0.0038654924024607382,0.9873795909673279
2016-01-11,-1,-0.00010009053638470339,-1.6925380012010457e-05,-0.010038777971828698,0.0038654924024607382,0.9866003480866694
2016-01-13,-1,-0.0007887044430138353,-0.0007397919876595319,-0.010038777971828698,0.0038654924024607382,0.9860884991474534
2016-01-15,-1,-0.0018723159978360536,-0.001619290618639988,-0.008262537515334534,0.0094399618921266,0.9858310594413245
2016-01-20,-1,-0.0018968118239179334,-0.001659324294636079,-0.009950943699987464,0.013191106102381535,0.9840708634702459
2016-01-22,-1,-0.0016696221564398144,-0.0014840068789794794,-0.008262537515334534,0.011809997575467582,0.9845633045969207
2016-01-26,-1,-0.0023996259065625627,-0.0020828793734313537,-0.008262537515334534,0.011809997575467582,0.9841392040697876
2016-01-28,-1,-0.0023026067858441077,-0.00204216929066028,-0.001679240836846157,0.01571957433616826,0.9835682559623246
2016-02-01,1,0.0006372721036822846,0.0007658744399930763,-0.005155363611742299,0.011355565353982064,0.9880353834351141
2016-02-03,1,0.0007793598742150989,0.0009392994415567913,-0.005155363611742299,0.011355565353982064,0.9879911726884999
2016-02-05,1,0.0007282168794548252,0.0008893987097518051,-0.00198166950890151,0.01571957433616826,0.9870455371778978
2016-02-09,1,0.0001730254546799005,0.00028817430162980277,0.0005434158632121795,0.01571957433616826,0.9877519810389943
2016-02-11,-1,-0.00025124733691566053,-0.00019324487438264948,0.0005434158632121795,0.013054699156244671,0.9892389535336041
2016-02-16,1,0.00047032813190680975,0.0006167350249137735,-0.00198166950890151,0.010618751034502709,0.9904070235147148
2016-02-18,1,0.0009721266672278122,0.0011868177127818706,-0.00198166950890151,0.009682688567330977,0.990820604579947
2016-02-22,1,0.0006207335861394528,0.0007162410667326141,-0.00198166950890151,0.009950331593185624,0.9901845108625036
2016-02-24,1,0.001153342462898119,0.001355868288549029,-0.004870606894490795,0.009950331593185624,0.9897151324478362
2016-02-26,1,0.0018021531366352213,0.0021143113567953994,-0.004870606894490795,0.009483704376177233,0.9905447722591156
2016-03-01,1,0.001720497546835179,0.0019472118471272621,-0.005252155581305379,0.009483704376177233,0.9905633989061896
2016-03-03,1,0.0019315866247527572,0.0022139009811348955,-0.005252155581305379,0.009950331593185624,0.9899629129881774
2016-03-07,1,0.0029671442981393722,0.0034249199455261255,-0.006568724067000516,0.009422334192178472,0.9908486378808118
2016-03-09,1,0.002302925993119675,0.002601913270996318,-0.005252155581305379,0.009447586196664809,0.9909700148958347
2016-03-11,1,0.0026044230505363982,0.0029815954561929164,-0.003171454924722249,0.00785096303889229,0.9915006277091087
2016-03-15,1,0.00235209280703342,0.0027049822461192204,-0.000558533582236082,0.00785096303889229,0.9922340252403606
2016-03-17,1,0.001495615679107813,0.0017175126740222517,-0.0014974654753186132,0.00785096303889229,0.9933512823655455
2016-03-21,1,0.002359990854749693,0.002745786746206726,-0.0014974654753186132,0.005103756911234067,0.9940917440177879
2016-03-23,1,0.0014982693434250833,0.001637088571255469,-0.0014974654753186132,0.0054922427258691,0.9944037724497364
2016-03-28,1,0.0014675372343423611,0.0015941151511079873,-0.0014974654753186132,0.0054922427258691,0.9943392184973068
2016-03-30,1,0.0023827269229690744,0.002662754471310415,-0.00018855918978777668,0.0054922427258691,0.9958151054139104
2016-04-01,1,0.0029406343732642556,0.003308187854013713,-0.0014974654753186132,0.004810566720451014,0.993643309658142
2016-04-05,1,0.0026311443503939788,0.0029542378850536686,-0.0012267078269239473,0.005567828167783819,0.9936500892333386
2016-04-07,1,0.002704659042762267,0.003012128151480599,-0.0015836723117560894,0.005567828167783819,0.9933976921752955
2016-04-11,1,0.0019447922909427294,0.0020818182807756996,-0.0012267078269239473,0.007191907435269325,0.993402976359981
2016-04-13,1,0.002092996905481601,0.0022739836825761872,-0.0015836723117560894,0.007191907435269325,0.9928340792516824
2016-04-15,1,0.0018949417053347399,0.0020649382586006466,-0.0015836723117560894,0.007191907435269325,0.992995434867081
2016-04-19,1,0.001975449464034327,0.0021521335421649385,-0.0021237625854909057,0.007810548340092981,0.9914673817074807
2016-04-21,1,0.0022090974929972287,0.0024391897047797745,-0.0017140496643864498,0.008481518877686394,0.9913595324277562
2016-04-25,1,0.0023681705739079847,0.00262715707640801,-0.0026981572246720775,0.009475591681785363,0.9906299646125049
2016-04-27,1,0.002718411252316579,0.0030433615145832368,-0.0026981572246720775,0.011421700263732534,0.9897399588402245
2016-04-29,1,0.002969167238398099,0.0032905194717781543,-0.002264827977432468,0.009475591681785363,0.992219090821743
2016-05-03,1,0.0029241912523814938,0.0032119540372394454,-0.004207795947660204,0.007523265036635647,0.991111498754346
2016-05-05,1,0.0029768740108466396,0.00325289550402637,-0.006095291790482174,0.0072964510459977054,0.9910129348752402
2016-05-09,1,0.0030756885306837825,0.003351508524001187,-0.006095291790482174,0.008225273075497709,0.9908411009025472
2016-05-11,1,0.0030649669118194317,0.0033557213947419907,-0.004207795947660204,0.008799229224945271,0.9908602212329276
2016-05-13,1,0.002803751686999174,0.0030550791712868064,-0.005052699842369619,0.008799229224945271,0.9903982231265926
2016-05-17,1,0.0032209054471714167,0.0035717756253001802,-0.004449700737135317,0.008225273075497709,0.9914231210511943
2016-05-19,1,0.003525903110329638,0.0039267613150171365,-0.007078401952513788,0.007495394622368709,0.9909976583254126
2016-05-23,1,0.0035081574445055964,0.003930344001762066,-0.004449700737135317,0.007495394622368709,0.9911795975536544
2016-05-25,1,0.0036428383214662154,0.004046783126621317,-0.004449700737135317,0.007495394622368709,0.9916795290719909
2016-05-27,1,0.0030839814233582026,0.0033917995469620074,-0.009913040796590042,0.007495394622368709,0.988966139280384
2016-06-01,1,0.0021160862958926885,0.0022486643766616125,-0.007078401952513788,0.010413007930935674,0.9883890639487677
2016-06-03,1,0.0016630663394412585,0.0016963695452899361,-0.0021296131377526086,0.015752870152485516,0.9882806884501473
2016-06-07,1,0.0014237777105608365,0.0014426753379061215,-0.0014502564348689855,0.015752870152485516,0.9885874113875475
2016-06-09,1,0.0016222553550032908,0.0016367263927156836,-0.0014502564348689855,0.012981990083174409,0.9887730710705495
2016-06-13,1,0.0007779429423114348,0.0009135742740938417,-0.0038475283787399416,0.012981990083174409,0.9889383382068655
2016-06-15,1,0.0004969806737613716,0.0006765728776086989,-0.004187255986332692,0.012981990083174409,0.98897870674849
2016-06-17,-1,-0.0003119123522945846,-1.8122599951634136e-05,-0.0038475283787399416,0.012981990083174409,0.9892803238085481
2016-06-21,0,-0.00023655110182283596,8.784602602758204e-05,-0.0038475283787399416,0.01195255584948963,0.9896651185002778
2016-06-23,1,0.0019918870380110664,0.002043840018813259,-0.004187255986332692,0.005427991534973944,0.9906543628756924
2016-06-27,1,0.00012206261012124816,0.00030107039884943196,-0.0038475283787399416,0.008006693285324676,0.991893791120341
2016-06-29,1,0.0014891175009113676,0.0015251521087358624,-0.004187255986332692,0.003683834796064773,0.9939956821597158
2016-07-01,1,0.0012130244831664147,0.001343402927616753,-0.004187255986332692,0.003683834796064773,0.994455499593192
2016-07-06,1,0.0005425723946130003,0.0007144976593223141,-0.004187255986332692,0.00635916327487389,0.988725514448694
2016-07-08,1,0.001077606961480661,0.0011601569172375284,-0.004187255986332692,0.00635916327487389,0.9889136748854911
2016-07-12,1,0.0008780568564840999,0.0009612822832811936,-0.004131953749274801,0.007554111608947887,0.9881104213313718
2016-07-14,1,0.0005625849980481173,0.0006756676359888651,-0.003224821899534975,0.009780065089995923,0.9876940653024354
2016-07-18,1,0.0006212178920278088,0.0007237421063830948,-0.003224821899534975,0.010004594685774238,0.9873482174607006
2016-07-20,1,0.0010492469105489615,0.001082555282152989,-0.005146415134860453,0.009780065089995923,0.9874724166595231
2016-07-22,1,0.0009906197842669338,0.0010049680557633405,-0.003224821899534975,0.009780065089995923,0.9879307884466253
2016-07-26,1,0.0006806877186362093,0.0007364451034217627,-0.003224821899534975,0.009780065089995923,0.9885818851346443
2016-07-28,1,0.0008141926364062066,0.0008245105047007775,-0.003224821899534975,0.009780065089995923,0.9888023658504259
2016-08-01,1,0.000758762718799686,0.0007764674803032897,-0.002202443731684027,0.010004594685774238,0.9883637135282832
2016-08-03,1,0.00290748181162785,0.003165794503180379,-0.003506554266828777,0.008924580411679416,0.9933233003057645
2016-08-05,1,0.002729892407106029,0.0029426507835352733,-0.003506554266828777,0.008327232955550535,0.9935304372278309
2016-08-09,1,0.0024623990372192508,0.0026020874598372784,-0.002056912475854768,0.007385916630690904,0.9944103529549159
2016-08-11,1,0.0024317233005221044,0.0025829371577564763,-0.003740715797731854,0.004972017161021692,0.9930653812656207
2016-08-15,1,0.002409729188348488,0.002529109169843405,-0.0052564973593994604,0.004972017161021692,0.9913704438657942
2016-08-17,1,0.0021059958862765715,0.002176921086105755,-0.003740715797731854,0.007385916630690904,0.9917226152311247
2016-08-19,1,0.002092263402705883,0.0021934038938269925,-0.003740715797731854,0.008327232955550535,0.9913686823779646
2016-08-23,1,0.0020178869546766016,0.0021272990687309914,-0.0017605778283624448,0.008769959003932216,0.9913600620538029
2016-08-25,1,0.0016775185946448818,0.0017329834112980425,-0.0017605778283624448,0.009105698734997364,0.9905702032767756
2016-08-29,1,0.0020273667826311995,0.002140910849586071,-0.00341875918462927,0.009105698734997364,0.9902811573006186
2016-08-31,1,0.001945510995627544,0.0020360941676495496,-0.003913924318621111,0.009105698734997364,0.9900416120528766
2016-09-02,1,0.0020215055690696216,0.002115684567908375,-0.003913924318621111,0.009105698734997364,0.9901163191952838
2016-09-07,1,0.0018448601720347487,0.0018980460421349865,-0.003913924318621111,0.009105698734997364,0.9902147794611404
2016-09-09,1,0.000850427047181955,0.0009183926684583956,-0.0005568017520866957,0.009349385981853222,0.9913743552333291
2016-09-13,1,0.0004125578763075845,0.0005363026345467827,-0.0005568017520866957,0.009349385981853222,0.9910571128006739
2016-09-15,1,0.0006159345041598344,0.0007253231361503336,-0.004931512631271155,0.009336563333850705,0.9906878801779733
2016-09-19,1,0.0007436528209259435,0.0008327287931158622,-0.004931512631271155,0.008040980889987798,0.9910278105410714
2016-09-21,1,0.0012882333002626947,0.0012997579272288455,-0.004931512631271155,0.008040980889987798,0.9910513915607817
2016-09-23,1,0.0010693079648612387,0.001104001205535687,-0.007025628015212336,0.00451656607173513,0.9911137613415809
2016-09-27,1,0.0014303137951905218,0.0014473798071399009,-0.009171829399406228,0.00451656607173513,0.989990805259431
2016-09-29,1,0.0011704882787082543,0.0011813348078236947,-0.010902541046436141,0.00451656607173513,0.9878852863543861
2016-10-03,1,0.0012853451449115877,0.001293058007312851,-0.010902541046436141,0.005426892928130967,0.9873919323197766
2016-10-05,1,0.001069698521542361,0.0011354867355641042,-0.014699511846606336,0.012272778628613777,0.9854965143220447
2016-10-07,1,0.001575307969944663,0.0015805428598069267,-0.014699511846606336,0.0110582580225115,0.9856636738930186
2016-10-11,1,0.0009064173248795511,0.0009808334470131086,-0.010902541046436141,0.0110582580225115,0.986814930603026
2016-10-13,1,0.00010960348175728847,0.00028190663248063645,-0.008312975680487871,0.0110582580225115,0.9873994225878917
2016-10-17,1,0.000459466701068614,0.0005632414727803055,-0.008312975680487871,0.0110582580225115,0.9873910396789053
2016-10-19,1,0.0006641845441230881,0.0007520401505462678,-0.008312975680487871,0.011647715980882227,0.9861586892764164
2016-10-21,-1,-0.0005087881700609417,-0.0002500278395075954,-0.0032831011457915846,0.01550467750767345,0.9857142035528766
2016-10-25,-1,-0.0006000071949716276,-0.00032565430846074033,-0.003131745436238298,0.01550467750767345,0.9864003497968353
2016-10-27,-1,-0.0022022633000967507,-0.0017461242105623832,-6.506496532761872e-05,0.01550467750767345,0.9881593468057435
2016-10-31,-1,-0.0014608569208424626,-0.0011108465723496871,-0.0030314190443858436,0.011988415725526568,0.9889612929800975
2016-11-02,-1,-0.0022712336023809642,-0.001800990309749661,-0.003131745436238298,0.010963470388149096,0.9885253950641517
2016-11-04,-1,-0.002214352440071841,-0.0017437663351493624,-0.003131745436238298,0.009183719069361914,0.9888638223736949
2016-11-08,-1,-0.0017310758048489825,-0.0012900036123474187,-0.003131745436238298,0.012027651631686679,0.9888039425951239
2016-11-10,-1,-0.0017143638262192376,-0.001299846980566674,-0.0033021275651528197,0.012027651631686679,0.988393775565375
2016-11-14,-1,-0.00137405280639839,-0.0010200607772357377,-0.0033021275651528197,0.01498298322786105,0.9876654796872082
2016-11-16,-1,-0.0016646326788458672,-0.0011806962808170577,-0.00429944276005337,0.012027651631686679,0.9889882491841671
2016-11-18,1,9.557519164493905e-05,0.0002967811790248752,-0.00429944276005337,0.008224391358071768,0.9905737977777693
2016-11-22,1,0.0012742819562657577,0.001311648850807382,-0.004795723840308059,0.006692715332507974,0.9913653558841183
2016-11-25,1,0.0012433102734264046,0.0012828976247234102,-0.004795723840308059,0.0067746843455936045,0.9909202693412641
2016-11-29,1,0.001330162468818784,0.0013442141866055169,-0.004795723840308059,0.006551677303317661,0.990571188617532
2016-12-01,-1,-0.0006694235964490575,-0.00040274019064298215,-0.00429944276005337,0.006551677303317661,0.9929291052348915
2016-12-05,-1,-0.001084771664685644,-0.0007475905447052899,-0.004795723840308059,0.006551677303317661,0.9925190299446636
2016-12-07,0,-5.7791811232804744e-05,0.00015743513271464585,-0.004795723840308059,0.004997957670782145,0.9931107749701504
2016-12-09,1,9.87626766024793e-05,0.0002817449281899743,-0.004325462671535243,0.005840542552263737,0.9926775982170296
2016-12-13,1,0.0004466591789791805,0.0006104555125116426,-0.004325462671535243,0.003941494149927935,0.9933279429845033
2016-12-15,0,-0.0001755801530530425,7.773942133645158e-05,-0.004325462671535243,0.003941494149927935,0.9935213646841751
2016-12-19,-1,-0.0007378882578662367,-0.00040473443028193824,-0.005604505861879737,0.005840542552263737,0.9928387393948135
2016-12-21,-1,-0.0007716331651448549,-0.000428000430180484,-0.0074571584835753935,0.003941494149927935,0.9925997085462347
2016-12-23,1,0.0016917038840455582,0.001800149741467861,-0.0074571584835753935,0.0058170984575175,0.9914426428714852
2016-12-28,1,0.0010516231050296614,0.0010957810409159686,-0.0074571584835753935,0.0078064946223405755,0.9908639628162903
2016-12-30,1,0.0011690538264148395,0.0012679832234676184,-0.00932062532472468,0.012254605295161178,0.990167427402422
2017-01-04,1,0.0006408949117699789,0.0006660622472584353,-0.0072171154227691475,0.01444617065878608,0.9858918186847241
2017-01-06,1,0.001634157617624315,0.001808048078646626,-0.0072171154227691475,0.01444617065878608,0.9861040684292578
2017-01-10,1,0.0021300241792961655,0.0023402884594543455,-0.00932062532472468,0.012501460804624389,0.9858481286280294
2017-01-12,1,0.0020521164853376608,0.002255649156857366,-0.00932062532472468,0.012501460804624389,0.985762211477463
2017-01-17,1,0.0016194750834790032,0.0017500680917498408,-0.00932062532472468,0.012501460804624389,0.9858994087975252
2017-01-19,1,0.0014470542737854808,0.0015327193015269467,-0.0038614217820810864,0.009711815727504507,0.9868657483294929
2017-01-23,1,0.0009044676967948071,0.0009643598150498583,-0.0007583949551222533,0.009711815727504507,0.9879083446278961
2017-01-25,1,0.002214783685884806,0.002457745248006258,-0.0009508005171206151,0.007286712934248717,0.9890156197189494
2017-01-27,1,0.0024964914913876974,0.002804469725669,-0.0007583949551222533,0.005831443966243615,0.9903731467999223
2017-01-31,1,0.002775639625030915,0.0031317635801677256,-0.00022927396035398112,0.007286712934248717,0.9906906538173922
2017-02-02,1,0.005970446473449301,0.006637330272272841,-0.0007583949551222533,0.007059135331096676,0.9939786075482537
2017-02-06,1,0.006218225996622464,0.006865535067250029,-0.0007583949551222533,0.005822265762233533,0.9942172133200092
2017-02-08,1,0.005934206150606573,0.006563252857107124,-0.0007583949551222533,0.005822265762233533,0.9945406539576187
2017-02-10,1,0.006062030377848818,0.0067207087885876385,-0.0004313917705832654,0.0061296422293496775,0.9947832291874875
2017-02-14,1,0.0060117527081953274,0.006684857301491048,-0.0003398851356283034,0.007483381032267605,0.9946147171193761
2017-02-16,1,0.00574929908708808,0.006359760192538187,-0.0005100184577413367,0.007483381032267605,0.9940263638550482
2017-02-21,1,0.005985535661629097,0.006659562066751817,-0.0014331347867020262,0.007483381032267605,0.9931928924406899
2017-02-23,1,0.00554355737314031,0.006118461221149434,-0.001408257650993407,0.008903041116115437,0.9928178940032739
2017-02-27,1,0.005673615968170235,0.00628264499101017,-0.001408257650993407,0.008903041116115437,0.9929317809467748
2017-03-01,1,0.006310379864895414,0.006987174607691025,-0.001408257650993407,0.006199799972983594,0.992802409903599
2017-03-03,1,0.006513133367004509,0.007258323385201559,-0.0010882783341268924,0.0058462565113153436,0.9926085623854348
2017-03-07,1,0.0057516023853703725,0.006331198603734768,-0.0010959747134674479,0.0058462565113153436,0.9932493647814652
2017-03-09,1,0.005683075763145884,0.00619226010845422,-0.001612617286516594,0.005625412071206531,0.9933890129056513
2017-03-13,1,0.006031361607421076,0.006584423329472781,-0.0025740688083735292,0.0046400024335713445,0.9926340779765905
2017-03-15,1,0.006585241859899715,0.007229865448484571,-0.0026085271816617185,0.00271574760733932,0.9922516767188448
2017-03-17,1,0.005315050954588818,0.00572268339958814,-0.0026085271816617185,0.0046400024335713445,0.9938407633617881
2017-03-21,1,0.004501671224671726,0.00480369369997361,-0.0010987718607891927,0.00564879798575117,0.9950040713118224
2017-03-23,1,0.0036760937848043618,0.0037033355385007734,-0.001596373450532288,0.00564879798575117,0.9952196168312865
2017-03-27,1,0.003836906969491279,0.003938024348699896,-0.001596373450532288,0.005925402991091384,0.9947160602720827
2017-03-29,1,0.0030712752137175576,0.003103449660975392,-0.001596373450532288,0.0047381965927794974,0.995020135576568
2017-03-31,1,0.002648534118025875,0.002719521819987664,-0.002525337300420612,0.006712493146328879,0.9927739980503058
2017-04-04,1,0.003147070242200325,0.0031768421302815282,-0.0027258724002402752,0.006712493146328879,0.9915742417315409
2017-04-06,1,0.0023977825342335166,0.00248735071979898,-0.0026726001785151816,0.009479011710488913,0.9916623608885167
2017-04-10,1,0.002058259611588827,0.0021893988394295094,-0.0026726001785151816,0.009479011710488913,0.9918989701801659
2017-04-12,1,0.002363187410981526,0.0024065918369792173,-0.0009033328249862778,0.009479011710488913,0.9919686959476948
2017-04-17,1,0.002928020953965701,0.0030166132519456206,-9.214595056384981e-05,0.008037922612696202,0.9922690008638062
2017-04-19,1,0.0038399351457888524,0.004105533751322259,-0.0009033328249862778,0.006326407872435652,0.9909913993485747
2017-04-21,1,0.0040916585692347155,0.004386866203090598,-9.214595056384981e-05,0.004060165422183272,0.9915355346042318
2017-04-25,1,0.004565091791175569,0.004910897059091072,-9.214595056384981e-05,0.006283349522793653,0.9916929036733305
2017-04-27,1,0.0031805681870180486,0.0032058457498678264,0.0001856947173181547,0.007590433439081518,0.9916383734091032
2017-05-01,1,0.002984575243378036,0.0030000682159294547,0.00029173392727912926,0.006283349522793653,0.9942145056362136
2017-05-03,1,0.002489636548062094,0.0025041523795745787,0.0007934742076312383,0.006283349522793653,0.9954746713004853
2017-05-05,1,0.002731303683607906,0.0027378715031319356,0.0006506355729623126,0.006283349522793653,0.995552396445465
2017-05-09,1,0.0027424888228253378,0.002790324409479924,0.0009082035372084191,0.006539220564428167,0.995670784516555
2017-05-11,1,0.0024902657461136355,0.0025047365972021766,0.00029173392727912926,0.006539220564428167,0.9935208120074688
2017-05-15,1,0.0022576925670214102,0.002329497858846972,-2.2155199772948666e-05,0.006539220564428167,0.9910664585114575
2017-05-17,1,0.0010333158356094965,0.0012525167846590764,-0.00048798543086476533,0.006539220564428167,0.9918406821527489
2017-05-19,1,0.0008686612761676436,0.0011133823064077403,-0.00048798543086476533,0.007733160620750961,0.9909147953370299
2017-05-23,1,0.0006890223353783369,0.0010026938988116684,-0.00048798543086476533,0.007044651101654561,0.9910196776668453
2017-05-25,1,0.0009951366596218816,0.0012952629952636971,-0.0006129711773438034,0.005477491014927684,0.9916450636165475
2017-05-30,1,0.0003671584242302809,0.0007800969800733531,-0.003655653466155008,0.005477491014927684,0.990209177464824
2017-06-01,1,0.000494480794753033,0.0008533378879326933,-0.005176859382120862,0.007044651101654561,0.9884786891023409
2017-06-05,1,0.0009870430896064763,0.0012595518479324914,-0.009437035561233134,0.0056619402004316095,0.9879461188133858
2017-06-07,1,0.001018750160856183,0.0013023055635830233,-0.013041302793753776,0.006605367642171726,0.987117286710543
2017-06-09,-1,-0.00140193427760773,-0.0008154645520326469,-0.009437035561233134,0.010715143212022615,0.9885695630857857
2017-06-13,-1,-0.00253529966363608,-0.0018098440944147721,-0.005176859382120862,0.010715143212022615,0.9899772496767001
2017-06-15,-1,-0.003639566531524561,-0.002731789218866789,-0.0067994907636565235,0.013098694930506506,0.9886648284132684
2017-06-19,-1,-0.002248426594278299,-0.0015523753966574382,-0.0067994907636565235,0.010715143212022615,0.9903668025762292
2017-06-21,-1,-0.0020303004526111917,-0.0013493123024249775,-0.0067994907636565235,0.013095627866562605,0.9904306704215131
2017-06-23,-1,-0.002102022823878154,-0.0014128109322374032,-0.0067994907636565235,0.013595769393386626,0.9895785205048944
2017-06-27,-1,-0.0009978175742035096,-0.0006591711556507367,-0.004583069790287481,0.013595769393386626,0.9896334041368751
2017-06-29,-1,-0.0011346386338933366,-0.0008156271822126483,-0.004583069790287481,0.013600903495469049,0.9898550461467398
2017-07-03,-1,-0.0017607883422997594,-0.001349380905994568,-0.00631983287469351,0.013600903495469049,0.9871363036846664
2017-07-06,-1,-0.001810199053102044,-0.001398108382610714,-0.00631983287469351,0.014666229284302203,0.9863862778331699
2017-07-10,-1,-0.0014653256797887355,-0.0010834455110313016,-0.007163093559604195,0.017839818698155596,0.9857884488713791
2017-07-12,-1,-0.0008073398527073708,-0.0005022904754689447,-0.007163093559604195,0.01464162578622323,0.9864354185541814
2017-07-14,-1,-0.00046475836230426754,-0.00020044842639952852,-0.01089365106328637,0.013129441696211896,0.9857779978752296
2017-07-18,-1,-0.0008041944913849257,-0.0005011291260560147,-0.01089365106328637,0.013952210362850548,0.9851838540924879
2017-07-20,-1,-0.0004817606908209264,-0.00021804006086705106,-0.01625583653030519,0.013488949729619719,0.9847030272715114
2017-07-24,1,0.0005886842376381476,0.0006885045717400269,-0.01625583653030519,0.005862274886936797,0.9851211234900168
2017-07-26,-1,-0.0003733786009606084,-0.00015487300103913593,-0.01089365106328637,0.013488949729619719,0.9855045403359577
2017-07-28,-1,-0.0003724311000027201,-0.00014856032837099907,-0.009693718960925716,0.007120832561462039,0.9863554063593456
2017-08-01,-1,-0.003261361152633946,-0.0027285434548381133,-0.009626050632308652,0.007120832561462039,0.990229127420181
2017-08-03,-1,-0.0030944896246280175,-0.002607171234259247,-0.007480644289508256,0.013488949729619719,0.9903044817588504
2017-08-07,-1,-0.0024018153781497284,-0.00202147350203747,-0.005165485117338364,0.007260411652429839,0.9913117483871612
2017-08-09,-1,-0.002979825145843623,-0.0025091118165168065,-0.004869708838306271,0.008407275473938906,0.9905017457417957
2017-08-11,-1,-0.0036764369492532116,-0.00309901644367905,-0.004197766036880452,0.008921203718423672,0.9910334594155064
2017-08-15,-1,-0.0028133162120598824,-0.0023698129502750832,-0.004869708838306271,0.006823529964703624,0.9918092445450184
2017-08-17,-1,-0.003409376537008207,-0.0029096049367628393,-0.0032432355301572693,0.006823529964703624,0.9925404047758642
2017-08-21,-1,-0.003691490978386296,-0.0031692245305034797,-0.0032432355301572693,0.009138372539452804,0.9914336739969363
2017-08-23,-1,-0.002813953314862612,-0.0023923855612275453,-0.007028083078803064,0.006823529964703624,0.9918767579608937
2017-08-25,-1,-0.003433665557596883,-0.0029467997886650898,-0.005127443098669653,0.00795628710722722,0.9907788417421357
2017-08-29,-1,-0.003720317030400347,-0.003193183228805718,-0.007921891692203514,0.012353153450513795,0.9894275547417912
2017-08-31,-1,-0.0022745805791508037,-0.0019169118370357284,-0.008634137945372737,0.006977360893293148,0.9906073643395962
2017-09-05,-1,-0.0022595699946784745,-0.0018980698787790743,-0.010456622616658787,0.008142648837330251,0.9896219268278325
2017-09-07,-1,-0.0015573634383793489,-0.0012889710288384155,-0.010456622616658787,0.010896146400820976,0.9891367497946171
2017-09-11,-1,-0.0006768133652968094,-0.0005340774453752235,-0.010456622616658787,0.008142648837330251,0.9896080446819469
2017-09-13,-1,-0.0006756790015655684,-0.0005588527218751249,-0.010456622616658787,0.008142648837330251,0.9894524823342725
2017-09-15,-1,-0.00020920351863809155,-0.00018913817502823257,-0.012901411964680165,0.010896146400820976,0.9877264322974565
2017-09-19,1,0.00023742009236526714,0.0002782944734539602,-0.012901411964680165,0.00956014690218434,0.9884034487647376
2017-09-21,-1,-0.0008714140203786502,-0.0007953613276637138,-0.008466693564941211,0.010896146400820976,0.9884303459780258
2017-09-25,-1,-0.0017144532223963263,-0.001497151966589285,-0.007005151975869082,0.012869009164620505,0.9888676233879655
2017-09-27,-1,-0.0007653486546076217,-0.00068872568382916,-0.00718813635167587,0.00956014690218434,0.9896704665143881
2017-09-29,-1,-0.001071972909383532,-0.0009510621346630125,-0.0061933145701236585,0.014994617080618267,0.9887046192434968
2017-10-03,-1,-0.0011296879112991135,-0.001022249086501751,-0.0061933145701236585,0.014994617080618267,0.9884082689463422
2017-10-05,1,0.00011631863980346348,0.0001812407139951482,-0.009392027247876675,0.011438345916066715,0.985346025744648
2017-10-09,-1,-0.0003026247960301357,-0.00026678744275490966,-0.011229137808267606,0.014994617080618267,0.9834297750385232
2017-10-11,-1,-0.0002454476056689059,-0.0002249854564415582,-0.011229137808267606,0.014994617080618267,0.9834941727259114
2017-10-13,1,0.0005397990323875166,0.0006605011821799753,-0.012068934021231052,0.011438345916066715,0.9843229809411033
2017-10-17,1,0.0011096428071378029,0.0013561214694935702,-0.012068934021231052,0.012290507282295545,0.9844378968509125
2017-10-19,1,0.0016292753386596475,0.001953962488694434,-0.012068934021231052,0.012738273647758806,0.9843937735012936
2017-10-23,1,0.002420281922752494,0.00285497448794463,-0.012068934021231052,0.0119903819149944,0.9851532028935093
2017-10-25,1,0.002081499550631357,0.00249899727683554,-0.011553204269544343,0.0119903819149944,0.9854678727740223
2017-10-27,1,0.003976664280562462,0.004675096805265424,-0.011553204269544343,0.0065703236315652926,0.9867095125594302
2017-10-31,1,0.0024884965454365277,0.0028813276375526738,-0.009439058978061052,0.004949206859911622,0.9878195616165
2017-11-02,-1,-0.001776412431301814,-0.0015833265376434774,-0.007188565670805266,0.006854377420308236,0.9905943211408096
2017-11-06,-1,-0.0019221113557564666,-0.0017033072452606224,-0.003623282570800122,0.006854377420308236,0.991317982873986
