JNU-Tangyin/eata/results/Batch4_SP500/Batch4_SP500-JKHY.csv
Date,Action,Predicted_Q25,Predicted_Q75,Actual_Q25,Actual_Q75,RL_Reward
2010-12-14,0,0.0,0.0,-0.003553134344293895,0.0033956759314537088,0.9956932997013614
2010-12-16,1,0.005280284257644455,0.00593374826173217,-0.003553134344293895,0.0033956759314537088,0.9919985483330814
2010-12-20,1,0.004049890258932161,0.004480544628666788,-0.00228869889501565,0.004663561409305776,0.9922884165763515
2010-12-22,1,0.004193860329910863,0.004663428128681896,-0.004992642539714855,0.0033956759314537088,0.9914185864969127
2010-12-27,1,0.004347180375386222,0.004863428937875577,-0.004992642539714855,0.003844015863000371,0.9913943646964701
2010-12-29,1,0.0037894160891351718,0.004193963737513871,-0.004992642539714855,0.003844015863000371,0.9919813888664165
2010-12-31,1,0.0029221391513452183,0.003177183961801882,-0.004992642539714855,0.004158352418742719,0.9916324213670376
2011-01-04,1,0.0017926344409568012,0.0018180662160814348,-0.00223421569584159,0.005010434598667176,0.9912972324594402
2011-01-06,1,0.0013832940348850863,0.001480433517375637,-0.0022681171049206946,0.004158352418742719,0.9915111162523149
2011-01-10,1,0.001985393814316068,0.002004810276553811,-0.0022681171049206946,0.005080000537642801,0.9909871824875247
2011-01-12,1,0.0012826423040035344,0.001412239796681353,-0.0022681171049206946,0.008381845088911622,0.9905825816667416
2011-01-14,0,0.0,0.0,-0.0022681171049206946,0.005348610793564562,0.9914758530570754
2011-01-19,0,0.0,0.0,-0.0017701550137902262,0.005348610793564562,0.992528195485534
2011-01-21,0,0.0,0.0,-0.0008033974153042862,0.005348610793564562,0.9929513764277633
2011-01-25,0,0.0,0.0,-0.0017701550137902262,0.005348610793564562,0.9914282534183412
2011-01-27,1,0.00044130854698116355,0.0005066939454965304,-0.0017701550137902262,0.007847854040725018,0.990754562148872
2011-01-31,-1,-0.0006641517676391032,-0.00043809282682766954,-0.0017701550137902262,0.007847854040725018,0.9915804479460973
2011-02-02,1,0.0010380320617072918,0.0010616295383391794,-0.0017701550137902262,0.006092236295204451,0.9928460872615094
2011-02-04,1,0.0009142618447495512,0.0009320709467032748,-0.0010937298278342977,0.006092236295204451,0.9922527644197708
2011-02-08,1,0.0011361118062543022,0.001164461861564037,-0.0022820253313976485,0.006092236295204451,0.9919103542988249
2011-02-10,1,0.002000552767033755,0.0021925479626093104,-0.0045676046116947585,0.005800439447825831,0.990974575370527
2011-02-14,1,0.0014850658137160128,0.0015791020093864992,-0.008300650105598432,0.005295833192064611,0.9901176859779898
2011-02-16,1,0.0018243807294704584,0.0019444340170812905,-0.010517307414431548,0.004691330259311479,0.9897835303349372
2011-02-18,1,0.0016603136467305906,0.001739140427738528,-0.010517307414431548,0.007098034357870809,0.9887313027432452
2011-02-23,1,0.00014606376782632497,0.0002661818939157219,-0.0058883721439581295,0.007098034357870809,0.9904941780648744
2011-02-25,1,0.0008660786076910048,0.0009121753860078907,-0.0058883721439581295,0.009276380766057687,0.990327359235921
2011-03-01,1,0.0005900206303237081,0.0006570084528675019,-0.005128490791790301,0.00994565770061564,0.9902595506342892
2011-03-03,1,0.0014460660832189384,0.0014879542884075586,-0.005128490791790301,0.00994565770061564,0.9902335231255553
2011-03-07,1,0.0006983034470711791,0.0007455232385483851,-0.00417682332884382,0.00994565770061564,0.9905347960680616
2011-03-09,1,0.000846067150401894,0.0008648974880973521,-0.003921661165427691,0.009134635467649522,0.991040375967646
2011-03-11,1,0.00042278907930885524,0.0005076976765194354,-0.004133744089452814,0.00733699863033277,0.9922268218872947
2011-03-15,-1,-0.0002696541967697716,-0.00010256354601398702,-0.004133744089452814,0.00733699863033277,0.9920010631015297
2011-03-17,-1,-0.0007568443472129886,-0.0005268067249516293,-0.003921661165427691,0.009732524756638616,0.9921582420902002
2011-03-21,1,0.0004968114311978625,0.0005606547404254779,-0.004133744089452814,0.009732524756638616,0.992511893356727
2011-03-23,1,0.0002021018814997787,0.0003063438321239482,-0.004133744089452814,0.009914719635144991,0.9917985359149954
2011-03-25,1,0.000682846362378124,0.0007141656872540264,-0.004133744089452814,0.0073132027484764835,0.9926993539829594
2011-03-29,0,0.0,0.0,-0.004133744089452814,0.004974930142388817,0.9930822009654025
2011-03-31,1,0.0020554303428183783,0.0022009953256181096,-0.004133744089452814,0.004827743765346688,0.9937325487660028
2011-04-04,1,0.001532051607433238,0.0015993287344825565,-0.004962546736704657,0.004827743765346688,0.9934097911479803
2011-04-06,1,0.0018337657484947638,0.0019337436216243613,-0.006179513887818211,0.0016346062062051231,0.9907996507440604
2011-04-08,1,0.0014221996507753929,0.0014615030278756016,-0.005552109697082356,0.00358742061182246,0.9913029109028896
2011-04-12,0,0.0,0.0,-0.005062785668257581,0.0043815705410956965,0.9916035386919844
2011-04-14,0,0.0,0.0,-0.008145926410707095,0.0043815705410956965,0.991013213736373
2011-04-18,-1,-0.0002859661786563538,-0.00027151878932367673,-0.008792180103156114,0.00358742061182246,0.991259720647617
2011-04-20,-1,-0.0007815158780697629,-0.0007130690822685368,-0.008792180103156114,0.00358742061182246,0.9919215033386303
2011-04-25,0,0.0,0.0,-0.00935244396948721,0.00358742061182246,0.9905916977254765
2011-04-27,1,0.0005594967961070449,0.0006106288487175895,-0.00935244396948721,0.003911047492516497,0.9900283960115065
2011-04-29,0,0.0,0.0,-0.00935244396948721,0.003911047492516497,0.9897692771843125
2011-05-03,1,0.000526713622847508,0.0005959770718847372,-0.009931429220209093,0.005368470786946955,0.9881368944496062
2011-05-05,-1,-0.0011509940685302841,-0.000901805778150886,-0.009931429220209093,0.005368470786946955,0.990084365713097
2011-05-09,-1,-0.000964833504145471,-0.0007479039542201082,-0.009931429220209093,0.005368470786946955,0.9900966435032775
2011-05-11,-1,-0.0007349728968084314,-0.0005642385909982139,-0.011183249647944442,0.005368470786946955,0.9901601321931622
2011-05-13,-1,-0.0014644684574490468,-0.001173656374458192,-0.010527372721403517,0.003251103769429744,0.9909698939034749
2011-05-17,-1,-0.0020307096357780425,-0.0016748139345734772,-0.011907152908963544,0.005368470786946955,0.9901926951535175
2011-05-19,-1,-0.0018787037025391779,-0.001550760122813854,-0.011907152908963544,0.003835528280377491,0.9901632403281866
2011-05-23,-1,-0.002826887638877739,-0.002378690952646534,-0.007771515597410277,0.007231514270129596,0.9895160057123857
2011-05-25,-1,-0.0031076824602131164,-0.0026061127243584463,-0.011631727245359835,0.007231514270129596,0.989334269493703
2011-05-27,-1,-0.0026188391257959296,-0.0021873373025729577,-0.011631727245359835,0.007231514270129596,0.9895903898500323
2011-06-01,-1,-0.003097261375546981,-0.0026070919060865207,-0.007349116974220072,0.007172150296600742,0.9911614052912896
2011-06-03,-1,-0.0032621812056655396,-0.002772934328626267,-0.005839955085582086,0.009187168519170223,0.9909875711709681
2011-06-07,-1,-0.0035756539150972617,-0.003046610825291806,-0.004809309665784078,0.009187168519170223,0.9903077073042511
2011-06-09,-1,-0.0026789834320480213,-0.002335250415744729,-0.004809309665784078,0.00946296351730171,0.9907646074006007
2011-06-13,-1,-0.0035201925843867596,-0.0030443131090927586,-0.004809309665784078,0.00946296351730171,0.9906585818934444
2011-06-15,-1,-0.003918824848544956,-0.0033752666106209124,-0.004809309665784078,0.009187168519170223,0.9912877715176734
2011-06-17,-1,-0.0036630391091708203,-0.003166218299262505,-0.005857635400097931,0.009187168519170223,0.9904837328542413
2011-06-21,-1,-0.0021999046133619037,-0.0018770375418053489,-0.005857635400097931,0.0084294921200169,0.991128171175934
2011-06-23,-1,-0.002733962962111934,-0.0023184942148710584,-0.005857635400097931,0.009284871596715148,0.9908987876098745
2011-06-27,-1,-0.0016941662572774762,-0.0014846564556364175,-0.006391445879922182,0.0084294921200169,0.9908040217385768
2011-06-29,-1,-0.0020089238539529844,-0.0017412237502448702,-0.00816069664987933,0.005990063170313003,0.9907926161499221
2011-07-01,-1,-0.0012050453105531536,-0.0010397811095180982,-0.011203347871884196,0.003038891189292822,0.9907064756691049
2011-07-06,-1,-0.0005747481667106819,-0.000508825756949414,-0.012790266479693729,0.00184798539501591,0.9886556090308624
2011-07-08,-1,-0.00041371828824043476,-0.000371017963161372,-0.01631296149846862,0.00184798539501591,0.9869487708161201
2011-07-12,-1,-0.0006671413352671076,-0.0006086728233941233,-0.01769153022325452,0.004626127767711727,0.9807772720949571
2011-07-14,-1,-0.000620980418968289,-0.0005774095790119437,-0.019546909526801014,0.005508828835336623,0.974646574488194
2011-07-18,0,0.0,0.0,-0.01769153022325452,0.011741619024928176,0.9744653955019412
2011-07-20,-1,-0.0011148103312737451,-0.0010036649286167142,-0.01769153022325452,0.011741619024928176,0.9747433450460331
2011-07-22,-1,-0.0010640918172575454,-0.0009504840016342691,-0.02360583338839576,0.009629899553558786,0.9716750027056652
2011-07-26,-1,-0.0012139438377205532,-0.0011302864490576618,-0.02338100597681314,0.014535449348317984,0.9695339708635426
2011-07-28,0,0.0,0.0,-0.02338100597681314,0.014535449348317984,0.9696552429330506
2011-08-01,-1,-0.003204175775406952,-0.002818418349366188,-0.020740017711793575,0.025478290465779513,0.9676309803083735
2011-08-03,-1,-0.005928533146477186,-0.005183514177707476,-0.008386938113365952,0.025478290465779513,0.9684752058765382
2011-08-05,-1,-0.007942559181605796,-0.006923339304303503,-0.008910250983928152,0.025478290465779513,0.9693251596113939
2011-08-09,-1,-0.007430205281068304,-0.006490736081122622,-0.007678395943497001,0.025478290465779513,0.9743484435281528
2011-08-11,-1,-0.003233138427679103,-0.0029020455584773197,-0.010243774187464475,0.02054768979426141,0.9809150016484592
2011-08-15,-1,-0.002401285685481304,-0.0021695475037033893,-0.010243774187464475,0.02054768979426141,0.9805275921109498
2011-08-17,-1,-0.0009328555799333271,-0.000911516458092741,-0.010243774187464475,0.018163884991996213,0.9812739762007721
2011-08-19,-1,-0.0032019964189232628,-0.0029393973770865953,-0.006658598419330594,0.018163884991996213,0.9844338810371784
2011-08-23,-1,-0.0005648841696238064,-0.00045897543456743193,-0.008717596404763222,0.0152423789078444,0.9875890565628745
2011-08-25,-1,-0.0005129239430440895,-0.00040747041170757526,-0.00983897897353659,0.0152423789078444,0.986896398462767
2011-08-29,1,0.0012325692959852957,0.0015959187515254439,-0.00983897897353659,0.009444080574948244,0.9885417251322421
2011-08-31,1,0.0014044027518976014,0.0017775284069429112,-0.012257161395145379,0.0152423789078444,0.9856815839116773
2011-09-02,1,0.00033714117560514653,0.0005352135871626864,-0.012257161395145379,0.0152423789078444,0.9843919071620314
2011-09-07,1,0.001198700565162895,0.001536041793890967,-0.012257161395145379,0.01760651107291518,0.9832117959920499
2011-09-09,1,0.0003008530992409897,0.0005217505096294548,-0.007792594113769341,0.01760651107291518,0.9836347335599296
2011-09-13,1,0.0017330192552543948,0.002177705992821053,-0.007792594113769341,0.016208356341286888,0.9842658081227295
2011-09-15,1,0.00229891030006924,0.002818144388422164,-0.007792594113769341,0.016614316023843903,0.9841501611143413
2011-09-19,1,0.002480658467886657,0.0030332569987827364,-0.009388725473990191,0.018086513371190632,0.9827838327164227
2011-09-21,1,0.002100190076301494,0.0026183699413516535,-0.00922101730915886,0.018086513371190632,0.9827278848683796
2011-09-23,0,0.0,0.0,-0.007400104505145648,0.019156698948456986,0.9817443315513456
2011-09-27,1,0.001654050630684717,0.0020005111733249962,-0.00922101730915886,0.019004119627673337,0.9814969338775243
2011-09-29,0,0.0,0.0,-0.007400104505145648,0.019004119627673337,0.9814570194633081
2011-10-03,1,0.0009669036283656617,0.0012140741957817102,-0.0079038773627047,0.019004119627673337,0.9830030088704075
2011-10-05,1,0.0013298161547386162,0.0016232147712741266,-0.010732335881836015,0.019004119627673337,0.9826752237372021
2011-10-07,0,0.0,0.0,-0.010732335881836015,0.021022158651680625,0.9807982198137876
2011-10-11,0,0.0,0.0,-0.010732335881836015,0.019004119627673337,0.9811320393731333
2011-10-13,1,0.0015855875587793052,0.0018389132977254291,-0.015023994739624477,0.019004119627673337,0.9801249952676191
2011-10-17,1,0.0017887388682223562,0.002067324378339016,-0.014384643838509506,0.021022158651680625,0.9798092672355534
2011-10-19,1,0.00255958169973326,0.0029585123554123514,-0.013663288205093407,0.021022158651680625,0.9800284811815463
2011-10-21,1,0.003417928563504349,0.003905962679469558,-0.014495231629252965,0.01709558049705773,0.9802120438461228
2011-10-25,1,0.003004562485758497,0.003411967661878386,-0.014495231629252965,0.011909580120614716,0.9805335304114933
2011-10-27,0,0.0,0.0,-0.016583073891646927,0.01015802687065997,0.981737241471406
2011-10-31,1,0.0030431064611739812,0.003421238096788291,-0.014495231629252965,0.011909580120614716,0.9810362192635564
2011-11-02,1,0.0025838268335766773,0.002869259671519502,-0.013663288205093407,0.011909580120614716,0.9819313533886178
2011-11-04,1,0.003249736035643997,0.003608038449105299,-0.013663288205093407,0.01015802687065997,0.9842482336294229
2011-11-08,1,0.0037848869446931634,0.00420637929071678,-0.013663288205093407,0.007383512769926704,0.984485141831321
2011-11-10,1,0.0030042448423166683,0.0033927082808394276,-0.013663288205093407,0.007383512769926704,0.9845595782291687
2011-11-14,1,0.0030705704971333587,0.003447876991878285,-0.015079253581033564,0.0056611972167689645,0.9845115554414449
2011-11-16,1,0.0029219053915278768,0.0032811388883860586,-0.015079253581033564,0.0056611972167689645,0.9852685813788822
2011-11-18,1,0.0024626914892381,0.002774549170271658,-0.015722219933389094,0.006960072834977924,0.9850890907604688
2011-11-22,0,0.0,0.0,-0.011597592790550039,0.010621096231403053,0.9843332059222096
2011-11-25,0,0.0,0.0,-0.00961828805595616,0.010621096231403053,0.9853159742114176
2011-11-29,0,0.0,0.0,-0.011597592790550039,0.006960072834977924,0.9862613530262492
2011-12-01,0,0.0,0.0,-0.010977995813053799,0.006744558413979317,0.9882232542101862
2011-12-05,0,0.0,0.0,-0.015722219933389094,0.007140127722716414,0.9869322026979324
2011-12-07,1,0.0034864073361162446,0.003873037593592577,-0.015722219933389094,0.007140127722716414,0.9867809139069804
2011-12-09,1,0.00417108077733956,0.0046869316821951165,-0.0118881792138389,0.006963905497160038,0.9891366756674729
2011-12-13,1,0.002655298489830312,0.002970670148071325,-0.008549430176399251,0.006963905497160038,0.9909747412934037
2011-12-15,0,0.0,0.0,-0.009715150197052448,0.006963905497160038,0.9895474852178738
2011-12-19,0,0.0,0.0,-0.008549430176399251,0.00750168402693152,0.9900857863439987
2011-12-21,0,0.0,0.0,-0.0031710227245585164,0.006963905497160038,0.9921041869614818
2011-12-23,0,0.0,0.0,-0.0031710227245585164,0.00802915643313094,0.9916887315250593
2011-12-28,0,0.0,0.0,-0.0017577006620219365,0.00802915643313094,0.9926698073667236
2011-12-30,0,0.0,0.0,-0.002683285843922471,0.00750168402693152,0.9931859529399862
2012-01-04,0,0.0,0.0,-0.002683285843922471,0.008214396303598326,0.9939733399201254
2012-01-06,0,0.0,0.0,-0.002683285843922471,0.009014727962196465,0.9929963741087082
2012-01-10,0,0.0,0.0,-0.0029091342313984476,0.009014727962196465,0.9932205616813176
2012-01-12,0,-2.9788899387542408e-05,0.00014904973108403484,-0.0036073921784439958,0.009014727962196465,0.9928465967861191
2012-01-17,1,0.0006210529173334304,0.0006473099877012481,-0.0029091342313984476,0.008978566951444064,0.9933082165361595
2012-01-19,1,0.0006332712909853799,0.0006553583243601368,-0.0036073921784439958,0.006298474808089923,0.993382922672757
2012-01-23,1,0.0007402014647716292,0.000782033616224518,-0.006778893976786372,0.006298474808089923,0.991876042065254
2012-01-25,1,0.0012192336496957793,0.0012413830834591137,-0.006778893976786372,0.004852816699492236,0.9917918553936846
2012-01-27,1,0.0004488009033869434,0.0005615989622365411,-0.006778893976786372,0.004852816699492236,0.9919119817127352
2012-01-31,1,0.0004558344231017058,0.0005470662777670653,-0.006778893976786372,0.004852816699492236,0.9920052011972605
2012-02-02,0,-0.0001971217643497986,1.7961285383132964e-05,-0.006903378495496097,0.004284566595422774,0.9925498261273359
2012-02-06,1,0.0007311851865215394,0.0007922924385682017,-0.00760768343161581,0.0025509582345382012,0.9930542317186397
2012-02-08,1,0.0006742426057635296,0.000725482389357789,-0.007372284179192808,0.004291082779471439,0.9924748828719477
2012-02-10,1,0.00023215909934066407,0.0003378658810802112,-0.00596382664088051,0.0045007430424356416,0.9931142586746833
2012-02-14,1,0.00014647025909386079,0.0002903938881390611,-0.006054070692102248,0.004242744960940646,0.9926170192149522
2012-02-16,-1,-0.00046308704397040527,-0.00022614975574417203,-0.006054070692102248,0.00416634202257058,0.9930008177862565
2012-02-21,-1,-0.001036458783285224,-0.0007637261968344342,-0.0057068795122406715,0.00416634202257058,0.9940571064462996
2012-02-23,-1,-0.0010087191988435145,-0.0007301085846417678,-0.005964547682464897,0.00416634202257058,0.9940253894194083
2012-02-27,-1,-0.002059728420655667,-0.0015954282956304583,-0.005964547682464897,0.004242744960940646,0.9930686649669542
2012-02-29,0,0.0,0.0,-0.005964547682464897,0.004242744960940646,0.9931284301694473
2012-03-02,0,0.0,0.0,-0.005872669005818532,0.004242744960940646,0.9930785669051359
2012-03-06,0,0.0,0.0,-0.0055965983682627445,0.005097815685073784,0.9931834803680855
2012-03-08,-1,-0.00040870565109161203,-0.00029473565484186185,-0.005872669005818532,0.003997740456485999,0.9936651810799337
2012-03-12,-1,-0.0003407461982444026,-0.00023196510354461894,-0.006692142717133235,0.0031784796241622723,0.9925126346665113
2012-03-14,-1,-0.0004584946550669106,-0.0003170775726989893,-0.006692142717133235,0.004309771285755848,0.9927738286683863
2012-03-16,-1,-0.00023637760802269403,-0.00016262566771010876,-0.006692142717133235,0.004309771285755848,0.9924810239910448
2012-03-20,-1,-0.00046366226018603916,-0.00035082295458435284,-0.006191184009533265,0.00603390817288333,0.9919216424794458
2012-03-22,1,0.00023319826933734157,0.00025858970210001494,-0.007358100252913207,0.00603390817288333,0.9915764451308741
2012-03-26,1,0.000179775624875645,0.00019434147978700692,-0.007726728210933349,0.0025353242659024965,0.9922596897771262
2012-03-28,-1,-7.663714962055911e-05,-1.6385818396490414e-05,-0.007726728210933349,0.007390358616405213,0.9909947901972667
2012-03-30,1,2.5649468481824065e-05,4.809768642013923e-05,-0.011083003892154279,0.007390358616405213,0.990616274841513
2012-04-03,1,0.0002626345876456432,0.0002863560885454125,-0.011204239605128835,0.006390219720707955,0.9902548522724715
2012-04-05,-1,-0.00011207269257045878,-6.802268212296668e-05,-0.01368234771977425,0.006390219720707955,0.9895035730004892
2012-04-10,-1,-0.000680442469538745,-0.0005784593812043557,-0.01171792524308808,0.009007196412938595,0.990015163723644
2012-04-12,-1,-0.00027612531830047734,-0.00021704493848246386,-0.01171792524308808,0.006090095179554755,0.9905868027733142
2012-04-16,-1,-0.0008334227141262066,-0.0006929215913899328,-0.008181660932609669,0.006090095179554755,0.9911174115598225
2012-04-18,-1,-0.0008275047984495874,-0.0006602859622653266,-0.008181660932609669,0.005277087971787779,0.991979782534116
2012-04-20,-1,-0.0014232312802803654,-0.0011563628776471435,-0.008181660932609669,0.005172835592165098,0.992293779664652
2012-04-24,-1,-0.0010590630039001754,-0.0008737993545446731,-0.008181660932609669,0.005277087971787779,0.9916196596887229
2012-04-26,-1,-9.244644966013591e-05,-4.756835240592741e-05,-0.008181660932609669,0.005172835592165098,0.9928961811624981
2012-04-30,-1,-0.00023488279098362065,-0.0001765196406861383,-0.005633854360904858,0.005180593763606942,0.993160670523869
2012-05-02,-1,-0.00035674364072617174,-0.0003024985352618598,-0.005633854360904858,0.0038088893790453595,0.9936416776264928
2012-05-04,-1,-0.0006293930706442231,-0.0005547439798007489,-0.004887453868283876,0.005240973490852115,0.9939038101188672
2012-05-08,-1,-0.0007705820535045298,-0.0006376575889696477,-0.004887453868283876,0.005240973490852115,0.9933990293431042
2012-05-10,-1,-0.0007040232594517614,-0.0005896179988123785,-0.004717629585847765,0.005590146486883479,0.9929510067553743
2012-05-14,-1,-0.0009169521768465948,-0.0007741321409697207,-0.0037841588826124117,0.005623733620141346,0.9927922460007634
2012-05-16,-1,-0.0004531828057907247,-0.00039474529868641247,-0.004717629585847765,0.005623733620141346,0.9925350224345381
2012-05-18,-1,-0.0007088618194993791,-0.0006340680167875991,-0.003742562183552274,0.005735807825815624,0.992711731264825
2012-05-22,-1,-0.0004529836480322405,-0.00038952027328568604,-0.003742562183552274,0.005623733620141346,0.9935541245277744
2012-05-24,-1,-0.0002694203120036865,-0.00022899938519389083,-0.004592839488667353,0.005553077106179959,0.9926342255233248
2012-05-29,0,0.0,0.0,-0.005052684641565926,0.005361912936344959,0.9927752440617403
2012-05-31,0,0.0,0.0,-0.003742562183552274,0.006209750368064147,0.9921020928443474
2012-06-04,0,0.0,0.0,-0.002859649234503521,0.010016378320667343,0.9912973974245592
2012-06-06,-1,-0.00025006276562074986,-0.00020112068268488516,-0.002859649234503521,0.008727177193826673,0.9919537556489334
2012-06-08,1,9.439507756357296e-05,0.0001054507172469838,-0.004322601436294133,0.008203333473593904,0.9920068680328261
2012-06-12,1,0.0003986456909785622,0.0004552120678218964,-0.004752538767058439,0.008203333473593904,0.9920677993734707
2012-06-14,1,0.00010088283729516316,0.00011772351238747289,-0.0030529956520841408,0.008727177193826673,0.9917843303052358
2012-06-18,1,0.00046386568513358083,0.0005540987207312249,-0.0046530376302761495,0.008203333473593904,0.9918843960796443
2012-06-20,1,0.00043224755180398084,0.000514313315786709,-0.0046530376302761495,0.008581222299940823,0.9913890834605916
2012-06-22,-1,-0.00022716842458072066,-0.00021396533218719766,-0.006043993223511974,0.008581222299940823,0.9917132179167529
2012-06-26,-1,-0.00026402398157571226,-0.00025081103424044607,-0.0046530376302761495,0.008581222299940823,0.9919841952097843
2012-06-28,1,0.0005990009616719281,0.0007259679631564571,-0.0046530376302761495,0.008581222299940823,0.9922183886602942
2012-07-02,1,0.0013640675789851698,0.0015839269143521845,-0.006394223033532816,0.005289655129087417,0.9930637048138268
2012-07-05,0,0.0,0.0,-0.008398807455428816,0.0017381161148622816,0.9932456815627525
2012-07-09,0,0.0,0.0,-0.006394223033532816,0.004050590471094101,0.9929913704850964
2012-07-11,0,0.0,0.0,-0.005282392691403972,0.008451532787472984,0.9925623391069568
2012-07-13,1,0.0010028922780614638,0.0011358489052463033,-0.005282392691403972,0.008451532787472984,0.9927050285859874
2012-07-17,1,0.0008301229572603114,0.0009511154396897455,-0.0036478252627810894,0.008451532787472984,0.9931687377932745
2012-07-19,1,0.000879091700835635,0.0009877970906783727,-0.0029633997708514875,0.008973338733557596,0.9922398844958092
2012-07-23,1,0.0005114454553925684,0.0005756131141284506,-0.002445084309613722,0.008973338733557596,0.9927027319383508
2012-07-25,0,0.0,0.0,-0.0029633997708514875,0.01106287830546834,0.9919414918667384
2012-07-27,0,0.0,0.0,-0.0035251033915867074,0.006306425945951035,0.9927955388894538
2012-07-31,1,0.000882046059508447,0.0009863092099404024,-0.002445084309613722,0.006306425945951035,0.993381226011622
2012-08-02,0,0.0,0.0,-0.0015353698520108846,0.006306425945951035,0.9935909139943057
2012-08-06,0,0.0,0.0,-0.0015353698520108846,0.0065462113986272715,0.9935615622814379
2012-08-08,0,0.0,0.0,-0.0029000163481164003,0.0065462113986272715,0.9934559332726194
2012-08-10,0,0.0,0.0,-0.003900562145769619,0.004132701401569907,0.9934848015809973
2012-08-14,0,0.0,0.0,-0.004348049548523465,0.004132701401569907,0.9933040524428656
2012-08-16,0,0.0,0.0,-0.004348049548523465,0.002867445387689102,0.9946469055586961
2012-08-20,1,0.0011491092313046208,0.0013201229483037428,-0.004348049548523465,0.002867445387689102,0.994645719344311
2012-08-22,1,0.002008743354173104,0.0022711972712951664,-0.003957921335380104,0.0022890525660949406,0.9952311380656402
2012-08-24,1,0.0018716837884735897,0.0021158569431092367,-0.0035223550507063844,0.002867445387689102,0.9953209285439998
2012-08-28,1,0.0017204481809226853,0.0019281311419144418,-0.00451024078267123,0.002867445387689102,0.9948632394390754
2012-08-30,1,0.0011260126655132892,0.0012101240524742744,-0.004322472366327925,0.0036587723262236278,0.9949983956381739
2012-09-04,1,0.0018537093233125554,0.0020589474856903636,-0.004322472366327925,0.002867445387689102,0.9956937168283261
2012-09-06,1,0.0018557690396015273,0.0020334539612372323,-0.004322472366327925,0.0035731277116144884,0.9962843263772145
2012-09-10,1,0.00166463536962917,0.0018399260778586117,-0.002232974798217702,0.003994988634795122,0.9966914395500633
2012-09-12,1,0.0015655479947523788,0.0017107941950614486,-0.002413133652428173,0.003994988634795122,0.9963065619871061
2012-09-14,1,0.001547021885038144,0.0016745111281012866,-0.0037389239307034994,0.003994988634795122,0.9959012831211108
2012-09-18,1,0.0017720898932920741,0.0019731154593783566,-0.0034486255688302714,0.005425631763353316,0.9952111269437823
2012-09-20,0,0.0,0.0,-0.0037389239307034994,0.005425631763353316,0.9945724132411963
2012-09-24,1,0.001423581013029628,0.0015536255636848205,-0.0040249477473812125,0.005425631763353316,0.994410884376972
2012-09-26,0,0.0,0.0,-0.0037389239307034994,0.005425631763353316,0.9943686983057304
2012-09-28,0,0.0,0.0,-0.0037389239307034994,0.00423443551005488,0.994819689974027
2012-10-02,1,0.001340562631235265,0.001423236787726128,-0.0037389239307034994,0.00423443551005488,0.9929253374439742
2012-10-04,1,0.0014663025042485904,0.0015464102616536853,-0.00612455180191896,0.002289805211375,0.99193622584354
2012-10-08,1,0.001393004309557406,0.0014624631618605183,-0.00760489605549034,0.002289805211375,0.9907043108933165
2012-10-10,1,0.0004516327888620459,0.0005297212552060882,-0.00612455180191896,0.003621088063479368,0.9912780410587805
2012-10-12,1,0.000374660578114984,0.0004386491345637031,-0.00760489605549034,0.003621088063479368,0.9906655661779377
2012-10-16,0,0.0,0.0,-0.00864136778678504,0.0023100912796049466,0.990942740826963
2012-10-18,0,0.0,0.0,-0.00864136778678504,0.003621088063479368,0.99044367999665
2012-10-22,1,0.0005149561568874512,0.0005991910361588484,-0.00864136778678504,0.003621088063479368,0.9908167025212081
2012-10-24,0,0.0,0.0,-0.006670837747449443,0.003621088063479368,0.9910177578345711
2012-10-26,0,0.0,0.0,-0.006670837747449443,0.003621088063479368,0.991071074060973
2012-11-01,1,0.0018997400240436768,0.0020473422595411843,-0.006670837747449443,0.003621088063479368,0.9928849948561522
2012-11-05,1,0.000692017080332022,0.0007022137536223718,-0.0021315420090160858,0.003621088063479368,0.9937259794523347
2012-11-07,1,0.0003630247264916239,0.0004366897446129842,-0.0018738959752273225,0.002921915143549926,0.9952370345064858
2012-11-09,1,0.0007110024799871006,0.0007387424231057342,-0.0018738959752273225,0.002844076656929574,0.995484095406951
2012-11-13,-1,-0.00019061397565847031,-5.142557292217424e-05,-0.0008415565960862351,0.0029170929318142382,0.9958537903344836
2012-11-15,0,0.0,0.0,-0.0018738959752273225,0.0029170929318142382,0.9961806564680488
2012-11-19,0,0.0,0.0,-0.0018738959752273225,0.0029170929318142382,0.9956555866676783
2012-11-21,0,0.0,0.0,-0.0018738959752273225,0.0029170929318142382,0.995647554278211
2012-11-26,-1,-1.6765996145872983e-05,-1.8716403267838815e-06,-0.0023142482938546113,0.0035345503591089032,0.9953228771550303
2012-11-28,-1,-4.136762393535569e-05,-2.5782608373764938e-05,-0.0034003922019052567,0.0052983665913708365,0.9941474241310857
2012-11-30,-1,-7.582068907844813e-05,-4.384697944562767e-05,-0.003751996184635753,0.0035345503591089032,0.9944497159459358
2012-12-04,-1,-9.535055426346329e-05,-5.23868988855485e-05,-0.003751996184635753,0.0052983665913708365,0.9926650580399768
2012-12-06,1,7.434297694579165e-05,8.4567339134286e-05,-0.003751996184635753,0.0052983665913708365,0.9926619249881239
2012-12-10,1,6.843926688980572e-05,0.00018157744760909642,-0.004411560832981968,0.006718747772312095,0.9922216482908348
2012-12-12,1,5.1888905321789366e-05,0.00016318958419937627,-0.0038235473956594003,0.006718747772312095,0.99239876798445
2012-12-14,-1,-0.0009399371335746297,-0.0006799791902180256,-0.002726370906377956,0.006718747772312095,0.9925192476550249
2012-12-18,1,5.060156662677501e-05,0.0001960503429448022,-0.002726370906377956,0.0029804632337741485,0.9941437948018205
2012-12-20,1,0.000467944667556628,0.0005326040465207607,-0.002726370906377956,0.0054794398424421326,0.9935266884862558
2012-12-24,1,5.016434427381562e-05,0.0001942026221317658,-0.002726370906377956,0.005100793898591243,0.9938160608405805
2012-12-27,-1,-0.0007552674738008371,-0.0004941107558035072,-0.002726370906377956,0.002923923242380366,0.9947296469318678
2012-12-31,-1,-0.0005540396570999909,-0.00034419743690161436,-0.002726370906377956,0.002923923242380366,0.9947942238549831
2013-01-03,0,0.0,0.0,-0.002726370906377956,0.00363189675848913,0.9963437725675249
2013-01-07,0,0.0,0.0,-0.002726370906377956,0.005100793898591243,0.9959425441667813
2013-01-09,0,0.0,0.0,-0.002489127592654996,0.005100793898591243,0.9943521165716536
2013-01-11,0,0.0,0.0,-0.0027818419450717836,0.005100793898591243,0.9940536026421668
2013-01-15,0,0.0,0.0,-0.0025037265011871703,0.00363189675848913,0.99431337503226
2013-01-17,0,0.0,0.0,-0.002508083349718854,0.00363189675848913,0.9942058142648765
2013-01-22,1,0.002031812402073451,0.0021970047982745886,-0.003426551928338934,0.002515658264097568,0.9936685263443862
2013-01-24,1,0.0017245606211197212,0.0018463228696047663,-0.002673729632428012,0.0032772677024280497,0.9938663945641886
2013-01-28,1,0.0013438939539119528,0.001389820535502214,-0.002673729632428012,0.004325017288983378,0.9934280466442936
2013-01-30,1,0.001525762868154386,0.0016426607864083345,-0.0027461300362438524,0.00603845571636025,0.9933417283208449
2013-02-01,1,0.0019271063393442355,0.0021187211268286796,-0.0027461300362438524,0.0062356006471336635,0.9932160988247097
2013-02-05,1,0.0019185542358141536,0.0020729080791462326,-0.0027461300362438524,0.0062356006471336635,0.9931547901233327
2013-02-07,1,0.0032783297965195825,0.00359759917729255,-0.003510282635812883,0.005511950187519138,0.9947926778860905
2013-02-11,1,0.0028270840223675576,0.003093578000492165,-0.0027461300362438524,0.005511950187519138,0.9952480893702518
2013-02-13,0,0.0,0.0,-0.0027461300362438524,0.005511950187519138,0.9952442584655908
2013-02-15,0,0.0,0.0,-0.0034532437768806396,0.0062356006471336635,0.9948134625360138
2013-02-20,0,0.0,0.0,-0.0027461300362438524,0.0062356006471336635,0.9947285119995617
2013-02-22,0,0.0,0.0,-0.0034532437768806396,0.00725694460398928,0.9940801171737677
2013-02-26,1,0.002226172208691045,0.002396132000097465,-0.0034532437768806396,0.007335824083186342,0.994630472688077
2013-02-28,1,0.0022750773674911156,0.002459483433513067,-0.0017251821461695051,0.00818818488243675,0.9945777430531297
2013-03-04,1,0.002744759668101919,0.0030091412621977894,-0.003612591023645785,0.00818818488243675,0.9943340019005611
2013-03-06,1,0.0032103169278971766,0.0035326988124176127,-0.004106813669131941,0.006064765858052489,0.9936535245115253
2013-03-08,1,0.002833573397944023,0.0030752453050763135,-0.005286067253104996,0.006097307691383791,0.9932328304355343
2013-03-12,1,0.0023702595513579766,0.0025265740192329782,-0.005286067253104996,0.00818818488243675,0.992457416290443
2013-03-14,0,0.0,0.0,-0.0064386305281869055,0.00818818488243675,0.9918461098919195
2013-03-18,0,0.0,0.0,-0.008625833445213041,0.0083890709132058,0.9905531340111774
2013-03-20,0,0.0,0.0,-0.010647020829029893,0.0079865092309851,0.9904527586687992
2013-03-22,0,0.0,0.0,-0.008625833445213041,0.006035090952876357,0.9910880542494371
2013-03-26,0,0.0,0.0,-0.008625833445213041,0.006035090952876357,0.9909784298755168
2013-03-28,0,0.0,0.0,-0.008625833445213041,0.00556038052496434,0.9909688165768231
2013-04-02,0,0.0,0.0,-0.006482301569044491,0.006500161208741618,0.9897290898957235
2013-04-04,1,0.0014156505085410292,0.00143468097808855,-0.006482301569044491,0.00693700748949066,0.9894412978612648
2013-04-08,1,0.0011233787213408564,0.001133079380393654,-0.0049473947390217135,0.00795408312960154,0.9897200451627691
2013-04-10,1,0.0012056253463397534,0.0012536939902111873,-0.0049473947390217135,0.00795408312960154,0.9898177383512663
2013-04-12,1,0.0004741116166431271,0.0006472959469798133,-0.0049473947390217135,0.006966798126614535,0.9901797494151634
2013-04-16,1,0.00023787427206578104,0.0004064078392478547,-0.004066904603900126,0.006966798126614535,0.9910970199638708
2013-04-18,-1,-0.0005892082349124069,-0.00032129604466686157,-0.00282471311233553,0.006966798126614535,0.991036860908681
2013-04-22,-1,-0.00043927601404086705,-0.0001919870746240447,-0.004066904603900126,0.00830724384340174,0.9906628989079168
2013-04-24,0,-4.589151285360306e-05,0.0001600885377675736,-0.005182973994221542,0.006966798126614535,0.9906960008175894
2013-04-26,0,-0.00012662933296472161,7.991796634595799e-05,-0.005375560687810231,0.006966798126614535,0.9908028584897923
2013-04-30,1,0.0011808272242836014,0.0012400544152617753,-0.0061410351409168645,0.006966798126614535,0.9915347234138634
2013-05-02,0,0.0,0.0,-0.005375560687810231,0.008237840051437923,0.9924029458626386
2013-05-06,0,0.0,0.0,-0.0061410351409168645,0.006164285881848157,0.9924273658561749
2013-05-08,1,0.001418116123563325,0.001447437778669039,-0.006754405605566838,0.004382973876698048,0.9924612607447832
2013-05-10,1,0.0007428953352846101,0.0008953308054664489,-0.006754405605566838,0.007622219239740614,0.9919109000851778
2013-05-14,1,0.001673201860446926,0.0016857966544588585,-0.006754405605566838,0.0066030858310090305,0.9921413323320487
2013-05-16,1,0.0009188999818575839,0.0009994407042516376,-0.006047382876914503,0.007622219239740614,0.992282447477457
2013-05-20,1,0.0008329977027724174,0.0009263164790940515,-0.005596813352336015,0.007622219239740614,0.9922901900676764
2013-05-22,-1,-0.0003818212780297656,-0.00011439329025087321,-0.0065111773334064925,0.007622219239740614,0.9921208089684048
2013-05-24,-1,-0.0007328367791361666,-0.00041654095796866736,-0.00834861542723161,0.00779389788224177,0.9916711202695105
2013-05-29,1,6.17432281020255e-05,0.00020873844614001364,-0.0065111773334064925,0.007279853506210472,0.992300430603185
2013-05-31,0,0.0,0.0,-0.008658247601367615,0.007279853506210472,0.991470728241933
2013-06-04,-1,-0.0002307664505963019,-5.978030584976858e-05,-0.008814593792322415,0.008536024760433804,0.9910602081646687
2013-06-06,-1,-0.0006945905330831898,-0.00045552366054195457,-0.006193799296533052,0.012202491158734913,0.9909908483165976
2013-06-10,0,0.0,0.0,-0.006193799296533052,0.012069943096088304,0.9913305911856769
2013-06-12,0,0.0,0.0,-0.006193799296533052,0.012069943096088304,0.9908828387009357
2013-06-14,0,0.0,0.0,-0.005879598857311496,0.009247311664213265,0.9915844812223477
2013-06-18,0,0.0,0.0,-0.008301936557297267,0.007890265811048786,0.9919273198543872
2013-06-20,-1,-0.0011521180577327467,-0.0006069940745711308,-0.005118099936263337,0.007890265811048786,0.9928018550354015
2013-06-24,-1,-0.0008632793729360027,-0.0005846397511366128,-0.004819639626214657,0.007890265811048786,0.9933351786566634
2013-06-26,-1,-0.0007165003638087748,-0.0004664850613801732,-0.005118099936263337,0.007890265811048786,0.9930179839203906
2013-06-28,-1,-0.0004832748310774061,-0.000272984834271511,-0.004819639626214657,0.005225749831887945,0.9938085371498306
2013-07-02,1,0.0007289125037815122,0.0007482392456401975,-0.0045720385099319045,0.004701906502981161,0.9946085457895019
2013-07-05,1,0.0008019918486881962,0.0008064369005699948,-0.00441014176626707,0.004701906502981161,0.9944223488789501
2013-07-09,1,0.0011773968317462988,0.0012220939523454161,-0.00441014176626707,0.004555988859825581,0.9946979443814128
2013-07-11,1,0.0015709217926960354,0.0016626351908850916,-0.00441014176626707,0.0032133457135039563,0.9949793354457538
2013-07-15,1,0.0014400962383519498,0.0015160328381578002,-0.0045720385099319045,0.004555988859825581,0.9941853500835538
2013-07-17,1,0.0010310204329398854,0.0010459126280765458,-0.00441014176626707,0.005187256607276425,0.9939001212832969
2013-07-19,1,0.0004425298075333557,0.0004936427075215451,-0.0044644237648048726,0.005187256607276425,0.9931807789066291
2013-07-23,1,0.00021862822111219882,0.0002948927932032504,-0.003952873835068825,0.005187256607276425,0.9931540958763566
2013-07-25,1,0.0001565862724211761,0.0002227151592992492,-0.003952873835068825,0.005825503933739018,0.9926860479194485
2013-07-29,1,0.0003919247032877005,0.0004072072488543985,-0.003627903688432153,0.005825503933739018,0.9929900604883392
2013-07-31,1,0.0005447171144998333,0.0005483984370402105,-0.004042316673360025,0.005845727011132269,0.9920672203805709
2013-08-02,1,0.0012065415692358865,0.0012870613506658361,-0.0049464848637521906,0.005845727011132269,0.9927448532131027
2013-08-06,1,0.0011811279058691394,0.0012582795475151493,-0.0049464848637521906,0.006777282656057002,0.9924736996393245
2013-08-08,1,0.0014526328430324992,0.0015656406810870458,-0.0049464848637521906,0.008061046461321032,0.9923101067122535
2013-08-12,1,0.0019496766246560155,0.0021533344585608688,-0.004038936099922861,0.007408892815355106,0.9929876618874538
2013-08-14,1,0.002400251185575998,0.0026539063065228238,-0.005093069309570817,0.006059543783833483,0.9931808283671671
2013-08-16,1,0.0016374030115878795,0.0017911790007730623,-0.0036267768306197648,0.006216959497833755,0.9942304733472656
2013-08-20,1,0.0016181496603591941,0.0017840010975910241,-0.0039642864287525925,0.007408892815355106,0.9938793334987934
2013-08-22,1,0.0014599387951271458,0.0015877378313922995,-0.0016955096560150287,0.006216959497833755,0.9946449589092405
2013-08-26,1,0.0010520429147408113,0.0010875885112665833,-0.0039642864287525925,0.006216959497833755,0.9941930182776748
2013-08-28,1,0.00034680330609692593,0.00041593197377755406,-0.0039642864287525925,0.007408892815355106,0.9945183285260978
2013-08-30,1,0.0006351319479037354,0.0006443443736531333,-0.0038720037650638774,0.006216959497833755,0.9947973801661281
2013-09-04,1,0.0007072510431347136,0.0007153234286791353,-0.003033205417915388,0.006216959497833755,0.9949866375259157
2013-09-06,1,0.0007644350441399234,0.0007968092638217375,-0.003033205417915388,0.006216959497833755,0.9949210541261125
2013-09-10,1,0.0006777171590772043,0.0007528891871517153,-0.0045453653514527705,0.004527769764151014,0.9942476285696067
2013-09-12,1,0.0003615274738204316,0.0004669191666811577,-0.004157305603931254,0.006335417029892217,0.9926412288820882
2013-09-16,1,0.0006881284347518622,0.0007361998383260526,-0.004157305603931254,0.007897038012779524,0.9923270375717086
2013-09-18,1,0.0006890495259398215,0.0007400186271884483,-0.004268517360386624,0.00792347951470274,0.9914783344405829
2013-09-20,1,0.001198080706464172,0.001267291009788038,-0.004268517360386624,0.008632928551595889,0.9909884788079023
2013-09-24,1,0.0005042634213948497,0.000547135430996716,-0.0036576219504719813,0.008632928551595889,0.991035545921971
2013-09-26,1,0.0009195912902250859,0.0009475707154818742,-0.0036576219504719813,0.008632928551595889,0.9912662427608638
2013-09-30,1,0.001211808817932782,0.0013243018362748078,-0.0034643507290170092,0.008632928551595889,0.991526716425992
2013-10-02,1,0.0012008507892935808,0.0013023081381617072,-0.004052772945298786,0.008632928551595889,0.9913102756168
2013-10-04,1,0.0015214364264218507,0.001682812214739765,-0.004052772945298786,0.0072173444879257065,0.9916484494854819
2013-10-08,1,0.0005247945740451826,0.0005307933669715659,-0.0034643507290170092,0.0072173444879257065,0.9919629532040146
2013-10-10,1,0.0013797531743029365,0.0015021499099628311,-0.003995302053767332,0.0072173444879257065,0.9929303463815724
2013-10-14,1,0.0013634427917964145,0.0014532563830582425,-0.003995302053767332,0.007385247376784321,0.9927704258535817
2013-10-16,1,0.0012723407754832892,0.0013416479199996848,-0.002646700382269363,0.006243339478019989,0.9939015645497578
2013-10-18,1,0.001574194911979312,0.0016744680085325535,-0.002646700382269363,0.006243339478019989,0.9942303444319609
2013-10-22,1,0.0018443716736826318,0.00199038629451947,-0.002646700382269363,0.0055400802970016795,0.9944209493397345
2013-10-24,1,0.001584403983483617,0.0016689846886356473,-0.002239555680788186,0.0052993543740072774,0.9949708859401996
2013-10-28,1,0.001259754907443627,0.0012903277625012281,-0.0019992856671725537,0.0052993543740072774,0.9948424801269087
2013-10-30,1,0.0013512283683915671,0.001430303022816804,-0.0019992856671725537,0.0055400802970016795,0.9951271614746195
2013-11-01,1,0.0010269095303162786,0.0010469588918677513,-0.001932107924772877,0.0055400802970016795,0.9951468720425611
2013-11-05,1,0.0009043542602859849,0.0009166421803760056,-0.0015387376619492934,0.0043058291544310935,0.9958112530221376
2013-11-07,1,0.0012821711458164396,0.0013672706850685976,-0.001407362840378783,0.0043058291544310935,0.9965963999272559
2013-11-11,1,0.0012386980384955844,0.001279145564333666,-0.0015387376619492934,0.003365572134724167,0.9967359901772824
2013-11-13,1,0.0013507829109037565,0.0013895332207234747,-0.001932107924772877,0.002162055947844471,0.9963360756659125
2013-11-15,1,0.0014868998013089468,0.0015398839278867374,-0.001932107924772877,0.002376190391911584,0.9954469451480868
2013-11-19,1,0.0014643081720389702,0.0015108979801145344,-0.001932107924772877,0.00409596355726048,0.9951228202514872
2013-11-21,1,0.0015022695405197874,0.0015628260624090957,-0.0028687832927431693,0.0033020181787323188,0.994721730389448
2013-11-25,1,0.0014097402666569305,0.0014710317550402112,-0.0028687832927431693,0.006995839871257365,0.9947387524500181
2013-11-27,1,0.0015818063908418607,0.001689529605969529,-0.00315484791250005,0.0034244111322670003,0.9948136903239286
2013-12-02,1,0.0016172326658648803,0.001751446284515691,-0.0018236955587203321,0.005937012926575605,0.9947295295346008
2013-12-04,1,0.0014560102778654722,0.0015617119284676512,-0.00315484791250005,0.007906146666965246,0.9933453179965187
2013-12-06,1,0.0016178619660218595,0.0017223198556191237,-0.00315484791250005,0.005937012926575605,0.9936322167973867
2013-12-10,1,0.0011727598288114767,0.0011959366819699758,-0.0017855815103590548,0.007906146666965246,0.9936303527531809
2013-12-12,1,0.000611894622498374,0.0006682544924775434,-0.0017855815103590548,0.007906146666965246,0.9931929240834432
2013-12-16,1,0.0011405714541479314,0.0011500342825516575,-0.0017855815103590548,0.005937012926575605,0.9938526741142496
2013-12-18,1,0.0012894676323983731,0.0012921543207311753,-0.00315484791250005,0.005184795214540156,0.993533889954446
2013-12-20,1,0.0009734661757631706,0.0010018617308545437,-0.001439988071137272,0.007238263651687279,0.9933344819486846
2013-12-24,1,0.0014498932371264674,0.0015156104463250465,-0.002870790214356057,0.005895427899850894,0.9919400757099313
2013-12-27,1,0.0013162210318026129,0.0013508892955956466,-0.004900285530018085,0.007949407153813762,0.9900858338656363
2013-12-31,1,0.0015329032184002581,0.001612352624664088,-0.012788686002852616,0.010232581202816692,0.9887374243184499
2014-01-03,1,0.0013051809188230077,0.0013778344793575381,-0.016319809122189145,0.007949407153813762,0.9875789882254485
2014-01-07,1,0.001737724667298383,0.0018842941453704948,-0.016319809122189145,0.010232581202816692,0.9867865126553927
2014-01-09,1,0.0015540889913884034,0.0016299680264974079,-0.016319809122189145,0.010306622034926542,0.9860382739076364
2014-01-13,1,0.0007417762093559231,0.0007790551645726914,-0.012694661206294512,0.010306622034926542,0.9867573756417107
2014-01-15,1,0.0009624798953443818,0.0009762715566020413,-0.012694661206294512,0.009601004210541192,0.9867431657713049
2014-01-17,1,0.00041206169818814594,0.0004933638459771949,-0.006077326569796928,0.009601004210541192,0.9871511778573656
2014-01-22,1,0.0005458892701833996,0.0006377183668961852,-0.006077326569796928,0.008398070075300728,0.9878411971258606
2014-01-24,-1,-0.0006083364090415497,-0.0003798041453225233,-0.0003727673200880352,0.008398070075300728,0.9886969528586111
2014-01-28,-1,-0.001070830350028027,-0.0007958296225308379,-0.0005030034723724361,0.007945507493254341,0.9905516945588217
2014-01-30,-1,-0.0008747221133738586,-0.00063985682570734,-0.0005030034723724361,0.006982443814490298,0.9914335448151991
2014-02-03,-1,-0.002393327496919349,-0.001998872729214149,0.00013023615228440085,0.007945507493254341,0.9921763687660907
2014-02-05,-1,-0.0020460281923255106,-0.0016814442306343107,-0.000725248179914117,0.006982443814490298,0.9930425296163636
2014-02-07,-1,-0.0011237893796490687,-0.0008709865206707998,-0.0024173332522990252,0.005600962907092209,0.9946179944261492
2014-02-11,-1,-0.0007572505353728555,-0.000548943842408671,-0.0035993934901739975,0.004472923297669983,0.9947527753909071
2014-02-13,-1,-0.000494436505440693,-0.0003109909599875937,-0.005729173593650853,0.004041186717276939,0.9944934251346786
2014-02-18,-1,-0.0005991014882321933,-0.00038621134418860786,-0.005729173593650853,0.004227026114544024,0.9941709936917464
2014-02-20,-1,-0.0004578712435355844,-0.00026866825982694046,-0.006482033011616229,0.004227026114544024,0.9937627063414904
2014-02-24,-1,-0.0003403309171149655,-0.00016080722947278518,-0.008786602187235464,0.004155843721822107,0.9935025822367024
2014-02-26,-1,-0.00046474837410888034,-0.0002754346676467805,-0.010326301639706176,0.004155843721822107,0.9927813781208557
2014-02-28,-1,-0.0006056582806933518,-0.00040653783731034866,-0.008786602187235464,0.004155843721822107,0.9933974428678617
2014-03-04,-1,-0.0011162178115543958,-0.0008149175780594672,-0.00683922406065774,0.004706565060235232,0.992973043778052
2014-03-06,-1,-0.0009385931118009174,-0.0007097148947961078,-0.008430613729741491,0.004706565060235232,0.9929093229884502
2014-03-10,-1,-0.0006732583879611977,-0.0004906885504742813,-0.012445604292896886,0.004155843721822107,0.9918977443943746
2014-03-12,-1,-0.0009712430393982661,-0.0007501208971779962,-0.012445604292896886,0.005739293092098894,0.9915159571099896
2014-03-14,-1,-0.0014093518513423786,-0.001156527536508922,-0.013272080290810624,0.005739293092098894,0.9903634821436645
2014-03-18,-1,-0.0008079407559437762,-0.0006406263282814359,-0.013272080290810624,0.005918280800430567,0.9900799511351945
2014-03-20,-1,-0.0012669976955835716,-0.0010499824114618957,-0.012592028160689224,0.009089850570231905,0.9896873561314729
2014-03-24,-1,-0.0017508880449635202,-0.001471941046874072,-0.009393907869698402,0.009089850570231905,0.9902356015294478
2014-03-26,-1,-0.0025135096234326234,-0.00213836994436308,-0.004581989857579585,0.009089850570231905,0.990644556850549
2014-03-28,-1,-0.0024440877632766946,-0.0020682378473514977,-0.008157848627824224,0.009089850570231905,0.9905092004583526
2014-04-01,-1,-0.0016466905364679132,-0.0013500986713365437,-0.008157848627824224,0.005400049193302465,0.991301772002878
2014-04-03,-1,-0.0016818939324698473,-0.0013977877739791607,-0.004785078623868485,0.009089850570231905,0.9906101296780174
2014-04-07,-1,-0.002483805788018232,-0.0021362309619238867,-0.0023756955323563055,0.010801626222990118,0.9908095956261235
2014-04-09,-1,-0.0014939719482941136,-0.0012795047670971778,-0.0023756955323563055,0.007820723106827104,0.991817592678395
2014-04-11,-1,-0.002946043634308353,-0.0025806380325246797,-0.0017767357235460434,0.011501018810194972,0.9921371044644537
2014-04-15,-1,-0.0021731767115908424,-0.0019008149886207506,-0.002422024556581144,0.007820723106827104,0.9929256907961198
2014-04-17,-1,-0.0013329946495242674,-0.0011669415763984712,-0.003038344237625389,0.005040264268089787,0.9934060343423922
2014-04-22,-1,-0.0015707668720004982,-0.001370679851012716,-0.003966217741476393,0.007820723106827104,0.9924059072862447
2014-04-24,-1,-0.0015795270213038938,-0.0013872601938549074,-0.0030703054257861804,0.007920795151074432,0.9918238725911449
2014-04-28,-1,-0.0017535242949641193,-0.0015383902723699844,-0.0022168544111158847,0.007920795151074432,0.9920096819688535
2014-04-30,-1,-0.0010312924966139588,-0.00090249050470807,-0.0008246902958093952,0.006935202636137791,0.9926207253559004
2014-05-02,1,9.61634881888402e-05,0.00013243592515924088,-0.0030703054257861804,0.005760201071955978,0.993621252867962
2014-05-06,1,0.0003654263845417966,0.000417617542180501,-0.005533354105473212,0.005005630230812349,0.993834959424342
2014-05-08,1,0.00022429893953424205,0.00023508310096645598,-0.005533354105473212,0.005717319502239186,0.9936143661256972
2014-05-12,1,0.0012914674346171358,0.0015014163031067513,-0.005533354105473212,0.005717319502239186,0.9942889447581158
2014-05-14,1,0.0007081751321254932,0.0008677828432158935,-0.002428479790169479,0.005717319502239186,0.9947653811147592
2014-05-16,1,0.00046527599686367545,0.0005715579009794684,-0.0014371872518958641,0.006283311431103257,0.9950025996345833
2014-05-20,1,0.0006584690078378593,0.000807322888164728,-0.0005968541811536081,0.006283311431103257,0.995714434945544
2014-05-22,1,0.001045491890844733,0.0012355114093292674,-0.002236796168024591,0.005566897435233701,0.9957912536756557
2014-05-27,1,0.0013928124942657171,0.0016525183271795365,-0.003913452553971563,0.006283311431103257,0.9952232437882784
2014-05-29,1,0.0017038353028642095,0.002008940380719692,-0.004137960322513895,0.004507867136409916,0.9952457990795073
2014-06-02,1,0.0016564126540459826,0.0019512830813112512,-0.003913452553971563,0.006283311431103257,0.9951925541219877
2014-06-04,1,0.001599532409834149,0.0019075289445524655,-0.003592735973848129,0.007211943061094882,0.9950583329016243
2014-06-06,1,0.001557573325028594,0.0018144326396781606,-0.003592735973848129,0.007807664841518337,0.9949721874300478
2014-06-10,1,0.0021305691472939658,0.002486891674949988,-0.003913452553971563,0.0064818853579110755,0.994643321779718
2014-06-12,1,0.0015913401732065512,0.001848056471139294,-0.003913452553971563,0.0075895630541949494,0.9945986820691737
2014-06-16,1,0.002099872505676481,0.0024643599686855703,-0.004137960322513895,0.0075895630541949494,0.9944815773010938
2014-06-18,1,0.0018189070957377622,0.0020745826473970363,-0.004137960322513895,0.0035350058800034958,0.99467663893609
2014-06-20,1,0.001195550280240224,0.0013433235021223775,-0.004470895111359586,0.0075895630541949494,0.994456676528951
2014-06-24,1,0.0012106523724231388,0.0013634011399735306,-0.0037253155140596758,0.007284232149920267,0.9949574057660268
2014-06-26,0,-8.187579488739313e-05,4.2406773574649365e-05,-0.0037984040247669047,0.007284232149920267,0.9949569619887454
2014-06-30,1,0.0006769184137909454,0.0006778752894957112,-0.0050585122842462145,0.0036715889731390445,0.9947500899181771
2014-07-02,1,0.001313235596168546,0.0014541267079810755,-0.006203904834557759,0.0036715889731390445,0.9935346307930569
2014-07-07,1,0.00176094522131044,0.001985202025120036,-0.006203904834557759,0.0036715889731390445,0.9932679150835328
2014-07-09,1,0.0015220249860196046,0.0017348046759874142,-0.006713187207432389,0.0036715889731390445,0.9931981596195685
2014-07-11,1,0.0017071584224557811,0.001954492895161846,-0.006757447061431306,0.0036715889731390445,0.9923164527003261
2014-07-15,1,0.0014861286665873437,0.0017086054204872633,-0.006757447061431306,0.0036715889731390445,0.992527676216951
2014-07-17,1,0.0013688591529675432,0.0015903697981543776,-0.008363761262407902,0.0036715889731390445,0.9919980292350493
2014-07-21,1,0.0015117704365755513,0.0017409257933912593,-0.008363761262407902,0.0036715889731390445,0.9917019952273634
2014-07-23,1,0.0016946781232728785,0.0019391998880019436,-0.008363761262407902,0.0025680240295807627,0.991679845354057
2014-07-25,1,0.0015370115647317948,0.001768336707594765,-0.007815478618779643,0.0031813085176075487,0.9917964384502765
2014-07-29,1,0.0008688787021722505,0.0009814059351242546,-0.0066222284950716885,0.0055851825762559155,0.9921401786998834
2014-07-31,1,0.0005285986782062998,0.000605494581795164,-0.004169666031792582,0.0031813085176075487,0.9936022533599266
2014-08-04,1,0.0008970400227677629,0.0010120127367871886,-0.004169666031792582,0.0031813085176075487,0.9937623705186679
2014-08-06,1,6.4673574897279015e-06,4.0850460885172776e-05,-0.002426362510053267,0.0031813085176075487,0.9943852341289008
2014-08-08,1,0.00014243259700468815,0.0001438245223445654,-0.0016863490193162124,0.002644840879354511,0.9958867704304548
2014-08-12,-1,-0.00038874476284556987,-0.00030341105469810934,-0.0016415203093702042,0.0031813085176075487,0.9956420294579625
2014-08-14,-1,-0.0011712096235062378,-0.0009751209388410478,-0.002022841175588701,0.0031813085176075487,0.9960445257010829
2014-08-18,-1,-0.00114817260627726,-0.0009197108537596292,-0.002022841175588701,0.0031813085176075487,0.996712257005429
2014-08-20,-1,-0.0012655906017160832,-0.001033220416488349,-0.002022841175588701,0.004216639868518193,0.9965806090229551
2014-08-22,-1,-0.0006748558256137141,-0.000565090666997648,-0.0028807273146558596,0.002989951329658059,0.9960807764855666
2014-08-26,-1,-0.0003636836747586084,-0.00027512070743933,-0.004359670219445218,0.0019514611426934678,0.9956414207721902
2014-08-28,-1,-0.001266462238192493,-0.0010160889002344877,-0.004561417310192663,0.0019514611426934678,0.9947613601496287
2014-09-02,-1,-0.0005796941885568168,-0.00044642431950534835,-0.005315395775473986,0.0014477518299588243,0.9942313477332383
2014-09-04,-1,-0.0016790545493337698,-0.0013437777204019486,-0.005315395775473986,0.004299545475818161,0.9940095552278406
2014-09-08,-1,-0.0012327309634254011,-0.0009868590789367101,-0.005315395775473986,0.004962466759278958,0.9934480455300627
2014-09-10,-1,-0.0007853173579015575,-0.0006104070305943449,-0.006743540512251587,0.004962466759278958,0.9924704433182098
2014-09-12,-1,-0.0012931606737294759,-0.0010456648389506461,-0.009351247644494952,0.004962466759278958,0.990599261108355
2014-09-16,-1,-0.0014489608298590012,-0.0011736267273397688,-0.012962092003328601,0.004570431673097749,0.9904771411550848
2014-09-18,-1,-0.001642128414737313,-0.0013392267638516666,-0.012962092003328601,0.006394860468797921,0.9893961349560559
2014-09-22,-1,-0.00233931891670527,-0.0019692318562345903,-0.009351247644494952,0.006758786350376699,0.9896607514305362
2014-09-24,-1,-0.001653654742306266,-0.0014000048508258393,-0.008207883072621809,0.006758786350376699,0.9890233407357624
2014-09-26,-1,-0.002332707831736513,-0.002022845274161836,-0.0050638893543660845,0.008823068335915014,0.9888749158967427
2014-09-30,-1,-0.0021313393293631894,-0.0018526847941748004,-0.0029915407746739253,0.009269961302526237,0.9883957900806037
2014-10-02,-1,-0.0016061995067662305,-0.0014191450277611598,-0.0024056072032000004,0.010109264414904343,0.9884550911744354
2014-10-06,-1,-0.0019041245293032953,-0.0016420928083937247,-0.0009849180198871952,0.010109264414904343,0.9881748921362153
2014-10-08,-1,-0.0018107292804591306,-0.0015521800398430696,0.00015403327628481025,0.010109264414904343,0.9884712272446782
2014-10-10,-1,-0.0036092399044851163,-0.0031475603936922565,0.00016155448653229723,0.010109264414904343,0.9887642400072459
2014-10-14,-1,-0.0037460115361950203,-0.0032945075234308173,0.0008773184550147256,0.010172172474747878,0.9885511930625634
2014-10-16,-1,-0.0023802990530636357,-0.0020991587288276617,-0.0004983389429229597,0.009721505871380445,0.9910541357225107
2014-10-20,-1,-0.0018357498172365768,-0.0016331666972779061,-0.0005959620245245261,0.009721505871380445,0.9917974695269733
2014-10-22,-1,-0.0006952010432822911,-0.0006249313548898747,-0.0006997275951475531,0.00886123340572116,0.9935851385178801
2014-10-24,-1,-1.2579335332208378e-05,-1.0747532733741416e-05,-0.0006997275951475531,0.006666690494995955,0.9942795355643739
2014-10-28,1,0.0009753817383361236,0.0011246206129632535,-0.0008138444653468934,0.006605894110741543,0.9951639576664529
2014-10-30,1,0.0014025677976734507,0.001632918183900836,-0.0008138444653468934,0.004873928605432582,0.9954877617333548
2014-11-03,1,0.0015844299219425649,0.0018204557594304047,-0.0008138444653468934,0.003945818717188119,0.9957052493163946
2014-11-05,1,0.0023679424544581634,0.0027156482772328606,-0.0008138444653468934,0.003945818717188119,0.9961272856036112
2014-11-07,1,0.0019589492428838907,0.0022716638392911138,-0.0008138444653468934,0.003945818717188119,0.9967679968757286
2014-11-11,1,0.002098014715289945,0.0024090905575095867,-0.0009707038706716357,0.003730916080974816,0.9967225450616537
2014-11-13,1,0.0018259662873498844,0.0020988902186838765,-0.0009707038706716357,0.003945818717188119,0.9967215286004802
2014-11-17,1,0.0016252742097979341,0.0018666632566754775,-0.0009707038706716357,0.004039686094469481,0.9965821169728807
2014-11-19,1,0.0019085992896908336,0.002204864731073027,-0.0009707038706716357,0.004516888127828234,0.995546968207495
2014-11-21,1,0.0021612917329436633,0.0024997926400094255,-0.0016780004361168091,0.004103325780815126,0.9954993848498104
2014-11-25,1,0.002523532237251515,0.0029253886659180496,-0.0016780004361168091,0.00376220520673527,0.9956408857410227
2014-11-28,1,0.0021881053950749208,0.0025227248435666164,-0.0015195067679012481,0.004030644302732874,0.9957410861639762
2014-12-02,1,0.0022705511490078746,0.002618564288900533,-0.0032321931615500697,0.004030644302732874,0.9944477446888379
2014-12-04,1,0.0024681119757743127,0.0028306158848441184,-0.005907462797159381,0.0033425177190625965,0.993911568807404
2014-12-08,1,0.002297950098425758,0.002631055128605118,-0.005907462797159381,0.004030644302732874,0.9937280982654697
2014-12-10,1,0.002135056312149443,0.0024575002288571134,-0.005907462797159381,0.004489762752618416,0.9927600783067742
2014-12-12,1,0.0021945516028270143,0.0025394579173148,-0.004134774722921242,0.007540261262715703,0.992769158994644
2014-12-16,1,0.0020300678333082475,0.0023359525698467814,-0.006227807812783198,0.007540261262715703,0.9922563347660309
2014-12-18,1,0.0026714682472386304,0.0030397151562603347,-0.007525187279934409,0.005151630422398358,0.9923191676868186
2014-12-22,1,0.0023589636908239245,0.0026607076297598922,-0.007525187279934409,0.007540261262715703,0.9915391569983623
2014-12-24,1,0.0025465206826611126,0.0028932451773129343,-0.009347635844555268,0.007540261262715703,0.9908907853728419
2014-12-29,1,0.002305630793211232,0.0025909072317055228,-0.009677229463868519,0.007540261262715703,0.9899222764848882
2014-12-31,1,0.0013665892431401815,0.0015176512851652825,-0.009347635844555268,0.007540261262715703,0.9904416112094381
2015-01-05,1,0.0010271356275453505,0.001123845851162303,-0.00912052220361458,0.008957753736472672,0.989751595094345
2015-01-07,1,0.001048830295203472,0.0011130988816867356,-0.009677229463868519,0.011126877193961583,0.9884726366709674
2015-01-09,1,0.0014341354038510474,0.0015631512939305204,-0.00912052220361458,0.008434134030243724,0.989133265874742
2015-01-13,1,0.001834381084354349,0.0020097136062891727,-0.00912052220361458,0.011126877193961583,0.9887731520052963
2015-01-15,1,0.0011784144114384194,0.0012595168983726799,-0.008919167360092899,0.012405619184439503,0.9889559013785152
2015-01-20,1,0.0016175387628453038,0.001777344985683947,-0.008919167360092899,0.010274270928003405,0.9895423858701456
2015-01-22,1,0.002377277969148469,0.002626551977371135,-0.008919167360092899,0.009583275707448654,0.9902326658519617
2015-01-26,1,0.001950179121605638,0.0021524987693513735,-0.007127715652659703,0.009583275707448654,0.9903482384453599
2015-01-28,1,0.0010882929305080086,0.0011691572308406618,-0.006053227966839526,0.009583275707448654,0.9906810849353402
2015-01-30,1,0.00029249034235475084,0.00031457748251178267,-0.006053227966839526,0.010274270928003405,0.9897312277818072
2015-02-03,1,0.001242412645503207,0.0013551321755512504,-0.006347475015627558,0.008792009583779282,0.9904919215296505
2015-02-05,1,0.0015556639211770909,0.0016938384740962631,-0.006347475015627558,0.008792009583779282,0.9913237342604682
2015-02-09,1,0.0009054016472598073,0.0009522344433493955,-0.006347475015627558,0.008792009583779282,0.9911177739300777
2015-02-11,1,0.0014112266706478704,0.0015205714038484053,-0.006347475015627558,0.008792009583779282,0.9910853150081791
2015-02-13,1,0.0014723347563205939,0.0015497658756783736,-0.006658788734596631,0.008792009583779282,0.9904144362919433
2015-02-18,1,0.0018329627860387337,0.0019622196411293305,-0.006658788734596631,0.009317613501220604,0.9901570458939359
2015-02-20,1,0.001550071175602805,0.0015925927646224405,-0.006658788734596631,0.009725852116003053,0.9899895797196476
2015-02-24,1,0.0013813990414928313,0.0014004106430571626,-0.0075069800934462975,0.009725852116003053,0.9900493375311276
2015-02-26,1,0.0008555100737140533,0.0009044118343413794,-0.009099501559625228,0.009725852116003053,0.9898784979802701
2015-03-02,1,0.0011295812589221105,0.0011435270448673293,-0.0075069800934462975,0.009725852116003053,0.9908866770013562
2015-03-04,1,0.0005702346139511584,0.000648107877916278,-0.005254404617050542,0.009725852116003053,0.9912444966689149
2015-03-06,-1,-0.00046336287111398275,-0.0001919603946354372,-0.002744698987999871,0.00791945149999292,0.9917805395745476
2015-03-10,-1,-0.0011313064784629185,-0.0007551607836705962,-0.0038142278020130644,0.00791945149999292,0.9919535771169367
2015-03-12,1,1.7955581285484102e-05,0.00020076614487945382,-0.006524755178976721,0.00608367652283429,0.9925736447754047
2015-03-16,1,5.561578777608586e-07,0.0001885300280881669,-0.004429728363615968,0.005487720468689493,0.9937628190822498
2015-03-18,1,0.0008699199304493493,0.000912575269208623,-0.006524755178976721,0.004212297506204498,0.9937269607507679
2015-03-20,1,0.0013193935485924862,0.0013604957333931784,-0.009101779168992123,0.003322107184708577,0.9935489207958289
2015-03-24,1,0.0012532593938017428,0.001316761661076339,-0.006627750408688403,0.005006793784962167,0.9935661200379889
2015-03-26,1,0.0010594796847899538,0.0011020836521133744,-0.006627750408688403,0.0040799770732423265,0.9939035928894878
2015-03-30,1,0.0013219802839307675,0.001404915143587432,-0.006627750408688403,0.0040799770732423265,0.9940691985318343
2015-04-01,1,0.001541609363991567,0.0016846377177368369,-0.009434426577813071,0.0040799770732423265,0.9932131081143049
2015-04-06,1,0.001270818504754636,0.0013467664953710741,-0.009434426577813071,0.0040799770732423265,0.9930892693302492
2015-04-08,1,0.0009628029342592305,0.001008320032922893,-0.009434426577813071,0.00519280214889876,0.9926450398026001
2015-04-10,0,-4.366282836244789e-05,2.6532239812341435e-06,-0.010481693011965802,0.00519280214889876,0.9919032908069219
2015-04-14,1,0.00016908858009368123,0.00019629886721767934,-0.010481693011965802,0.00519280214889876,0.9919835690219913
2015-04-16,-1,-7.23073124445861e-05,-2.7065608858757302e-05,-0.00966062046829301,0.006302304845490025,0.9923235420812533
2015-04-20,-1,-0.00015654438324766326,-0.0001018465903481828,-0.009161669412085887,0.007309854136707881,0.9921563357936607
2015-04-22,1,0.0001279987570816252,0.00014668683743966594,-0.009161669412085887,0.004379611593246265,0.9925773025263868
2015-04-24,-1,-0.00017369192544591116,-0.00011316741131683377,-0.007618401100650037,0.004379611593246265,0.9928352480782023
2015-04-28,1,0.0001637278044269552,0.00018042461552466937,-0.01005272013753691,0.004379611593246265,0.9920287007938607
2015-04-30,-1,-0.0002911937324160163,-0.00022541693181409226,-0.0065698898260629635,0.004379611593246265,0.9930843209786939
2015-05-04,-1,-0.0001821823143648116,-0.0001289547493133544,-0.0065698898260629635,0.0012298402908329838,0.9935731887611127
2015-05-06,-1,-8.798693816932857e-05,-3.739369532047241e-05,-0.0065698898260629635,0.0012298402908329838,0.9937857981993272
2015-05-08,-1,-0.0007412882920775248,-0.0006103636839354491,-0.004157438263835455,0.0028083446460300853,0.994700049106206
2015-05-12,-1,-0.0005853390630414527,-0.00048334426494645917,-0.004182919110461455,0.006275942307267602,0.994347881344369
2015-05-14,-1,-0.0003257523505895539,-0.00026842628070269334,-0.005353518104744693,0.006275942307267602,0.9940038809412267
2015-05-18,-1,-0.0003432488738511167,-0.0002763605833947748,-0.005353518104744693,0.006275942307267602,0.9940838800258364
2015-05-20,-1,-0.0007044697432627234,-0.0005937176789797259,-0.00587661988975353,0.007435378475596194,0.9932637075735118
2015-05-22,-1,-0.0005939772877993686,-0.0005021602853641599,-0.005416999447056918,0.007435378475596194,0.9935447663605477
2015-05-27,-1,-0.000589102152720157,-0.00047609587059481494,-0.004821710369844104,0.006275942307267602,0.994649234520877
2015-05-29,-1,-0.0007602001825510136,-0.0006278903378389685,-0.004821710369844104,0.006275942307267602,0.994445056119663
2015-06-02,-1,-0.0006608183818960212,-0.0005476257772992867,-0.006300408616568609,0.006275942307267602,0.9935745565485395
2015-06-04,-1,-0.000969813647987509,-0.0008158797766054787,-0.005416999447056918,0.006275942307267602,0.9938458350211568
2015-06-08,-1,-0.0007490927320072916,-0.0006360292920483119,-0.005038398526388533,0.00462132045591277,0.9941098534086948
2015-06-10,-1,-0.0007876356902428676,-0.0006570328567615729,-0.005038398526388533,0.0038403836065396967,0.9942778042397146
2015-06-12,-1,-0.0006946373281319126,-0.0005848923459149695,-0.0036761661026091606,0.0040464714169351984,0.9941743635808019
2015-06-16,-1,-7.174510835919869e-05,-6.642401878072456e-05,-0.002194877277677904,0.004657352936984925,0.9943989817792321
2015-06-18,-1,-0.0002874052504429897,-0.00022607650403158052,-0.002194877277677904,0.004657352936984925,0.994390443576091
2015-06-22,-1,-0.0008127998000624097,-0.0006702623483869621,-0.0023547267183712485,0.006074333818496427,0.9938341814664354
2015-06-24,-1,-0.0010007661485669532,-0.0008226633252879224,-0.0023547267183712485,0.007886488553622414,0.9933119361655692
2015-06-26,-1,-0.00047377985561673845,-0.0003994660584552118,-0.0036500637261644227,0.007886488553622414,0.9931524095741447
2015-06-30,-1,-0.0003449905622102432,-0.0003129833835777263,-0.0009636473419225015,0.009771961850123948,0.9932483719421855
2015-07-02,-1,-0.0005428975231605644,-0.00045319328818690236,-0.002340989131522304,0.007886488553622414,0.993723656492288
2015-07-07,-1,-0.00016648276391219275,-0.000138198317302449,-0.0024307385604819954,0.007886488553622414,0.9937847058606508
2015-07-09,-1,-0.00026897573901888614,-0.0002379243650948801,-0.0024307385604819954,0.007886488553622414,0.9932585070038564
2015-07-13,0,-8.409313690106243e-06,1.2457985144851274e-06,-0.0024307385604819954,0.007895743971638237,0.9932229013393264
2015-07-15,1,0.00022114783518115952,0.00026561665327119857,-0.0036088509656175887,0.00870947794779509,0.9929022242030102
2015-07-17,1,9.106857382880696e-05,0.00010924372989184295,-0.0024307385604819954,0.0077296014281103284,0.9934817983636727
2015-07-21,1,9.290151265091369e-05,9.768183168506164e-05,-0.0024307385604819954,0.007009605476094584,0.9937170282104643
2015-07-23,1,0.00040989743201818484,0.0004791674418287156,-0.003753138740537253,0.00679755217855621,0.9935641973651957
2015-07-27,1,0.0002916215092394899,0.0003122302929493224,-0.006466663402545189,0.00679755217855621,0.9910064340397505
2015-07-29,1,0.0005846728533446324,0.0006518987228584412,-0.006466663402545189,0.00679755217855621,0.9896566392745265
2015-07-31,1,0.00024044420300646014,0.00025510285496145244,-0.010865212637654408,0.007009605476094584,0.9885984304991312
2015-08-04,1,0.0005550020654561214,0.0006425331535469105,-0.012519611503976364,0.007009605476094584,0.9865604171961301
2015-08-06,1,0.0005244405327747633,0.0006085708723201756,-0.012519611503976364,0.008525964813213254,0.9860883173498455
2015-08-10,1,0.001083443850888168,0.0012674160437239367,-0.01350581287711851,0.008525964813213254,0.9847892159534093
2015-08-12,1,0.0012754615667428966,0.0014797969608859765,-0.01350581287711851,0.007212590404689449,0.9849694727731747
2015-08-14,1,0.000910477507361504,0.0010571328095108944,-0.01350581287711851,0.009928906724430633,0.9843520708746584
2015-08-18,1,0.0009033582726972226,0.0010522323320037298,-0.01350581287711851,0.014212905707382002,0.9837102484217508
2015-08-20,1,0.0006458818617504038,0.0007661491552524177,-0.012179795138078861,0.014212905707382002,0.9843123458321881
2015-08-24,1,0.0004968931535460336,0.0005977837473382695,-0.008022678585680077,0.014212905707382002,0.9866689091012582
2015-08-26,1,0.0011726359616992992,0.0013643813177523466,-0.008022678585680077,0.009928906724430633,0.9885332592884997
2015-08-28,1,0.0006472961488207731,0.0007541985891250155,-0.008022678585680077,0.007417029505479235,0.9885554371256892
2015-09-01,-1,-0.0002636524828414912,-0.00023985423381109783,-0.00646430424281529,0.009002996498081249,0.9899122350844051
2015-09-03,1,0.00016097361359697224,0.00020331946677183037,-0.00646430424281529,0.007899851387365207,0.9905014634976873
2015-09-08,1,0.0005742716005823791,0.0006508470540705355,-0.0038272280962780695,0.007899851387365207,0.9918376588061997
2015-09-10,1,0.00022809711149523077,0.0002552811600860503,-0.0020003189834862305,0.011076857753454112,0.9915325679408123
2015-09-14,1,0.00029060384519903886,0.00034440904666941784,-0.0012723135288962824,0.008865454780873866,0.992286788141373
2015-09-16,1,0.0006333941701795697,0.0007183665683910296,-0.0038272280962780695,0.007371182266410106,0.9926779698365134
2015-09-18,1,0.0006341218544997538,0.0007386825009648438,-0.0020003189834862305,0.007371182266410106,0.992876141475423
2015-09-22,1,0.00034289525855859843,0.00037508986463247304,-0.0013271466691633818,0.007693341936289656,0.9929442832996217
2015-09-24,1,0.00044646389019863456,0.0005016535200997701,-0.0013271466691633818,0.008865454780873866,0.9916711618631366
2015-09-28,1,0.0001696676470198918,0.00020005365894962295,0.0003427601661394323,0.010763341486616486,0.9921064031503111
2015-09-30,1,0.0002721106320538324,0.00028093161292020856,-0.0013271466691633818,0.012012495782086068,0.9910172031322035
2015-10-02,1,0.0011437362410030984,0.001247587582086756,-0.0024387205607488754,0.009177334123751185,0.9918023296349644
2015-10-06,1,0.0009337550639034329,0.0010166950683733592,-0.004924979360062218,0.007693341936289656,0.992256246606537
2015-10-08,1,0.001548525298887138,0.0017153527382121824,-0.005220402646325163,0.005367981723570882,0.9928344497264048
2015-10-12,1,0.0011462880115898726,0.0012350540849092764,-0.005220402646325163,0.007631738404310798,0.9922575001618201
2015-10-14,1,0.0007542239368217943,0.0007877474737444995,-0.004814774695018541,0.007631738404310798,0.9925338049550407
2015-10-16,1,0.0010693636842719493,0.0011566574310978993,-0.005220402646325163,0.007631738404310798,0.99205089300841
2015-10-20,1,0.0009449198402000899,0.0010023094953104167,-0.005220402646325163,0.008270137386106956,0.991358774893062
2015-10-22,1,0.0015607156421332535,0.0016956638966393804,-0.005220402646325163,0.008270137386106956,0.9923318362815572
2015-10-26,1,0.0014544665643252239,0.001557102764691219,-0.005220402646325163,0.00649555185667957,0.9925698698361669
2015-10-28,1,0.00204202331040321,0.0022206593737878655,-0.00502014374759821,0.0039115905359735905,0.9941825678389108
2015-10-30,1,0.0014838287772253676,0.0015927028792366957,-0.00502014374759821,0.006376990718468416,0.9943336455109199
2015-11-03,1,0.0013556499018083697,0.0014450863191182066,-0.00502014374759821,0.006376990718468416,0.9943552901600926
2015-11-05,1,0.0014655628126081718,0.0015802349966014652,-0.004369980736762803,0.003813128241725541,0.9946525366914414
2015-11-09,1,0.0019396688876004205,0.0021251818159127474,-0.005089500007696257,0.0013923023184589844,0.9944642091367336
2015-11-11,1,0.0013407435709709213,0.0014274082089273717,-0.005456752090196617,0.002526053561686133,0.9947020027614764
2015-11-13,1,0.0009608303558540944,0.000993142346186641,-0.0045084660653837965,0.002713679397997406,0.9950293214549633
2015-11-17,1,0.0014121843999867587,0.0015011685438343437,-0.005126019158252507,0.002694270963769057,0.9955393071031977
2015-11-19,1,0.0011041771837747892,0.0011167423432354002,-0.005126019158252507,0.002694270963769057,0.9959088063188013
2015-11-23,1,0.0010391192246116785,0.0010637491620357664,-0.005126019158252507,0.003220096249016859,0.9960327963199361
2015-11-25,1,0.0010330870195679378,0.0010639557382839011,-0.005126019158252507,0.003220096249016859,0.9960918354507406
2015-11-30,1,0.0011210288767747884,0.0011473438271752635,-0.005126019158252507,0.0033148667400176184,0.9958182913055149
2015-12-02,1,0.0010273149639750418,0.001060404825681016,-0.0054159847251822775,0.0033148667400176184,0.995370974885732
2015-12-04,1,0.001137577372135038,0.0012027802290456402,-0.006716930045583274,0.0036510962806628137,0.9938851295866113
2015-12-08,1,0.0008357459047155445,0.0008600107393002059,-0.006716930045583274,0.0036510962806628137,0.9938628028726821
2015-12-10,1,0.0007789578685422913,0.0008087842115577933,-0.005867082295739149,0.003710580348529685,0.9939084764677213
2015-12-14,1,0.0008172745309117858,0.0008528824908087825,-0.005867082295739149,0.003710580348529685,0.9924266712456514
2015-12-16,1,0.0005018886796064989,0.0005191859715055687,-0.0076868800993453,0.003750574459129745,0.990306779060556
2015-12-18,1,0.0007046895127369575,0.0007488326797217045,-0.007430868392741176,0.005392970945802933,0.9898383693590548
2015-12-22,1,0.0006346185132108885,0.0006488462662676072,-0.007430868392741176,0.014627482490695336,0.9879994801299841
2015-12-24,1,0.0005523413583746004,0.0005571640315433731,-0.010953981422646215,0.014627482490695336,0.9871984214610192
2015-12-29,1,0.0007759756000411163,0.0008048941021859342,-0.010953981422646215,0.014627482490695336,0.9876640977310741
2015-12-31,1,0.0005636605520676456,0.0005897459933805684,-0.007430868392741176,0.01478817705922963,0.9865249089973539
2016-01-05,1,0.0007587066882535267,0.0008180423274312955,-0.008379863693341698,0.014780839682594485,0.9872946358534008
2016-01-07,1,0.0003225359102512586,0.000335724963164925,-0.008379863693341698,0.014780839682594485,0.9869779566272484
2016-01-11,1,0.0001627141106970998,0.0001953432638720498,-0.010713334542264724,0.014780839682594485,0.9861563665334326
2016-01-13,-1,-0.0005671125788826532,-0.0004240835600236605,-0.008379863693341698,0.010510090032135983,0.9876531160581431
2016-01-15,-1,-0.0016991395197711407,-0.0013577862309053588,-0.0066969867939745235,0.015660032759298684,0.9875478436868617
2016-01-20,-1,-0.0005538136350992508,-0.000398780826610115,-0.008379863693341698,0.01937077757973944,0.9868125501663123
2016-01-22,1,0.00013955297247332906,0.00023509137631425454,-0.008379863693341698,0.012105770197342595,0.9875967466274344
2016-01-26,-1,-0.0009392917597952125,-0.0006356281236369384,-0.007973822206760132,0.012105770197342595,0.9879438731940863
2016-01-28,-1,-0.0008319713020809721,-0.0005711198959012334,-0.009065630223314972,0.012105770197342595,0.9871519227061614
2016-02-01,1,0.0006095236237351806,0.0006822990721260113,-0.010646015232112147,0.009594062008376389,0.9881987584765413
2016-02-03,0,-0.0001787249328853253,5.53832971331809e-06,-0.009427890772367447,0.009594062008376389,0.988757028669699
2016-02-05,-1,-0.0008949292358962025,-0.0006282071444008969,-0.008056149684596399,0.009594062008376389,0.9892307756988021
2016-02-09,-1,-0.001143502457066639,-0.0008841245968231025,-0.008056149684596399,0.009594062008376389,0.9898817223833857
2016-02-11,-1,-0.0013650260195007108,-0.0010600585966775281,-0.008056149684596399,0.007391272154126717,0.990152728985184
2016-02-16,0,-1.010577416080355e-06,0.00014986666896191913,-0.008056149684596399,0.004541061097373931,0.9928393006897308
2016-02-18,1,0.0005598693850073838,0.0006502760786330633,-0.004335963575154372,0.006019420813908907,0.9937257533903341
2016-02-22,1,0.0006521093247871107,0.0007686135235923503,-0.004335963575154372,0.0036993368217606657,0.9948527183794652
2016-02-24,1,0.0007806764860636263,0.0008582776748840524,-0.00217308491602452,0.0022532731752310164,0.9953819745115383
2016-02-26,1,0.0006831181602175725,0.000735620946533979,-0.0010041108285463174,0.001183652441110194,0.996332185164272
2016-03-01,1,0.0005439266968026549,0.0006058143510001818,-0.000458159880784868,0.0022532731752310164,0.995595772936465
2016-03-03,1,0.0006015886928946091,0.0006237681552785373,-0.000458159880784868,0.0043376397039466075,0.9948794437021289
2016-03-07,1,0.00046671503994882456,0.0005040974181312254,-0.0010041108285463174,0.0043376397039466075,0.9940937056715591
2016-03-09,-1,-0.0003287091937174395,-0.00017258860379267617,-0.0010041108285463174,0.007372763542033122,0.9937153142771376
2016-03-11,0,-0.00010328214679054685,1.6096016890946978e-05,-0.0040226598389005675,0.007372763542033122,0.9933301113914024
2016-03-15,-1,-0.00019738327489081316,-7.101369499134359e-05,-0.006229559162126837,0.007372763542033122,0.9929085650326442
2016-03-17,1,0.0008133717366426007,0.0008387740885320072,-0.006229559162126837,0.002615154550388986,0.9934713279732724
2016-03-21,1,0.0008186713619183259,0.0008612637344701597,-0.006229559162126837,0.005123889933498381,0.9931343928239315
2016-03-23,1,0.0011168248315524122,0.0012317131910254695,-0.007335138508243106,0.005123889933498381,0.9923163585489341
2016-03-28,1,0.0009045194226608991,0.0009728221333418471,-0.007335138508243106,0.005123889933498381,0.9922084158238463
2016-03-30,1,0.0018803471108221445,0.0020697371862439503,-0.007335138508243106,0.0024969898528736005,0.9932111432214996
2016-04-01,1,0.0015275020524130353,0.0016710746419308347,-0.007335138508243106,0.0010323613129979254,0.9936492341227408
2016-04-05,1,0.0011083613570904453,0.001226554004532482,-0.006430351831996084,0.0024969898528736005,0.993579091644145
2016-04-07,1,0.0010444378196522606,0.0011326626473030248,-0.004207639362387042,0.0024969898528736005,0.9933787195123667
2016-04-11,1,0.000296511483249152,0.0003282352776314258,-0.0033459977284254704,0.004963679114130176,0.9935555843826779
2016-04-13,1,0.0006980897094806285,0.0007574558983268933,-0.0033459977284254704,0.00641787412925171,0.9929920108555721
2016-04-15,1,0.0006310393231594407,0.0006871921952998291,-0.004628606185976274,0.008181664837050705,0.9923459806498955
2016-04-19,1,0.0008921245200177129,0.0009722668257464344,-0.00920008049004247,0.008181664837050705,0.9916707042930156
2016-04-21,1,0.0002825645605646419,0.00028642567420256317,-0.008652817840618776,0.008181664837050705,0.9919174434231851
2016-04-25,1,0.0004593056925671061,0.000496627718052065,-0.00913186084089299,0.008181664837050705,0.9914415253623668
2016-04-27,1,0.0004143402539991327,0.00043471547162974043,-0.00913186084089299,0.009667215689568093,0.9904046040255704
2016-04-29,-1,-0.00012559058377696565,-7.74705621258922e-05,-0.008652817840618776,0.01008203311497971,0.9905374088822787
2016-05-03,-1,-0.00011751717994969789,-5.4709588829899994e-05,-0.0055463834164192205,0.009667215689568093,0.9917509518096885
2016-05-05,1,0.0001590685207817791,0.0001978745983544797,-0.0061998503582028274,0.008771676815550817,0.992224821375977
2016-05-09,1,0.0007773767886259482,0.0008139930552935516,-0.0061998503582028274,0.007925583116958904,0.992877875352909
2016-05-11,1,0.0002558778297386353,0.0002921738745977354,-0.004741151359870336,0.005922572703727995,0.9935150924537871
2016-05-13,1,0.000257034391428654,0.00029691474349461885,-0.0061998503582028274,0.004249076306812408,0.9932557982078979
2016-05-17,1,0.0002554192939551812,0.0002928088088520838,-0.0061998503582028274,0.004249076306812408,0.993372088109702
2016-05-19,0,-4.672073158813346e-05,2.4901287135785415e-05,-0.006264373658174376,0.004249076306812408,0.9930959226224886
2016-05-23,-1,-0.00016417335657769713,-0.00010235588608827322,-0.004741151359870336,0.005922572703727995,0.9929148201453452
2016-05-25,0,-4.977283839624006e-05,2.7415721990803034e-05,-0.0028728461400668345,0.005922572703727995,0.9935931488870102
2016-05-27,1,0.0002828378510130264,0.0003165774156491725,-0.008957469487066182,0.004249076306812408,0.9927845881949359
2016-06-01,1,4.1395071238641186e-05,0.0001247060584924754,-0.008957469487066182,0.009079629550035467,0.9909524869328722
2016-06-03,0,-8.711118776611858e-05,2.2461299012745703e-05,-0.008957469487066182,0.010854257314677465,0.9905457079307507
2016-06-07,-1,-0.00039048998438254785,-0.00022594354752596726,-0.008957469487066182,0.010854257314677465,0.9906391698500364
2016-06-09,-1,-0.00043969319028743187,-0.0002325921317314517,-0.008957469487066182,0.011177749123553186,0.990284799996849
2016-06-13,-1,-0.0011909716394636802,-0.0009091522302934689,-0.0031010790676982754,0.011177749123553186,0.9909506564810169
2016-06-15,-1,-0.00044748242006027614,-0.0003134328617527352,-0.002516981255853862,0.010930175920815239,0.9916224356036658
2016-06-17,-1,-0.001074996579005014,-0.000863405069707489,-0.0035433957158821916,0.010930175920815239,0.9920979162444449
2016-06-21,-1,-0.0008813885739032343,-0.0006814775543864588,-0.0035433957158821916,0.007733339297507603,0.9925024675930879
2016-06-23,1,0.0003525480382831849,0.000361852174866095,-0.003625169315148658,0.006898805766961929,0.9924756426918777
2016-06-27,-1,-0.0009809911696509613,-0.000811255037127576,-0.002491887168008773,0.00794728759156194,0.9928647867506762
2016-06-29,0,-2.7798838245516938e-05,6.390641106103468e-05,-0.0035433957158821916,0.005426324989385818,0.9947791646565574
2016-07-01,1,0.00013592251424383812,0.0002388159694138616,-0.0035433957158821916,0.0039843934127813466,0.9957974358496714
2016-07-06,1,0.00012759620220094214,0.00024000389471524848,-0.003989355924549801,0.0039843934127813466,0.9950581064954195
2016-07-08,1,0.0010451865569512003,0.0011258057941949061,-0.003625169315148658,0.0039843934127813466,0.995563903614735
2016-07-12,1,0.0012994873222663046,0.0014485519557903628,-0.003989355924549801,0.00346786071721983,0.9954470306092464
2016-07-14,1,0.0014726278849925218,0.0016762208722538837,-0.003989355924549801,0.0039843934127813466,0.9953612413794878
2016-07-18,1,0.001300035067347954,0.0014791506080575397,-0.004721019161196115,0.005246242752893812,0.9952935075219228
2016-07-20,1,0.001146703604470932,0.001281932957852301,-0.005614476206661981,0.005246242752893812,0.9936757624976078
2016-07-22,1,0.0011228647394801036,0.001247963522735571,-0.005061788319179088,0.006135645738541973,0.9934852658636177
2016-07-26,1,0.0013635351988289432,0.0015023680361752555,-0.005061788319179088,0.006135645738541973,0.9936713911609857
2016-07-28,1,0.0010772566354784634,0.0011738197204975507,-0.005714939571087952,0.006135645738541973,0.9933244898590543
2016-08-01,1,0.0008614365915722979,0.0009041043506656397,-0.005714939571087952,0.006135645738541973,0.9929343262884679
2016-08-03,1,0.0005322768478302581,0.0005378651168676902,-0.004742841815966443,0.006135645738541973,0.9934451083717816
2016-08-05,1,0.0006684638678310126,0.0006850384193787747,-0.004742841815966443,0.006604461537773687,0.9930563065757183
2016-08-09,1,0.0007414271135672546,0.0008035705563329961,-0.004406659039885746,0.006604461537773687,0.9934468917920962
2016-08-11,1,0.0007105745207193104,0.0007591882746701682,-0.004742841815966443,0.006135645738541973,0.9924837120854427
2016-08-15,1,0.0008089157280936547,0.0008701243431037024,-0.005127256283490072,0.0067023682153474155,0.9913548513365669
2016-08-17,-1,-0.00014970108268752536,-9.01771741050423e-05,-0.004529306551314848,0.007382097021427931,0.9923070146889741
2016-08-19,1,0.0010836163123051899,0.0012442369241197017,-0.00566727034799826,0.007207816157877056,0.992453872871588
2016-08-23,1,0.00103384688763032,0.0011686524411099117,-0.00566727034799826,0.007454636553147414,0.9923987483483269
2016-08-25,1,0.0005013161055121265,0.0005272771057062581,-0.005286229701181644,0.008080630669552327,0.9922553279601544
2016-08-29,1,0.0003454408142709504,0.0003578847921866847,-0.0061936064007819406,0.008080630669552327,0.992024807000742
2016-08-31,0,-2.6412419962676794e-05,3.0257220109070407e-05,-0.007713889723778534,0.008080630669552327,0.9916700524763007
2016-09-02,1,0.0005551218634851892,0.0005687346910343667,-0.007713889723778534,0.0032957674462102183,0.992341803919197
2016-09-07,1,0.0002914236062747438,0.00031841667071591897,-0.009012804332009404,0.0032957674462102183,0.991650943887398
2016-09-09,-1,-0.00041725943020073946,-0.0003255769929665005,-0.009012804332009404,0.007454636553147414,0.9919910545221238
2016-09-13,-1,-0.0009002960573326419,-0.0007222628114315355,-0.009012804332009404,0.0032957674462102183,0.9925853504185277
2016-09-15,-1,-0.0007591086908494999,-0.000601083688693491,-0.009012804332009404,0.0032957674462102183,0.9921885280861654
2016-09-19,-1,-0.0008382702144366552,-0.0006730513115235804,-0.00673819824391932,0.0029049487644669317,0.9925513860084744
2016-09-21,-1,-0.0007072699972027838,-0.0005347342854484726,-0.00673819824391932,0.001492921018092334,0.9929508417417627
2016-09-23,-1,-0.0006583412812473282,-0.0004985926979876021,-0.00673241411554402,0.001286667372958236,0.993547493215674
2016-09-27,-1,-0.0006584620816378159,-0.0005196517129177863,-0.006751651690476618,0.001286667372958236,0.9932962149576325
2016-09-29,-1,-0.0006649097997427351,-0.0005528623805610966,-0.009898570499303486,0.0006041952962617081,0.9927768027682369
2016-10-03,-1,-0.0009645315205766163,-0.0008007810173332832,-0.009898570499303486,0.00599929463914851,0.9919458579236616
2016-10-05,-1,-0.0015152486680168826,-0.0012900604448152849,-0.006841319459070181,0.00599929463914851,0.9925895629767896
2016-10-07,-1,-0.0016466766919332647,-0.0014074597324748106,-0.005834742838996113,0.0024302984174778205,0.993519500093651
2016-10-11,-1,-0.002550158120389623,-0.002191303995959645,-0.00463224667574486,0.007240039882411324,0.9923646737369847
2016-10-13,-1,-0.0022371744062487575,-0.0019037657293032618,-0.003981115711411667,0.00599929463914851,0.9935045222096054
2016-10-17,-1,-0.0018921501721660436,-0.0016232754167369323,-0.003981115711411667,0.007240039882411324,0.9930546657119925
2016-10-19,-1,-0.0017600540635885242,-0.00152353571935359,-0.003023545949507075,0.007240039882411324,0.9928735401824742
2016-10-21,-1,-0.001799937353106317,-0.0015609628003878297,-0.0022929551406975215,0.008809893943184294,0.9919740685490197
2016-10-25,-1,-0.0018593120886376754,-0.0016173791524775665,-0.0020600769704574745,0.010652297028752313,0.9916248311260232
2016-10-27,-1,-0.0025209599087575012,-0.0022044763155116584,-0.0008592460926476832,0.010652297028752313,0.9918333834787737
2016-10-31,-1,-0.001688304375221992,-0.0014857947839226478,-0.0020284591582467103,0.0076013448277538875,0.9933439061857365
2016-11-02,-1,-0.0024241464426900255,-0.002099208978030554,-0.0020600769704574745,0.0076013448277538875,0.991411384517921
2016-11-04,-1,-0.0024113508585323863,-0.0020917831390031157,-0.0020284591582467103,0.01353963010191242,0.9900537818953727
2016-11-08,-1,-0.0012866547201977815,-0.001073720839323655,-0.0020284591582467103,0.010976147035980953,0.9913909381847653
2016-11-10,-1,-0.0013541592206751346,-0.001149004525641113,-0.00048218771468645327,0.010976147035980953,0.9910714390229025
2016-11-14,-1,-0.0007432059676708004,-0.0006268522849083825,-0.00048218771468645327,0.01013625627337101,0.991454270495687
2016-11-16,-1,-0.0012120972128351777,-0.0009872265109208149,-0.0016877033666310042,0.01013625627337101,0.9910538512281216
2016-11-18,1,0.00022733330573296659,0.0002429038115062471,-0.0016877033666310042,0.009937473365670751,0.9922034401933048
2016-11-22,1,0.0012003420344448104,0.0013842497785254708,-0.002282456906368016,0.00680163614658611,0.992876619132237
2016-11-25,1,0.0013177363768855,0.001519587769334367,-0.0026130162293280784,0.006692997375127735,0.9928364650306964
2016-11-29,1,0.0012254865352626083,0.0014260668476085347,-0.0031070481053595677,0.006692997375127735,0.9928088247737765
2016-12-01,-1,-4.9058823903384025e-05,-1.2013635532153632e-05,-0.0017055116749184153,0.006692997375127735,0.9943048461593845
2016-12-05,1,0.0008432989375274328,0.0009984828194062355,-0.0017055116749184153,0.004606341980832297,0.9954026212847603
2016-12-07,1,0.0015899638962921412,0.001832133304562732,-0.0017055116749184153,0.0035136608038488963,0.9960547602485597
2016-12-09,1,0.0017164653425857206,0.001985033824243674,-0.004619869209677721,0.003217347647109131,0.9952942886939146
2016-12-13,1,0.0021153181350151732,0.002438492040332295,-0.004619869209677721,0.002647050728871853,0.9952711781367745
2016-12-15,1,0.0019743505508438854,0.0023062503159835923,-0.0040205902969169234,0.003217347647109131,0.9951489522605195
2016-12-19,1,0.0018330298834048715,0.0021400675749164103,-0.0040205902969169234,0.003217347647109131,0.9953375186397446
2016-12-21,1,0.0017613186308517966,0.00206278874600981,-0.0028175941296626978,0.0038527681929304666,0.995497825908006
2016-12-23,1,0.0016629495960504617,0.0019232965353247792,-0.0040205902969169234,0.003217347647109131,0.9955375725146577
2016-12-28,1,0.0016127549901859574,0.0018861518364870066,-0.0040205902969169234,0.003422343001573066,0.9952786011910134
2016-12-30,1,0.0014552009776920502,0.0016925890651380657,-0.0038700740952063374,0.0033772211074672444,0.9953531963363167
2017-01-04,1,0.0018890524276361678,0.0021915125976336774,-0.004283061252704413,0.0029488813632175754,0.9950646611949906
2017-01-06,1,0.0022555824827918034,0.0026094521519435705,-0.005608021161831323,0.0021167236216602485,0.9943335010670168
2017-01-10,1,0.00121324786202285,0.001365408381993712,-0.0042456416655356315,0.0030402649340501684,0.9952009760256868
2017-01-12,1,0.0014570586333031768,0.0016815600950958551,-0.0042456416655356315,0.0036513718199650234,0.9946075212898496
2017-01-17,1,0.0019189438566305768,0.002222715642945443,-0.004858557600991312,0.0036513718199650234,0.9947018589369832
2017-01-19,1,0.001821608884393203,0.00209822321764662,-0.004858557600991312,0.005848345691258918,0.994443921475885
2017-01-23,1,0.0019291030344740106,0.002205822510490549,-0.004858557600991312,0.006283295713784084,0.9943677561594434
2017-01-25,1,0.0017509089477466305,0.0019974322297656973,-0.004087568207489033,0.006283295713784084,0.9945550927713598
2017-01-27,1,0.0018190891570300841,0.0021111283972761103,-0.0027876062555382327,0.006836302787928624,0.9949093392447171
2017-01-31,1,0.0016058454773932515,0.0018595645875783746,-0.002991911567356793,0.007453680981741431,0.993843038139331
2017-02-02,1,0.0008365264055176513,0.0009358800691692073,-0.002991911567356793,0.007453680981741431,0.993363050279146
2017-02-06,1,0.0009672745279465359,0.001076852517283261,-0.0028431047149059764,0.006836302787928624,0.9939839852347705
2017-02-08,1,0.0009177644688065819,0.0010213292680024784,-0.00227632262050446,0.006836302787928624,0.9941015045237818
2017-02-10,1,0.0011585881088117364,0.0012885489957580932,-0.0021447505662682666,0.006836302787928624,0.9945407593754093
2017-02-14,1,0.0014516597808293442,0.0016417712105934847,-0.0021447505662682666,0.006283295713784084,0.9949413932591098
2017-02-16,1,0.0018722388085330966,0.002122941195048654,-0.0023804415550144594,0.00543568385350988,0.9950176561861126
2017-02-21,1,0.001985187878990687,0.0022343941748980863,-0.004652090121232133,0.005199968861291071,0.9944713498014087
2017-02-23,1,0.001963218051194707,0.002186000787902797,-0.004652090121232133,0.004374395023099566,0.994185901107424
2017-02-27,1,0.00211750706035177,0.002351862016214199,-0.004652090121232133,0.0037804430958436105,0.9943326362717029
2017-03-01,1,0.0018451378224429598,0.002005058148553488,-0.003155461518435974,0.0032539265078667177,0.9956561417815936
2017-03-03,1,0.0015043454766256337,0.0016043247847384366,-0.003155461518435974,0.0029367890393073204,0.9958199952066367
2017-03-07,1,0.0008583819011118744,0.0008885750688229924,-0.002907882352015142,0.0029367890393073204,0.9960893045728179
2017-03-09,1,0.000777013754420711,0.0008046800328144581,-0.003228177721374157,0.0029367890393073204,0.9960228435557419
2017-03-13,1,0.001074579130408675,0.0010796165716194675,-0.003228177721374157,0.001761413150325285,0.9961027103468996
2017-03-15,1,0.0009298207350833749,0.0009531579091698842,-0.003228177721374157,0.0029367890393073204,0.9957927540097545
2017-03-17,1,0.0006123439235569244,0.0006825240596374932,-0.003228177721374157,0.0029367890393073204,0.9953256659626181
2017-03-21,0,-6.40463762499715e-05,9.677356411859079e-05,-0.0025678570503905934,0.0031731071234909875,0.9958783808110705
2017-03-23,-1,-0.000912831958305272,-0.0006070387035322934,-0.0021932983441948026,0.0034363997356620718,0.9956573636929803
2017-03-27,-1,-0.0005710676329676182,-0.0003315366188194175,-0.0021932983441948026,0.003678453772983733,0.9953158689875478
2017-03-29,-1,-0.0007816297817967818,-0.0004999733198245217,-0.0021932983441948026,0.003678453772983733,0.995157798296297
2017-03-31,-1,-0.0013714070886866438,-0.001011856070165358,-0.0021932983441948026,0.003678453772983733,0.9951857666266771
2017-04-04,-1,-0.000739181999716066,-0.0005176953007755835,-0.0003606147056909201,0.003942708018890162,0.9951117875981624
2017-04-06,-1,-0.0012761702244836982,-0.0009707933773540145,0.0011031918354476606,0.004685604119142146,0.994603843211961
2017-04-10,-1,-0.0009835133814314319,-0.000738780782288045,0.0011031918354476606,0.004685604119142146,0.99443752229413
2017-04-12,-1,-0.0003002240083269999,-0.00014262377571885675,0.0008224000969515359,0.003942708018890162,0.9953299112979908
2017-04-17,1,0.00011063149601823723,0.0001890143054896263,0.0008224000969515359,0.003942708018890162,0.995854827307045
2017-04-19,1,0.0006290501882167594,0.0006476383148709662,-0.0008727420591975336,0.004685604119142146,0.9952553190568606
2017-04-21,1,0.0009174761967516968,0.0009784222533466072,-0.0008727420591975336,0.0063400156624509145,0.9944431154254988
2017-04-25,1,0.0011000306371452637,0.0011701806892760792,-0.0008727420591975336,0.008639903434692377,0.9937895933476802
2017-04-27,1,0.000362466564452848,0.0004605073882745447,-0.0008727420591975336,0.010191253935851812,0.9929440264530638
2017-05-01,1,0.0006401826329065265,0.0006640595314465473,-0.0008125809774720969,0.010191253935851812,0.9924903932688353
2017-05-03,1,0.001180350582531629,0.0012708666413259375,-0.00567139522971585,0.010280312843983704,0.9918546721738115
2017-05-05,1,0.0013060287472961211,0.001417944059634106,-0.00567139522971585,0.010280312843983704,0.9919076611869709
2017-05-09,1,0.0011847946351427568,0.0012975281471717883,-0.00567139522971585,0.010280312843983704,0.991678282557972
2017-05-11,1,0.0007313035817753844,0.000762393900674977,-0.005480087270120924,0.010280312843983704,0.9915938765169588
2017-05-15,1,0.0006811082513495832,0.0006972476752771851,-0.0031744971840550846,0.010280312843983704,0.9919367748288366
2017-05-17,1,0.00087092086307698,0.0009036323228951098,-0.002620778807173588,0.010191253935851812,0.9926752458693553
2017-05-19,1,0.0017118209171488007,0.0018593524788844272,-0.002620778807173588,0.0065760512294963346,0.9938339492035189
2017-05-23,1,0.0021701220586479164,0.0023637687108488663,-0.002620778807173588,0.004077045164719018,0.994721729716917
2017-05-25,1,0.002550340985983576,0.002788771325297021,-0.002620778807173588,0.004077045164719018,0.9952582240002278
2017-05-30,1,0.002589933255132752,0.0028485585396448203,-0.002620778807173588,0.0037092160863074113,0.9953258481127019
2017-06-01,1,0.0025181633974964844,0.0027836608678770925,-0.002620778807173588,0.0037092160863074113,0.9953535141087734
2017-06-05,1,0.0020400408492930056,0.0022104524298647487,-0.0038189321394764336,0.0037092160863074113,0.9952468784526742
2017-06-07,1,0.0016923248842255982,0.0018102276999419668,-0.0038189321394764336,0.004012308012855567,0.9953956121050918
2017-06-09,1,0.0015196456053749787,0.001625680636805054,-0.0024011723261719697,0.004618571323671266,0.9954824229294768
2017-06-13,1,0.0016796598828262128,0.001801466858631091,-0.0024011723261719697,0.004618571323671266,0.9951741189611459
2017-06-15,1,0.0017843916170047866,0.0019317661682215406,-0.002464842701517612,0.004012308012855567,0.9952597780418251
2017-06-19,1,0.0015792620397568386,0.0016892479331990624,-0.003105798539264605,0.0034198252547421827,0.9951941241177665
2017-06-21,1,0.0014085571027112785,0.0014788502049153658,-0.003105798539264605,0.004848310459702026,0.9948804688927273
2017-06-23,1,0.001409840957663706,0.0014704641522629556,-0.003105798539264605,0.0034198252547421827,0.9949232821951906
2017-06-27,1,0.0008145271916662008,0.0008481944550065389,-0.002589956701964222,0.0034198252547421827,0.9952723708678722
2017-06-29,1,0.0005401516391197642,0.0006021521938041352,-0.000610602429050279,0.003195227853237441,0.9960603984265959
2017-07-03,1,0.00016650809004276318,0.00025508007067660116,0.0,0.003195227853237441,0.9962410936590326
2017-07-06,0,-4.140709765631064e-05,6.878719965768004e-05,0.0,0.002905322715493445,0.9960173021627824
2017-07-10,1,0.00032314491370299633,0.000391168818268949,0.0,0.002905322715493445,0.9963909444556321
2017-07-12,1,0.0009725967877381241,0.0010026362882973698,-0.0007739651051563042,0.002834565357341488,0.9969506184150876
2017-07-14,1,0.0008574257757247914,0.0008915082239942836,-0.0020883591437117306,0.0027547584294152915,0.9968673439865255
2017-07-18,1,0.0008196964344096786,0.0008530785945518138,-0.0007739651051563042,0.0027547584294152915,0.9968903465147332
2017-07-20,1,0.0013338449942244352,0.0014362246497464277,-0.00253690046194505,0.00205052440769434,0.9935891022105667
2017-07-24,1,0.001412617586329772,0.0015364537272988628,-0.0028243525993284914,0.002363711814741455,0.9932790553052072
2017-07-26,1,0.001329174070809893,0.0014226730763111286,-0.0028243525993284914,0.002594832328869784,0.9927873846275386
2017-07-28,1,0.0012824617669237811,0.0013542124610119916,-0.002905011795791069,0.002936243307341512,0.9923524012689087
2017-08-01,1,0.001055881144540972,0.0010796578447109923,-0.002905011795791069,0.005156941451895305,0.992059893537588
2017-08-03,1,0.0009314149065033719,0.0009600800416743615,-0.0028243525993284914,0.005615593506685969,0.9920622835660858
2017-08-07,1,0.0009803589622453604,0.0010118802564011314,-0.0035946483168336997,0.0052080345900273415,0.9916037141169637
2017-08-09,1,0.0007069103592957143,0.0007173136562737247,-0.0036186006980050483,0.0052080345900273415,0.9915015193718927
2017-08-11,1,5.295587371837991e-05,0.00016382074374515668,-0.0036186006980050483,0.005340414559721493,0.9915265092039969
2017-08-15,1,9.878294962187116e-05,0.00021804804077192136,-0.005099090744934101,0.00506521513624048,0.9915585717690434
2017-08-17,-1,-0.0023815931220255767,-0.0019863177804997903,-0.0029129959228481853,0.00506521513624048,0.9946653181929765
2017-08-21,-1,-0.001999475002065046,-0.0016477949113319727,-0.0028441877094065884,0.00506521513624048,0.9948920657243774
2017-08-23,-1,-0.002179242172172708,-0.001778501304615581,-0.0036186006980050483,0.004816775771808635,0.9950423935492738
2017-08-25,-1,-0.002352736906701668,-0.001927582163559298,-0.0036186006980050483,0.004509649721903824,0.9951403454409594
2017-08-29,-1,-0.002201441755873363,-0.0017814663319198915,-0.0036186006980050483,0.004509649721903824,0.9954586110543197
2017-08-31,-1,-0.001519309121954339,-0.0011806290824353557,-0.0036186006980050483,0.0033983984280484894,0.9959715198354891
2017-09-05,-1,-0.001799688154549044,-0.0014540408850438075,-0.0028220270452879092,0.004621880614424251,0.9958134853516782
2017-09-07,-1,-0.001707884050669894,-0.0013808440217638678,-0.0020043698331544115,0.004621880614424251,0.995856493602799
2017-09-11,-1,-0.001616290748541686,-0.0012983013769220766,-0.0020043698331544115,0.005282777783638972,0.9955424826956272
2017-09-13,-1,-0.0016677759978496961,-0.0013572758709620237,-0.0020043698331544115,0.005282777783638972,0.9956339779359625
2017-09-15,-1,-0.0016251054228956178,-0.0013322908778491509,-0.0010098746540610076,0.005282777783638972,0.9954724544301011
2017-09-19,-1,-0.0013786811159321806,-0.0011284425281324422,-0.0016912843638537567,0.0046221855571289,0.9957494452474445
2017-09-21,-1,-0.0014700390354099977,-0.001198283734801619,-0.0013828547573455083,0.005282777783638972,0.9955390178819948
2017-09-25,-1,-0.0015704933340653028,-0.0013048703383767256,-0.000879686487596358,0.005616311737120038,0.9953763629787867
2017-09-27,-1,-0.001488982025881796,-0.001234922139798809,-0.000879686487596358,0.006316396836074951,0.9952643089023501
2017-09-29,-1,-0.0013616965095741783,-0.0011047538768859198,-0.000879686487596358,0.007836066081567733,0.9942358139238421
2017-10-03,-1,-0.00126127293671266,-0.0010008827098991566,-0.0013828547573455083,0.006470617880117536,0.9946000299803884
2017-10-05,-1,-0.0011526528889463437,-0.0009118322263319522,-0.002205464681258853,0.00837899821981505,0.994146591232183
