JNU-Tangyin/eata/results/Batch4_SP500/Batch4_SP500-LEG.csv
Date,Action,Predicted_Q25,Predicted_Q75,Actual_Q25,Actual_Q75,RL_Reward
2010-12-14,0,0.0,0.0,-0.005618573890749017,0.005437645763761776,0.9932945918678696
2010-12-16,0,0.0,0.0,-0.005618573890749017,0.00426440458069815,0.9941571398801592
2010-12-20,0,0.0,0.0,-0.005618573890749017,0.0032668810837363565,0.9949730114412032
2010-12-22,0,0.0,0.0,-0.005628950324904449,0.0013142031502828221,0.994423837411713
2010-12-27,0,0.0,0.0,-0.005619772442128747,0.00426440458069815,0.9944511415167253
2010-12-29,1,0.001608230556926886,0.0017565181352869478,-0.005619772442128747,0.005519124204178372,0.9932374008039185
2010-12-31,1,0.0021437373222793323,0.0023305638472382022,-0.005363368342307277,0.005519124204178372,0.9923426392343453
2011-01-04,1,0.0013029006624259605,0.0013550565421238405,-0.005363368342307277,0.005519124204178372,0.9923564463973001
2011-01-06,0,0.0,0.0,-0.00547992077716683,0.005519124204178372,0.992434404918891
2011-01-10,0,0.0,0.0,-0.004586330707022376,0.007689193467070669,0.9919934837221341
2011-01-12,-1,-0.0007072794982901484,-0.000570112148535218,-0.0053731386934112784,0.007689193467070669,0.9919994405598563
2011-01-14,0,-0.0002787031463290183,0.00010349288924941472,-0.0059884333667615045,0.008703809204334457,0.9902753383583046
2011-01-19,-1,-0.0011670846322701554,-0.0006645456382515182,-0.006537545712560327,0.01090772998161833,0.989212581012036
2011-01-21,-1,-0.00200083775928467,-0.001407836885223045,-0.004680149809520769,0.01090772998161833,0.9893771323351922
2011-01-25,-1,-0.0005760630090756256,-0.00023737002632023428,-0.009894074981834658,0.01090772998161833,0.9876018399921939
2011-01-27,1,0.00109162049054983,0.0011781293544095156,-0.009894074981834658,0.008732513729903064,0.9873609538468152
2011-01-31,-1,-0.0005150533284380747,-0.00022419834856064128,-0.009894074981834658,0.008732513729903064,0.9880617831774035
2011-02-02,1,0.0005221439829587477,0.0006537238488406327,-0.009894074981834658,0.013349632277869217,0.9869508295187187
2011-02-04,-1,-0.0003353802713180178,-9.577968629332007e-05,-0.012265213425053696,0.013349632277869217,0.9863541540683392
2011-02-08,1,0.0004880971922769933,0.000627620307518438,-0.012265213425053696,0.02077174793005751,0.9860572686189264
2011-02-10,1,0.001306326088425863,0.0013397728823014558,-0.0132484545636351,0.02077174793005751,0.9851343812797222
2011-02-14,1,0.0012155915329946695,0.0012312499866337498,-0.012265213425053696,0.009356293624709636,0.9864273754993655
2011-02-16,1,0.0020109585048066958,0.002155104725345261,-0.01345920229266104,0.005247162023281694,0.9869327105421433
2011-02-18,1,0.002348030920756192,0.002560421785229119,-0.01345920229266104,0.015099987214130913,0.9854828403338997
2011-02-23,1,0.00015808260122408092,0.000261858528753174,-0.00834813151840466,0.015099987214130913,0.9877155766063564
2011-02-25,1,0.0013697628302637387,0.0014388371938630648,-0.00834813151840466,0.01283319516119983,0.9881665578733391
2011-03-01,1,0.0014423124776562822,0.001576160479945093,-0.00714850205814763,0.013022219059126688,0.9882664769702021
2011-03-03,0,0.0,0.0,-0.00714850205814763,0.01283319516119983,0.9890888183939511
2011-03-07,0,0.0,0.0,-0.00714850205814763,0.01283319516119983,0.9895025460347406
2011-03-09,1,0.003091876794386614,0.003446630701075158,-0.00834813151840466,0.006750283362894042,0.9888682712815038
2011-03-11,1,0.0017096310072296918,0.0018806732630131506,-0.007380421047886911,0.006750283362894042,0.9898037243877961
2011-03-15,1,0.00030333439763973526,0.0003961242464827545,-0.00848679508624715,0.006750283362894042,0.9896263352183163
2011-03-17,-1,-0.0006679433611169803,-0.00046130025342941416,-0.004548593057049957,0.008158145845940924,0.990065709281215
2011-03-21,1,9.709412700018125e-05,0.0002628998440127278,-0.007178405759217006,0.0051943175527043115,0.9911046640996599
2011-03-23,-1,-0.00030523641073183295,-7.764506094842002e-05,-0.004901066914958582,0.007137892659647878,0.9905673690344339
2011-03-25,-1,-0.0003123741734050973,-4.251291174859966e-05,-0.004901066914958582,0.007137892659647878,0.9907990421679882
2011-03-29,1,0.000485651299951358,0.0006284620124502006,-0.004803979770285769,0.007137892659647878,0.9906034298046965
2011-03-31,1,0.0011867923220319264,0.0012426544907690124,-0.004690533358993493,0.008800436901370176,0.9879472606179461
2011-04-04,1,0.0003370219728120943,0.0005491890361337194,-0.003772702762487227,0.008800436901370176,0.9883119143545516
2011-04-06,0,0.0,0.0,-0.003772702762487227,0.008800436901370176,0.988833042302399
2011-04-08,0,0.0,0.0,-0.0034584585395201093,0.009336214965846417,0.9893823292456847
2011-04-12,0,0.0,0.0,-0.0034584585395201093,0.009336214965846417,0.989016815696398
2011-04-14,0,0.0,0.0,-0.003722392600996972,0.009336214965846417,0.9888910930208534
2011-04-18,0,0.0,0.0,-0.0014336106303648227,0.009336214965846417,0.9894772523280095
2011-04-20,-1,-0.0017418012458811762,-0.0013144067585254206,-0.0014336106303648227,0.008551450539552523,0.9896529963249813
2011-04-25,-1,-0.0012735041257742343,-0.00091134918115181,-0.00485907473870457,0.007307588551386623,0.9889987633719673
2011-04-27,1,0.00035906192939281215,0.0004598024912958563,-0.00485907473870457,0.00602865754229609,0.9900042143135018
2011-04-29,1,0.0036910428143598186,0.004040782587180824,-0.00485907473870457,0.004304868166431587,0.9931542891411155
2011-05-03,1,0.003466085458359763,0.003798101309517134,-0.006321661078413637,0.005868683756207065,0.9920937474533776
2011-05-05,0,0.0,0.0,-0.009869346097213603,0.005868683756207065,0.9911602947665986
2011-05-09,0,0.0,0.0,-0.012517429435008727,0.004304868166431587,0.9907954512125361
2011-05-11,0,0.0,0.0,-0.009869346097213603,0.004304868166431587,0.9915969623908425
2011-05-13,0,0.0,0.0,-0.012517429435008727,0.0032682140093180543,0.9904710503040539
2011-05-17,1,0.0037342402865842886,0.004078764118108881,-0.015265674302971946,0.004304868166431587,0.9874402326829254
2011-05-19,1,0.004386594710019239,0.004909779473585446,-0.015265674302971946,0.0024551035279911457,0.9867571323394517
2011-05-23,0,0.0,0.0,-0.010366559856139372,0.006642566908941926,0.9897318384898783
2011-05-25,1,0.0011526651685008313,0.0012556937723786584,-0.015146181394224334,0.006642566908941926,0.9888294314773992
2011-05-27,1,0.0025724064841421987,0.002824554726198823,-0.016574889303397664,0.007750289677307625,0.9874013653260325
2011-06-01,1,0.001667346503778186,0.0017931239125932585,-0.014485306681510475,0.008680216911189075,0.9877990934562974
2011-06-03,-1,-0.000308230982820291,-0.00016135143839048066,-0.008012618607963169,0.01132939779431364,0.9878688769627709
2011-06-07,0,0.0,0.0,-0.005720299460404285,0.01132939779431364,0.9883332787882303
2011-06-09,0,0.0,0.0,-0.008488854577687612,0.01132939779431364,0.9874044398329862
2011-06-13,0,0.0,0.0,-0.010585078431978144,0.01132939779431364,0.9879265641084032
2011-06-15,-1,-0.0014191540045603904,-0.001181100586877394,-0.009996402005194405,0.010810058252014351,0.9892594946233737
2011-06-17,-1,-0.0014330253726481854,-0.0011855841775279818,-0.01382539728188627,0.008486129140992366,0.9893110483224256
2011-06-21,-1,-0.0005324844501452678,-0.0004236789450035978,-0.01382539728188627,0.01132939779431364,0.9880132001087213
2011-06-23,-1,-0.0030928286558373616,-0.0025768098525276017,-0.009996402005194405,0.0121088485523245,0.988326531349184
2011-06-27,-1,-0.0029425482909744742,-0.0024775054393861343,-0.009996402005194405,0.0121088485523245,0.9888257502292015
2011-06-29,-1,-0.0016131569759925252,-0.0012703786588269175,-0.014794283883024274,0.0017521105845289167,0.98855602069982
2011-07-01,1,0.0006741923792402352,0.0007036004574413077,-0.01659667562363636,-0.0012838971789847174,0.9870622871421524
2011-07-06,1,0.00017074995649403332,0.0002597491351453712,-0.01910562081133505,-0.0007393698951866725,0.985113591099721
2011-07-08,-1,-0.0005028290947758212,-0.00036010270363506764,-0.01910562081133505,-0.0009521407224597776,0.9837633194758314
2011-07-12,-1,-0.0016192547935142258,-0.0013644340041646563,-0.02263781935749851,0.00021277082727310507,0.9784250346499993
2011-07-14,-1,-0.0021862029646128635,-0.0018778335198192625,-0.02263781935749851,0.0036297728579957095,0.9751891989258691
2011-07-18,0,0.0,0.0,-0.02263781935749851,0.01292304464295542,0.9734434974625668
2011-07-20,0,0.0,0.0,-0.02263781935749851,0.009009508638217393,0.973547956794198
2011-07-22,-1,-0.002310309563315667,-0.0019700019635917596,-0.02516235440497727,0.007477591872349018,0.9726437215127851
2011-07-26,-1,-0.001843738800034367,-0.0016145343764719703,-0.02516235440497727,0.009966711776467234,0.9706859929101879
2011-07-28,-1,-0.0038500803820861957,-0.0032846966773395314,-0.021541287163237166,0.01955741989798088,0.9704224783628331
2011-08-01,-1,-0.005161524484657292,-0.0045607048119802795,-0.01931662802023158,0.03294315023177763,0.968807650677626
2011-08-03,-1,-0.006550155639011388,-0.005727075679441758,-0.01716894720463425,0.03294315023177763,0.9696101095746364
2011-08-05,-1,-0.008926133455760423,-0.007807058498230481,-0.01716894720463425,0.03294315023177763,0.9711090900963548
2011-08-09,-1,-0.008270734324049924,-0.0071943775774150915,-0.014933199325034079,0.03294315023177763,0.9753572445810144
2011-08-11,-1,-0.0048541481509725565,-0.004260453594457426,-0.01716894720463425,0.02284429796578815,0.9774712747861733
2011-08-15,-1,-0.003300439351249045,-0.0028859466485391524,-0.01716894720463425,0.01881205921545617,0.9791471864255011
2011-08-17,-1,-0.004351522592655234,-0.00384846196895146,-0.014933199325034079,0.022147865243466812,0.9782577431947007
2011-08-19,-1,-0.004944492605583805,-0.004399551138480021,-0.013306270655670364,0.022147865243466812,0.9798387537842494
2011-08-23,-1,-0.0027665969572549256,-0.002526299928712484,-0.014933199325034079,0.01881205921545617,0.9805271804249882
2011-08-25,-1,-0.002405337147344634,-0.002187880736750996,-0.01738897080898697,0.010589259252203317,0.9810757009381587
2011-08-29,0,0.0,0.0,-0.01738897080898697,0.010589259252203317,0.9810399147134844
2011-08-31,0,0.0,0.0,-0.026720423101538264,0.010829118335772676,0.9796058440729126
2011-09-02,0,0.0,0.0,-0.03094109612843252,0.010829118335772676,0.9764318316798339
2011-09-07,0,0.0,0.0,-0.03094109612843252,0.02110500533140379,0.9744456280873008
2011-09-09,-1,-0.003643407875246607,-0.003180965263917385,-0.027376466351916567,0.026867971839185448,0.9742242535567295
2011-09-13,-1,-0.0032612016831167065,-0.0028884961684876916,-0.027376466351916567,0.029467848167166084,0.9716073512048892
2011-09-15,-1,-0.0016431110491630665,-0.0014817828377310656,-0.027376466351916567,0.028275833476828188,0.9732761944940205
2011-09-19,-1,-0.0011455468493257862,-0.0010811833513618687,-0.027376466351916567,0.028275833476828188,0.9721355424081146
2011-09-21,-1,-0.0009848538860014974,-0.0008430273944951285,-0.021801266900418444,0.028275833476828188,0.9731768030468696
2011-09-23,-1,-0.0019279688030928274,-0.0019265375420222134,-0.010704621102312437,0.030885980235542433,0.9728025850446127
2011-09-27,1,0.00015112038318017924,0.00041920149852239753,-0.01469382554534193,0.03016710478083818,0.9743708766804143
2011-09-29,1,9.147194027303953e-05,0.00038080945070281206,-0.013131690848819625,0.03016710478083818,0.9753488747610272
2011-10-03,-1,-0.0031695996654042473,-0.0030242779203679556,-0.013131690848819625,0.03016710478083818,0.9759461983627259
2011-10-05,1,0.0006224676822516748,0.0009589533498098417,-0.016194257620994888,0.0255712585598255,0.977954545209306
2011-10-07,1,0.0008894979966184344,0.0012794345563464271,-0.013131690848819625,0.02117475945098019,0.9802189287350463
2011-10-11,1,0.0031239157088228256,0.0038350429674807044,-0.013131690848819625,0.01852733468960697,0.9821168363068283
2011-10-13,1,0.002131984776925956,0.002646503619681039,-0.016194257620994888,0.02117475945098019,0.979801122726268
2011-10-17,0,0.0,0.0,-0.013131690848819625,0.02446026820115659,0.9798186805674827
2011-10-19,0,0.0,0.0,-0.014947587878409696,0.021137783573293677,0.9800654906881036
2011-10-21,0,0.0,0.0,-0.01595817879546517,0.017982925231375277,0.981206944518992
2011-10-25,0,0.0,0.0,-0.017693432458788235,0.013004645980218062,0.9813312074710401
2011-10-27,0,0.0,0.0,-0.023705190506006925,0.007012474867523065,0.98140227477953
2011-10-31,0,0.0,0.0,-0.01595817879546517,0.013197730305702305,0.9827714234524445
2011-11-02,0,0.0,0.0,-0.007980317304884273,0.013197730305702305,0.9837053119867966
2011-11-04,0,0.0,0.0,-0.007980317304884273,0.01810392049509354,0.983164742730224
2011-11-08,0,0.0,0.0,-0.007980317304884273,0.01629139100118552,0.9835048238753985
2011-11-10,0,0.0,0.0,-0.007980317304884273,0.01629139100118552,0.9842783233595264
2011-11-14,0,0.0,0.0,-0.01595817879546517,0.012593553807732964,0.9833196519523623
2011-11-16,0,0.0,0.0,-0.018257961828243203,0.012593553807732964,0.9828710360525542
2011-11-18,0,0.0,0.0,-0.010151708227174042,0.014889342280112877,0.982840839959182
2011-11-22,0,0.0,0.0,-0.003933007284043071,0.01705746435494848,0.9823463818761085
2011-11-25,0,0.0,0.0,-0.0012124325540745573,0.01705746435494848,0.9825527517921963
2011-11-29,1,0.0034856645445111105,0.004422105814279085,-0.002535409523762304,0.01571442220213578,0.9852629193266343
2011-12-01,1,0.0030913236870759734,0.003627895321128694,-0.005651307101176515,0.01542686753118866,0.9848407235271519
2011-12-05,1,0.003327392214870612,0.003868476365993759,-0.005651307101176515,0.015026739259920268,0.9856636949514793
2011-12-07,0,0.0,0.0,-0.013160844993727787,0.015026739259920268,0.9840796364953616
2011-12-09,0,0.0,0.0,-0.011292044023498829,0.013682493592433754,0.9855525183969812
2011-12-13,1,0.002354519944791236,0.0027776839393276135,-0.009494149472767239,0.013682493592433754,0.9881797197282981
2011-12-15,1,0.0013862181607492447,0.0016527768232388847,-0.007218436704412843,0.013682493592433754,0.988428434082469
2011-12-19,1,0.0011989304591528247,0.0013557033881173397,-0.007218436704412843,0.01379083269186998,0.9874916287085556
2011-12-21,1,0.0022853928829326773,0.002501292022657555,-0.010187790895498339,0.011031317500796563,0.9884173792394012
2011-12-23,1,0.002523070052615467,0.0027646445508193694,-0.010187790895498339,0.009698474519134085,0.9889020445712721
2011-12-28,1,0.0007140668734234297,0.0008181839399579077,-0.01139579183144548,0.009698474519134085,0.9882271967654179
2011-12-30,1,0.00025976207068107826,0.0003944448386245971,-0.013437825622837999,0.0088229116734217,0.9878971475330673
2012-01-04,1,0.0012437910756944144,0.0012919768331992453,-0.013437825622837999,0.011031317500796563,0.9860902478694611
2012-01-06,1,0.0005243502738041574,0.0005441423340777566,-0.01139579183144548,0.01281663655283422,0.98552509980171
2012-01-10,-1,-0.0006405309428247414,-0.0004192919575460554,-0.013437825622837999,0.01281663655283422,0.9832816487257575
2012-01-12,-1,-0.0009753374157029851,-0.0006674790100609531,-0.01634373666196155,0.01281663655283422,0.9826452250314555
2012-01-17,-1,-0.0003983875078159228,-0.0002117366628369969,-0.01634373666196155,0.011842597872595506,0.9829151482690002
2012-01-19,1,0.0009327839067411837,0.0009612079400501479,-0.01634373666196155,0.009226440644777949,0.9838084411985847
2012-01-23,1,0.0009386904463046939,0.0010317278759437243,-0.013437825622837999,0.009458541700214977,0.9845626268253506
2012-01-25,1,0.0017719249280161533,0.0019942409777815844,-0.013437825622837999,0.009458541700214977,0.9842793972482483
2012-01-27,1,0.0002870952626298362,0.00031405107791283014,-0.006833760538861163,0.013136739893958221,0.9848447959984381
2012-01-31,-1,-0.0007162070879702478,-0.000628941714637416,-0.002401237645169575,0.013136739893958221,0.9871867210429206
2012-02-02,-1,-0.0001797285659855917,-6.433876081998329e-05,-0.006833760538861163,0.008036171861001478,0.9881711988728541
2012-02-06,1,0.0007639634862938296,0.0007808815412096912,-0.009022626879134741,0.008036171861001478,0.9872496626353081
2012-02-08,-1,-0.0008941821645867573,-0.0007287446021207319,-0.006833760538861163,0.009040823013092758,0.9896178315175853
2012-02-10,-1,-0.0018087727397347784,-0.0015365255393095232,-0.003333380257299604,0.011776191990177728,0.9893744110434813
2012-02-14,-1,-0.0026116196478752777,-0.002161074233383376,-0.005324224718951449,0.012135037497934532,0.9887162432996051
2012-02-16,-1,-0.0027153577558055317,-0.0022079355059275857,-0.005324224718951449,0.012242429340348367,0.9886046330962059
2012-02-21,-1,-0.0018264631400190245,-0.0015091700778319251,-0.007862029788216825,0.012242429340348367,0.9888578997325598
2012-02-23,-1,-0.0009996301726773226,-0.0007750256258965825,-0.008665523689922692,0.011478088472307777,0.9895722670906917
2012-02-27,-1,-0.0025401978388741604,-0.0019801989343451068,-0.009457306522791436,0.011478088472307777,0.9893704246830258
2012-02-29,-1,-0.0007293104202251212,-0.0005513080121574848,-0.009457306522791436,0.011478088472307777,0.9889043042713008
2012-03-02,-1,-0.0018042166415218285,-0.001482748507631646,-0.007862029788216825,0.011478088472307777,0.9897896495965596
2012-03-06,-1,-0.00040904573194196746,-0.0003414567542550992,-0.005664331996280624,0.008380689857802368,0.9924205030672029
2012-03-08,-1,-0.0007792280526815554,-0.0006343888120329,-0.0061390879189520235,0.007237854226996486,0.9925740995363773
2012-03-12,0,-4.711563470591616e-05,2.4026041005192667e-05,-0.008496186479486648,0.005360177261083386,0.9909369748021043
2012-03-14,-1,-0.00010149230438078144,-5.518285781346401e-05,-0.008125957399173073,0.006075159288266678,0.9903423965048325
2012-03-16,1,0.001045539617184365,0.0012249493246619643,-0.008125957399173073,0.005360177261083386,0.9907763724222362
2012-03-20,1,0.0008471775749476119,0.001000448936382233,-0.005412200772710162,0.007391311860464583,0.9902913236618254
2012-03-22,1,0.000733981697182889,0.0008901640079919716,-0.005412200772710162,0.007626775847896232,0.989910056436924
2012-03-26,-1,-6.824224051285945e-05,-1.0905416518039424e-05,-0.0010133455237201535,0.007626775847896232,0.9902294940872133
2012-03-28,1,8.455003021006676e-05,0.00012924122917553366,-0.0010133455237201535,0.008796655221923208,0.9899484451711164
2012-03-30,1,0.0002554260326707016,0.0002680125078641965,-0.006705561995352146,0.008796655221923208,0.9862001218120111
2012-04-03,1,0.0009161699929652231,0.0010358628244577324,-0.006705561995352146,0.010576395130770043,0.9860471245174705
2012-04-05,1,0.0006453749280324856,0.0006971036563333513,-0.010312378611215107,0.010576395130770043,0.9853999040415273
2012-04-10,0,0.0,0.0,-0.007048980371728743,0.010576395130770043,0.9877570006765409
2012-04-12,0,0.0,0.0,-0.008990153506862513,0.007626775847896232,0.9879783716221004
2012-04-16,0,-7.772811350971129e-06,2.065910015728147e-05,-0.010312378611215107,0.007626775847896232,0.9877228871623219
2012-04-18,-1,-0.0004180605371868335,-0.00020408722522334717,-0.010312378611215107,0.003189350973322188,0.9890262964586759
2012-04-20,-1,-0.0017054493993097994,-0.00125819048186298,-0.010718829201500232,0.0014771937714826403,0.9891000574305903
2012-04-24,0,0.0,0.0,-0.010718829201500232,0.003189350973322188,0.987957060890121
2012-04-26,0,0.0,0.0,-0.010718829201500232,0.00459010550343478,0.9876980996503679
2012-04-30,0,0.0,0.0,-0.008731180708620973,0.006939103724365332,0.9908345017505292
2012-05-02,0,0.0,0.0,-0.009463255432579594,0.00459010550343478,0.990970992160803
2012-05-04,0,0.0,0.0,-0.011810926529682826,0.00459010550343478,0.9896141739989208
2012-05-08,0,0.0,0.0,-0.011810926529682826,0.00828508515990182,0.9887814498396796
2012-05-10,-1,-0.0043240821498324285,-0.0038060480486721646,-0.009463255432579594,0.011129804919225814,0.988303230233319
2012-05-14,-1,-0.004319265569977677,-0.00382149896034859,-0.009463255432579594,0.012322567073398015,0.9872461383690329
2012-05-16,-1,-0.003362433327384861,-0.0030617018224565655,-0.012374986664961077,0.012322567073398015,0.9858636512021326
2012-05-18,0,0.0,0.0,-0.0049023798129324905,0.012735499460517438,0.9867193964224975
2012-05-22,0,0.0,0.0,-0.011817876791232702,0.011902339011688776,0.986952364228027
2012-05-24,-1,-0.002755290449580937,-0.002583593539385301,-0.01514117696300334,0.011267449048265621,0.986211478386334
2012-05-29,-1,-0.002136661551626864,-0.0020480922361689946,-0.017860295088394176,0.011267449048265621,0.9853771300846403
2012-05-31,-1,-0.002670305384208347,-0.002507232079086496,-0.017860295088394176,0.01329547644755576,0.9842300638447241
2012-06-04,0,0.0,0.0,-0.006801965227700152,0.015969598473117044,0.9850341854974994
2012-06-06,0,0.0,0.0,-0.006801965227700152,0.01329547644755576,0.9859190222135686
2012-06-08,0,0.0,0.0,-0.011368546525296761,0.012342815248561295,0.9863549610673477
2012-06-12,0,0.0,0.0,-0.006151661997884365,0.011277470376848224,0.9879387432476664
2012-06-14,-1,-0.001507353897608965,-0.0014063666215079487,-0.00438266542625188,0.012342815248561295,0.9885335887415083
2012-06-18,-1,-0.0006043520576328158,-0.0006011827987167463,-0.005671397310825102,0.01130501422660132,0.9886321133647481
2012-06-20,0,0.0,0.0,-0.00438266542625188,0.01329547644755576,0.9883379312059092
2012-06-22,0,0.0,0.0,-0.0046604528151025304,0.01329547644755576,0.9887462003257359
2012-06-26,-1,-0.003577402058370486,-0.0032176743531339806,-0.004351859819651957,0.0133595095239115,0.9889505232929973
2012-06-28,0,0.0,0.0,-0.004351859819651957,0.012623443867019142,0.9892108017050021
2012-07-02,0,0.0,0.0,-0.0040227385093507765,0.011954730357424465,0.9900629726085707
2012-07-05,0,0.0,0.0,-0.0046604528151025304,0.011900537423845538,0.9901356800731187
2012-07-09,-1,-0.0012992036570043208,-0.0011249286691801736,-0.0040227385093507765,0.011900537423845538,0.9897552607159301
2012-07-11,-1,-0.0011221554172161595,-0.000993748886272404,-0.002203947382783025,0.012230661477461949,0.9887656743433163
2012-07-13,-1,-0.00016047825430176755,-0.00014855535677326445,-0.004058147217384211,0.010969320809295132,0.9899773116334296
2012-07-17,1,0.00032628174899002586,0.00042084816191867745,-0.0029082232315031783,0.010729991857798334,0.9908900381791776
2012-07-19,1,0.0014916668230566697,0.0017762033980368449,-0.0029082232315031783,0.010729991857798334,0.9913775666867592
2012-07-23,1,0.0007980616752651907,0.0009874235457356536,-0.0016936393894630372,0.010729991857798334,0.9913946472744218
2012-07-25,1,0.0008359595788792626,0.000973572440151673,-0.0012829810121005663,0.010252532554675854,0.9921784331356609
2012-07-27,1,0.002156044291762975,0.002483442168536815,-0.0012829810121005663,0.010252532554675854,0.9930853331203279
2012-07-31,1,0.003037352351236925,0.003492347367915402,-0.0029082232315031783,0.006130824309791442,0.9931936732514275
2012-08-02,0,0.0,0.0,-0.002541026326621544,0.006130824309791442,0.9942451608449069
2012-08-06,0,0.0,0.0,-0.0012671847092335289,0.010250176480047528,0.9946045316798175
2012-08-08,0,0.0,0.0,-0.002541026326621544,0.005001006130870504,0.9950233851249529
2012-08-10,0,0.0,0.0,-0.000534963886161354,0.005514029066534346,0.9949948154324081
2012-08-14,0,0.0,0.0,-0.0012671847092335289,0.009756721974428118,0.994256301435268
2012-08-16,0,0.0,0.0,-0.0012671847092335289,0.009808945986070499,0.9939431841021774
2012-08-20,1,0.003569434835218187,0.004184652246127576,-0.0026939217548764267,0.009640819966532044,0.9941234259327725
2012-08-22,1,0.00360529626185179,0.004225884327541458,-0.0033378900980777764,0.009902470456359308,0.9931722130909337
2012-08-24,1,0.004358928204833405,0.005094496543138429,-0.004174070254952469,0.009640819966532044,0.992797479806533
2012-08-28,1,0.0038939676141044165,0.00456901117898614,-0.004519135384740181,0.009640819966532044,0.9922159167086082
2012-08-30,0,0.0,0.0,-0.004519135384740181,0.010724049238152551,0.990844553940399
2012-09-04,0,0.0,0.0,-0.008092817253654174,0.010095769803597901,0.9902001084944307
2012-09-06,1,0.00033477673272953043,0.00038473966946599343,-0.008092817253654174,0.01135862605081275,0.9898812787271201
2012-09-10,0,0.0,0.0,-0.008092817253654174,0.01135862605081275,0.9896090414394179
2012-09-12,0,0.0,0.0,-0.007411779355202698,0.010679396898925893,0.990044037789297
2012-09-14,0,0.0,0.0,-0.007411779355202698,0.008945675907993274,0.9909476132135862
2012-09-18,0,0.0,0.0,-0.006493707013131969,0.011656344387734512,0.9899025332067921
2012-09-20,1,0.00421874920481249,0.0047546872140244245,-0.004980779192366277,0.011656344387734512,0.9900648351430119
2012-09-24,0,0.0,0.0,-0.004980779192366277,0.011656344387734512,0.9903558691442215
2012-09-26,0,0.0,0.0,-0.005762022501012223,0.011656344387734512,0.9907369760968013
2012-09-28,1,0.0015430950796652995,0.0016981923901471666,-0.005762022501012223,0.008696566184566577,0.9915293484935878
2012-10-02,0,0.0,0.0,-0.0048598576745531715,0.013654415024626148,0.9890947024729532
2012-10-04,1,0.0022756663984591337,0.002405746871763684,-0.0052349718866734705,0.011031794006792075,0.9894996260272422
2012-10-08,1,0.002350537394780922,0.0024705865104215794,-0.005762022501012223,0.009257146752746904,0.988895990456334
2012-10-10,1,0.0012367332072357423,0.001312024281444229,-0.006264652505131786,0.009257146752746904,0.9890228977626604
2012-10-12,1,0.0013044950052509088,0.001334417106325063,-0.007123476341815064,0.009257146752746904,0.9886126221472865
2012-10-16,0,0.0,0.0,-0.00736446844655702,0.004822326667624167,0.989831834320382
2012-10-18,0,0.0,0.0,-0.00736446844655702,0.004822326667624167,0.9895856088260585
2012-10-22,0,0.0,0.0,-0.007123476341815064,0.004822326667624167,0.9900785515625438
2012-10-24,0,0.0,0.0,-0.007123476341815064,0.008163307572351636,0.9895381878721207
2012-10-26,0,0.0,0.0,-0.007123476341815064,0.008163307572351636,0.9897854273518035
2012-11-01,0,0.0,0.0,-0.007123476341815064,0.00459554318949041,0.9921727768776242
2012-11-05,0,0.0,0.0,-0.007123476341815064,0.008163307572351636,0.9912167164377211
2012-11-07,0,0.0,0.0,-0.007123476341815064,0.006518025588480931,0.9907335860130553
2012-11-09,0,0.0,0.0,-0.007123476341815064,0.006518025588480931,0.9907333507624276
2012-11-13,1,0.001359106767994217,0.0015268615638786838,-0.006471025210118326,0.006518025588480931,0.9908508113013581
2012-11-15,1,0.0006616110026730969,0.0009793185438311943,-0.006471025210118326,0.006518025588480931,0.9911038324799782
2012-11-19,1,0.001460809342427728,0.0016759932297895895,-0.006471025210118326,0.006259920969702621,0.9905196441882245
2012-11-21,1,0.0013715971874075274,0.0015512386329578067,-0.006471025210118326,0.008167836783981553,0.9903027208219716
2012-11-26,1,0.001521098909309694,0.0016578252432115452,-0.006471025210118326,0.0046830877996264855,0.9899345172378431
2012-11-28,1,0.0017934775350976048,0.0018945326655159626,-0.006471025210118326,0.0030532766668375884,0.9898870062610129
2012-11-30,1,0.0018923472688992683,0.001991280185878154,-0.007310946207792624,0.0030532766668375884,0.9893397526088571
2012-12-04,1,0.0017887321438594364,0.0019509765225607988,-0.006471025210118326,0.005431518191272059,0.9898778580337777
2012-12-06,1,0.001397341414336984,0.0015596541151200287,-0.0059667740976891955,0.005431518191272059,0.9903379951112691
2012-12-10,1,0.0004100109000652627,0.0006902966139567627,-0.005132824810696268,0.005431518191272059,0.9908520181126086
2012-12-12,1,0.0005179089548182703,0.0007554366201789215,-0.001960506029200913,0.007846007618132004,0.9905092311703174
2012-12-14,-1,-0.00037374950620781594,-4.725226391156384e-06,-0.0008296422783895664,0.007846007618132004,0.9904067585939236
2012-12-18,1,0.0012162033746401422,0.001377349342855281,-0.001640503595294036,0.005431518191272059,0.9915401566305182
2012-12-20,1,0.0014489239384695462,0.0015340196250825254,-0.002109375516764428,0.006410747606763195,0.9913193060965187
2012-12-24,1,0.0009390773965998232,0.0010482098949141992,0.0010584829840876771,0.010783695864605413,0.9918031000180764
2012-12-27,1,0.0005614832455789083,0.0007342564634422071,0.0010010930718508703,0.010783695864605413,0.9914879625730416
2012-12-31,1,0.0014065766877928419,0.0015175402409515091,0.0012551326476324632,0.00724395124709939,0.9935355393458988
2013-01-03,1,0.001894008274453538,0.001912832666952079,-0.0005905700988817619,0.00611057159049161,0.9940798194360358
2013-01-07,1,0.0003947017960544125,0.0006127047023212184,-0.0005905700988817619,0.00724395124709939,0.9931106568354625
2013-01-09,1,0.000500029448832071,0.0007025231095154754,-0.0014515895544798645,0.010685155121163827,0.9925253095836211
2013-01-11,1,0.001808583090631643,0.0018137570507783527,-0.002109375516764428,0.00724395124709939,0.9929331938420186
2013-01-15,1,0.001414074196906705,0.0014859712083412626,-0.002109375516764428,0.010917796711157456,0.9921751556903898
2013-01-17,1,0.001734577634352771,0.0017761426597998498,-0.0014515895544798645,0.010917796711157456,0.9926481757767285
2013-01-22,1,0.0022662264062440554,0.002312742972720362,-0.0025665149391022124,0.010917796711157456,0.9918817952516152
2013-01-24,1,0.0022451558236103236,0.0022680373936341237,-0.005555238748909448,0.007276108796746344,0.9919858730297924
2013-01-28,1,0.002449072856706585,0.0025042795487584257,-0.006733280284484757,0.010917796711157456,0.9905887095482189
2013-01-30,1,0.002684575944955805,0.0027779790601120914,-0.006733280284484757,0.011255453169420122,0.9896432434438598
2013-02-01,1,0.002242092496466795,0.002285847610460255,-0.005555238748909448,0.011255453169420122,0.9899588025886431
2013-02-05,1,0.0025856562687897465,0.0026605188790765027,-0.0025665149391022124,0.011255453169420122,0.9909640259425129
2013-02-07,1,0.0026639404556523527,0.0027462953773861355,-0.0006592820434190201,0.010956393223532153,0.9914435784091976
2013-02-11,1,0.002460014503737565,0.0025662589444226205,0.002286796606605693,0.011504627574520847,0.9911977426288445
2013-02-13,1,0.0028267306537306134,0.0029446253920987716,-0.0001687720038476998,0.009619633710314327,0.9916521726996659
2013-02-15,1,0.002901534297139429,0.003059583340148865,-0.0027590475175244293,0.007349768366809818,0.9915888949926799
2013-02-20,1,0.0018303205992850154,0.0018550536590685959,0.002286796606605693,0.009936021982580825,0.9916662581994927
2013-02-22,1,0.0014637800219106138,0.0015784024945388988,0.002286796606605693,0.009936021982580825,0.9911695057868183
2013-02-26,1,0.0019885172571844616,0.001992648009304508,0.002286796606605693,0.009386479773338938,0.9925056783602495
2013-02-28,1,0.0021481866989208724,0.0021861062493601377,0.002286796606605693,0.009386479773338938,0.9932589837808469
2013-03-04,1,0.0026117975145033617,0.0026556503569687656,1.003269861241541e-05,0.009386479773338938,0.9930938190433842
2013-03-06,1,0.0030741650920170366,0.0031896375519123816,-0.0022226334101440835,0.007089109740167526,0.9925038006825635
2013-03-08,1,0.0029636320593240026,0.0030539640091906675,-0.0022226334101440835,0.007617671959237613,0.9919417538892721
2013-03-12,1,0.0035499179612965095,0.003678066684434495,-0.006613782292065017,0.007569866866567322,0.9915019036809389
2013-03-14,1,0.0036003015680722604,0.003807984013579534,-0.002686330827542197,0.011375678591911798,0.9914782895376671
2013-03-18,1,0.0037910222300154696,0.004046782587748709,-0.002831331191696889,0.012814975764850321,0.9892691580735108
2013-03-20,1,0.004103819137937326,0.004360600367079401,-0.010702095510829304,0.011375678591911798,0.9876502728852152
2013-03-22,1,0.003203887332741415,0.0033276254326564656,-0.008847567747767246,0.012814975764850321,0.9876790555183292
2013-03-26,1,0.0031835949956028893,0.0033320886482635873,-0.008847567747767246,0.013774465349409694,0.9873955200888315
2013-03-28,1,0.004407396275655163,0.004854772526882307,-0.011460100812847481,0.013088183282857492,0.9859476201977158
2013-04-02,1,0.003796046826475046,0.0041257115737488945,-0.011460100812847481,0.013088183282857492,0.9858710580837726
2013-04-04,1,0.0027103458417664372,0.00287732549669355,-0.011460100812847481,0.01514257879121121,0.9857653283666263
2013-04-08,1,0.0031134364543007084,0.0032900036262615505,-0.011460100812847481,0.01514257879121121,0.9851342266508977
2013-04-10,1,0.0026255637612902743,0.0026948698685953483,-0.009988432704798468,0.014776568426264111,0.9856037436853244
2013-04-12,1,0.0027194732798195634,0.002764185291248231,-0.009988432704798468,0.014776568426264111,0.9855583544398104
2013-04-16,1,0.002683423026475135,0.00278292102862832,-0.007171084792570484,0.011608468037913381,0.9879883370962143
2013-04-18,1,0.0009808786810824091,0.0010927582644656543,-0.00423129490100083,0.011608468037913381,0.9890120756635707
2013-04-22,1,0.002267520372343612,0.002312681793920125,-0.007171084792570484,0.010875439195605135,0.9892457576573593
2013-04-24,1,0.002638842238398667,0.0027442612942024025,-0.008094927453527542,0.009404230036284485,0.9889331883409991
2013-04-26,1,0.0020110143528293207,0.0020822256373890504,-0.008094927453527542,0.009404230036284485,0.9901329902593069
2013-04-30,1,0.001193841073670587,0.0012379454511382121,-0.009569081195243433,0.009404230036284485,0.989097442516938
2013-05-02,1,0.0004736529511745384,0.0006505846243506695,-0.009569081195243433,0.007759769377394313,0.9903060899699739
2013-05-06,1,0.00034256237840118336,0.0005620077851992718,-0.010120506876555111,0.006127204855785058,0.9907931955782355
2013-05-08,1,0.0006734739725947268,0.0008874145832441957,-0.010506030868314,0.006017987305724523,0.990095017689277
2013-05-10,1,0.0005840954172783684,0.0008270712626134187,-0.010506030868314,0.006017987305724523,0.9902381826946659
2013-05-14,1,0.001505624135413436,0.0015700334849222848,-0.010506030868314,0.005016563969633002,0.9898945675157403
2013-05-16,1,0.0011376313184653514,0.0012542010260050728,-0.010120506876555111,0.0054348275795106545,0.9897530033039069
2013-05-20,1,0.00028455654306994366,0.0005677776427411521,-0.010120506876555111,0.007298451587205611,0.9905082211848214
2013-05-22,-1,-0.0004979983312908584,-0.00013371016943611704,-0.010658657378972893,0.007298451587205611,0.9886832724887513
2013-05-24,-1,-0.0009759304442844184,-0.0006156624215208747,-0.012535957642781408,0.007298451587205611,0.988237359896692
2013-05-29,-1,-0.0009895653554679563,-0.0006408627384749814,-0.010581199317561457,0.008665611507707739,0.9886525111682818
2013-05-31,-1,-0.002127520645773144,-0.0016049743376475526,-0.009583629595841024,0.010650907586867629,0.9884965757820954
2013-06-04,-1,-0.0028667164714977437,-0.0022703607631207054,-0.010019017508213806,0.010650907586867629,0.9883111822017872
2013-06-06,-1,-0.002265391177660785,-0.00174552212753678,-0.008917349734941212,0.009156938591790557,0.989160153584667
2013-06-10,0,0.0,0.0,-0.009308889544156719,0.009156938591790557,0.9884592458109188
2013-06-12,0,0.0,0.0,-0.008882553931814252,0.011039603378612888,0.9879195915222754
2013-06-14,-1,-0.0014897314965234983,-0.0011528720801407244,-0.008882553931814252,0.009156938591790557,0.9888642938116307
2013-06-18,0,0.0,0.0,-0.009914630098832925,0.009156938591790557,0.9886304347163141
2013-06-20,0,0.0,0.0,-0.004592636161610188,0.009156938591790557,0.9914173312950061
2013-06-24,0,0.0,0.0,-0.002675909865430312,0.009156938591790557,0.9920798930081002
2013-06-26,0,0.0,0.0,-0.003735246483344172,0.0062154144233208634,0.9922913839303659
2013-06-28,0,0.0,0.0,-0.006310384897016205,0.005776708688168427,0.9914406240862486
2013-07-02,0,0.0,0.0,-0.00320498835398615,0.0073676731173393135,0.9912579920093002
2013-07-05,0,0.0,0.0,-0.00320498835398615,0.007763422258488188,0.9910646873495136
2013-07-09,0,0.0,0.0,-0.0055582834735180275,0.0062154144233208634,0.9915485759808644
2013-07-11,0,0.0,0.0,-0.00780580322265243,0.006190976613703781,0.9915419755677969
2013-07-15,0,0.0,0.0,-0.00780580322265243,0.006190976613703781,0.9915479263782289
2013-07-17,0,0.0,0.0,-0.008062833073332377,0.005776708688168427,0.9914627302508245
2013-07-19,0,0.0,0.0,-0.013535097224712503,0.006190976613703781,0.9901984902829085
2013-07-23,0,0.0,0.0,-0.014050973853256592,0.005987243880047986,0.9899413959509672
2013-07-25,0,0.0,0.0,-0.014889556869895421,0.005281924159513529,0.9898262556267328
2013-07-29,0,0.0,0.0,-0.014050973853256592,0.006027681385317275,0.9911704054893635
2013-07-31,0,0.0,0.0,-0.014889556869895421,0.002840437313092394,0.9911420384702614
2013-08-02,0,0.0,0.0,-0.014889556869895421,0.0025753508482920288,0.9913138611286939
2013-08-06,-1,-0.0007022050319463653,-0.000608428734605709,-0.014050973853256592,0.004550665666757741,0.9919118086488837
2013-08-08,-1,-0.0010857490101361363,-0.0009414367278671996,-0.009890619173205824,0.004550665666757741,0.9925003181739287
2013-08-12,-1,-0.0006068944374664785,-0.0005417640573487158,-0.009890619173205824,0.005016957224838468,0.9911703059265772
2013-08-14,-1,-0.0017024973369341597,-0.0015051357228652524,-0.0036136139605621063,0.005776519755579298,0.9912198668436789
2013-08-16,-1,-0.001414712712684537,-0.0012634064155307677,-0.0015506337472362525,0.005776519755579298,0.9922331232021745
2013-08-20,-1,-0.0014543763108169983,-0.0013402238532816684,-0.0013167736279097034,0.0059132114299736555,0.9922211752747859
2013-08-22,-1,-0.0029281720382812767,-0.00266650855447032,-0.0015506337472362525,0.0059132114299736555,0.991613593243047
2013-08-26,-1,-0.002750736848223448,-0.0024588888974419387,-0.003519994372756354,0.006793787720613501,0.9914852868265455
2013-08-28,-1,-0.0030088084448520566,-0.00272910726300781,-0.001491452486992566,0.006793787720613501,0.9917864526432181
2013-08-30,-1,-0.0028886606714952166,-0.0026354261180536586,-0.003285259887627981,0.006793787720613501,0.9918828983988536
2013-09-04,-1,-0.0020704779993497143,-0.0019350910524447897,-0.007151763062185777,0.006793787720613501,0.9919460762950977
2013-09-06,-1,-0.0018032517380492906,-0.0016896249339852483,-0.007862431969076687,0.006793787720613501,0.9915418521463589
2013-09-10,-1,-0.0016141260032090576,-0.0014447077598155461,-0.009499735289884837,0.003509901512632167,0.9917862982898776
2013-09-12,-1,-0.0005629408126904652,-0.0005468613101975239,-0.009499735289884837,0.006793787720613501,0.9907813432660947
2013-09-16,-1,-0.00013644411778689102,-2.5327321843352435e-05,-0.009499735289884837,0.005951654114242205,0.9908754017858287
2013-09-18,0,-6.92826161323868e-05,4.8086276005820765e-05,-0.011345562863154796,0.004353325307556212,0.990624115869618
2013-09-20,-1,-0.0010939177671975982,-0.0010599751988747013,-0.008599542617438984,0.004353325307556212,0.9914968949608495
2013-09-24,-1,-0.0005678165548983029,-0.0005360494863444822,-0.008599542617438984,0.004353325307556212,0.9916363869582658
2013-09-26,-1,-0.0006618602286086637,-0.0006117410861419693,-0.008599542617438984,0.0052395693875639604,0.9915485744403532
2013-09-30,-1,-0.0005591943376182082,-0.0004104551675379768,-0.009778686132511871,0.006784843597004193,0.9908155814828756
2013-10-02,1,0.00019008408236162168,0.0003574129039091578,-0.011775050247365007,0.006850891469135285,0.990518521910858
2013-10-04,0,-8.352903690988644e-05,7.64707448937995e-05,-0.009878691728316609,0.006850891469135285,0.9906741648381162
2013-10-08,-1,-0.0020182833302179286,-0.0019685650453686336,-0.006051092558991325,0.00890955178534604,0.9910229753050325
2013-10-10,-1,-0.0005041914220147975,-0.0003075283978812778,-0.008466708861922507,0.0052395693875639604,0.9922992120030893
2013-10-14,1,0.00033304442179909295,0.00051820312778071,-0.008466708861922507,0.006415915954975685,0.9921844183720802
2013-10-16,1,2.3031713949295967e-05,0.00016231960772632533,-0.006051092558991325,0.006415915954975685,0.9930006472780454
2013-10-18,-1,-0.0001644069321850948,-8.725989129825256e-05,-0.006051092558991325,0.00867471049911263,0.9925136364125932
2013-10-22,1,0.0001002483588112111,0.00019171170589438652,-0.006051092558991325,0.006415915954975685,0.9931321397299511
2013-10-24,1,0.0012919800382862378,0.0015107045508889229,-0.006051092558991325,0.00867471049911263,0.9923758502250926
2013-10-28,1,0.003006484973817527,0.0035484858551041573,-0.005374082630665745,0.005626814504339192,0.9932911806705339
2013-10-30,1,0.002129381166649082,0.002471184364947999,-0.005374082630665745,0.005626814504339192,0.9937460813740336
2013-11-01,1,0.000616024653339116,0.0007429416296484217,-0.002349193314992783,0.005626814504339192,0.9939253237029797
2013-11-05,1,5.871775924988872e-05,0.00017550880726819213,-0.002349193314992783,0.004410725611679357,0.9941570434119312
2013-11-07,0,-0.00011158967349636202,1.7797752967897674e-05,-0.0021985265735153846,0.005826948732265382,0.993989386840393
2013-11-11,-1,-0.0008589412580194347,-0.000781534993582666,-0.00492072790595564,0.005193948959539608,0.9936379970997193
2013-11-13,-1,-0.0012690696709238903,-0.0010996272601093105,-0.005871485282370549,0.0058322845127900085,0.9924256191381813
2013-11-15,-1,-0.00027249679574772173,-0.0002635286319107091,-0.005871485282370549,0.0058322845127900085,0.9923562439745525
2013-11-19,-1,-9.963739028359897e-05,-6.519042594995539e-05,-0.005871485282370549,0.007673806341771835,0.9905951769108134
2013-11-21,1,7.038993914759776e-07,3.659323499572281e-05,-0.005419485057938354,0.0074532295378047,0.9907412322589085
2013-11-25,1,0.00039296955839123246,0.0005073993112069985,-0.005419485057938354,0.010017869968401205,0.9903056767995768
2013-11-27,1,0.0007133031883907737,0.0009001479783806421,-0.003990989800388123,0.0074532295378047,0.9913672233035301
2013-12-02,1,0.0006571796939938807,0.0008838738665470408,-0.003924595728638728,0.0074532295378047,0.9922601630784484
2013-12-04,1,0.000316872375685279,0.0004920748455419561,-0.003924595728638728,0.0074532295378047,0.9922022672314909
2013-12-06,1,0.0006673583476282295,0.0008801689254132588,-0.003924595728638728,0.0058322845127900085,0.9924251212820011
2013-12-10,1,0.0006751053106035564,0.0008870746032337418,-0.0034031899416434867,0.004598955294883436,0.9927691977418499
2013-12-12,1,0.00014768877546116564,0.0002947300783709272,-0.0034031899416434867,0.0037977007967501587,0.9929932960953562
2013-12-16,1,0.0005309427671358234,0.00071428049258354,-0.0034031899416434867,0.004881778731334252,0.9929688250266423
2013-12-18,1,0.0010899970618810516,0.0012879015641082657,-0.004351373354711032,0.0037977007967501587,0.9938977262741326
2013-12-20,1,0.0016698230937324172,0.001987150259081959,-0.004351373354711032,0.0037977007967501587,0.9931316559681256
2013-12-24,1,0.0025112572520541495,0.002977260664034832,-0.005640812606174452,0.0037977007967501587,0.991483006692939
2013-12-27,1,0.0021998312586450786,0.0025771183597427085,-0.009221874285769396,0.004881778731334252,0.9908451487725283
2013-12-31,1,0.0019192551771694847,0.0022440216162407348,-0.009221874285769396,0.006860009488887552,0.990517253586066
2014-01-03,1,0.001627818731621465,0.0019117830111289762,-0.010210562200430467,0.006860009488887552,0.9892866333175914
2014-01-07,1,0.0009323407462345167,0.001080087844863382,-0.0064735678070078125,0.00760919627736939,0.9893496773626109
2014-01-09,1,0.0007015887210455518,0.0008147285039754298,-0.0064735678070078125,0.011339700849645962,0.9881097106762373
2014-01-13,-1,-0.0001096089815303182,-9.009894755874874e-05,-0.004571598923817631,0.011339700849645962,0.9887339370861963
2014-01-15,1,0.00015910785266067397,0.00017021123530958876,-0.004571598923817631,0.011339700849645962,0.9889947134047545
2014-01-17,-1,-0.00035319396590159007,-0.0002920287238030933,-0.003398560617355357,0.011339700849645962,0.9891173059834123
2014-01-22,-1,-0.00017661132192756573,-9.34153175242473e-05,-0.003096922901673648,0.009523275102652808,0.9898309189176341
2014-01-24,-1,-0.0009999476262604837,-0.0008110999407911983,-0.001752432475643106,0.008902607757198469,0.9916762352064825
2014-01-28,-1,-0.0009264043206313198,-0.0007612147988482038,-0.001752432475643106,0.009523275102652808,0.9912882955686735
2014-01-30,-1,-0.0005494471018676465,-0.00044251142017582163,-0.0010461479304330098,0.008902607757198469,0.9918923948988998
2014-02-03,-1,-0.0008850293002571937,-0.0007946601175198064,-0.0010461479304330098,0.009338846791135478,0.9925521698175278
2014-02-05,-1,-0.00019899010489234401,-0.00018463558181338672,-0.0010461479304330098,0.008902607757198469,0.9931381055875186
2014-02-07,1,0.0010937551492759456,0.0012944146937274022,-0.0014547385320445904,0.006635987921666123,0.9949618968400192
2014-02-11,1,0.0015042404249292563,0.0017862325231476166,-0.0011833332766024503,0.006630960067973007,0.9952291105634898
2014-02-13,1,0.0014763298681351004,0.0017100411341409473,-0.002024120080320599,0.006630960067973007,0.993759502908927
2014-02-18,1,0.0016739265331536565,0.0019344032550342935,-0.0011833332766024503,0.007971769640156754,0.9933508728157372
2014-02-20,1,0.0021995596611750195,0.002537686439760446,-0.002024120080320599,0.008283937548079962,0.9927616364650768
2014-02-24,1,0.0018034822604648813,0.002049320000773581,-0.003538813215014089,0.008283937548079962,0.9924038923706543
2014-02-26,1,0.002438720464712294,0.002771195279191558,-0.0027451449344817573,0.006735016037280743,0.9931695864470115
2014-02-28,1,0.0021245373164012014,0.0023678112522636952,-0.0029860430795329842,0.008283937548079962,0.9923770800563912
2014-03-04,1,0.0013843140606315302,0.0014527987816793193,-0.002967847649881062,0.008283937548079962,0.9927541666216917
2014-03-06,1,0.002029228378802093,0.00224785232275286,-0.002967847649881062,0.008283937548079962,0.9926625972137967
2014-03-10,1,0.0019409268176829322,0.0021530088330190874,-0.0033883122313834954,0.008283937548079962,0.9917511152163487
2014-03-12,1,0.0016776528629503192,0.001821113390133604,-0.0033883122313834954,0.008980044489411976,0.9907648547393584
2014-03-14,1,0.0008543218921789446,0.0008842868589153482,-0.003905322820814958,0.008980044489411976,0.9912595294049066
2014-03-18,1,0.00190353708868228,0.0020977831242754603,-0.003905322820814958,0.008427493731667264,0.9914715462047298
2014-03-20,1,0.0017519663267188076,0.0019372879091375007,-0.0033883122313834954,0.009580593899500662,0.9915420929256893
2014-03-24,1,0.001395770938755924,0.0015335441305297833,-0.0025928597875463314,0.010611763861493163,0.9917027537830028
2014-03-26,1,0.0013386198192926067,0.001478777145967912,-0.00254269548887785,0.010611763861493163,0.9914941680896565
2014-03-28,1,0.0014063453419468365,0.001514900522677401,-0.0026767852061613537,0.010611763861493163,0.9891038566960604
2014-04-01,1,0.0017038778103129206,0.0018536087495503101,-0.0022013572025055285,0.010512416149393255,0.9895746501632264
2014-04-03,1,0.00137262078030992,0.00143934405818795,-0.0019091100198967183,0.010611763861493163,0.9891987200419738
2014-04-07,1,0.0006813402944113006,0.0006887519046391421,-0.003607335541842918,0.010611763861493163,0.9883211454866418
2014-04-09,1,0.0015880293399719995,0.001703068901436346,-0.003607335541842918,0.010611763861493163,0.988824110858134
2014-04-11,1,0.0007830057077496302,0.0008115003470624881,0.0013659986698107466,0.011616487752297597,0.9887828327675248
2014-04-15,1,0.0012482387424289291,0.0013316182775376117,0.00014445346414029923,0.011616487752297597,0.9886032921175829
2014-04-17,1,0.0017334625412148857,0.0018872081822867968,-0.0015073374091593335,0.010751816767948463,0.9888437348216607
2014-04-22,1,0.002132935543760474,0.0023438099301550507,-0.009606205962523588,0.010661315419159217,0.9884581327272005
2014-04-24,1,0.002404948264135816,0.002650523402391254,-0.009606205962523588,0.009630299506450576,0.9886232399036076
2014-04-28,1,0.0007889783309609615,0.0007910446172137287,-0.0010405827066153747,0.008806395440656391,0.990890839386835
2014-04-30,1,0.0008601134299120344,0.0008763048213714397,-0.001959566517731066,0.008806395440656391,0.9913052493279199
2014-05-02,1,0.0015079331309145751,0.0015918467145430684,-0.001959566517731066,0.008305446563749748,0.9920169479382969
2014-05-06,1,0.00011082751235556902,0.0002041458636615779,0.00014875160496345414,0.008305446563749748,0.9928732606102907
2014-05-08,1,0.00047162573111567157,0.0005623174568242027,0.00014875160496345414,0.008305446563749748,0.9933077015471006
2014-05-12,1,0.0014920118509093854,0.0015460010999984093,-0.001396134602170314,0.007801952012108359,0.9932055919259954
2014-05-14,1,0.0012890521284690671,0.001373647576651509,-0.003410632212869704,0.007801952012108359,0.9933273862865453
2014-05-16,1,0.0013164925887430576,0.0014143915058080687,-0.0009690805930360862,0.005250965115813162,0.9940880013785584
2014-05-20,1,0.0011505987960226693,0.001252240172132889,-0.0002950664949296186,0.006402638756752757,0.9946528695874426
2014-05-22,1,0.0015598279002432768,0.001718538609999024,-0.0002950664949296186,0.006402638756752757,0.9948267891455497
2014-05-27,1,0.0017941028167741142,0.0019717697182704834,-0.0020661795381129314,0.004825635636162712,0.9947313125694587
2014-05-29,1,0.001631893908280688,0.0017675047426914036,-0.002504438707499868,0.006402638756752757,0.9943198817260201
2014-06-02,1,0.0016119529066652505,0.001720988421442851,-0.002504438707499868,0.006402638756752757,0.9943122428943811
2014-06-04,1,0.0011992614894802693,0.0012362692191847872,-0.002504438707499868,0.006402638756752757,0.994292612356357
2014-06-06,1,0.001413858533652209,0.0014380946274381128,-0.003411323862709612,0.005011322902969557,0.9942740460756959
2014-06-10,1,0.001101282041271745,0.0011092583065982877,-0.003411323862709612,0.003400461865117422,0.995513720337343
2014-06-12,0,-0.00013673857216297983,3.639015049235254e-05,-0.0029359567082840104,0.004085326677711,0.995707830432569
2014-06-16,1,0.00017030783307324393,0.00027767194535172947,-0.004848671825613616,0.004085326677711,0.9946114983230588
2014-06-18,0,-1.3134710340892376e-05,0.0001513288483920297,-0.005415946868374299,0.0032465358539889694,0.9941348437395353
2014-06-20,1,0.00010665687606132272,0.000266124362142624,-0.005415946868374299,0.0032465358539889694,0.9938986791496008
2014-06-24,-1,-0.00021371028108604212,-1.845974425850104e-05,-0.005415946868374299,0.0039797380638786515,0.9939835161486545
2014-06-26,-1,-0.0008297089601639187,-0.0005059252395892334,-0.005415946868374299,0.0039797380638786515,0.9933079168381762
2014-06-30,-1,-0.0004911844158748409,-0.00021555433593537735,-0.007177750692804191,0.0032465358539889694,0.9927830239207858
2014-07-02,0,-6.63893552844223e-05,9.434359052946315e-05,-0.00868031730297493,0.0039797380638786515,0.9915936340205629
2014-07-07,0,-8.333725404002345e-05,7.365208070347353e-05,-0.008582165913149848,0.0039797380638786515,0.9913026260101742
2014-07-09,-1,-0.00017952170572710808,-2.814741199190046e-05,-0.008582165913149848,0.0039797380638786515,0.9914107182852747
2014-07-11,-1,-0.0005641706373152545,-0.00037625312109143983,-0.00544479157212786,0.005888419427466236,0.9915764097774622
2014-07-15,-1,-0.0011270606104756432,-0.0008947855560075707,-0.0032711861762856446,0.01047524764264201,0.992100772312966
2014-07-17,-1,-0.0017068691393760987,-0.0014037985993434904,-0.0020504580445130168,0.01047524764264201,0.992171045571123
2014-07-21,-1,-0.0010291501444192512,-0.0008370896375615151,-0.002586077399712129,0.010900694689711192,0.9918965864390435
2014-07-23,-1,-0.0008118721891113806,-0.0006530504519799538,-0.005328585027169501,0.012799549929892566,0.9911024708989212
2014-07-25,-1,-8.285397448013285e-05,-5.416103155471473e-06,-0.005328585027169501,0.010900694689711192,0.9921262916759978
2014-07-29,-1,-0.0008560655688362386,-0.0006941487404510656,-0.002391444410814048,0.010900694689711192,0.9926857254111522
2014-07-31,-1,-0.0010912735872514196,-0.000896440338377409,-0.0022511355495799332,0.00808135006788301,0.9938518358688885
2014-08-04,-1,-0.0006385100668568444,-0.0004983157828661545,-0.0013416014819187954,0.007952988742600576,0.9941285449911377
2014-08-06,-1,-0.0010118443435315888,-0.0007907229378692853,-0.0024192626859742996,0.007952988742600576,0.994109267766065
2014-08-08,0,-4.864033149584002e-05,1.7699550259328968e-05,-0.003778698074126604,0.0074242084540770215,0.9942801634040973
2014-08-12,1,0.000132520635624203,0.00018487935056261498,-0.004037143268026977,0.0074242084540770215,0.9939443682746436
2014-08-14,1,0.0003192261507545624,0.00036630376005487777,-0.005176186844082499,0.0066287352217862545,0.9939512557678273
2014-08-18,1,0.0004591562365973141,0.0004971823425813627,-0.004489787044780066,0.005631391126939223,0.9946201988490206
2014-08-20,1,0.0009001739051075458,0.0009413209442640115,-0.004489787044780066,0.005631391126939223,0.9948569226660678
2014-08-22,1,0.0010565867550354432,0.0011338440597561652,-0.004489787044780066,0.006037809164160671,0.994630843843197
2014-08-26,1,0.0009459899458290249,0.0010122632599533598,-0.005176186844082499,0.0066287352217862545,0.9937936708175301
2014-08-28,1,0.00032317352019268684,0.00037647688561659345,-0.005176186844082499,0.0066287352217862545,0.9936132998487158
2014-09-02,1,0.001257258278116547,0.001371188337266185,-0.0054331555919111246,0.006034262123300559,0.9933099875340659
2014-09-04,1,0.0005031690293936291,0.0005375952958432623,-0.005804192865470682,0.006034262123300559,0.9932150498787834
2014-09-08,1,0.0007257905073594828,0.0007441112032052436,-0.005893862566151401,0.005559464915081074,0.9932288679772434
2014-09-10,1,0.001183533081650172,0.0012858691547504872,-0.006690119382429036,0.005559464915081074,0.992557943059101
2014-09-12,1,0.0009840022505983445,0.0010812278064614143,-0.007213168768415982,0.005559464915081074,0.992280385091746
2014-09-16,1,0.0012540611219292166,0.0014072228524665792,-0.00869355873703534,0.006034262123300559,0.9910326570328263
2014-09-18,1,0.0005582769544559595,0.0005680647247132947,-0.00869355873703534,0.00538758106814326,0.991509897293711
2014-09-22,1,0.0008057388992915421,0.0008460813701644079,-0.00869355873703534,0.0073961351910618745,0.9900501154094348
2014-09-24,1,0.0010466287160866064,0.0011458356203216651,-0.006983425941699974,0.0073961351910618745,0.9899321170822483
2014-09-26,1,0.0004524681196203455,0.0005096421821375969,-0.006983425941699974,0.013862156936738503,0.987079197322576
2014-09-30,1,0.00028053567319461534,0.00031400662933464904,-0.006613538440190366,0.013862156936738503,0.9867638741501742
2014-10-02,1,0.0006456571878028758,0.0007090468284746418,-0.004931092466763036,0.013862156936738503,0.9866869156746141
2014-10-06,1,0.00013378053970026891,0.00017504495375206117,-0.003096510025845163,0.014426792293754709,0.9860653215309225
2014-10-08,-1,-0.00031039171584197335,-0.00021652395492160998,-0.0026894537803631817,0.014426792293754709,0.9872454481603414
2014-10-10,-1,-0.0013399734962787331,-0.001103853260186335,-0.0021740588029316625,0.014426792293754709,0.98740997749508
2014-10-14,-1,-0.0013198230766946627,-0.0011096588521778093,-0.0005023978164715767,0.017105461875469605,0.9873543558713593
2014-10-16,-1,-0.0009735735261374974,-0.0008273974126715824,-0.0005023978164715767,0.017105461875469605,0.9869190472824989
2014-10-20,1,0.0006446268026330129,0.0006972695771606965,-0.001787581979976811,0.013122162990928353,0.9887851236284178
2014-10-22,1,0.0012114929954446314,0.0013543566399245373,-0.001787581979976811,0.012749566331242804,0.9897387204529271
2014-10-24,1,0.00358476970439573,0.004026133719752811,-0.002196051169227114,0.011337852928894273,0.9931559436869148
2014-10-28,1,0.00454113737088671,0.005144517016915394,-0.002196051169227114,0.011337852928894273,0.9933451236876754
2014-10-30,1,0.004409188701629972,0.004962998931224799,-0.001787581979976811,0.00942716886039459,0.9938463636959853
2014-11-03,1,0.004694615635813143,0.005240199581147626,-0.002196051169227114,0.007953633063974341,0.9935924783668247
2014-11-05,1,0.004338489294100339,0.004828832411229225,-0.0018208993574807737,0.007953633063974341,0.9938525998998443
2014-11-07,1,0.00463116866531408,0.005172097538938962,-0.002501929204123223,0.006667427846766124,0.9935042952579826
2014-11-11,1,0.005705863299621475,0.00639993075418462,-0.0038361599940944,0.005395991969313937,0.9931057401572891
2014-11-13,1,0.004972157691586841,0.005545893849764042,-0.0030582259831273733,0.005395991969313937,0.9940983163347686
2014-11-17,1,0.005213684332933336,0.005822687436314471,-0.0030582259831273733,0.0038773975894734855,0.9938256569014495
2014-11-19,1,0.00531396144784384,0.005943167108656856,-0.002348440490910552,0.005395991969313937,0.9937157499692619
2014-11-21,1,0.005019423427055362,0.005585666992883121,-0.0030582259831273733,0.005395991969313937,0.993174716378679
2014-11-25,1,0.004955766642721151,0.005512677280654199,-0.0030582259831273733,0.005395991969313937,0.9932071416276396
2014-11-28,1,0.004938203040571082,0.005472978785836714,-0.0030582259831273733,0.005395991969313937,0.9932781072299401
2014-12-02,1,0.0043975101363572435,0.004827357492882177,-0.0036156654449947204,0.004694949977911589,0.9933708661417322
2014-12-04,1,0.003821113126508336,0.0041192158203914205,-0.004573375141504961,0.004694949977911589,0.9925392061082159
2014-12-08,1,0.003136676827002394,0.0033041934475861326,-0.004573375141504961,0.005682572898923853,0.9923668090677806
2014-12-10,1,0.0028195923087791005,0.0029509480517995075,-0.0038455930769097767,0.007468235080025587,0.9917762349150059
2014-12-12,1,0.002657471339761817,0.0027632261443280913,-0.0038455930769097767,0.009604899057750606,0.9916111902558711
2014-12-16,1,0.002579788925654634,0.002715592822263889,-0.005120489415211096,0.009604899057750606,0.9910033676988933
2014-12-18,1,0.002823138635934513,0.002933177898259567,-0.005138789240009666,0.009604899057750606,0.9910756249834212
2014-12-22,1,0.0018231243551713697,0.0018617588004973275,-0.004388968791348948,0.011162764725910414,0.9912665771864679
2014-12-24,1,0.0025686376714998405,0.002634290463361724,-0.004388968791348948,0.009604899057750606,0.9917570575147945
2014-12-29,1,0.0028209486461530805,0.002917885694776917,-0.004590425236860223,0.007118260698171188,0.9915899661931755
2014-12-31,1,0.002446533476028676,0.0025154198634237627,-0.004942183006654608,0.011162764725910414,0.9889917332131746
2015-01-05,1,0.0014926353005469714,0.0015310905525067879,-0.004177950042528588,0.01196963475346467,0.9894128831188007
2015-01-07,1,0.0024563932785813996,0.0025575657398179694,-0.004177950042528588,0.011162764725910414,0.9900557623821339
2015-01-09,1,0.003377340841489394,0.003606036283101296,-0.004177950042528588,0.00888986812783503,0.9910886341671239
2015-01-13,1,0.003848491192813691,0.004142670738433903,-0.004177950042528588,0.008073217940596986,0.9908609447349599
2015-01-15,1,0.0029930700412015483,0.003169213455238155,-0.003017531511009576,0.009123594216558258,0.9912025948522197
2015-01-20,1,0.002922326160087695,0.003072639922195544,-0.003017531511009576,0.008073217940596986,0.9914469307413157
2015-01-22,1,0.002885690598486831,0.003011315152128619,-0.003017531511009576,0.008073217940596986,0.991392297074644
2015-01-26,1,0.003126935674715267,0.0033101015363000245,-0.003017531511009576,0.008073217940596986,0.9914640223646349
2015-01-28,1,0.0025393605125878446,0.002620733361699747,-0.00289603974244824,0.008073217940596986,0.9914253148550479
2015-01-30,1,0.0005837678795864158,0.0007484988222896592,-0.0024366456424212944,0.008073217940596986,0.993877512710704
2015-02-03,1,0.0013999125997453364,0.0014613117361641018,-0.00289603974244824,0.006072773267495364,0.9941175309061071
2015-02-05,1,0.000955043392502795,0.0010984777457012235,-0.00289603974244824,0.006529009802255081,0.9934252022199107
2015-02-09,1,0.000686147057326149,0.0008606739451787579,-0.003554760418334792,0.006529009802255081,0.9928489267275277
2015-02-11,1,0.0006317957858042353,0.0008185656876293519,-0.0058006481424063994,0.005669414203885161,0.9928729429638443
2015-02-13,1,0.001450646964800448,0.0015456861010884528,-0.0058006481424063994,0.006446453155427279,0.9919299060924714
2015-02-18,1,0.0008907694613086819,0.0010601535166581133,-0.00408327731183353,0.007811819179688832,0.9918396813177529
2015-02-20,1,0.0007543642821047778,0.0009473537792792508,-0.0029204122534700703,0.007130406241441547,0.9923747188019569
2015-02-24,1,0.0005109602892148345,0.0007727240933031391,-0.0029204122534700703,0.007130406241441547,0.9927150256852496
2015-02-26,0,-0.00011600132576926867,0.00023719970975570723,-0.008703117056751804,0.007130406241441547,0.9917030514662771
2015-03-02,1,0.0001681010622696425,0.0005014365631235648,-0.008703117056751804,0.007811819179688832,0.9914301780692417
2015-03-04,-1,-0.0008685870913139138,-0.00038565975047415656,-0.009970140610623346,0.007811819179688832,0.9913266526174032
2015-03-06,-1,-0.002083348578077596,-0.0014141316136925984,-0.004765157105851677,0.007130406241441547,0.9920077650678454
2015-03-10,-1,-0.0031086401754158604,-0.00228758122092602,-0.0027233413899090484,0.007130406241441547,0.9921245319446024
2015-03-12,-1,-0.0038547943645153766,-0.002936359870174683,-0.004100765467529218,0.007130406241441547,0.9918997270398141
2015-03-16,-1,-0.0015764878697298262,-0.0009910053702197024,-0.007439795875985111,0.006831827942399385,0.9936388095998369
2015-03-18,-1,-0.0013524986014285766,-0.00081028896229848,-0.008135116091881493,0.006129903522742484,0.9934286265839483
2015-03-20,1,0.0003319769067307942,0.0005215376542717728,-0.008844944166367807,0.006129903522742484,0.991403035811756
2015-03-24,1,0.0004922548347962888,0.0006275883291874269,-0.008844944166367807,0.006129903522742484,0.991453273811146
2015-03-26,-1,-0.0005998111005066551,-0.00034967896955986726,-0.007439795875985111,0.006129903522742484,0.9926648870868464
2015-03-30,1,0.0005399720523880175,0.0006283110096272219,-0.008135116091881493,0.004943835371774889,0.9925548441184902
2015-04-01,0,-4.988321345100169e-05,0.00012229474495998325,-0.00962439804285076,0.004943835371774889,0.9916727681836184
2015-04-06,1,0.00014702516614586384,0.0002987104462296851,-0.00962439804285076,0.00558764201593695,0.9878349430194023
2015-04-08,1,0.0008772971112896844,0.0008900168248954062,-0.010963606412669809,0.004943835371774889,0.9871961692637635
2015-04-10,-1,-0.0001690464914756974,-7.881166437714415e-06,-0.010963606412669809,0.00568408777877968,0.9872722596917956
2015-04-14,0,-0.00010253380008019613,3.4914586939749554e-05,-0.010963606412669809,0.005521578072256684,0.9873130147863157
2015-04-16,-1,-0.0009371043198224001,-0.0007023531951710444,-0.009597756711418104,0.00568408777877968,0.9868910970346216
2015-04-20,-1,-0.0011640766628393804,-0.0008920497281020779,-0.006073887554883792,0.005521578072256684,0.9883617066587773
2015-04-22,-1,-0.0009680565394988026,-0.0007413786867993326,-0.006073887554883792,0.00568408777877968,0.9879438296158748
2015-04-24,-1,-0.0008384467101331497,-0.000642036145512941,-0.006771045649833147,0.00568408777877968,0.9881045384910041
2015-04-28,-1,-0.0013348386988750872,-0.001071037149758365,-0.0063256747093267006,0.006260032864277904,0.9882820603498683
2015-04-30,-1,-0.002844168178726344,-0.0024018524043760555,-0.004591569595558961,0.006260032864277904,0.9891990716672329
2015-05-04,1,0.0005885580546239784,0.0006437556137971593,-0.004591569595558961,0.005640581629594776,0.9932947618622758
2015-05-06,-1,-0.0002961700045960098,-0.0001227858788019168,-0.0034309441495787235,0.005640581629594776,0.9936548474986041
2015-05-08,1,0.0005129318582081553,0.000595905661056107,-0.0034309441495787235,0.00545585611063013,0.9944710067058719
2015-05-12,1,6.752023904545374e-05,0.00021587847548350334,-0.002834829326307806,0.0060092914103929,0.9937113622198286
2015-05-14,1,0.0013272249298478223,0.001376719084251925,-0.003029576795850331,0.0052165639395880615,0.9946538694937178
2015-05-18,1,0.0008146060196876642,0.0008728727528148936,-0.003499147811470666,0.0052165639395880615,0.9943368256114824
2015-05-20,1,0.00132028064708217,0.0013605023309133555,-0.003499147811470666,0.0052165639395880615,0.9940945305433745
2015-05-22,1,0.0011601921588333549,0.0012036911372383993,-0.0009797119129355283,0.0060092914103929,0.9941687432532825
2015-05-27,1,0.0009276790255145204,0.0009364763360997211,-0.0020383479724740976,0.0052165639395880615,0.9945304650573832
2015-05-29,1,0.00019143386412014867,0.00033567324079580976,-0.0007588145009607803,0.005517600336900098,0.9945271807026506
2015-06-02,1,0.0007260565189202274,0.0007608252112188973,-0.002212752005105876,0.005517600336900098,0.9935399564907617
2015-06-04,1,0.001465856020625454,0.0015837920637631927,-0.0031384709278183794,0.007374157366796659,0.9927573073434042
2015-06-08,1,0.001958879084978776,0.0021707539399467212,-0.0031384709278183794,0.006459866739562969,0.9926761840147617
2015-06-10,1,0.0023298252922120477,0.002551356383068577,-0.00455165377914183,0.006459866739562969,0.9926649671299693
2015-06-12,1,0.0020573569178847515,0.0022526887735837193,-0.0026501827245259137,0.010455470364339366,0.9919817499550129
2015-06-16,1,0.0016205490612741283,0.0017717675687078265,-0.0018755852380432756,0.010455470364339366,0.9926732366996257
2015-06-18,1,0.0021818401461091213,0.0024141865232310492,-0.0026501827245259137,0.009160518447439902,0.9927676826929885
2015-06-22,1,0.0023602628107401145,0.002600288351268043,-0.00455165377914183,0.006860957526803266,0.9924847752274759
2015-06-24,1,0.0012363400368600517,0.0012424697469529595,-0.005220833708746654,0.009895626449968567,0.9922852365496965
2015-06-26,1,0.001877573272588619,0.0019952720395809446,-0.007361046776621487,0.006704902740405857,0.9909458053149789
2015-06-30,1,0.0010190090474181263,0.0010261424749167705,-0.006504976819265682,0.010028767902424891,0.9913811310827414
2015-07-02,1,0.0012380814067604177,0.0012654833254586253,-0.007361046776621487,0.008912101651618322,0.9895953030615052
2015-07-07,1,0.0014328339836979318,0.001487579481432225,-0.007361046776621487,0.008912101651618322,0.9894378502088204
2015-07-09,1,0.0016230572267096493,0.0017528754922683128,-0.007361046776621487,0.007010489938308755,0.9898581523831291
2015-07-13,1,0.0025803636994595324,0.0028181625599243663,-0.007361046776621487,0.006179772698051271,0.9906438669392209
2015-07-15,1,0.002610091542484625,0.002853446015013832,-0.00753115228559292,0.006179772698051271,0.9901714087269258
2015-07-17,1,0.0024429834762353586,0.00268511063635867,-0.00753115228559292,0.007973006338997928,0.9901492433474609
2015-07-21,1,0.001961671079592809,0.002123707879551231,-0.00753115228559292,0.008912101651618322,0.990220337781572
2015-07-23,1,0.0022207081826763047,0.0024487275142549758,-0.008748204532978244,0.007973006338997928,0.9895816085299182
2015-07-27,1,0.0007544972928904236,0.0007570582280375606,-0.008748204532978244,0.007973006338997928,0.9879275220608603
2015-07-29,1,0.001117416979754926,0.001154161088390902,-0.01489873001005983,0.006500611498280996,0.9870136538448051
2015-07-31,-1,-0.0007912638570482622,-0.0005771519861360167,-0.009417558383832582,0.006500611498280996,0.9891132149019014
2015-08-04,-1,-0.0012373607474173167,-0.0009503860818009563,-0.01489873001005983,0.006695547732475439,0.9879100330610692
2015-08-06,-1,-0.0006335802501343073,-0.0004934502769260228,-0.011180398789133553,0.008042504701270966,0.9880449673857955
2015-08-10,1,1.7502359312134756e-05,7.041301754782321e-05,-0.0203273959818788,0.008042504701270966,0.9864392449793714
2015-08-12,-1,-0.00012014248644986048,-6.174527074669808e-05,-0.0203273959818788,0.008042504701270966,0.9862498766680123
2015-08-14,1,0.0004220001210957392,0.0004240073357565887,-0.0203273959818788,0.006350665095591731,0.9865986085505838
2015-08-18,1,0.0001600020034827349,0.0002453371802372527,-0.0203273959818788,0.005695474124328111,0.9869515016482879
2015-08-20,-1,-0.00029094285927463276,-0.0001901233159757596,-0.017416891374949946,0.005695474124328111,0.9875786290184946
2015-08-24,-1,-0.0025669542287716767,-0.002186795819094911,-0.010256945505462621,0.005695474124328111,0.9892797798131832
2015-08-26,-1,-0.0037640678527545474,-0.0032525658669120693,-0.008549178771456018,0.005695474124328111,0.9892674596495444
2015-08-28,-1,-0.0031780647376426063,-0.00274369103839102,-0.017557036130866004,0.005695474124328111,0.9883437711296934
2015-09-01,-1,-0.004168023169296998,-0.0035935278471152968,-0.008549178771456018,0.0057027141368071466,0.9889705570538084
2015-09-03,-1,-0.0036175571894590188,-0.0031076260817693795,-0.008549178771456018,0.007203540521764998,0.9886756781927497
2015-09-08,-1,-0.003698030396168468,-0.0031492361113200722,-0.005688785576011942,0.007203540521764998,0.9902622746025497
2015-09-10,-1,-0.0037093925911104216,-0.003156916288165713,-0.005688785576011942,0.010714092753527093,0.9890027501782508
2015-09-14,-1,-0.004081900868757769,-0.0034839985714056948,-0.0033375045667621474,0.011676005585378714,0.9881198437972334
2015-09-16,-1,-0.0038473643217029965,-0.0032769948823133457,-0.011732282238036369,0.011676005585378714,0.9877513481065471
2015-09-18,-1,-0.00441768227146925,-0.0037684264619154344,-0.006749820064872059,0.011676005585378714,0.9871855911795521
2015-09-22,-1,-0.005735611055014838,-0.004876923414997309,-0.0033375045667621474,0.011676005585378714,0.9873338628403449
2015-09-24,-1,-0.004457433673652746,-0.003897750315298405,-0.002184025853546773,0.01198036564471172,0.9874448714404058
2015-09-28,-1,-0.005014658531540546,-0.004371494329906524,-0.002184025853546773,0.012027103123042558,0.9879563722509713
2015-09-30,-1,-0.004042200404716443,-0.0035485014494435153,-0.0028357302740458154,0.012027103123042558,0.9885177598283682
2015-10-02,-1,-0.003333201356660536,-0.0029198308273110096,-0.00466394663156704,0.011938454547122503,0.9894158315060811
2015-10-06,-1,-0.0025363825884330855,-0.0022472455452422265,-0.00466394663156704,0.012075726145828383,0.9888754790325007
2015-10-08,-1,-0.0016149363993767157,-0.0014361221868877598,-0.00466394663156704,0.011472023873269083,0.9903205510784308
2015-10-12,-1,-0.0011752438609352951,-0.0010568695914820255,-0.007867274440590558,0.010108225849014486,0.9903902870166895
2015-10-14,-1,-0.0021496781765295955,-0.0019095516470679246,-0.0031749554573920354,0.010108225849014486,0.9910207056016735
2015-10-16,-1,-0.0014471860508780978,-0.001293183068006177,-0.007867274440590558,0.00859157412848071,0.9903487729788433
2015-10-20,-1,-0.0013985591892489622,-0.0012519186586796142,-0.007867274440590558,0.009840401543170771,0.9896106801977272
2015-10-22,-1,-0.0009919994703997106,-0.0008982717248538431,-0.006823722217118272,0.009840401543170771,0.990427496877852
2015-10-26,-1,-0.0005143714613129274,-0.0004885307005701465,-0.006823722217118272,0.013299438981175065,0.9897677138992244
2015-10-28,-1,-0.0001679806193188175,-0.00013598701275919844,-0.003894880652575779,0.011558235405194812,0.9899811863003407
2015-10-30,1,0.00024002866943776703,0.00036575874247532665,-0.003894880652575779,0.011558235405194812,0.9902820933937114
2015-11-03,1,0.0008623550610521241,0.0010595844457401656,-0.007784206101693948,0.009164185415822057,0.9909302156068194
2015-11-05,1,0.0007742895378801163,0.0009401526406135967,-0.011691804025111371,0.011558235405194812,0.9898632840595906
2015-11-09,1,0.0006505325651489501,0.0008272752686595407,-0.01111654712800747,0.011558235405194812,0.9896273705092341
2015-11-11,1,0.0011312982604843934,0.0013933284081475324,-0.011691804025111371,0.011558235405194812,0.9881612727858589
2015-11-13,0,-7.464965160136871e-05,2.094556171083927e-05,-0.009215145510704983,0.011558235405194812,0.9897634308436084
2015-11-17,1,0.00033913913880390166,0.0005105903252366915,-0.009215145510704983,0.011722682129408662,0.9892138056224908
2015-11-19,1,0.0004593274286713155,0.0006174653324324995,-0.011691804025111371,0.007728968349360373,0.9878674381257116
2015-11-23,1,0.0015078814825930794,0.0018265140323778179,-0.011691804025111371,0.003117900403471161,0.9886134794541002
2015-11-25,1,0.0021229517722241896,0.0025330432105490947,-0.011691804025111371,0.0019185180231673553,0.9882256383294813
2015-11-30,1,0.0018204392317236182,0.0021845107707084287,-0.011143387548484745,0.003117900403471161,0.9886322239254225
2015-12-02,1,0.0020953915938489603,0.002553930173871218,-0.012473345652130211,0.0004857387986561408,0.9877570485092177
2015-12-04,1,0.0021973881249006213,0.002678850185405805,-0.012473345652130211,0.0004857387986561408,0.9874503185122689
2015-12-08,1,0.0016239687486236428,0.002020737327860382,-0.01411913189800204,0.0004857387986561408,0.9871800093194296
2015-12-10,1,0.0005871019242179428,0.0008389861448732009,-0.01411913189800204,0.0045422360889826475,0.9884277445930111
2015-12-14,1,0.00039934603919506806,0.0006326926412478011,-0.01712414000787338,0.0045422360889826475,0.9871241264063938
2015-12-16,1,0.0006557097106557579,0.0008742248239949176,-0.01712414000787338,0.0045422360889826475,0.9875365482968421
2015-12-18,-1,-0.0001590870524301185,-4.846056207437007e-06,-0.0132454580769628,0.0045422360889826475,0.9887791060007418
2015-12-22,-1,-0.0005519044126641242,-0.0005172126545819973,-0.0132454580769628,0.008765630466959813,0.9871430503916316
2015-12-24,-1,-0.00012145824060559178,-3.601277176895883e-05,-0.0132454580769628,0.008765630466959813,0.9871233192179294
2015-12-29,1,4.816550788202444e-05,0.00014691342089942928,-0.0132454580769628,0.00615921529714594,0.9869596224520931
2015-12-31,-1,-0.0003411257656187334,-0.00026435220383731327,-0.011272651867646056,0.011714202530609327,0.9859482088864355
2016-01-05,-1,-0.0006847180320203136,-0.0006565108457821601,-0.011272651867646056,0.00665939834118078,0.986690555394508
2016-01-07,-1,-0.0011292271568728838,-0.0011227024684824648,-0.01047556899139272,0.010100141172325452,0.9871251004270183
2016-01-11,-1,-0.0011774061390715043,-0.0011479087900064429,-0.008440631554759846,0.012196960167364802,0.9873070733442645
2016-01-13,-1,-0.002621163401938237,-0.0024482132230602997,-0.008440631554759846,0.014000431414383346,0.9875650458718086
2016-01-15,-1,-0.0032603263932985673,-0.0029352094043113945,-0.008440631554759846,0.015605981470765886,0.9861453823429052
2016-01-20,-1,-0.004541556931759307,-0.004010666372391326,-0.002539905995347965,0.015605981470765886,0.9853960864568286
2016-01-22,-1,-0.0027673128200005766,-0.0024644411092485594,-0.002539905995347965,0.01374993501484136,0.9871752611701266
2016-01-26,-1,-0.0028016816365933218,-0.0024655474233738076,-0.007186268267333042,0.012732143519492315,0.9871122927435186
2016-01-28,-1,-0.0025886532834198343,-0.002304455030591248,-0.0024486803340564,0.014239275415835003,0.986830564867136
2016-02-01,-1,-0.0007142703242412787,-0.0006642978142904021,-0.007186268267333042,0.014239275415835003,0.9876714638632477
2016-02-03,-1,-0.001263256777306276,-0.0011527485679804722,-0.0024486803340564,0.0142532678971663,0.9872494337526639
2016-02-05,-1,-0.0014491621177849707,-0.0013028878225364972,-0.0020693041856074896,0.0142532678971663,0.9879767750548201
2016-02-09,-1,-0.0010544291878482014,-0.0009671260665499153,-0.0020693041856074896,0.0142532678971663,0.9882760143416853
2016-02-11,-1,-0.001075623979432437,-0.0009668517835472899,-0.001603065537023695,0.013871869691149136,0.9891643902887757
2016-02-16,1,0.0001116100027179427,0.00011344173437390492,-0.003060810148794943,0.011489702148431227,0.9909639455194627
2016-02-18,-1,-0.0001231785339731586,-2.8218534597068375e-05,-0.003060810148794943,0.013468934790405432,0.9900530924295838
2016-02-22,1,0.0003070282728147366,0.0003752672964586265,-0.004735009926702276,0.012151596975666479,0.9905749113638509
2016-02-24,1,0.000654768691275099,0.0006633014503289918,-0.004851621089842101,0.010074928073301776,0.990779546862404
2016-02-26,1,0.0013971387889967022,0.0015264727747288506,-0.004851621089842101,0.008127488177665771,0.9910624705504282
2016-03-01,1,0.0021047538120969435,0.0023453863802717426,-0.004706316278814284,0.008127488177665771,0.9924496602490277
2016-03-03,1,0.0033362455790974872,0.0037988726330260613,-0.004706316278814284,0.007129242416054822,0.9927889923932797
2016-03-07,1,0.00325282075221175,0.0037216625729990524,-0.005294175573685374,0.007129242416054822,0.9923441543435406
2016-03-09,1,0.002159561564332767,0.002416065633655703,-0.005294175573685374,0.008226724868802038,0.992118405069159
2016-03-11,1,0.0025865658248871723,0.0029403296111046367,-0.005294175573685374,0.008226724868802038,0.9921291454896797
2016-03-15,1,0.0025639859376910415,0.0029127292906998056,-0.005036451706925086,0.008226724868802038,0.9926798651145691
2016-03-17,1,0.003812326690354829,0.004343916410128119,-0.0057526218864154014,0.004042495232359913,0.9927045950073207
2016-03-21,1,0.0035884338007414348,0.004106953836567262,-0.0057526218864154014,0.004042495232359913,0.9925399719693254
2016-03-23,1,0.0032156602520234615,0.0036947800799778845,-0.0057526218864154014,0.00449501810256872,0.9930928069122221
2016-03-28,1,0.0035996181678256646,0.004129424941391024,-0.0057526218864154014,0.00590229141366474,0.9928491321932441
2016-03-30,1,0.00430684632561416,0.004982878287397099,-0.0057526218864154014,0.00590229141366474,0.9929575076250913
2016-04-01,1,0.004597804562517257,0.005312524634415136,-0.00780150374374227,0.00590229141366474,0.9906308071812199
2016-04-05,1,0.0037048263709330894,0.004268264858939341,-0.00440754100921612,0.0076551923271455736,0.9914035537045728
2016-04-07,1,0.004181839444327637,0.0048251473873775,-0.006582773410261009,0.00590229141366474,0.9913968881119414
2016-04-11,1,0.0035008651683581657,0.003962025746473335,-0.006582773410261009,0.00631413779023938,0.9917283934879071
2016-04-13,1,0.0036357238669584803,0.004124145391845559,-0.008749233657078482,0.00631413779023938,0.9909565421382351
2016-04-15,1,0.0033587403250481575,0.00383222163508679,-0.008749233657078482,0.007725035818015147,0.9910098470662272
2016-04-19,1,0.0033234380302017063,0.0038477386941368538,-0.008749233657078482,0.007725035818015147,0.9913120856735311
2016-04-21,1,0.0033973952452577933,0.003964849118338126,-0.006582773410261009,0.007725035818015147,0.9915619210043684
2016-04-25,1,0.003654536133874173,0.004234810012310632,-0.006582773410261009,0.007089684675897216,0.9913939119016109
2016-04-27,1,0.0038993717131037696,0.0044917868672598275,-0.007877305415403523,0.007089684675897216,0.9903785293911699
2016-04-29,1,0.004286377462845596,0.00492494518077804,-0.0063222463625493466,0.007089684675897216,0.9923210525706948
2016-05-03,1,0.004096809817009633,0.004668655494739814,-0.0063222463625493466,0.007342796442349924,0.992682113282054
2016-05-05,1,0.002844433756823113,0.0031746447188700146,-0.003721993056166322,0.007397674754622288,0.9927299489366818
2016-05-09,1,0.0029432820284276467,0.0032580679462231843,-0.003721993056166322,0.007397674754622288,0.9927559081769403
2016-05-11,1,0.0027906380088026225,0.0031231745533392037,-0.0019305033797660718,0.007397674754622288,0.9932874985036155
2016-05-13,1,0.0017462853444247532,0.001853913641367173,-0.003721993056166322,0.007397674754622288,0.9925280093426609
2016-05-17,1,0.001477126311743611,0.0015479750031809699,-0.0019305033797660718,0.007397674754622288,0.9931332538839981
2016-05-19,1,0.0015645204759302098,0.0016664138195924116,-0.0019305033797660718,0.007397674754622288,0.9931612958723061
2016-05-23,1,0.0017261345582161214,0.001857119638771351,-0.0019305033797660718,0.007576303647931446,0.9931869582084986
2016-05-25,1,0.0015876257640998345,0.001647950804948209,-0.0011846750944760204,0.007576303647931446,0.9941079619212332
2016-05-27,1,0.001366465277821235,0.0013679057279834413,-0.004813852548623279,0.007397674754622288,0.9912675440938333
2016-06-01,1,0.0010796676267029394,0.0011677901503349215,-0.004813852548623279,0.007576303647931446,0.9899646098313156
2016-06-03,1,0.0002922444331061374,0.0005042731212212721,-0.002694159562231251,0.007831473799713577,0.9895115737692453
2016-06-07,-1,-0.00047114700444809174,-0.00010736063399464446,-0.005879377858497154,0.008361585819435571,0.9888989005705178
2016-06-09,-1,-0.0003776404448325476,-2.962302271968518e-05,-0.005879377858497154,0.010779043509347701,0.9883174504305031
2016-06-13,-1,-0.0021743651151694236,-0.0015708717958919669,0.0001924617200182528,0.010779043509347701,0.9883191874395156
2016-06-15,-1,-0.0013157826565563637,-0.0008803177179529653,-0.0010283834304966575,0.010779043509347701,0.9890088091352186
2016-06-17,-1,-0.001122177264982898,-0.0007196500359736167,-0.0010283834304966575,0.010779043509347701,0.9889435220638207
2016-06-21,-1,-0.0012472719318299787,-0.0008138165682202289,0.00015494705622223586,0.010779043509347701,0.9888819277548478
2016-06-23,0,-6.363354143169614e-05,0.00016378352382510745,-0.0022252845702931626,0.011014551181085578,0.9889528726752972
2016-06-27,-1,-0.002726963877674901,-0.002161104299655935,0.0005336914294934306,0.011014551181085578,0.9902697351159047
2016-06-29,-1,-0.0015059613576133169,-0.001077654833539933,-4.6943020711239934e-06,0.007767727692206159,0.9921769968895895
2016-07-01,-1,-0.0010586836530613413,-0.0006891601518133272,-0.001925062965884695,0.005807670489880322,0.9914708538914777
2016-07-06,-1,-0.001027473444745366,-0.0006528390999919202,-0.001925062965884695,0.005807670489880322,0.991362324284379
2016-07-08,1,0.00020249391000660445,0.00037151344530971046,-0.006103146725776498,0.005807670489880322,0.990785172699035
2016-07-12,1,0.0006814143990161634,0.0007761838681747755,-0.006103146725776498,0.006331944773972562,0.990823879359809
2016-07-14,1,0.000926419338019247,0.0009662894058680195,-0.006103146725776498,0.006331944773972562,0.9907041970210557
2016-07-18,1,0.0011130382856490589,0.001125983264280886,-0.011124355315638407,0.006331944773972562,0.9904039991266631
2016-07-20,1,0.0013832883109383498,0.001419503129149686,-0.011124355315638407,0.006173375068470415,0.9899641205816143
2016-07-22,1,0.0014838297538130724,0.0015565920479276019,-0.007190276020996067,0.006173375068470415,0.9904965339960555
2016-07-26,1,0.001874528013033064,0.0020354634335756554,-0.007190276020996067,0.006095046710671889,0.990243686752959
2016-07-28,1,0.0020738082784975166,0.002245704529653831,-0.007190276020996067,0.00547753626795001,0.9910156226862398
2016-08-01,1,0.00020029221701108702,0.000296281102408409,-0.005346163827044389,0.007137168019705246,0.9925295307741996
2016-08-03,1,3.369138104999036e-07,0.00011722116495629486,-0.004751485136620015,0.00547753626795001,0.9934528375836121
2016-08-05,1,0.00016421939289248917,0.0002640299044503917,-0.004751485136620015,0.004296881550012882,0.994553428279202
2016-08-09,1,0.0009870068583312263,0.0010451610220304297,-0.004751485136620015,0.005232800105849268,0.9943609208024959
2016-08-11,1,0.0009705093442143286,0.0010058535857546825,-0.007190276020996067,0.004399519157589926,0.9914939747858167
2016-08-15,1,0.0002448285372441427,0.0003295294074724326,-0.007249757170362925,0.00578544909068114,0.9906468898702735
2016-08-17,0,-2.0086498776303622e-05,7.905298118341298e-05,-0.006666357764201625,0.00578544909068114,0.9908769601789948
2016-08-19,1,0.0005367389496864438,0.0005588069250312992,-0.01169471418648834,0.005597954854261389,0.9905323826488136
2016-08-23,1,0.0004728607622559317,0.000485774867382644,-0.01169471418648834,0.005957174867724113,0.9895420528017408
2016-08-25,1,0.00029719799313512874,0.00036031035303299213,-0.01345690434230073,0.005597954854261389,0.9889589259582707
2016-08-29,1,0.0002999415572077044,0.00034701922063393317,-0.01176593787160201,0.004815550805153047,0.9894400746291595
2016-08-31,1,0.000465471188939544,0.00048729889168758547,-0.014492902785219221,0.004815550805153047,0.9868689637678194
2016-09-02,1,4.072388818965317e-05,0.00010743407696091426,-0.014492902785219221,0.004815550805153047,0.987349230992168
2016-09-07,1,0.0002536944340797094,0.00031713939741407715,-0.014492902785219221,0.004200891421255961,0.9870157292161623
2016-09-09,-1,-0.0023401926267510344,-0.0019461276298339506,-0.012075002413453276,0.004794405755379616,0.9902842112899254
2016-09-13,-1,-0.0026942710609274764,-0.0022481075219872772,-0.008053940260822578,0.004200891421255961,0.9914085619444429
2016-09-15,-1,-0.0023370656898692864,-0.0019562101254322404,-0.008053940260822578,0.004269120379234103,0.9912922735254147
2016-09-19,-1,-0.0023698838922893107,-0.002008620208097807,-0.006951997021385195,0.003664835936530675,0.9921689779912042
2016-09-21,-1,-0.0016013719358953923,-0.0013526604435131926,-0.006951997021385195,0.003664835936530675,0.9928301009177636
2016-09-23,-1,-0.002095488133014529,-0.0018017417077314988,-0.007706684099397523,0.003664835936530675,0.9926067257378541
2016-09-27,-1,-0.002599941180395156,-0.0022236143791493166,-0.006951997021385195,0.002845820945185459,0.9930061599481333
2016-09-29,-1,-0.004186094142203275,-0.003649138530883748,-0.00606018359787156,0.002845820945185459,0.9946702739619699
2016-10-03,-1,-0.004665558631940599,-0.004055741576196743,-0.00606018359787156,0.00427522989885259,0.9926201460303483
2016-10-05,-1,-0.004412533491852702,-0.003825139850917973,-0.007025793359420975,0.003664835936530675,0.9932090161843509
2016-10-07,-1,-0.0045228245848028415,-0.003914873533771659,-0.007025793359420975,0.0035140145333547364,0.9933896025616933
2016-10-11,-1,-0.004560411349527458,-0.003949785815632882,-0.006121876361726184,0.00427522989885259,0.9918919593315622
2016-10-13,-1,-0.0042904897650832075,-0.0037223959799022486,-0.006121876361726184,0.005435848660222159,0.990922868401965
2016-10-17,-1,-0.003947225464775905,-0.0034479170504853017,-0.006121876361726184,0.00871913801452261,0.9890749327306763
2016-10-19,-1,-0.0034681456392006782,-0.0030370408809976815,-0.007670007285760315,0.00871913801452261,0.9895680723767816
2016-10-21,-1,-0.003844837375104264,-0.0034023175096311014,-0.00450309336190228,0.00871913801452261,0.989883597278119
2016-10-25,-1,-0.0037459602860240677,-0.0033062924266614247,-0.00450309336190228,0.008937097399330577,0.9897067860806255
2016-10-27,-1,-0.003985672307206195,-0.0035382932983098027,-0.003532002442006614,0.010594583307335786,0.9893368932762119
2016-10-31,-1,-0.0025841025923164836,-0.0023088020722882557,-0.003850213827047618,0.007511155727160039,0.9907320093504464
2016-11-02,-1,-0.003773567585075955,-0.0033113355259056544,-0.003850213827047618,0.007511155727160039,0.9904593918393669
2016-11-04,-1,-0.0035373825518370235,-0.003118475263484272,-0.0036094249139402134,0.009218283653328123,0.9897198272759806
2016-11-08,-1,-0.0021339479843407367,-0.0018928353519694872,-0.0036094249139402134,0.007796495157644916,0.9905000358815457
2016-11-10,-1,-0.0010295141060338675,-0.000931369605580352,-0.0036094249139402134,0.007053773567986595,0.9917174757556257
2016-11-14,1,0.0005992482515943842,0.0007338020482733866,-0.0036094249139402134,0.006975310434110564,0.9934586443670795
2016-11-16,-1,-0.0012556308431178897,-0.0010393952796376876,-0.0037436526550816353,0.006975310434110564,0.9928508874984954
2016-11-18,-1,-0.00019054642704706995,-0.00018006415047472124,-0.0037436526550816353,0.006975310434110564,0.9927318346690598
2016-11-22,1,0.0004447620569465273,0.0005544207141169285,-0.004966643270456081,0.005830768641178307,0.9929743144757199
2016-11-25,1,0.0007661801368736746,0.0009309069194508613,-0.004966643270456081,0.004796511230876417,0.9933290392924083
2016-11-29,1,0.0004783588420279838,0.0006446774912958138,-0.004966643270456081,0.004830366465355033,0.9937163738579237
2016-12-01,1,0.00013087071583418912,0.00027727514330107056,-0.00340622170926639,0.004830366465355033,0.9937807928995005
2016-12-05,1,0.000817489968753232,0.0010608085028098856,-0.00340622170926639,0.004830366465355033,0.9936941217298774
2016-12-07,1,0.0019101220889733389,0.002319636287073485,-0.006509911485649318,0.004595765152467441,0.9933556799285824
2016-12-09,1,0.002185924897802799,0.0026491674999941112,-0.008560302000945399,0.004172708134502205,0.9929965944268156
2016-12-13,1,0.0026189470617613278,0.003139336212673642,-0.01051236153092652,0.0036221196496503518,0.9918544942880629
2016-12-15,1,0.002210165767243595,0.002690425551407212,-0.009976725935078883,0.0037361400564566104,0.9928680740581173
2016-12-19,1,0.002856792679042315,0.003459128915677845,-0.009976725935078883,0.003884682447884715,0.9925620149988145
2016-12-21,1,0.0017808595913864087,0.0021386901266731125,-0.009976725935078883,0.004630340149287048,0.9929294805889491
2016-12-23,1,0.0017681836247022084,0.0021162692067095068,-0.009976725935078883,0.004644593836291691,0.992231555878788
2016-12-28,1,0.0017911483753133314,0.0021571063639408104,-0.010888622602196515,0.004644593836291691,0.9914274611411541
2016-12-30,1,0.0015866090610499588,0.0019470968951654265,-0.01032325866931788,0.004728359684687681,0.991509447086298
2017-01-04,1,0.0025092296569844954,0.0030075141748604935,-0.01032325866931788,0.004644593836291691,0.9909700999548233
2017-01-06,1,0.0013751854488381595,0.0017010070082573206,-0.008344799789789565,0.004728359684687681,0.9920373308197964
2017-01-10,1,0.0009028792545699199,0.0011474311513257527,-0.008029103884707733,0.004728359684687681,0.9922915819448389
2017-01-12,1,0.0005370306983873576,0.0007659284151388341,-0.004580037008246934,0.006460917808872487,0.9925903939869933
2017-01-17,1,0.0006917083693935488,0.0009324718255310396,-0.006200748598934955,0.006460917808872487,0.9920265641159656
2017-01-19,1,0.001095471420743909,0.0014073151573603107,-0.006200748598934955,0.0062821866635745394,0.9921931011512809
2017-01-23,1,0.0010674881714780081,0.0013699652103157343,-0.005635792195974631,0.009749411831694105,0.9920812110069146
2017-01-25,1,0.0020331831554975402,0.002475260218356733,-0.005635792195974631,0.006658076011030666,0.9927058937360743
2017-01-27,1,0.0010567012983852295,0.0013479675216322836,-0.003978793067437585,0.006658076011030666,0.9940335549258
2017-01-31,1,0.0016470861720711955,0.0020501543944838356,-0.004150195479902712,0.006658076011030666,0.9937359858726063
2017-02-02,1,0.0008533748614156468,0.001023415078705803,-0.004150195479902712,0.005567279410060014,0.9943522505405408
2017-02-06,1,0.0010485464301084708,0.0012367584109943322,-0.005295604158361447,0.003975613698995342,0.9943858742783448
2017-02-08,1,0.0008676649540445204,0.0010370602287828432,-0.005295604158361447,0.003975613698995342,0.9941302267005284
2017-02-10,1,0.0011814097313512474,0.0013746353417710615,-0.005295604158361447,0.004597871522430217,0.9941946801808457
2017-02-14,1,0.0009588570402201097,0.001150345978770507,-0.00286293961115805,0.005567279410060014,0.9942381009056024
2017-02-16,1,0.0007544310596007453,0.0008852931371041929,-0.00286293961115805,0.006387281370014432,0.9936736403977274
2017-02-21,1,0.0011046461991304746,0.0012690455089451455,-0.004675464886539154,0.004827208061019245,0.9937076644141223
2017-02-23,1,0.00014912829430596282,0.00020747368531783136,-0.004675464886539154,0.0061622815410789285,0.9932910533562679
2017-02-27,1,0.0001709771683921393,0.00024050508222482074,-0.005658890015095032,0.00549721013501666,0.9930652743809804
2017-03-01,1,0.0005482482804517261,0.0005622685705455803,-0.005368631866529208,0.0051615854523481,0.9935614273997443
2017-03-03,1,0.00011971952315024384,0.0001884762750665346,-0.004399656551598517,0.0051615854523481,0.9939330823718884
2017-03-07,-1,-0.0004895227367324544,-0.000341447222054996,-0.0024931766811777676,0.0054222883339655695,0.9942206322508943
2017-03-09,-1,-0.0009593360225827669,-0.0007582714281014621,-0.0020261799549027236,0.00577858057006991,0.9942641022583063
2017-03-13,-1,-0.0004542246468052953,-0.0003071056348360027,-0.0020261799549027236,0.0054222883339655695,0.9950750929280664
2017-03-15,1,0.00025163355561843616,0.0003074626754587844,-0.0022810938098735164,0.0054222883339655695,0.995240887133028
2017-03-17,1,9.732128241570973e-05,0.00021598580436422342,-0.0032903677616576694,0.0054222883339655695,0.9948812220049591
2017-03-21,-1,-0.00036547657948430873,-0.0001964765732136777,-0.0027303508473780517,0.0054222883339655695,0.9950925266944431
2017-03-23,-1,-0.0005686182193585166,-0.0003457808430077196,-0.0022628186241198116,0.0054222883339655695,0.9944847869364005
2017-03-27,-1,-0.00035559596634562787,-0.00021361025799174205,-0.0002990177655651776,0.006955824376378163,0.9939581567409909
2017-03-29,-1,-0.00046644701250922937,-0.000278258200797757,-0.0018331835761197929,0.008894256569127222,0.9936299919375567
2017-03-31,-1,-0.0006431143374605844,-0.000425104432362728,-0.0022628186241198116,0.008894256569127222,0.9926002142071222
2017-04-04,1,3.2800088202698005e-05,0.000125044050517657,-0.0006330118212270354,0.009195759747848038,0.9924347112469086
2017-04-06,1,0.0007286328110711405,0.0007622394271517307,-0.000640065524283385,0.009195759747848038,0.9927479003600849
2017-04-10,1,0.0014374341895517428,0.0016381438150282956,-0.0039212245308663995,0.009195759747848038,0.9927949714525964
2017-04-12,1,0.0011722588939495511,0.0013099822022413802,-0.0039212245308663995,0.009195759747848038,0.9931264632535701
2017-04-17,1,0.0012505708492537646,0.0013997211303008893,-0.0039212245308663995,0.006493401809712576,0.9928232785441242
2017-04-19,1,0.001346610351478515,0.0015223674075442127,-0.006329445921509872,0.006493401809712576,0.9917848088280056
2017-04-21,1,0.0022060377475689313,0.0025044529100449976,-0.006848152039242168,0.006493401809712576,0.9916614533658101
2017-04-25,1,0.0024667625448026678,0.0027565915113527484,-0.006848152039242168,0.004500154680513789,0.9915840070159734
2017-04-27,1,0.0020723366532191044,0.002267524322464507,-0.006329445921509872,0.006286090359544241,0.9918675624585395
2017-05-01,1,0.0017064954208427386,0.0018841352344523014,-0.004037314449922335,0.006286090359544241,0.9926766185942845
2017-05-03,1,0.0025530618035947156,0.002889734060698859,-0.004037314449922335,0.0029914256070698005,0.9928209307718707
2017-05-05,1,0.0027155355344028057,0.0030755744849871825,-0.004037314449922335,0.0039665879086491634,0.9928306791832077
2017-05-09,1,0.002643906742692889,0.003015237592635648,-0.004045880155761042,0.0039665879086491634,0.9924150616523805
2017-05-11,1,0.0020806894413531625,0.0023406563311977454,-0.003267216627569346,0.004716783451370021,0.9930462987418749
2017-05-15,1,0.0013654869720449037,0.001544521383554076,-0.003267216627569346,0.007117106290612848,0.9936104394997886
2017-05-17,1,0.00039167411273499745,0.00042807734462466216,-0.0031233082008779605,0.007117106290612848,0.9940303251949565
2017-05-19,1,0.0004071021924875537,0.0004467766180857144,-0.002377278241733137,0.008342384590386345,0.9939975105508052
2017-05-23,1,0.0006823529834438793,0.0007502821075719637,-0.0031233082008779605,0.007117106290612848,0.9941855024083519
2017-05-25,1,0.001005358571876442,0.001088246607747886,-0.0031233082008779605,0.004083880404712906,0.994750624213929
2017-05-30,1,0.0012309369282221747,0.0013865570062441533,-0.0033491162323953175,0.0046593116679403595,0.9942644628003892
2017-06-01,1,0.0007609164347453622,0.0007927845021118623,-0.0054461324144337905,0.006090332212390841,0.9934533704357071
2017-06-05,1,0.0008028134479059982,0.0008149103631958894,-0.0054461324144337905,0.006090332212390841,0.9933724268471288
2017-06-07,-1,-0.0003223779643005412,-0.00016087867761704677,-0.0054461324144337905,0.006090332212390841,0.993475442015677
2017-06-09,0,-0.00010695409091931345,2.2551654057480154e-05,-0.008279688577525257,0.006552013558091826,0.9927030776677616
2017-06-13,1,0.00017612189753339217,0.0002672868887937999,-0.008279688577525257,0.006552013558091826,0.9928327438264779
2017-06-15,-1,-0.00015805032379130564,-2.1869448062944755e-05,-0.0042582530369503855,0.006552013558091826,0.9934178593478221
2017-06-19,1,0.0010328519565008774,0.0010820922772563084,-0.008296924857811265,0.005382184699958505,0.993443849817564
2017-06-21,0,-3.0873531196759973e-05,9.654235267523577e-05,-0.0042582530369503855,0.006090332212390841,0.9938813924954105
2017-06-23,-1,-0.00014759381550475466,-1.87610496370164e-05,-0.003677520714408018,0.006212193735468508,0.9932999003810826
2017-06-27,-1,-0.0002422822940860465,-0.00010845039063063294,-0.003677520714408018,0.006846999776458545,0.9919414695641362
2017-06-29,-1,-0.00031787471376227406,-0.0001879509198918641,-0.003677520714408018,0.006846999776458545,0.9906208748058111
2017-07-03,-1,-0.000319518916814824,-0.00018206905591045447,-0.008615196383264613,0.005488357700621443,0.9896745958206293
2017-07-06,-1,-0.0002822617381098728,-0.00017209512380295512,-0.00855683796299137,0.00383174132595282,0.9897801465467305
2017-07-10,-1,-0.0004728387509412233,-0.0003141421838780308,-0.0043043431575786745,0.00383174132595282,0.9901529626609596
2017-07-12,0,-7.315141103336943e-05,3.726650917703077e-05,-0.007884840630635446,0.0018763436045910519,0.9902259762155404
2017-07-14,1,0.0001932989181243538,0.00025112845366527,-0.01156660887245865,0.0018763436045910519,0.9894480620891563
2017-07-18,-1,-0.00047452836328205076,-0.0003393268866722074,-0.007884840630635446,0.00383174132595282,0.9898026340034299
2017-07-20,-1,-0.00019868148529895215,-0.0001046467095892911,-0.01156660887245865,0.004171966572325858,0.9881691241074805
2017-07-24,1,0.000441458410173004,0.00045203888432349126,-0.01156660887245865,0.0005753665053679794,0.9882606006406223
2017-07-26,-1,-0.0008435401479397535,-0.0006661754237608389,-0.01156660887245865,0.0005753665053679794,0.9899784333457534
2017-07-28,-1,-0.002673818312904793,-0.0022602355283834284,-0.009009324210906208,0.0022273569770585385,0.9920123876588531
2017-08-01,-1,-0.004012207038272477,-0.0034195694504020975,-0.008094861961825356,0.0033956869049548565,0.9927036044753459
2017-08-03,-1,-0.003995706384824165,-0.0034325855808164463,-0.007273049667264688,0.005295983822064587,0.9922124398482979
2017-08-07,-1,-0.0032135942191936244,-0.0027740017660704526,-0.008094861961825356,0.005295983822064587,0.9917576918956558
2017-08-09,-1,-0.0030510476323211038,-0.002656833150506463,-0.010185242910911526,0.007619652723309223,0.987913779993618
2017-08-11,-1,-0.003827426424539481,-0.003324721018759318,-0.008094861961825356,0.00984672554622446,0.9861763107405848
2017-08-15,-1,-0.0034908885896941123,-0.0030409924121350016,-0.008094861961825356,0.0076729128124814715,0.9863664134419967
2017-08-17,-1,-0.004068832435187849,-0.0035359035245339327,-0.005701944989513511,0.007039008646057392,0.9875074831621409
2017-08-21,-1,-0.004025312927911744,-0.003517082436299291,-0.00802826951728228,0.007039008646057392,0.9871996584096386
2017-08-23,-1,-0.004371677448570476,-0.003824678680668156,-0.003958313265689083,0.007039008646057392,0.9872557028341701
2017-08-25,-1,-0.0043849809727984305,-0.003845469913639048,-0.002447851674946543,0.01001771745683064,0.985968535555776
2017-08-29,-1,-0.004157324955978722,-0.0036610604334728594,-0.0024228798812158197,0.01001771745683064,0.9863000254314719
2017-08-31,-1,-0.003460434099283585,-0.0030544621339622102,-0.0015741465545281463,0.01001771745683064,0.9870425724912295
2017-09-05,-1,-0.003514548807284496,-0.0031062802326446725,0.00017689271827912222,0.009740982170760405,0.9870419945124927
2017-09-07,-1,-0.00498608635549208,-0.004414844298078074,0.00017689271827912222,0.008167880379548235,0.9895101833544471
2017-09-11,-1,-0.003390622207557182,-0.0030096314552543377,-0.0015741465545281463,0.007522666534856893,0.9929343907419177
2017-09-13,-1,-0.002587927074247413,-0.0023435593972884086,-0.0025549935334031725,0.0076867819194753155,0.9932582089510802
2017-09-15,-1,-0.0018451833626136512,-0.0017252318747385503,-0.004089019963350873,0.0076867819194753155,0.993470551039548
2017-09-19,-1,-0.0019432135667173632,-0.0018197120583406013,-0.0028776990859064257,0.0076867819194753155,0.9936323226972947
2017-09-21,-1,-0.0017292145672964934,-0.0016050851756122951,-0.0028776990859064257,0.007932344248931491,0.9934720811959827
2017-09-25,-1,-0.0004353794245152856,-0.00037402990921226505,-0.0028776990859064257,0.0076867819194753155,0.9944961981824935
2017-09-27,-1,-0.00018908810298277234,-7.996630260138091e-05,-0.004999170992973308,0.0076867819194753155,0.9937006761541515
2017-09-29,1,8.5759316503179e-05,0.00022577707702726253,-0.004999170992973308,0.0076867819194753155,0.992706261628611
2017-10-03,1,0.0005372800744863732,0.0007177953320555576,-0.006249715660956537,0.006240414406639503,0.9912633428752303
2017-10-05,1,0.00019623169807993652,0.000294081275211214,-0.008617581879412622,0.006240414406639503,0.9905392569311827
2017-10-09,-1,-0.00023429290905037186,-0.00023349293801275164,-0.008617581879412622,0.006240414406639503,0.9904828892763601
2017-10-11,-1,-0.0001578240805405475,-0.00014479213878999562,-0.008617581879412622,0.00395906957059104,0.9908439152266653
2017-10-13,-1,-0.0003245360859811775,-0.00031367403043605917,-0.00568836994205572,0.004130698212835106,0.9912432771965568
2017-10-17,1,2.602901045453137e-05,0.00011493385168918213,-0.00602607135858531,0.004130698212835106,0.9911040162962423
2017-10-19,1,0.00041524404479397116,0.0005512461205274474,-0.00602607135858531,0.0033279304815570414,0.9909330106624643
2017-10-23,1,0.0008784913441760922,0.001084445634644084,-0.00602607135858531,0.0021831870218909618,0.9908702986353162
2017-10-25,1,0.0004256950891598728,0.0005900087978202111,-0.00432423437022685,0.00397165205717556,0.9919061488119013
2017-10-27,1,0.001135635629618572,0.0013721303830019392,-0.00432423437022685,0.0014168786770380939,0.9930507584968156
2017-10-31,1,9.810063424421471e-05,0.0002114550929134089,-0.0036146896274174825,0.00397165205717556,0.9938083395854446
2017-11-02,-1,-0.0003658388079147986,-0.0002964380684098751,-0.003140046987454823,0.00397165205717556,0.9944978922486717
