JNU-Tangyin/eata/results/Batch4_SP500/Batch4_SP500-SO.csv
Date,Action,Predicted_Q25,Predicted_Q75,Actual_Q25,Actual_Q75,RL_Reward
2010-12-14,0,-0.0002474826290849273,0.0,-0.002736988074633857,0.003097440899788861,0.9962082561164831
2010-12-16,0,0.0,0.0,-0.0020228017904016715,0.004981057341702443,0.9958870470076991
2010-12-20,1,1.43224988018422e-05,2.223088556723038e-05,-0.002600072782104763,0.00398540560001973,0.9963430207511702
2010-12-22,0,0.0,0.0,-0.002728858620872327,0.00398540560001973,0.9962842540968126
2010-12-27,-1,-0.00010620896563962596,-2.781676906131526e-05,-0.002728858620872327,0.004183677152168143,0.9960900313653739
2010-12-29,1,1.4905149745531032e-05,7.662476694142743e-05,-0.003319081588504374,0.004183677152168143,0.9958907645889291
2010-12-31,1,1.295667482612917e-06,5.069050367017313e-05,-0.004356531475277073,0.004183677152168143,0.995426310019247
2011-01-04,-1,-0.00010176099022763459,-1.646374899120812e-05,-0.006083913501318207,0.004194851444327915,0.9949553543171786
2011-01-06,-1,-0.0006553528344195115,-0.0005077684793688519,-0.004641260908515633,0.004194851444327915,0.995406423676295
2011-01-10,-1,-0.0007503611480123506,-0.0005928057661642554,-0.003922578743100237,0.0035915644408003903,0.9957585788209349
2011-01-12,-1,-0.000603866439802778,-0.0004573958416797512,-0.004441747878620036,0.0035915644408003903,0.9956287758662674
2011-01-14,0,0.0,0.0,-0.004441747878620036,0.0020422147066775803,0.9950924214410214
2011-01-19,0,0.0,0.0,-0.006052165858043536,0.0035915644408003903,0.9947264416773488
2011-01-21,0,0.0,0.0,-0.006052165858043536,0.0035915644408003903,0.9948402767770217
2011-01-25,1,2.6367647430728847e-05,6.07535055293312e-05,-0.006052165858043536,0.0018619111835995999,0.9949713622622165
2011-01-27,-1,-0.00017871282413840954,-0.00012382282316719816,-0.004441747878620036,0.003730454933206428,0.9949395524697909
2011-01-31,-1,-0.0006794365882342424,-0.000562901106104368,-0.0036649367612392805,0.003730454933206428,0.9951216737813806
2011-02-02,0,0.0,0.0,-0.0025154002511960797,0.003730454933206428,0.9951838956928022
2011-02-04,0,0.0,0.0,-0.0025154002511960797,0.003730454933206428,0.995111279597861
2011-02-08,-1,-0.0007421714939372553,-0.0005866610512277218,-0.0017818143863865756,0.004896954007784971,0.9948043834991181
2011-02-10,0,0.0,0.0,-0.002430647886332682,0.0035059821508830647,0.9951565164351567
2011-02-14,0,0.0,0.0,-0.004108677947890639,0.003139902856944981,0.9944530083806429
2011-02-16,0,0.0,0.0,-0.0039569517351782406,0.0027566599703058472,0.9946368774776567
2011-02-18,-1,-0.00024412492312893627,-0.00019827076526565817,-0.0039569517351782406,0.003268172250826012,0.994046823723293
2011-02-23,-1,-0.00033970758453287227,-0.00028422462711752796,-0.0039569517351782406,0.003268172250826012,0.9940145124788855
2011-02-25,0,0.0,0.0,-0.0039569517351782406,0.003139902856944981,0.9943694140302671
2011-03-01,0,0.0,0.0,-0.0027936572343561176,0.003268172250826012,0.9947164248266224
2011-03-03,0,0.0,0.0,-0.0027936572343561176,0.00322582240303828,0.9948066865451913
2011-03-07,-1,-0.00030322904293572086,-0.0002606288803912731,-0.0012504304528724753,0.00364312678817851,0.9949505870055119
2011-03-09,1,0.0001022381777760211,0.00010911276016263743,-0.0016280885581641557,0.00364312678817851,0.9949674793090744
2011-03-11,1,6.572884792692134e-05,8.447665942451098e-05,-0.0009275637679884821,0.00364312678817851,0.9948294902683217
2011-03-15,-1,-0.0011571712234884877,-0.0010386976153501947,-0.0009275637679884821,0.00364312678817851,0.9949633546810935
2011-03-17,-1,-0.0010356657450664541,-0.0009449004513989158,-0.0007991938983430021,0.004308032451139444,0.9948030926241995
2011-03-21,-1,-0.0006607407774033053,-0.0006203194651974314,-0.0009273935029629877,0.004308032451139444,0.995062406434683
2011-03-23,-1,-0.0007914200732583197,-0.0007201941702750665,-0.0013047110782036793,0.005665621938398761,0.9947096930000896
2011-03-25,-1,-0.0008884789852527221,-0.0007979263424861523,-0.0013047110782036793,0.005665621938398761,0.9947523901073676
2011-03-29,-1,-0.0005241942123183164,-0.0004900318878505854,-0.0013047110782036793,0.0070661681752550096,0.9945062934991974
2011-03-31,-1,-0.00010555308001380755,-6.872083242065319e-05,-0.0013644302415466146,0.005665621938398761,0.9948617151478388
2011-04-04,0,-3.110411177351509e-05,4.187096744904194e-06,-0.0013644302415466146,0.006339139536068935,0.99481841612971
2011-04-06,1,0.00036019869544997175,0.00045042474918104456,-0.0017443168196987504,0.005926923747400576,0.9949326334413974
2011-04-08,1,0.0001244777701104581,0.00018092617052445622,-0.0013639194464701312,0.005926923747400576,0.9948001030629875
2011-04-12,-1,-0.0008815654238376748,-0.0007989053162592646,-2.4404795715733544e-06,0.005926923747400576,0.9951897657231674
2011-04-14,-1,-0.00029932444726912176,-0.0002918472938088265,-2.4404795715733544e-06,0.005926923747400576,0.995297491268227
2011-04-18,-1,-9.504038258046362e-05,-8.23554723811829e-05,-2.4404795715733544e-06,0.005926923747400576,0.9954083650592369
2011-04-20,-1,-3.350337369776074e-05,-1.9546549426352164e-05,-2.4404795715733544e-06,0.005926923747400576,0.9954073256751673
2011-04-25,0,-6.769778101943109e-06,7.137870941109193e-06,-0.00183386170550039,0.005926923747400576,0.9946970866241932
2011-04-27,1,0.0003766002812234914,0.0004463123483884176,-0.0030915590729848593,0.005640712132586957,0.9950580835490133
2011-04-29,1,0.00045004722301824853,0.0005300422454431926,-0.0030915590729848593,0.005640712132586957,0.9951678687457564
2011-05-03,1,0.0004603559373965832,0.0005175374842314844,-0.004598919854662676,0.005640712132586957,0.9946053877979618
2011-05-05,1,0.0004829362331186252,0.0005502600755927939,-0.004598919854662676,0.0054010488209344076,0.9947501227130093
2011-05-09,1,0.0007901294722718211,0.000898148204079097,-0.004598919854662676,0.0026992794436775233,0.9950695464858885
2011-05-11,1,0.000896893129312463,0.0010158316321420974,-0.004598919854662676,0.0028241030148729493,0.9949138605156012
2011-05-13,1,0.0012048920010053934,0.0013885345438271887,-0.005214653003843268,0.0015251758867304485,0.9946353326294289
2011-05-17,1,0.0012265776784063085,0.0014073272646070198,-0.005685121314480957,6.304111695101313e-05,0.9947831891711557
2011-05-19,1,0.0013694111047514892,0.0015684092211135324,-0.005685121314480957,0.0011346700380443036,0.9947908288359972
2011-05-23,1,0.000844385093019327,0.0009820455525022104,-0.003684587041670325,0.004029798942224175,0.9955821333382512
2011-05-25,1,0.0006973703824203279,0.0008058020004425117,-0.00518482949793545,0.004029798942224175,0.9952073426837461
2011-05-27,1,0.0006915118854699559,0.0008132277319493775,-0.00518482949793545,0.005104652528681596,0.9949778425410772
2011-06-01,1,0.0003726556829099845,0.0004215452682011382,-0.0038898314247305223,0.005104652528681596,0.9953347888736134
2011-06-03,1,0.00017761878283410228,0.0001928552265592467,-0.0018225021752829962,0.006609596309608171,0.9951659355971656
2011-06-07,1,0.0002233610102648399,0.000257534631902733,-0.003269416572423298,0.006609596309608171,0.9950279346848275
2011-06-09,1,0.0005763417983621186,0.0006769111709029,-0.004002643023142457,0.0056135452913679725,0.9950409577571114
2011-06-13,1,0.0006162747816256719,0.0007139698031589761,-0.004002643023142457,0.004556393333430436,0.9952658125593074
2011-06-15,0,0.0,0.0,-0.004002643023142457,0.004556393333430436,0.9952788782699056
2011-06-17,0,0.0,0.0,-0.00420401088489202,0.0037304106026327046,0.9954503551122734
2011-06-21,0,0.0,0.0,-0.00420401088489202,0.0037304106026327046,0.9954518746643889
2011-06-23,0,0.0,0.0,-0.004002643023142457,0.005051135376348844,0.9952433625703093
2011-06-27,1,0.00044318907725168874,0.00044868730460503024,-0.00420401088489202,0.0037304106026327046,0.9954207820176842
2011-06-29,1,0.0006029610337680444,0.0006129628663809035,-0.004511046997727836,0.003114217966726774,0.9952462859495207
2011-07-01,1,0.0009007092880853032,0.0009480885120806111,-0.005408164919720824,0.0018659071814181257,0.9952744838066694
2011-07-06,1,0.0007635416567295074,0.0007906702657029744,-0.005408164919720824,0.0026482951243223004,0.9951650343818081
2011-07-08,1,0.0006916229694885942,0.0007380595563845941,-0.005475568189129928,0.00300315905329932,0.9945612875755461
2011-07-12,0,0.0,0.0,-0.00557948474834348,0.0026482951243223004,0.9931756643326816
2011-07-14,1,0.00032051456422317734,0.0003228919839884581,-0.005952286044192136,0.00300315905329932,0.9912361349544515
2011-07-18,1,0.00023940530594513212,0.0002648377542571235,-0.005813234361513915,0.003964056634992448,0.9899380767351542
2011-07-20,1,0.0005213133514834587,0.0005383945855372959,-0.005813234361513915,0.004512184347147648,0.9895988466956962
2011-07-22,1,0.0005369417899380363,0.0005425086711224806,-0.006817367189643517,0.002658866867188597,0.9896098801224926
2011-07-26,1,0.00041692264417817143,0.00042526908133982516,-0.006303674667141209,0.004512184347147648,0.9893317876684713
2011-07-28,-1,-6.397804430482775e-05,-8.821084636080319e-06,-0.006303674667141209,0.01045620226935393,0.9889120480665682
2011-08-01,0,-2.1623170288507273e-05,1.3758302609764611e-05,-0.006303674667141209,0.01045620226935393,0.9889226588505603
2011-08-03,-1,-0.0002294634545722001,-0.00016175453481967925,-0.006303674667141209,0.01045620226935393,0.988988323400005
2011-08-05,-1,-0.0007433610868203883,-0.0005620747406445269,-0.005844214200058156,0.007195555288151981,0.9897953385684067
2011-08-09,-1,-0.0024986074748408567,-0.0021025237535391,-0.005256842214124713,0.007195555288151981,0.9910981674942071
2011-08-11,-1,-0.0010347444538549395,-0.0008326516307405967,-0.005256842214124713,0.004931471516845741,0.992722553113286
2011-08-15,-1,-0.00019076198120672954,-8.516301046549747e-05,-0.004420246275480034,0.004931471516845741,0.9935975016780747
2011-08-17,1,7.33388435930836e-05,0.00014575555358823376,-0.002551155916070613,0.005082822570575889,0.9936842659924299
2011-08-19,-1,-0.00046835809046625676,-0.00033494636558300704,0.00035923434491944874,0.00693603601447519,0.9933673000840687
2011-08-23,1,0.00015336268497238026,0.00019665297523504898,-0.002450548296456148,0.00693603601447519,0.9935445625533591
2011-08-25,1,0.0004715871743984073,0.00047287827977780035,-0.002450548296456148,0.00679993008451406,0.9939527103907928
2011-08-29,1,0.0006954461397940818,0.0007379709782809336,-0.0034717014294827746,0.005270050451852628,0.9942575583430855
2011-08-31,1,0.0007378584394317387,0.0007731981818805208,-0.0034717014294827746,0.007497719658305408,0.9937677564513556
2011-09-02,1,2.978142640039415e-05,0.00011837491621431679,-0.0057437733024245635,0.007497719658305408,0.9929935061509828
2011-09-07,1,0.0002305072227591185,0.0002863462328188502,-0.0072047526205939755,0.007497719658305408,0.9923350714755469
2011-09-09,0,-7.799124246097832e-05,1.4148167735565957e-07,-0.0057437733024245635,0.008585339916025555,0.9919216099045904
2011-09-13,1,0.0005770103243051513,0.0005826524298427583,-0.006408327384390096,0.008585339916025555,0.9918233384953119
2011-09-15,1,0.0009171268894900419,0.0009669468124274902,-0.006408327384390096,0.008363297572395968,0.992017988986928
2011-09-19,1,0.001185725202044568,0.00128405098515321,-0.006408327384390096,0.007423705543762213,0.9924673811676646
2011-09-21,1,0.001263779681889123,0.0013748129810064005,-0.005434815918513551,0.006058853551005931,0.993188113681553
2011-09-23,1,0.0011965713326419212,0.0013065117721693246,-0.004858263561710001,0.006963004530008079,0.9930682992633937
2011-09-27,1,0.0011241472614359359,0.0012229790134070347,-0.006066793396600383,0.006963004530008079,0.9922864187977403
2011-09-29,1,0.0015738513548273706,0.0017479254364886833,-0.006066793396600383,0.006963004530008079,0.9924170815764897
2011-10-03,1,0.0010621455636452334,0.0011793130544247086,-0.005361617031563217,0.006963004530008079,0.992936656511485
2011-10-05,1,0.0006880558844419573,0.0007774809092077732,-0.005361617031563217,0.008722330771758761,0.9925823620593536
2011-10-07,1,0.0013541048694475832,0.001533922366793928,-0.005361617031563217,0.00590528654642122,0.9934808710412311
2011-10-11,0,0.0,0.0,-0.0033652833172559205,0.0068359820646181875,0.9935827983391912
2011-10-13,1,0.001170192492485799,0.0013050034673709465,-0.0035759424766181975,0.007699652083600221,0.9927308313036711
2011-10-17,1,0.001279358036634356,0.0014177207859221027,-0.006385652006050514,0.008221860419946278,0.9922758945506942
2011-10-19,1,0.0012571722239944837,0.001385012806581603,-0.007414041092834914,0.008221860419946278,0.9917905777640172
2011-10-21,0,0.0,0.0,-0.007414041092834914,0.007275960573905138,0.9926637061452446
2011-10-25,0,0.0,0.0,-0.007414041092834914,0.007275960573905138,0.9929235374676999
2011-10-27,0,0.0,0.0,-0.007890299879389462,0.006574059030022244,0.9927168762798798
2011-10-31,0,0.0,0.0,-0.007742516476972468,0.007275960573905138,0.9923019025906759
2011-11-02,0,0.0,0.0,-0.005139848428053947,0.007275960573905138,0.9926442407549801
2011-11-04,0,0.0,0.0,-0.006947919497284976,0.008221860419946278,0.9919628504816584
2011-11-08,0,0.0,0.0,-0.007424301333663312,0.008221860419946278,0.9919618118007592
2011-11-10,0,0.0,0.0,-0.007424301333663312,0.008332832043664863,0.9922432692731621
2011-11-14,0,0.0,0.0,-0.007424301333663312,0.0072827916088845975,0.9925550317098143
2011-11-16,0,0.0,0.0,-0.00700744087225237,0.010423368355032435,0.9921837399509142
2011-11-18,0,0.0,0.0,-0.00700744087225237,0.010423368355032435,0.9922712730368918
2011-11-22,0,-2.3934049729625696e-06,1.9122086017897548e-05,-0.004748275568678961,0.012072352119445372,0.9915203424287314
2011-11-25,1,0.00011312666013977222,0.0001273757880428214,-0.0038664512238566293,0.012072352119445372,0.9920700584339504
2011-11-29,1,0.0003910005144829248,0.0004009510513196884,-0.0040666745778983006,0.012094082800917148,0.9921186638643755
2011-12-01,1,0.0009074831946233572,0.0009888271526510462,-0.0046717049441443795,0.010423368355032435,0.9924527007958545
2011-12-05,1,0.0008885470251177465,0.0009512936911695423,-0.0046717049441443795,0.009749767764286233,0.9918996487149585
2011-12-07,1,0.0007461796149967981,0.0007740354664457858,-0.0046717049441443795,0.00630537656757333,0.9921160226128773
2011-12-09,1,0.0009745529649294272,0.0010416081954693543,-0.0040666745778983006,0.00630537656757333,0.9924393647500319
2011-12-13,1,0.0008317623817423633,0.000882954419482027,-0.0038664512238566293,0.006942960166666053,0.9927043084404198
2011-12-15,1,0.0008526727456033166,0.0008944857176395169,-0.0036199991792481194,0.00539055777721323,0.9932839578890901
2011-12-19,1,0.0005802347852873985,0.0005843260268967525,-0.0036902708459569103,0.005822184892622915,0.9927335778630564
2011-12-21,1,0.0011375961456705445,0.0012033210553761724,-0.0036902708459569103,0.005321905615985551,0.9937619391695088
2011-12-23,1,0.0010366192748540797,0.0010857367231987807,-0.0046717049441443795,0.005321905615985551,0.9932867636304045
2011-12-28,1,0.001136778968657128,0.0012090330483176316,-0.006484244528703995,0.004969296985442999,0.9936362995428176
2011-12-30,-1,-0.0002717284654722762,-7.699487798512562e-05,-0.0043245246362784715,0.005113172690579561,0.9936699595774465
2012-01-04,1,7.672439348741167e-05,0.00015050637668976625,-0.004618024785234077,0.005113172690579561,0.9936211266712572
2012-01-06,-1,-0.00016678905137283684,-8.813104504266597e-05,-0.0036573404952526317,0.005113172690579561,0.9940235646182529
2012-01-10,1,9.904331558394227e-05,0.00016541737972447274,-0.002680686614380701,0.005113172690579561,0.9943206671301241
2012-01-12,-1,-0.00012662477304910047,-1.7516168618823954e-05,-0.002680686614380701,0.004549410681555607,0.9944881287749534
2012-01-17,-1,-0.00017938960319708328,-8.68016561237177e-05,-0.004027927831321651,0.004549410681555607,0.9943863859165132
2012-01-19,0,-5.856337867478199e-05,2.310213274980317e-05,-0.004027927831321651,0.004549410681555607,0.9945760140014452
2012-01-23,-1,-0.00030825346433464477,-0.0002061672091847799,-0.00484928634657432,0.0031343211023800903,0.9946189907705356
2012-01-25,-1,-0.00022088996003952514,-0.00012802153508196807,-0.004027927831321651,0.0027070444345732043,0.9951495983055804
2012-01-27,0,-3.239845513745382e-05,4.2283170244456636e-05,-0.002839988025171072,0.0027070444345732043,0.9952471848248782
2012-01-31,-1,-0.00015680443389313168,-6.823425465086607e-05,-0.003524948411436209,0.0026982953581968865,0.9955910526682423
2012-02-02,-1,-0.0011804211446837715,-0.000954370394547964,-0.0023104024080349795,0.0027070444345732043,0.996719191814726
2012-02-06,-1,-0.00034893673057037334,-0.0002481852270112018,-0.002307731507923859,0.003060982539269569,0.9962219980313852
2012-02-08,-1,-0.0002337904696171319,-0.00015938230440271415,-0.002307731507923859,0.002826873261549579,0.9965089771186241
2012-02-10,-1,-0.0001089360506192495,-5.485920015653518e-05,-0.002307731507923859,0.004299324289146311,0.995949970953682
2012-02-14,-1,-0.0001184615948422495,-6.242609075436198e-05,-0.002307731507923859,0.004299324289146311,0.9956628247013293
2012-02-16,-1,-0.00022176463351331117,-0.00015331124740971972,-0.002307731507923859,0.0033709989550195158,0.9956868062567845
2012-02-21,-1,-0.0007150366739455976,-0.0005765363665410619,-0.002307731507923859,0.0033709989550195158,0.995703573373467
2012-02-23,-1,-0.0002946361923685501,-0.0002312434715201329,-0.002307731507923859,0.0033709989550195158,0.9957616390088732
2012-02-27,-1,-0.0006286592998520407,-0.0004972230443106317,-0.0020826815039485095,0.0033709989550195158,0.9956913358713223
2012-02-29,-1,-0.0011467148491140465,-0.0009192862824100137,-0.0017493346778619588,0.004459173980302614,0.9953836852680187
2012-03-02,-1,-0.0006199456538121872,-0.0004979544489120947,-0.0014175858261610429,0.004933179776129965,0.9953956308014302
2012-03-06,-1,-0.00017973323236674117,-0.00010941326300318424,-0.0006767159246550108,0.004172343943400147,0.9957288125403113
2012-03-08,-1,-0.00042500018909002996,-0.0003192450377057774,-0.0020523696674805752,0.004172343943400147,0.9955819720156193
2012-03-12,1,0.00022250257175991515,0.00023789191132384826,-0.004545239896848425,0.0026000699163627205,0.9956374604967217
2012-03-14,-1,-0.00026862421697184606,-0.00019568687667064866,-0.003230046409525794,0.0033656570478077454,0.9958295461450966
2012-03-16,-1,-0.00018484854423969242,-0.00015455035038379017,-0.0020523696674805752,0.004172343943400147,0.9959133620430157
2012-03-20,-1,-0.0007664446710965975,-0.000635709313923962,-0.0014643827461501874,0.004662374184335641,0.9956907434168779
2012-03-22,-1,-0.0004713588373078686,-0.0003919931495005097,-0.001265355333435511,0.004933179776129965,0.995552752868759
2012-03-26,-1,-0.00036089766654028303,-0.00028077392646061873,-0.0020523696674805752,0.004933179776129965,0.9955300174653269
2012-03-28,-1,-0.0003674842672532981,-0.0002848388865850885,-0.0023780984207782746,0.004989665614676591,0.9950846266287258
2012-03-30,-1,-0.00022577612334063503,-0.00015735057787391832,-0.0023780984207782746,0.004946705283062943,0.9952948630474235
2012-04-03,1,0.00028244535126940694,0.0002988281483314725,-0.004455803061580226,0.004946705283062943,0.9951549869813505
2012-04-05,-1,-0.00011840049810001951,-7.232481942207934e-05,-0.005264871168465819,0.004946705283062943,0.9945048713561407
2012-04-10,-1,-0.0006295756585533711,-0.0005185144031398396,-0.0010898639164218396,0.00575207335593227,0.9946590663111635
2012-04-12,-1,-0.0004962807663942769,-0.0003865931474523453,-0.002123637141810385,0.005834292695806651,0.9945412725154752
2012-04-16,-1,-0.00013391823817461934,-6.871381788626317e-05,-0.0031076174424524033,0.0049165100980875336,0.994891376949287
2012-04-18,-1,-0.0002505514503150308,-0.0001485264019419454,-0.0031076174424524033,0.004695610524205997,0.9952685303399077
2012-04-20,-1,-0.00012340149015637,-3.611420212809165e-05,-0.00427526233440185,0.004695610524205997,0.9951593898704011
2012-04-24,1,0.00019108231164793833,0.00021398049337954133,-0.0027988668078982766,0.003909834002893941,0.9956275793367888
2012-04-26,1,0.0004906090181160326,0.000532761716908198,-0.00279516593118385,0.003909834002893941,0.9960589097681287
2012-04-30,1,0.0004612550352043108,0.0005026018035387929,-0.00279516593118385,0.004043080106965267,0.9959747922397545
2012-05-02,1,0.00032767746940722177,0.0003451190371243818,-0.0020846288828915787,0.0038063536023415718,0.9963355117249435
2012-05-04,1,0.0003013980085884068,0.0003264642954488709,-0.0013191418786118955,0.0027803396740212886,0.9971610997116735
2012-05-08,1,0.0003149236328323379,0.0003286909750670417,-0.0013191418786118955,0.0027803396740212886,0.996483879124309
2012-05-10,1,0.0003270408080086841,0.0003520637855318965,-0.0006054273283883395,0.0027803396740212886,0.9968221454289491
2012-05-14,1,2.1887212800277524e-05,4.650828098546281e-05,-0.0004371532862972981,0.0027803396740212886,0.996875413440814
2012-05-16,1,0.0004467781837839172,0.0005305819788842873,0.0003890591736056796,0.003671909929953244,0.9968806873051624
2012-05-18,1,0.0005524918559455467,0.0006476347838730678,0.0008183683086588434,0.004222054571803528,0.9968028283946035
2012-05-22,1,0.0007509310982338426,0.0008899658735375298,-0.00042593717213154896,0.004222054571803528,0.99529310204863
2012-05-24,1,0.000812686834773686,0.0009563552110977697,-0.00042593717213154896,0.003671909929953244,0.9953536220437281
2012-05-29,1,0.0005315995498245147,0.0006016162895749025,-0.0005908389775755819,0.0031150641923754774,0.9950191904027761
2012-05-31,1,0.0002869032826545094,0.0002913491633634419,-0.0005807513354624453,0.004089676817533642,0.9946791410407653
2012-06-04,1,0.0004632426658206653,0.0005047372971562549,-0.002395392066400788,0.0056432570062960995,0.9940682543218071
2012-06-06,1,0.001432942125795815,0.0016162208504319564,-0.0051363235527165894,0.004089676817533642,0.9948924029208964
2012-06-08,1,0.0014810262010922452,0.001673447709361979,-0.0051363235527165894,0.004089676817533642,0.9948607224436212
2012-06-12,1,0.0012200121498889638,0.0013635322465214116,-0.0051363235527165894,0.005397127945107304,0.9947779766844531
2012-06-14,1,0.0016243511663221336,0.0018384485134092176,-0.0051363235527165894,0.005718421877589115,0.9946400019375224
2012-06-18,1,0.0019395691113018778,0.0021868354420366103,-0.0051363235527165894,0.0032230212061059543,0.9949767862979755
2012-06-20,1,0.0008348945331672094,0.0009254513942460785,-0.0012205114601722977,0.0032230212061059543,0.9963422279715546
2012-06-22,1,0.0009927104636019842,0.0011306151442991774,-0.0012205114601722977,0.0032230212061059543,0.9965983653354725
2012-06-26,1,0.00038867023889335375,0.000391068764346068,-0.0012205114601722977,0.005397127945107304,0.9959661324284445
2012-06-28,1,0.000550770976268887,0.0005717452450707482,-0.0012205114601722977,0.00617467331611159,0.9952897879838462
2012-07-02,1,0.0007419612916758037,0.0008031696124648195,-0.001969192022396474,0.005533417359803571,0.9958207181448564
2012-07-05,1,0.0005160483529410696,0.0005451526563657082,-0.0024582641589438797,0.005533417359803571,0.9949610490310334
2012-07-09,1,0.000754511922403439,0.0008134110804338148,-0.0024582641589438797,0.005374787743212445,0.9950907444037339
2012-07-11,1,0.0008490158740556276,0.0009147002416807133,-0.003906999739266256,0.0032718607747534907,0.9948229078066277
2012-07-13,1,0.0008470255456215889,0.000887430468041937,-0.003906999739266256,0.0023929039172990696,0.9949897309326678
2012-07-17,1,0.000840388292499426,0.000889209718101067,-0.003999552641200651,0.0023170334940903013,0.9947254708560983
2012-07-19,1,0.0007924470579780499,0.0008395887517745704,-0.004698657356851355,0.001688088291455905,0.9943194279685121
2012-07-23,1,0.0005973165553177986,0.0006032889513652266,-0.004698657356851355,0.001221058423959496,0.9944145009137186
2012-07-25,1,0.0005128719021080895,0.0005165708848245225,-0.00446770162701134,0.001221058423959496,0.9948390122704378
2012-07-27,1,0.0012145709383308055,0.0013248903249103077,-0.004698657356851355,0.0003740286060582895,0.9945941932019664
2012-07-31,1,0.000886461644336519,0.0009508734441986414,-0.005306490092331333,0.001221058423959496,0.9947169040292628
2012-08-02,1,0.00046464441165551995,0.0004993868555464172,-0.004698657356851355,0.001221058423959496,0.9955589935393832
2012-08-06,1,0.0003700065434787054,0.0003815858770898176,-0.004698657356851355,0.0007502947002099363,0.9956610040672375
2012-08-08,-1,-0.00023123833650221312,-0.00013323674480343291,-0.004012458188626755,0.0025345047292004083,0.9955304944279116
2012-08-10,-1,-0.00022266378078229337,-0.00012421495358518785,-0.0045778164324961805,0.0009349427229959084,0.9953752996213573
2012-08-14,-1,-0.00051687808093604,-0.0003852936575856428,-0.00495953144644619,0.0009349427229959084,0.9954364694455151
2012-08-16,-1,-0.0007590204510722952,-0.0006126903229167497,-0.00495953144644619,0.003133673715047595,0.9944447798176633
2012-08-20,-1,-0.0007977546147396959,-0.0006434341012553338,-0.00495953144644619,0.003133673715047595,0.9944229194768762
2012-08-22,-1,-0.0005207265600928958,-0.0004079452329599206,-0.00495953144644619,0.003133673715047595,0.9944293631039904
2012-08-24,-1,-0.0005852514304858482,-0.0004757384207836659,-0.0038027321933894235,0.003133673715047595,0.9946290249364547
2012-08-28,-1,-0.0009457296751011935,-0.00078104977816452,-0.0031749114578988476,0.0034840361574931416,0.9946450216436853
2012-08-30,-1,-0.0014707097500582112,-0.0012226471477988566,-0.0028660056501302465,0.003944300012635392,0.9946137236594916
2012-09-04,-1,-0.0011964279029438528,-0.0009954869165936654,-0.003634887990789426,0.003944300012635392,0.9943703587094569
2012-09-06,-1,-0.0004866736099128109,-0.00038619937107669443,-0.003634887990789426,0.003944300012635392,0.9946491744116089
2012-09-10,-1,-0.0007531303534069804,-0.0006311232572596609,-0.002317150656129058,0.003944300012635392,0.9948221620022855
2012-09-12,-1,-0.0008779046038531067,-0.000749987025199127,-0.0022933680948422487,0.003944300012635392,0.9949788503072086
2012-09-14,-1,-0.0012586894011062558,-0.0010872007241066821,-0.002455649096985129,0.002888501051106128,0.9962306128575259
2012-09-18,-1,-0.001043778337120637,-0.0008989547994651352,-0.002243681539733684,0.003944300012635392,0.9960180151237407
2012-09-20,-1,-0.0008298972473064347,-0.0007099742280324297,-0.002243681539733684,0.005339648679175883,0.995395383401684
2012-09-24,-1,-0.0003762041908228308,-0.00030485625705791873,-0.002455649096985129,0.004090937012716567,0.9959406215521219
2012-09-26,-1,-0.000339641204993273,-0.00025944252817803617,-0.0034299001863952183,0.002888501051106128,0.9959225131712374
2012-09-28,-1,-0.000293612309473502,-0.0002288479429701709,-0.0028082316252611463,0.0029946716442688865,0.9959642257097137
2012-10-02,-1,-0.0008788982203222527,-0.0007515735252702907,-0.0028082316252611463,0.004409448792204842,0.99500599462041
2012-10-04,-1,-0.000705221064903892,-0.0005879090648001431,-0.003902871512106541,0.0026631779431484856,0.994086740579512
2012-10-08,-1,-0.0007466218133125831,-0.0006172380067086092,-0.005954006558555474,0.0026540643924694764,0.9923042576417235
2012-10-10,-1,-0.0008120798210506239,-0.0006802403038953762,-0.005954006558555474,0.004409448792204842,0.9916665889305527
2012-10-12,-1,-0.0010698139202180343,-0.0009095778864145049,-0.008253510627401992,0.005339648679175883,0.9910677097753067
2012-10-16,-1,-0.0007859131304282583,-0.0006620466971259982,-0.008561268254075275,0.004491751233758437,0.9909919196810851
2012-10-18,1,2.4377610155263175e-05,4.533873474154675e-05,-0.008561268254075275,0.0025038701171349303,0.9914248107030448
2012-10-22,0,0.0,0.0,-0.008576562970449831,0.0025038701171349303,0.9911237379402578
2012-10-24,0,0.0,0.0,-0.008576562970449831,0.003676233484395388,0.9906717514144633
2012-10-26,0,0.0,0.0,-0.008576562970449831,0.0035828348454728307,0.9907618344466419
2012-11-01,0,0.0,0.0,-0.007934206077380365,0.0043164080926230515,0.9912584612447329
2012-11-05,0,0.0,0.0,-0.007934206077380365,0.0043164080926230515,0.9920244038468146
2012-11-07,-1,-0.002400987205001642,-0.0021652350013597887,-0.005998287485877576,0.006831840004899691,0.9929977140513163
2012-11-09,-1,-0.0015645130198765887,-0.0014539917387041746,-0.005998287485877576,0.006057630319716232,0.9937762162459954
2012-11-13,-1,-0.002224503988443007,-0.001984020970380136,-0.005262599526131062,0.0043164080926230515,0.9944576635219878
2012-11-15,-1,-0.0026698290141078675,-0.002373413654374517,-0.005109852130069391,0.0043164080926230515,0.9944375487632025
2012-11-19,-1,-0.002504226473751366,-0.0022221330504364686,-0.005109852130069391,0.006057630319716232,0.9936616101550266
2012-11-21,-1,-0.002720343387670419,-0.002429809977695134,-0.005109852130069391,0.006057630319716232,0.9930829260462586
2012-11-26,-1,-0.002169590780098251,-0.001949617998020763,-0.004897171307327954,0.004790941708161137,0.993952839984608
2012-11-28,-1,-0.0022126718807800785,-0.0019789678008270122,-0.005109852130069391,0.004790941708161137,0.9940284804140977
2012-11-30,-1,-0.0011948618738173906,-0.0010996973135359387,-0.005540045297692563,0.003497021449688856,0.9939418420065377
2012-12-04,-1,-0.0014770956858096613,-0.0013633952422219017,-0.004897171307327954,0.004842604921511558,0.9933612047491981
2012-12-06,-1,-0.0004918743958827219,-0.000469156902117632,-0.005109852130069391,0.003497021449688856,0.9929463159919295
2012-12-10,-1,-0.0004128313578572273,-0.00037445826331245895,-0.005109852130069391,0.003497021449688856,0.9926556644719624
2012-12-12,-1,-0.0005751526113283396,-0.0005559954846592685,-0.004965412332034721,0.003883289667513147,0.9927295614073308
2012-12-14,0,0.0,0.0,-0.004849024707983064,0.003883289667513147,0.9928814522732924
2012-12-18,0,0.0,0.0,-0.004849024707983064,0.00250199801772145,0.9937514976301879
2012-12-20,0,0.0,0.0,-0.004486991707021796,0.004856229107969801,0.9936268342983835
2012-12-24,0,0.0,0.0,-0.0028915637150618125,0.007882053720879077,0.993676602333868
2012-12-27,0,0.0,0.0,-0.0023244952573169327,0.007882053720879077,0.9937910563743897
2012-12-31,0,0.0,0.0,-0.002075219701195692,0.006503504204318796,0.9943560498726116
2013-01-03,0,0.0,0.0,-0.002602900140070266,0.005593492449266405,0.9949088439580189
2013-01-07,0,0.0,0.0,-0.003101356671831243,0.004143974890335861,0.9957853197985923
2013-01-09,0,0.0,0.0,-0.0023244952573169327,0.004795182939314182,0.9959358059756964
2013-01-11,0,0.0,0.0,-0.0023244952573169327,0.004949008438891199,0.9959287967482309
2013-01-15,0,0.0,0.0,-0.002075219701195692,0.004949008438891199,0.9960005309300712
2013-01-17,0,0.0,0.0,-0.002714492136391442,0.004949008438891199,0.9956790851835283
2013-01-22,0,0.0,0.0,-0.002714492136391442,0.004635294374483325,0.9961606933635919
2013-01-24,1,0.0003404727483712183,0.0004430935414872966,-0.0030473485305669264,0.004635294374483325,0.9961640896255326
2013-01-28,1,0.0002788551628529566,0.0003562078272663136,-0.004199065765434653,0.004562096187228403,0.9961206974423603
2013-01-30,1,0.0004314214588073135,0.0005361601871066144,-0.004199065765434653,0.004562096187228403,0.9960683049968622
2013-02-01,1,0.00029354670587165344,0.0004061107378951396,-0.0030199424444823457,0.004562096187228403,0.9962710975749118
2013-02-05,-1,-0.00022712416780516428,-0.00020909415148092923,-0.0003328232399450521,0.004635294374483325,0.9959890323531867
2013-02-07,-1,-0.00011375421244329422,-9.637577063130272e-05,-0.0016513612041343644,0.004613371353754075,0.9961198820332479
2013-02-11,1,2.746530439870429e-05,5.066992927719682e-05,-0.0020911047834314533,0.004484619614584732,0.9962876448426591
2013-02-13,1,0.00014131217616517204,0.00018225711857017588,-0.0020911047834314533,0.004484619614584732,0.9962463951160839
2013-02-15,1,0.0002599374812653674,0.00033280863163023984,-0.0020911047834314533,0.003977872023639978,0.9964014220486197
2013-02-20,1,0.0008946320499764935,0.0010802131333383321,-0.0020911047834314533,0.003977872023639978,0.9964982140877434
2013-02-22,1,0.0011753350521440367,0.0014121107269953234,-0.0020911047834314533,0.003977872023639978,0.9963935750599396
2013-02-26,1,0.0011439992073562987,0.001375890798085205,-0.0016513612041343644,0.0046116034276823415,0.9962116660039028
2013-02-28,1,0.0011193266593122685,0.0013223287794460997,-0.0016513612041343644,0.004841773653041111,0.995940506781247
2013-03-04,1,0.0014079569265836953,0.0016689008080613926,-0.0016513612041343644,0.004841773653041111,0.9961770505915966
2013-03-06,1,0.0017621848591424486,0.002076021974276462,-0.0020911047834314533,0.004841773653041111,0.9958412063686918
2013-03-08,1,0.0015679928978317628,0.0018511237223806747,-0.0012421374294573958,0.005386378809318337,0.9958227623878665
2013-03-12,1,0.001308477205437827,0.0015381053679900366,-0.0013293575506072716,0.005386378809318337,0.9956710054773912
2013-03-14,1,0.0016191623443284485,0.0019070246205919435,-0.0013293575506072716,0.00568428782323112,0.9955377607918017
2013-03-18,1,0.0019017732939089174,0.002269556837481167,-0.0013293575506072716,0.0065274080326166335,0.9946934154776892
2013-03-20,1,0.002181298622651817,0.002573442812975289,-0.00296549594796427,0.00568428782323112,0.9945563381235418
2013-03-22,1,0.0019125773999348395,0.0022486257000964268,-0.002101578773334618,0.0075622130255576184,0.9944643657869117
2013-03-26,1,0.0023944964916052004,0.002808667739480503,-0.00296549594796427,0.00568428782323112,0.9942764189565917
2013-03-28,1,0.002741962542576121,0.0031711651070228854,-0.003066432011928896,0.004150216574204602,0.9944304701402875
2013-04-02,1,0.0019096148269738369,0.002129460271377977,-0.0028102593863207626,0.004336808091391504,0.9947269018373989
2013-04-04,1,0.0017705645890897458,0.0019066989020219722,-0.003596675754714081,0.003775840676470836,0.9941956136177077
2013-04-08,1,0.0019847719641481235,0.002176345038957551,-0.004864268643959045,0.00361542087936882,0.993830479945811
2013-04-10,1,0.0017978143317876946,0.001959319645194216,-0.0074161045593221335,0.003775840676470836,0.9933158527449009
2013-04-12,1,0.00174903859981842,0.0018744648845718203,-0.008709623556422208,0.002330573636648842,0.9925229232761431
2013-04-16,1,0.0019239731580546133,0.002082772131909016,-0.0074161045593221335,0.002330573636648842,0.9930484610103005
2013-04-18,1,0.0013173831163538984,0.0013703762731381288,-0.007808110961715974,0.003775840676470836,0.9928774822898164
2013-04-22,1,0.0017261469701122844,0.0018485966950133896,-0.007808110961715974,0.003775840676470836,0.9929478326504653
2013-04-24,1,0.0014331505024268829,0.0015099939533498557,-0.007808110961715974,0.002392770809044476,0.9930038084935445
2013-04-26,1,0.0015773665393413886,0.001709737434876708,-0.007808110961715974,0.002392770809044476,0.992437273131076
2013-04-30,1,0.0013895689155486958,0.0014559157863643795,-0.008709623556422208,0.0006918743575870334,0.9914676329395937
2013-05-02,1,0.0011566330863707849,0.0012317779630267348,-0.0073233946162268035,0.0006918743575870334,0.9922295484802802
2013-05-06,1,0.000745697255163429,0.0007610467574818567,-0.007070584105541082,0.0017285015389311856,0.9926555493697214
2013-05-08,1,0.0005941609306363797,0.0006158669504179807,-0.006901295560380589,0.0017285015389311856,0.9924826077448311
2013-05-10,0,-6.140878883901721e-05,5.622463576007486e-05,-0.006151505782289563,0.0017285015389311856,0.993586601456938
2013-05-14,1,0.000503580472819741,0.000514699544136322,-0.006901295560380589,0.000384278140849925,0.9935012704198918
2013-05-16,1,0.00025682315537120293,0.00030653030232466195,-0.006151505782289563,0.000384278140849925,0.9934389355111652
2013-05-20,1,9.913889402320955e-06,0.00011231256138124644,-0.006151505782289563,0.0007212126414977441,0.9938101179603018
2013-05-22,-1,-0.000650222729330588,-0.00048089919692900155,-0.006901295560380589,0.00033734686966272506,0.9923075027129922
2013-05-24,-1,-0.0009466953672464267,-0.000726076016770504,-0.006151505782289563,0.0015877077253695858,0.9920651921209666
2013-05-29,-1,-0.0006330176191707628,-0.0004524667984948601,-0.004087186058495612,0.0065720691825589825,0.9916470712142882
2013-05-31,-1,-0.0011843724740001245,-0.0009220135924012591,-0.003615640727605696,0.0065720691825589825,0.991801838300795
2013-06-04,-1,-0.001209898391757461,-0.000937005661179651,-0.004902854263053796,0.0065720691825589825,0.991700791525603
2013-06-06,-1,-0.000606462002801049,-0.00040410799884360463,-0.005109249292011061,0.003507479071180146,0.9923037079819889
2013-06-10,-1,-0.0008557229684397984,-0.0006157401667228363,-0.005109249292011061,0.007315437814964805,0.9912380892701093
2013-06-12,-1,-0.00143257281894033,-0.0011220367989565284,-0.004627735843378959,0.011701945626737533,0.9906165214917343
2013-06-14,-1,-0.0009422589984892334,-0.0007409173217016844,-0.004627735843378959,0.011204030524153575,0.9909080812178883
2013-06-18,-1,-0.0005737832600555437,-0.0004241778837110817,-0.005109249292011061,0.011204030524153575,0.9909744963389454
2013-06-20,-1,-0.0020381638401186456,-0.0017229028398196402,-0.00392551644153415,0.011204030524153575,0.9926118809427821
2013-06-24,-1,-0.0016903621322397326,-0.0014171692299808428,-0.0021276656159074864,0.00866295667560621,0.9933940024317415
2013-06-26,-1,-0.0012599537623047751,-0.0010203874349612046,-0.004627735843378959,0.00375526861531542,0.9942087519514387
2013-06-28,-1,-0.0014861194752134122,-0.0012022687194119452,-0.004627735843378959,0.004862349165322281,0.993984030754551
2013-07-02,-1,-0.0018507867980601252,-0.0015322192600647707,-0.002190216417740553,0.004862349165322281,0.9936112017872195
2013-07-05,-1,-0.00227481541162353,-0.0019182247154226608,-0.0011519304280171244,0.004862349165322281,0.9932040219062828
2013-07-09,-1,-0.0014108006679801762,-0.0011587881796259114,-0.00621352823735836,0.002436102087767937,0.9944101745621828
2013-07-11,-1,-0.0007894512374358653,-0.0006070082604133806,-0.00621352823735836,0.0022694272328248133,0.9950042636336925
2013-07-15,0,-4.669818391019265e-05,3.0836266923737305e-05,-0.006641447973180506,0.0015475775020898168,0.9951056327543355
2013-07-17,-1,-0.0003047446059364254,-0.00020301983147687268,-0.006268823804712688,0.0022694272328248133,0.9950599429707833
2013-07-19,-1,-0.00019742650622473667,-0.00010087393633146876,-0.008031652770436251,0.0015475775020898168,0.9941153247256602
2013-07-23,-1,-0.0001205235060796295,-4.4192594564969144e-05,-0.00874751761659191,0.0015475775020898168,0.9936285019468686
2013-07-25,-1,-0.00040598076745194706,-0.0003011838327697674,-0.00874751761659191,0.0021001930984614163,0.9934639161749691
2013-07-29,1,5.4087500501482706e-05,8.457250260795596e-05,-0.00874751761659191,0.0015194062082899155,0.992851172175962
2013-07-31,-1,-0.00040472338879619186,-0.0003130819504997421,-0.007865918157438066,0.0010199842208156033,0.9934142220494615
2013-08-02,-1,-0.0006677406807386536,-0.0005381608632101647,-0.00725328342513908,0.0044467928384642336,0.9936039078823181
2013-08-06,-1,-0.0010669283839261157,-0.0008985007731676111,-0.007865918157438066,0.0044467928384642336,0.9935385881668085
2013-08-08,-1,-0.000954556848645802,-0.0007970328874962822,-0.007865918157438066,0.0044467928384642336,0.9934035408127115
2013-08-12,-1,-0.0010740683178792482,-0.0009284617405470189,-0.007865918157438066,0.004463385606575284,0.9934492196599867
2013-08-14,-1,-0.0010430543074938362,-0.0008974007728594428,-0.008370072563092626,0.004349167774558555,0.9932002901029006
2013-08-16,-1,-0.0015426264847517236,-0.0013575155610346286,-0.0067073934249744956,0.004463385606575284,0.9942075704629194
2013-08-20,-1,-0.0010378474536142043,-0.0009471620523742038,-0.005522575084200722,0.0049624748808196895,0.9926627076064922
2013-08-22,-1,-0.0015076814143131,-0.001391406910281771,-0.006689085200787319,0.004501017973092351,0.9927709680146712
2013-08-26,-1,-0.0013925633075038894,-0.0013055560907166163,-0.005522575084200722,0.004501017973092351,0.9929283067163303
2013-08-28,-1,-0.0013171989785686704,-0.0012539154129606292,-0.006689085200787319,0.004501017973092351,0.9926078064218211
2013-08-30,-1,-0.0012404235332381386,-0.0011871751770501347,-0.007353024218623568,0.004501017973092351,0.992749363303103
2013-09-04,-1,-0.001436622125459067,-0.0013857407480542482,-0.006559736539074833,0.004501017973092351,0.9931783593001295
2013-09-06,-1,-0.0010355945711655672,-0.0010343220554865121,-0.007353024218623568,0.0030977742773665245,0.9927488521769352
2013-09-10,-1,-0.0007555975809176585,-0.000732290237688402,-0.007353024218623568,0.003075781714302417,0.9923417253107942
2013-09-12,-1,-0.001013944907428194,-0.0010085635112739135,-0.0052215906745863745,0.005432138908485934,0.9922654169475095
2013-09-16,-1,-0.0008743181331818102,-0.0008532271952146034,-0.007353024218623568,0.005432138908485934,0.9920471235335802
2013-09-18,1,0.001099108695210529,0.0013470154851407817,-0.007844661874382767,0.003749995958968467,0.992947992530644
2013-09-20,1,0.0004699962834472193,0.0006481678891883572,-0.0052215906745863745,0.006572273143412191,0.993293002934066
2013-09-24,1,0.0004498153827825353,0.0005905093621153012,-0.0052215906745863745,0.006572273143412191,0.993009741076162
2013-09-26,-1,-0.00013879804300570876,-7.56105571145428e-05,-0.004874142626494113,0.006572273143412191,0.9932047744079718
2013-09-30,-1,-0.0001822682136965929,-0.00012618807332509286,-0.00420868942507395,0.008083469096020209,0.9930398506623644
2013-10-02,-1,-0.00023688984633381905,-0.00021821694722077808,-0.004874142626494113,0.008083469096020209,0.9925977646199513
2013-10-04,-1,-0.0004395944649810719,-0.0004153776076472456,-0.004874142626494113,0.008083469096020209,0.992323809174639
2013-10-08,0,-1.9844568833454063e-05,6.996276992751624e-05,-0.007004618052238694,0.008083469096020209,0.9922132579936146
2013-10-10,1,0.0005688672913039068,0.0007513798502612627,-0.007004618052238694,0.010572681212481347,0.9917896715061333
2013-10-14,1,0.00015632012153181553,0.00025885468388440444,-0.006832337406502853,0.010572681212481347,0.9916206651480337
2013-10-16,1,0.00011713934933709237,0.00019755057855747247,-0.0061441205026960665,0.009020091661306044,0.99217549054748
2013-10-18,1,0.00016181191432981538,0.00020791423631847115,-0.0061441205026960665,0.009020091661306044,0.9921433059572345
2013-10-22,1,0.0003567395597296009,0.0004135454970390861,-0.006261952535756694,0.007391913025506201,0.992512646386742
2013-10-24,1,2.1692142059525366e-05,3.9284430134812275e-05,-0.006473278168023952,0.007391913025506201,0.9920575653540061
2013-10-28,1,0.0006128082206744558,0.0007357703978338779,-0.006473278168023952,0.003775920370756299,0.9920229508350562
2013-10-30,1,9.470371824422396e-05,0.0001416977997662604,-0.006253043846854331,0.003775920370756299,0.9923937679270166
2013-11-01,-1,-0.0004910996533189926,-0.00043943857495636984,-0.0060244340898697665,0.003789817854817767,0.9936720492893998
2013-11-05,-1,-0.0002526945434516862,-0.0002503531894612789,-0.0056801276193757895,0.003861549188140407,0.9941673553872336
2013-11-07,1,0.00010858737996442038,0.00017085635079448164,-0.004132533083362297,0.003861549188140407,0.9944495244703042
2013-11-11,-1,-0.00048303985231845013,-0.0004041324508480834,-0.0057194049637293316,0.0028896332823687017,0.9941679778401039
2013-11-13,-1,-6.08608051821441e-05,-3.8412092562415046e-05,-0.0057194049637293316,0.0017391232161585528,0.9942594176842926
2013-11-15,1,0.0009031866215524959,0.001060915242114589,-0.0057194049637293316,0.00013331827783595672,0.9941916386988526
2013-11-19,1,0.000620934152461571,0.0007478676818436821,-0.0047312473126452466,0.0028896332823687017,0.9938649453100552
2013-11-21,-1,-3.69065825776832e-05,-1.0981004832460097e-05,-0.004677755051572967,0.003861549188140407,0.9943299855758522
2013-11-25,-1,-0.000760919224951273,-0.0006777405638386104,-0.004400088372604896,0.003861549188140407,0.9946240925855013
2013-11-27,-1,-0.0003385187843207625,-0.00033521239743686986,-0.004400088372604896,0.003861549188140407,0.994474583243038
2013-12-02,1,0.00021141075983826835,0.00032660114077075116,-0.004400088372604896,0.003861549188140407,0.9943920865849466
2013-12-04,1,0.0009081187159978389,0.0011528502494408148,-0.005186318715817165,0.002881130819264577,0.9939023091018104
2013-12-06,1,0.0011077719502753007,0.001361543093729441,-0.005186318715817165,0.002881130819264577,0.9941124433588578
2013-12-10,1,0.0004804683990478735,0.0006700955491262832,-0.004618367223609847,0.003931109160750826,0.9947289171764203
2013-12-12,1,0.0004001662150261257,0.0005899160457905177,-0.004569609594019628,0.005704263041651362,0.99402447191702
2013-12-16,1,0.0005000471873032376,0.0006841128858695512,-0.004569609594019628,0.003931109160750826,0.9941530155919014
2013-12-18,1,0.0013114815289545644,0.001616742630923926,-0.004569609594019628,0.0035434479879651107,0.9947851169236226
2013-12-20,1,0.0011272298628816058,0.0013826291006397015,-0.0041854061664070965,0.0035434479879651107,0.9947246145702784
2013-12-24,1,0.0009131565530522886,0.0011288256987758041,-0.004356639358015901,0.0035434479879651107,0.9944836971875498
2013-12-27,1,0.0006150401558027456,0.0007644435214692888,-0.00409468668312094,0.0035434479879651107,0.9948671484815519
2013-12-31,1,0.0010707623183704828,0.0012844534334624687,-0.004356639358015901,0.0015195381639305956,0.9943725267375418
2014-01-03,1,0.0003765763655056886,0.0004754487380961769,-0.0031960425965127013,0.004282496622650678,0.9950815182806513
2014-01-07,1,0.0007547196518738021,0.0009148570772499307,-0.004187010045492748,0.0015195381639305956,0.9948919587336116
2014-01-09,1,0.0001428429035748811,0.00016392778493135924,-0.00409468668312094,0.002627312854273146,0.9954946832047914
2014-01-13,1,0.0007357254552354526,0.0008339106725085664,-0.00409468668312094,0.00401601899529707,0.9957978353994927
2014-01-15,1,0.00046627999252900755,0.0005171782451717487,-0.0024765550468125513,0.004445754145093494,0.9952847659915948
2014-01-17,1,0.00046195184998609415,0.0005039174387786288,-0.0024607820620783836,0.005200025215242522,0.9952531891573893
2014-01-22,1,0.0007229978457422507,0.0007889650953478788,-0.004162433783206946,0.00484677929941305,0.9951828755053403
2014-01-24,1,0.00034352889359961055,0.0003593654741530176,-0.0025367212495929895,0.00484677929941305,0.9953152454263406
2014-01-28,0,-5.1766413648150826e-05,1.7274748815461634e-05,-0.004121006807153262,0.00484677929941305,0.9950917329968466
2014-01-30,-1,-0.00020282224916659541,-0.00012773307039639256,-0.002446973070060489,0.005807440056700269,0.9950667225037408
2014-02-03,1,0.0001529305169962382,0.0001734962790852437,-0.004121006807153262,0.005755345956868335,0.9948782572258129
2014-02-05,-1,-0.0006274207512511125,-0.00048354189011326455,-0.0029567977467936206,0.005755345956868335,0.9949752731317432
2014-02-07,-1,-0.00030293205230527947,-0.00020394169151747037,-0.0029567977467936206,0.005755345956868335,0.9952105131175875
2014-02-11,1,0.0010861151753179372,0.001279502780257855,-0.0029646566413042003,0.005755345956868335,0.9951578681686722
2014-02-13,1,0.0010877711882457358,0.0012160159494938227,-0.0029646566413042003,0.0067108955046928835,0.9950832710340707
2014-02-18,1,0.0014098740992411559,0.001595170081924792,-0.0029646566413042003,0.005755345956868335,0.9951736482361466
2014-02-20,1,0.0010482740739044072,0.001156502204939663,-0.0029646566413042003,0.002735065907003968,0.995072101731743
2014-02-24,1,0.0005839639452777695,0.0006125096752289837,-0.002601263751354767,0.006208074314216583,0.9951188713833521
2014-02-26,1,0.0005009529520700908,0.0005241154154659609,-0.002601263751354767,0.006208074314216583,0.9947602276770415
2014-02-28,1,0.0005808732885127525,0.0005879332232549336,-0.002601263751354767,0.0058597649023736705,0.9948268359400617
2014-03-04,1,0.0006327229059017699,0.0006713744239231395,-0.002601263751354767,0.0058597649023736705,0.9943841893172047
2014-03-06,1,0.0005345301884924822,0.000588066325590219,-0.0018586173013088682,0.0058597649023736705,0.9945063256528894
2014-03-10,1,0.0005512918711623966,0.0005962639800450951,-0.0018586173013088682,0.007985716802527357,0.9936225514607873
2014-03-12,1,0.0009632583721686887,0.0010638564422660605,-0.0024132279299152685,0.007985716802527357,0.9935391491387384
2014-03-14,1,0.0018006041387387851,0.002050601908028252,-0.0024132279299152685,0.006067078604161896,0.9940379539771891
2014-03-18,1,0.0018706641146639745,0.002147571843680902,-0.0023901180735297262,0.006822322520123184,0.9937137913180739
2014-03-20,1,0.0012068541801109082,0.0013700598908298937,-0.0023901180735297262,0.009581040460555126,0.9931026442831666
2014-03-24,1,0.001682959876574412,0.0019292641953384045,-0.0023901180735297262,0.009581040460555126,0.9933676461891207
2014-03-26,1,0.0012525316512759072,0.001406617584368178,-0.001844888293607626,0.010456766816612792,0.9932444937686813
2014-03-28,1,0.0012468130094040457,0.0013849827102359307,-0.001844888293607626,0.011399854496041242,0.9926087760796459
2014-04-01,1,0.0012867136480905852,0.0014178467713802678,-0.0031918758205246476,0.010456766816612792,0.9927211194442827
2014-04-03,1,0.001331487025109043,0.0014815397594720755,-0.0070425248145342826,0.010456766816612792,0.9911646294221261
2014-04-07,1,0.002122773597413423,0.0023805373504397357,-0.0070425248145342826,0.009352488310684894,0.9915532115343654
2014-04-09,1,0.0022109406743401417,0.002488350951654358,-0.00799944391701424,0.009352488310684894,0.991195024871616
2014-04-11,1,0.0026317153035010574,0.002996719977694012,-0.011571934213817034,0.009352488310684894,0.9902396536621894
2014-04-15,1,0.002915670312373217,0.0032949722241378673,-0.011571934213817034,0.009233742642081714,0.9903417073572913
2014-04-17,1,0.0023672480679086056,0.002636991166995349,-0.009899505571457773,0.007532375831570122,0.9912749677586841
2014-04-22,1,0.0023556109484507864,0.0025998570112046046,-0.011571934213817034,0.007532375831570122,0.9903344990558596
2014-04-24,1,0.0023772295764781745,0.002605181629194334,-0.011571934213817034,0.007305060270340198,0.9906304847055967
2014-04-28,1,0.003025103723721959,0.0033355422674512317,-0.011571934213817034,0.0016917315660197611,0.9907741681866248
2014-04-30,1,0.0022437175809651762,0.0024649851841165656,-0.010039197069157728,0.003233313804479491,0.992146200118901
2014-05-02,1,0.0014291472197640914,0.0015471334680241663,-0.0040180408519481575,0.005813894067954063,0.9939691184283835
2014-05-06,1,0.0011635746941766351,0.0011903862251284206,-0.003568014812720523,0.002931543271735316,0.9943560571498273
2014-05-08,1,0.0008274398589627838,0.000857436441835804,-0.003213370070381964,0.002931543271735316,0.9949241195772792
2014-05-12,1,0.000148037487792944,0.00024900127996103065,-0.002521135554681509,0.002931543271735316,0.9956397111617785
2014-05-14,1,0.0009496949330644202,0.0009736533380509155,-0.003213370070381964,0.002931543271735316,0.9950790351755511
2014-05-16,1,0.0006680143421412571,0.0006804377308258166,-0.002521135554681509,0.004307079615882122,0.9952975878523234
2014-05-20,-1,-0.00013865747208730505,-2.1508040056664364e-05,-0.002521135554681509,0.005813894067954063,0.9945395127840011
2014-05-22,1,0.00010647490104368255,0.00020910286532972863,-0.003213370070381964,0.004578161918185856,0.9943305205815705
2014-05-27,1,7.408757563620003e-05,0.00016919092931433967,-0.0031876938827202573,0.004578161918185856,0.9944622008739514
2014-05-29,0,-1.8982580191794472e-05,0.00012051227578380896,-0.0031876938827202573,0.004578161918185856,0.9942279474998884
2014-06-02,1,0.00018167901196192913,0.0002843382331342165,-0.001818822326578946,0.005959742542233625,0.994001211175014
2014-06-04,1,3.931994828441373e-05,0.00016932867877406983,-0.005816668822584331,0.005959742542233625,0.9928369807784228
2014-06-06,1,0.0002122639987863698,0.0002935399394444649,-0.005816668822584331,0.004803107332039039,0.9930058413956822
2014-06-10,0,-9.226172746622658e-05,3.824583257552687e-05,-0.0057809559508082715,0.005959742542233625,0.9928862146933879
2014-06-12,-1,-0.00021600353732134658,-7.08314120337772e-05,-0.00326023887052152,0.004803107332039039,0.99359562311444
2014-06-16,1,0.00012293038509763584,0.00021252879781181837,-0.0057809559508082715,0.0058253529286434215,0.9931194403953506
2014-06-18,1,0.0006740429179866726,0.0007240533943558912,-0.005097634408512314,0.0058253529286434215,0.994078529382155
2014-06-20,1,8.518291181589167e-05,0.0002002591051837313,-0.003076636591865351,0.006609583518236145,0.9944570283321585
2014-06-24,-1,-0.00042535196289852017,-0.00024900358287487524,-0.003076636591865351,0.006609583518236145,0.9943620225723623
2014-06-26,1,0.00022336447460816742,0.0003106217686791443,-0.003076636591865351,0.0058253529286434215,0.9949742211292486
2014-06-30,1,0.00046948343677353176,0.0005586702210432966,-0.005097634408512314,0.005049348626264783,0.9942859537442321
2014-07-02,-1,-0.0007343796920559774,-0.000517136409224722,-0.005097634408512314,0.005049348626264783,0.9940089598517728
2014-07-07,-1,-0.00016698919147840646,-3.4670007470887995e-05,-0.0049551525729979,0.004677461660360123,0.9941318167361528
2014-07-09,1,0.00021171598363855474,0.0002741808246037302,-0.008418352834638668,0.0015318768458994487,0.9933973553366776
2014-07-11,1,0.00035245033276490214,0.0003910442955711956,-0.008418352834638668,0.006609583518236145,0.9921285485146807
2014-07-15,1,0.00021250886015584947,0.0002767120640412889,-0.010245414445937384,0.004473332266735574,0.9921619384361466
2014-07-17,0,-5.948221857239296e-05,5.620415910415766e-05,-0.010245414445937384,0.0046947758205732595,0.9922277112363601
2014-07-21,1,0.00010754341166411223,0.00021237592486018133,-0.010245414445937384,0.0014486648123861016,0.9924934842498094
2014-07-23,1,0.0001114027913960801,0.0001977116075149822,-0.010245414445937384,0.004876431460904327,0.9921450552151847
2014-07-25,0,-8.284423463432e-05,3.5174340554205996e-05,-0.010245414445937384,0.004876431460904327,0.9919470262184203
2014-07-29,-1,-0.0003418586751658435,-0.0001735421696995078,-0.008673827959022551,0.004045970843975146,0.9925672309100498
2014-07-31,-1,-0.001444334637772759,-0.001152285384644053,-0.004858129627228929,0.007085047292064666,0.9932845793297854
2014-08-04,-1,-0.00131588888360282,-0.0010610732009611054,-0.005638618451387599,0.007085047292064666,0.9927282752343833
2014-08-06,-1,-0.0016117335145065003,-0.0013622052540890619,-0.0015585384576530038,0.008437831217761278,0.9929876304723095
2014-08-08,-1,-0.00026655436315331006,-0.00017232033999491309,-0.0037991550475726076,0.007085047292064666,0.9941153289663422
2014-08-12,-1,-0.0010003032923844902,-0.0007930219278080107,-0.004778204121381109,0.007085047292064666,0.9939066018375927
2014-08-14,-1,-0.0006177478842635078,-0.0004720545860733155,-0.004872267268697463,0.006709333655613617,0.9934095088949071
2014-08-18,-1,-0.0007939710657637092,-0.0006206957456207935,-0.004872267268697463,0.007310690308408129,0.9927029850744898
2014-08-20,-1,-0.0003069829479017308,-0.0002018674627389748,-0.0070407000664592,0.006709333655613617,0.9925967948691496
2014-08-22,-1,-0.0004071795038868213,-0.0002914159788253649,-0.0070407000664592,0.007310690308408129,0.9922133938020576
2014-08-26,-1,-0.0006963513862589389,-0.0005392651212687968,-0.005515292599321322,0.007310690308408129,0.9927336236599528
2014-08-28,1,0.0004926072565713934,0.0005169449489111459,-0.005515292599321322,0.004596603962410804,0.9931100727048859
2014-09-02,1,2.3384658489251507e-05,5.324188413309882e-05,-0.0050603296256737755,0.0048209362433290475,0.9938198203656297
2014-09-04,1,0.00042920159081262174,0.00046360698230906854,-0.0050603296256737755,0.0048209362433290475,0.9937531651111917
2014-09-08,1,0.001034989667160181,0.0011842102893588572,-0.004840891573706546,0.003112739202010371,0.9945021903707782
2014-09-10,1,0.0004535452227903666,0.0005125034928925953,-0.0018981668033355315,0.0048209362433290475,0.9945070323247894
2014-09-12,1,0.000249737923320178,0.0002938789169011826,-0.0018981668033355315,0.004668472287913936,0.9950662047519174
2014-09-16,1,0.0010605401473276813,0.0012173557504817378,-0.0018981668033355315,0.0070526411670138135,0.9939167184313196
2014-09-18,1,0.0008219056834426512,0.0010087917077622585,-0.0015919669262175267,0.0070526411670138135,0.9941070321653652
2014-09-22,1,0.0006478566434443772,0.0007590500043293899,-0.0015919669262175267,0.007204380401711147,0.9940055152756978
2014-09-24,1,6.26240631708993e-05,8.340349189550072e-05,-0.0011960864045439646,0.007204380401711147,0.9935535869583536
2014-09-26,1,0.00013934561436125097,0.00014567257274333243,-9.661689568662879e-05,0.007204380401711147,0.9936314865487188
2014-09-30,1,0.00023960340918137126,0.00024144162222079844,-0.0007411048908474865,0.007204380401711147,0.9938149618643665
2014-10-02,1,0.0002340068802986738,0.0002712715910329162,-0.0011960864045439646,0.00571654531477277,0.993331196848024
2014-10-06,1,0.0003599121702322053,0.00036012196205974093,-0.0012840149693017441,0.00689529940636835,0.9928936108222729
2014-10-08,1,0.0010838843467135936,0.0011646414608205645,-0.0012840149693017441,0.00689529940636835,0.9928030025108667
2014-10-10,1,0.0006461055086458612,0.0006597454555874752,-0.0012840149693017441,0.006366054672948127,0.992204128325138
2014-10-14,1,0.0023111053641721706,0.00253219267567084,-0.0012840149693017441,0.0045623377293449365,0.9935177638908582
2014-10-16,1,0.0017208538607661455,0.001854653777989323,-0.00226187810566396,0.0045623377293449365,0.9934281658013873
2014-10-20,1,0.002134490286036685,0.0023344580686520513,-0.002302434015167783,0.0045623377293449365,0.9933946950776121
2014-10-22,1,0.0022884687123291315,0.0025104752989181926,-0.002302434015167783,0.0037851787986617302,0.993423794486399
2014-10-24,1,0.0022877652303955813,0.0025076870691325493,-0.0033878616688368486,0.0036168194180791107,0.993297583849868
2014-10-28,1,0.0021474119871724294,0.002352690852063788,-0.005451310711304747,0.0036168194180791107,0.9925443601265126
2014-10-30,1,0.001513377468574371,0.0016225171500222919,-0.0038322784608695423,0.00785973777608407,0.9928854791523335
2014-11-03,1,0.0015607848959731665,0.0016750536529743201,-0.0038322784608695423,0.005994222349080396,0.9930809231863378
2014-11-05,1,0.0025384154740331535,0.002785345335026364,-0.0038322784608695423,0.004830295921789314,0.9939639331417863
2014-11-07,1,0.00221124788319819,0.0024603390531890653,-0.0038322784608695423,0.005994222349080396,0.9942051218537086
2014-11-11,1,0.0021099960116228527,0.002317812650001031,-0.004712032284822585,0.004830295921789314,0.9943333174381953
2014-11-13,1,0.001690635097366291,0.0018370982249222385,-0.004712032284822585,0.005994222349080396,0.9942395168741734
2014-11-17,1,0.002001198300562019,0.0022108400751405777,-0.0036811129434878628,0.004830295921789314,0.9946539893541821
2014-11-19,1,0.0022296623708042296,0.0024932610173713943,-0.0036811129434878628,0.008152972137469596,0.9937504517667096
2014-11-21,1,0.0017527525015872043,0.0018955819396693984,-0.0025531681363157497,0.008152972137469596,0.9937288300111418
2014-11-25,1,0.0012311023103492443,0.0013058337390672756,-0.0015657914734150012,0.010194516856962614,0.9937031408306073
2014-11-28,1,0.0019698207962306397,0.002144646758720853,-0.0015657914734150012,0.010194516856962614,0.9938753389768116
2014-12-02,1,0.0021430237189270602,0.002343847054649454,-0.00402949745106411,0.010194516856962614,0.9922104099455193
2014-12-04,1,0.001977355706593899,0.002155811823422495,-0.004332690028920708,0.010194516856962614,0.9919704060574376
2014-12-08,1,0.0021321994801232463,0.002328985711285652,-0.0039503842707552415,0.011096501760604184,0.991957543967239
2014-12-10,1,0.002059108177742391,0.0022530896918630723,-0.0039503842707552415,0.011096501760604184,0.9915026209837784
2014-12-12,1,0.001916132892695367,0.0020801729137431752,-0.002372990763388015,0.011096501760604184,0.9922504778581068
2014-12-16,1,0.0016547938155094363,0.0017776004148956112,-0.001414936836814926,0.011241805984816588,0.9916562158555242
2014-12-18,1,0.002421502761812363,0.0026507222644194745,-0.001414936836814926,0.010883882859849463,0.9922310555482642
2014-12-22,1,0.0020283434301525123,0.0021359466117869042,-0.001414936836814926,0.010883882859849463,0.9922015424240991
2014-12-24,1,0.0023281666651716673,0.0024600469253377565,-0.00015086893909361073,0.010405939175263786,0.9930589785794023
2014-12-29,1,0.00245355621931501,0.0025674829423801967,-0.0015160010294337919,0.0076476953339201376,0.9933408525984245
2014-12-31,1,0.0021176217170700744,0.0022522414211864203,-0.00015086893909361073,0.010405939175263786,0.9927971064368325
2015-01-05,1,0.0018709933269280726,0.001933991294741884,0.00015088010130362095,0.010405939175263786,0.9930917446181023
2015-01-07,1,0.002389277511658114,0.00254302154661162,-0.00015086893909361073,0.006221530481065301,0.9924660296597783
2015-01-09,1,0.0017140593132787625,0.0017674646178614621,-0.0016448998768602637,0.006221530481065301,0.9911612554225266
2015-01-13,1,0.001692913907532615,0.0017610385774523805,-0.00554904685500234,0.0076476953339201376,0.9897086981652407
2015-01-15,1,0.0020737920212786547,0.0021921320040898407,-0.014702583349949299,0.005300199219877738,0.9882983747700116
2015-01-20,1,0.0022925419012719793,0.002431728780395311,-0.014702583349949299,0.003991944778436219,0.9870882712411755
2015-01-22,1,0.0025769797440845315,0.00279333246916033,-0.014702583349949299,0.0023481213869603976,0.986213651683709
2015-01-26,1,0.0022354099491516846,0.002377174756139323,-0.014702583349949299,0.005578988601432687,0.9859489388604219
2015-01-28,1,0.0022203793210929493,0.0023684344385299073,-0.016418596501170644,0.005578988601432687,0.9849617693094618
2015-01-30,1,0.0013236952174513897,0.0013621564984794242,-0.016269853029861746,0.0021508352673976524,0.9866907266290375
2015-02-03,1,0.0008768840438250192,0.0009328488787042576,-0.016269853029861746,0.005351019138131821,0.9862760172323294
2015-02-05,-1,-0.00026376377224641534,-5.383557090287013e-05,-0.016269853029861746,0.004738728782079663,0.9870028648070773
2015-02-09,-1,-0.0013734259739838547,-0.0010534653897946245,-0.014702583349949299,0.004738728782079663,0.989078533017971
2015-02-11,-1,-0.0016952258265079925,-0.0013037110653441196,-0.014058999814245915,0.004738728782079663,0.9897530261705804
2015-02-13,-1,-0.003132936810837367,-0.0025777501557974073,-0.008425716606910076,0.006468277033158414,0.9904409672193684
2015-02-18,-1,-0.0022819339943462823,-0.0018238211749545211,-0.008183346278709367,0.006468277033158414,0.9909858269547674
2015-02-20,-1,-0.003039395408994549,-0.002490179567089778,-0.007974002970649874,0.006994070331641606,0.9907278706026053
2015-02-24,-1,-0.002386595770936801,-0.0019196191996359454,-0.010842917714939134,0.004895582943386734,0.9908296950284896
2015-02-26,-1,-0.0032037890808850516,-0.0026588697600288614,-0.010726762529264026,0.004895582943386734,0.9912153260081312
2015-03-02,-1,-0.004084785257100614,-0.003431725831161093,-0.007974002970649874,0.0064155720026852795,0.9912799961873151
2015-03-04,-1,-0.0036045874462012273,-0.0030546696380546155,-0.007867916891074392,0.007023812670070151,0.991266575552603
2015-03-06,-1,-0.004169035401806644,-0.003551309190554036,-0.006335652640178114,0.007023812670070151,0.9916938343001882
2015-03-10,-1,-0.003401267837843825,-0.002955305526060867,-0.007867916891074392,0.007023812670070151,0.9911485481452394
2015-03-12,-1,-0.0034202692135711886,-0.002959441798141058,-0.007867916891074392,0.0064396219557563035,0.9915850584257572
2015-03-16,-1,-0.0029899554128822005,-0.002598507371183199,-0.007562717927404934,0.005852828625567257,0.9923646854898923
2015-03-18,-1,-0.0022994822131903927,-0.0020040279551675976,-0.006952339515110406,0.004763751078282079,0.9936977706411058
2015-03-20,-1,-0.0023895046844732318,-0.002093654350817625,-0.004069650034332399,0.004763751078282079,0.9935794306280622
2015-03-24,-1,-0.0027264848098850604,-0.002388806929901768,-0.004069650034332399,0.003973455014789235,0.9939612209566232
2015-03-26,-1,-0.0038003644384893755,-0.0033072572890493913,-0.0013550304897261322,0.004969146892813489,0.9932466046822677
2015-03-30,-1,-0.0031347839364335066,-0.0027346965115916614,-0.002372685798060754,0.004201115860804263,0.9936022851070805
2015-04-01,-1,-0.0022413325279775037,-0.001996976612965052,-0.004435619644892646,0.0035521484004249508,0.9941125443033598
2015-04-06,-1,-0.0022978520882705076,-0.002013505227781287,-0.004435619644892646,0.003684312049232655,0.993691429332712
2015-04-08,-1,-0.002582994445185868,-0.002282354580762532,-0.005117878724197973,0.003684312049232655,0.9936637185934205
2015-04-10,-1,-0.002589718188064839,-0.002269927214977754,-0.005117878724197973,0.003684312049232655,0.993906241275641
2015-04-14,-1,-0.0027708647333567786,-0.002441088399333535,-0.005117878724197973,0.003684312049232655,0.9939948432168243
2015-04-16,-1,-0.00276329045908086,-0.0024382579921647454,-0.005356845669424199,0.003684312049232655,0.9939345162618656
2015-04-20,-1,-0.0020274273481728257,-0.0017916755439938245,-0.005356845669424199,0.003684312049232655,0.9942036234802779
2015-04-22,-1,-0.002640440685674296,-0.0023056362060286262,-0.004371470076787952,0.003684312049232655,0.994320307326963
2015-04-24,-1,-0.0017066703489463965,-0.0015175985032907825,-0.005117989851405691,0.0011942978568288724,0.9947001241319166
2015-04-28,-1,-0.001624642655104955,-0.001466439979001909,-0.004371470076787952,0.002065142075314152,0.9949356490220943
2015-04-30,-1,-0.0018915026569263267,-0.0017035157705392616,-0.004371470076787952,0.00344459668802715,0.9948806288402783
2015-05-04,-1,-0.0011272396042180215,-0.0010424743732282663,-0.004715552572170868,0.0007483946333640722,0.9952197555963975
2015-05-06,-1,-0.0019085041874548976,-0.0017295184165709737,-0.0039252499427414956,0.0014484328827900634,0.9959551710183041
2015-05-08,-1,-0.0016785282287445804,-0.0015149196681735803,-0.004715552572170868,0.0006914593103443094,0.995678851821141
2015-05-12,-1,-0.0022116152912248447,-0.0019813870440859383,-0.00396950807844553,0.0006914593103443094,0.9961735781265181
2015-05-14,-1,-0.0017155239814923115,-0.0015946052791755234,-0.0040746236286022175,0.0014484328827900634,0.9956563340885148
2015-05-18,-1,-0.001057294228521014,-0.001026251196662185,-0.004981112895381553,0.0014484328827900634,0.9955729913893342
2015-05-20,-1,-0.00067527048331998,-0.0006262981219534757,-0.004981112895381553,0.004338610715124438,0.994590820073155
2015-05-22,-1,-0.0005565591700966508,-0.0004455233018271575,-0.005060333456648283,0.004338610715124438,0.9941793581451561
2015-05-27,-1,-0.0006281472986293088,-0.0005971691788254063,-0.007187695783340791,0.0020778699643552462,0.993893750555591
2015-05-29,-1,-0.0005491497850050711,-0.0005005226585847152,-0.007187695783340791,0.0022794935013696,0.993889928379489
2015-06-02,-1,-0.0003455402180412479,-0.00021400293198140657,-0.005563760016915132,0.0024891472922270886,0.9941219078794818
2015-06-04,-1,-0.00046168917543565,-0.0003659845369568287,-0.005563760016915132,0.006099073497875373,0.9931966074788847
2015-06-08,-1,-0.0008062850224689773,-0.0007446908599569868,-0.005010547129388906,0.006694191694100312,0.9921951312895534
2015-06-10,-1,-0.0004577595044370639,-0.0002930905793426024,-0.005563760016915132,0.006694191694100312,0.9914475511308892
2015-06-12,0,-1.390503878093976e-05,0.0002508493845796469,-0.005010547129388906,0.006694191694100312,0.9919871907056925
2015-06-16,1,0.0005012144892392624,0.000859564700797039,-0.00457061125267535,0.005692545630303534,0.992393212904673
2015-06-18,1,0.0013455829603957793,0.0018279519718283972,-0.005942324208606411,0.005692545630303534,0.9920758240019413
2015-06-22,1,0.0009081018096847753,0.0013428116460112674,-0.004369569695660385,0.005692545630303534,0.9926809010589827
2015-06-24,1,2.2003639703441517e-06,0.00026771261561353695,-0.0029961379216278915,0.005692545630303534,0.9932176700671963
2015-06-26,1,0.00040769252552105807,0.0007383388683841069,-0.0029961379216278915,0.005692545630303534,0.9929738722853488
2015-06-30,1,0.0001997180635254902,0.00047447818823607687,-0.0029961379216278915,0.005692545630303534,0.9929562745461764
2015-07-02,1,0.00043206663146098424,0.0006418238005665445,-0.0029961379216278915,0.005993508772990538,0.992817295962245
2015-07-07,1,0.0016041766279465267,0.0019780216285055895,-0.004369569695660385,0.004062620509614518,0.993412426200945
2015-07-09,1,0.0004940903363683581,0.0006135738487550437,-0.0029961379216278915,0.005828064720174626,0.9939461670167403
2015-07-13,1,0.0009240052505999632,0.001141428980467775,-0.0029961379216278915,0.008436660896654381,0.9935553567999003
2015-07-15,1,0.0006090164053427246,0.000757437826281194,-0.0023797853031729235,0.010173200775611822,0.9927568480246276
2015-07-17,1,0.0010242488895760753,0.0012558503166327432,-0.0023797853031729235,0.009945982170596656,0.9934801349038136
2015-07-21,1,0.0004309838609646314,0.0005200130454078098,-0.0017347379030933066,0.009945982170596656,0.9933357363839732
2015-07-23,-1,-8.921535687819157e-05,-6.933939821026321e-05,-0.0008700487160920331,0.009945982170596656,0.9931736988545838
2015-07-27,1,0.00024019026750572194,0.0003165193127362809,-0.002394979077989579,0.00838950785060902,0.991091605918475
2015-07-29,1,1.7969313910598626e-05,2.9034706263367295e-05,-0.0059266815457109006,0.009945982170596656,0.988636931772185
2015-07-31,1,0.0006909760286310123,0.0007977713711454428,-0.0059266815457109006,0.007634061205613642,0.9895233699660803
2015-08-04,1,0.0005448934536399427,0.0006558867157658327,-0.007859454349192638,0.007634061205613642,0.9887963199101866
2015-08-06,1,0.0012282890941597339,0.001426408354287866,-0.007859454349192638,0.005626909886607148,0.989322654597169
2015-08-10,1,0.0016659623392207223,0.0019372881552991808,-0.00962281292648118,0.005626909886607148,0.9883289094215612
2015-08-12,1,0.0022212146618746783,0.002546750339404954,-0.00962281292648118,0.0028660280398052807,0.9884831265086006
2015-08-14,1,0.0017080038651068159,0.0019456508255538342,-0.008678319453065679,0.003247681803244851,0.9887079706659186
2015-08-18,1,0.0012288426643639262,0.00137224046527424,-0.008678319453065679,0.005549154170058738,0.9889516844744809
2015-08-20,1,0.001690517145499234,0.001917184287503755,-0.008678319453065679,0.006645871416322526,0.988346646266747
2015-08-24,1,0.0013687297740914903,0.0015638572869033107,-0.006101641878266939,0.0071165272505106045,0.9903099231702823
2015-08-26,1,0.0012424208581930602,0.001437693295787578,-0.004308797352519374,0.0071165272505106045,0.9921566496138087
2015-08-28,1,0.0009711012008194058,0.0010967532875121543,-0.004231348747167813,0.008294686968689631,0.9918998692599977
2015-09-01,1,0.0005142135750574379,0.0005924173871279127,-0.0015144885854859102,0.009366040758991036,0.9928584625527127
2015-09-03,1,0.0005542633766454636,0.0006253474636995003,-0.0023468506633043734,0.010098195334385838,0.9918789510995362
2015-09-08,1,0.000582376054250398,0.0006463573508269959,-0.0023468506633043734,0.010098195334385838,0.9924048215651052
2015-09-10,1,0.0005928253890653442,0.0006956806514088746,-0.001211194276200111,0.010098195334385838,0.992488183648934
2015-09-14,1,0.0006013926648471691,0.0006800960210736703,-0.001211194276200111,0.011339082371300605,0.9921258945571214
2015-09-16,1,0.0010331338750128349,0.0011898459845290262,-0.001211194276200111,0.011339082371300605,0.9923297799240767
2015-09-18,1,0.0013888846959777936,0.0015786680452377997,-0.001171639183907859,0.009771568131035784,0.9924483985883439
2015-09-22,1,0.0008104868664475168,0.0009032907394756666,-0.001171639183907859,0.009771568131035784,0.9932279183296127
2015-09-24,1,0.0015117223396236465,0.00172944163267811,-0.0009541242824470386,0.00915019868217831,0.993561497157248
2015-09-28,1,0.0014416409100566794,0.0016156432510252396,-0.0038353297034277433,0.008826020060258557,0.993247073403696
2015-09-30,1,0.0017061658078391603,0.0019170221144227998,-0.004562515756625467,0.00871736790128324,0.99324988852466
2015-10-02,1,0.0015005099589944604,0.0016508078021922963,-0.004562515756625467,0.0071211717908175294,0.9938093783592679
2015-10-06,1,0.0013267311583858832,0.0014526264890319866,-0.0038353297034277433,0.005129810142130731,0.9946136758165509
2015-10-08,1,0.0018049154926427385,0.0020030261073114685,-0.0038358750658318867,0.005129810142130731,0.9944886858702064
2015-10-12,1,0.0017235728333385204,0.0019392494128356343,-0.0041901419855809,0.005129810142130731,0.9927324297224528
2015-10-14,1,0.0012871357701651858,0.0014173686855191259,-0.0041901419855809,0.008124373079244695,0.9919758199499362
2015-10-16,1,0.001780910356460332,0.002009609587345917,-0.006025809646323012,0.005462824152996808,0.9912826756252314
2015-10-20,1,0.0015709200643564747,0.0017611744262991586,-0.007516214918370146,0.0082205474707332,0.9901312615494171
2015-10-22,1,0.0016668791570426948,0.0018462696007668514,-0.007516214918370146,0.008337689078468389,0.9894960807616547
2015-10-26,1,0.0010624527785704071,0.0011582944275625555,-0.007111920032112769,0.008337689078468389,0.9900317289582243
2015-10-28,1,0.0007236059116635982,0.0007555278237148319,-0.005617945290235694,0.008337689078468389,0.9898885682165691
2015-10-30,1,0.0002750160937768697,0.0003090772758471748,-0.004067005978614212,0.008337689078468389,0.9903042555982937
2015-11-03,1,0.0004695654225295459,0.00047853848490113675,-0.005617945290235694,0.009621970689329028,0.9888765523023363
2015-11-05,1,0.0005543114612802919,0.000561139338120039,-0.005617945290235694,0.01071757398529894,0.9886917970749771
2015-11-09,1,0.0006148573373027014,0.000663428835125825,-0.0031197380931398382,0.01084747228241724,0.9909164936488173
2015-11-11,1,0.0007134907953707536,0.0007337155937378627,-0.005617945290235694,0.008461883221575282,0.9909992019967363
2015-11-13,-1,-0.0003590760195257573,-0.00022505170450245245,-0.003932197262842758,0.010625231857855376,0.9917604379408024
2015-11-17,-1,-0.0002827153278374977,-0.00016035331994679834,-0.00271954635141884,0.010772021699289187,0.9918198382120293
2015-11-19,1,0.0004084349553247055,0.0004650301703235673,-0.003932197262842758,0.010086782498167081,0.9924441734114439
2015-11-23,1,0.00039953787459186924,0.00042123799907928076,-0.00271954635141884,0.010086782498167081,0.9926172279938823
2015-11-25,1,0.0006503788337953144,0.0007076582954254609,-0.0011786953484320864,0.010772021699289187,0.9923601598282908
2015-11-30,1,4.899974695066935e-05,0.00012074630621053536,-0.001014646395542575,0.010772021699289187,0.9922260754217164
2015-12-02,-1,-0.00017478971508680656,-8.187798701169639e-05,-0.001014646395542575,0.010086782498167081,0.9934124073343229
2015-12-04,1,0.00033785974991886326,0.00037477097826346537,-0.0005057324634326254,0.0077720908161548604,0.9937133170423883
2015-12-08,1,0.0004741711413816172,0.0004978258535346296,-0.0024001987705783165,0.005601150758622365,0.9937477459950806
2015-12-10,-1,-0.00038082538940134776,-0.0002449390028149931,-0.0005057324634326254,0.005601150758622365,0.9938556803178328
2015-12-14,1,9.357573322409769e-06,0.0001090884920215018,-0.0016662952579070901,0.005601150758622365,0.9939525284376165
2015-12-16,1,0.0011410851927090375,0.0012053899165125775,-0.0016662952579070901,0.004851444650158383,0.9951098547468478
2015-12-18,1,0.0006029414605854888,0.0006157911172195869,-0.0018629033410802196,0.005601150758622365,0.9940422121578864
2015-12-22,1,0.0009057488635735722,0.000992460216224851,-0.00742903685338185,0.007078867839353385,0.9933202358426477
2015-12-24,1,0.0010062596093454712,0.0010848842736862767,-0.00742903685338185,0.005601150758622365,0.9938410710907827
2015-12-29,1,0.0013433669469242752,0.00149393897957981,-0.00742903685338185,0.007078867839353385,0.9933870331019743
2015-12-31,1,0.0011027854530433327,0.0012209708229760936,-0.001697042933437627,0.008535196737103927,0.9924623601625382
2016-01-05,1,0.002054605311989736,0.00233991131456894,-0.00742903685338185,0.008535196737103927,0.9914501942785497
2016-01-07,1,0.0016355662185934317,0.001844401054186907,-0.005913500826022046,0.008535196737103927,0.9915664390388168
2016-01-11,1,0.0012987806394634575,0.0014448509642936273,-0.004450553942374631,0.011762685172237535,0.9913101476527346
2016-01-13,1,0.0015113894089820083,0.0017070116993777062,-0.004450553942374631,0.011762685172237535,0.9908079762059602
2016-01-15,1,0.0011506463095161362,0.0012184897057828914,-0.004450553942374631,0.011762685172237535,0.9907750854768713
2016-01-20,1,0.001047108152815575,0.0010766223386137399,-0.0044494699055684555,0.011762685172237535,0.9910225529326838
2016-01-22,1,0.0011988631257227713,0.0012381351527276738,-0.0044494699055684555,0.011294779879709208,0.9911212359083205
2016-01-26,1,0.0008376422951501899,0.0008766860595360855,-0.0044494699055684555,0.011294779879709208,0.9910721091512273
2016-01-28,1,0.0013553918133655937,0.0013865158718741302,-0.005407578541032367,0.008565802996954081,0.9900600522855953
2016-02-01,1,0.0019971940308622527,0.002121273878168137,-0.0055928029743535015,0.004757360770266412,0.99047939988377
2016-02-03,1,0.0006896589034252464,0.0007589140981239924,-0.0044494699055684555,0.007764647204125148,0.9917791592502194
2016-02-05,1,0.0005431466694108687,0.0006199072809448202,-0.0035368378592202164,0.008120431832504176,0.9915731562394803
2016-02-09,1,0.001325901008049442,0.0013528944048574003,-0.0035368378592202164,0.008538999546725018,0.9913883177758402
2016-02-11,1,0.0009458420404045218,0.0009564024110134371,-0.002887556295490202,0.008538999546725018,0.9922745967961392
2016-02-16,1,0.0005340095038092228,0.0006093844785968427,-0.0025526948152785876,0.008538999546725018,0.9921597685630253
2016-02-18,1,0.0012059356583822023,0.0012319084403704407,-0.001814090870571004,0.007904169775532094,0.9931768333734137
2016-02-22,1,0.0012437942803910145,0.0012927637599520446,-0.001814090870571004,0.007645294296515871,0.9935845174509358
2016-02-24,1,0.0012678362431582486,0.0013475639156652751,-0.0019228155104125027,0.007807964526603887,0.9932547277773762
2016-02-26,1,0.0007386398097838731,0.0007420748774282812,-0.0019228155104125027,0.007694968262346015,0.9941234250701061
2016-03-01,1,0.00020486891057715405,0.0002685347992449033,-0.0012865312060801088,0.008053191673022524,0.9941975594703395
2016-03-03,1,0.0009434349553219476,0.0009941350083044395,-0.0012865312060801088,0.008053191673022524,0.9945098996689018
2016-03-07,1,0.001186087842182002,0.0012816974293831096,-0.002025158196798015,0.007694968262346015,0.9940512162769521
2016-03-09,1,0.0016998442724834252,0.0018498376602461798,-0.0035061909334411687,0.006429764304325986,0.9944558445725109
2016-03-11,1,0.0020035082919574176,0.0022197774059514548,-0.004401318829981147,0.006355241005104587,0.9944741272271864
2016-03-15,1,0.002302720127233064,0.0025415815060644393,-0.005222887227852594,0.00599699011101422,0.9940537945466615
2016-03-17,1,0.0027067804337275337,0.00301971880404154,-0.005222887227852594,0.004905247591078578,0.994055654007379
2016-03-21,1,0.001929383176825083,0.0020937151950286446,-0.004401318829981147,0.004905247591078578,0.9946351766501069
2016-03-23,1,0.0018822824966291272,0.002023737856962191,-0.005865896830779272,0.004544171135401457,0.9930225250718248
2016-03-28,1,0.0014911852396427947,0.0015689768880354194,-0.005275250962303525,0.004905247591078578,0.9932934865927238
2016-03-30,1,0.0019051313587774945,0.0020520922776822853,-0.005275250962303525,0.004905247591078578,0.9934230817760502
2016-04-01,1,0.0020858723856528104,0.0022638410638289525,-0.005275250962303525,0.004905247591078578,0.993572026979984
2016-04-05,1,0.0006933256300025061,0.0007395255526313875,-0.002346837339232502,0.00599699011101422,0.9942910431782848
2016-04-07,1,0.0011523208150136946,0.001182175061089244,-0.002346837339232502,0.006004995559321246,0.9934510221237934
2016-04-11,1,0.0004871856927338993,0.0005961578787704398,-0.0030844605136386627,0.006257225845467882,0.9921954712643087
2016-04-13,1,0.00011446077935284136,0.0002767425350481568,-0.0002028982800123819,0.006484112915150436,0.9923107578305278
2016-04-15,1,0.0009030298243671328,0.0009206889033904165,-0.0037304314845704074,0.006484112915150436,0.9922506200741914
2016-04-19,1,0.0005665110146679702,0.0006489958958166076,-0.007639121245965986,0.006484112915150436,0.9915782517807309
2016-04-21,-1,-0.000828213546341891,-0.0005759565851498179,-0.0037304314845704074,0.00656024341359476,0.9916870639992034
2016-04-25,-1,-0.0005693648940799588,-0.0003416650980909619,-0.0069147930050093434,0.006505743664183612,0.9915846373466548
2016-04-27,-1,-0.0006873837698170849,-0.0004226110131616529,-0.0069147930050093434,0.006505743664183612,0.9914621197439569
2016-04-29,1,1.2892427104750897e-05,0.00017285303957310493,-0.0069147930050093434,0.006505743664183612,0.9913679832475066
2016-05-03,1,0.0002605484314546361,0.00038218364307282803,-0.0069147930050093434,0.006505743664183612,0.991353510432752
2016-05-05,-1,-0.0002917613581537381,-5.9034235943742426e-05,-0.004523007227995388,0.006505743664183612,0.9918821830675767
2016-05-09,0,-3.246393369863939e-05,0.00013886120770473915,-0.003443839139881605,0.005928030968152982,0.9931985068923569
2016-05-11,1,0.0007461727741016463,0.0007751258833350712,-0.003443839139881605,0.006195218308493925,0.9928730122018747
2016-05-13,1,7.164508588265186e-05,0.00019788944757719701,-0.0015012474483946628,0.006195218308493925,0.9930001709031762
2016-05-17,-1,-0.0004543094861931548,-0.00027396754448581555,-0.0015012474483946628,0.006924453919702289,0.9931162394370449
2016-05-19,0,-6.551153641191145e-05,5.088961566654019e-05,-0.001052059410232383,0.005938741274375335,0.9945483825544374
2016-05-23,-1,-0.0007975897663859633,-0.0005988896940323547,-0.001052059410232383,0.005938741274375335,0.9948006148670103
2016-05-25,-1,-0.0006672726496820411,-0.00046407647135040706,-0.001052059410232383,0.005616350977457662,0.9951079929771399
2016-05-27,0,-0.0001089931901542882,5.46153323180491e-06,-0.0009858830740638736,0.005616350977457662,0.9947469946586844
2016-06-01,0,-6.780436455121374e-05,6.789309410002711e-05,-0.0011774270780885194,0.0050840690277775815,0.9949925553195433
2016-06-03,1,0.00028405841932390986,0.00038695661751866217,-0.0009858830740638736,0.0050840690277775815,0.9945515171744073
2016-06-07,0,-3.0690187039012417e-06,0.00014076919624336824,-0.0008344800309765992,0.005859429514527116,0.9940537650918003
2016-06-09,1,0.0007020248647230128,0.0007569002148160226,-0.0011669124487552144,0.0053535848181297755,0.9938129571746803
2016-06-13,1,0.0005268711786391719,0.0006144383888522219,-0.002316793502820524,0.004764382207702429,0.9928953966095744
2016-06-15,1,0.00040150208609164253,0.0004913832715935668,-0.0011669124487552144,0.006066789436844554,0.9929587010233729
2016-06-17,1,0.0005273825679114592,0.0006030237476649699,-0.0011669124487552144,0.006066789436844554,0.9931493246028094
2016-06-21,1,0.000374968175077843,0.0003991213551174547,-0.0011669124487552144,0.006066789436844554,0.9930797702819184
2016-06-23,1,0.0010708735315576444,0.0011949331203740287,-0.0005700057728219487,0.008967510314715911,0.9924544016804902
2016-06-27,1,0.0015761789056785078,0.0016548794881328039,-0.001667754640434982,0.008088030335925178,0.9932266942807104
2016-06-29,1,0.0009694025183912545,0.001019347718993523,-0.005274431285799839,0.008088030335925178,0.9922209296288967
2016-07-01,1,0.0025024194579335263,0.0027296444638597347,-0.005274431285799839,0.006066789436844554,0.9933062766116373
2016-07-06,1,0.0023988307756723608,0.0025775974996370774,-0.005555530724866956,0.004751741700932217,0.9927909869609897
2016-07-08,1,0.00223460127392959,0.0023887798890981685,-0.005555530724866956,0.0032293820481744807,0.9933748318460703
2016-07-12,1,0.0017342333600484285,0.0018617278281678148,-0.005273692932587337,0.003261708700040041,0.9948043225134993
2016-07-14,1,0.0021709285692103385,0.002353279873402377,-0.005406160669695704,0.0023977591561717445,0.9945043888251991
2016-07-18,1,0.0019215079129353014,0.0020554898464255856,-0.005555530724866956,0.0023977591561717445,0.9938072218417511
2016-07-20,1,0.0011537280572188726,0.0011623361793509715,-0.006943196648425528,0.002814542389479914,0.9934599238471757
2016-07-22,1,0.0017244351360592507,0.0017589523439929013,-0.007463643512737384,0.0023977591561717445,0.9931041657732673
2016-07-26,1,0.0016729580731676735,0.0017220252858266077,-0.007463643512737384,0.0023977591561717445,0.992972288173839
2016-07-28,1,0.0009181918303716933,0.0009541349876664668,-0.0061704779995721505,0.0023977591561717445,0.9943937707327388
2016-08-01,1,0.0016039522725777773,0.0017029388171279775,-0.007463643512737384,0.0017259495469369526,0.9933789037995033
2016-08-03,1,0.0010734857936224476,0.001098912170877066,-0.00799669256524069,0.002408534706793598,0.9935075882944292
2016-08-05,1,0.0010383078490393185,0.0010866153126838113,-0.006868607881385108,0.0035553325834645007,0.9933760313845038
2016-08-09,1,0.0012429974098987465,0.0013312213860929938,-0.006868607881385108,0.00585321536062458,0.9931741119318044
2016-08-11,1,0.0007485810200700976,0.0007538575668305087,-0.006868607881385108,0.00585321536062458,0.992002893345448
2016-08-15,1,0.00020361881726933942,0.00025170105916063983,-0.006868607881385108,0.006593181503168807,0.9910588135232689
2016-08-17,1,0.0005723494597582136,0.0005914616130268855,-0.005855436728384613,0.00585321536062458,0.9919770977412835
2016-08-19,1,0.0008028745847123689,0.000830744845210087,-0.00358595814754358,0.006593181503168807,0.9923355191446225
2016-08-23,1,0.0007796661040654422,0.0008212371878385254,-0.003574523443262764,0.007658298559716729,0.9913976116039276
2016-08-25,1,0.0004191187765736881,0.0004649199575104957,-0.003574523443262764,0.007658298559716729,0.9910779164691126
2016-08-29,1,4.554807921384343e-05,0.00012620804669341473,-0.004465147902859066,0.007658298559716729,0.9913589311488341
2016-08-31,0,-0.00011212078920916086,1.4001217814061198e-06,-0.004465147902859066,0.006990829489311058,0.9913253516355991
2016-09-02,1,0.00010531179811805485,0.00020506222118432015,-0.0094387859669169,0.0058235760466062905,0.9908217305132524
2016-09-07,1,0.0003913603445688717,0.00044051753557137964,-0.011563001944203746,0.005000879269663838,0.989971153359109
2016-09-09,-1,-0.0004910121178219272,-0.00034475989944860477,-0.0094387859669169,0.003016931220311687,0.9915156781575912
2016-09-13,-1,-0.0010080977084727266,-0.0007278010695966767,-0.007329725397859295,0.003016931220311687,0.9924612474929291
2016-09-15,-1,-0.0006822287896946802,-0.0004562999060913868,-0.007329725397859295,0.00911609485646586,0.9912322616468573
2016-09-19,1,8.207170892500162e-05,0.00021382701047454564,-0.007329725397859295,0.0033386621350572276,0.9916286273741429
2016-09-21,1,0.0009160801990366579,0.0009291763532960403,-0.007488895445332105,0.0033386621350572276,0.9918624824060371
2016-09-23,1,0.0010193220911060854,0.001026775672666581,-0.007488895445332105,0.0004949703341233845,0.9917577985250079
2016-09-27,1,0.0004355945986639141,0.0004956898383414602,-0.006887230603855573,0.003511577522676437,0.9923574984722404
2016-09-29,-1,-0.000601556711485385,-0.0004506147536298669,-0.006523948183057684,0.003511577522676437,0.9931509188013582
2016-10-03,-1,-0.001468661486734117,-0.0012295933255845912,-0.004455665334205654,0.006722432530597591,0.9934915927986877
2016-10-05,-1,-0.002681000369773532,-0.0022919286936896963,-0.004455665334205654,0.006722432530597591,0.9932309460640238
2016-10-07,-1,-0.0032841851760696066,-0.0027931611878209226,-0.004479254035595267,0.006722432530597591,0.9928820788219492
2016-10-11,-1,-0.00325509405166166,-0.0027516622471174643,-0.003985069601804794,0.006722432530597591,0.9928765277040291
2016-10-13,-1,-0.0019946671114198216,-0.0016032672139783476,-0.005603692340420822,0.003070488154610346,0.9920818203192912
2016-10-17,-1,-0.0021456290362981065,-0.0017545386292104536,-0.005603692340420822,0.003070488154610346,0.992293193042752
2016-10-19,-1,-0.0018498409171723107,-0.0015191782679755306,-0.004479254035595267,0.003070488154610346,0.992004247190515
2016-10-21,-1,-0.0016892870662737099,-0.0013894806326057363,-0.006256013524786865,0.003070488154610346,0.9910032564695348
2016-10-25,-1,-0.001093281679651982,-0.000887208070265844,-0.006256013524786865,0.003070488154610346,0.9908726357112028
2016-10-27,-1,-0.0013902695289224587,-0.0011422247013537447,-0.00777717808950193,0.005163489341077321,0.9901637176367497
2016-10-31,-1,-0.00023340105011662742,-0.0001479787377676632,-0.00777717808950193,0.005163489341077321,0.990319304962142
2016-11-02,-1,-0.001297885023105922,-0.0010910429170483773,-0.00777717808950193,0.005163489341077321,0.9899469806577611
2016-11-04,-1,-0.0014117508646763644,-0.0011842999803346338,-0.00777717808950193,0.004911443981156904,0.9900027055635251
2016-11-08,-1,-0.0008179969836955231,-0.0006693070854523475,-0.00777717808950193,0.003908574009466683,0.9903587695468641
2016-11-10,-1,-0.0027173081992985433,-0.002339139928112253,-0.003582610991960916,0.006310544879393705,0.9917658551454449
2016-11-14,-1,-0.002605525778575332,-0.00224065160709665,-0.0012281052100356685,0.0100083220361733,0.9902991235588494
2016-11-16,-1,-0.001280742946432287,-0.0011068275165838776,-0.005627587393476481,0.008936231294718171,0.991088469454178
2016-11-18,-1,-0.002162555764284523,-0.0018792788706885383,-0.00010313767508520316,0.009530986780048963,0.9910734838780131
2016-11-22,-1,-0.000878764155916294,-0.000809092727141557,-0.00010313767508520316,0.009530986780048963,0.9920366279081562
2016-11-25,-1,-0.0003649135125433646,-0.0003508855444808988,-0.00010313767508520316,0.006508796707837303,0.993107433849199
2016-11-29,0,-3.795858015133292e-05,1.5904013702232344e-05,-0.000607866570660043,0.004894464251463403,0.9934176534113891
2016-12-01,-1,-0.0015774200618736164,-0.0014028543918496307,-0.0004613517353747894,0.006508796707837303,0.9936831966445686
2016-12-05,-1,-0.0008386984097962563,-0.0007839973228157518,-0.0007110413908866674,0.006508796707837303,0.9943835388182521
2016-12-07,-1,-0.0006149521746544643,-0.0005863194290321898,-0.0014260513135696175,0.006508796707837303,0.9945511888721668
2016-12-09,-1,-6.0990435366639696e-05,-3.04954950147545e-05,-0.003059721514836678,0.0031651273998440357,0.9948239064586012
2016-12-13,1,0.001229205380648284,0.0014862993174681002,-0.003059721514836678,0.0031651273998440357,0.9953945620629956
2016-12-15,1,0.0007186751674299111,0.0009001663140457046,-0.003059721514836678,0.003939924741048485,0.9951782415911115
2016-12-19,1,0.0006699489098485157,0.0008101356646306535,-0.003229604677821727,0.0025932165924980955,0.9950113577457667
2016-12-21,1,0.0009335432952712475,0.0011250696440179607,-0.0037548708729607592,0.0025932165924980955,0.9946932680929753
2016-12-23,1,0.0007894326677010002,0.0009382869168094415,-0.004233268045743527,0.0009183884982291645,0.9944534222326805
2016-12-28,1,0.00036267990435752065,0.0004438095000373725,-0.0037548708729607592,0.0029308360444612854,0.9948345490285222
2016-12-30,1,0.0006730258247128804,0.0008066948869673705,-0.0033385304612528555,0.0032245713032640643,0.994491748445502
2017-01-04,1,0.0003800188028215269,0.0004694907941892397,-0.004233268045743527,0.004118256451308571,0.9934925121362811
2017-01-06,1,0.00011028851671891261,0.00012854839348890937,-0.004233268045743527,0.004118256451308571,0.9935569285496134
2017-01-10,1,5.493567378469419e-05,6.450652833945322e-05,-0.0033338223362616324,0.005861070668416984,0.9937468197202334
2017-01-12,1,0.0005487125851723813,0.0006409930273400797,-0.004233268045743527,0.0037568165444392776,0.9937273129887159
2017-01-17,1,0.0009602794687082487,0.001095930327505703,-0.004847255405955056,0.003527638154830075,0.9939184141798805
2017-01-19,1,0.0005314074359501894,0.0006228610086700798,-0.004750926246727665,0.003527638154830075,0.9943119488169612
2017-01-23,1,0.0002483721840552759,0.0002769490925220236,-0.005035651606503028,0.0037568165444392776,0.9936769540332693
2017-01-25,1,0.00021576490057593424,0.00023730306434714216,-0.0035482408922670053,0.008949391115632681,0.992659698853969
2017-01-27,1,0.0003092211509077336,0.00035672315349554275,-0.004650665397506951,0.009430707415854169,0.9919202475445409
2017-01-31,1,0.0011450789398327896,0.001317932559837004,-0.005533019880068689,0.009430707415854169,0.9915504193777429
2017-02-02,1,0.00043125524781268163,0.00045046011047273374,-0.004650665397506951,0.009430707415854169,0.9926003940179019
2017-02-06,1,0.0003814804577556881,0.0004202438772511056,-0.004650665397506951,0.009430707415854169,0.9925872908330925
2017-02-08,1,0.0008793899267560278,0.0009938167959905632,-0.005897250999408833,0.006405758252537936,0.9921488455269024
2017-02-10,1,0.001062142723467725,0.0012391434159175205,-0.005060732820389019,0.006405758252537936,0.9926022272707423
2017-02-14,1,0.0009646982752311755,0.0011650295329231554,-0.004650665397506951,0.010266599631046626,0.9926301802664504
2017-02-16,1,0.0010227851834248326,0.0012377287772058223,-0.004772075770620332,0.010266599631046626,0.9922084397017898
2017-02-21,1,0.0007705986101105503,0.0009202944357003784,-0.004772075770620332,0.011331904696600462,0.9921474576256916
2017-02-23,1,0.001521298326888063,0.0017450753583268521,-0.0055476346896047345,0.006286212665655499,0.9928289497949292
2017-02-27,1,0.0015110073359552018,0.001680960228016463,-0.0055476346896047345,0.003686966126025439,0.9936231297040136
2017-03-01,1,0.0009748245386352692,0.0010319862698164753,-0.005440996962394111,0.0030584165575470008,0.9944586131425254
2017-03-03,1,0.0009767176712077053,0.0010183647818392339,-0.005518236385741481,0.0027237928197585497,0.9942730469407003
2017-03-07,1,0.0011025441805636623,0.0011744516651540264,-0.005518236385741481,0.0027237928197585497,0.9944208771954801
2017-03-09,1,0.0009646420625182292,0.0010706715868337522,-0.005518236385741481,0.0031662180552864344,0.9947385643854414
2017-03-13,1,0.0011251853943625904,0.0012461343907241179,-0.005635055755662321,0.0031662180552864344,0.9942832005759668
2017-03-15,1,0.0016698976355417408,0.0018597221364920853,-0.005779644203319836,0.0025649506846447214,0.9941258594055544
2017-03-17,1,0.0016011170523034285,0.0017790435721334978,-0.005635055755662321,0.0025649506846447214,0.994453555625305
2017-03-21,1,0.001972548881129848,0.002213711159305903,-0.005518236385741481,0.0025649506846447214,0.9948167960219622
2017-03-23,1,0.0013165385625560587,0.001459717960819139,-0.004510223750996167,0.0036661479250435823,0.9956301461499717
2017-03-27,1,0.001533841680792832,0.0017396172779916425,-0.004510223750996167,0.0036661479250435823,0.9956636067183013
2017-03-29,1,0.0010984053010129895,0.0011921806150568541,-0.004510223750996167,0.0036661479250435823,0.9958734941632161
2017-03-31,1,0.0008565377449050783,0.0009054158743278609,-0.004510223750996167,0.0036661479250435823,0.995673757094709
2017-04-04,1,0.0012135333991424243,0.0013347142472983514,-0.004510223750996167,0.0035052609557345476,0.9955332217299371
2017-04-06,1,0.00044465328059243073,0.00047309745695752956,-0.004263303339328851,0.0039174799851651515,0.9958796912998875
2017-04-10,1,2.4171173788311293e-05,0.00015488261302988934,-0.003895100853493293,0.0039174799851651515,0.9963312855372939
2017-04-12,1,0.0004932880896952824,0.0005310555056777079,-0.002597632293458902,0.0035052609557345476,0.996711671189486
2017-04-17,0,-4.07487418520286e-05,9.241291662110204e-05,-0.002054110396848648,0.002504660463671691,0.9972490428646904
2017-04-19,1,2.5122289270669085e-05,0.00013244270067272836,-0.002054110396848648,0.002504660463671691,0.996705451248025
2017-04-21,1,0.00020408941199613249,0.00028385326297245277,-0.002054110396848648,0.0023123535854106757,0.9966758820570246
2017-04-25,1,0.0004450095906715043,0.0004848340288585962,-0.002054110396848648,0.002309184230789374,0.9966397232623767
2017-04-27,-1,-0.00019705788076306832,-2.2702756232868143e-05,-0.0017112447945560176,0.002609369247048065,0.996569936762216
2017-05-01,-1,-0.0005183028502413424,-0.00031345710698201434,-0.0009924092102741385,0.002609369247048065,0.9968207682085719
2017-05-03,-1,-0.0006627854151901284,-0.0004436384975884596,-0.0008466958672659786,0.003370056628234794,0.9964439586551579
2017-05-05,1,0.00019433882517774537,0.0002814092963325991,-0.0009924092102741385,0.0024379572181540397,0.9970077452476187
2017-05-09,1,0.000544330704534346,0.0005559696445771193,-0.0005427452014343929,0.002609369247048065,0.9969737492208569
2017-05-11,0,-1.437157238747512e-05,5.019675369412143e-05,-0.0005427452014343929,0.002609369247048065,0.9966727031873521
2017-05-15,1,0.0003043505384688908,0.00031156043475365235,-0.0005427452014343929,0.0035482208693087694,0.9966003890037958
2017-05-17,1,0.0001876511810109027,0.00020528194748038444,0.0004948426034971224,0.0035482208693087694,0.9968866015646708
2017-05-19,1,0.0003530681459431907,0.00035737901960551573,-0.0010381944368220422,0.0035482208693087694,0.9968509353464978
2017-05-23,1,0.0001977413598963528,0.00023123146599381508,-0.001420567211296608,0.0041802655312968735,0.9962316027782498
2017-05-25,1,0.0005428726638858364,0.0005788787343145576,-0.0035909031039109544,0.0035482208693087694,0.9952807620343639
2017-05-30,1,0.0004769491316930232,0.0004985835969014017,-0.004263808647420181,0.0041802655312968735,0.9944903457045949
2017-06-01,1,0.0007913775743072915,0.0008602798972834284,-0.006435426494565624,0.0035482208693087694,0.9935872543872469
2017-06-05,1,0.0003361796081095841,0.0003581345497744874,-0.008833441397002035,0.0035482208693087694,0.9932384875766652
2017-06-07,1,0.0007880524116185198,0.0008548649335664549,-0.008833441397002035,0.0031887600277764514,0.9930100737268277
2017-06-09,1,0.0007233826958407499,0.0008045958945632336,-0.008833441397002035,0.0031887600277764514,0.9932334438671634
2017-06-13,1,0.0007198428288168619,0.0007708036878937951,-0.008833441397002035,0.0007833913195691947,0.9932809209229055
2017-06-15,1,0.0010016337639001784,0.0010775725214083845,-0.008833441397002035,-0.0003162691454852549,0.9931135933594263
2017-06-19,1,0.0005422419578685824,0.0005424829968502171,-0.008833441397002035,0.0004251595174343177,0.9933997888389084
2017-06-21,1,0.00020899606368447775,0.0002535946220775499,-0.008279181032313274,0.0017518714882556958,0.9941517481007117
2017-06-23,-1,-0.00026130182758571277,-0.00018504062126313523,-0.005847742839207252,0.0020127983581821576,0.9943920341202359
2017-06-27,-1,-0.0007616782968607924,-0.0006220585296767827,-0.005847742839207252,0.0020127983581821576,0.9942934953097092
2017-06-29,-1,-0.001578953272982832,-0.0013278563394604967,-0.0052408676271426605,0.002493639809831832,0.9945789803476676
2017-07-03,-1,-0.0018194887874472842,-0.0015612184119198997,-0.00469801675423392,0.0058585415459657736,0.9938062799392781
2017-07-06,-1,-0.0021175022013045063,-0.001815432674443268,-0.005111951546785211,0.008845394812306279,0.9922477090223606
2017-07-10,-1,-0.0024397710501664087,-0.002078136760078033,-0.006914200401337935,0.008845394812306279,0.9914894960852701
2017-07-12,-1,-0.0022777742903693386,-0.0019198906835459122,-0.006914200401337935,0.008845394812306279,0.991599105774459
2017-07-14,-1,-0.00252332519401975,-0.0021377018269430233,-0.006859561847137607,0.008845394812306279,0.9917644230843797
2017-07-18,-1,-0.0018554090543530717,-0.0016149120333731454,-0.006859561847137607,0.008845394812306279,0.9913982233119035
2017-07-20,-1,-0.0013873314555761592,-0.0012223110730044116,-0.008101945222286442,0.008845394812306279,0.990727452293841
2017-07-24,-1,-0.001472454399950487,-0.0012910197688638415,-0.006859561847137607,0.008157500854227544,0.991428208566209
2017-07-26,-1,-0.0009416690864715142,-0.0008383031211330032,-0.006622203559104995,0.00691668231538235,0.9922390824318152
2017-07-28,-1,-0.0009047994210343202,-0.0008096528761667959,-0.005882763637880005,0.006174112315694306,0.9926357055881213
2017-08-01,-1,-0.000435090240401226,-0.00036496377505976663,-0.005882763637880005,0.004364006986642884,0.9936462801909932
2017-08-03,1,0.00015753510780029906,0.0001689188238093978,-0.0040111814242043495,0.0029127538059871214,0.9952599739180286
2017-08-07,1,0.0004297816526439192,0.0005154101674446718,-0.001493078178845321,0.002972618949381456,0.9951904118682532
2017-08-09,1,0.0003259189998137406,0.0003996147939518166,-0.0005169404007942853,0.0049174941531172885,0.9948076271315952
2017-08-11,1,0.00013997780080556133,0.00020841743500464515,-5.175114746964334e-05,0.006174112315694306,0.9945820211372927
2017-08-15,1,0.00036638743281346045,0.00043194835285149935,-0.0010184777744853017,0.005263546036916556,0.993979532213366
2017-08-17,-1,-0.00027264450422494733,-0.0002528923464667408,-0.00025933575601483686,0.0065118534542739056,0.9936607680225218
2017-08-21,1,2.189085397731722e-05,2.6485668339954595e-05,-0.00299769029991837,0.005263546036916556,0.9934183060221734
2017-08-23,-1,-0.00021707273484192842,-0.00018761465063867446,-0.0035470050367804803,0.005263546036916556,0.993230882147498
2017-08-25,1,9.490515064064612e-05,0.0001138062588395252,-0.003728640692811277,0.004822647906298878,0.9929319623404244
2017-08-29,-1,-2.3709096203565028e-05,-1.5237554241200437e-05,-0.005054671655980467,0.004822647906298878,0.992614536627759
