JNU-Tangyin/eata/results/Batch4_SP500/Batch4_SP500-SLG.csv
Date,Action,Predicted_Q25,Predicted_Q75,Actual_Q25,Actual_Q75,RL_Reward
2010-12-14,0,-0.0010926554854440444,0.0,-0.0021361348942814723,0.012318678746597285,0.9911914094602068
2010-12-16,0,0.0,0.0,-0.0018465903664958796,0.012318678746597285,0.9907894004505772
2010-12-20,0,0.0,0.0,-0.0021361348942814723,0.011467274745802933,0.9904724367441281
2010-12-22,0,0.0,0.0,-0.0021361348942814723,0.010249686022929498,0.9909636833904303
2010-12-27,0,0.0,0.0,-0.003680685016394518,0.0101215457699597,0.990682100843225
2010-12-29,0,0.0,0.0,-0.003680685016394518,0.010443259699104297,0.9901924012549043
2010-12-31,0,0.0,0.0004457785413652723,-0.006946040093864894,0.011287055813814508,0.9893906681110844
2011-01-04,0,0.0,0.0,-0.003680685016394518,0.010443259699104297,0.9905056200359303
2011-01-06,0,0.0,0.0,-0.0025123304871954672,0.010443259699104297,0.9904256551437752
2011-01-10,0,0.0,0.0,0.00020488607572588497,0.010443259699104297,0.9908616303270411
2011-01-12,1,6.154669708604513e-07,0.00011322727970275432,0.00020488607572588497,0.010443259699104297,0.9912638964388052
2011-01-14,1,0.0001135633465109083,0.0003050278182125057,-0.007647915851672767,0.009485108478899065,0.991041417491871
2011-01-19,0,0.0,0.0,-0.003641229690843886,0.009485108478899065,0.991747167791325
2011-01-21,0,0.0,0.0,-0.003641229690843886,0.009485108478899065,0.9918532795391526
2011-01-25,1,0.0014085883669013718,0.0015114159112864746,-0.007647915851672767,0.008424567796632518,0.9914315317405639
2011-01-27,1,0.002211738491551358,0.0024265148472985853,-0.010648352242034568,0.008424567796632518,0.9903338711708328
2011-01-31,1,0.0014895547133015822,0.0015493558969534719,-0.0121079984736473,0.008424567796632518,0.9884873821856394
2011-02-02,0,0.0,0.0,-0.012453981870937443,0.008950839818385315,0.9869526700096373
2011-02-04,0,0.0,0.0,-0.012803116854779157,0.008950839818385315,0.9865062685461782
2011-02-08,0,0.0,0.0,-0.012803116854779157,0.009262123412124035,0.9862336538136671
2011-02-10,0,0.0,0.0,-0.013673177468541057,0.008927896719250763,0.9856424797519855
2011-02-14,1,0.0009578374765953875,0.001161416016152246,-0.01556879627001842,0.008927896719250763,0.9848807639012613
2011-02-16,1,0.0007249063048465747,0.0008807407345864655,-0.01556879627001842,0.011555980539833503,0.9834640803288196
2011-02-18,1,0.0022097538886358143,0.002284618261482318,-0.01556879627001842,0.011555980539833503,0.9830704134028758
2011-02-23,0,0.0,0.0,-0.013673177468541057,0.011555980539833503,0.9846792908825024
2011-02-25,0,0.0,0.0,-0.0125688844276412,0.011555980539833503,0.9857644374121214
2011-03-01,1,0.0005369746248820742,0.0007381634226826422,-0.009744305000592701,0.009241887139991778,0.9880581312536585
2011-03-03,0,0.0,0.0,-0.008395546056349037,0.00924318281455531,0.9887687070001703
2011-03-07,0,0.0,0.0,-0.006393256382321177,0.011555980539833503,0.9890131314001119
2011-03-09,0,0.0,0.0,-0.005308254316339171,0.011586259244100032,0.989309731259134
2011-03-11,0,0.0,0.0,-0.0066790361665618305,0.009607688211695109,0.9896918827233181
2011-03-15,0,0.0,0.0,-0.0019335883427685926,0.009607688211695109,0.9909182283327249
2011-03-17,0,0.0,0.0,-0.0019335883427685926,0.00858236346252347,0.9917912226141244
2011-03-21,0,0.0,0.0,-0.005308254316339171,0.009607688211695109,0.9907869658834924
2011-03-23,0,0.0,0.0,-0.002218132004304614,0.013233240050705506,0.9892823895894141
2011-03-25,0,0.0,0.0,-0.002218132004304614,0.013233240050705506,0.9891714404549019
2011-03-29,0,0.0,0.0,0.0002708624614459721,0.013233240050705506,0.9889701609472877
2011-03-31,0,0.0,0.0,-0.00031677709200336046,0.013233240050705506,0.9893649343697494
2011-04-04,0,0.0,0.0,-0.000979444098502085,0.010697607876931609,0.9899667394893993
2011-04-06,1,0.0021537131655748522,0.002246975269019626,-0.0019326670046666177,0.009942732102266552,0.9906586636547784
2011-04-08,1,0.0007154190710690022,0.0008007141759572714,-0.00039267361841503843,0.01051000831587803,0.9906153046120857
2011-04-12,1,0.0007610312896911024,0.0008496141319484186,-0.0019326670046666177,0.012780374099362581,0.9889755290156362
2011-04-14,1,0.0005239935216239066,0.0006201605417784819,-0.0009269026104522756,0.012780374099362581,0.9897472231982191
2011-04-18,0,-0.00012001232777282067,8.422154456752789e-05,-0.0009269026104522756,0.01051000831587803,0.9907622242626769
2011-04-20,1,0.0014380847284535922,0.0014417143300714435,-0.0009269026104522756,0.01051000831587803,0.9913074205879803
2011-04-25,1,0.002291817283616807,0.002421181212313916,-0.004548231646101058,0.009024633218726631,0.9915924177232089
2011-04-27,1,0.0030363145982418753,0.003288244842570504,-0.004548231646101058,0.006734858366969606,0.9919369898020857
2011-04-29,1,0.0036547673867486047,0.004006089097271962,-0.004548231646101058,0.008714944225663102,0.991718410678436
2011-05-03,0,0.0,0.0,-0.005998555899539636,0.01198462747917978,0.9895656253541242
2011-05-05,0,0.0,0.0,-0.006921724546260232,0.01198462747917978,0.9893484545802436
2011-05-09,1,0.00047246813561036943,0.000554562497009466,-0.006921724546260232,0.01291046976603644,0.9888695573018016
2011-05-11,0,0.0,0.0,-0.009707192800585124,0.008770194513537756,0.9885704454744199
2011-05-13,0,0.0,0.0,-0.01395891918622013,0.008770194513537756,0.9871046631412902
2011-05-17,0,0.0,0.0,-0.01672276566719593,0.01291046976603644,0.9853330054670674
2011-05-19,0,0.0,0.0,-0.01672276566719593,0.011080211131122002,0.9858517181638728
2011-05-23,0,0.0,0.0,-0.01672276566719593,0.01291046976603644,0.9847208701270245
2011-05-25,0,0.0,0.0,-0.01982740036100606,0.01291046976603644,0.9838157993386492
2011-05-27,0,0.0,0.0,-0.01982740036100606,0.010066965934245107,0.98481649580235
2011-06-01,0,0.0,0.0,-0.01672276566719593,0.005991419302449353,0.9867034940500632
2011-06-03,0,0.0,0.0,-0.01672276566719593,0.010066965934245107,0.9861346149810973
2011-06-07,0,0.0,0.0,-0.01053172320460934,0.010066965934245107,0.9866204545609149
2011-06-09,1,0.0017063529342265865,0.0017184463552307073,-0.0011880116980007994,0.010066965934245107,0.9888876090278429
2011-06-13,1,0.00037727159079745153,0.0005773636409793859,-0.0011880116980007994,0.010066965934245107,0.9881098217393655
2011-06-15,1,0.00073592875329369,0.000871482176675095,-0.0011880116980007994,0.009379244723086521,0.9891864011272667
2011-06-17,1,0.0010647982354003193,0.001162497618300148,-0.0011880116980007994,0.009379244723086521,0.9894209593927917
2011-06-21,1,0.002805327289646783,0.002971067968123492,-0.0011880116980007994,0.008945314310733326,0.9904314668535569
2011-06-23,1,0.0016929021313371838,0.0017036196320865753,0.00020841850259029933,0.008945314310733326,0.9914747834792875
2011-06-27,1,0.0012698894235424363,0.0013093246817732168,-0.0007427925945939144,0.008945314310733326,0.991058415151871
2011-06-29,1,0.001029341774943443,0.0011184030687873341,-0.002783311760632628,0.008945314310733326,0.9891134139371651
2011-07-01,1,0.0022222962873497346,0.002302788130672997,-0.007928452033077422,0.008402916403489235,0.9885457871053589
2011-07-06,1,0.0031739699882464036,0.003418684829036331,-0.01260902511426006,0.007397531971079063,0.9856816408313341
2011-07-08,1,0.0027920583151786324,0.0030124856131893193,-0.025495958252068615,0.005898610347770185,0.9809335017830183
2011-07-12,1,0.0007824005259174002,0.0007974852384594968,-0.027907272118892348,0.005898610347770185,0.9739675269104933
2011-07-14,1,0.0014211203663417368,0.001439977352443311,-0.027833234673397392,0.00792930740757445,0.9726618437317377
2011-07-18,1,0.00045173537469522546,0.0005933933348109705,-0.027833234673397392,0.009845654561867371,0.9712859178236283
2011-07-20,1,0.0014317648542933451,0.0014398342644647963,-0.028324349607334827,0.004839683499076508,0.970619822502139
2011-07-22,1,0.001881926927748555,0.0019686643638823983,-0.04099807968134256,-0.0007733568783034027,0.9661002346274723
2011-07-26,1,0.0012924274438338565,0.0012976761963868861,-0.04099807968134256,0.0032001583364800533,0.9669890972489384
2011-07-28,0,0.0,0.0,-0.038518571240364625,0.0032001583364800533,0.9676222677899294
2011-08-01,0,0.0,0.0,-0.038518571240364625,0.023270160487415637,0.9651675818524187
2011-08-03,-1,-0.004056892259908066,-0.0033000378485385116,-0.03445033370723374,0.024228275224697844,0.9666480074266776
2011-08-05,-1,-0.007753916830638424,-0.00659223327205676,-0.02353029527685108,0.024228275224697844,0.9699710345314246
2011-08-09,-1,-0.006276054071080496,-0.005292115231188041,-0.02353029527685108,0.024228275224697844,0.9752995640032384
2011-08-11,-1,-0.004642650616452061,-0.0038646061125443294,-0.02878225511282929,0.01357029313204116,0.9754046501271821
2011-08-15,-1,-0.004426898807330066,-0.0036544604938040237,-0.02878225511282929,0.005702636255931453,0.976906760272156
2011-08-17,-1,-0.0047216871156815846,-0.00396831543601071,-0.02878225511282929,0.027812580204049284,0.9743333692779618
2011-08-19,-1,-0.008056959051225944,-0.006904531971003764,-0.018299615458322007,0.027812580204049284,0.9755468104700742
2011-08-23,0,0.0,0.0,-0.02878225511282929,0.027812580204049284,0.9731629323436608
2011-08-25,0,0.0,0.0,-0.02898060106793607,0.027812580204049284,0.971354742550805
2011-08-29,0,0.0,0.0,-0.02898060106793607,0.022505656700706464,0.9731816413740301
2011-08-31,0,0.0,0.0,-0.03561795680567849,0.016354256629839983,0.972501161673404
2011-09-02,0,0.0,0.0,-0.03947179477636112,0.016354256629839983,0.9686449991917249
2011-09-07,0,0.0,0.0,-0.03947179477636112,0.016354256629839983,0.969311119495106
2011-09-09,-1,-0.00910783705005808,-0.007911710990610955,-0.03947179477636112,0.019763757197648005,0.97019020079545
2011-09-13,-1,-0.007447327293866453,-0.006555529180456791,-0.03947179477636112,0.022505656700706464,0.9673949200735918
2011-09-15,-1,-0.003889402468779963,-0.0034439753420486587,-0.03947179477636112,0.017303385058582837,0.9701207279004124
2011-09-19,-1,-0.005355773413509273,-0.004783081011278301,-0.035465586908949215,0.019763757197648005,0.9697267992795441
2011-09-21,-1,-0.008111135525874747,-0.007269381072016129,-0.03346685373618151,0.022505656700706464,0.9697052729282154
2011-09-23,-1,-0.010505105949163355,-0.00940051447719178,-0.019657107417900242,0.024620885442164505,0.9698568755384791
2011-09-27,-1,-0.005720505999227399,-0.005137134322934366,-0.03124582308094142,0.029592970907096693,0.9697599567790679
2011-09-29,-1,-0.008868958504966395,-0.007990601517592845,-0.0189423401859032,0.033598057591900626,0.96742551175446
2011-10-03,-1,-0.011610199235628343,-0.01044028535105727,-0.01378870341648631,0.033598057591900626,0.9696841162247652
2011-10-05,-1,-0.01003009588637252,-0.009048971457046279,-0.018831003090662025,0.029592970907096693,0.9709763739929088
2011-10-07,-1,-0.01028940198565484,-0.009293581248108373,-0.012100413376501638,0.029592970907096693,0.9719411579002739
2011-10-11,-1,-0.007594621039252352,-0.006961236576334501,-0.005872814227443086,0.027918250625180954,0.9738964409747364
2011-10-13,-1,-0.003641756238028158,-0.0033447759385600855,-0.018831003090662025,0.027918250625180954,0.9731084504600858
2011-10-17,-1,-0.006643412733455442,-0.006148005383365228,-0.018212648583912312,0.023142618559788032,0.9727300089505299
2011-10-19,-1,-0.004655700314484172,-0.004451224620462022,-0.02823064394773053,0.020875585427731026,0.9741074099519962
2011-10-21,-1,-0.002855669356046261,-0.0028466743731455344,-0.02823064394773053,0.01833366381143885,0.9765837381222082
2011-10-25,-1,-0.0024948734301210103,-0.0024444761670050254,-0.02823064394773053,0.014915575440830817,0.978626635846703
2011-10-27,1,0.00026513570064139245,0.000693981807855805,-0.030949446045681582,0.011906887675013474,0.9805334994633573
2011-10-31,-1,-0.0012733651776557827,-0.0011209793739494042,-0.02954238872341281,0.01332217757156704,0.979344171716034
2011-11-02,-1,-0.0017231702270714003,-0.0016750239296987575,-0.027761624840307607,0.01332217757156704,0.9765489515620075
2011-11-04,-1,-0.001032326236932527,-0.0008731704526160956,-0.027761624840307607,0.0186781374460335,0.9748108830565901
2011-11-08,1,0.0003134524554268196,0.0006855827207473491,-0.027761624840307607,0.014323642004782372,0.9761752892621189
2011-11-10,0,-8.805024771015783e-05,0.00029863103373211643,-0.027761624840307607,0.01894555294565561,0.9768703212947969
2011-11-14,-1,-0.0005436925496951951,-0.0002580924442122758,-0.029322131428037846,0.013143938101866582,0.9765032810807791
2011-11-16,-1,-0.0009401188288623527,-0.0007074131491790488,-0.024367076748776775,0.018064383719817095,0.9771897691596515
2011-11-18,0,-0.00020853609409123887,0.00014566543981481446,-0.024367076748776775,0.018064383719817095,0.9764487061882318
2011-11-22,-1,-0.00042690020360311117,-4.2783178315031374e-05,-0.021921554595813318,0.019647357801708915,0.9767000389738092
2011-11-25,-1,-0.0007527454035930394,-0.00036654233602910003,-0.01858152355848774,0.019647357801708915,0.9786228152833825
2011-11-29,0,-0.0004069656138451416,4.818352129208961e-05,-0.01858152355848774,0.018064383719817095,0.9798726893616321
2011-12-01,1,0.0015360102777451853,0.0022277583018982692,-0.012827658072630442,0.018064383719817095,0.9843315059193768
2011-12-05,1,0.0028569279267584664,0.0037006584216018367,-0.012827658072630442,0.014421989736011836,0.9854601436270415
2011-12-07,1,0.003633882669796937,0.0046137777590564855,-0.012827658072630442,0.01819762791145286,0.9850185748128837
2011-12-09,1,0.004076634409136332,0.005158539950163146,-0.005496408713712934,0.01819762791145286,0.9865604978599449
2011-12-13,1,0.003023304276541405,0.003988763835683743,-0.0035109547079083077,0.01819762791145286,0.9881914076522639
2011-12-15,1,0.0034019601467965913,0.00441291058353941,-0.0035109547079083077,0.014893165757091558,0.9886947467921646
2011-12-19,1,0.002877974728795771,0.003752181341769585,-0.0025493943361523967,0.01645746544094734,0.9891884609330266
2011-12-21,1,0.003385356137878009,0.004288353121771315,-0.002573293137647324,0.01645746544094734,0.9892883556038682
2011-12-23,1,0.003443712796705087,0.004325264814591676,-0.003736553706208817,0.01645746544094734,0.988713507865276
2011-12-28,1,4.705944758630169e-05,0.00011347255784991488,-0.003736553706208817,0.01645746544094734,0.98862699997643
2011-12-30,1,0.0009229297815292859,0.0011315687690480391,-0.00459610742669575,0.015586137030258119,0.9887866326120476
2012-01-04,1,0.0024273716663936558,0.0029366726332956906,-0.00459610742669575,0.015586137030258119,0.9888566504009577
2012-01-06,1,0.0031722202303172296,0.003771566199119309,-0.004831416171092294,0.015586137030258119,0.9884564494707109
2012-01-10,1,0.0033405870608662295,0.003931948960935329,-0.007034718253333484,0.014381861320481264,0.9885871844638975
2012-01-12,1,0.0018088543468066458,0.0019993932690140276,-0.007034718253333484,0.014381861320481264,0.9890906459857125
2012-01-17,1,0.0016238728279041972,0.0018167891740957648,-0.008598574858824296,0.014381861320481264,0.9889620918392066
2012-01-19,1,0.0014555015650943852,0.0015723912977541133,-0.008598574858824296,0.012446111323483756,0.9891336850010831
2012-01-23,1,0.003210238824966751,0.0036997295622316828,-0.009595984531446371,0.01102262405429456,0.9895601927022132
2012-01-25,1,0.0037280702988163805,0.0043160316418732175,-0.009595984531446371,0.01102262405429456,0.98983394504655
2012-01-27,1,0.003010789820091564,0.0034628790209349372,-0.008598574858824296,0.01102262405429456,0.9903339295666023
2012-01-31,1,0.003600044750969188,0.004196268135249128,-0.0054560224055654775,0.010799106848697632,0.9914532485336284
2012-02-02,1,0.0031623180929494458,0.0035816887005609447,-0.0054560224055654775,0.005451761913795794,0.992221675135523
2012-02-06,1,0.0033530460574680014,0.0037991389893975596,-0.008598574858824296,0.005451761913795794,0.9920602858773963
2012-02-08,1,0.004054226252225534,0.0047283882466867405,-0.0056177966970782246,0.007043731480928054,0.9921702985573074
2012-02-10,1,0.0030045342786957736,0.0034494329871171637,-0.0033505437503146946,0.010472075189051633,0.9928638579368926
2012-02-14,1,0.001208640589430585,0.001218598204481171,-0.0033505437503146946,0.010652272355711787,0.9922555826314995
2012-02-16,1,0.0009516771597417703,0.0010002715760165334,-0.004309961434902561,0.007092173853503459,0.992708224066461
2012-02-21,1,0.0004835183301400218,0.0005743742452487565,-0.0037500089887067944,0.007092173853503459,0.9932047338650315
2012-02-23,1,0.00023897465121314778,0.0003974845719228886,-0.004433724815377613,0.00464064735526307,0.9925024656831232
2012-02-27,-1,-0.0016212413281325524,-0.001083869029010422,-0.004433724815377613,0.007092173853503459,0.9919432683304474
2012-02-29,-1,-0.000564605184808701,-0.00029069876398530204,-0.005559809570738502,0.007133757828741562,0.991600599996556
2012-03-02,-1,-0.0010078169275948927,-0.0006313601296259641,-0.007094844377486352,0.00850231266727805,0.9913979797366133
2012-03-06,-1,-0.0007754013483942172,-0.000497360679494677,-0.006536954384240766,0.006428727948908295,0.9923835992973471
2012-03-08,-1,-0.0006056335399572771,-0.00036325404891592906,-0.007094844377486352,0.0046545086803424385,0.99156572831112
2012-03-12,-1,-0.000619379028973575,-0.0003257982081505299,-0.011453337925442404,0.002426367955134027,0.9905748428993797
2012-03-14,1,3.0623426446609817e-06,0.00017568226633850456,-0.011453337925442404,0.0046545086803424385,0.9903253862997153
2012-03-16,1,0.0007666644705663648,0.0007747265336936935,-0.012495750619581789,0.006428727948908295,0.988945239372785
2012-03-20,1,0.0007005906169855371,0.0007245005069175917,-0.012495750619581789,0.008927615003655668,0.9882879206845937
2012-03-22,1,0.001375350897193665,0.0015393025657620164,-0.008720881872907732,0.01032548840204787,0.9892917944982635
2012-03-26,1,0.0010790145640136297,0.0011732927314461676,-0.009315866420267601,0.01032548840204787,0.9884490993497563
2012-03-28,1,0.0014969685919212355,0.0016595691541435454,-0.009315866420267601,0.01579356665143165,0.9864469833520136
2012-03-30,1,0.0015560931044344144,0.0017405217367389542,-0.009315866420267601,0.01579356665143165,0.9869010482916847
2012-04-03,0,0.0,0.0,-0.009315866420267601,0.01579356665143165,0.9859916422641112
2012-04-05,0,0.0,0.0,-0.00866621329780148,0.01579356665143165,0.9866230663167173
2012-04-10,0,0.0,0.0,-0.0029718303759922985,0.01579356665143165,0.9877533133005705
2012-04-12,0,0.0,0.0,-0.00529832436111207,0.010994535235710534,0.9891401773887037
2012-04-16,-1,-0.00037137458053850366,-0.000286987596408331,-0.006045601957107895,0.009884129596521943,0.9894252700094127
2012-04-18,-1,-0.0005755273849743029,-0.000413623855706808,-0.008104478746933232,0.006696719920734666,0.9897302580620262
2012-04-20,-1,-0.001449431807914425,-0.0010927720950035633,-0.009308182232266135,0.00564937860757494,0.9870855433169758
2012-04-24,-1,-0.0015955611986372426,-0.0012312301908500327,-0.009308182232266135,0.00564937860757494,0.9865910075230241
2012-04-26,1,0.0008179987661658163,0.0008723761825047464,-0.009308182232266135,0.0035132312517955405,0.9891521783027049
2012-04-30,1,0.001435464734050321,0.001533273861771659,-0.009308182232266135,0.002550124366047196,0.9879104566483522
2012-05-02,1,0.0015637788309866996,0.0017135057540304541,-0.012443239725390746,0.002550124366047196,0.9866614718789858
2012-05-04,0,0.0,0.0,-0.018275504769884675,0.002550124366047196,0.9855642707640601
2012-05-08,0,0.0,0.0,-0.018275504769884675,0.00525632626802151,0.9832939457759905
2012-05-10,0,0.0,0.0,-0.018275504769884675,0.016049567186670707,0.9821701074643059
2012-05-14,0,0.0,0.0,-0.021491981809339374,0.016837938683367193,0.9807260082470945
2012-05-16,0,0.0,0.0,-0.021491981809339374,0.016837938683367193,0.9803577831022828
2012-05-18,0,0.0,0.0,-0.011348365503685473,0.017470595113802462,0.9825013055619104
2012-05-22,0,0.0,0.0,-0.011348365503685473,0.016282323566452674,0.9834816688762682
2012-05-24,0,0.0,0.0,-0.015125181197278969,0.016282323566452674,0.9823895461001271
2012-05-29,-1,-0.0027582120345715447,-0.0023018654263978816,-0.016760787445309996,0.016282323566452674,0.9818514767010655
2012-05-31,-1,-0.0019211390592759686,-0.0015938660704218988,-0.01433460660908341,0.016564212764751066,0.9828218058674156
2012-06-04,-1,-0.0036050392041942643,-0.003104563733183526,-0.005765557395975736,0.017470595113802462,0.9824524688071661
2012-06-06,-1,-0.0006628640913897394,-0.00043118650951906416,-0.0071159178466208145,0.016195111319821598,0.9851635502593593
2012-06-08,-1,-0.002046768399749307,-0.001659956425638941,-0.004625968068367619,0.016081341477667987,0.986159327703617
2012-06-12,-1,-0.0022878897147552927,-0.0019255791578005948,-0.006849668612574552,0.013589095115829276,0.9871383362137361
2012-06-14,-1,-0.0009236761197852773,-0.000721586090427666,-0.004625968068367619,0.01500805296639857,0.9877422990198138
2012-06-18,1,0.0002919622351675023,0.0002997527526650955,-0.0046935873576967055,0.0123729624309273,0.9884665102468453
2012-06-20,-1,-0.0009873363451248878,-0.0008292220077093878,-0.008541060859604113,0.011409633916574768,0.9879675982107601
2012-06-22,-1,-0.0015112251736633933,-0.001297072125686164,-0.008541060859604113,0.011409633916574768,0.9881238141243115
2012-06-26,1,0.00013675832929120873,0.00017161962458865605,-0.008194263034214843,0.0067893339276330605,0.9896915770543357
2012-06-28,1,0.0010141489426965982,0.0012067571246554454,-0.008194263034214843,0.0067893339276330605,0.9898723208531498
2012-07-02,1,0.002463351937702984,0.002760472726803263,-0.008194263034214843,0.005580468315913197,0.9903880387302181
2012-07-05,1,0.0012782861821653176,0.0013805662288118759,-0.008194263034214843,0.005580468315913197,0.9909195053728989
2012-07-09,1,0.0010491396991946316,0.0011108298783281357,-0.008194263034214843,0.011409633916574768,0.9903552923357766
2012-07-11,-1,-5.887148047483445e-05,-1.5786337463925782e-05,-0.0061184304252911575,0.011409633916574768,0.991000409256543
2012-07-13,1,0.000832360153218366,0.0008482401688460145,-0.0061184304252911575,0.007060757601117454,0.9915048959622312
2012-07-17,1,0.002214741862106008,0.0025157353034937348,-0.0061184304252911575,0.004489815413505974,0.9918108517340725
2012-07-19,1,0.001183106860543204,0.0013469535674163903,-0.004487165853490021,0.006062800251371319,0.9930256382048246
2012-07-23,1,0.000812369327296535,0.0009314144551153592,-0.0037650636767623674,0.006062800251371319,0.9936349977561098
2012-07-25,1,0.000583115043369063,0.0006778313801659491,-0.0021004966081278648,0.006062800251371319,0.9937851887499572
2012-07-27,1,0.0014249908704588817,0.0016424645554641284,-0.0023756375813672416,0.004374277894955524,0.9945255921307515
2012-07-31,1,0.00023672685961653842,0.00023820736434217242,-0.0023756375813672416,0.004374277894955524,0.9947651070880443
2012-08-02,1,0.0009961938039045317,0.001111761472202199,-0.0037650636767623674,0.002535861647841138,0.9948788964804846
2012-08-06,1,0.0024193494317787958,0.0027660888038127563,-0.0037650636767623674,0.004374277894955524,0.9941511796165569
2012-08-08,1,0.0016319263241247235,0.0018694994636673599,-0.002925446906483343,0.006062800251371319,0.9946686348327628
2012-08-10,1,0.0016965675779644887,0.001943262896614265,-0.0037650636767623674,0.005244166176028936,0.9944144735245916
2012-08-14,1,0.0015116057514964671,0.0016672567843750946,-0.002925446906483343,0.006530676113922849,0.9943768963319277
2012-08-16,1,0.0015922158603004397,0.0017909120338570415,-0.002925446906483343,0.008565213038320111,0.9930979804797425
2012-08-20,1,0.0015683806460381102,0.001698654453425005,-0.006268318056499575,0.008565213038320111,0.9917587515385599
2012-08-22,1,0.001378475916678332,0.0015437718825351671,-0.007414954135769154,0.008565213038320111,0.9910008919338126
2012-08-24,1,0.0012291269230718055,0.0013656834142711785,-0.007414954135769154,0.008565213038320111,0.9906529225063734
2012-08-28,1,0.001152764386749682,0.0012014506355525576,-0.010504136969390714,0.007452164749293279,0.9901212067205236
2012-08-30,-1,-0.0009674652624053186,-0.0006583583696564148,-0.00838524159210408,0.008565213038320111,0.9903909924074328
2012-09-04,1,0.000695614806680265,0.0007217417292390257,-0.010504136969390714,0.007508849973323181,0.9900278057133158
2012-09-06,1,0.0005129341609215298,0.0005567879620208596,-0.010504136969390714,0.006309241516861155,0.9901425796310184
2012-09-10,1,0.0016432392849869842,0.0017802553422049628,-0.010504136969390714,0.006309241516861155,0.9900199736818038
2012-09-12,1,0.0007686037361988585,0.0008323201914234527,-0.010504136969390714,0.004597059482150705,0.9903322896041719
2012-09-14,1,0.0027931454742981107,0.003128942896623404,-0.011369447662816525,0.0006464443310325512,0.9898381835245966
2012-09-18,1,0.0029731658191941976,0.00345128363692793,-0.008401544366655212,0.004597059482150705,0.9909238434033913
2012-09-20,1,0.0011291379704280809,0.0013561923856571108,-0.006573639090578465,0.0069328468698699,0.9918260396489141
2012-09-24,1,0.0013442560459343052,0.0015856906539914277,-0.008401544366655212,0.005484265572081612,0.9912921937133478
2012-09-26,1,0.00013967902254557823,0.00017650618590588123,-0.005851967642908165,0.005484265572081612,0.9923910108959753
2012-09-28,1,0.0013525021240667593,0.001565612341762299,-0.007881959659936034,0.0006464443310325512,0.9914259713668098
2012-10-02,1,0.0006990532476268048,0.0008705935802970302,-0.006573639090578465,0.0006464443310325512,0.9923708257458776
2012-10-04,1,0.0008232522777626692,0.0009878263439596475,-0.006319908772579553,0.005484265572081612,0.9915731384646868
2012-10-08,0,0.0,0.0,-0.008833235493948714,0.007010084278059157,0.9910330072694971
2012-10-10,-1,-0.0023283899558809817,-0.0018821020553804672,-0.011734981146351946,0.007010084278059157,0.9908676653685018
2012-10-12,-1,-0.0014591366662124478,-0.0011844033941615978,-0.01007886523379574,0.007010084278059157,0.9909338211038123
2012-10-16,0,0.0,0.0,-0.01320474221273144,0.002061772774131647,0.9890649045557501
2012-10-18,0,0.0,0.0,-0.01320474221273144,0.002061772774131647,0.9887590301922569
2012-10-22,0,0.0,0.0,-0.01007886523379574,0.00575930255352055,0.9893145876477973
2012-10-24,0,0.0,0.0,-0.01007886523379574,0.006967371705647927,0.9890326880357648
2012-10-26,-1,-0.005459938649133387,-0.004629654895323686,-0.00393991679891333,0.007309466093151103,0.9885276035387561
2012-11-01,-1,-0.0029171198240045674,-0.0024718007855268303,-0.005275181796031316,0.007309466093151103,0.9894197978068491
2012-11-05,-1,-0.003139097765139394,-0.0026292579585538,-0.0035717784767045424,0.006844007462100522,0.9903493617350612
2012-11-07,-1,-0.0036152836289829373,-0.003046429598021402,-0.0035717784767045424,0.0078021036521354285,0.990442325448807
2012-11-09,-1,-0.004263099251135501,-0.003667264225779081,-0.0024974014570262677,0.0078021036521354285,0.9906051300872415
2012-11-13,-1,-0.0035465300344996826,-0.003051889696641289,-0.0033151399672590475,0.006941259238080606,0.9916781946503923
2012-11-15,0,0.0,0.0,-0.0033151399672590475,0.006952622686103944,0.9937351405149839
2012-11-19,0,0.0,0.0,-0.0033151399672590475,0.006952622686103944,0.9941117278749219
2012-11-21,0,0.0,0.0,-0.0035717784767045424,0.0078021036521354285,0.9935429129407096
2012-11-26,0,0.0,0.0,-0.004034378225873662,0.006952622686103944,0.9933830630773413
2012-11-28,0,0.0,0.0,-0.00424508320260315,0.006952622686103944,0.9930823620917609
2012-11-30,-1,-0.0013358266829321985,-0.0012491143568672369,-0.004998788213532317,0.006952622686103944,0.9926731050961477
2012-12-04,-1,-0.0016615945621175736,-0.0014603497864198191,-0.004998788213532317,0.007192946012424,0.9919334554049821
2012-12-06,0,0.0,0.0,-0.00424508320260315,0.0067382066915101305,0.9922784261115511
2012-12-10,0,0.0,0.0,-0.004599213042822102,0.006465698704857503,0.9923403632983993
2012-12-12,0,0.0,0.0,-0.004203974756899482,0.006465698704857503,0.9926225077625054
2012-12-14,0,0.0,0.0,-0.0039832780962928745,0.006427634723406054,0.992644505953739
2012-12-18,0,0.0,0.0,-0.0039832780962928745,0.0053129552433831785,0.9933750565966413
2012-12-20,0,0.0,0.0,-0.003529865457182425,0.005425486259064319,0.9934163962750687
2012-12-24,0,0.0,0.0,-0.00351202019653193,0.005425486259064319,0.9938931427691238
2012-12-27,0,0.0,0.0,-0.0009552054334950196,0.006427634723406054,0.9941496307286642
2012-12-31,0,0.0,0.0,-0.0009552054334950196,0.005425486259064319,0.9942519514613934
2013-01-03,0,0.0,0.0,-0.0001260187231902427,0.005105109706806582,0.9953127563425602
2013-01-07,0,0.0,0.0011046457840473618,-0.0001260187231902427,0.004711970208538065,0.9960514128721143
2013-01-09,0,0.0,0.0,-0.00021793346384834668,0.004711970208538065,0.9959588434533883
2013-01-11,0,0.0,0.0,-0.0005858287380886395,0.005105109706806582,0.9954726761924915
2013-01-15,0,0.0,0.0,-0.0003951595386726927,0.005105109706806582,0.9953636880981498
2013-01-17,0,0.0,0.0,-0.0005858287380886395,0.005506467465105252,0.9946798681204662
2013-01-22,0,0.0,0.0,-0.0009523958311210602,0.005501287124259024,0.994239790160544
2013-01-24,1,0.0017276302070531057,0.002025524327003427,-0.0009523958311210602,0.006716901083552459,0.9938604942428703
2013-01-28,1,0.0016908323042605102,0.0019508104079328677,-0.0027585859850084806,0.006706030364416186,0.9929744721658986
2013-01-30,0,0.0,0.0,-0.0009523958311210602,0.006749993024413277,0.9934287222183928
2013-02-01,0,0.0,0.0,-0.0009523958311210602,0.007070335551772048,0.9929922896262661
2013-02-05,0,0.0,0.0,-0.0009523958311210602,0.008338304791125507,0.9925764222898852
2013-02-07,0,0.0,0.0,-0.0005770884423846806,0.008338304791125507,0.9923030582689704
2013-02-11,0,0.0,0.0,0.0008166179143388743,0.008318406727970948,0.9923215153475521
2013-02-13,0,0.0,0.0,0.0014649181194705723,0.007070335551772048,0.9925100559081849
2013-02-15,0,0.0,0.0,0.0004990137307562406,0.007070335551772048,0.9928710839074626
2013-02-20,0,0.0,0.0,0.0004990137307562406,0.007070335551772048,0.9931494923811421
2013-02-22,0,0.0,0.0,0.0004990137307562406,0.007336732592668701,0.9934703919488365
2013-02-26,0,0.0,0.0,0.0011686368837200826,0.007336732592668701,0.9945909159755698
2013-02-28,0,0.0,0.0,-0.0008699001016722633,0.005802329678733927,0.9950688919410674
2013-03-04,1,0.002141504516196429,0.002433777343007472,-0.0008699001016722633,0.005802329678733927,0.9959525610933321
2013-03-06,1,0.0025148365041448763,0.002844063688245986,-0.0014511693788344863,0.005802329678733927,0.9951807680318469
2013-03-08,1,0.0026154564483327368,0.00295497670044907,-0.0014511693788344863,0.005457503342121825,0.9953148969501793
2013-03-12,1,0.0029626366295615984,0.0033447937981804093,-0.002500992097243559,0.004121442106040979,0.995134628293303
2013-03-14,0,0.0,0.0,-0.002801989780206178,0.003281770661994774,0.9951144249493105
2013-03-18,0,0.0,0.0,-0.0030188163551949504,0.004251846385839915,0.9931093379671301
2013-03-20,0,0.0,0.0,-0.006001137836127558,0.003281770661994774,0.9931216905509884
2013-03-22,0,0.0,0.0,-0.006001137836127558,0.003281770661994774,0.9923140324714333
2013-03-26,0,0.0,0.0,-0.006001137836127558,0.007333661402386092,0.9913798374135644
2013-03-28,0,0.0,0.0,-0.006001137836127558,0.007333661402386092,0.9912939579072236
2013-04-02,0,0.0,0.0,-0.006001137836127558,0.008905438535206468,0.9905496960497739
2013-04-04,0,0.0,0.0,-0.0062680396236638024,0.004474929285587627,0.9904533320328951
2013-04-08,1,0.0017620436237169765,0.0019043311745647355,-0.0062680396236638024,0.010483373178785506,0.9898831021361536
2013-04-10,1,0.0019515031313991154,0.0021531333527682077,-0.003987930767492064,0.010483373178785506,0.9900797692755025
2013-04-12,1,0.0009356072387822624,0.0009922214238357223,-0.007558118873232952,0.010483373178785506,0.9895834299572817
2013-04-16,1,0.0009699999308173516,0.0010075301470286629,-0.003987930767492064,0.007667870619543381,0.9916748905877233
2013-04-18,1,0.0001939919883088649,0.00037898353632185525,-0.001674035988156203,0.007667870619543381,0.9922503245496074
2013-04-22,1,0.000156919542452136,0.0002711250265016169,-0.0009490311260254906,0.009940420824114901,0.9925354795889779
2013-04-24,1,0.0008346578164716389,0.0008697701750343473,-0.001674035988156203,0.009770173730361499,0.9920929428898024
2013-04-26,1,0.0007272603568565884,0.0007311548069410096,-0.0023294346419733443,0.009770173730361499,0.9916488661762143
2013-04-30,1,0.0022299399275518862,0.0023880909617269353,-0.0066913509537306565,0.006375200624426683,0.992013644755276
2013-05-02,1,0.001127713988155936,0.0011443607557805175,-0.009134502647463037,0.006375200624426683,0.991790212616166
2013-05-06,1,0.0012400082847831215,0.001284209809849595,-0.009134502647463037,0.003764540382416418,0.9921686893685392
2013-05-08,1,0.0011041827811329027,0.001119902175086691,-0.009134502647463037,0.005124671132636128,0.9911248862484856
2013-05-10,1,0.0014513256482305153,0.0014861925403002508,-0.007341898966073555,0.006586239516817971,0.9910179045880999
2013-05-14,1,0.0017064709282862494,0.0018063749565951064,-0.009134502647463037,0.006397021429541924,0.9903185577021716
2013-05-16,1,0.0011688996002806485,0.0012211206634282128,-0.009134502647463037,0.011103459912864213,0.9885261500204051
2013-05-20,1,0.001858985910459387,0.0019451476499289149,-0.009134502647463037,0.005543023755126254,0.9893152373992053
2013-05-22,1,0.0008672854038498609,0.0009247007487605068,-0.010692143366736736,0.0027046294464093627,0.9870608827196073
2013-05-24,1,0.0005986684347525184,0.0007160616421455774,-0.010160064029832046,0.005401897601010067,0.9871293434593207
2013-05-29,1,0.0003513845347386762,0.0004808000427516122,-0.008544820127410795,0.01016934016925544,0.9869633458708109
2013-05-31,-1,-0.0009099245796701707,-0.0006417974366468202,-0.006499845108878922,0.011289960548953197,0.9868984104460581
2013-06-04,0,0.0,0.0,-0.004686767730021295,0.013287133557179986,0.9862296368040598
2013-06-06,0,0.0,0.0,-0.0037485225067221627,0.011289960548953197,0.9869072701636377
2013-06-10,-1,-0.0007422400672528131,-0.0005096000535913576,-0.0037485225067221627,0.010298297414398708,0.9868711131711302
2013-06-12,0,0.0,0.0,-0.0037485225067221627,0.013423612443527402,0.9863219277888391
2013-06-14,1,0.0008853263299873597,0.0009014569353713543,-0.0037485225067221627,0.009531821720224591,0.9889907973072253
2013-06-18,0,0.0,0.0,-0.004201530182288565,0.009531821720224591,0.9885068093259439
2013-06-20,-1,-0.0020738441313859633,-0.0017232414782923171,-0.0008266334514434395,0.010298297414398708,0.9907749086144927
2013-06-24,0,0.0,0.0,0.0005877751891711532,0.009991333343552688,0.9919057672635242
2013-06-26,0,0.0,0.0,-0.0038416320885026403,0.007821361234660392,0.9915315280339428
2013-06-28,0,0.0,0.0,-0.0038416320885026403,0.007390838008843367,0.9924105446099988
2013-07-02,-1,-0.00036421626428894066,-0.00019453868674882536,-0.005623903430659071,0.004902260601296206,0.9929352669710904
2013-07-05,1,0.00015500657174112353,0.00024778260576054664,-0.006284720172702284,0.0036761918387899265,0.9930113143908292
2013-07-09,1,0.0007756093536813414,0.0007772545438143078,-0.006284720172702284,0.0015910733142216935,0.9931832356832793
2013-07-11,1,0.0013508538370709776,0.0014209214733698784,-0.006284720172702284,0.0015910733142216935,0.9942653714108969
2013-07-15,1,0.0012678901312161395,0.0013062567023562868,-0.006284720172702284,0.0032936400052319594,0.9939125442711816
2013-07-17,1,0.000756245016856321,0.0007999281645281607,-0.0065543145055904795,0.0040313491481434125,0.9936393804977116
2013-07-19,1,0.0010139052893097537,0.0010560184707958838,-0.00991821832989942,0.0015910733142216935,0.9924962306610075
2013-07-23,1,0.0013699753481683946,0.0013886954914850867,-0.00991821832989942,0.0009435677372452595,0.990974726692452
2013-07-25,1,0.00043049083139058003,0.0005030211595668025,-0.00991821832989942,0.001829817314375164,0.9920469259749843
2013-07-29,1,6.683592352450845e-05,0.00016215556071702428,-0.008836011562923865,0.004041949035921503,0.9922427623569599
2013-07-31,-1,-0.0003881708310859312,-0.00025726266529862675,-0.008836011562923865,0.004041949035921503,0.9926984133560699
2013-08-02,-1,-0.0005475424944581953,-0.0004183141688507798,-0.005696695075589437,0.004041949035921503,0.9929400272066133
2013-08-06,-1,-0.0005073933612589783,-0.0003933750603747788,-0.008836898995806121,0.004041949035921503,0.9923223176081255
2013-08-08,-1,-0.0005905214556609109,-0.00045007724025584284,-0.009082045345231627,0.004780659065626951,0.9914896239004188
2013-08-12,-1,-0.0005870047316638725,-0.0004466950587987112,-0.009082045345231627,0.007140159430072453,0.9901227068217447
2013-08-14,-1,-0.0007676835651160723,-0.0006100583826977364,-0.009090679194074656,0.007756073181298486,0.9896284822371878
2013-08-16,-1,-0.002224604565552838,-0.00189889554378191,-0.005458698620112519,0.00938688935253519,0.9903751318068942
2013-08-20,-1,-0.001725816018249489,-0.0014552809216156447,-0.004168719210378879,0.00938688935253519,0.9902771048792306
2013-08-22,-1,-0.0015666624759747604,-0.0013246676735214004,-0.004251009082610838,0.00938688935253519,0.990262208086712
2013-08-26,-1,-0.0010209946343156884,-0.0008625395661922331,-0.009038318281071721,0.007793981256428691,0.9895812167790868
2013-08-28,-1,-0.0010668420688299215,-0.0009158981341143267,-0.009038318281071721,0.007793981256428691,0.9894778184969396
2013-08-30,-1,-0.0012629686706171974,-0.0010801945170187482,-0.009038318281071721,0.007793981256428691,0.9895483563845829
2013-09-04,-1,-0.0016243646853489634,-0.0014011993681804138,-0.005338348920679423,0.010280698978557417,0.9895588404266977
2013-09-06,-1,-0.0015322005618997295,-0.0013042183148088248,-0.005574233617624371,0.007793981256428691,0.9895107516315773
2013-09-10,-1,-0.0006476575339077408,-0.00048468826545501023,-0.009767117193967284,0.005508816507343551,0.9907256893629814
2013-09-12,-1,-0.0008057828257423286,-0.0006453444585517081,-0.005574233617624371,0.005541932291042946,0.9907265521094024
2013-09-16,1,0.00032312194157396447,0.00034245347185964445,-0.005574233617624371,0.005102140316523669,0.9900127710359308
2013-09-18,1,0.0011762178776050848,0.0012956667126986952,-0.005574233617624371,0.005102140316523669,0.9909606726355773
2013-09-20,1,0.0008963390748114513,0.001027201198987897,-0.003149022552724972,0.00680281246629476,0.9914566653595823
2013-09-24,-1,-0.0007208172150369196,-0.0006158045498731199,-0.002844053963490037,0.010123105716763465,0.9917755434427084
2013-09-26,-1,-0.00018735842669588952,-0.00018595569313608874,-0.002815009631157661,0.012184646180153733,0.9912120186505765
2013-09-30,-1,-0.0001632856887659944,-0.0001592896109254812,-0.0012864571834618212,0.013336716652107465,0.9906940978074603
2013-10-02,1,0.0005483765899388865,0.0006043152283584674,-0.0030700842193846648,0.012184646180153733,0.9902709478391807
2013-10-04,1,0.00019073922165320967,0.00021114998221015142,-0.0030700842193846648,0.012184646180153733,0.9904384547033145
2013-10-08,-1,-0.00028198776605618077,-0.0002515368554387987,-0.0029756399458874937,0.012184646180153733,0.9899833103599629
2013-10-10,1,0.001153241628761499,0.0013566043791900584,-0.006430854071248247,0.011675032768974882,0.9902295562075877
2013-10-14,1,0.0017936705942569037,0.002048448820058885,-0.006430854071248247,0.010079622784918477,0.9912013543311704
2013-10-16,1,0.0020898957653741066,0.002360455207548515,-0.007463046104431274,0.00699077295696881,0.9909186354442414
2013-10-18,1,0.002123002012429473,0.002412345638453141,-0.007463046104431274,0.006719061502118181,0.991081689756444
2013-10-22,1,0.001816494177655129,0.0020140758294587714,-0.008466114252813989,0.006174235357231866,0.9908558375538876
2013-10-24,1,0.0020518188040786487,0.002253583325893251,-0.008683648527721792,0.006174235357231866,0.9906416082151492
2013-10-28,1,0.002413358332841448,0.0026891232077201144,-0.008683648527721792,0.006174235357231866,0.9908552686755758
2013-10-30,1,0.0015748233779884705,0.0017472430907281952,-0.008444781719426999,0.006464192107949348,0.9919738099505697
2013-11-01,1,0.001406222664486813,0.001481224248147698,-0.008683648527721792,0.006174235357231866,0.9921258362260951
2013-11-05,1,0.0013898956942734312,0.0016222733142465615,-0.008444781719426999,0.006174235357231866,0.9929581925018854
2013-11-07,1,0.0005115868788708499,0.0006328441920463513,-0.007046240797490022,0.0070660558895396875,0.9928504280029717
2013-11-11,-1,-0.0008053486444990196,-0.000567239337774413,-0.008061922380662712,0.0070660558895396875,0.9921799903736152
2013-11-13,-1,-0.001205613830672526,-0.0009322380073086464,-0.008061922380662712,0.0070660558895396875,0.9917383222723426
2013-11-15,-1,-0.0003713281211059218,-0.00022531812645892223,-0.008061922380662712,0.006215713498351916,0.9921710960842336
2013-11-19,-1,-0.0005500110781639603,-0.0004154555713452908,-0.007067140124487318,0.007201158633534779,0.991367970643895
2013-11-21,-1,-0.0002362315462523749,-0.00017610384144930023,-0.006833330533721751,0.007201158633534779,0.991646094559324
2013-11-25,1,0.00015693307342477139,0.00016375693784515257,-0.006833330533721751,0.007340198410691791,0.9914837419874203
2013-11-27,1,0.00037338115524291227,0.00042819723665183296,-0.004596746269896966,0.00626074774635028,0.9918667648746986
2013-12-02,1,0.0004847949211870858,0.0005918001616825707,-0.003777174196643927,0.00626074774635028,0.9924179028124118
2013-12-04,1,0.0009153620269341486,0.00108292058595916,-0.003923411678114465,0.007617236475233706,0.9921712984279369
2013-12-06,1,0.0018148855665005865,0.002088298356184267,-0.004594265121607228,0.0042306056061358595,0.9925938556944417
2013-12-10,1,0.0015384872338277782,0.0018161577869906665,-0.003923411678114465,0.0042306056061358595,0.9932575448923787
2013-12-12,1,0.0007206499110794018,0.0009049460805719699,-0.003923411678114465,0.004381998431304228,0.9943040732684876
2013-12-16,1,6.314470464721156e-05,8.405349397886803e-05,-0.003923411678114465,0.007782327349927471,0.9938545565321477
2013-12-18,1,0.0010611586982745974,0.0011892633833920094,-0.004594265121607228,0.004439716949853914,0.9948942324896202
2013-12-20,1,0.0005823829762044694,0.0006218994073512603,-0.003923411678114465,0.007782327349927471,0.9946996666703051
2013-12-24,1,0.0006036643578800219,0.0006248672884065476,-0.005390585592905389,0.006559778042438581,0.9939357409058082
2013-12-27,1,0.00023517681334991316,0.00026590319095089643,-0.005413800814955818,0.007782327349927471,0.9931265527517954
2013-12-31,1,0.0002989659902883702,0.00031652582694056974,-0.005595448861762434,0.00899950590379848,0.9918681825544198
2014-01-03,1,0.00039712962042227245,0.00040198773994961446,-0.006291512547300937,0.007782327349927471,0.9910125230830489
2014-01-07,1,0.00043591373173485723,0.00043951835270817675,-0.006291512547300937,0.007823593108070955,0.990169700662063
2014-01-09,-1,-0.0008028813042409587,-0.0005863704302144126,-0.0058687235148303695,0.007823593108070955,0.9901312792883593
2014-01-13,-1,-0.0006838820913928468,-0.0005104649807846867,-0.005413800814955818,0.009179457578151895,0.9897425422701901
2014-01-15,-1,-0.00017992790305580437,-6.080822076092341e-05,-0.005413800814955818,0.0070270350809554065,0.9903885094116053
2014-01-17,-1,-0.0003973535039576236,-0.0002612677331791615,-0.003220006591542867,0.007389149674652849,0.9901333458592306
2014-01-22,0,-1.7117662184997135e-05,8.675432759764343e-05,-0.004666910985715117,0.005943718394266303,0.9906888069684558
2014-01-24,-1,-0.001169358436200539,-0.0009246326209876136,-0.0019045561180324024,0.005943718394266303,0.9915787924732347
2014-01-28,-1,-0.0010753847397803602,-0.0008029669512890317,-0.0019045561180324024,0.005943718394266303,0.9910250606547004
2014-01-30,-1,-0.0005087706414950084,-0.0003146997217407119,-0.0019045561180324024,0.005943718394266303,0.9919716577613127
2014-02-03,-1,-0.0009224870703478925,-0.0007436637416319982,-0.0017846069348502846,0.006979077178595009,0.9925465684145446
2014-02-05,1,5.7973905054213305e-05,0.0001362523003805178,-0.002620409974513481,0.005943718394266303,0.9938873802531356
2014-02-07,1,0.0007507218327604312,0.0007858177920010064,-0.004061060851601024,0.004795665546371968,0.9934010223483017
2014-02-11,1,0.001756673702974068,0.001993695321485147,-0.004061060851601024,0.004795665546371968,0.9935789427874562
2014-02-13,1,0.0013637093265449506,0.0014986538198144294,-0.004734622815000623,0.006789220831266412,0.993117766313365
2014-02-18,1,0.0012027951838275697,0.001252352869367285,-0.004734622815000623,0.007038458520139049,0.992934083533015
2014-02-20,1,0.0008965189368423572,0.0009052372447376368,-0.006083800473437028,0.007038458520139049,0.9919237902569205
2014-02-24,1,0.0007840668109379339,0.0007960603349440761,-0.007373254693723078,0.008058248428546251,0.9911053082473825
2014-02-26,1,0.0017888372630868578,0.0019301104750697965,-0.007712695231125578,0.008058248428546251,0.991646992763916
2014-02-28,1,0.001477041351778683,0.001548861696904049,-0.007712695231125578,0.008126734846647828,0.9916276778956535
2014-03-04,1,0.0015147220339297859,0.0015530321860371,-0.007712695231125578,0.00868793344109631,0.9915606527610344
2014-03-06,1,0.0016885436993765385,0.001786662916761063,-0.007712695231125578,0.00868793344109631,0.9916542930147138
2014-03-10,1,0.0013241511272165509,0.0014234580508299766,-0.003230918174753964,0.00868793344109631,0.9924665366015483
2014-03-12,1,0.0019000345233636871,0.002108161134417457,-0.005669393018562405,0.00788640898440977,0.9925717573624527
2014-03-14,1,0.0019879426581035213,0.0022460327824590453,-0.005669393018562405,0.00788640898440977,0.9922801424327937
2014-03-18,1,0.002517724021033074,0.002854900790974015,-0.005669393018562405,0.008078092936126349,0.9917589075337768
2014-03-20,1,0.002200543497080359,0.002528482333271515,-0.005669393018562405,0.008078092936126349,0.9922499702416769
2014-03-24,1,0.0025297785761248647,0.002928410824505296,-0.004692304850895526,0.007763237436832469,0.9930427560109272
2014-03-26,1,0.001391699207801557,0.0016300569456628132,-0.003547289329470678,0.007763237436832469,0.9931401849925549
2014-03-28,1,0.0020485697788988084,0.00238164908298463,-0.004692304850895526,0.008078092936126349,0.9925801705729923
2014-04-01,1,0.002268295629924974,0.002585498829890083,-0.004692304850895526,0.006570457137728019,0.9926393243728323
2014-04-03,1,0.0014325472868941746,0.0015702501586984524,-0.003547289329470678,0.007995601546616568,0.9925589355858281
2014-04-07,1,0.0017541091011417287,0.0019376995089930025,-0.003547289329470678,0.007995601546616568,0.992647133669078
2014-04-09,1,0.0014376463252361565,0.0015669244043160198,-0.0025414783275233325,0.008986506664070412,0.9924912624758381
2014-04-11,1,0.00097920972464028,0.0010715994722973435,0.00011803270125675526,0.008986506664070412,0.9930109463164878
2014-04-15,1,0.001576593998765863,0.001705689849393777,-0.001270192266076426,0.006611137295795541,0.9940184284900265
2014-04-17,1,0.0012218564260051243,0.0012935793581294124,-0.001270192266076426,0.006611137295795541,0.9943224447811891
2014-04-22,1,0.0015175255302513559,0.001638102198360167,-0.0019599002904668135,0.006200331775429464,0.9943987387753273
2014-04-24,1,0.0018065438909391053,0.00196339066270134,-0.0019599002904668135,0.005418425582658693,0.9948092403876095
2014-04-28,1,0.0015707459414220713,0.0016604785704449018,-0.0012909970717846408,0.005418425582658693,0.9956628696327782
2014-04-30,1,0.001988085451814149,0.0021501529885482075,-0.0012909970717846408,0.005179377293569926,0.9958558909373433
2014-05-02,1,0.0026511113127722094,0.0029909032697461573,-0.0012909970717846408,0.0048684094767552245,0.9958902823189577
2014-05-06,1,0.002163302366964381,0.002396512971784995,-0.0019930577532200704,0.0048684094767552245,0.995787825993584
2014-05-08,1,0.0020322368386672786,0.0021641361059152727,-0.0025215419878535927,0.0048684094767552245,0.9952709164248555
2014-05-12,1,0.0020547321045133156,0.0021688899045270273,-0.0032322640419057418,0.004648750207310098,0.9943323048829129
2014-05-14,1,0.0023002021112677132,0.0025022314504344494,-0.002983768644843208,0.004648750207310098,0.9945348816638018
2014-05-16,1,0.002161872115504166,0.0023244064512947496,-0.003596322761783512,0.004648750207310098,0.9944832785240915
2014-05-20,1,0.0020857958089608966,0.0022477725973091708,-0.003596322761783512,0.0047740043679580235,0.9944240736583119
2014-05-22,1,0.0016103111278249695,0.001691765529086319,-0.0036400529092238064,0.0052221767842787125,0.9941931436079738
2014-05-27,1,0.0019438937662466572,0.0020695693792559004,-0.0036400529092238064,0.0047740043679580235,0.9942983593020829
2014-05-29,1,0.0018182563799157172,0.0019318399818113554,-0.004619960482512867,0.004721816825187289,0.9938828361958892
2014-06-02,1,0.0021672663088788575,0.002327877202268812,-0.004619960482512867,0.0033596404834338655,0.994130260116321
2014-06-04,1,0.001953446740413872,0.002060997984176257,-0.00505274534740463,0.0026388584881308387,0.9940887331780269
2014-06-06,1,0.0023039779804079437,0.002437919303824838,-0.005212283503555294,0.0022116065197813096,0.994531532638212
2014-06-10,1,0.0016964967855071828,0.0017753497889508377,-0.004619960482512867,0.0026388584881308387,0.9957245330771549
2014-06-12,1,0.0013749358553030596,0.0013863579069237158,-0.004854302191872825,0.0031947912953997023,0.9953304824358792
2014-06-16,1,0.0015240130541453725,0.0015800270896451072,-0.004854302191872825,0.0031947912953997023,0.9954471712314765
2014-06-18,1,0.0008993356302439215,0.0009818554912194224,-0.0049828326872381435,0.002656648520661902,0.9954689935705918
2014-06-20,1,0.001031488772783935,0.0010975859146760427,-0.00490748157725638,0.002656648520661902,0.9953712037597485
2014-06-24,1,0.0008364150298955958,0.0009127177070892603,-0.00490748157725638,0.0031947912953997023,0.9949861656031657
2014-06-26,-1,-0.0007804335939803741,-0.0004496676496242476,-0.0035805232752690406,0.0031947912953997023,0.9948857564285365
2014-06-30,0,-0.00015066573645871348,5.360342283323755e-05,-0.00490748157725638,0.004254587813399557,0.9942100135064844
2014-07-02,-1,-0.0002995803106338543,-9.029737810789529e-05,-0.00490748157725638,0.004254587813399557,0.9937920348221693
2014-07-07,-1,-0.00027196457471809167,-9.325912085743522e-05,-0.004477246404140718,0.005607681846674911,0.9934467233534392
2014-07-09,-1,-0.0002858365331429133,-9.787547806141498e-05,-0.005572004593578639,0.005607681846674911,0.9930314915154687
2014-07-11,1,2.721774325096203e-05,0.0001618465192023146,-0.00522006584250712,0.005208458065022935,0.9934686872141818
2014-07-15,1,0.0001740987094826164,0.00030091741353521995,-0.00522006584250712,0.004559277088523004,0.9936488314659351
2014-07-17,-1,-0.00032079046695338356,-0.00012218198971788898,-0.0034632103582452013,0.005208458065022935,0.9930593673561504
2014-07-21,1,0.000439588117811716,0.00048811663299163884,-0.0031330020596158693,0.005208458065022935,0.9931668048842628
2014-07-23,1,0.0008569884716830084,0.0008609652909940839,-0.0031330020596158693,0.004559277088523004,0.9937562018711891
2014-07-25,1,0.00027658765315009576,0.0003246956875755032,-0.004516666569219296,0.004559277088523004,0.994143532488685
2014-07-29,-1,-0.00031390828185077303,-0.00017762178711298556,-0.004516666569219296,0.003571383394612779,0.9946109964418401
2014-07-31,-1,-0.0013364001167335332,-0.001042472209630402,-0.0036903800647976742,0.0026057925855157097,0.9950264431471758
2014-08-04,-1,-0.001054675176989321,-0.0008029304991441084,-0.0029098175855094676,0.001874896814718582,0.9955741777078148
2014-08-06,-1,-0.0016794871050181657,-0.0013495547389993747,-0.0029098175855094676,0.001874896814718582,0.9959073087136431
2014-08-08,-1,-0.0012257129624594152,-0.0009750666034888052,-0.0029098175855094676,0.0021096569582770832,0.9959598984933893
2014-08-12,-1,-0.0014229941182057192,-0.0010973831587199833,-0.0036318500667075404,0.001874896814718582,0.9957547765434395
2014-08-14,-1,-0.0008169518404982218,-0.0005708717653727742,-0.004341076574948894,0.001874896814718582,0.9946817071822487
2014-08-18,-1,-0.0006282131984370066,-0.0003810613137960225,-0.005014423017886183,0.001874896814718582,0.9948099554301153
2014-08-20,-1,-0.0003889518725176984,-0.00019655808074467787,-0.005014423017886183,0.0021096569582770832,0.9942052642039804
2014-08-22,-1,-0.000531271711768121,-0.0003528347841187362,-0.00436863377730853,0.0021096569582770832,0.9940255342443552
2014-08-26,-1,-0.0009252474789794528,-0.0006831985604818923,-0.005354480043132973,0.0019695669837795403,0.993808238881341
2014-08-28,-1,-0.0009653776719682107,-0.000723593016057349,-0.006453079742543554,0.0027366672492455534,0.9930260558326801
2014-09-02,-1,-0.0010828482876956052,-0.0008180527673591969,-0.007678028327182442,0.0027366672492455534,0.9926132012157765
2014-09-04,-1,-0.0018798575217331176,-0.0014835902751662538,-0.007678028327182442,0.0027919696954724926,0.9925377601508822
2014-09-08,-1,-0.0010740574052228334,-0.0008347631537564707,-0.007678028327182442,0.003907883996155506,0.992414856717476
2014-09-10,-1,-0.0018358427923150778,-0.0014943071463303637,-0.007678028327182442,0.004435789984826452,0.9908934975642258
2014-09-12,-1,-0.0032403956385592255,-0.0027495196614419704,-0.006453079742543554,0.00526867466248328,0.9920470679571455
2014-09-16,-1,-0.002951765911134289,-0.002513707394077019,-0.006453079742543554,0.006825926374588057,0.9909781337676499
2014-09-18,-1,-0.0024885391905563065,-0.0021185119976365237,-0.007678028327182442,0.006333983003505328,0.9908521224282646
2014-09-22,-1,-0.002799158718159718,-0.002418605304327656,-0.006453079742543554,0.00977266680324454,0.9902763708016538
2014-09-24,-1,-0.003048269167959249,-0.0026903089189436397,-0.0019261464267552523,0.010400499336681456,0.9898667501605407
2014-09-26,-1,-0.002666252570891941,-0.0023601904329380668,-0.0019261464267552523,0.010400499336681456,0.9899079645286483
2014-09-30,-1,-0.0028809200381613655,-0.0025680316215576844,-0.00043161221679852873,0.010400499336681456,0.989467970009101
2014-10-02,-1,-0.002233803991462999,-0.0020107871522226464,-0.00129162861816525,0.0124199669568386,0.9892745992978144
2014-10-06,-1,-0.002112068996168591,-0.0018922252024676843,-0.00129162861816525,0.0124199669568386,0.9891340760189389
2014-10-08,-1,-0.0011317441332806253,-0.0010338834760610974,-0.0002866721337889071,0.010400499336681456,0.9914183055117356
2014-10-10,-1,-0.0009870065939746506,-0.0009008091905217972,-0.0014913261777263875,0.009300212928510607,0.9910855016105127
2014-10-14,-1,-2.6136739395895004e-05,-5.005917202342448e-06,-0.0031358440785660318,0.009300212928510607,0.9916414567456001
2014-10-16,1,0.0006173591513234306,0.0007449124789951217,-0.0031358440785660318,0.010405003540708384,0.9914689557891742
2014-10-20,1,0.0008719474944074023,0.0010282491208893406,-0.004607494734285682,0.007667875828395263,0.9921268374067785
2014-10-22,1,0.0013393057526743459,0.001574474198182877,-0.004607494734285682,0.007659146962831579,0.9922463570433616
2014-10-24,1,0.001926766373896827,0.002241928895419815,-0.0019818763962996043,0.006687697381443889,0.99333940211624
2014-10-28,1,0.0023766964348097886,0.00278113537010341,-0.0025610452062612673,0.006687697381443889,0.993348198015274
2014-10-30,1,0.0024611735685504043,0.0028326009456887576,-0.0025610452062612673,0.006687697381443889,0.9935983720834214
2014-11-03,1,0.0026031329749555115,0.002992490788157307,-0.0025610452062612673,0.00440459272036697,0.9931947301217318
2014-11-05,1,0.0026433991322701873,0.003035123729758054,-0.0025610452062612673,0.005707437844005792,0.9932792317359668
2014-11-07,1,0.0017571067496482237,0.0020415726055629984,-4.353991615030036e-05,0.008245867503538304,0.9944197725359732
2014-11-11,1,0.001964385243921814,0.002269174042104658,0.0005296777080927674,0.008245867503538304,0.9949152531642004
2014-11-13,1,0.0017370829637798162,0.0020068201042661715,-4.353991615030036e-05,0.005158350345287631,0.9953460978091652
2014-11-17,1,0.0013687295796466663,0.0015526454415070803,-0.0012013351034238853,0.005158350345287631,0.99474904647955
2014-11-19,1,0.0017102258140831504,0.0019408072817411757,-0.0002827327533771762,0.0070771642239807935,0.9937293390611097
2014-11-21,1,0.0015966011906062697,0.001804777480144803,-0.001969884388353038,0.007405404096670556,0.9929004512109028
2014-11-25,1,0.001480911640589179,0.0016580110250242978,-0.003649900828443634,0.007405404096670556,0.9922211811163156
2014-11-28,1,0.0019056766820498487,0.0021454587220115437,-0.004396521199109699,0.007405404096670556,0.9922507081505257
2014-12-02,1,0.002512913256984127,0.00283809696606462,-0.006472204534780401,0.006980038921264264,0.991720240712951
2014-12-04,1,0.002569856673315625,0.0029216167489605404,-0.006472204534780401,0.007405404096670556,0.9908668297399553
2014-12-08,1,0.002715444291253436,0.0030657524378787304,-0.006472204534780401,0.007970103910566243,0.9904492995629541
2014-12-10,1,0.003090939508775808,0.003503476459018196,-0.006472204534780401,0.007407757883871753,0.9909639725578343
2014-12-12,1,0.0026308125682735794,0.0029956689809821674,-0.004396521199109699,0.007970103910566243,0.9910010414024147
2014-12-16,1,0.0017553543606134933,0.0019649665627681488,-0.0027245328143249608,0.007970103910566243,0.9915329281670865
2014-12-18,1,0.002882634425719493,0.0032262991757068095,-0.002774816444976765,0.007407757883871753,0.9927256649532892
2014-12-22,1,0.002375618796522084,0.0026248368158772583,-0.0023657372423348316,0.007328968610680737,0.9932540555985415
2014-12-24,1,0.0018756113453437177,0.0020746607798798134,-0.001246247587643486,0.007970103910566243,0.9933175678185201
2014-12-29,1,0.001639663025279748,0.0017914184030404232,-0.0019243824251539323,0.007328968610680737,0.9935171908530487
2014-12-31,1,0.000993406134706632,0.0010620530981846614,-0.002021210260109835,0.007328968610680737,0.9929732025654341
2015-01-05,1,0.0024560942775357945,0.002688811065213941,-0.002021210260109835,0.007328968610680737,0.9935303110630158
2015-01-07,1,0.0033205160967991754,0.003704138037207024,-0.002021210260109835,0.006215379802750425,0.9931579160397696
2015-01-09,1,0.003526554347496539,0.003947339237971459,-0.0023657372423348316,0.006215379802750425,0.9918014013495581
2015-01-13,1,0.004039971850111169,0.004524090529312436,-0.0022731506363064167,0.006033968887351589,0.9924210638960258
2015-01-15,1,0.003945741215821829,0.004381471175856344,-0.002600353210889131,0.0066589936835028275,0.9917477973200767
2015-01-20,1,0.003554064048916188,0.0039254305255097596,-0.0024574829742089127,0.00811551749868619,0.9918317542111
2015-01-22,1,0.0036176771426086538,0.003990178487331311,-0.0036223502187234516,0.011029134914617586,0.9905674156054647
2015-01-26,1,0.00393977053803452,0.004347855235224265,-0.005711974185602403,0.009184595123865089,0.989808346229225
2015-01-28,1,0.0034683019541464927,0.0037958616672330234,-0.008494528718093858,0.009184595123865089,0.989692376069025
2015-01-30,1,0.002343696472310836,0.002529328881078217,-0.005711974185602403,0.009690721283458256,0.9911567089634769
2015-02-03,1,0.002402261573018617,0.0025576883916120265,-0.006330757707126947,0.008797371983135592,0.9911273756798329
2015-02-05,1,0.0017591762953293706,0.0017665523638644904,-0.008494528718093858,0.00782954119402145,0.9901450136245814
2015-02-09,1,0.0010168789547432115,0.0011310628229202128,-0.006268246105872764,0.008797371983135592,0.9903565617604477
2015-02-11,1,0.0013244887307312353,0.0013927611160105974,-0.006268246105872764,0.009867465492429095,0.9892450005300688
2015-02-13,1,0.0010035729623710402,0.0011418361942061779,-0.006268246105872764,0.008797371983135592,0.989836866209348
2015-02-18,1,0.0008534614221003809,0.0010386614188219682,-0.006268246105872764,0.008797371983135592,0.989746703587028
2015-02-20,1,0.000496404982150163,0.0007256382256914847,-0.0028521897189955764,0.008797371983135592,0.9898974970390471
2015-02-24,-1,-0.0012661219389168295,-0.0008332869093628009,-0.004709881523717409,0.008035398224895875,0.9902562055487844
2015-02-26,-1,-0.0018759501060619525,-0.001370463110406649,-0.006268246105872764,0.008035398224895875,0.989677920496921
2015-03-02,-1,-0.0013488288125937814,-0.0009059367563927897,-0.006268246105872764,0.008535917535850352,0.9897649946172024
2015-03-04,-1,-0.0010633536510904174,-0.0006776191827416109,-0.007566116807594148,0.008535917535850352,0.9895834371937003
2015-03-06,-1,-0.0017894083777433081,-0.0013229389466835849,-0.005123732733120164,0.01328335686759043,0.9900043540306598
2015-03-10,-1,-0.001073505499028884,-0.0007311052413964291,-0.005180049806633282,0.011866921805226093,0.9899701125146676
2015-03-12,0,-6.974064281668366e-05,0.00015063875840751076,-0.008059104085448831,0.008535917535850352,0.989935782807966
2015-03-16,1,0.00023250167040631074,0.0004053373331894969,-0.008059104085448831,0.007413192889178039,0.9898605928873607
2015-03-18,1,0.0009192685958601276,0.0010395252700331954,-0.009598376469547164,0.0063011457013056466,0.9896217783362933
2015-03-20,1,0.0023759682605274785,0.002515468310251838,-0.009598376469547164,0.005954620875948878,0.9902144686872821
2015-03-24,1,0.0017479144468539013,0.0018137746339744018,-0.00848133410682032,0.0063011457013056466,0.9909595680649982
2015-03-26,1,0.0005262606034158151,0.0005843162889421541,-0.00848014683842991,0.007288202689952082,0.9912562755037675
2015-03-30,1,0.001228817836527902,0.0012404442434456532,-0.009027650452223588,0.0063011457013056466,0.9915438626630944
2015-04-01,1,0.0005231349170118766,0.0005658349694126225,-0.010955046994063829,0.0063011457013056466,0.9900093975213291
2015-04-06,1,0.0010177128225889692,0.001100185990887167,-0.010955046994063829,0.005954620875948878,0.9909687871990158
2015-04-08,1,0.0003614051598486222,0.00047660195310157905,-0.010955046994063829,0.005954620875948878,0.9901641500758955
2015-04-10,-1,-0.0006299772007190812,-0.0003758762746808267,-0.00947987396039581,0.007037594421940513,0.9900714472458465
2015-04-14,-1,-0.0007432464840810156,-0.00047212544187935895,-0.010955046994063829,0.007037594421940513,0.9895777925225766
2015-04-16,-1,-0.0008275119145381481,-0.0005572935206957474,-0.010485909344649033,0.007828826050602327,0.9889249391233829
2015-04-20,-1,-0.0012078489000644347,-0.0008933091582777068,-0.011555834610443318,0.007828826050602327,0.9883521454060176
2015-04-22,-1,-0.0009976333476362836,-0.0007012371554397269,-0.012656895050263912,0.007574977413459035,0.9883162862601647
2015-04-24,-1,-0.000915914092254998,-0.0006514498168596211,-0.012656895050263912,0.0043701262366164775,0.9888029311362995
2015-04-28,-1,-0.0010773636754689041,-0.0008281928940829284,-0.012656895050263912,0.007574977413459035,0.9888348492433577
2015-04-30,-1,-0.00280410135664376,-0.002360080875157757,-0.010740121613499973,0.007574977413459035,0.9901176860663344
2015-05-04,-1,-0.0023447936017664157,-0.0019743370014669165,-0.010740121613499973,0.008407392249333701,0.9893824322382404
2015-05-06,-1,-0.0035431858609787543,-0.0030660410584931086,-0.010443888481783473,0.008407392249333701,0.9902836417629635
2015-05-08,-1,-0.0031108488313080166,-0.002655337628648365,-0.010740121613499973,0.002320995887873134,0.9914008569924946
2015-05-12,-1,-0.004006090333558556,-0.0034104619474438005,-0.010443888481783473,0.0025210209496048736,0.9919870637159565
2015-05-14,-1,-0.0018668041767944607,-0.0015880484817758335,-0.010353947052774424,0.0025210209496048736,0.9922054016807972
2015-05-18,-1,-0.0022551992714215296,-0.0019291435646716865,-0.01007333624677804,0.0025210209496048736,0.9926920483086824
2015-05-20,-1,-0.0029686338815043158,-0.0025286398761927087,-0.008716037215710229,0.006043177882329,0.992661102366053
2015-05-22,-1,-0.0041956368034330345,-0.003652708028938326,-0.008940165592196736,0.006043177882329,0.9927967240952318
2015-05-27,-1,-0.004350469061577843,-0.0037457600820444783,-0.008940165592196736,0.004468147241068621,0.9936670212095858
2015-05-29,-1,-0.004306540101565485,-0.00374368215713264,-0.008940165592196736,0.004468147241068621,0.9935948056836639
2015-06-02,-1,-0.002962664561781391,-0.0025862505518513637,-0.008940165592196736,7.127110008861158e-05,0.9939274160318811
2015-06-04,-1,-0.0035042064244112277,-0.003073968045659102,-0.008357712057966168,0.005915954876414529,0.9930992929896553
2015-06-08,-1,-0.003921535217543515,-0.00348014157774947,-0.007529567193898684,0.00732392774002511,0.9923819521070059
2015-06-10,-1,-0.003748098864528174,-0.0033498870995551542,-0.0076814047558818,0.00732392774002511,0.992642695060021
2015-06-12,-1,-0.0038471279329795284,-0.0034396232695368314,-0.0071555945772798744,0.0073388293074531106,0.9926949126228075
2015-06-16,-1,-0.0037278392035836588,-0.0033506152309194116,-0.006242436415133115,0.007043420113589967,0.9929932124456178
2015-06-18,-1,-0.002882741441147637,-0.002633191006434403,-0.006426717733541901,0.00701703515974733,0.9933609088209728
2015-06-22,-1,-0.0033585028938470643,-0.003050726883503763,-0.004998535699187548,0.00701703515974733,0.9935984426625329
2015-06-24,-1,-0.004254031276421473,-0.003803231011522027,-0.005891051612492652,0.00701703515974733,0.9924756246871893
2015-06-26,-1,-0.004241202085047137,-0.003831611636971356,-0.0025748258388231735,0.00701703515974733,0.9922078466180007
2015-06-30,-1,-0.004504485083895683,-0.004090794182542308,-0.000961093963628838,0.007194192182843061,0.991744212163556
2015-07-02,-1,-0.0038793850850680454,-0.0035082978460097085,-0.0019899348216803,0.007194192182843061,0.9931285102149279
2015-07-07,-1,-0.00241751409326745,-0.002243264115975515,-0.004074951454927769,0.0041891863345590325,0.9943481780887878
2015-07-09,-1,-0.0021795560002301415,-0.002067169107058884,-0.004074951454927769,0.0041891863345590325,0.9943416481984598
2015-07-13,-1,-0.0016966426206827692,-0.0016676600133045622,-0.0021245699031018483,0.0035357403729158994,0.9950823883996647
2015-07-15,-1,-0.0013884135340791223,-0.0013853754695447918,-0.0021245699031018483,0.0041891863345590325,0.9948035546524613
2015-07-17,-1,-0.0017662981675070567,-0.0016889143715832881,-0.0010059723241026873,0.0041891863345590325,0.9946507735168646
2015-07-21,-1,-0.0017780553498796324,-0.0016832419548194208,-0.0018504956681886899,0.005124217270790702,0.9942996514743382
2015-07-23,-1,-0.001934604374043216,-0.0018623976057965056,-0.0026678377330454205,0.005124217270790702,0.9942451600667225
2015-07-27,-1,-0.0019950941950287807,-0.0019698811157253873,-0.005945070329779917,0.005124217270790702,0.9909918650460454
2015-07-29,-1,-0.0012966595643470599,-0.0011190157342127333,-0.007719560652543625,0.005124217270790702,0.9888010622496727
2015-07-31,-1,-0.0009481971577206053,-0.0008348391277452892,-0.007719560652543625,0.005124217270790702,0.9885288326015346
2015-08-04,-1,-0.00043274426805724094,-0.00042653630557097595,-0.018705420376804123,0.0035007766244912015,0.9867548771479029
2015-08-06,-1,-0.0005003428184226366,-0.0004886007416158471,-0.018705420376804123,0.007302971171900697,0.986186033637974
2015-08-10,-1,-0.00014934074829193078,-5.253833695952173e-05,-0.02105746024837282,0.008496575388383996,0.9844529607558049
2015-08-12,1,0.0007118854886128435,0.0009789791634449365,-0.02105746024837282,0.00963354622503989,0.9839555871538515
2015-08-14,1,0.0007488567534640431,0.000979021590417486,-0.02105746024837282,0.012006838181777384,0.9832657283272097
2015-08-18,1,0.0005792030648745768,0.0007481721462178795,-0.02105746024837282,0.013124196956863624,0.9822448081808546
2015-08-20,1,0.00012730285926928505,0.00026248044732597676,-0.02105746024837282,0.01575413867310549,0.9821712047597805
2015-08-24,-1,-0.001892581005909014,-0.001751887385804782,-0.01126190538353869,0.01575413867310549,0.9843524769250696
2015-08-26,-1,-0.0007087192970128655,-0.0006467746201685954,-0.008747730326674547,0.013124196956863624,0.9866708215312336
2015-08-28,-1,-0.0004839835927965329,-0.0004169895677110746,-0.01126190538353869,0.013124196956863624,0.986410093172919
2015-09-01,-1,-0.001981534999249928,-0.0018463639011229104,-0.0075678879500335194,0.013124196956863624,0.9875876096579812
2015-09-03,-1,-0.0011312669456727343,-0.0011076447878431565,-0.0075678879500335194,0.012851891538634034,0.9878950995906491
2015-09-08,-1,-0.0008719197410275604,-0.0008654407659302974,-0.004390116592504762,0.012851891538634034,0.9886902246222781
2015-09-10,-1,-0.0007992250329314802,-0.0007915753613033236,-0.0032151235700798664,0.014940607412908142,0.9887763712716766
2015-09-14,0,-3.764813736114767e-05,9.796699621875246e-05,-0.0006620868771856467,0.012851891538634034,0.9900889028662542
2015-09-16,1,0.0013889189595332695,0.001727546501741406,-0.004060774945414453,0.010047567446043843,0.991837425576918
2015-09-18,1,0.0017707297300102293,0.002139315762102715,-0.002075919817888906,0.01032402680076285,0.991714843754662
2015-09-22,1,0.0010962899519135318,0.001302619425383838,-0.0019790421225143063,0.011272233319343397,0.9917908410172689
2015-09-24,1,0.0013900794796277089,0.0016536017345492719,-0.0019790421225143063,0.011906580149794276,0.9917664547471661
2015-09-28,1,0.0006074294225972016,0.0007074615829518757,-0.0019790421225143063,0.011906580149794276,0.9916374946432358
2015-09-30,1,0.0013479812265393635,0.0016084206383830176,-0.00019749864901714618,0.011272233319343397,0.9927574690164833
2015-10-02,1,0.0018312028408833923,0.0021354900247408156,-0.0017671834497270068,0.011272233319343397,0.9929486426589376
2015-10-06,1,0.0027768171810179463,0.003229558120809678,-0.0049106086834895726,0.011272233319343397,0.9919651101513772
2015-10-08,1,0.0033213601765875057,0.0038265582043295323,-0.0049106086834895726,0.006376767624579338,0.9922434024675528
2015-10-12,1,0.003140748847237154,0.003613937675852645,-0.006182577553957571,0.006376767624579338,0.9898905548622554
2015-10-14,1,0.0027835105760813895,0.0031841334939879734,-0.005891944467833772,0.011272233319343397,0.9896771671569838
2015-10-16,1,0.003973495695587559,0.004550605094500057,-0.007735745007045883,0.004770443460790467,0.9894393294080656
2015-10-20,1,0.003835232404051806,0.004360774287236914,-0.007735745007045883,0.004918329120797843,0.9901377029018742
2015-10-22,1,0.0043383589844174855,0.004947738541131215,-0.007582368495304249,0.004918329120797843,0.990671032021811
2015-10-26,1,0.0036952231692458093,0.004180719512192772,-0.005205242945557995,0.005765007944886774,0.9911609507069796
2015-10-28,1,0.0034206378688507095,0.003830856638085333,-0.007582368495304249,0.0064799669035569794,0.9905764782036715
2015-10-30,1,0.0031861423410353058,0.0035566303786983048,-0.007836478169955675,0.0064799669035569794,0.9904606981584364
2015-11-03,1,0.0034472766451406887,0.003846258216032124,-0.007836478169955675,0.0064799669035569794,0.9903279332944476
2015-11-05,1,0.0033300120868680746,0.0037196773399644093,-0.010413173339350245,0.007432304947685569,0.9893521229493097
2015-11-09,1,0.002264042165903056,0.0025378269579732562,-0.008358828067471789,0.007432304947685569,0.9903722892808873
2015-11-11,1,0.0025071846689713583,0.002773181352182071,-0.010413173339350245,0.0064799669035569794,0.9901334273440102
2015-11-13,1,0.001661048959549676,0.0018037599249609185,-0.010165242427153179,0.0064799669035569794,0.9903212868707676
2015-11-17,1,0.0017570296401087768,0.0018807704835774835,-0.010165242427153179,0.008695986526919084,0.9896683110364543
2015-11-19,1,0.0017490074736210668,0.001841108733442513,-0.012649794700774455,0.006621214417761378,0.9882539994755314
2015-11-23,1,0.002256213747607126,0.0024529279294946468,-0.012649794700774455,0.0055467885706131925,0.9884017523990923
2015-11-25,1,0.002437448794351791,0.0026957576733996026,-0.012649794700774455,0.00679833863141264,0.9880027760113526
2015-11-30,1,0.001912708333891372,0.002079318780305214,-0.012649794700774455,0.006902667980981845,0.9884916337431071
2015-12-02,1,0.0018710384949927523,0.0020365929296634906,-0.010447889860499273,0.004366237064138708,0.9900002873704992
2015-12-04,1,0.0018561279333741902,0.0020226459711125693,-0.010780327663012916,0.004366237064138708,0.9896302006749815
2015-12-08,1,0.0010630378294869418,0.0011235473854223337,-0.01399931101125502,0.004366237064138708,0.9889550803506045
2015-12-10,1,0.00044235339975305394,0.0004647312886206361,-0.01399931101125502,0.004531097385520814,0.9888811141743188
2015-12-14,-1,-0.0002812521498188694,-0.00014910831868146144,-0.015446271957925068,0.004531097385520814,0.9885283417103372
2015-12-16,1,0.000725194955628976,0.0007381977325006307,-0.016529098557373677,0.0036536645708631767,0.9884226491492998
2015-12-18,-1,-0.0004251795374855031,-0.0003087418290461136,-0.016529098557373677,0.0036536645708631767,0.9889461771432146
2015-12-22,-1,-0.0002889664000555687,-0.00018772194278158984,-0.016529098557373677,0.003708618011323879,0.9863995614227857
2015-12-24,1,0.0003468537699494931,0.0003533861635339129,-0.016529098557373677,0.003708618011323879,0.9864525247270851
2015-12-29,1,0.00044496123319554676,0.00046151904208873936,-0.017444662974063198,4.749946524097178e-05,0.9821344599360017
2015-12-31,0,-6.3145305142316e-05,3.0380426706739106e-05,-0.021362060964258474,0.0019863754633870547,0.9793975849079818
2016-01-05,-1,-0.0002669136787298548,-0.0001956794429218713,-0.02148962574434695,-0.0002886914526770082,0.9790604314316974
2016-01-07,-1,-0.0013699270578349176,-0.0013197485981428071,-0.02325413306047793,0.0019863754633870547,0.978582965118851
2016-01-11,-1,-0.0017384262350928475,-0.0016640359220008504,-0.03349726290643225,-0.0002886914526770082,0.9763707049177329
2016-01-13,-1,-0.0027722872096086443,-0.002544830450855992,-0.03349726290643225,0.0046693653040851,0.9755727150822875
2016-01-15,-1,-0.005228508415314468,-0.004597556589110774,-0.03349726290643225,0.01592499843621594,0.9750965131576568
2016-01-20,-1,-0.006584863562274419,-0.005794193006634207,-0.0323613306122765,0.017974407107070035,0.974783377658206
2016-01-22,-1,-0.004793386332517249,-0.004220000910321016,-0.0323613306122765,0.019441482495317682,0.9748148853879713
2016-01-26,-1,-0.0056154040659854645,-0.004857122857134766,-0.0323613306122765,0.019441482495317682,0.975139374902468
2016-01-28,-1,-0.010167976480327908,-0.008908525617152578,-0.027782873946709103,0.019441482495317682,0.9775771118530072
2016-02-01,-1,-0.010515820253812555,-0.009208718340908358,-0.018741671388891615,0.019441482495317682,0.9775052247318924
2016-02-03,-1,-0.011856373967231023,-0.010396344387790158,-0.013789122103524096,0.019441482495317682,0.9762595501975486
2016-02-05,-1,-0.011928141125739481,-0.010494448909673753,-0.01224791253274772,0.017974407107070035,0.9786112228938949
2016-02-09,-1,-0.014106514589747411,-0.01248903498664182,-0.00883137157585257,0.017974407107070035,0.9776391873162351
2016-02-11,-1,-0.013874499126870488,-0.01231716491177703,-0.004697200749538917,0.018571207392267967,0.9773826054133984
2016-02-16,-1,-0.012837317862992446,-0.01140176121841243,-0.00883137157585257,0.017385714425565333,0.9801854425061381
2016-02-18,-1,-0.011306517662728837,-0.010064816902346644,-0.00883137157585257,0.019275540530617193,0.9803848762794937
2016-02-22,-1,-0.009765197002555194,-0.008684436240698245,-0.01224791253274772,0.014884699853811759,0.983156455476093
2016-02-24,-1,-0.009878555511519907,-0.008805045688835004,-0.01224791253274772,0.014884699853811759,0.982961053814369
2016-02-26,-1,-0.009095278695427634,-0.008155301755634805,-0.01224791253274772,0.013404478970648923,0.983809937549936
2016-03-01,-1,-0.006716598371511243,-0.006092107148781932,-0.007663966870078217,0.013404478970648923,0.9865134298819032
2016-03-03,-1,-0.005680951487228019,-0.005215800676094159,-0.007663966870078217,0.013404478970648923,0.9874737983474592
2016-03-07,-1,-0.005846864069043587,-0.0053786676775570245,-0.006739960725412873,0.013404478970648923,0.9875887396512608
2016-03-09,-1,-0.0060150734338756135,-0.005534090992306951,-0.006739960725412873,0.013402298716809388,0.9884662615668214
2016-03-11,-1,-0.004277311759368887,-0.00405967652175231,-0.006739960725412873,0.013188010017137115,0.9890562477896311
2016-03-15,-1,-0.004667563646841404,-0.004424514392290981,-0.0037027851745222154,0.013188010017137115,0.9885872443300695
2016-03-17,-1,-0.002751316324865529,-0.0027430618672521037,-0.0037027851745222154,0.012565821892952434,0.9905514196086286
2016-03-21,-1,-0.002596675754613851,-0.002569374702781339,-0.0029680638805036188,0.011645954073254137,0.9910243838905122
2016-03-23,-1,-0.002696443424328499,-0.0026601987685075648,-0.002446125389720829,0.012565821892952434,0.9902435787066977
2016-03-28,-1,-0.002684070993694241,-0.0026286995185127245,-0.002289335422845779,0.012565821892952434,0.9897567179334269
2016-03-30,-1,-0.0016043583150418402,-0.0013652455722914453,-0.002289335422845779,0.011645954073254137,0.9911110250582031
2016-04-01,-1,-0.0008503824018554463,-0.0004888308792737064,-0.003297575134588864,0.011645954073254137,0.9915760056936798
2016-04-05,-1,-0.0017812449540159758,-0.0016220525160347667,-0.002555962474415911,0.012565821892952434,0.9901942962678204
2016-04-07,-1,-0.001005271322018476,-0.0006973545758890273,-0.002555962474415911,0.011645954073254137,0.9915473755389835
2016-04-11,0,-0.0003095932852035122,7.292972118799583e-05,-0.002555962474415911,0.008364699416636423,0.9925021435569448
2016-04-13,1,0.0004395098117817369,0.0009607909653183162,-0.003627739620180532,0.007441501111132654,0.9923180235597426
2016-04-15,1,0.001481085903887664,0.0021727856031750173,-0.005031418183282855,0.00684564360703225,0.9917341860949916
2016-04-19,1,0.002229437686891429,0.0030385280180792403,-0.0054110483646487555,0.006483516102956072,0.9911093333999547
2016-04-21,1,0.003115180718010146,0.0040477453981720216,-0.010952758468265943,0.006308250421859475,0.9907641140659801
2016-04-25,1,0.0034819668579724504,0.004468174351557319,-0.010952758468265943,0.006483516102956072,0.9905767816055254
2016-04-27,1,0.003769665442549673,0.00479349187990959,-0.010952758468265943,0.004677447789607688,0.9908205644926907
2016-04-29,1,0.00391077274404455,0.004962701209497521,-0.010952758468265943,0.004677447789607688,0.9913905613082452
2016-05-03,1,0.0035555243144990544,0.004527016897252104,-0.006123331526389471,0.004677447789607688,0.9927028055479966
2016-05-05,1,0.003391923001370895,0.00431702623140022,-0.006311899533702605,0.006326496449155363,0.9928392331363844
2016-05-09,1,0.0038486023337787174,0.00482323488626236,-0.009935421592371768,0.004562151706357015,0.9920760016359595
2016-05-11,1,0.003984972247315753,0.005029539340513339,-0.006311899533702605,0.004274351971716066,0.9930722145497867
2016-05-13,1,0.002863526638971759,0.0036988336483399346,-0.006311899533702605,0.004274351971716066,0.9938178011144384
2016-05-17,1,0.002880701526844726,0.003733605282582279,-0.006311899533702605,0.004274351971716066,0.9938122442953291
2016-05-19,1,0.002673150706622004,0.003549018518606465,-0.0014248530593308712,0.004719822568469772,0.9953698028286433
2016-05-23,1,0.0034451406855411297,0.00444625070014676,-0.0017155086811282512,0.004719822568469772,0.9945454160615299
2016-05-25,1,0.0038538303002523143,0.004903947867498809,-0.0017155086811282512,0.005347801161981844,0.9933494760283527
2016-05-27,1,0.0036993998483829758,0.004707351346779087,-0.006508855504747218,0.005347801161981844,0.9897613360051846
2016-06-01,1,0.0033898980248221015,0.004266263251348703,-0.006508855504747218,0.007985985084015362,0.9880314196033833
2016-06-03,1,0.0033606715003360777,0.004198334307676625,-0.010526289505505607,0.014792370753241071,0.9858986462922116
2016-06-07,1,0.002987657157955306,0.0037407708329828867,-0.006440301074988405,0.014792370753241071,0.9858558502921466
2016-06-09,1,0.0030182450787346366,0.0037470646704192124,-0.008130973903573745,0.019586644421291637,0.9840267520665453
2016-06-13,1,0.0018171673181180306,0.0022978562926082163,-0.0051632779350126515,0.019586644421291637,0.9840159579603552
2016-06-15,1,0.002842066732490222,0.0035695564069040298,-0.004468914193008354,0.019586644421291637,0.984959235208656
2016-06-17,1,0.0033058876670488,0.004119509546668607,-0.004468914193008354,0.019586644421291637,0.9848343460928439
2016-06-21,1,0.00126848310577437,0.0014804715031515488,-0.004468914193008354,0.01895975358316552,0.9849576200493256
2016-06-23,1,0.0020580480620457113,0.0023516399125034686,-0.004468914193008354,0.018829008926784817,0.9849228249245022
2016-06-27,-1,-0.0014681373894758205,-0.001224402485959859,-0.0008245968742234081,0.018829008926784817,0.9868117529519801
2016-06-29,-1,-0.0003496839031804168,-0.00019735381040674322,-0.0014124003073937778,0.011306839694769753,0.9896703957559568
2016-07-01,-1,-0.001478424103700678,-0.001039594979516641,-0.0011527648180823893,0.010839616794784944,0.9912423940189864
2016-07-06,-1,-0.002295871391343445,-0.0017403467570420933,-1.5574143309603114e-05,0.010839616794784944,0.9903756290627923
2016-07-08,-1,-0.0011739773207684206,-0.0007735820495322668,0.0013522056779509523,0.009943717093297472,0.9922779498828831
2016-07-12,0,-3.610538009038802e-05,0.00019183179883053064,0.0008744542924173249,0.006537424319313745,0.9941278230650591
2016-07-14,1,6.92273598304997e-05,0.00020715770875109088,0.0008744542924173249,0.007758231609509207,0.9939007737903273
2016-07-18,-1,-0.0007584623760571456,-0.0005177267745259738,0.0003598161326253763,0.006537424319313745,0.9940032423691172
2016-07-20,-1,-0.0007728735003817295,-0.0005270735299564124,0.00016388165490191964,0.006537424319313745,0.9939288292681333
2016-07-22,1,0.0016569816722276087,0.0017509696438196192,-0.002162089865024649,0.003503901306548966,0.9949771941113318
2016-07-26,1,0.0017772601141232104,0.001893371743288208,-0.0022493836051279735,0.003503901306548966,0.9948988295761673
2016-07-28,1,0.0013948970006696223,0.001424052863088012,-0.0030925130235745575,0.0031506428447601537,0.9947562302173475
2016-08-01,1,0.0011781746153192365,0.0011966351714111773,-0.004032094167478906,0.0031506428447601537,0.9944775583484216
2016-08-03,1,0.0012016472487596198,0.0012096189688304974,-0.0030037575514027504,0.0050948384549688,0.9939975400525188
2016-08-05,1,0.0008691314740967935,0.0009636343538602424,-0.004032094167478906,0.0035779444232006065,0.993082559537831
2016-08-09,1,0.0021230227963188637,0.0023015844352412824,-0.004032094167478906,0.00707861842265616,0.9923508224888763
2016-08-11,1,0.002108053720501737,0.002271547147683797,-0.008892891194386403,0.0052634596166794105,0.989549292130632
2016-08-15,1,0.0015723165303644627,0.0016400401417702723,-0.012085316968529084,0.007150876592599471,0.9871513494150999
2016-08-17,1,0.0013126782425248265,0.001332467148447278,-0.012085316968529084,0.007150876592599471,0.9875004628183516
2016-08-19,1,0.0006256818710180373,0.0006552959813366879,-0.007540539962586919,0.007150876592599471,0.9884304299577101
2016-08-23,1,0.0007919690806201126,0.0007931455078291562,-0.007540539962586919,0.00971415145876598,0.9878881512170888
2016-08-25,1,0.0003095932940869714,0.0003908109673264987,-0.007540539962586919,0.010894239268638336,0.9875349338750168
2016-08-29,1,0.00026450923711561876,0.000346441095214348,-0.013400934893228526,0.00971415145876598,0.9872807317419204
2016-08-31,1,0.0011353656202338761,0.0011886551253826995,-0.014051662026024855,0.006004664719025009,0.9869730863436005
2016-09-02,1,0.0008713477258421001,0.0008972043629379984,-0.013400934893228526,0.00435926579757917,0.9878755235509175
2016-09-07,1,0.0014499697010166824,0.0015774283227502819,-0.014051662026024855,0.0014298274203932363,0.9865886025766553
2016-09-09,-1,-0.0005182617788284488,-0.0004655271766626066,-0.01076320840934154,0.0023668172629206377,0.989598575118363
2016-09-13,1,0.00030782750145520775,0.0003192979219954673,-0.010631803805167596,0.0023668172629206377,0.9908253334317251
2016-09-15,1,0.00032528035121569103,0.00034892704703642994,-0.010631803805167596,0.004907231926128874,0.9905167734225628
2016-09-19,1,0.0002731077615481536,0.00029326182798645507,-0.010631803805167596,0.003405550213372058,0.9907522276636175
2016-09-21,1,0.0008101391774303424,0.0008846979776417291,-0.010631803805167596,0.0025154336505648816,0.9914788245892697
2016-09-23,1,0.0010578214832214364,0.0011474621288561644,-0.011580937211049275,0.0018662566920016992,0.991009810022118
2016-09-27,0,-7.603442989096104e-06,4.7347843395357424e-05,-0.011580937211049275,0.0018662566920016992,0.9910577370757893
2016-09-29,-1,-0.0007627561246617788,-0.0006387746359645056,-0.012889729526843726,0.0018662566920016992,0.9906845419694769
2016-10-03,-1,-0.001338715097679462,-0.0011246710261061965,-0.012889729526843726,0.0025154336505648816,0.9896753463648437
2016-10-05,-1,-0.0030836951414861206,-0.002627595536426679,-0.013130094213209438,0.0025154336505648816,0.9902730941642383
2016-10-07,-1,-0.0028071413182619792,-0.00236703917349846,-0.013130094213209438,0.0025154336505648816,0.9894576429836062
2016-10-11,-1,-0.0025529302864381715,-0.0021207018781729888,-0.013130094213209438,0.0025154336505648816,0.9890547699548442
2016-10-13,-1,-0.0020505638539183822,-0.0016909979239681588,-0.013130094213209438,0.005894912417883484,0.9875936203902888
2016-10-17,-1,-0.00215715619199939,-0.0017786934533093148,-0.013130094213209438,0.017651649900695426,0.9850670385688951
2016-10-19,-1,-0.0023674291444060382,-0.001932209514370354,-0.013717822845270438,0.017651649900695426,0.984223864184579
2016-10-21,-1,-0.0029855607073162194,-0.0024886458637062544,-0.013717822845270438,0.017651649900695426,0.9844183064258106
2016-10-25,-1,-0.004125974954659569,-0.0034973610945778517,-0.013075610762618555,0.017651649900695426,0.9841967112222122
2016-10-27,-1,-0.005548411982057327,-0.004748991524191467,-0.010659920827609392,0.017651649900695426,0.9853287026421129
2016-10-31,-1,-0.004565591271367117,-0.0038914830045190495,-0.010659920827609392,0.014427118333242655,0.986288559312159
2016-11-02,-1,-0.006102179340763723,-0.005214991128863013,-0.006365510456495613,0.014427118333242655,0.98649259228048
2016-11-04,-1,-0.0054424908647822965,-0.004637887197177157,-0.005229716544965119,0.014427118333242655,0.9864284336240091
2016-11-08,-1,-0.004953021872549415,-0.004211794426342116,-0.0035764951690256223,0.013710018176780333,0.9864550220313435
2016-11-10,-1,-0.0028905112688626883,-0.002421079345816049,-0.0035764951690256223,0.012328170623455096,0.9892641869392588
2016-11-14,0,-6.29397369283163e-05,7.161886420110756e-05,-0.0035764951690256223,0.011453554433863148,0.9911997310868037
2016-11-16,-1,-0.004010009591868256,-0.003316032944114016,-0.0035764951690256223,0.011453554433863148,0.9900267906788522
2016-11-18,-1,-0.003066044484078115,-0.002573738036349495,-0.0024221850854349598,0.012328170623455096,0.9898038861712246
2016-11-22,-1,-0.0015536534727385242,-0.001253550791286562,-0.0035764951690256223,0.010975477062796179,0.9904473164012444
2016-11-25,-1,-0.002297608692700853,-0.0018957589741016255,-0.006621014974691931,0.010975477062796179,0.9898622594585644
2016-11-29,-1,-0.001140210475224203,-0.0009219498748017035,-0.007791625008193239,0.008479415556795286,0.989949564171533
2016-12-01,-1,-0.0009047614327060561,-0.0007655397319770699,-0.007791625008193239,0.012029495349294608,0.9889945225537253
2016-12-05,1,0.00033393308168087774,0.00035171749968110046,-0.007791625008193239,0.012029495349294608,0.9889295115122344
2016-12-07,1,0.0013048688659796713,0.0014552978854164942,-0.009271074221295963,0.009509651953384334,0.9889860096705635
2016-12-09,1,0.0011108292098204037,0.0012486781928422936,-0.012450150514612759,0.009509651953384334,0.9872093161467478
2016-12-13,1,0.0025361776288815477,0.0029418968737773303,-0.012450150514612759,0.009499419444388145,0.9871963457366242
2016-12-15,1,0.0010347218899174578,0.0012604017058274685,-0.009904503821195095,0.010671833773276278,0.9888369912101651
2016-12-19,1,0.0017580054894386489,0.0020836703039410777,-0.011569098892612387,0.009499419444388145,0.9886505494228051
2016-12-21,1,0.0011244060653475482,0.001389359544728153,-0.009904503821195095,0.010671833773276278,0.9890046328628873
2016-12-23,1,0.00037528692257216174,0.0005213701786896336,-0.008796054142963756,0.010671833773276278,0.9893940805038994
2016-12-28,1,0.00044483769814688016,0.0006246921907294535,-0.006814312704847056,0.010992956623936017,0.9892624837525528
2016-12-30,1,0.0016458965457119097,0.0019969571337643184,-0.006814312704847056,0.010671833773276278,0.9901546369213841
2017-01-04,1,0.0029933329532042937,0.0035404707553617102,-0.010144038657615767,0.010671833773276278,0.989629489071766
2017-01-06,1,0.003051644628320859,0.003610740375082287,-0.006814312704847056,0.00863707692818503,0.9904067817547644
2017-01-10,1,0.0014676947959936016,0.001809424999689986,-0.0053177926874050825,0.010207983233761283,0.9916822514292181
2017-01-12,1,0.0012345479898324741,0.001489241214838483,-0.004140457927237963,0.008485870918012093,0.9921613076714069
2017-01-17,1,0.0020907459147016224,0.0024702324450981764,-0.004140457927237963,0.0074956429643023665,0.9926081508461508
2017-01-19,1,0.0016945218566591373,0.00201467105722252,-0.003875120253410043,0.007215613814770966,0.993298045012288
2017-01-23,1,0.0025320780934027396,0.0029635386057980306,-0.003875120253410043,0.00679832008573655,0.99368397101747
2017-01-25,1,0.0026838648361840072,0.00318615911116948,-0.0035562104326026826,0.00679832008573655,0.9939905429365792
2017-01-27,1,0.0028746752860216917,0.0033875732810817157,-0.003415924841721007,0.00679832008573655,0.9942096512645194
2017-01-31,1,0.0029327162994914747,0.00349062168815624,-0.0027909997745735895,0.007697670400095393,0.9943450423351473
2017-02-02,1,0.0014589415040425523,0.0016828981854283495,-0.0027909997745735895,0.007148951233735364,0.9943570363546396
2017-02-06,1,0.0018506064483591587,0.0021321237742172807,-0.0028087367059869933,0.007148951233735364,0.9942339164918417
2017-02-08,1,0.0018751767004045695,0.0021552542442778676,-0.0036138958634856513,0.006734599788716176,0.9935936204726328
2017-02-10,1,0.002173486122074594,0.0024903299135896,-0.004587275564135605,0.005515868974302375,0.9926504616191291
2017-02-14,1,0.0031917654132486636,0.0037003118558296792,-0.006368012806249658,0.005632746023635313,0.9909578394003432
2017-02-16,1,0.003060814001822279,0.0035936436127298687,-0.006368012806249658,0.007506509509034271,0.9907251433168057
2017-02-21,1,0.0030731711842414983,0.0035408073349861317,-0.008131614627470208,0.005311221495726573,0.9895872034710627
2017-02-23,1,0.002296887370345953,0.002621772581039461,-0.010433819441755135,0.007506509509034271,0.9888937339846179
2017-02-27,1,0.0023179393437376674,0.0026295004812695007,-0.011907236526068917,0.005311221495726573,0.9882544324168474
2017-03-01,1,0.001998651299076032,0.0021631526171738327,-0.011907236526068917,0.0010378298113838205,0.988198011179288
2017-03-03,1,0.0018264972735986497,0.002005030779051425,-0.010419078817053092,0.004830312029404307,0.9888616789313887
2017-03-07,1,0.0016384464365282322,0.0017896750049850416,-0.010419078817053092,0.005081813629357426,0.9892972629032993
2017-03-09,1,0.0005669800876136145,0.0005973899922829396,-0.0074544039479450775,0.00641255621677876,0.9904078240154975
2017-03-13,-1,-0.0005915823463264935,-0.00047154774720308565,-0.0074544039479450775,0.008674616448012179,0.9908321000955784
2017-03-15,1,0.000813782179644854,0.0008765276197300121,-0.0074544039479450775,0.005915772026632418,0.9921574934879813
2017-03-17,1,0.0005360863244917718,0.0005674401210992404,-0.00851216027790206,0.005915772026632418,0.9916008207953674
2017-03-21,-1,-0.0014283397125666292,-0.0011049133470054902,-0.00851216027790206,0.005915772026632418,0.9921466256407403
2017-03-23,-1,-0.0021633128422555116,-0.0016744918395462432,-0.00851216027790206,0.005766360222371484,0.9925760843267633
2017-03-27,-1,-0.0026388833404239684,-0.002110360557417674,-0.006367875156567991,0.007729437966954352,0.9923749146243778
2017-03-29,-1,-0.003786675247906965,-0.003060653505110836,-0.008622296437459234,0.007729437966954352,0.9914840746597676
2017-03-31,-1,-0.0028199170667557727,-0.0022474173359160227,-0.008622296437459234,0.006683904277536687,0.992299240060893
2017-04-04,-1,-0.0024481082170371396,-0.0019220136066218116,-0.009201767414920176,0.006683904277536687,0.9921382900912266
2017-04-06,-1,-0.0012370592174360297,-0.0009297529001692906,-0.009201767414920176,0.006245357972485131,0.9922550565255103
2017-04-10,1,0.00011317843118026504,0.00013139425607690714,-0.009771107953205169,0.00588204761944906,0.9917663340580137
2017-04-12,-1,-0.0006143644782726613,-0.0004418629381159509,-0.009771107953205169,0.006245357972485131,0.991642481891769
2017-04-17,-1,-0.00041857877763159027,-0.00025456369750952233,-0.008837616881064343,0.00588204761944906,0.9925429317628471
2017-04-19,-1,-0.0005589414765151365,-0.0004212092521457248,-0.007703398923115038,0.00588204761944906,0.9930374659773301
2017-04-21,-1,-0.0010024418879570692,-0.000793967075625665,-0.007333852930631253,0.004315710596779295,0.9938022166405894
2017-04-25,-1,-0.0005563629007224948,-0.0004142881992005617,-0.007333852930631253,0.003871586702515874,0.9941100944243821
2017-04-27,-1,-0.0020620287834089476,-0.0017295955316718415,-0.007215916633695823,0.004198969784995956,0.9951160269037991
2017-05-01,-1,-0.0011167994308496942,-0.0009608191669550919,-0.007293104896310736,0.003871586702515874,0.9947858553106596
2017-05-03,-1,-0.0006576768913929175,-0.0005990465208998296,-0.007215916633695823,0.003871586702515874,0.9945153342779374
2017-05-05,-1,-0.0005680583920211577,-0.0005080239695868179,-0.007215916633695823,0.003871586702515874,0.9945898959585704
2017-05-09,-1,-0.0008400936991945781,-0.0008064881595152512,-0.0063637122611482685,0.004198969784995956,0.9944585428214664
2017-05-11,-1,-0.0019419058592674426,-0.0017056167418486043,-0.005026710211182335,0.005057365046522978,0.9932707153794276
2017-05-15,-1,-0.001652837584461176,-0.0014963672111379012,-0.005026710211182335,0.006004179718101363,0.9921319071452745
2017-05-17,-1,-0.002438269991897501,-0.002133557205764573,-0.0063637122611482685,0.006004179718101363,0.9917690872936246
2017-05-19,-1,-0.0028193276215399635,-0.0024316557678713087,-0.0063637122611482685,0.006004179718101363,0.9918912308543685
2017-05-23,-1,-0.002634438000719487,-0.0022579802093896355,-0.0063637122611482685,0.007717165179627092,0.9915933567165849
2017-05-25,-1,-0.002040983222481726,-0.0018129406450739026,-0.005707237464744474,0.007717165179627092,0.9918922138976494
2017-05-30,-1,-0.0018322957423740345,-0.0016761933028761728,-0.0037991535176184533,0.007717165179627092,0.992066347711361
2017-06-01,-1,-0.001016760510292466,-0.000960768444681246,-0.0037991535176184533,0.006004179718101363,0.9928673886843142
2017-06-05,-1,-0.0018958202070001946,-0.00164238182267356,-0.0037991535176184533,0.007717165179627092,0.9922899827558974
2017-06-07,-1,-0.002134504344143862,-0.0018649144026958741,-0.005965424357727543,0.006164541358716802,0.9912840553502887
2017-06-09,1,5.773201708215079e-06,2.628180160451649e-05,-0.007510041778136545,0.0009955579533663505,0.9920120098654687
2017-06-13,1,3.030926788239265e-05,3.65450486348952e-05,-0.007510041778136545,0.0009955579533663505,0.9922734485779282
2017-06-15,1,4.030658950212977e-05,0.00010306731609005851,-0.005965424357727543,0.006164541358716802,0.9908791936904319
2017-06-19,-1,-0.0004499016208443434,-0.0004316201754585735,-0.008492896425393056,0.006164541358716802,0.9904912243092757
2017-06-21,1,0.00020106708108164244,0.0002902499471886541,-0.01312775857922569,0.006165774237041282,0.9886227732343777
2017-06-23,1,0.0002856045826222267,0.00035257855356717006,-0.01312775857922569,0.008707868747179414,0.9885314115218291
2017-06-27,-1,-4.91290557997495e-05,-2.5211847628708853e-05,-0.01312775857922569,0.008707868747179414,0.9888075520324391
2017-06-29,-1,-9.014648781988308e-05,-7.349635675487411e-05,-0.01312775857922569,0.00999320783258964,0.9882320353908266
2017-07-03,1,0.0005983422747708364,0.0007067607699149547,-0.01312775857922569,0.00823936219074282,0.9887816887726414
2017-07-06,-1,-0.0009465918218977585,-0.0008867655220450109,-0.007087943071768115,0.00823936219074282,0.989885731607483
2017-07-10,-1,-0.0013920417260693875,-0.0013064095022336394,-0.0035788728680598027,0.00823936219074282,0.9903534733286786
2017-07-12,-1,-0.0013489743034044669,-0.0012644154301691985,-0.0032685990180659585,0.007690140084194788,0.9914584976536175
2017-07-14,1,0.0004794654576047567,0.000661880527953716,-0.006731163726711681,0.003416681011689132,0.9923042652174873
2017-07-18,0,-2.9172916246302243e-05,8.173433111483198e-05,-0.006398641482655802,0.0051222728043484244,0.9920298437602804
2017-07-20,-1,-0.0006307080731602049,-0.0005810167719900628,-0.006398641482655802,0.003416681011689132,0.9936786044823289
2017-07-24,0,-2.1388494165474822e-05,0.0001355275647174921,-0.009299322994505177,0.003416681011689132,0.9929669284249772
2017-07-26,-1,-0.00021150387506533441,-0.00010196455689143944,-0.009299322994505177,0.0051222728043484244,0.992250223599642
2017-07-28,1,0.0003601469009160776,0.0005413374128338354,-0.010346750164888015,0.004259217244444073,0.9918680562681399
2017-08-01,1,0.00015327649917630027,0.00024664661016925464,-0.010442134315772745,-0.0003223050474703004,0.9914183744912652
2017-08-03,-1,-0.0010075281674065538,-0.0009067959325285465,-0.010328684443634393,0.004277744190767203,0.9919552387629672
2017-08-07,-1,-0.0002956296192531808,-0.0002608002010381393,-0.010442134315772745,0.007611644181024169,0.9908865201789581
2017-08-09,-1,-0.00032606567226531503,-0.00028201946055337983,-0.010442134315772745,0.00790832048524399,0.9906388473484532
2017-08-11,-1,-0.0017206769025708475,-0.0015451109885506787,-0.009534620250858012,0.008659824404027502,0.9912030094734727
2017-08-15,-1,-0.0013232878804055408,-0.0012207274534301199,-0.009534620250858012,0.00790832048524399,0.9920236889356742
2017-08-17,-1,-0.002529352372601293,-0.0022441825921618377,-0.00749903189928388,0.008659824404027502,0.9915529607822494
2017-08-21,-1,-0.002583027210306171,-0.00228303979387483,-0.00749903189928388,0.00790832048524399,0.9918543099879734
2017-08-23,-1,-0.0017210977907974106,-0.0015627456600749593,-0.00749903189928388,0.008659824404027502,0.9899901844552749
2017-08-25,-1,-0.0015474475914000296,-0.0014201595788357099,-0.006907566311644976,0.009499373471860202,0.990142773223934
2017-08-29,-1,-0.0018138580945122596,-0.0016858555102794482,-0.00513734751005193,0.010685625116128122,0.9893053725041437
2017-08-31,-1,-0.0015545741603142276,-0.0014603946454890741,-0.004621310809558165,0.010685625116128122,0.9895938855500389
2017-09-05,-1,-0.0015629482039941887,-0.001474315213271029,-0.0044756866637439075,0.010942326482411429,0.9895925494264011
2017-09-07,-1,-0.0008590554362153503,-0.000838494109375845,-0.0044756866637439075,0.011513319087655828,0.9895765235819148
2017-09-11,-1,-0.0010377480340146442,-0.001007389537947081,-0.0044756866637439075,0.01076402709123125,0.9899644804943079
2017-09-13,-1,-0.0011196753920385647,-0.0010773627373139392,-0.0031180486212412746,0.01076402709123125,0.9897732449960612
2017-09-15,1,5.568440448690292e-05,0.00017875804703410691,-0.004621310809558165,0.010316994856533142,0.9907599887413467
2017-09-19,-1,-0.0013835133283349671,-0.0012736100270426885,-0.00512735117410301,0.010316994856533142,0.9907753773659163
2017-09-21,1,0.0009416440430498296,0.001139534997654234,-0.006064451805977606,0.006622291137866334,0.9918283707170613
2017-09-25,1,0.0008289248290602816,0.0009864847996075299,-0.006803827251270602,0.00570135399898933,0.9916570147176238
2017-09-27,1,0.0006449048551012428,0.0007858563223154917,-0.006803827251270602,0.005393559802161376,0.9920479759807931
2017-09-29,1,0.0005614544661484201,0.0006511129588133346,-0.006803827251270602,0.004277609905569389,0.9923041260462505
2017-10-03,1,0.0011474520904518136,0.0013208219385320709,-0.008731567936963593,0.0019871668035047188,0.9918860376720652
2017-10-05,1,0.0011671050653077127,0.0013239488529098239,-0.008731567936963593,0.0009617088048423046,0.9920596405080807
2017-10-09,1,0.0011033533278773785,0.0012386743367598539,-0.010115912835538395,0.0009617088048423046,0.9915605274493443
2017-10-11,1,0.0012126047836149081,0.0013599561753402894,-0.010115912835538395,0.001961012554374846,0.9908738912490173
2017-10-13,1,0.0007684390403224292,0.0008718112221560449,-0.008731567936963593,0.0073957359956642104,0.9904839135012868
2017-10-17,1,0.00022806553166075712,0.00024921915963000443,-0.006302432359316893,0.0073957359956642104,0.9911933751342157
2017-10-19,-1,-0.001020076307494186,-0.000864665780342129,-0.004487430187910249,0.007753290309913101,0.9922640659080946
2017-10-23,-1,-0.0010677189649199873,-0.0009454451406677494,-0.0041875675103121065,0.007753290309913101,0.9929213321996385
2017-10-25,-1,-0.001744421168434298,-0.0015473900166392976,-0.0031680548017540586,0.007753290309913101,0.9932530503226715
2017-10-27,-1,-0.0020231205304415555,-0.0017810220002713783,-0.0009167679548771012,0.007753290309913101,0.9929998853914057
2017-10-31,-1,-0.0008235846640899154,-0.0008080118796945099,-0.0009167679548771012,0.007753290309913101,0.9937124774602994
2017-11-02,-1,-0.0010143039546650552,-0.0009893344779723702,-0.000639003380896298,0.007753290309913101,0.9937805570021844
2017-11-06,-1,-0.0010047537387876432,-0.0009487540072077352,-0.000639003380896298,0.007753290309913101,0.9933820694657928
