JNU-Tangyin/eata/results/Batch4_SP500/Batch4_SP500-HBI.csv
Date,Action,Predicted_Q25,Predicted_Q75,Actual_Q25,Actual_Q75,RL_Reward
2010-12-14,0,0.0,0.0,-0.012091536854302337,0.013463837092000688,0.9884784309561943
2010-12-16,0,0.0,0.0,-0.012141388777511603,0.010740650611648708,0.9884936618351531
2010-12-20,0,0.0,0.0,-0.011659522422268774,0.010740650611648708,0.9892444072958085
2010-12-22,0,0.0,0.0,-0.011659522422268774,0.010740650611648708,0.9883007588962097
2010-12-27,1,0.31716140260571535,0.31907233164874416,-0.014136131399206827,0.009255495843079106,0.755998318259998
2010-12-29,-1,-0.0010266334644394688,-0.0008607335059273015,-0.015896783484284194,0.008459536595013507,0.9859930285929044
2010-12-31,0,0.0,0.0,-0.015896783484284194,0.008459536595013507,0.9856431847870283
2011-01-04,0,0.0,0.0,-0.015234250477333101,0.009255495843079106,0.9861561950107649
2011-01-06,0,0.0,0.0,-0.015234250477333101,0.011078069270062652,0.9811129570799757
2011-01-10,0,0.0,0.0,-0.012547802176697907,0.014554983506955887,0.9815673442271988
2011-01-12,0,0.0,0.0,-0.012634090043234472,0.011294651152373188,0.9813583875522444
2011-01-14,0,0.0,0.0,-0.012634090043234472,0.011294651152373188,0.9810277537545282
2011-01-19,0,0.0,0.0,-0.015234250477333101,0.011294651152373188,0.9803851569912505
2011-01-21,0,0.0,0.0,-0.012634090043234472,0.011294651152373188,0.9804246619985
2011-01-25,0,0.0,0.0,-0.011462370168486832,0.011294651152373188,0.9831473675758912
2011-01-27,0,0.0,0.0,-0.010723762073882285,0.022002313624831134,0.982023702670612
2011-01-31,1,0.37876858720576984,0.37897128131938446,-0.011462370168486832,0.01709428405268118,0.7280395405911111
2011-02-02,-1,-0.003282956244137821,-0.002885008860166836,-0.010723762073882285,0.01709428405268118,0.9831256156469477
2011-02-04,0,0.0,0.0,-0.011462370168486832,0.009019762541466725,0.9873247275078105
2011-02-08,0,0.0,0.0,-0.011462370168486832,0.010897062932026375,0.986986607339575
2011-02-10,1,0.03969727748298495,0.041162607766087295,-0.011413603381301941,0.011926692722177112,0.9610749224728002
2011-02-14,0,0.0,0.0,-0.012176024958326913,0.012396316721262792,0.9851839476750902
2011-02-16,0,0.0,0.0,-0.011991064037533167,0.012396316721262792,0.9857286843616804
2011-02-18,0,0.0,0.0,-0.013251838192367495,0.011926692722177112,0.9863974879433284
2011-02-23,-1,-0.00040574836572538573,-0.0002960873477244354,-0.011991064037533167,0.011926692722177112,0.9869110819308087
2011-02-25,1,0.0014245881712149993,0.0015253523623334694,-0.011991064037533167,0.011926692722177112,0.9875001120779147
2011-03-01,1,0.0010482126127606818,0.0011396094287749062,-0.009435049678922102,0.013354742779598774,0.9871452790344657
2011-03-03,1,0.0014074372494579646,0.0016995873653989904,-0.011991064037533167,0.014455225491278267,0.9860531807286987
2011-03-07,1,0.0009337149679666119,0.0011828749531818655,-0.009435049678922102,0.014455225491278267,0.9862136268842855
2011-03-09,1,0.0021869818945862854,0.0026346084135769818,-0.009435049678922102,0.014455225491278267,0.986568675454483
2011-03-11,1,0.0025015400822098236,0.0030171212098492567,-0.008171317626986462,0.014455225491278267,0.9868338652139075
2011-03-15,1,0.003255280142499078,0.003895071867973712,-0.006333813501004349,0.013791961739592608,0.9892343797449056
2011-03-17,1,0.0020539606083606965,0.002475041696739134,-0.006309423340808367,0.014455225491278267,0.9890144863010351
2011-03-21,1,0.0014266829330279358,0.0017458863569271516,-0.005565954067233411,0.015421978718055038,0.9895807257820407
2011-03-23,-1,-0.00030010127800139674,-0.0002400959130581281,-0.002194510007698102,0.015842499759381096,0.9849310285603092
2011-03-25,0,0.0,0.0,-0.005565954067233411,0.01619413275800336,0.9853346171166127
2011-03-29,1,0.0014598326492560778,0.0015583775105399331,-0.005565954067233411,0.01619413275800336,0.9858457555798992
2011-03-31,1,0.002319154006211061,0.002597145992380484,-0.005565954067233411,0.015474075925489352,0.9870344413696409
2011-04-04,1,0.0026049956964161276,0.0029087354576038194,-0.005841284219230281,0.015474075925489352,0.9865858358014677
2011-04-06,1,0.0024226951747476208,0.002671342038395582,-0.0056268970419517984,0.015474075925489352,0.9868750229813561
2011-04-08,1,0.0019842523296303583,0.002184283093769014,-0.00455574278910016,0.015474075925489352,0.9862182321298117
2011-04-12,1,0.0028235946533214876,0.0032006445984181847,-0.00455574278910016,0.015474075925489352,0.9864376785050234
2011-04-14,0,0.0,0.0,-0.0062182194509135605,0.013783920649129446,0.9857550965111623
2011-04-18,0,0.0,0.0,-0.008098965859630295,0.011774670059143556,0.9852118190093805
2011-04-20,1,0.006393701761543266,0.00731006598390665,-0.008098965859630295,0.009562474847492996,0.9889894573964292
2011-04-25,0,0.0,0.0,-0.015506726852988926,0.008326071000470748,0.9888306945234185
2011-04-27,0,0.0,0.0,-0.015682841350919074,0.004776412642293438,0.989595632812777
2011-04-29,1,0.008173076997675,0.009350801221712161,-0.015682841350919074,0.004776412642293438,0.9865916028957706
2011-05-03,1,0.007412929101651759,0.008511019775872465,-0.015682841350919074,0.004776412642293438,0.9861795870579007
2011-05-05,1,0.007117025277312331,0.008087341936029087,-0.015906243405078936,0.0036224112746016555,0.9843629233465198
2011-05-09,1,0.005632113560946386,0.006299150350325201,-0.015906243405078936,0.0024566632775500355,0.985213635438683
2011-05-11,1,0.006238516804471211,0.0070089027435128026,-0.017008375858991426,0.0010767491952388404,0.9829371491182568
2011-05-13,1,0.004613735499677246,0.00507654158716706,-0.017008375858991426,0.0027696841492355047,0.9842382994219795
2011-05-17,1,0.002760808402238653,0.0029649469807223735,-0.017008375858991426,0.0036224112746016555,0.9848985554147585
2011-05-19,1,0.003332330592970879,0.003648425463054142,-0.017008375858991426,0.0027696841492355047,0.9836001409747368
2011-05-23,1,0.0018508527124973877,0.001961231790351502,-0.017008375858991426,0.01833552860068477,0.9832929933934871
2011-05-25,1,0.0012225985945867961,0.001253892302381776,-0.018910505958663545,0.01833552860068477,0.9828894207975628
2011-05-27,1,0.0017937194169011098,0.0018492306242040568,-0.02087617075245149,0.010599065220117877,0.9822676758868548
2011-06-01,-1,-0.0004986456435967139,-0.00024388863457596918,-0.018910505958663545,0.013557035103207906,0.9835561133347637
2011-06-03,-1,-0.0024243910781491977,-0.0019276638646264642,-0.01659091965044925,0.01833552860068477,0.9833219955262912
2011-06-07,-1,-0.003166294955466155,-0.0026138396547814883,-0.008428225402177315,0.019296862267132668,0.9824524346135937
2011-06-09,-1,-0.0038419069010259287,-0.003183017900095471,-0.0027877770040504917,0.019296862267132668,0.98274613648464
2011-06-13,-1,-0.004464256446071766,-0.0037408397026674096,-0.0027877770040504917,0.019925279953813328,0.9814017850902511
2011-06-15,-1,-0.0043256885100517815,-0.0036383232369055158,0.0005165407816098517,0.019147468221432914,0.9826254548700604
2011-06-17,-1,-0.005348038762660564,-0.004412382563655934,0.004061669816692504,0.017548978137645055,0.9818761957901684
2011-06-21,-1,-0.004195827825232475,-0.0033671608045845584,0.0005165407816098517,0.015128786823793044,0.9797973036079033
2011-06-23,-1,-0.0035363502006218123,-0.0028560954010497797,0.004061669816692504,0.017548978137645055,0.9796356950555614
2011-06-27,-1,-0.004856431295326327,-0.004007742711018865,0.0005165407816098517,0.017548978137645055,0.9803016357208456
2011-06-29,-1,-0.0013277412809716291,-0.0010868254239415759,-0.001953891696048165,0.018141151868699766,0.9812253777929997
2011-07-01,0,-3.414807152474973e-05,4.7609157005075144e-05,-0.0035441896055481495,0.017004066791173784,0.9826167630464098
2011-07-06,1,0.0007427386565711502,0.0007455300483691017,-0.0054742686554038735,0.015128786823793044,0.9821961111144212
2011-07-08,1,0.0011706290395649827,0.0011715972330584457,-0.011468105425541374,0.017004066791173784,0.9781239975812526
2011-07-12,1,2.2318704129052006e-05,0.00014910356645812095,-0.013002762605673682,0.017004066791173784,0.9747131069475494
2011-07-14,1,0.001271652237728251,0.001281324745253908,-0.01667999055940107,0.018157501043217634,0.9717222722281443
2011-07-18,1,0.001480354862944264,0.001489664872438277,-0.01667999055940107,0.018367829968746065,0.9716949670959402
2011-07-20,1,0.0025710964662514534,0.002796213833549304,-0.01573673117286396,0.017666350164071306,0.9758255629393229
2011-07-22,1,0.0015421034495304556,0.0015930323055567232,-0.027981503994599654,0.011024957841712864,0.9712929087692572
2011-07-26,1,0.001249463597152434,0.0012723995567470317,-0.027981503994599654,0.018417315861841126,0.9673081734646123
2011-07-28,1,0.0002905222167563116,0.00041464758771088205,-0.03021228274007605,0.02097038291735335,0.9667368293315158
2011-08-01,1,0.0003303659125765788,0.0004223702312698169,-0.03021228274007605,0.028786119119353054,0.9631715377411575
2011-08-03,-1,-0.0006842839979215777,-0.00046883674048701896,-0.02738250458046472,0.028786119119353054,0.9639276924733401
2011-08-05,-1,-0.0011762727275414766,-0.000925679357374166,-0.02802289618799236,0.025416335820182316,0.9655676615072964
2011-08-09,-1,-0.003975437620193134,-0.0033353158396457272,-0.02386937270201181,0.03194596007588733,0.9675422478035782
2011-08-11,-1,-0.0021197398012013768,-0.0016661462894807168,-0.02802289618799236,0.025416335820182316,0.9689671234165789
2011-08-15,-1,-0.0020349359955312844,-0.0015780249184538543,-0.02802289618799236,0.025416335820182316,0.9684484187048601
2011-08-17,-1,-0.0028619697319211285,-0.002357324695479763,-0.02802289618799236,0.02607841248171927,0.9674355063630963
2011-08-19,-1,-0.00497589222479907,-0.004295605252584576,-0.0067157467487567344,0.02607841248171927,0.9714731072904345
2011-08-23,-1,-0.0008574353232532728,-0.0006670498449191996,-0.026402242224697572,0.022613815818383357,0.9735859358771148
2011-08-25,-1,-0.0012724579648318028,-0.0010391697052552192,-0.026402242224697572,0.022834508038895675,0.9725071376771621
2011-08-29,1,0.0013187907342397244,0.0014030859906387712,-0.026402242224697572,0.01645216933951096,0.9762165467962318
2011-08-31,1,0.0015378145319220715,0.0016150890555267348,-0.03245029076683462,0.01516105427821414,0.9748428188295511
2011-09-02,-1,-0.00024146509637786257,-0.00012339956232647515,-0.03245029076683462,0.01516105427821414,0.9752458798371789
2011-09-07,1,0.0010536841580107655,0.0011019150494622765,-0.03245029076683462,0.021332029149293594,0.9756429667835161
2011-09-09,0,-1.627935958631954e-05,8.20156038212708e-06,-0.025591190971365384,0.022834508038895675,0.9761551781321528
2011-09-13,1,0.0010364603162518731,0.0011912823765359067,-0.025591190971365384,0.025775360373515344,0.9759317034772307
2011-09-15,1,0.002796076150942656,0.0032082795139139514,-0.03245029076683462,0.017193310927356983,0.9762723242482134
2011-09-19,1,0.0038104149362004755,0.004432275515190438,-0.03245029076683462,0.017193310927356983,0.9756924994100511
2011-09-21,1,0.0013546429321796625,0.0016513266996682333,-0.01917403414883635,0.017193310927356983,0.9787831230230862
2011-09-23,1,0.0011486265722016513,0.0013727776362940788,-0.014047123802277524,0.011292303929941003,0.9819038985750524
2011-09-27,1,0.0019575866939450706,0.002322779460358024,-0.015595534554936646,0.01528172543640903,0.9802096234936288
2011-09-29,1,0.0010222292196161538,0.001244694849747379,-0.013326993769821348,0.030026772254490342,0.9804523388142075
2011-10-03,-1,-0.00033783373053179847,-0.0002572578783996989,-0.012421807338433668,0.030026772254490342,0.9813644359700815
2011-10-05,1,0.0009502795475751106,0.0011653338016334252,-0.013326993769821348,0.01618724304678295,0.9813380627560219
2011-10-07,1,0.0013845697016006684,0.0016000040187953304,-0.015595534554936646,0.01479111300836181,0.9799970591731817
2011-10-11,1,0.00256159197650647,0.002952595448239217,-0.01837032633797417,0.009787860432461442,0.980407330499197
2011-10-13,1,0.0011449123241387606,0.0012937745685553824,-0.01837032633797417,0.009787860432461442,0.980742692451202
2011-10-17,1,0.00035365413982257465,0.0003706535323824264,-0.01837032633797417,0.013128975068042378,0.9797159676301979
2011-10-19,1,0.0006041472710275218,0.0007127014073358458,-0.02189129159918702,0.0126115476168119,0.9788280917442913
2011-10-21,0,-7.972797997168424e-07,3.5118615257643225e-05,-0.02189129159918702,0.013841040637338993,0.9787011568510667
2011-10-25,1,4.821256700095123e-05,5.252882380660286e-05,-0.023734475881274773,0.010851606666939174,0.9794200756146962
2011-10-27,1,0.0006510687150242653,0.0007106550044229697,-0.023734475881274773,0.00735038352418526,0.9799427617188764
2011-10-31,-1,-0.0004821078415720038,-0.00040191598394909525,-0.020827926155677058,0.010851606666939174,0.9805195561237128
2011-11-02,-1,-0.0006369207211809485,-0.0005236948077073107,-0.020827926155677058,0.010851606666939174,0.9793359666221516
2011-11-04,-1,-0.0006732505535359076,-0.0005094945830902383,-0.018183181506190114,0.010851606666939174,0.9819034326572064
2011-11-08,-1,-0.0009521390474697718,-0.0007791882910265836,-0.01612292428447449,0.010851606666939174,0.982504731211845
2011-11-10,-1,-0.0009698319254332133,-0.0008848822722968964,-0.015251932328890069,0.011889303942204848,0.9819608827462607
2011-11-14,-1,-0.0010489788367236568,-0.0009543284646619282,-0.01879757626688603,0.010851606666939174,0.9812656088999583
2011-11-16,-1,-0.0024947285076061297,-0.002194134375683488,-0.015391723467939678,0.010851606666939174,0.9829746331241616
2011-11-18,-1,-0.0014035823487643006,-0.001264129709064909,-0.016516908030106067,0.004424779656212156,0.9829751735838692
2011-11-22,-1,-0.0018705523656886939,-0.0017104804805289605,-0.015061893407999554,0.007901278194065588,0.9836346347301437
2011-11-25,-1,-0.0020653322275284275,-0.0019214083348570007,-0.011684528615265873,0.009961088091262935,0.9835780044449904
2011-11-29,-1,-0.0007098167469991324,-0.0006579508313339081,-0.015061893407999554,0.007901278194065588,0.9840599318894778
2011-12-01,-1,-0.0009899439105684445,-0.0009873925840845146,-0.011684528615265873,0.007676311206060758,0.9875469229392942
2011-12-05,-1,-0.00041731489651598575,-0.00030940704030925863,-0.011684528615265873,0.008008853210817034,0.9868567251769087
2011-12-07,-1,-0.00030773952873144406,-0.00014510111360995713,-0.010687331068187781,0.008008853210817034,0.9873939405895193
2011-12-09,-1,-0.0016612867557959364,-0.001554479039946744,-0.00909532333165317,0.010005373748310143,0.9864713870307041
2011-12-13,-1,-0.0025652262861730083,-0.002415654110034281,-0.007363560754143985,0.010005373748310143,0.9879766481384609
2011-12-15,-1,-0.00212113051204802,-0.0020195021025625785,-0.009814936582268296,0.010005373748310143,0.9877166240209893
2011-12-19,-1,-0.003310121021438647,-0.0030560341841926377,-0.007363560754143985,0.015753857717602057,0.9843947474475827
2011-12-21,-1,-0.00277908588373156,-0.0025690211014618453,-0.009556095785430234,0.015753857717602057,0.984929163507703
2011-12-23,-1,-0.002689533067504614,-0.002459773084468612,-0.009127128560897221,0.01588069285950312,0.984474193475527
2011-12-28,-1,-0.004250289564355182,-0.003783295098098165,-0.009127128560897221,0.01588069285950312,0.9840093599605728
2011-12-30,-1,-0.00516594362215172,-0.004500562666961642,-0.009127128560897221,0.01588069285950312,0.9837717783950064
2012-01-04,-1,-0.002555621156537362,-0.0023013325097674276,-0.01155218821708894,0.01580866546139236,0.9844219854660041
2012-01-06,-1,-0.002165769170865197,-0.0020003180032130956,-0.01155218821708894,0.01961335333087645,0.9824945520175832
2012-01-10,-1,-0.0006795480635809486,-0.0006195117746591925,-0.01155218821708894,0.018501394050693794,0.9831003341987876
2012-01-12,-1,-0.00263277076424566,-0.0021681860008988473,-0.01155218821708894,0.01961335333087645,0.9814196756902985
2012-01-17,-1,-0.0014315129208395528,-0.0012848960399467484,-0.009345371054005073,0.022432861206984945,0.9803828608403553
2012-01-19,1,0.0008388398907194713,0.0009226772829436946,-0.009345371054005073,0.01961335333087645,0.9845687424625297
2012-01-23,1,0.001428822785002077,0.0017022362092023605,-0.006083516276568029,0.01961335333087645,0.9851502235927686
2012-01-25,1,0.002427894825633002,0.0028677584635594233,-0.0024346514832914146,0.01607547396046202,0.9861201589123123
2012-01-27,1,0.0008480625492735038,0.0009704949160515891,-0.0009257418809651262,0.016670356638669302,0.986892785893541
2012-01-31,1,0.0016297109449587375,0.0019291423878479651,-0.0024346514832914146,0.01949927334935365,0.9862113799309797
2012-02-02,1,0.0008094089764581524,0.0008950739273366041,-0.0024346514832914146,0.01949927334935365,0.986411044791154
2012-02-06,1,0.0025447409068450767,0.0029206948166964316,-0.005788351253405521,0.0148733244153377,0.9867339590504115
2012-02-08,1,0.0038805950326047415,0.004503052858850032,-0.005227950239866732,0.011925895120770146,0.9886956037278778
2012-02-10,1,0.004364438478454795,0.005064851547254411,-0.002247851145445152,0.011925895120770146,0.9906305239028392
2012-02-14,1,0.0035649162074385295,0.004028908129545379,-0.0011468698754794793,0.009555787880881902,0.9920865136287643
2012-02-16,1,0.0035511081193683233,0.004049043072165292,-0.0019148499698259651,0.01182725406617611,0.9907930237342473
2012-02-21,1,0.003950559584915792,0.004526954478803219,-0.0019148499698259651,0.01182725406617611,0.9908815397938373
2012-02-23,1,0.004349360067630054,0.004928669194419689,-0.0019148499698259651,0.009230864607526458,0.9914040448536331
2012-02-27,1,0.003923259693332924,0.004343524572153078,-0.0021670818717563728,0.009230864607526458,0.9914192075135694
2012-02-29,1,0.004434752111876281,0.004995634815910151,-0.0021670818717563728,0.008999707437562982,0.9922743485034339
2012-03-02,1,0.004543224976813217,0.005123993233676166,-0.0011199467842498863,0.008999707437562982,0.9927793049836713
2012-03-06,1,0.003984852060641647,0.00451857115664152,-0.0007663730908699123,0.009230864607526458,0.9937887273951062
2012-03-08,1,0.004417476060906393,0.0049920217557787964,-0.002297737035950358,0.009230864607526458,0.9925850449352833
2012-03-12,1,0.00474891589359971,0.005334772080873601,-0.008545642106311261,0.006090013486928335,0.9898963522788271
2012-03-14,1,0.004720401545004368,0.005283893859389356,-0.008545642106311261,0.006261703368963459,0.9892224477160446
2012-03-16,1,0.004187362369875038,0.004677237754973869,-0.008545642106311261,0.006261703368963459,0.9897490869984307
2012-03-20,1,0.004864812470845502,0.0054735339335886205,-0.008545642106311261,0.004587997820469803,0.988955108209373
2012-03-22,1,0.0052141228063709594,0.005899245959049679,-0.010319532665157262,0.006479324752838868,0.983851699606128
2012-03-26,1,0.004727165512320802,0.0052650256169791704,-0.014468649050855478,0.004587997820469803,0.9816773630320976
2012-03-28,1,0.00508808635152324,0.005721318615641749,-0.014468649050855478,0.004959267732951066,0.9817404243740055
2012-03-30,1,0.005016302513759348,0.005629717637945038,-0.017218185076979056,0.005866457080771511,0.9805784232315472
2012-04-03,1,0.0046612845097685875,0.0051973834126174245,-0.017218185076979056,0.005866457080771511,0.9810389867033191
2012-04-05,1,0.0034673985019130697,0.0037724383894390573,-0.02189804339901002,0.005866457080771511,0.9799215570349175
2012-04-10,1,0.0019044707690448871,0.0019963088977914185,-0.018275670878332193,0.005866457080771511,0.9816265586739179
2012-04-12,1,0.0012274916890527776,0.0012934689925678195,-0.018275670878332193,0.005567440873911521,0.9824318107349782
2012-04-16,1,0.0014472606379316811,0.0014607059716397392,-0.018275670878332193,0.005091320361968937,0.982966960396052
2012-04-18,1,0.00017967470157980066,0.00040647011784491983,-0.018275670878332193,0.005091320361968937,0.9835181214732868
2012-04-20,0,0.0,0.0,-0.02189804339901002,0.0038857646062823606,0.9858070272208777
2012-04-24,0,0.0,0.0,-0.02140063874925889,0.006104624102088068,0.9859320899106525
2012-04-26,0,0.0,0.0,-0.02140063874925889,0.007951515393438555,0.9849075974931492
2012-04-30,0,0.0,0.0,-0.012900566193185373,0.014981167500972168,0.9842774164086342
2012-05-02,0,0.0,0.0,-0.012900566193185373,0.009236259220620786,0.9853040758982988
2012-05-04,0,0.0,0.0,-0.008551583420384666,0.009236259220620786,0.9863926741005861
2012-05-08,-1,-0.0035136119664428535,-0.002832377556554488,-0.0029135200669911905,0.018131026377129635,0.9851362379233669
2012-05-10,-1,-0.0035104372977344343,-0.0028322575514558544,-0.0023603108807987673,0.018131026377129635,0.9846320828562147
2012-05-14,-1,-0.004506684209552587,-0.0036549608955143407,-0.0023603108807987673,0.018131026377129635,0.9831159902714822
2012-05-16,0,0.0,0.0,-0.007266391367217087,0.019344059218106256,0.9810972577868564
2012-05-18,0,0.0,0.0,-0.0011286762356501143,0.019344059218106256,0.9831724445202648
2012-05-22,0,0.0,0.0,-0.0014200094707832603,0.018109086914797283,0.9852446728152215
2012-05-24,-1,-0.005729305489343292,-0.004614426653259388,-0.0025402548807695632,0.01647658308815854,0.983592588426936
2012-05-29,-1,-0.0032943540400014143,-0.002513224770103969,-0.01058618732935294,0.013374963785780049,0.9851865455013135
2012-05-31,-1,-0.003837929498634447,-0.0029683739989068473,-0.013054253226985486,0.013374963785780049,0.9847883581428493
2012-06-04,-1,-0.005027607889771817,-0.004172672645413108,-0.006682739475449598,0.01647658308815854,0.9837557271779894
2012-06-06,0,0.0,0.0,-0.006682739475449598,0.01321468269758525,0.9856157982105418
2012-06-08,-1,-0.0026286256671922874,-0.0019493767644291659,-0.006682739475449598,0.01298466455130928,0.9859395313051466
2012-06-12,0,0.0,0.0,-0.0038047046881404378,0.01298466455130928,0.9875663668073437
2012-06-14,0,0.0,0.0,-0.0031990971075721046,0.01298466455130928,0.9898250748371618
2012-06-18,-1,-0.001005928315119315,-0.0006408660684050309,-0.0036721161374665377,0.01298466455130928,0.9896244002495844
2012-06-20,-1,-0.0019242129677443565,-0.0014139098162354307,-0.0031990971075721046,0.01298466455130928,0.9892730527477097
2012-06-22,-1,-0.003113421451832175,-0.0024811493511837463,-0.0036721161374665377,0.01298466455130928,0.9885596623157046
2012-06-26,-1,-0.0036863151140109217,-0.0030049565816893916,-0.005569403584247961,0.01298466455130928,0.9890286197209636
2012-06-28,0,0.0,0.0,-0.0036721161374665377,0.014663735034775744,0.9873910493654752
2012-07-02,0,0.0,0.0,-0.00583692369434187,0.014663735034775744,0.9876199977399964
2012-07-05,0,0.0,0.0,-0.010409145983024637,0.017316281391305283,0.9851562449829979
2012-07-09,0,0.0,0.0,-0.010409145983024637,0.017316281391305283,0.9845755918398122
2012-07-11,0,0.0,0.0,-0.010409145983024637,0.017316281391305283,0.984536369724007
2012-07-13,0,0.0,0.0,-0.010409145983024637,0.015548853180396595,0.9856512618066998
2012-07-17,0,0.0,0.0,-0.010409145983024637,0.010755839817623219,0.9861771320862527
2012-07-19,1,0.003340664942486118,0.003513695430031643,-0.010409145983024637,0.010755839817623219,0.9864907601877709
2012-07-23,0,0.0,0.0,-0.0039539833901540665,0.010755839817623219,0.9872093358838225
2012-07-25,0,0.0,0.0,-0.0006935130131283571,0.010755839817623219,0.9887316553424534
2012-07-27,1,0.0014883147550432006,0.001651543424607969,-0.0013932728447384468,0.0047765518342839965,0.9914062937788471
2012-07-31,1,0.0018616411477152843,0.0020985752145998306,-0.0013932728447384468,0.0035110246164604775,0.9924292212500516
2012-08-02,1,0.003240111922586813,0.0036942058328470343,-0.0013932728447384468,0.0035110246164604775,0.9956202481354258
2012-08-06,1,0.0037661962111086673,0.004299252081189547,-0.0013932728447384468,0.004286713213167581,0.9956280661725834
2012-08-08,1,0.003841050572850283,0.004368291227917743,-0.0018475009844278144,0.004286713213167581,0.9943669921468891
2012-08-10,1,0.0039175627304899605,0.004473025616803153,-0.0023852418904801594,0.004286713213167581,0.9935294624078731
2012-08-14,0,0.0,0.0,-0.0023852418904801594,0.0035063071133703914,0.9942390610682218
2012-08-16,0,0.0,0.0,-0.0023747237140526504,0.006444221400486095,0.9927762579469075
2012-08-20,1,0.004316405136421449,0.004938422023271957,-0.004770390900130893,0.006444221400486095,0.9914202459538284
2012-08-22,1,0.0038351495189905883,0.004392489027001331,-0.007136836595674399,0.007953180969432533,0.9909923250028769
2012-08-24,1,0.0038641564151838774,0.004423608397268136,-0.007799197000214806,0.008154244788923893,0.9900010298148332
2012-08-28,1,0.0033402286956187356,0.003785742331987002,-0.00969831376685163,0.008154244788923893,0.9888404567368647
2012-08-30,1,0.002513325274565899,0.0027441681376049677,-0.00969831376685163,0.00801031219276573,0.9890176783657783
2012-09-04,1,0.003045855226314198,0.003362372962858466,-0.00969831376685163,0.008213078777388489,0.9886745567343436
2012-09-06,1,0.003571536457257134,0.003941766376899013,-0.00969831376685163,0.009754156835208276,0.9881526365741387
2012-09-10,1,0.002730503019283464,0.002961361792656561,-0.00969831376685163,0.009754156835208276,0.9881501971899563
2012-09-12,0,0.0,0.0,-0.012333286150188423,0.009754156835208276,0.987668556662042
2012-09-14,1,0.0029308117707545238,0.0032797783181972105,-0.012333286150188423,0.005986952732170462,0.9877388497263927
2012-09-18,1,0.0042524495506717965,0.004721790696531452,-0.010947624396002869,0.010409589055994442,0.9873876592267998
2012-09-20,1,0.0026954591512699235,0.0029448881213853494,-0.008160685120999414,0.010409589055994442,0.988594600707317
2012-09-24,0,0.0,0.0,-0.008511321371239567,0.006294828072179137,0.9886801808111911
2012-09-26,0,0.0,0.0,-0.008511321371239567,0.010271958137359108,0.9885911853365646
2012-09-28,-1,-0.00026174393504291803,-0.00017100323626558823,-0.008511321371239567,0.010271958137359108,0.9882356187681385
2012-10-02,1,0.00011155663710629433,0.0003019733701402394,-0.008511321371239567,0.014263720525090971,0.9867684647585911
2012-10-04,1,0.001506598798053109,0.0015537083390793156,-0.008511321371239567,0.00901473305647777,0.9888392233978999
2012-10-08,1,0.0005147574903312248,0.0006936753127179737,-0.008511321371239567,0.010547595360141389,0.9884309068305889
2012-10-10,-1,-0.0015815586700798734,-0.0010525185751294457,-0.008511321371239567,0.010547595360141389,0.9874746473089794
2012-10-12,0,0.0,0.0,-0.009227764779019175,0.012491130391358792,0.9857754471134319
2012-10-16,0,0.0,0.0,-0.014014438894519277,0.008498731131164646,0.9868874470503268
2012-10-18,1,0.00048352947851043463,0.0005573746659003502,-0.014014438894519277,0.012491130391358792,0.9854249215934613
2012-10-22,1,0.00026057738406320383,0.0004153730659102595,-0.006417950167172185,0.012491130391358792,0.9859676613365367
2012-10-24,0,0.0,0.0,-0.0016727133688856752,0.010547595360141389,0.9872952999458969
2012-10-26,0,0.0,0.0,-0.0016727133688856752,0.013298764494504562,0.9869315308137817
2012-11-01,0,0.0,0.0,-0.0016727133688856752,0.010041859449006402,0.9886500471884041
2012-11-05,0,0.0,0.0,-0.003278045588188493,0.010041859449006402,0.9887880089138601
2012-11-07,1,0.0017372457713405115,0.0018353144098680772,-0.003113123587574453,0.010418420451179319,0.9895706626921119
2012-11-09,1,0.0005696199996238246,0.0007073543123415911,-0.002428029651227121,0.010418420451179319,0.9901309934203294
2012-11-13,1,0.00041989962313986235,0.0005957599362782733,-0.002428029651227121,0.00687737892882107,0.9917138405006993
2012-11-15,-1,-0.0003013444919464756,-7.969648670637722e-05,-0.0014116554807665355,0.00687737892882107,0.99235102406561
2012-11-19,-1,-0.0006314505439048647,-0.00024272258899061356,-0.0014116554807665355,0.00687737892882107,0.9928914481845114
2012-11-21,0,0.0,0.0,-0.0031309259961733614,0.006397481379825431,0.9924194652781095
2012-11-26,1,0.00023793919908001327,0.0004260766580935103,-0.003469998120006331,0.007758522293425355,0.9923243229551613
2012-11-28,1,0.0013211146705121857,0.0013493439270614756,-0.0051060042602250316,0.005803118615104833,0.992031980690173
2012-11-30,1,0.0013015999550092662,0.0013398545149134295,-0.008981905812272003,0.005803118615104833,0.9909076763641906
2012-12-04,1,0.0010915790683809338,0.0011491671333923527,-0.008981905812272003,0.00810428525306386,0.9902034944472058
2012-12-06,1,0.0015958675353746096,0.0016290089051556435,-0.009075967871641503,0.00819728557116672,0.9891952790804359
2012-12-10,0,0.0,0.0,-0.008798468946480953,0.00819728557116672,0.9894418163427875
2012-12-12,0,0.0,0.0,-0.008105259776837778,0.00819728557116672,0.9898716982388519
2012-12-14,0,0.0,0.0,-0.008105259776837778,0.015722836803309458,0.9885345835075642
2012-12-18,1,3.3752542669819086e-05,0.00030793320844149197,-0.008105259776837778,0.01583095806120128,0.988806749554307
2012-12-20,1,0.00023902978341865263,0.0004025599566354963,-0.006523105981448275,0.01583095806120128,0.9892481794216664
2012-12-24,0,0.0,0.0,-0.006523105981448275,0.01583095806120128,0.9894382114965301
2012-12-27,0,0.0,0.0,-0.006345549201180583,0.016586416285595557,0.989847045206607
2012-12-31,1,0.0013445708393141397,0.0013940186702287851,-0.006523105981448275,0.01583095806120128,0.9896728801821985
2013-01-03,1,0.001707495031453632,0.0018191705845188285,-0.006447674049299544,0.010988655181013485,0.9901123035883024
2013-01-07,1,0.002087584834131783,0.0022470190507554973,-0.005889344230527864,0.010252744662799141,0.9911318462553018
2013-01-09,1,0.001729385419639217,0.001858747811780177,-0.004596800974012748,0.016120717592912337,0.9894898332206771
2013-01-11,1,0.0016421101652190336,0.0017544186711462104,-0.003275116199786106,0.016120717592912337,0.9894913151256974
2013-01-15,0,0.0,0.0,-0.004596800974012748,0.010252744662799141,0.9900990029777421
2013-01-17,0,0.0,0.0,-0.004707799415125845,0.008516318542136695,0.9907371336037537
2013-01-22,1,0.002428543338101756,0.0026196594514618075,-0.006331430339695001,0.008516318542136695,0.9899464277106401
2013-01-24,1,0.001998765640171974,0.002119010752135296,-0.007912696916789875,0.008516318542136695,0.9895942058391011
2013-01-28,1,0.0025631049827450686,0.002757689928831703,-0.011504630514030507,0.008516318542136695,0.9890664057847636
2013-01-30,1,0.0013942547909471697,0.0014563969681950573,-0.006331430339695001,0.009820104198600542,0.9901655011618902
2013-02-01,1,0.0022197907616140888,0.0024220868215504674,-0.007148794876735189,0.009820104198600542,0.9901682295847617
2013-02-05,1,0.0020046522492499445,0.0021310176449466653,-0.007353674936865346,0.008540714060843014,0.9901384297476828
2013-02-07,1,0.003927322566918827,0.004298159016011809,-0.009088776445668257,0.007098099649870819,0.9904667020475675
2013-02-11,1,0.004494223156414806,0.00500685459274658,-0.009088776445668257,0.006642154858993585,0.9907863692405136
2013-02-13,1,0.0037380668486425915,0.004067940897994459,-0.011415820061642764,0.007341507781344355,0.9893409306038962
2013-02-15,1,0.0029592869761780696,0.0031716807715620955,-0.009124113941478705,0.007341507781344355,0.9898516150220442
2013-02-20,1,0.002013183037509123,0.00210141480388182,-0.007353674936865346,0.009820104198600542,0.9903827473702478
2013-02-22,1,0.0009930783683058048,0.0010897902876525968,-0.005569182311507688,0.011237477433133672,0.9899799358226918
2013-02-26,1,0.0008437497896634788,0.0009659105481039944,-0.00015336027623824816,0.011237477433133672,0.989792393148377
2013-02-28,1,0.001353040419445776,0.0014150650990501935,-0.00015336027623824816,0.016372550130990975,0.9893866273992084
2013-03-04,1,0.002124143596664247,0.0022535558521728106,0.001281816728631177,0.016372550130990975,0.9901538401224678
2013-03-06,0,0.0,0.0,0.001281816728631177,0.016372550130990975,0.9879591331824449
2013-03-08,0,0.0,0.0,0.002922172094203951,0.016606084254302107,0.9870967766260235
2013-03-12,1,0.0012038680102833847,0.0013508384569989149,0.0038957577625451227,0.016606084254302107,0.9869790544799018
2013-03-14,1,0.0028668741954311636,0.003015504825833673,0.0027143816949955902,0.016440613111669042,0.988306985173912
2013-03-18,1,0.002639584390656059,0.0027629979836777544,0.0029154526325765417,0.016440613111669042,0.9873443847306278
2013-03-20,0,0.0,0.0,-0.007396847807169006,0.016440613111669042,0.9860147904423942
2013-03-22,0,0.0,0.0,-0.007396847807169006,0.016440613111669042,0.9857214952454681
2013-03-26,0,0.0,0.0,-0.007396847807169006,0.016440613111669042,0.9858025751477526
2013-03-28,0,0.0,0.0,-0.007396847807169006,0.014325262382650465,0.9866674260172521
2013-04-02,0,0.0,0.0,-0.007396847807169006,0.014565191681495327,0.9860663098717358
2013-04-04,1,0.004399522800699516,0.004847284040273738,-0.007396847807169006,0.014565191681495327,0.9881331451987859
2013-04-08,1,0.00517070492848939,0.005628968365902187,-0.007396847807169006,0.010804628770780252,0.9896910571345513
2013-04-10,1,0.00552778089412977,0.006028972976813554,-0.008689700500882693,0.010125733104388442,0.9886213204859094
2013-04-12,1,0.003414524702937945,0.003583536762427583,-0.00715841098845726,0.011963819387902305,0.9896220788503735
2013-04-16,1,0.003166638607117629,0.003364709444690724,-0.00715841098845726,0.013707889777016168,0.9893550822088782
2013-04-18,1,0.002450122250955538,0.002573067982461616,-0.0051410022721193665,0.013707889777016168,0.9893781984976606
2013-04-22,1,0.0033005332946011313,0.0035302142285681664,-0.007951685873298552,0.011963819387902305,0.9894812075427722
2013-04-24,1,0.004024287790882075,0.0043905196489599126,-0.008766602722265752,0.011090825539713741,0.9893794470656403
2013-04-26,1,0.005217815481926684,0.005705125966698492,-0.00993658051946877,0.010712363583156252,0.9888154634117634
2013-04-30,1,0.0052614878466463785,0.0057441620357863744,-0.00993658051946877,0.010712363583156252,0.9881919601505921
2013-05-02,1,0.0044300950732643115,0.004811140794146388,-0.008766602722265752,0.010712363583156252,0.9892924876714586
2013-05-06,1,0.003989516696348025,0.004269295417948862,-0.00993658051946877,0.010712363583156252,0.9887220218483247
2013-05-08,1,0.0041183627472842765,0.004366594090434212,-0.00993658051946877,0.009687585220971228,0.9898971279814315
2013-05-10,1,0.004052382148924371,0.004295890437342296,-0.008490985590311959,0.009687585220971228,0.990344910688536
2013-05-14,1,0.004430626100812637,0.004780124921416693,-0.008490985590311959,0.008838228675509721,0.9909301130427509
2013-05-16,1,0.0036273958584046562,0.0038082766918609164,-0.008037047050606958,0.008838228675509721,0.9909565369056228
2013-05-20,1,0.0032169973693925847,0.003340651819423296,-0.004975496360190996,0.008838228675509721,0.991519446448132
2013-05-22,1,0.0016566851704139444,0.001772619628257285,-0.004975496360190996,0.008838228675509721,0.9913537873108594
2013-05-24,1,0.0015881888812325012,0.0017047575588837157,-0.004975496360190996,0.008838228675509721,0.9904412915100994
2013-05-29,1,0.001726601802775112,0.0018309665369360226,-0.0036086166044486164,0.008838228675509721,0.990548002729421
2013-05-31,1,0.001750673801832487,0.0018381760157793101,-0.0013617481207428242,0.008838228675509721,0.9906003595883193
2013-06-04,1,0.0009594944924490788,0.001171612822184837,0.0007760045877968076,0.009216847694246843,0.9910834061380153
2013-06-06,1,0.000739572242477502,0.0009883134959018476,0.0018684176028996966,0.009216847694246843,0.9912689130742838
2013-06-10,1,0.001908914414187282,0.0019711537225778186,0.0012917913604224968,0.008454596340565133,0.9916335274852023
2013-06-12,1,0.0014609849407953887,0.0015572608321129063,0.0012917913604224968,0.008454596340565133,0.9919375859070753
2013-06-14,1,0.0019139008699991375,0.0019708955463717103,0.0008990898104574748,0.0064339484006632214,0.992466157699698
2013-06-18,1,0.002100739966426073,0.002156470513704313,-0.00329048958059466,0.004454058822984931,0.9923889948072758
2013-06-20,1,0.0012798708679437228,0.0014076005019761583,-0.003273701643336496,0.004454058822984931,0.9930342620981204
2013-06-24,-1,-0.0010456437162407988,-0.0005659894107906242,-0.0009989081430098184,0.0065021773426639584,0.993000337341966
2013-06-26,-1,-0.000379103094048754,-4.860874542597605e-06,-0.0009989081430098184,0.008454596340565133,0.9895228046483885
2013-06-28,0,-0.0001329251694543465,0.0002066288361995968,-0.0009989081430098184,0.011828442200955407,0.9892006532984289
2013-07-02,1,0.0013652322845165662,0.0014312300825788178,-0.0030859829889410256,0.01566523164169265,0.9864612456171841
2013-07-05,1,0.0012682871388102774,0.0013176141554040125,-0.005707066806286646,0.01566523164169265,0.985630039189992
2013-07-09,1,0.0018345824714819275,0.0018459907338017356,-0.006287010706731222,0.013469744367705355,0.9857531174298422
2013-07-11,1,0.0009975559067052794,0.0011174074675474315,-0.006287010706731222,0.013469744367705355,0.9851382820955789
2013-07-15,1,0.0001141968430075597,0.00038487555198886566,-0.00662605041951579,0.013469744367705355,0.985229739717791
2013-07-17,-1,-0.0008249030248665798,-0.00042110571745654596,-0.00662605041951579,0.013469744367705355,0.9851084844969559
2013-07-19,-1,-0.0012688613120506286,-0.0008103654080794196,-0.008427044598499012,0.013469744367705355,0.9837734457109857
2013-07-23,-1,-0.00047817770587837375,-0.00013105232755015745,-0.009521165842158164,0.009692984288077657,0.9838655354394424
2013-07-25,1,0.0016851881578146427,0.0017955400182984222,-0.009521165842158164,0.008444612268058238,0.9869319853722504
2013-07-29,1,0.001960613205411876,0.0020537241767711136,-0.009521165842158164,0.006544902405077516,0.9874380233392615
2013-07-31,1,0.00284232999340128,0.0028698959404724698,-0.009521165842158164,0.005209530092723596,0.9901294413245574
2013-08-02,1,0.002951391272386822,0.002988226077025108,-0.01141103514281717,0.005209530092723596,0.9891771925890273
2013-08-06,1,0.0024337246734493015,0.0024344265112507682,-0.01141103514281717,0.008444612268058238,0.9886986595109323
2013-08-08,1,0.0017269416716341386,0.0018254196075493544,-0.009318155668652349,0.006584787555940199,0.9899692473312197
2013-08-12,1,0.0016701334437014244,0.0017524927943426863,-0.009318155668652349,0.009102498790602178,0.9897055398679474
2013-08-14,1,0.0011317914355465052,0.001274452542708636,-0.009318155668652349,0.009102498790602178,0.989022995630013
2013-08-16,1,0.00031442046822132254,0.0004931486442057228,-0.0012274973392354057,0.01173341400250511,0.9890762055321353
2013-08-20,1,0.0006257902030861884,0.0007172676475175278,-0.0004894974624595117,0.01173341400250511,0.9896097616456744
2013-08-22,1,0.0016171875807321156,0.0016408290088551951,-0.0012274973392354057,0.0108514587175829,0.9903111493287418
2013-08-26,1,0.000930567917435458,0.0010204434461720774,-0.0016890825819342002,0.0108514587175829,0.9901346330575743
2013-08-28,1,0.001576668305086332,0.0016547867186765461,-0.0016890825819342002,0.0108514587175829,0.9900715273194962
2013-08-30,1,0.0009702773921919423,0.0010046510387139154,-0.0034384385495367102,0.008831480590193898,0.991082467496862
2013-09-04,1,0.0013900610862448812,0.0014106250398546643,-0.005809898246710729,0.007627950429985647,0.9913058968142126
2013-09-06,1,0.0009094389415114272,0.0009802321246171791,-0.005809898246710729,0.007627950429985647,0.9911490987645055
2013-09-10,1,0.0010141646796246527,0.0011095909705125461,-0.01146116210842109,0.0065563893566237975,0.9890044930364107
2013-09-12,1,0.00033474740821804117,0.0004688564664944193,-0.009447936286278696,0.007627950429985647,0.9891112491684033
2013-09-16,1,0.0014675653885354626,0.0014927177037509453,-0.009447936286278696,0.0065563893566237975,0.9898194729697849
2013-09-18,1,0.0019977900927772114,0.002128558166569045,-0.009447936286278696,0.0065563893566237975,0.9885376022244067
2013-09-20,1,0.00192467648193238,0.002072881496599623,-0.00775265908170551,0.012440292518251005,0.9879191437292786
2013-09-24,1,0.0013621274010532998,0.0013942020352609974,-0.009447936286278696,0.012440292518251005,0.9870007319791178
2013-09-26,1,0.0011436170429018333,0.0011446894616353098,-0.00775265908170551,0.012440292518251005,0.9874343295315935
2013-09-30,1,0.000904906347867163,0.0009090032075738735,-0.005462435357323346,0.012440292518251005,0.9879527689623309
2013-10-02,1,0.0007731277819755121,0.000782832766584037,-0.004826753587502803,0.00921562212273561,0.9890237684420601
2013-10-04,1,0.0008602369962159391,0.0008663739936546351,-0.005474857080593925,0.012440292518251005,0.9855278136510801
2013-10-08,-1,-0.0016838343921179062,-0.0013881598137900548,-0.003316604983582438,0.012440292518251005,0.9878760362965132
2013-10-10,-1,-0.0005943543664603152,-0.00042238477245035947,-0.004826753587502803,0.012198943373373126,0.9875672230502008
2013-10-14,-1,-0.0008084797880542233,-0.0005755079669236561,-0.004826753587502803,0.009294367126782574,0.9876109020952482
2013-10-16,-1,-0.0005581496247286632,-0.0003337377183845315,-0.0017603362062112386,0.010487998696324935,0.9881047258958569
2013-10-18,1,0.000531013065358117,0.0006306831250960871,-0.0017603362062112386,0.008645307230386211,0.9893038255251152
2013-10-22,-1,-0.0006370399888426216,-0.00039632406559264696,-0.001764476780634765,0.008645307230386211,0.989454461108543
2013-10-24,-1,-0.0003912549470174564,-0.0001650400323756925,-0.001764476780634765,0.008808266436739515,0.9894570759018385
2013-10-28,-1,-0.0002884823597578091,-7.395479516527715e-05,-0.005101222509459293,0.010402976613252556,0.9888496403311853
2013-10-30,-1,-0.0002725593306109631,-8.553569868431665e-05,-0.002216412995285606,0.01097854027275394,0.9885824859863221
2013-11-01,1,0.0005978077115177012,0.0007044505494242881,-0.0019512867456696673,0.010030793353095702,0.9920506438823645
2013-11-05,1,0.0009379204448515819,0.0009733920251822597,-0.004736397657488532,0.010030793353095702,0.9918001943726684
2013-11-07,1,0.0001727779452042695,0.0002734805399082025,-0.004736397657488532,0.010030793353095702,0.991811989844898
2013-11-11,1,9.777754714105204e-05,0.0002587406464638055,-0.004736397657488532,0.010030793353095702,0.9921539810948703
2013-11-13,1,0.0001226983386174794,0.0003437059519924015,-0.006265018973603131,0.005915003025431933,0.9921470115886241
2013-11-15,1,0.0007436295375954541,0.0008650947860756279,-0.006265018973603131,0.005547342305319806,0.9923612072225829
2013-11-19,1,6.816958385426884e-05,0.00025781559949114715,-0.004736397657488532,0.007361726822006783,0.9925177582195264
2013-11-21,1,0.0007113798935894932,0.0008058820214624769,-0.005469640224755315,0.007897138829570263,0.9913005263135166
2013-11-25,1,0.0006904706625047888,0.0007824675883427471,-0.004736397657488532,0.006095099530405136,0.9918002792627597
2013-11-27,1,0.0013475629076682059,0.0013652391270912374,-0.004736397657488532,0.005271474407646947,0.9920803051842925
2013-12-02,1,0.0009101903893758216,0.0009640638445488651,-0.004543172271631521,0.006095099530405136,0.9918892916066264
2013-12-04,1,0.0004299459306920377,0.0005493995660442537,-0.005396142867691673,0.006095099530405136,0.9916643971370398
2013-12-06,-1,-0.0005946803214600659,-0.00032823150188514413,-0.0049349129388652204,0.005271474407646947,0.9933463031711117
2013-12-10,-1,-0.0008908886936738084,-0.0005736887343415528,-0.005825610367559501,0.006095099530405136,0.9918759668465326
2013-12-12,-1,-0.0014669144234380296,-0.001121789785154822,-0.0049349129388652204,0.006095099530405136,0.991256533592513
2013-12-16,1,0.00012987845438278296,0.0001730066929500251,-0.0049349129388652204,0.006753185676030788,0.9908581851399239
2013-12-18,1,0.0010133816222094919,0.001113756466026718,-0.009429311117616065,0.005271474407646947,0.9901750346830838
2013-12-20,1,0.0013919115259466857,0.0015765570005124554,-0.006306528029356737,0.005271474407646947,0.991301057837416
2013-12-24,1,0.0018464111746475916,0.0021155708289923576,-0.009429311117616065,0.0032852874944232875,0.9899089297725442
2013-12-27,1,0.00150816813693251,0.001706430526407784,-0.010709220302090506,0.0032852874944232875,0.9892312610447376
2013-12-31,1,0.0018768649439564306,0.002099686460663753,-0.010709220302090506,0.004141732830241595,0.9842246550254664
2014-01-03,1,0.00119719478653751,0.0013265945486844212,-0.016611675689838498,0.004141732830241595,0.9819706781553502
2014-01-07,1,0.0005454486394617164,0.0005654107501907913,-0.016611675689838498,0.007217249191765751,0.9823092019117279
2014-01-09,1,0.00039726318844297235,0.000463077477478573,-0.016611675689838498,0.008670001165617959,0.9822120981485396
2014-01-13,-1,-0.0009427724927811526,-0.0007106319334042553,-0.013059218924247572,0.011974377740862232,0.9828615005643979
2014-01-15,1,0.000527215213386996,0.0005348847265815235,-0.013059218924247572,0.008670001165617959,0.9834185707741752
2014-01-17,-1,-0.0009763399085516702,-0.0007798964199648896,-0.0042357257372465955,0.008670001165617959,0.9846733140162146
2014-01-22,-1,-0.0008021174558147872,-0.0006239999103058282,-0.0035386209104031137,0.008670001165617959,0.9850172896692487
2014-01-24,-1,-0.002843306265736257,-0.0023772581505025255,-0.002203124493960851,0.0119200229211318,0.9845231416459561
2014-01-28,-1,-0.0024379491989542893,-0.002086736881974582,-4.248231906611342e-05,0.0119200229211318,0.9846191360398412
2014-01-30,-1,-0.0003578076451099277,-0.0002520292197912229,-0.0031204580622908613,0.00834594657918581,0.9899200976802676
2014-02-03,-1,-0.0023444898032939296,-0.0020421258917675336,-4.248231906611342e-05,0.010377007413951643,0.9908092394770046
2014-02-05,-1,-0.0022426735802058293,-0.0019023693841425516,-0.002203124493960851,0.010377007413951643,0.9910953725707584
2014-02-07,-1,-0.0003619042335609101,-0.00029646364447006684,-0.00306567506083193,0.007405897992501372,0.9933798845559754
2014-02-11,1,0.00038762749462266594,0.00043311543031153584,-0.003266417985840265,0.007405897992501372,0.9930854003949489
2014-02-13,1,0.0002788735038833644,0.0002877371678353858,-0.003266417985840265,0.008425396082802555,0.9927074484146411
2014-02-18,1,0.00010254475764518879,0.00012000884775369817,-0.0034431131874380675,0.00905987683527887,0.9917163961466364
2014-02-20,-1,-9.61275163580054e-05,-5.081719135279956e-05,-0.0035744690961978364,0.00905987683527887,0.9914719732249491
2014-02-24,1,0.00039101846468725913,0.0004080058840350209,-0.0038869546870307376,0.007405897992501372,0.9923298715209642
2014-02-26,1,0.000616320101737325,0.0006194857096619596,-0.0038869546870307376,0.008181067172405477,0.992283345093316
2014-02-28,-1,-0.0005183108195623483,-0.00039263673353526825,-0.0032787641830612745,0.008181067172405477,0.9933279808997281
2014-03-04,-1,-0.0012868421248537478,-0.0009366266396094655,-0.0032787641830612745,0.0060010796078525715,0.9935381307570278
2014-03-06,-1,-0.0007761534761258238,-0.0005473491172101663,-0.003604002735740515,0.0060010796078525715,0.9932032806796998
2014-03-10,-1,-0.0009008419376016668,-0.0006684477208356413,-0.005380134650709837,0.0060010796078525715,0.9906975237228957
2014-03-12,-1,-0.0008443066280996936,-0.0006440752078435585,-0.004041266718589616,0.00882750660820832,0.9903840133604989
2014-03-14,1,0.00014837887512989,0.00017123473144607535,-0.005380134650709837,0.007253775107125031,0.9898395492177178
2014-03-18,1,0.00011333153596571185,0.00019812240435911445,-0.005380134650709837,0.007253775107125031,0.9896359270587181
2014-03-20,1,0.00011080478985523416,0.000168358367757774,-0.004041266718589616,0.007260147577196743,0.9897693088290349
2014-03-24,-1,-9.636785572320143e-05,-2.3409999437859545e-05,-0.0049101432671013485,0.007260147577196743,0.989580777497022
2014-03-26,-1,-0.00010105418124554353,-1.4181496029441499e-05,-0.008031632107617452,0.007954312714050896,0.9883215836582766
2014-03-28,1,0.0008311301831700946,0.0009229172730108191,-0.008031632107617452,0.013789072098486285,0.9859213828764154
2014-04-01,1,0.0014868198738561766,0.0016712415802868693,-0.008031632107617452,0.013789072098486285,0.9859395848710276
2014-04-03,1,0.0001909290820786745,0.00024073543347369596,-0.00675450780056056,0.013789072098486285,0.9860425414566816
2014-04-07,-1,-0.002089813717681844,-0.0018128883670656174,-0.0006197478536222624,0.013789072098486285,0.9873817903206065
2014-04-09,1,6.654695603799058e-05,9.516765269221068e-05,-0.0021641020589929882,0.01279676265331256,0.9887024183710622
2014-04-11,0,-2.4511411582351083e-05,2.1793752442727252e-05,-0.0010056959982805956,0.01279676265331256,0.9891335166813809
2014-04-15,1,0.0006132951457578516,0.0007020387868038064,-0.004842937065167462,0.012532485794858118,0.9901682107122359
2014-04-17,1,0.0009649936383727532,0.001134201496530061,-0.006471115516214381,0.012532485794858118,0.9896084317182989
2014-04-22,1,0.0008567637371084458,0.0010113426084088584,-0.006471115516214381,0.012532485794858118,0.9895305381184294
2014-04-24,1,0.0007867701891457698,0.0009624720725333372,-0.004842937065167462,0.010302678569316508,0.9904955822887305
2014-04-28,1,0.0016540562425115283,0.0019384761286765767,-0.004842937065167462,0.009386478486993869,0.9926005424506751
2014-04-30,1,0.0022505271275554705,0.002598027620579007,-0.006471115516214381,0.008978951640155709,0.9928730758245566
2014-05-02,1,0.0013965588068915618,0.0015856619557863792,-0.004842937065167462,0.009386478486993869,0.992902370464641
2014-05-06,1,0.001825543901157458,0.0020856158584768502,-0.0049490671083203975,0.009386478486993869,0.9928608767609547
2014-05-08,1,0.001317832288402196,0.001454292071598875,-0.004377545924107556,0.009386478486993869,0.9927205383981769
2014-05-12,1,0.001800606682889846,0.002015174654466926,-0.004377545924107556,0.008978951640155709,0.9932566591559951
2014-05-14,1,0.0016399584752089455,0.0018750656938485732,-0.004625527395684422,0.008978951640155709,0.9932258437445632
2014-05-16,1,0.0016009615770342148,0.0018236289745399074,-0.004377545924107556,0.008190612944770793,0.9940440560825574
2014-05-20,1,0.0014085876784539373,0.001627405142135867,-0.0017820461531367186,0.009036816835839876,0.9935650365291211
2014-05-22,1,0.002025931277039421,0.0023172427621760113,-0.0023741406230359348,0.008697067798618922,0.9936739950238206
2014-05-27,1,0.002876273927754666,0.0033070293385327612,-0.0023741406230359348,0.004462770106296877,0.9941030748802773
2014-05-29,1,0.0021227030569494123,0.0024322398339776024,-0.0011241700982940832,0.010937319876077621,0.9899862892013427
2014-06-02,1,0.0023046430244727466,0.0026025590253685475,-0.0011241700982940832,0.006352908179741885,0.9903799309290637
2014-06-04,1,0.002635373552670729,0.003020380525288766,-0.0011241700982940832,0.006531481260649972,0.9903191362357857
2014-06-06,1,0.0024647369654660074,0.002746886474282857,-0.0011241700982940832,0.005586810128736722,0.9908693139848207
2014-06-10,1,0.0027917775389519547,0.0031768544762729167,-0.0024469571415507187,0.008054203776090481,0.9894961328541225
2014-06-12,1,0.001509732433570146,0.0016337704503986813,-0.0007721663914519166,0.008054203776090481,0.9889286720717875
2014-06-16,1,0.0017110988423453257,0.0018768289072223603,-0.0016598635428896709,0.008054203776090481,0.9887904576437384
2014-06-18,1,0.0015677865718939637,0.0016167173792781984,-0.0033386245636841086,0.006109941015054927,0.988934995965924
2014-06-20,1,0.00147496257383914,0.0014843099253029196,-0.0039352568769161385,0.006109941015054927,0.9887388107494409
2014-06-24,1,0.002090105012521092,0.002279446395767212,-0.0039352568769161385,0.007756835974995244,0.9886951239010092
2014-06-26,1,0.002282715998121399,0.002354073846261535,-0.004692140875066024,0.006109941015054927,0.9916211196079288
2014-06-30,1,0.0024994281827059373,0.00263949613429107,-0.006062886070609805,0.007756835974995244,0.9904796239631447
2014-07-02,1,0.0027365892195484165,0.002973787861816808,-0.009738457942588897,0.007756835974995244,0.9894002641205415
2014-07-07,1,0.002859281989558845,0.003149364477654558,-0.009738457942588897,0.00795125409586465,0.9897188301079788
2014-07-09,1,0.0027247764751246995,0.002998803602861881,-0.006080937966475775,0.006174747055344728,0.9906843935602081
2014-07-11,1,0.001999486665807174,0.0021669028989735875,-0.005417395375075508,0.00795125409586465,0.9910581937999416
2014-07-15,1,0.0019235181323016088,0.0020716735269780905,-0.0077065397620529295,0.009843960823624445,0.989852188445065
2014-07-17,1,0.00172179815505572,0.0018876444813378317,-0.005417395375075508,0.009843960823624445,0.9903876610329775
2014-07-21,1,0.002027092787383636,0.0022472151539928136,-0.006259559507364379,0.009843960823624445,0.9899094248015514
2014-07-23,1,0.0017340235368675208,0.0018510125272929254,-0.006259559507364379,0.008096468952039814,0.9899576815083748
2014-07-25,1,0.0015199353530564199,0.0016529220606008362,-0.0051562494873127465,0.008096468952039814,0.9912152881984291
2014-07-29,1,0.001409043663450152,0.0015120664562803287,-0.005008774616413988,0.008096468952039814,0.9913513412544465
2014-07-31,1,0.00018005647702221443,0.0002446118277847925,-0.005008774616413988,0.008096468952039814,0.9923306847845685
2014-08-04,1,0.0006390307766380337,0.0006602364976568148,-0.005008774616413988,0.010534002907735396,0.9922753461250889
2014-08-06,1,0.0003063528545183274,0.00035664109894221953,-0.002022266260739056,0.01182643018165884,0.9911970749712725
2014-08-08,1,0.0008024624952673767,0.0008422727941414985,-0.0005884360668626423,0.012307078391601774,0.9913383316917411
2014-08-12,1,9.887949738208003e-05,0.00016388897852921604,-0.002022266260739056,0.011457411524472733,0.99144558447651
2014-08-14,1,0.00023611162705191812,0.00030114871443015707,-0.0039443943165850745,0.011457411524472733,0.9912694742245817
2014-08-18,1,0.0006440821119329925,0.0006543137457906527,-0.0039443943165850745,0.01112613778595108,0.9916468914060262
2014-08-20,1,0.0010810403971553608,0.001142722649383538,-0.0039443943165850745,0.01112613778595108,0.9915591929596992
2014-08-22,1,0.001654088946953867,0.0018213832561302444,-0.005566700100920442,0.009714957929769966,0.9913073296740869
2014-08-26,1,0.0012335432927790576,0.0013059935807350318,-0.005566700100920442,0.008166277127558436,0.9918882842037613
2014-08-28,0,-0.0002000340980749908,2.0904760623438015e-05,-0.004879756018277837,0.009714957929769966,0.9910677248383644
2014-09-02,1,0.0006959579175106576,0.0007519396484199024,-0.005708190666984033,0.008166277127558436,0.9911507750550657
2014-09-04,1,0.001232874502888564,0.0012460859345673112,-0.00722030642792973,0.007039566026100526,0.9909599578913151
2014-09-08,1,0.0020197028488290227,0.0021403570059351004,-0.00722030642792973,0.007039566026100526,0.990367801841287
2014-09-10,1,0.0010115533299664184,0.0010243971978835217,-0.00722030642792973,0.009714957929769966,0.9900151624589892
2014-09-12,1,0.0008166835231028097,0.0008632909414117344,-0.009560139028697455,0.009714957929769966,0.9886989082841842
2014-09-16,1,0.0004939629758883965,0.0005945881051853271,-0.011115831570704062,0.0053058818883169245,0.9879873670338833
2014-09-18,1,0.0010884141436046432,0.0010988583455658267,-0.013844534504042666,0.00552873205022356,0.9871000632671953
2014-09-22,1,0.0005429268656644295,0.000589277348314265,-0.013844534504042666,0.010180337445274978,0.9875109981696836
2014-09-24,1,0.00014331546995837807,0.00026257784658912026,-0.013844534504042666,0.011709604580975131,0.9863498157903333
2014-09-26,1,0.0009027775762364459,0.000925348733623342,-0.013844534504042666,0.010180337445274978,0.9870727452182626
2014-09-30,1,0.0004316919047137824,0.0005130578527651218,-0.013844534504042666,0.010180337445274978,0.9873133144484716
2014-10-02,1,0.0007287639095345051,0.0007620362753175557,-0.014723431046964565,0.0073643871651965336,0.9874380521730048
2014-10-06,1,0.0008375854065347473,0.0008831264255692643,-0.014723431046964565,0.006909834964329712,0.9880355402092771
2014-10-08,1,0.0006318756276075154,0.0007078685632770972,-0.010741786038046847,0.005727305991718184,0.9893606118924619
2014-10-10,-1,-0.0010646063322562655,-0.0007683124303888756,-0.0016820016878171533,0.006909834964329712,0.9894569626552673
2014-10-14,-1,-0.0016496262645493344,-0.0013123639549529893,-0.0016820016878171533,0.006909834964329712,0.990405828796353
2014-10-16,-1,-0.0016960132686433425,-0.0013782078629357634,-0.0016820016878171533,0.006909834964329712,0.990675079993076
2014-10-20,-1,-0.0017658987380086168,-0.0014199767898575863,-0.0016820016878171533,0.005727305991718184,0.9909927700048157
2014-10-22,-1,-0.0009576529368885265,-0.0007250684241478885,-0.0016820016878171533,0.0056786317519710115,0.991800676483086
2014-10-24,-1,-0.0005889045588523408,-0.0003959197303216066,-0.007246889092748426,0.004387812552791432,0.9918850621836193
2014-10-28,-1,-0.0002113584403428428,-8.153889429499622e-05,-0.007246889092748426,0.007015698285567056,0.9913421883538542
2014-10-30,-1,-0.0017789690701185829,-0.0014578311432436029,-0.003345117794495695,0.008954942946889055,0.9910857545088083
2014-11-03,-1,-0.0017620780377627142,-0.0014228289304671117,-0.0054838506016542925,0.008432127879183201,0.9908052367681811
2014-11-05,-1,-0.0015513140245934781,-0.0012442086961619056,-0.007246889092748426,0.011589760468227708,0.9892055156166236
2014-11-07,-1,-0.0006614593479529496,-0.0004911581764502924,-0.007763660963491941,0.011234741310554954,0.9886846655076426
2014-11-11,-1,-0.000791240048251589,-0.0006146454217470202,-0.00736969054932077,0.011234741310554954,0.9888974728331664
2014-11-13,-1,-0.0007554443703542588,-0.0005925333169461303,-0.007123602897600326,0.011234741310554954,0.9892251096417513
2014-11-17,1,0.0004309248294171252,0.0004971375575006552,-0.00736969054932077,0.011234741310554954,0.9884394268770862
2014-11-19,1,0.0010245566482337733,0.0011735113618201916,-0.00736969054932077,0.011727489977350522,0.9867338635357726
2014-11-21,1,0.0004232635249965948,0.0004887466824415205,-0.010908616528280797,0.011727489977350522,0.9860812860658315
2014-11-25,1,0.0010369050146705914,0.0011892734732113898,-0.010908616528280797,0.011727489977350522,0.9867065009047802
2014-11-28,1,0.0017227286316324028,0.0019613711049680997,-0.010908616528280797,0.010448946945433035,0.9871774163671126
2014-12-02,1,0.0005077072075943775,0.0005555233216696083,-0.007324192580325777,0.010448946945433035,0.9883567882300129
2014-12-04,1,0.00034277392359340357,0.00037133900206645263,-0.007930312074571289,0.00535421603171829,0.9888410852049366
2014-12-08,-1,-0.0006783930385342737,-0.0005593707257545372,-0.007930312074571289,0.00535421603171829,0.9883616117529088
2014-12-10,-1,-0.0008132689170029239,-0.0006824387316897605,-0.007930312074571289,0.010555847037681403,0.9875943347305488
2014-12-12,-1,-0.0003303112530656677,-0.00028023472534336575,-0.007930312074571289,0.007318867715319536,0.9876692319575122
2014-12-16,-1,-0.0008671289311074096,-0.0006645552028878577,-0.007930312074571289,0.007318867715319536,0.9870057198575837
2014-12-18,1,0.0011163040081834503,0.0011514213567436222,-0.007930312074571289,0.00305211881739214,0.9889174099238018
2014-12-22,-1,-0.0007308067522711945,-0.0004925260090106271,-0.006529412956037428,0.007318867715319536,0.9881817525405103
2014-12-24,-1,-0.0006620871195771195,-0.00045877783446579134,-0.007852527984858922,0.010662155855294852,0.9871368737264616
2014-12-29,-1,-0.000459546647379758,-0.0002583905886580964,-0.00866295691538804,0.013689551509993653,0.9865800495201228
2014-12-31,-1,-0.0007208453099360307,-0.0004820239483771956,-0.008815224252792762,0.01514990942664807,0.9843246322618625
2015-01-05,-1,-0.0021226090419646003,-0.001683573050377623,-0.006799555932880468,0.017760790956265732,0.9844171919403563
2015-01-07,-1,-0.001358670942628088,-0.0010247705075000014,-0.005916922248344037,0.01514990942664807,0.9869157265500825
2015-01-09,-1,-0.0006055150595456145,-0.0003811377197308251,-0.005916922248344037,0.012960211496767566,0.9874397740502336
2015-01-13,-1,-0.0005286886322531411,-0.0003259587671289576,-0.002309973552704619,0.012960211496767566,0.987289967754961
2015-01-15,-1,-0.001939300290721025,-0.0015913000491194992,-0.00020728975883775464,0.012960211496767566,0.9876739945766091
2015-01-20,-1,-0.0016976097605818565,-0.0013935132923538474,-0.00035170816298934256,0.012960211496767566,0.9872132539073953
2015-01-22,1,0.00020636327252372764,0.0002955613561540571,-0.0029130934479709115,0.01218614984178234,0.9886441343880892
2015-01-26,1,0.00045390394590066766,0.000499064519073056,-0.0018911486962810828,0.011104933133565502,0.9891033191888363
2015-01-28,1,0.0012798200352332827,0.0013998072986065274,-0.00035170816298934256,0.01267293581400048,0.988034373465653
2015-01-30,1,0.0006694436056651238,0.0007426002364383094,-0.00035170816298934256,0.011104933133565502,0.9895650976026158
2015-02-03,1,0.0010172700683272558,0.001082787121970846,-0.0018911486962810828,0.010490136758085149,0.9900806179809306
2015-02-05,1,0.0009476723967677902,0.0010065026132794236,-0.004659271988488184,0.010490136758085149,0.9896367877762464
2015-02-09,1,0.0012927287728040186,0.001397763546511744,-0.005826843847491714,0.010385469397140742,0.9894603144863956
2015-02-11,1,0.0019144208849245206,0.0021245693671701417,-0.005826843847491714,0.010008127680220039,0.9897573494080516
2015-02-13,1,0.0019681103548578483,0.0021419767953355165,-0.005826843847491714,0.010008127680220039,0.9887205515898827
2015-02-18,1,0.0017312455595071632,0.0018652751703152936,-0.004659271988488184,0.010745286431474335,0.9886213322807683
2015-02-20,1,0.0028613608628416543,0.0031884165691126844,-0.004431764130640518,0.010397112198388275,0.9905031573674413
2015-02-24,1,0.0026790305767770087,0.0029560599863245112,-0.004431764130640518,0.010397112198388275,0.9906962436619111
2015-02-26,1,0.004329637060504387,0.004829671248291218,-0.005736232165449904,0.009501049680127879,0.9917236994900311
2015-03-02,1,0.004673033397662623,0.005273944832951941,-0.005653661561184067,0.009629907114262672,0.991853230612202
2015-03-04,1,0.004567567384296209,0.005141687462702457,-0.004886792852057302,0.009632319330026529,0.9914966612115546
2015-03-06,1,0.0034389624654876235,0.003788497756716157,-0.004507101252092847,0.009632319330026529,0.991748275925693
2015-03-10,1,0.0028074471551148773,0.0030102791307988997,-0.004507101252092847,0.009481766780696736,0.9918148183528684
2015-03-12,1,0.002791994883637511,0.002973335623447605,-0.004507101252092847,0.010735824271927392,0.9915551054248702
2015-03-16,1,0.00400179112045706,0.00436048110313906,-0.0059892675722012,0.009481766780696736,0.991465558371504
2015-03-18,1,0.004915241624083789,0.005447369363901618,-0.0059892675722012,0.0003657053585000673,0.991004297084974
2015-03-20,1,0.0046888933031855136,0.005204646245868477,-0.005999674585802285,0.002586074810883823,0.9913693566951153
2015-03-24,1,0.0045169922821811336,0.005012637019445276,-0.005999674585802285,0.006163538542965338,0.9918407547181144
2015-03-26,1,0.00311052089584784,0.003352410404228301,-0.005910165972469059,0.007383546866869015,0.9896150967024009
2015-03-30,1,0.0027957119411047876,0.0029979167297167165,-0.00675484034618368,0.006163538542965338,0.988873717569404
2015-04-01,1,0.0031526045588288055,0.0034053599931925154,-0.008246369976594182,0.006004595029490184,0.9889974390494256
2015-04-06,1,0.0030783850358856325,0.0033479048760815385,-0.008246369976594182,0.007317148771326113,0.9889326360409121
2015-04-08,1,0.0028944216604625964,0.003124959163409268,-0.010712336524377575,0.006309818806832436,0.9882385365646739
2015-04-10,1,0.0031088421015303363,0.0033649948419944647,-0.010712336524377575,0.007317148771326113,0.9879997470106354
2015-04-14,1,0.002498792254133738,0.002681654269428389,-0.012743336221812963,0.007317148771326113,0.9876592066297962
2015-04-16,1,0.002522835976913643,0.00273685607924399,-0.014225289263359127,0.009265477624667721,0.9862013717765552
2015-04-20,1,0.002145173460520557,0.002275201946034811,-0.014225289263359127,0.010567295416735423,0.9857726745216476
2015-04-22,1,0.0025295179310358255,0.002734036240130817,-0.014225289263359127,0.010567295416735423,0.9858007364887151
2015-04-24,1,0.0012045225755163932,0.0012741740789230563,-0.012743336221812963,0.009265477624667721,0.988933256753767
2015-04-28,-1,-0.0002899393005454253,-0.00013173572617216598,-0.007040047230962188,0.009265477624667721,0.9894636398325702
2015-04-30,-1,-0.0007838171688767111,-0.0005489973481003067,-0.003756390103445452,0.009265477624667721,0.9903095557092118
2015-05-04,-1,-0.00048770106861096847,-0.00026470452080824434,-0.005974875520838075,0.007282238430733227,0.9907990548055019
2015-05-06,-1,-0.0015772118793851342,-0.0012109552360709758,-0.002414648191055659,0.007282238430733227,0.9913031000216658
2015-05-08,-1,-0.0008101729968958482,-0.0005412602799538268,-0.002414648191055659,0.006993515267358584,0.9921119697540735
2015-05-12,-1,-0.0021051140726308544,-0.0016439032331269964,-0.001719928635637492,0.007282238430733227,0.9927489828548065
2015-05-14,-1,-0.0009825282281624137,-0.0007414916048246316,-0.001719928635637492,0.006993515267358584,0.9945646315520955
2015-05-18,-1,-0.0008700645374832293,-0.0005962191649693449,-0.0022581021090918585,0.006993515267358584,0.9944222202588516
2015-05-20,-1,-0.000673741177449722,-0.0004140034937833709,-0.0025222445618476984,0.007049820611812845,0.9940879916320051
2015-05-22,-1,-0.0004311236280439099,-0.00021520852614840126,-0.0022581021090918585,0.007432316196043313,0.9937166096502996
2015-05-27,-1,-0.0011484375771039555,-0.0008321413204237209,-0.0022581021090918585,0.007432316196043313,0.9935465288289796
2015-05-29,-1,-0.0020523838961334032,-0.001574532715257127,-0.001773066215315203,0.007432316196043313,0.9928650494152776
2015-06-02,-1,-0.0018434460803151557,-0.0014235621999278121,-0.0019620310130107435,0.007432316196043313,0.9921991666494858
2015-06-04,-1,-0.0014573508395504542,-0.001102647903843104,-0.0019620310130107435,0.00907594030904678,0.9917150707539604
2015-06-08,-1,-0.0013768354639618783,-0.0010258426069916279,-0.00292907738277473,0.007163344387423648,0.9919969414215184
2015-06-10,-1,-0.0019788344879127493,-0.0014993930188982403,-0.0037662186207549136,0.0075091060072517,0.990726539314075
2015-06-12,-1,-0.00205755484005087,-0.0015645155175531265,-0.0037662186207549136,0.010517881286871616,0.98970016557137
2015-06-16,-1,-0.0008714836571589757,-0.0005955303579252771,-0.0037662186207549136,0.009046988102997196,0.9904640747129294
2015-06-18,-1,-0.0005117697543293374,-0.00028059131808488705,-0.0037662186207549136,0.008111378820146068,0.9913962649810455
2015-06-22,0,-4.076767625925664e-05,0.00012970645201646586,-0.0037662186207549136,0.008111378820146068,0.9913101780191385
2015-06-24,-1,-0.0007090050687772473,-0.00040878386784941366,-0.0037662186207549136,0.008111378820146068,0.9915597532276763
2015-06-26,-1,-0.0002251541103071679,-1.1323450224629537e-05,-0.006729297343115276,0.008111378820146068,0.9900132148541857
2015-06-30,-1,-0.0013652419084187475,-0.001010277875330225,-0.004918518715554328,0.011132348336691824,0.9903050730309446
2015-07-02,-1,-0.000698808893697349,-0.0004346378770476049,-0.006729297343115276,0.011132348336691824,0.986219046752734
2015-07-07,-1,-0.001013492710512933,-0.0006947202060439982,-0.008138416235182959,0.011132348336691824,0.983414408614241
2015-07-09,-1,-0.0014239298907112456,-0.0010802760072078999,-0.007575998494303767,0.009354059139734347,0.9848094168257251
2015-07-13,-1,-0.000660391075018651,-0.0003988009626417386,-0.007575998494303767,0.008857514915994184,0.9844736764324002
2015-07-15,-1,-0.0002147631085587132,-4.691341017687721e-05,-0.008138416235182959,0.01165817460189737,0.9828918298514052
2015-07-17,-1,-0.00035896539645618964,-0.00017464095591745825,-0.008138416235182959,0.01248799529568969,0.9817920174914432
2015-07-21,1,0.0011259170544706681,0.0012208624939477827,-0.008138416235182959,0.01165817460189737,0.9819966356461638
2015-07-23,1,0.0006531291675825877,0.0006812832908065542,-0.010083826620186379,0.01248799529568969,0.9806163390429906
2015-07-27,-1,-0.0007220560487496488,-0.000588682809761599,-0.019113669822585912,0.01248799529568969,0.9789327104294175
2015-07-29,1,0.0001541438904774512,0.00019957075816370672,-0.019113669822585912,0.01248799529568969,0.9782770019972267
2015-07-31,-1,-0.0027613739785793436,-0.002377575861588966,-0.01001281565763123,0.015068704496556826,0.981392963226975
2015-08-04,-1,-0.004656274522600381,-0.004075547877639488,-0.01001281565763123,0.015068704496556826,0.9834394885291939
2015-08-06,-1,-0.0040773790603317785,-0.003631479876358451,-0.00851672903620814,0.017857828174925646,0.9824119527169192
2015-08-10,-1,-0.00273740382216458,-0.0024902354117767125,-0.012378003318741395,0.017741022615174278,0.9825245797355466
2015-08-12,-1,-0.0023885882068309904,-0.002177099232102308,-0.011180338978384151,0.015068704496556826,0.9840617229993487
2015-08-14,-1,-0.0013868263010493602,-0.0012938361405700105,-0.011180338978384151,0.010527052205660673,0.9847473944467445
2015-08-18,-1,-0.0016236339756488705,-0.0014722014842561077,-0.011180338978384151,0.013055473489606449,0.9842770403161418
2015-08-20,-1,-0.001628907562392329,-0.0014890093397835666,-0.011180338978384151,0.013679956535049088,0.9838866912776078
2015-08-24,-1,-0.003634305565558947,-0.00328961972935057,-0.007062488330260337,0.013679956535049088,0.986353841399565
2015-08-26,-1,-0.0021234456595825004,-0.00195271193175892,-0.008181966378720902,0.00917336351228561,0.9879908240750016
2015-08-28,-1,-0.0006960485186460402,-0.0006910326231852416,-0.011180338978384151,0.005797714797360851,0.9881902082757867
2015-09-01,-1,-0.0013300607216588946,-0.0012837732764732488,-0.011180338978384151,0.00821776179526658,0.9872138563667967
2015-09-03,-1,-0.0009537385454347534,-0.0009254441087223034,-0.011180338978384151,0.007902837256400064,0.9874508906762102
2015-09-08,-1,-0.0006090128026897988,-0.0005967522908213188,-0.013296306726731301,0.007902837256400064,0.9869591607106725
2015-09-10,-1,-0.0009380325229762436,-0.000914306549139261,-0.009349079613497624,0.010757011179631836,0.9866040823341097
2015-09-14,-1,-0.0006550442183230182,-0.0006209921798598917,-0.00928591117068628,0.010757011179631836,0.9868676323109397
2015-09-16,-1,-0.0011260358746592093,-0.0010143143182678965,-0.01548090396273201,0.008469884892120968,0.986450184274839
2015-09-18,-1,-0.002004840947350862,-0.0017406135830636536,-0.014374408888625281,0.0049520946936764555,0.988688074113988
2015-09-22,-1,-0.002296752697252145,-0.0019848038047979837,-0.01548090396273201,0.008038801709337533,0.9866973410561146
2015-09-24,-1,-0.002277708757662348,-0.002006418641198309,-0.01448094819065147,0.008661247097195048,0.9865820149642399
2015-09-28,-1,-0.004312943293100048,-0.0037605353738737104,-0.01448094819065147,0.008661247097195048,0.9860281821079612
2015-09-30,-1,-0.003012560734504043,-0.0026579532601507653,-0.008952592579992768,0.008661247097195048,0.987158940134079
2015-10-02,-1,-0.003029560126126379,-0.0026395513267865912,-0.0060047336156177,0.008829001996383644,0.9824562772780736
2015-10-06,-1,-0.0029015340284995854,-0.0025333960831894885,-0.0031760549989287403,0.009470654633661691,0.9824817406767059
2015-10-08,-1,-0.0018046868117765967,-0.0016079172142931344,-0.004990663945637243,0.008829001996383644,0.982995984195154
2015-10-12,-1,-0.0011760067455691438,-0.0010760041261922487,-0.010998881287990397,0.008829001996383644,0.9823785880917293
2015-10-14,-1,-0.002084530807320986,-0.0018892069432990587,-0.004990663945637243,0.008829001996383644,0.9826515933901907
2015-10-16,-1,-0.0022480123425306286,-0.0020150829964810674,-0.011474231037130325,0.008829001996383644,0.9807319587032771
2015-10-20,-1,-0.00352006463424973,-0.0031380742197513346,-0.01131722725801965,0.009470654633661691,0.9810382190262082
2015-10-22,-1,-0.002842179469020134,-0.002540760732162423,-0.01131722725801965,0.012878974841307428,0.9805524253645898
2015-10-26,-1,-0.00417655436200366,-0.0037380895774749203,-0.00878450249244515,0.02020516170638144,0.980382105172257
2015-10-28,-1,-0.0029257358134829005,-0.002652623053334429,-0.00878450249244515,0.01283644205308529,0.9818867201306357
2015-10-30,1,0.0011935541890806757,0.0014488568328644503,-0.01131722725801965,0.00833655552527912,0.9861328446939921
2015-11-03,1,0.002403950100290826,0.0028255440626035024,-0.01131722725801965,0.004663240189277069,0.9860503606486987
2015-11-05,1,0.002405484921217239,0.002851165195650131,-0.01547147795715945,0.009732089781189347,0.9840724035883075
2015-11-09,1,0.0017719134422732753,0.0021640003214882866,-0.011290094815222015,0.009732089781189347,0.9852311965048448
2015-11-11,1,0.0016837790556057022,0.002100977486572904,-0.010127065249476564,0.009732089781189347,0.9851287975148766
2015-11-13,1,0.00014945137081108961,0.0003679311456642783,-0.010127065249476564,0.009732089781189347,0.9861513258620305
2015-11-17,1,0.0007733260865829994,0.0010940625709030065,-0.009710254440717242,0.008826503977130482,0.9871026732402863
2015-11-19,1,0.0009386674402275013,0.001226328722494311,-0.010127065249476564,0.004343781086375816,0.987781775456242
2015-11-23,1,0.002293962137705501,0.0028035308489472483,-0.011063211618349113,0.002001635663842126,0.9868692262320204
2015-11-25,1,0.0021686056492618328,0.0026500546907143913,-0.011063211618349113,0.0026151118735024477,0.9868324163870208
2015-11-30,1,0.0010616204328465905,0.0013689377707184682,-0.010127065249476564,0.005519670951376568,0.9877338867333997
2015-12-02,1,0.0018120557970633512,0.0022736802958514242,-0.010323840654140241,0.005440071698542721,0.9877432010253758
2015-12-04,1,0.002302854911823123,0.0028361676029944084,-0.009775846242271801,0.005440071698542721,0.9887835293551577
2015-12-08,1,0.002137786165727733,0.0026465778173130595,-0.00867936163675181,0.0121153758136312,0.9885411943575844
2015-12-10,1,0.0019404181562557934,0.002454338659986457,-0.00867936163675181,0.013440646804694097,0.9848616502181528
2015-12-14,1,0.0007656898614819183,0.001108888493572695,-0.00867936163675181,0.013440646804694097,0.9852292994519964
2015-12-16,1,0.0004184875754872718,0.0006491870880446891,-0.010724696357422386,0.013201849046192557,0.9846640850217057
2015-12-18,1,0.0005020612526200459,0.0008075895502354639,-0.011193952353617235,0.013201849046192557,0.9842219196789075
2015-12-22,-1,-0.0005707455177866767,-0.0005651935473200448,-0.009387667031230784,0.013783764461087302,0.9840176822843663
2015-12-24,-1,-0.001881154555467304,-0.0016335193541993543,-0.009387667031230784,0.016853304850205236,0.9823797111177545
2015-12-29,-1,-0.001582849166356745,-0.0013522245868988819,-0.011235609485226894,0.013783764461087302,0.9824865882564993
2015-12-31,-1,-0.0011540499178622858,-0.0010032858483034848,-0.010412274282626345,0.020360067203621872,0.9808708728483918
2016-01-05,-1,-0.00029016058968323554,-0.0002550024277870347,-0.0152071041014341,0.017513605784872505,0.9798425573688847
2016-01-07,1,0.0005714866169361708,0.0006909242332842864,-0.027854891333811124,0.015224903317790148,0.9742975953914274
2016-01-11,1,0.0008244725738418868,0.0009866418967438319,-0.027854891333811124,0.013020863638726517,0.9763948716103646
2016-01-13,0,-2.0340303685755862e-05,1.7154176967164764e-05,-0.020369536016777132,0.015224903317790148,0.9757300167406033
2016-01-15,-1,-0.0024193170167528793,-0.002047178825996045,-0.0152071041014341,0.02420141947684172,0.9729250035256395
2016-01-20,-1,-0.002486634387600248,-0.002180521343366616,-0.017905667951994105,0.02420141947684172,0.9718726464508142
2016-01-22,-1,-0.00037694031451871894,-0.0003699884894240419,-0.022406217452920055,0.02298388876304268,0.9720706321570084
2016-01-26,1,0.0002639231398826349,0.0002989053747483529,-0.022406217452920055,0.02298388876304268,0.9714290808161447
2016-01-28,-1,-9.131937186409802e-05,-6.732314073868513e-05,-0.022406217452920055,0.02298388876304268,0.9713412826469976
2016-02-01,1,0.0018063974588010435,0.0020995928969685723,-0.022406217452920055,0.019941391937294,0.9725687263518281
2016-02-03,1,0.0008006109340574306,0.0009341843247935096,-0.018162207218082635,0.023750944948727922,0.9729727141657414
2016-02-05,-1,-0.00407609738575404,-0.0036265355268047792,-0.0093924025654217,0.023750944948727922,0.9774136213722457
2016-02-09,-1,-0.004828330146646867,-0.0043272195302189054,-0.012427342487366854,0.023750944948727922,0.9783461458289016
2016-02-11,-1,-0.0031345215296235416,-0.0028244638289029317,-0.012427342487366854,0.021857042628686398,0.9789784885774
2016-02-16,1,0.00023913513780227764,0.00033078146147931845,-0.012427342487366854,0.016735848719173472,0.9837778850838789
2016-02-18,-1,-0.00044865834199378073,-0.00042699956226737964,-0.009731029022192993,0.016735848719173472,0.9849808144604949
2016-02-22,-1,-0.0013888325813007254,-0.001193653347747856,-0.00855027025713763,0.016735848719173472,0.9859286846656988
2016-02-24,-1,-2.965226103790399e-05,-2.3306744173853498e-05,-0.009731029022192993,0.011517312158303006,0.9867965806981325
2016-02-26,1,0.0007276822980405693,0.000826345256810897,-0.009731029022192993,0.009404484404426986,0.9873860469806509
2016-03-01,1,0.002076130454176447,0.002352740298136282,-0.009731029022192993,0.0059708314040800604,0.9889708168513069
2016-03-03,1,0.002576674655522508,0.002946192775947363,-0.00855027025713763,0.004682023506339086,0.9901600424306585
2016-03-07,1,0.0023859618392503786,0.002744562905385215,-0.012944026584580201,0.004682023506339086,0.9878703072819905
2016-03-09,1,0.0005027155712724491,0.0005497094261213986,-0.007557615148112008,0.009034159593811921,0.9881668631629861
2016-03-11,1,0.0018454062569452506,0.002068529820819922,-0.009907880038763042,0.004682023506339086,0.988533820951676
2016-03-15,1,0.00091351184259167,0.0009377552880019715,-0.009907880038763042,0.0059708314040800604,0.9878623742439906
2016-03-17,1,0.0011096174939552736,0.0011882586073574024,-0.008576598472966131,0.006036373166412518,0.9875496064044598
2016-03-21,1,0.00013785377943972767,0.00026183411987993607,-0.008421156589395302,0.007983230873569955,0.987568046909888
2016-03-23,-1,-0.0010250226133687907,-0.0008060467228508924,-0.005157909398608914,0.007983230873569955,0.9893443312108603
2016-03-28,1,0.0013951911436895091,0.0016834035874328272,-0.006140032674467604,0.00928706749593666,0.9878668919664922
2016-03-30,1,0.002283054194653465,0.0027614949267041203,-0.007232050607109793,0.009962654329209458,0.987044604941154
2016-04-01,1,0.0020114251359408704,0.002431243313139657,-0.010389287871415246,0.01222070294026825,0.9835757229099011
2016-04-05,-1,-0.00013072909286213156,-4.400289086021401e-05,-0.007232050607109793,0.01222070294026825,0.9849472729159625
2016-04-07,1,0.0008743749899613815,0.0010698258741484036,-0.012821451905796543,0.010213278466260307,0.9853925209558253
2016-04-11,-1,-0.000989029980863224,-0.0008612115301331538,-0.012544033577919944,0.010213278466260307,0.9862043767413456
2016-04-13,-1,-0.00010209804126903114,-9.725499954808676e-05,-0.012821451905796543,0.009370608874953609,0.9849085032160865
2016-04-15,1,0.0005517353490856875,0.0006664539404839789,-0.012821451905796543,0.007983230873569955,0.9858039988178733
2016-04-19,1,0.0015348881488331265,0.0018318692798051119,-0.012821451905796543,0.006895356675056663,0.98602663325356
2016-04-21,1,0.001411877066067062,0.0016889099665174936,-0.013240181595905306,0.0077087008218218595,0.9851769371578548
2016-04-25,1,0.000468782732049595,0.0005711416051972376,-0.013240181595905306,0.0077087008218218595,0.9853648046658763
2016-04-27,1,0.0007025649189267534,0.0008480672833701026,-0.013240181595905306,0.0077087008218218595,0.9855256483159893
2016-04-29,1,0.0022593934256877565,0.00262959827041966,-0.012821451905796543,0.007145165569964483,0.9885809349378886
2016-05-03,1,0.0018390127116408633,0.0021407114351482386,-0.012544033577919944,0.007145165569964483,0.9890209353468173
2016-05-05,1,0.0007519110971652715,0.0008777870206437159,-0.009451828103508149,0.007145165569964483,0.9894464779147164
2016-05-09,-1,-0.00013547843299509192,-8.492345558841507e-05,-0.007114830774141899,0.007145165569964483,0.9897225268846078
2016-05-11,-1,-0.0012353754656630796,-0.0010626134479114503,-0.006091649494902587,0.007145165569964483,0.9916540451327429
2016-05-13,-1,-0.0015304133956816905,-0.0012942519558850445,-0.007114830774141899,0.007145165569964483,0.9906513151093512
2016-05-17,-1,-0.0012816792399862995,-0.0010800634879539364,-0.008134535999489673,0.007054086321281629,0.9902952710293383
2016-05-19,-1,-0.0014512272570003089,-0.0012222475175872943,-0.007013924819640688,0.007030436980940097,0.9910395961765464
2016-05-23,-1,-0.0011884984533047298,-0.0010136326340867933,-0.006091649494902587,0.007030436980940097,0.9916671136052577
2016-05-25,-1,-0.0010377605244373794,-0.0008833576654891918,-0.006431551236685178,0.005437015110765164,0.9916883916374035
2016-05-27,-1,-0.0006701350720943394,-0.0005915238801989151,-0.007863230590522165,0.0042175986042431515,0.9904948257921597
2016-06-01,1,0.0003611743700685858,0.0004357714102674314,-0.007863230590522165,0.005437015110765164,0.9897312569824339
2016-06-03,1,0.00010675656717910482,0.000153936289752412,-0.007863230590522165,0.007030436980940097,0.9875630050203067
2016-06-07,-1,-0.000584984589175186,-0.0005086016977594182,-0.00874770673687606,0.009406217028072664,0.9859118660052607
2016-06-09,-1,-0.0014556960873559905,-0.0012387487640514064,-0.00874770673687606,0.016449275283762638,0.9849289862058862
2016-06-13,-1,-0.002863578736595426,-0.002438765086797028,-0.007863230590522165,0.018618365691560914,0.9846974345849888
2016-06-15,-1,-0.002177479146795432,-0.0018893428717408206,-0.008172212830525523,0.018618365691560914,0.9850712813720247
2016-06-17,-1,-0.0013112857302545302,-0.001180534719573773,-0.008172212830525523,0.018618365691560914,0.9854133964204475
2016-06-21,-1,-0.001159488406689036,-0.001014252828090079,-0.008172212830525523,0.016449275283762638,0.9856840429555963
2016-06-23,-1,-0.0003018722253812748,-0.00025482614407184364,-0.0061651335805266855,0.016449275283762638,0.9861883374854841
2016-06-27,-1,-0.0020142172116940486,-0.0018219458744838674,-0.005568080501527426,0.016449275283762638,0.9872048725742251
2016-06-29,-1,-0.0032115854595179865,-0.0026747912404689687,-0.009745475959030116,0.00883950742008778,0.9875671841328628
2016-07-01,-1,-0.004741504831743122,-0.003970355080738521,-0.006530915638685476,0.00883950742008778,0.9883255092864962
2016-07-06,-1,-0.004403734600971549,-0.0037248859560547985,-0.009745475959030116,0.0020738999769708516,0.988088181900791
2016-07-08,-1,-0.0014144484408599586,-0.0012340979411569817,-0.009745475959030116,0.0059291537154192876,0.9887255932988811
2016-07-12,-1,-0.0008038065442329842,-0.0006755213583434679,-0.009745475959030116,0.004825628606033826,0.9897114118498802
2016-07-14,-1,-0.0012537404132505793,-0.0010640125273934206,-0.007006832592713698,0.00883950742008778,0.9868867394043058
2016-07-18,-1,-0.0009605927659021706,-0.0008443659496469856,-0.006956878577661121,0.00883950742008778,0.9866356253459495
2016-07-20,1,4.685898694054233e-06,3.6627597821163504e-05,-0.006956878577661121,0.00532800639226845,0.9871977925401743
2016-07-22,1,0.0004820406410993662,0.0006454808484006478,-0.008558288956882935,0.007217145247376137,0.9857455557619029
2016-07-26,1,0.00036106032339490766,0.0005276996334630814,-0.00729797414637771,0.007217145247376137,0.9858448724936072
2016-07-28,-1,-0.0006018421262373345,-0.0005741698938696248,-0.005919019834068017,0.007217145247376137,0.986601047375704
2016-08-01,-1,-0.00016031715192885572,-0.00013637133144215038,-0.00729797414637771,0.00532800639226845,0.9883173325367981
2016-08-03,-1,-0.0010996010882291186,-0.0010749911780212457,-0.00729797414637771,0.00532800639226845,0.9899288299961494
2016-08-05,-1,-0.0005969068062788345,-0.0005629127415782687,-0.00729797414637771,0.004499959906821991,0.990639299159467
2016-08-09,-1,-0.0003262751045411521,-0.00025247739239501327,-0.007773741565864318,0.00398126842650283,0.9902028193642685
2016-08-11,1,0.0015518122893281167,0.0018812172389067383,-0.008361408241189142,0.0017309563984289494,0.991753277886327
2016-08-15,1,0.0009264227814203879,0.0011024882004763478,-0.00909036077234794,0.0017309563984289494,0.9901081869387318
2016-08-17,1,0.0011611402795611804,0.0013832912326951436,-0.00909036077234794,0.0017309563984289494,0.9901698283065758
2016-08-19,1,0.0018623491464556296,0.0021885546324499627,-0.00909036077234794,0.0005634005399439857,0.991411878443047
2016-08-23,1,0.0017525726225807578,0.002061927598763177,-0.010447109059023196,0.0005634005399439857,0.9904503474839524
2016-08-25,1,0.00048472720113244215,0.0005314877117093287,-0.010447109059023196,0.0005634005399439857,0.99125492781494
2016-08-29,1,0.0008388530418235321,0.0009948376607920397,-0.012057282654646508,0.0012454780241701764,0.9904553962102673
2016-08-31,-1,-0.0002904228637480597,-0.0002519742210417755,-0.012057282654646508,0.0012454780241701764,0.9910250435309905
2016-09-02,-1,-0.0001285787718710653,-0.00012130279184200584,-0.012057282654646508,0.004125648150586342,0.9905540252120313
2016-09-07,-1,-0.00015335068760256756,-0.00013015502788328088,-0.010761987531027353,0.003933807032471936,0.9912936524986354
2016-09-09,-1,-0.00036036870857116216,-0.0003352452615269606,-0.011460038376557156,0.003933807032471936,0.9914908002705397
2016-09-13,0,-5.574636762310835e-05,5.867962700818806e-06,-0.005365028717713383,0.00591318117575616,0.9928119167791494
2016-09-15,-1,-0.00011283591296035974,-8.368117179149072e-05,-0.013141601171280704,0.004843097892376285,0.9907179118247991
2016-09-19,0,-2.7075069223241472e-05,2.2515471070846336e-05,-0.013141601171280704,0.004843097892376285,0.9897169602494021
2016-09-21,1,0.0009012507561006559,0.0011742270419758856,-0.01296712705679126,0.008956037841354379,0.9899004879090704
2016-09-23,1,0.00043416099638935064,0.000630609316065902,-0.011448441371934582,0.008956037841354379,0.9903034482109878
2016-09-27,0,-7.416251441933247e-05,8.327066314716932e-06,-0.011448441371934582,0.005158081978261458,0.9897516146811272
2016-09-29,-1,-0.0008004821363418348,-0.0007763115503125424,-0.009504341223226007,0.005158081978261458,0.9904678607032235
2016-10-03,-1,-0.0006931095113258262,-0.0006237986745405804,-0.009504341223226007,0.004541448829324378,0.9870350907082834
2016-10-05,-1,-0.0006356227136327532,-0.0005769216610221823,-0.014871272485326315,0.004541448829324378,0.9842425223547588
2016-10-07,-1,-0.0007438100492215291,-0.0006815280115635002,-0.020736829992084958,0.005335157208172673,0.9837326837310945
2016-10-11,-1,-9.126599042341277e-05,-7.786529024709342e-05,-0.020736829992084958,0.0018935343940577423,0.9835158305850674
2016-10-13,-1,-0.0013126420232190564,-0.0011829479865469923,-0.010006704116637375,0.004397466234747221,0.985733699659328
2016-10-17,-1,-0.001794811061695493,-0.0016157555550509665,-0.003939272257260325,0.010827318742106818,0.9850806978326605
2016-10-19,-1,-0.0009778689060783896,-0.0008953537147738922,-0.005961798281235901,0.008014245821830461,0.9848591589550977
2016-10-21,-1,-0.0006906577051122617,-0.0006742042629106788,-0.013133993256106199,0.008014245821830461,0.9833950619467607
2016-10-25,-1,-0.0017110313071454135,-0.0015658928953878103,-0.010279659902922388,0.008014245821830461,0.9844360281425312
2016-10-27,-1,-0.0018388198569340257,-0.001670812357189346,-0.010279659902922388,0.011115335720321345,0.9840344930397847
2016-10-31,1,0.00022241469881896294,0.00028942487564475455,-0.015361277658466904,0.007216698162718716,0.9860542603164542
2016-11-02,-1,-0.0017882960558819976,-0.0015792659130532225,-0.010289704091503458,0.007216698162718716,0.9887253897264507
2016-11-04,-1,-0.0022358696881788695,-0.001975125456011713,-0.010289704091503458,0.007216698162718716,0.9889990107092987
2016-11-08,-1,-0.0014971190853541,-0.0013304557480919264,-0.011032526595451442,0.00416927205181159,0.9894427036315586
2016-11-10,-1,-0.0009810393815570836,-0.0008971887340214153,-0.011032526595451442,0.005202968684641884,0.9889364219107031
2016-11-14,-1,-0.00017229006621095145,-0.00016771582308113965,-0.011032526595451442,0.0015202387607087856,0.9897198431077087
2016-11-16,-1,-0.0005103989862393468,-0.00041993701382271744,-0.014174334986342654,0.00054290535138577,0.9895322737660225
2016-11-18,-1,-0.0009450533319260934,-0.0008523387578963416,-0.014174334986342654,0.0015202387607087856,0.989891497280375
2016-11-22,-1,-0.0018812770563720101,-0.0016429031573307038,-0.014174334986342654,0.005793396508500935,0.9896918054249458
2016-11-25,-1,-0.001654074764413252,-0.0014399634697211184,-0.016314294125229774,0.003899630883329493,0.9895928652322654
2016-11-29,-1,-0.0022445733792664847,-0.002005046375061268,-0.01359055935978189,0.003899630883329493,0.9909339588477105
2016-12-01,-1,-0.0019351630019413429,-0.0017731377827174923,-0.01359055935978189,0.0052217197466809355,0.9909831698942643
2016-12-05,-1,-0.0023568304016667865,-0.0021350243113411513,-0.009047066960008144,0.007950004639674315,0.9894514804259991
2016-12-07,-1,-0.0028279289913333725,-0.0025452860897072884,-0.006934251116903823,0.007950004639674315,0.9896385512526473
2016-12-09,-1,-0.0019167640448471102,-0.001771026244727197,-0.00854699187881109,0.007950004639674315,0.9896483225603832
2016-12-13,-1,-0.0017708670276843138,-0.0016392629665293989,-0.012090334116190727,0.006234974354214314,0.9891403356425635
2016-12-15,-1,-0.003040259843202754,-0.0027479608630420096,-0.006934251116903823,0.008527141625991528,0.9884178049289426
2016-12-19,-1,-0.004170490406398529,-0.003702659800622849,-0.006934251116903823,0.008527141625991528,0.987604849322459
2016-12-21,-1,-0.0026705645951560445,-0.0024324363206937524,-0.006934251116903823,0.007727069412638314,0.9878951393983877
2016-12-23,-1,-0.003939775032552139,-0.003474063926919958,-0.004429934979518175,0.010371767387364839,0.9851935188544119
2016-12-28,-1,-0.00378018326868427,-0.0033596286308008446,-0.006969016344580417,0.010371767387364839,0.9840652669397155
2016-12-30,-1,-0.0035104230964988093,-0.0031346955193287855,-0.006969016344580417,0.017132970480912443,0.9824943938734679
2017-01-04,-1,-0.000909128782595751,-0.0008783560039106853,-0.013075391234171762,0.010371767387364839,0.9836813537627401
2017-01-06,-1,-0.0009551100389705685,-0.0009252095769149741,-0.020756346368265784,0.013922575917802703,0.9783386747320993
2017-01-10,-1,-0.0007862201380857446,-0.0007224119749251215,-0.020756346368265784,0.016694404354164027,0.977842047638521
2017-01-12,-1,-0.0009130440448826243,-0.0008255767850965962,-0.01104102514947765,0.01835216785425562,0.9765097545210886
2017-01-17,1,0.00035601594603697207,0.0006158356860711049,-0.01944962622272076,0.018325171999875725,0.9771230173634585
2017-01-19,-1,-0.0006164808617544861,-0.0005038759560534126,-0.01473459157456172,0.018325171999875725,0.9775055867435822
2017-01-23,0,-1.2555257157884536e-05,0.00017561525921423347,-0.01473459157456172,0.018325171999875725,0.978148922967091
2017-01-25,1,0.001318292691249663,0.0016460441890577867,-0.017137497404190898,0.017676001948089416,0.9795148842096014
2017-01-27,1,0.00023771279954720162,0.0004163692376156483,-0.017137497404190898,0.018325171999875725,0.9787026842444194
2017-01-31,1,0.001177595481820161,0.001470736890621506,-0.01944962622272076,0.017676001948089416,0.9787522671890172
2017-02-02,-1,-0.00016489084844305293,-7.712078085603122e-05,-0.014052212832203025,0.017676001948089416,0.9796234523786774
2017-02-06,-1,-0.0021573104088356268,-0.0020237007346448144,-0.014052212832203025,0.014766249666088967,0.9837065856160733
2017-02-08,-1,-0.0009906247673073243,-0.0009746064774263444,-0.014052212832203025,0.013527581405145853,0.9842781762556165
2017-02-10,1,0.0003932594880614998,0.000596850329026504,-0.014052212832203025,0.012118453301059803,0.9863004605111688
2017-02-14,1,0.0005304950813142939,0.0007579143332926797,-0.011843951635953212,0.0100054767618238,0.987827455801635
2017-02-16,1,0.000454447880813362,0.000655348046505914,-0.011254228141721513,0.009094310755341405,0.9881279738762248
2017-02-21,1,0.0006337921583673035,0.0008540191354052056,-0.011254228141721513,0.009094310755341405,0.9881898002908753
2017-02-23,1,0.0003553289758274825,0.0005096120795058197,-0.006820080046248703,0.00889382810910845,0.9891925521023055
2017-02-27,1,0.0002939656915337619,0.00046418300859861613,-0.004667266288748111,0.006307796979646944,0.9916456622477806
2017-03-01,-1,-0.0002884618925038557,-0.00018932217049105738,-0.0037097550707135113,0.009094310755341405,0.99170473333827
2017-03-03,1,0.0002754893803747176,0.000439859939192886,-0.004667266288748111,0.006307796979646944,0.9919466017899483
2017-03-07,0,-2.066752506293826e-08,0.0001723381284027336,-0.0037097550707135113,0.006307796979646944,0.9920087989653373
2017-03-09,-1,-0.0005551369373214486,-0.0005280088814555007,-0.0030343726637971575,0.006307796979646944,0.9917474870049794
2017-03-13,-1,-0.000581891119222545,-0.0005738276861502812,-0.0030343726637971575,0.005446932257372427,0.9919120931479256
2017-03-15,1,0.00013837939562098584,0.00027250698552282735,-0.0030343726637971575,0.006295641771310235,0.9918858004753673
2017-03-17,1,7.39714165520641e-05,0.00019425104312868204,-0.0018031845983411668,0.005858565106640962,0.9923429409365337
2017-03-21,-1,-0.0005648230413712696,-0.0005498977816359092,0.0011088955654165395,0.008328254432230585,0.9912253134807569
2017-03-23,-1,-0.00026615017394452896,-0.00024440903527340725,-0.0018031845983411668,0.01211462953798204,0.9898506476249631
2017-03-27,1,0.0014422161023036986,0.001867210752933527,-0.0018031845983411668,0.01211462953798204,0.9905032291781267
2017-03-29,1,0.0014613979276133517,0.0017700118041450597,-0.0018031845983411668,0.009315800423339257,0.9909641280125346
2017-03-31,1,0.0006899749996517716,0.0008635747352620239,-0.0018031845983411668,0.009315800423339257,0.9903385125485425
2017-04-04,1,0.0003124955350535162,0.00048264533144257583,-0.0003602158950119076,0.011714482758264694,0.987954512537954
2017-04-06,1,0.0013387641295503458,0.0016662502561990299,-0.0003602158950119076,0.011714482758264694,0.9878282183688013
2017-04-10,1,0.0021016032743954296,0.0025971788783514848,0.0006830757717726983,0.013788391665485348,0.9863477464181406
2017-04-12,1,0.0029765223391488077,0.003619103866196326,-0.0008204371199553352,0.013106393570068518,0.9856623933031933
2017-04-17,1,0.00276517505002533,0.0033097816251783504,-0.00822961418550084,0.013106393570068518,0.9834477552474225
2017-04-19,1,0.0030893017447458193,0.003646410573756624,-0.020408691711296126,0.011487150059792417,0.9821528744632073
2017-04-21,1,0.00325250724744342,0.0038458992719845233,-0.01495218083802075,0.011487150059792417,0.9831815077713205
2017-04-25,1,0.002964791076018502,0.0034401521846035513,-0.01495218083802075,0.011487150059792417,0.9826737385836016
2017-04-27,1,0.003386116078606614,0.0038961911277526767,-0.01495218083802075,0.008806947058782152,0.9824883345550371
2017-05-01,1,0.0022633388415776853,0.002596665607337084,-0.010852779427346897,0.011487150059792417,0.9830714042103601
2017-05-03,1,0.0002539197969528977,0.00028568106528286297,-0.007276983684220367,0.013090944113966316,0.9856504910870446
2017-05-05,1,0.0017150147861176817,0.001969724494813028,-0.007276983684220367,0.010713764595843504,0.9866709811273628
2017-05-09,1,0.0033732793948009106,0.00385451595606944,-0.007462047837221122,0.008636234479102958,0.9875004314221825
2017-05-11,1,0.0022183155455364084,0.0024590126421856627,-0.0063908536946570265,0.008636234479102958,0.9877034001434933
2017-05-15,1,0.0003176903997422968,0.000366167081740178,-0.005624450077276582,0.012244004773488297,0.9885767169304169
2017-05-17,-1,-0.001004731082211287,-0.0008362594208443253,-0.004245934075653381,0.012244004773488297,0.9897527553772967
2017-05-19,-1,-0.0008769562940943865,-0.0006894063353992027,-0.005624450077276582,0.008636234479102958,0.9903834690618395
2017-05-23,-1,-0.001449001493621701,-0.0011789151596759547,-0.005624450077276582,0.008636234479102958,0.9901971803591813
2017-05-25,-1,-0.0019141365662831106,-0.001591657503283454,-0.0023248445851307992,0.011756177167602747,0.989101559643009
2017-05-30,-1,-0.00024273405211619524,-0.00020214569349851484,-0.0011567312073266854,0.009753929422859617,0.9900452658909986
2017-06-01,1,0.0004623229513278972,0.0004957880962479792,-0.0011567312073266854,0.008410393792605888,0.9909704375861661
2017-06-05,1,0.0007211356120893867,0.0007841408168044763,-0.0011156762471976071,0.007555349264161294,0.9910685496387324
2017-06-07,1,0.00023778734840333504,0.00028331106961323435,-0.002218506366672322,0.006826494049886427,0.9900928086826917
2017-06-09,1,0.002216676041465495,0.0025145238240792313,-0.002218506366672322,0.006826494049886427,0.9912039692678111
2017-06-13,1,0.0026708648228475763,0.0029525321373942786,-0.004901525526246001,0.006826494049886427,0.9919611956559136
2017-06-15,1,0.0025895948023981095,0.0028982076188704964,-0.004901525526246001,0.007418964695662089,0.991699223179279
2017-06-19,1,0.0032376384159717763,0.0037496440220826655,-0.003561210251912717,0.007697068095888498,0.9919541414611801
2017-06-21,1,0.0018947166754448685,0.0021429743730685697,-0.0015140242128664882,0.008615572762703218,0.991929403677592
2017-06-23,1,0.003364403037152597,0.003880308249347637,-0.003561210251912717,0.007697068095888498,0.9921675177853326
2017-06-27,1,0.0026821237997433525,0.0030167174096326194,-0.004854241041478361,0.008767701491159935,0.9910976291846078
2017-06-29,1,0.0014883404224768065,0.001503461987236802,-0.008128320548751088,0.008767701491159935,0.9901958173438907
2017-07-03,1,0.0023260817189034748,0.002476010520480983,-0.010087905959283406,0.008767701491159935,0.9896991877879946
2017-07-06,1,0.0018719832012259123,0.0020661276058206775,-0.008128320548751088,0.010719380997799777,0.9899554529922755
2017-07-10,1,0.0023706701698458206,0.0026262447086123596,-0.008128320548751088,0.010719380997799777,0.9900774222993391
2017-07-12,1,0.002159133524559836,0.002384002190932297,-0.00861346287557017,0.012747243315547802,0.9895728455178006
2017-07-14,1,0.001931783265506603,0.0021351645135095467,-0.00861346287557017,0.012747243315547802,0.989725317985464
2017-07-18,1,0.002005183857345967,0.002208478990326257,-0.00861346287557017,0.012747243315547802,0.9895245278350461
2017-07-20,1,0.0023880071184396116,0.0026084725608288275,-0.011805360821010353,0.01189248537652081,0.988852191582769
2017-07-24,1,0.0016648925438156755,0.0017234614079402653,-0.011805360821010353,0.011033301208463851,0.988661605962314
2017-07-26,1,0.002158703696868004,0.002324375893446961,-0.011805360821010353,0.008728092180004414,0.9894992961679056
2017-07-28,1,0.001275907052995723,0.0012947679094384673,-0.010478973829967935,0.012172015651437731,0.9888734463918778
2017-08-01,1,0.0006789948300226293,0.0007709943240648433,-0.007400329190296394,0.012172015651437731,0.9891244922938541
2017-08-03,1,0.001997762394013541,0.0020786009078084273,-0.009996141776783348,0.011033301208463851,0.9899191049483334
2017-08-07,1,0.0026533228491759644,0.002832310746162305,-0.009996141776783348,0.011033301208463851,0.98969687034417
2017-08-09,1,0.00243987844060968,0.002575633592574471,-0.007400329190296394,0.011033301208463851,0.9896943284879384
2017-08-11,1,0.0014767923495279515,0.001492107793093401,-0.005324204587739793,0.011760049301280736,0.9900384303023245
2017-08-15,1,0.001661467043076978,0.0016826659625702785,-0.004196661755693146,0.011092607687927133,0.9906594757605395
2017-08-17,1,0.0013299590279905286,0.0013437553830257087,-0.004196661755693146,0.010401048630883678,0.9910697400786507
2017-08-21,1,0.0008822511434356942,0.0008926822412140663,-0.0031120905397720748,0.010401048630883678,0.9910904555111469
2017-08-23,1,0.0006711171195652632,0.0007438063591299572,-0.004196661755693146,0.010401048630883678,0.9909303130537817
2017-08-25,1,0.0012151315296553594,0.0012803202112341133,-0.0050924446582311395,0.005711901837582882,0.9916808054392074
2017-08-29,1,0.0017110359863851997,0.0017483000080068813,-0.004393111386882504,0.007998257646592014,0.9905214731045517
2017-08-31,1,0.001395409304191686,0.0013994958645622032,-0.004393111386882504,0.007998257646592014,0.9896530849065265
2017-09-05,1,0.0021348826676083053,0.002255720674035348,-0.007623221882911424,0.007998257646592014,0.9878554473996485
2017-09-07,1,0.0028505359195099304,0.003079369528619349,-0.007762587953840798,0.0062649552334799515,0.9885303097906543
2017-09-11,1,0.003428137541873873,0.0037626040979716804,-0.010625020158103954,0.003582005638607227,0.9880319698302452
2017-09-13,1,0.0036300646167473603,0.003984843073799179,-0.010625020158103954,0.003112213941332505,0.9873026008804519
2017-09-15,1,0.003114272438868274,0.003421803177404942,-0.006821759047792764,0.0031148240402740068,0.9884509003992059
2017-09-19,1,0.0025169995278646103,0.0027822702884334792,-0.010042111327738275,0.0031148240402740068,0.9885771819870112
2017-09-21,1,0.00152598330592161,0.001597769486703168,-0.010042111327738275,0.004125264702557979,0.9892027010943251
2017-09-25,-1,-0.0003030290733247497,-5.658302524175034e-05,-0.010042111327738275,0.007463602848601282,0.9880714869340496
2017-09-27,1,0.0018239155916275267,0.0019018051796605324,-0.011906785913931045,0.004125264702557979,0.9884287609348532
2017-09-29,1,0.0017678911713787414,0.001936143280435078,-0.011623486061712231,0.002448267794642891,0.989391410926454
2017-10-03,1,0.0004183616918392391,0.0004469694867307049,-0.010042111327738275,0.002448267794642891,0.9917998488991148
