JNU-Tangyin/eata/results/Batch4_SP500/Batch4_SP500-YUM.csv
Date,Action,Predicted_Q25,Predicted_Q75,Actual_Q25,Actual_Q75,RL_Reward
2010-12-14,0,0.0,0.0,-0.0058490987895378245,0.005318581317822637,0.9940012734567197
2010-12-16,1,0.0005108863224563225,0.0007048094116573172,-0.006005417297772207,0.00224969136079076,0.993482344324729
2010-12-20,-1,-0.0005961581085298605,-0.00023012992527455004,-0.0058490987895378245,0.005318581317822637,0.9925963541238932
2010-12-22,1,6.318633732444237e-05,0.0003211338338330761,-0.0067413826085888145,0.00224969136079076,0.99193921270072
2010-12-27,0,0.0,0.0,-0.006271591366022548,0.00224969136079076,0.9920736852729476
2010-12-29,0,0.0,0.0,-0.006271591366022548,0.0009649897458710232,0.9923105528933024
2010-12-31,1,0.0003985245122768893,0.00045810891660368156,-0.0067413826085888145,0.00224969136079076,0.9912344748375831
2011-01-04,-1,-0.003374625946871791,-0.002622153833304491,-0.006271591366022548,0.006652971112742533,0.9913520629485083
2011-01-06,0,0.0,0.0,-0.006271591366022548,0.006842598852885502,0.9899875665589952
2011-01-10,0,0.0,0.0,-0.006271591366022548,0.004518936349571871,0.9903802851921544
2011-01-12,-1,-0.0009918297376921097,-0.0007262929978580722,-0.005367698929392282,0.005270615223181941,0.9905408882355708
2011-01-14,-1,-0.004754892386909565,-0.003884543718186826,-0.004024011779815941,0.006842598852885502,0.9900132149107268
2011-01-19,-1,-0.0029468722131258686,-0.0023239120078298913,-0.004024011779815941,0.007956187302465273,0.9912961429695701
2011-01-21,0,0.0,0.0,-0.0023031826390557024,0.007956187302465273,0.9925134143064523
2011-01-25,0,0.0,0.0,-0.00384789755288824,0.007956187302465273,0.9910107410097133
2011-01-27,0,0.0,0.0,-1.3415663060482516e-06,0.008629191429772358,0.9906949410125778
2011-01-31,0,0.0,0.0,-1.3415663060482516e-06,0.008629191429772358,0.9915214549032833
2011-02-02,0,0.0,0.0,-0.00238294737878594,0.008629191429772358,0.9909997678729726
2011-02-04,0,0.0,0.0,-0.0029347316128905906,0.006936202676869334,0.9921884713987558
2011-02-08,-1,-0.0011264358419389084,-0.001091983313068637,-0.0029347316128905906,0.00909775359296364,0.9904197782238917
2011-02-10,-1,-0.00030647332635892483,-0.00018904247979044175,-0.004342582180342412,0.00909775359296364,0.9906115878728351
2011-02-14,0,-5.9920121496940366e-05,4.4620887124030095e-05,-0.007829416872952839,0.008629191429772358,0.9897022988137317
2011-02-16,1,0.00027751954176867744,0.0003414504721280855,-0.007829416872952839,0.006189111871490696,0.9903051708401917
2011-02-18,1,0.00013332538442328645,0.000218336759345253,-0.007829416872952839,0.006189111871490696,0.9904749326158256
2011-02-23,0,0.0,0.0,-0.005687153688716478,0.006189111871490696,0.9915772162247158
2011-02-25,-1,-0.002309773386932662,-0.002115582273817287,-0.005687153688716478,0.006189111871490696,0.9912235915342309
2011-03-01,-1,-0.0006233170670769464,-0.0004758107794803658,-0.005615897139574049,0.005514508167207954,0.9918245940846673
2011-03-03,1,0.00019676043683801274,0.00024039571411912448,-0.005523039326002776,0.005514508167207954,0.9925619211133259
2011-03-07,-1,-0.0001339641532915743,-9.900483224669638e-05,-0.00685875490218401,0.005004756503977013,0.9924598497336983
2011-03-09,1,0.0010960317536213586,0.0012364525171569484,-0.0074505673642049144,0.0030036965814817644,0.9929528707771471
2011-03-11,1,0.001021710454754737,0.001145360481825573,-0.008870525932426397,0.0029110651494086955,0.9925705664033193
2011-03-15,-1,-0.0002361799047599627,-0.0002042755411288486,-0.00685875490218401,0.003653662489069407,0.9938357675364285
2011-03-17,1,0.00011132661929761053,0.00016728473501195304,-0.00685875490218401,0.005004756503977013,0.9932844131580718
2011-03-21,1,0.0002171993174917266,0.0002924430528697539,-0.0074505673642049144,0.00595123185313445,0.9923908896773912
2011-03-23,1,8.433193543721506e-05,0.00012237909935438243,-0.00685875490218401,0.008456979209421168,0.9919194816369857
2011-03-25,0,-3.3436563347780395e-05,6.4138152285035e-05,-0.007449926943681663,0.008456979209421168,0.9903639097314599
2011-03-29,0,0.0,0.0,-0.008868604670856643,0.008456979209421168,0.9897718469321226
2011-03-31,0,0.0,0.0,-0.008868604670856643,0.010125736351305824,0.9892667007882305
2011-04-04,1,0.005733731904033253,0.006103315794846694,-0.004054424346763248,0.010125736351305824,0.9898940404270453
2011-04-06,0,0.0,0.0,-0.004623653080485077,0.010125736351305824,0.9895908364419508
2011-04-08,0,0.0,0.0,-0.002799734458247216,0.010842650635068065,0.9894163789496196
2011-04-12,0,0.0,0.0,-0.0038477722104047147,0.010842650635068065,0.9891641692845274
2011-04-14,0,0.0,0.0,-0.0038477722104047147,0.010125736351305824,0.9897257500482005
2011-04-18,0,0.0,0.0,-0.0038477722104047147,0.010281565526570294,0.9896383241494544
2011-04-20,0,0.0,0.0,-0.0038477722104047147,0.011306138984491594,0.9889674816434015
2011-04-25,0,0.0,0.0,-0.005859413269479949,0.010281565526570294,0.9906104662066401
2011-04-27,0,0.0,0.0,-0.0038477722104047147,0.010281565526570294,0.9913740786424826
2011-04-29,1,0.0007560870063460296,0.0009468254221344298,-0.005859413269479949,0.009073128797206311,0.9920792404290797
2011-05-03,1,0.0010047467209039248,0.0012577459771554373,-0.00768844173518139,0.0079772697701692,0.9917091730397792
2011-05-05,1,0.0004908930272217333,0.0006739437631259757,-0.005859413269479949,0.0079772697701692,0.9922949092454436
2011-05-09,1,0.0009154240445152718,0.0011183156457802998,-0.00768844173518139,0.0040723450551869555,0.9924718675344122
2011-05-11,1,0.0012549290523580009,0.001534981669415712,-0.008479658892409305,0.0034995851674994973,0.992558550059601
2011-05-13,1,0.0011984380873795051,0.0014443347832248474,-0.010166044997734103,0.003908583797470293,0.9916183371735497
2011-05-17,1,0.0013678062669494943,0.0016684250826374068,-0.008479658892409305,0.003908583797470293,0.9919980772465348
2011-05-19,1,0.0020031848525541244,0.002362889462857418,-0.008479658892409305,0.003908583797470293,0.9929824230406601
2011-05-23,1,0.0013310235240823424,0.0016031884857713678,-0.006037163966225613,0.004519906315558241,0.9929322360134982
2011-05-25,1,0.0012024405997242802,0.0014352150781206116,-0.010166044997734103,0.004519906315558241,0.9921130900212033
2011-05-27,0,0.0,0.0,-0.010015652505972987,0.0055956173240237425,0.9918223412750713
2011-06-01,0,0.0,0.0,-0.007139060197739198,0.007362500565519821,0.9917009183239125
2011-06-03,0,0.0,0.0,-0.007139060197739198,0.008152774921017262,0.9904397087020895
2011-06-07,0,0.0,0.0,-0.006645990455901841,0.008152774921017262,0.9906526378124149
2011-06-09,0,0.0,0.0,-0.006645990455901841,0.008152774921017262,0.9908085334108649
2011-06-13,-1,-0.0005075443533052521,-0.0004912952418437782,-0.005335884378645855,0.008152774921017262,0.9915180609245476
2011-06-15,-1,-0.0003351757565673277,-0.00029031797306158064,-0.005335884378645855,0.008152774921017262,0.9914488018419775
2011-06-17,1,1.861242265325856e-05,3.063854282042877e-05,-0.008456235397284954,0.0073531454697572055,0.990817986316777
2011-06-21,1,0.00019462656402572152,0.0002037052293812283,-0.010053489550797559,0.005823135121057881,0.9908334123031748
2011-06-23,0,0.0,0.0,-0.008456235397284954,0.005823135121057881,0.9916314473457644
2011-06-27,-1,-0.0006516469731997735,-0.0005421704667764219,-0.008456235397284954,0.0036212571474893577,0.9920057260124705
2011-06-29,1,7.131407416835237e-05,7.801061632931586e-05,-0.010452404056607427,0.003544209164200805,0.9914081650519431
2011-07-01,0,0.0,0.0,-0.010452404056607427,0.0027292675032292643,0.99248604627328
2011-07-06,1,0.0007591333208036601,0.0008515837286923007,-0.012261662215704449,0.0027292675032292643,0.9912931467177469
2011-07-08,1,0.0005179071310080219,0.0006010732302867774,-0.013040650329158526,0.003544209164200805,0.9909183812233209
2011-07-12,1,0.0006119332782497139,0.0006887090439512953,-0.013749464245913525,0.005420658688048733,0.9859461879049389
2011-07-14,1,0.0011389587421476836,0.0012844047279206062,-0.014963468956211637,0.003544209164200805,0.9816795245358874
2011-07-18,-1,-0.000471427750260127,-0.00031176835050834525,-0.013749464245913525,0.005134120092452369,0.982766431014146
2011-07-20,-1,-0.0006002046200208753,-0.00044870415692308956,-0.013040650329158526,0.005134120092452369,0.9829263180278183
2011-07-22,-1,-0.0005602485738470913,-0.00040142727813364214,-0.016221372355537556,0.005526429305911901,0.9804447237095381
2011-07-26,0,0.0,0.0,-0.01588468749257301,0.007215322481531759,0.9789206470517564
2011-07-28,0,0.0,0.0,-0.016011121721464374,0.010089708785907167,0.9778358499482412
2011-08-01,0,0.0,0.0,-0.016011121721464374,0.021201393399520208,0.976016753811848
2011-08-03,0,0.0,0.0,-0.011517018512143743,0.021201393399520208,0.977277080656978
2011-08-05,0,0.0,0.0,-0.01385595153366963,0.021201393399520208,0.976677219601079
2011-08-09,0,0.0,0.0,-0.009934655870005603,0.021201393399520208,0.9806629939154274
2011-08-11,1,0.6707589925364243,0.6707729044407732,-0.009934655870005603,0.013321391159501442,0.5986328622994415
2011-08-15,-1,-0.0027191246673914744,-0.0023226081151798326,-0.009934655870005603,0.013321391159501442,0.9831776796500119
2011-08-17,-1,-0.0017927433533669718,-0.0015633196223925725,-0.008108711114010746,0.020489458024104477,0.9826263574313787
2011-08-19,0,0.0,0.0,-0.003757795900332232,0.020489458024104477,0.9847459745682681
2011-08-23,0,0.0,0.0,-0.008108711114010746,0.01793489381531739,0.9849339543853881
2011-08-25,0,0.0,0.0,-0.008108711114010746,0.014424100421686337,0.9853783950738608
2011-08-29,0,0.0,0.0,-0.008108711114010746,0.013765147981713015,0.9859206450277566
2011-08-31,0,0.0,0.0,-0.01667484670679943,0.013765147981713015,0.9827429686046902
2011-09-02,0,0.0,0.0,-0.01586183527917956,0.013765147981713015,0.9832158587784776
2011-09-07,0,0.0,0.0,-0.02094882433189901,0.013765147981713015,0.9822176640735242
2011-09-09,-1,-0.03162078194047975,-0.028409298396891783,-0.01586183527917956,0.015107572160840682,0.970133592354584
2011-09-13,0,0.0,0.0,-0.01586183527917956,0.01846029589314676,0.9810476037945998
2011-09-15,0,0.0,0.0,-0.017046026657526477,0.01846029589314676,0.980072003657496
2011-09-19,0,0.0,0.0,-0.019116817437639155,0.01846029589314676,0.979712304177189
2011-09-21,0,0.0,0.0,-0.017046026657526477,0.019548412928661045,0.9799797057561318
2011-09-23,0,0.0,0.0,-0.015199808025979141,0.020947949904855115,0.9801166456485473
2011-09-27,0,0.0,0.0,-0.015199808025979141,0.020947949904855115,0.9808779626536712
2011-09-29,0,0.0,0.0,-0.01199281528563732,0.02315514113228391,0.9829609970249583
2011-10-03,-1,-0.001268046200328482,-0.0011394712516620575,-0.010841725351750169,0.02315514113228391,0.9833615985429378
2011-10-05,0,0.0,0.0,-0.010841725351750169,0.02315514113228391,0.9842313502729958
2011-10-07,0,0.0,0.0,-0.010841725351750169,0.0200629987944276,0.9846730221052185
2011-10-11,0,0.0,0.0,-0.010841725351750169,0.017134960378194224,0.9857708136260879
2011-10-13,0,0.0,0.0,-0.010841725351750169,0.013217350038015083,0.9872953487038024
2011-10-17,-1,-0.0021426208119115072,-0.001979718245371282,-0.009620062039199578,0.017134960378194224,0.9871792061084671
2011-10-19,0,0.0,0.0,-0.009620062039199578,0.013217350038015083,0.9880651439769088
2011-10-21,0,0.0,0.0,-0.010841725351750169,0.010564582173040385,0.9893475386381078
2011-10-25,0,0.0,0.0,-0.009620062039199578,0.013217350038015083,0.9889188477811613
2011-10-27,-1,-0.0022825626275687484,-0.0021784986822123674,-0.011199503286884129,0.010564582173040385,0.9890193304549365
2011-10-31,-1,-0.0024713318837308353,-0.0023193183501961324,-0.010291365687425787,0.013217350038015083,0.9873126897988037
2011-11-02,0,0.0,0.0,-0.008816714592290142,0.017134960378194224,0.9875888397197521
2011-11-04,0,0.0,0.0,-0.008816714592290142,0.015776229806370317,0.9876966894550123
2011-11-08,0,0.0,0.0,-0.008816714592290142,0.012629203511686218,0.9883937854637448
2011-11-10,0,0.0,0.0,-0.008728375627472747,0.012629203511686218,0.9883389859896404
2011-11-14,0,0.0,0.0,-0.008728375627472747,0.012629203511686218,0.9883427890531036
2011-11-16,0,0.0,0.0,-0.008728375627472747,0.012629203511686218,0.9883864357601126
2011-11-18,0,0.0,0.0,-0.007038014150471665,0.012629203511686218,0.9888410977739392
2011-11-22,0,0.0,0.0,-0.0034623048873781135,0.0120642798622481,0.9893796863195377
2011-11-25,0,0.0,0.0,-0.000746831667943202,0.0120642798622481,0.9904199796782537
2011-11-29,0,0.0,0.0,-0.0010749751787431628,0.011185902231338652,0.99194123384672
2011-12-01,0,0.0,0.0,-0.002648933651590909,0.01036995381809971,0.992220363766405
2011-12-05,0,0.0,0.0,-0.005911350290906062,0.008674758252725016,0.9922872214930065
2011-12-07,1,0.0002917591384052707,0.0005933542573594996,-0.005911350290906062,0.0077670342732596535,0.9925834589270864
2011-12-09,1,0.0029924917602494727,0.00361254949744741,-0.004231282573072041,0.007335224715592464,0.9934266938222547
2011-12-13,1,0.0034294721613992753,0.004117869641867437,-0.002260577394429665,0.007335224715592464,0.9940367276813589
2011-12-15,0,0.0,0.0,-0.00117192729934429,0.008266448164696946,0.9933522001827371
2011-12-19,0,0.0,0.0,-0.0014967074047888581,0.010324512406154632,0.9928461414668683
2011-12-21,1,0.0026251538901638314,0.0030463501199663075,-0.0031144758418174996,0.008266448164696946,0.9939029566843445
2011-12-23,1,0.0021434331644481094,0.0025848792337978856,-0.0031144758418174996,0.007335224715592464,0.9941490775035416
2011-12-28,1,0.002047397632226503,0.0024895988919935727,-0.002793131531162445,0.007335224715592464,0.9942059886529585
2011-12-30,1,0.0019039731123990675,0.0023648917987306806,-0.002793131531162445,0.007335224715592464,0.9942536682832303
2012-01-04,1,0.0024217563906001652,0.003007329475702667,-0.002793131531162445,0.008417960643814682,0.9941098946854265
2012-01-06,1,0.0025974571024273132,0.0031840631357955814,-0.0031144758418174996,0.007349229157566654,0.9938345817220552
2012-01-10,1,0.0025940475309459933,0.003182002635793709,-0.0031144758418174996,0.011194643020135507,0.9927234786982306
2012-01-12,1,0.0020782417124265273,0.002522150647335192,-0.0031144758418174996,0.008164911793264973,0.9930315176397434
2012-01-17,0,0.0,0.0,-0.003894926330205213,0.00640024231365289,0.9931729987508123
2012-01-19,0,0.0,0.0,-0.004421892268311713,0.00640024231365289,0.9929540322156625
2012-01-23,1,0.0049831673230167055,0.005573420430358756,-0.004421892268311713,0.00747849668618472,0.9922669089229768
2012-01-25,0,0.0,0.0,-0.004421892268311713,0.00747849668618472,0.9924903495569695
2012-01-27,0,0.0,0.0,-0.004677986005034448,0.00747849668618472,0.9926836969102014
2012-01-31,0,0.0,0.0,-0.004149144669843563,0.006403542554111871,0.9930955740103421
2012-02-02,0,0.0,0.0,-0.0029801586530532756,0.006102687321708402,0.9940358646291256
2012-02-06,0,0.0,0.0,-0.0029801586530532756,0.006102687321708402,0.9938407462457589
2012-02-08,1,0.0016441727647514002,0.002090867481369036,-0.0025082963672919236,0.006384390077839241,0.9946020119780751
2012-02-10,0,0.0,0.0,-0.0028695035132528263,0.0061475569416740514,0.9941454339491591
2012-02-14,0,0.0,0.0,-0.0004920544225226429,0.00650642312959793,0.9934647899102056
2012-02-16,0,0.0,0.0,-0.0004920544225226429,0.0061475569416740514,0.9942756041426695
2012-02-21,0,0.0,0.0,-0.0004920544225226429,0.00650642312959793,0.9935625283222882
2012-02-23,1,0.002557885281204684,0.0026124209622091187,-0.001028024181279866,0.00782497713063001,0.9931739319768137
2012-02-27,0,0.0,0.0,-0.0005093140107372358,0.01006811697028143,0.9927660806174334
2012-02-29,0,0.0,0.0,-0.003137938933278269,0.01006811697028143,0.9925568306995809
2012-03-02,0,0.0,0.0,-0.003137938933278269,0.011354199977918056,0.9918863692196165
2012-03-06,1,0.0011164757863274693,0.0011280200106043173,-0.003137938933278269,0.011354199977918056,0.9913340075653494
2012-03-08,1,0.0015989655393056131,0.0016676138013287834,-0.0034371946113706977,0.01043836819915018,0.9914437013030941
2012-03-12,1,0.0009330924887950165,0.00099273084614427,-0.005395987658639739,0.01043836819915018,0.9905282926592385
2012-03-14,1,0.0015216819450219144,0.001538400979106059,-0.005395987658639739,0.010961371510028012,0.990085716060245
2012-03-16,1,0.0017994042221351305,0.0018765676790317406,-0.00857723161879825,0.011354199977918056,0.9886538457776879
2012-03-20,1,0.0019825267837554543,0.0020647349006662156,-0.00857723161879825,0.011354199977918056,0.988940927003963
2012-03-22,1,0.002256559124016899,0.0023538384405091387,-0.009299554521758707,0.011659242656986472,0.9869352445645483
2012-03-26,1,0.0020389768052786997,0.0020839702917569143,-0.010085166718666947,0.011295569010607374,0.9862227556836703
2012-03-28,1,0.0014829041016452883,0.0015073030532202123,-0.009299554521758707,0.011295569010607374,0.9868873799129079
2012-03-30,1,0.0017613135481729198,0.0017835491936398498,-0.009299554521758707,0.010317143650357147,0.9868998150798067
2012-04-03,1,0.001866548899232585,0.0019291299892523076,-0.00857723161879825,0.010948755893554114,0.9877652744064999
2012-04-05,1,0.0015583060179525812,0.0015657932191995795,-0.010167001528140231,0.010948755893554114,0.9867386385726443
2012-04-10,1,0.0006096892516428624,0.0007101400654732143,-0.008128239697737561,0.011708517523148203,0.9871506860963811
2012-04-12,1,0.0011522017066531883,0.0012183538316523149,-0.009230493274856245,0.011708517523148203,0.9871912996075299
2012-04-16,1,0.0012297472391509853,0.0013083889503640038,-0.013623654817530771,0.008113485967468175,0.9874573630262798
2012-04-18,0,0.0,0.0,-0.013623654817530771,0.00618944351440826,0.9879175555494778
2012-04-20,0,0.0,0.0,-0.013623654817530771,0.005560282553377918,0.9887657317897822
2012-04-24,0,0.0,0.0,-0.009456772293253262,0.008113485967468175,0.9876994605214487
2012-04-26,1,1.001951709472004,1.0020473223871575,-0.009456772293253262,0.007243142422089375,0.49911183930587455
2012-04-30,1,0.0021012932436692516,0.0021605820024965805,-0.009456772293253262,0.01172113388111306,0.9877250633780118
2012-05-02,1,0.002621500907431773,0.002651021791981588,-0.012875676380820785,0.007350647166786839,0.9870897003075602
2012-05-04,0,0.0,0.0,-0.010526940203245124,0.007350647166786839,0.984985213417809
2012-05-08,0,0.0,0.0,-0.010526940203245124,0.007350647166786839,0.9843152810081619
2012-05-10,0,-0.00014278619137725757,0.0002039844080351953,-0.010526940203245124,0.004935221689869325,0.9844456197710154
2012-05-14,-1,-0.0011559436164162013,-0.0008157461592270273,-0.010526940203245124,0.003596492334473579,0.9850294976821338
2012-05-16,0,0.0,0.0,-0.011580623576318574,0.006105407027046364,0.9834921398206945
2012-05-18,0,0.0,0.0,-0.007967983094999114,0.013218301867766636,0.9843434631220699
2012-05-22,0,0.0,0.0,-0.011350892935334447,0.009751956145014905,0.9847086155583553
2012-05-24,0,0.0,0.0,-0.015396988187843984,0.013218301867766636,0.9832788902314789
2012-05-29,-1,-0.00043256173328943127,-0.0002544861169697929,-0.015396988187843984,0.009751956145014905,0.9834348601930261
2012-05-31,0,0.0,0.0,-0.013301469140407602,0.009751956145014905,0.9830033412511584
2012-06-04,0,0.0,0.0,-0.012359093891044115,0.009751956145014905,0.9865000149900115
2012-06-06,0,0.0,0.0,-0.012359093891044115,0.009751956145014905,0.9866173217746079
2012-06-08,0,0.0,0.0,-0.012359093891044115,0.009751956145014905,0.9870135751905269
2012-06-12,0,0.0,0.0,-0.012359093891044115,0.009751956145014905,0.9867396115977699
2012-06-14,-1,-0.0039043540512152756,-0.003235788196854281,-0.012359093891044115,0.013577689990050712,0.9866276824329633
2012-06-18,-1,-0.0016490057707120305,-0.0013741935577041636,-0.012359093891044115,0.01045179234600584,0.9868164005581617
2012-06-20,-1,-0.0036494430636914285,-0.003061196815508322,-0.0119762529486639,0.01045179234600584,0.9875512188047588
2012-06-22,0,0.0,0.0,-0.012359093891044115,0.006407109274769594,0.9869253229443761
2012-06-26,-1,-0.0026254131123330873,-0.002226863057305686,-0.012083068208845924,0.009209224904157749,0.9872202718874876
2012-06-28,-1,-0.003383546190147124,-0.002874578229493577,-0.010851165077059126,0.018076579350336446,0.9854737416878525
2012-07-02,-1,-0.003034717530764467,-0.002588046439605515,-0.012367478734000036,0.018076579350336446,0.9851246466985739
2012-07-05,-1,-0.002314995731089042,-0.0019590886126120447,-0.011334399423127991,0.017203525260151356,0.9858170594710489
2012-07-09,-1,-0.0034977986932858483,-0.002994679569852276,-0.007589673826520727,0.018076579350336446,0.9855544680960852
2012-07-11,-1,-0.003956531518740425,-0.0034211694393411407,-0.0062518926483365956,0.018076579350336446,0.9860982086955649
2012-07-13,-1,-0.0021595974810774913,-0.0018437147270657125,-0.0062518926483365956,0.013222240229302365,0.9880805937289738
2012-07-17,-1,-0.0024407404347316945,-0.002103824617332408,-0.0062518926483365956,0.013222240229302365,0.9882592845000526
2012-07-19,-1,-0.0014482778003882613,-0.0012195348446075063,-0.0062518926483365956,0.005605144827617076,0.98900015791884
2012-07-23,-1,-0.003018789677428908,-0.0026231447958375417,-0.0053881053609284,0.005605144827617076,0.9903538262448937
2012-07-25,-1,-0.0027125478064349744,-0.002349714060420837,-0.0050297374225298785,0.00422851557102749,0.9906549685504343
2012-07-27,-1,-0.0011989378744543984,-0.0009955956423175014,-0.008297105845230909,0.0023968401297788725,0.992291991209304
2012-07-31,-1,-0.0019080060242310356,-0.00166513123007157,-0.0059366264595426535,0.0023968401297788725,0.9936540052752312
2012-08-02,-1,-0.0013329796008723588,-0.0011458198367601598,-0.008035770002749607,0.0019348256148291288,0.9940655727545806
2012-08-06,-1,-0.00043167050850367926,-0.00039121796203658995,-0.008712048020941665,0.0019348256148291288,0.994529970920036
2012-08-08,-1,-0.0007033262446989655,-0.0006253130480089507,-0.008712048020941665,0.003349601167109461,0.9941587073639969
2012-08-10,0,-2.066904776134741e-05,3.894102080075147e-05,-0.008712048020941665,0.005690359302443791,0.9927171798119088
2012-08-14,-1,-7.113057706798308e-05,-1.4259235796536376e-05,-0.006074940518112906,0.005731972603973034,0.9927731551021852
2012-08-16,0,-3.083014811476546e-05,4.886109015537758e-05,-0.008712048020941665,0.005906707307386674,0.9924257545939311
2012-08-20,-1,-0.0006797814810487159,-0.0006525848806251008,-0.005656901138520999,0.005906707307386674,0.9928570039567354
2012-08-22,-1,-0.0003287988795418296,-0.0002901684630861346,-0.0037553556522827796,0.005906707307386674,0.9924035690909432
2012-08-24,0,0.0,0.0,-0.0018359994303654378,0.005906707307386674,0.9929314065372051
2012-08-28,0,0.0,0.0,-0.003044962471458178,0.005906707307386674,0.9918941285247543
2012-08-30,0,0.0,0.0,-0.003044962471458178,0.0074381802551434445,0.9906597839430427
2012-09-04,0,0.0,0.0,-0.003044962471458178,0.011086460030842273,0.9900040398542246
2012-09-06,0,0.0,0.0,-0.003044962471458178,0.0074381802551434445,0.9907983131004083
2012-09-10,0,0.0,0.0,-0.0048325140798301915,0.0074381802551434445,0.991315305746181
2012-09-12,0,0.0,0.0,-0.0077209415247200775,0.008276883065799472,0.9875650782918287
2012-09-14,0,0.0,0.0,-0.008664379175231211,0.007541114397767543,0.9872805648399663
2012-09-18,0,0.0,0.0,-0.008664379175231211,0.014498637098653934,0.986442822955457
2012-09-20,1,0.001645213385008534,0.0020764187691064947,-0.008664379175231211,0.011339147295914422,0.9867667856252077
2012-09-24,1,0.0020046264913674474,0.0024638227308607314,-0.013680551536026651,0.011339147295914422,0.985633164092304
2012-09-26,1,0.0007479784985233425,0.0010493623032097478,-0.008664379175231211,0.011339147295914422,0.9868534035104073
2012-09-28,1,0.0014207711027303426,0.0017877119908180606,-0.006915752127174145,0.0068211817115879135,0.9881409424578672
2012-10-02,1,0.0011918057415498296,0.001510474463349972,-0.004814766648193845,0.0068211817115879135,0.9877612230817453
2012-10-04,1,0.0007147150642456306,0.0009737060898524568,-0.006915752127174145,0.0068211817115879135,0.9872132796276556
2012-10-08,1,0.0013379497754001613,0.001654317618783948,-0.007551220236221935,0.0068211817115879135,0.9869137576869349
2012-10-10,1,0.0019379689866080704,0.0022655946499998423,-0.007551220236221935,0.0068211817115879135,0.9901379191270162
2012-10-12,1,0.0010153487670651346,0.0013547421391044224,-0.002956308801764852,0.010522732125486753,0.9907475323580963
2012-10-16,1,0.0019045903625989637,0.0023648789949551738,-0.0055019397857921865,0.0068211817115879135,0.9904947733348898
2012-10-18,1,0.002791191105650301,0.003369534209997558,-0.0055019397857921865,0.010970906644909658,0.989632283005348
2012-10-22,0,0.0,0.0,-0.0055019397857921865,0.011149378301735251,0.9896373492402558
2012-10-24,0,0.0,0.0,-0.006153175500842158,0.011149378301735251,0.9892611758370938
2012-10-26,1,0.001531035525402266,0.0017622402042731327,-0.006153175500842158,0.011149378301735251,0.9898713935223331
2012-11-01,1,0.0014642817792161157,0.0017672410067869422,-0.00978328240641138,0.010970906644909658,0.9865540158142865
2012-11-05,0,0.0,0.0,-0.01089221007831593,0.010970906644909658,0.9859968092572614
2012-11-07,1,0.0013251977689538895,0.0014449438147735461,-0.0063237182582365796,0.010970906644909658,0.986719121649953
2012-11-09,1,0.0016816921154576684,0.0018630648269867514,-0.00606619926003038,0.00862941046866891,0.9871188869563821
2012-11-13,0,0.0,0.0,-0.00606619926003038,0.00862941046866891,0.9867959017549163
2012-11-15,0,0.0,0.0,-0.004492417924378869,0.00862941046866891,0.9876771639019383
2012-11-19,0,0.0,0.0,-0.004492417924378869,0.006756358294422776,0.9883282363784819
2012-11-21,0,0.0,0.0,-0.00606619926003038,0.003372078014967375,0.9878929990235675
2012-11-26,0,0.0,0.0,-0.009442663403121236,0.003736480035206077,0.9856752336224653
2012-11-28,0,0.0,0.0,-0.009442663403121236,0.006805562375543847,0.9855105454435082
2012-11-30,0,0.0,0.0,-0.009442663403121236,0.008712683259666485,0.9889128971401671
2012-12-04,0,0.0,0.0,-0.0028818278604851233,0.012453819715867797,0.9889177319118396
2012-12-06,1,0.0011177930704002101,0.001279646642334767,-0.007036664691520551,0.011073963471181199,0.9890836692893161
2012-12-10,1,0.0004191893434811726,0.0004421682501091548,-0.007214493408871944,0.011073963471181199,0.9872091425089706
2012-12-12,1,0.0012883554152482294,0.0014898282398132109,-0.007214493408871944,0.011073963471181199,0.9868863330996152
2012-12-14,1,0.0004043849124478573,0.0004211758397920585,-0.010173917959606281,0.011073963471181199,0.9861538467515079
2012-12-18,0,0.0,0.0,-0.010173917959606281,0.009756408464780124,0.9862439347764619
2012-12-20,0,0.0,0.0,-0.006831021456712306,0.009756408464780124,0.9877722369815088
2012-12-24,0,0.0,0.0,-0.006302495411803611,0.009756408464780124,0.9897348281106724
2012-12-27,0,0.0,0.0,-0.006831021456712306,0.009756408464780124,0.9887459628341152
2012-12-31,0,0.0,0.0,-0.006302495411803611,0.007029922974679613,0.9903049693492514
2013-01-03,0,0.0,0.0,-0.006302495411803611,0.009743057524174101,0.9898911852490264
2013-01-07,-1,-0.0008887649774316118,-0.0007621239882887525,-0.008946515637831942,0.005630066128297826,0.987961716500004
2013-01-09,-1,-0.0011075408222884632,-0.0009525308547139218,-0.006831021456712306,0.010351704776254429,0.9888220604595899
2013-01-11,0,0.0,0.0,-0.008946515637831942,0.010351704776254429,0.9885305778968895
2013-01-15,-1,-0.0003176765935450737,-0.00026464181946958293,-0.006831021456712306,0.010351704776254429,0.9888385885799283
2013-01-17,0,0.0,0.0,-0.006082420010747868,0.010351704776254429,0.9890572243071576
2013-01-22,0,0.0,0.0,-0.008318966002663046,0.01127403489593535,0.9880207870151225
2013-01-24,0,0.0,0.0,-0.008318966002663046,0.010351704776254429,0.988169902573023
2013-01-28,0,0.0,0.0,-0.008318966002663046,0.010351704776254429,0.9888522172743336
2013-01-30,0,0.0,0.0,-0.008318966002663046,0.010351704776254429,0.988658028727047
2013-02-01,1,0.00010224406068318198,0.00021329924069403108,-0.008318966002663046,0.007657780450810196,0.989625884332885
2013-02-05,0,0.0,0.0,-0.004405251965260326,0.009442973576120194,0.9913742709296466
2013-02-07,0,0.0,0.0,-0.004405251965260326,0.007657780450810196,0.991954069675969
2013-02-11,0,0.0,0.0,0.00011631673378652979,0.007657780450810196,0.9931267969636357
2013-02-13,0,0.0,0.0,0.0015562954982591246,0.008151608528745925,0.9927382804119522
2013-02-15,0,0.0,0.0,0.0017113951915006778,0.008151608528745925,0.9922014938723243
2013-02-20,0,0.0,0.0,0.0017113951915006778,0.008111680619675586,0.9929115919602698
2013-02-22,0,0.0,0.0,0.0011831620154546605,0.008111680619675586,0.9934187678485775
2013-02-26,-1,-0.0005013245981661874,-0.00036875304200209965,0.0017113951915006778,0.008901062561950328,0.9928019975743563
2013-02-28,-1,-0.0007867584769148459,-0.000610807681311502,0.0026578806422658365,0.008901062561950328,0.9925204480186531
2013-03-04,0,0.0,0.0,0.001365014908244639,0.008901062561950328,0.9921223087530845
2013-03-06,0,0.0,0.0,-0.0008686984605554688,0.007580631817179365,0.9912303007997186
2013-03-08,1,0.0011413857565103725,0.0013624584787687174,-0.00560598277065006,0.007580631817179365,0.9914952073921102
2013-03-12,1,0.00148058666190587,0.0015123740588285414,-0.008690994833738527,0.006151776981089344,0.9915009468445082
2013-03-14,0,0.0,0.0,-0.008690994833738527,0.006109375493903578,0.991358411900369
2013-03-18,0,0.0,0.0,-0.008690994833738527,0.007399711247812997,0.9906681245449658
2013-03-20,0,0.0,0.0,-0.010832785398899846,0.006109375493903578,0.9900744645192285
2013-03-22,0,0.0,0.0,-0.010832785398899846,0.006109375493903578,0.9900478681186481
2013-03-26,-1,-0.0006293737507897686,-0.0004313338540382209,-0.011998780326499111,0.005791717859200642,0.9868742236179608
2013-03-28,1,0.002224260040022582,0.0025663023709485092,-0.015001177548736932,0.0038808187324143287,0.985595142740075
2013-04-02,1,0.0011325715297701615,0.0012674293059181968,-0.012668029773236274,0.007203195960171888,0.9863911522830904
2013-04-04,0,0.0,0.0,-0.008820421167882652,0.007248557031291455,0.9876112428622652
2013-04-08,0,0.0,0.0,-0.007773426397642011,0.007888842301729659,0.9874510131591018
2013-04-10,0,0.0,0.0,-0.007647996680118965,0.008591614588301613,0.9870109448647523
2013-04-12,1,0.00020877110804473612,0.00022128519010691135,-0.007647996680118965,0.009465439303782661,0.9865276269151044
2013-04-16,1,0.0006690460348613148,0.0007856220391982158,-0.007647996680118965,0.011348781861086912,0.986439047088014
2013-04-18,1,2.958799112075954e-05,4.333854601052529e-05,-0.0074056603476196255,0.011348781861086912,0.9871793893044845
2013-04-22,1,0.0002585026907688055,0.000297266573851073,-0.0074056603476196255,0.011348781861086912,0.9868313087202923
2013-04-24,1,0.0015198826807831228,0.0017333657570814914,-0.005627094448213375,0.008536214169913448,0.9907167355186332
2013-04-26,-1,-0.0003659665987695256,-0.0003452604742286881,-0.005572799807164604,0.008536214169913448,0.9914663670065578
2013-04-30,1,0.00019173744905547893,0.000225869162260949,-0.007080168410152877,0.008670709114761041,0.9914484470990079
2013-05-02,0,0.0,0.0,-0.007394717665252346,0.008670709114761041,0.9909026155533684
2013-05-06,0,0.0,0.0,-0.007080168410152877,0.008670709114761041,0.990858989038157
2013-05-08,0,0.0,0.0,-0.007394717665252346,0.008670709114761041,0.9889005057884962
2013-05-10,0,0.0,0.0,-0.008705747086952764,0.008670709114761041,0.9878249208264198
2013-05-14,0,0.0,0.0,-0.008141673219231408,0.005109855082238967,0.9891772556427818
2013-05-16,-1,-0.0007619185885123299,-0.0005751622478473001,-0.008141673219231408,0.005109855082238967,0.9894801049945783
2013-05-20,0,-0.00012425728323611036,3.3636188856519156e-06,-0.008141673219231408,0.007332861514715656,0.9890372711226596
2013-05-22,0,0.0,0.0,-0.01038669410597331,0.007332861514715656,0.9874683803689707
2013-05-24,0,0.0,0.0,-0.012137784558665711,0.007332861514715656,0.9869919142570038
2013-05-29,1,0.0005443548174372941,0.0006215702835593649,-0.012137784558665711,0.007332861514715656,0.9869766095437289
2013-05-31,0,0.0,0.0,-0.00980566316128546,0.007332861514715656,0.9879244035671205
2013-06-04,0,0.0,0.0,-0.00980566316128546,0.007332861514715656,0.9882354214292642
2013-06-06,0,0.0,0.0,-0.007686016430175854,0.007859420282092903,0.9899636741378136
2013-06-10,0,0.0,0.0,-0.006177078488621231,0.007859420282092903,0.9914068917763794
2013-06-12,0,0.0,0.0,-0.007428489824731864,0.007859420282092903,0.990935120592388
2013-06-14,0,0.0,0.0,-0.009033083344953494,0.00939005143381128,0.9899512072156045
2013-06-18,0,0.0,0.0,-0.009033083344953494,0.008590215065850162,0.9904673018644383
2013-06-20,0,0.0,0.0,-0.004278899409916836,0.011298982468827533,0.9917743140908596
2013-06-24,0,0.0,0.0,-0.004917437500188512,0.011298982468827533,0.991560499657405
2013-06-26,1,0.0006979302017443112,0.0008216735113374008,-0.004917437500188512,0.011298982468827533,0.9912717124077345
2013-06-28,-1,-0.000358539531805458,-0.00012064732618032731,-0.006980599798334083,0.011859591834193245,0.9901718174456295
2013-07-02,-1,-0.00016324136239317456,-7.658052087563755e-05,-0.006980599798334083,0.011298982468827533,0.9904104345962761
2013-07-05,1,0.0009185158111368421,0.0009852549698183427,-0.006980599798334083,0.011298982468827533,0.9903968168792434
2013-07-09,1,0.0010397780862775173,0.0011176142146149498,-0.008538888884867726,0.009624066551974078,0.9903751352478838
2013-07-11,1,0.00032920124054549373,0.00035437463690818404,-0.006416250534473514,0.009624066551974078,0.9912952911272864
2013-07-15,1,0.0007594598727915206,0.0007949084272118143,-0.003583944092645091,0.007247248221917996,0.9924809311989677
2013-07-17,1,0.0008071255231092328,0.0008838422806291557,-0.006416250534473514,0.007247248221917996,0.9917803165724646
2013-07-19,1,0.000818980709478688,0.0008748646301638501,-0.006883786225223055,0.005992925879246429,0.9917120156534014
2013-07-23,0,0.0,0.0,-0.004806444879040934,0.006915219677274553,0.9923787023167888
2013-07-25,0,0.0,0.0,-0.0060379306030552,0.005992925879246429,0.9928803223872611
2013-07-29,0,0.0,0.0,-0.0060379306030552,0.00448152204656466,0.994011523472412
2013-07-31,0,0.0,0.0,-0.007599716719307471,0.00448152204656466,0.9935543976211084
2013-08-02,0,0.0,0.0,-0.007653176307320308,0.0016694693364354455,0.9940140342304521
2013-08-06,0,0.0,0.0,-0.007458918326068429,0.0010140415288174102,0.9945661098294453
2013-08-08,0,0.0,0.0,-0.007458918326068429,0.0010140415288174102,0.9944815508761763
2013-08-12,0,0.0,0.0,-0.007458918326068429,0.0008329731717451807,0.9933665273683693
2013-08-14,1,0.0023043658344451892,0.0026270631087633627,-0.006299998746687143,0.0026235707334470665,0.9930533971643845
2013-08-16,1,0.0022174259574143365,0.0025341755560324025,-0.005444183833056592,0.0026235707334470665,0.9938821562115948
2013-08-20,0,0.0,0.0,-0.005444183833056592,0.0026235707334470665,0.9940420542911946
2013-08-22,1,0.0007006166776059989,0.0008428469073166666,-0.007458918326068429,0.0020736711467591725,0.9936597190621059
2013-08-26,-1,-7.175925506976383e-05,-4.436791036151205e-05,-0.005842370267964318,0.0026235707334470665,0.9938122293180238
2013-08-28,0,0.0,0.0,-0.004234449453482068,0.003132320150000991,0.9938124035398315
2013-08-30,0,0.0,0.0,-0.004234449453482068,0.003132320150000991,0.9936734751573769
2013-09-04,-1,-0.0005595749053216355,-0.0004659528195622661,-0.0045089289129941,0.003132320150000991,0.9931559090867972
2013-09-06,-1,-0.0010106745858905286,-0.0008584733905353233,-0.0045089289129941,0.004987722325684636,0.9924690063600943
2013-09-10,-1,-0.0007958381620444352,-0.0006314182179427095,-0.0045089289129941,0.0033902737837627744,0.9937161989244138
2013-09-12,-1,-0.0006596837368462879,-0.00047772103430801375,-0.00829198816987617,0.0028360545618957168,0.9904784335038768
2013-09-16,0,0.0,0.0,-0.00829198816987617,0.0033902737837627744,0.9896738478132754
2013-09-18,0,0.0,0.0,-0.009164598552811704,0.0033902737837627744,0.9890022029232414
2013-09-20,-1,-0.0013873582039899265,-0.0013039853992850405,-0.008656889294592842,0.005118698999606124,0.9890858866721751
2013-09-24,-1,-0.000285919709025246,-0.0001098484922630082,-0.008656889294592842,0.005027512161559267,0.9890078517122709
2013-09-26,-1,-0.00019004739672027332,-2.5869439077070362e-05,-0.010328386077026656,0.005027512161559267,0.9878242289908117
2013-09-30,-1,-0.00031340720157509475,-0.00015866025385636234,-0.008725973444657777,0.00898483890303018,0.9878876018584704
2013-10-02,-1,-0.00034710034812141346,-0.00019496670596396662,-0.004788827693121758,0.010706801294237726,0.9875642430252235
2013-10-04,0,-7.979198566917167e-06,0.00010183574373749644,-0.007972536920789874,0.010702338982814533,0.9875328048227583
2013-10-08,0,0.0,0.0,-0.007972536920789874,0.012722575843694517,0.9864612795112873
2013-10-10,0,0.0,0.0,-0.0025556041894207434,0.012722575843694517,0.9899562729837561
2013-10-14,0,0.0,0.0,-0.0008160527332782522,0.012722575843694517,0.9894351770958639
2013-10-16,0,0.0,0.0,0.00019673949128068912,0.01305031262473391,0.9894252081311747
2013-10-18,0,0.0,0.0,0.0018930963683151162,0.012722575843694517,0.9900988535721573
2013-10-22,0,0.0,0.0,0.00019673949128068912,0.012722575843694517,0.9897605466596082
2013-10-24,-1,-0.0005091958046075129,-0.00026445813426105374,0.00019673949128068912,0.013639371495588054,0.9889475635699083
2013-10-28,1,0.0008768289615332472,0.0009112152663199825,-0.003539520522396894,0.016447180778076855,0.9875833659239398
2013-10-30,1,0.0016332309906595787,0.0017861623357390394,-0.003931486329854765,0.01368340688812666,0.9883600456432119
2013-11-01,1,0.0015719766716026967,0.0016972984888908283,-0.003539520522396894,0.012418457293008315,0.9892641120379365
2013-11-05,1,0.002035837658936838,0.002189875760920497,-0.003931486329854765,0.0093027041597319,0.9888080425512844
2013-11-07,1,0.0018168734863476706,0.0019616532393631914,-0.003931486329854765,0.0093027041597319,0.9883226453180591
2013-11-11,1,0.002223483305582079,0.0023548014746007694,-0.005387249353234003,0.002797161072450979,0.9884706199367651
2013-11-13,1,0.002731926202715524,0.00291064127829765,-0.008773173385349727,0.0013823224002101142,0.9880646963049079
2013-11-15,1,0.0030523659818535893,0.0032976464429088706,-0.008773173385349727,0.0016031896881779605,0.9873836899002062
2013-11-19,1,0.002615197539416039,0.0028054588913816597,-0.013180263428457751,0.0016031896881779605,0.9867595352809689
2013-11-21,1,0.0037697631156836412,0.0041191137550270155,-0.008205069358079521,0.0016031896881779605,0.98840318876185
2013-11-25,1,0.005040144154980549,0.005607449063031001,-0.008205069358079521,0.002051318215390915,0.9897526724916164
2013-11-27,1,0.004963643262812604,0.00553606793733305,-0.008205069358079521,0.002051318215390915,0.9899097194928922
2013-12-02,1,0.0045564466574910065,0.005044034226869468,-0.008205069358079521,0.00812654719294057,0.989913695194492
2013-12-04,1,0.0038024356438579494,0.004190375623813216,-0.0068948778325434315,0.00812654719294057,0.9912410181623768
2013-12-06,1,0.0030513044943881614,0.0033135166983420386,-0.004148189825354442,0.008900423885811842,0.9918507303659622
2013-12-10,1,0.002594871971859672,0.00281452510361313,-0.004148189825354442,0.008900423885811842,0.9915695846655618
2013-12-12,1,0.001593578400335277,0.001621423314997303,-0.0014051951351449342,0.008900423885811842,0.9917081325169685
2013-12-16,1,0.002305624715475432,0.00247032863645803,-0.0026485823070958154,0.00812654719294057,0.9921955748835692
2013-12-18,1,0.002754398877058248,0.0030202942523422285,-0.0028842764566553106,0.006670114827705744,0.9925837872883986
2013-12-20,1,0.0024784815291661443,0.0026846516737183083,-0.004148189825354442,0.003567552845174255,0.9923166777570612
2013-12-24,1,0.00285056365952028,0.003141072267823368,-0.012211630277595134,0.0007688249109717385,0.9903862077507275
2013-12-27,1,0.002496697491644248,0.002725091270205391,-0.013392115253674352,0.0033294208411981125,0.9900549657230893
2013-12-31,1,0.0030251878812905895,0.0033231361453120193,-0.01409009174873813,4.444210463002958e-05,0.9891473498188729
2014-01-03,1,0.0029785300101363636,0.0032735903042316952,-0.01436581527265492,4.444210463002958e-05,0.9886971455474706
2014-01-07,1,0.0017144244641819234,0.00187007214148636,-0.01589206508241532,4.444210463002958e-05,0.984848252233968
2014-01-09,1,0.0009700676308953557,0.0009960954917137374,-0.01436581527265492,0.0033294208411981125,0.9855778840082932
2014-01-13,1,0.0004095710950617512,0.0004440939514421241,-0.01409009174873813,0.006605671236170791,0.9858923086166542
2014-01-15,1,0.0002936157928417314,0.0003425840086177382,-0.01409009174873813,0.006605671236170791,0.9857269479935721
2014-01-17,-1,-0.00036280977184487617,-0.00021907209653925798,-0.01409009174873813,0.006605671236170791,0.9860455432645262
2014-01-22,-1,-0.0010634975722660222,-0.0008109811505016688,-0.01409009174873813,0.006605671236170791,0.9864227254873585
2014-01-24,-1,-0.0023100964698657,-0.001900390691865169,-0.005497587553870266,0.006605671236170791,0.9877037750425915
2014-01-28,-1,-0.002745018246660379,-0.0022786270604919076,-0.0031933682599185947,0.006605671236170791,0.9879951256710316
2014-01-30,-1,-0.0036003888184766744,-0.003020993016608283,-0.0019488651393505907,0.006605671236170791,0.988110521937712
2014-02-03,-1,-0.0029717297939601617,-0.002508511017133619,-0.0019488651393505907,0.006605671236170791,0.9885368123417855
2014-02-05,-1,-0.002362321370499503,-0.00197907161118069,0.0006805376026654002,0.006605671236170791,0.992275719725979
2014-02-07,-1,-0.002173674359582293,-0.001813779800076508,-0.00170683110544835,0.0045487859295853614,0.9931299867812748
2014-02-11,-1,-0.00106663757627059,-0.000875811036976566,-0.0019488651393505907,0.0041276063559033335,0.9945773812335111
2014-02-13,-1,-0.0012657833306010998,-0.0010162680653225497,-0.003391373310467591,0.003315335955967128,0.9938861598716194
2014-02-18,-1,-0.0016710419901226617,-0.001373817146881263,-0.0020148668228669227,0.003315335955967128,0.993961759257301
2014-02-20,-1,-0.001569416867558343,-0.0012945457974705898,-0.0020148668228669227,0.004009588524025132,0.9931055358776074
2014-02-24,-1,-0.0020008865846633406,-0.0016498080104906773,-0.00362284986530665,0.004009588524025132,0.9926696001329197
2014-02-26,-1,-0.001980778561936949,-0.0016200834311610518,-0.0072161874783309805,0.004269012320987505,0.9924012210489644
2014-02-28,-1,-0.0014085290531368967,-0.0011339858504091432,-0.009846075054656768,0.0036543193597598643,0.9917586785890607
2014-03-04,-1,-0.001545933780344843,-0.0012461375853522478,-0.009846075054656768,0.0061862460105188925,0.9913918979102427
2014-03-06,-1,-0.0009131825858753448,-0.0007669600032074695,-0.009846075054656768,0.0061862460105188925,0.9921403884482258
2014-03-10,-1,-0.0007471942148300596,-0.000644781050380013,-0.009933679842617588,0.0061862460105188925,0.9916292268548422
2014-03-12,-1,-0.0011816713549380677,-0.001012459555852423,-0.009933679842617588,0.010080618770453345,0.9906498011215898
2014-03-14,-1,-0.0015450938504025847,-0.0013790660896080705,-0.01027372838805966,0.010080618770453345,0.990348498894547
2014-03-18,-1,-0.0013575616862632647,-0.0012232457164288563,-0.01027372838805966,0.013697128094212443,0.9896116688673944
2014-03-20,-1,-0.0016730459151870951,-0.0014655246763475033,-0.009889204315151593,0.013697128094212443,0.9896425234305178
2014-03-24,-1,-0.001929117602604513,-0.0017034111068605854,-0.009032465264957296,0.013916987155962283,0.9889637960827827
2014-03-26,-1,-0.0017729080181424265,-0.0015908806533197182,-0.008657759848770452,0.013916987155962283,0.9892952536474885
2014-03-28,-1,-0.0016777263493681217,-0.0015159317969677946,-0.0072360158579769015,0.013916987155962283,0.9898699102934521
2014-04-01,-1,-0.0007277982288397454,-0.0007080616939918378,-0.008657759848770452,0.012046141362408894,0.9908103806024353
2014-04-03,-1,-0.0007846251590732322,-0.0007448099596824516,-0.008770254683245066,0.00777915358231641,0.9914810255560603
2014-04-07,-1,-0.0006456349584075098,-0.000625862523268904,-0.0072360158579769015,0.00777915358231641,0.9918445527579544
2014-04-09,1,0.00022421662265687534,0.00039266507209475404,-0.0072360158579769015,0.0015451792651850608,0.9927648320810367
2014-04-11,-1,-0.0005888949402181529,-0.0005160773800010731,-0.004716458910805794,0.002966641067310236,0.9939429117748586
2014-04-15,0,-0.00011648682732066516,1.6724315604569684e-05,-0.006114681030873009,0.0027992415396085072,0.9941234166457874
2014-04-17,1,0.0003843687253892829,0.000590517075054721,-0.006417537580906919,0.0015451792651850608,0.9945456823437224
2014-04-22,1,0.0008626377911254238,0.001174650048382082,-0.006417537580906919,0.0009312828645605473,0.9953382522259581
2014-04-24,1,0.0006975696529902288,0.0009869770398544112,-0.00357976254855743,0.0015451792651850608,0.9958292495275219
2014-04-28,1,0.0010133324124806738,0.0013495579980011337,-0.00357976254855743,0.0015451792651850608,0.9952735529467632
2014-04-30,1,0.00040855996766707664,0.0006594896268714496,-0.0028201824011316904,0.0023523611223632435,0.9953412648639997
2014-05-02,0,-6.059095001424724e-05,0.00011054031122556313,-0.002666905644567281,0.004633412489489734,0.9950077867212556
2014-05-06,-1,-0.00022045039390828237,-8.881637748087536e-05,-0.0016567937577125962,0.005547828293485994,0.9949418678063453
2014-05-08,-1,-0.0004694627167938095,-0.00041319926351812377,-0.0016567937577125962,0.007010939709135801,0.9941576995208623
2014-05-12,0,-2.4484752267322238e-05,0.00012132833299122517,-0.0022956905882188226,0.007010939709135801,0.9943625739994265
2014-05-14,-1,-0.00013418196707703996,-9.575571485529312e-06,-0.0022956905882188226,0.007010939709135801,0.9943899703693291
2014-05-16,-1,-0.0003998304941396923,-0.00029494901777924154,-0.0017619269850352504,0.007010939709135801,0.9946035893722183
2014-05-20,-1,-0.0002039536016114604,-5.364443055613045e-05,-0.0014119585975845435,0.007010939709135801,0.9944883048065518
2014-05-22,0,-3.1573542895700635e-05,0.00014148426742851194,-0.0014119585975845435,0.007932640740885882,0.9942018957782963
2014-05-27,1,0.0007886998172554461,0.0011052368066684199,-0.000503269227217871,0.007010939709135801,0.9955174963522362
2014-05-29,1,0.0010196695923196507,0.001375761412984248,-0.000503269227217871,0.007010939709135801,0.9952479347247626
2014-06-02,1,0.0017680760512262057,0.002242287361219209,-0.0017619269850352504,0.005367211240757272,0.9955824063196489
2014-06-04,1,0.0017339573376962205,0.002195040601776218,-0.0017619269850352504,0.0050003086194270845,0.9956430423622491
2014-06-06,1,0.001819173722015296,0.002244661451651117,-0.0022000560390048147,0.004727857944922817,0.9957653598271344
2014-06-10,1,0.0016108383651063712,0.002008701666076659,-0.000503269227217871,0.00515782646467842,0.9957666654993088
2014-06-12,1,0.0012122730363332188,0.0015296099217256024,-0.0015015199160272371,0.00515782646467842,0.9955618002497185
2014-06-16,1,0.001234342565340892,0.0015336006770650646,-0.0013542717920174885,0.005437393391072809,0.9952949890759059
2014-06-18,1,0.0008450742499080075,0.001024260642722369,-0.0026113072396331005,0.00523473764192816,0.9916471591447963
2014-06-20,1,0.0005162321896564149,0.0005438414051350792,-0.0037912357219598482,0.004826217523892776,0.9896744909603546
2014-06-24,1,9.067218763743863e-05,0.00015162431787538755,-0.0037912357219598482,0.0057324721279826876,0.9892506120779806
2014-06-26,1,0.0002862260686559674,0.0003314200178825364,-0.006404804946460859,0.004826217523892776,0.9895149040718626
2014-06-30,1,0.0008079799247608466,0.0008909202701310605,-0.004952243263861585,0.004826217523892776,0.9897090495125964
2014-07-02,1,0.0014955129892591243,0.0015056875721996934,-0.009592058681791797,0.0033624372718398677,0.9868028713011395
2014-07-07,1,0.0018601048905208953,0.0019402161979553832,-0.009592058681791797,0.0033624372718398677,0.9862087189330521
2014-07-09,1,0.0023253038956237496,0.0024783015776703643,-0.009592058681791797,0.0033624372718398677,0.9858932682972372
2014-07-11,1,0.0014670682162342568,0.0014775927217844655,-0.009048770923522744,0.004020299209118444,0.9864689133642456
2014-07-15,1,0.0016073859394517276,0.0016224995450933482,-0.009048770923522744,0.002927886338230247,0.9869474869287819
2014-07-17,-1,-0.000369305328199107,-0.0001432041576937905,-0.005641385300578891,0.005465887065473532,0.9903550938400183
2014-07-21,-1,-0.0014351028378950224,-0.0010917598260929435,-0.004179879442532851,0.006145482106581476,0.9917845246562867
2014-07-23,-1,-0.0010069128769400518,-0.0007301067162097438,-0.004179879442532851,0.006125461082746591,0.9917423310529054
2014-07-25,-1,-0.001175592821896836,-0.0008827619468892398,-0.004179879442532851,0.006125461082746591,0.9918682473802781
2014-07-29,-1,-0.00017575303582536948,-6.367290563621687e-05,-0.003980412682131708,0.006125461082746591,0.9919407552407449
2014-07-31,-1,-0.0017102147645574805,-0.001416777665031925,-0.00110057701840276,0.006125461082746591,0.9937952651621756
2014-08-04,-1,-0.0013101195113546815,-0.0010532710200688996,-0.001107105517930995,0.005931776827726429,0.9941495944290386
2014-08-06,-1,-0.001987585664015282,-0.001603712949558281,-0.00013937625679280602,0.005241741275120595,0.9942231352350738
2014-08-08,-1,-0.0020749164591110174,-0.0016903566614440626,-0.00013937625679280602,0.006125461082746591,0.9938794997263538
2014-08-12,-1,-0.0019804311938648924,-0.001621781680784767,-0.0001727705654744239,0.006365773510574033,0.9936328736238499
2014-08-14,-1,-0.0016396562607142676,-0.0012952443497201548,-0.00114039267143777,0.005241741275120595,0.9940201047945975
2014-08-18,-1,-0.0011791137571814838,-0.0008758669403551927,-0.00114039267143777,0.003826562044339165,0.994694425031168
2014-08-20,-1,-0.0006875204838973969,-0.0004562457420742702,-0.00114039267143777,0.0033447757960881836,0.9949999730412316
2014-08-22,-1,-0.0004504767918182599,-0.0003069543130353859,-0.00114039267143777,0.0037837890639242275,0.99494596197666
2014-08-26,1,8.749217963036573e-05,0.00016778311663436936,-0.004872560220737034,0.0037837890639242275,0.9946201983544819
2014-08-28,-1,-0.0006884773013298085,-0.0004895876694991009,-0.004872560220737034,0.0050036892315734,0.9937615545421152
2014-09-02,-1,-0.0006153302137969286,-0.00046953685905033504,-0.004872560220737034,0.0050036892315734,0.9938467468340985
2014-09-04,-1,-0.001100869238979354,-0.0008369106549499728,-0.006970448351607518,0.0050036892315734,0.9936854803063596
2014-09-08,-1,-0.00048700700020047947,-0.00032563237016100424,-0.006970448351607518,0.004487795159994309,0.9940545353614085
2014-09-10,1,0.00013111758695216784,0.00021393508028004387,-0.008377871325633238,0.004487795159994309,0.9927959245359592
2014-09-12,-1,-0.0002346880555960145,-0.00016977582723068515,-0.008377871325633238,0.004539668261386038,0.991984394658832
2014-09-16,-1,-0.00024951363478267313,-0.0001660362878036987,-0.008814039623934863,0.004539668261386038,0.9909515785939984
2014-09-18,1,0.0003418364498013883,0.00034814794020831695,-0.008864303698672537,0.004539668261386038,0.9906429131301081
2014-09-22,-1,-0.00016990573233723147,-0.00010979637556949901,-0.008864303698672537,0.006720116314554662,0.9902405615496943
2014-09-24,-1,-0.0003574382222499231,-0.0002506682719732175,-0.00941870436375922,0.006773741413794788,0.9901737650329547
2014-09-26,-1,-0.0005488262459328202,-0.00040961914570850506,-0.008864303698672537,0.006625143955874644,0.9907438412835143
2014-09-30,-1,-0.0008846826807297918,-0.0007080628358150242,-0.007072078757564141,0.008413102478796387,0.9908062831642079
2014-10-02,-1,-0.001038739510468255,-0.0008488632443679255,-0.008584260288308781,0.008413102478796387,0.9904310481142976
2014-10-06,-1,-0.0012920089918612029,-0.0010727437796526984,-0.008584260288308781,0.009246066299158182,0.9891660476109949
2014-10-08,-1,-0.0015773397124232195,-0.0013052255416016606,-0.004955646988612021,0.008413102478796387,0.9902343147005155
2014-10-10,-1,-0.0023442977295984905,-0.001979811112635059,-0.0035155883177682306,0.009100853034567057,0.990884648135897
2014-10-14,-1,-0.0028845393668922893,-0.002463569791778646,-0.0033210146189288693,0.009100853034567057,0.9913813355747049
2014-10-16,-1,-0.0022656816508231595,-0.001951432046213267,0.00048110436385836574,0.01004172415356986,0.9908061347813152
2014-10-20,-1,-0.001396539310136829,-0.0011929035291789367,-0.0035155883177682306,0.009100853034567057,0.9916087675436204
2014-10-22,-1,-0.0010247227772213236,-0.0009031097931805783,-0.0033210146189288693,0.008413102478796387,0.9923379851333184
2014-10-24,-1,-0.00033006424633236046,-0.0002974346642062036,-0.0033210146189288693,0.008416486672125405,0.9917685242002617
2014-10-28,1,0.00012624719499299542,0.00018729517317893194,-0.0030448396232533406,0.007518130703681378,0.9920843180705143
2014-10-30,-1,-9.031347410175348e-05,-7.58260042144987e-05,-0.0017231654361023674,0.007518130703681378,0.9920476610489584
2014-11-03,1,0.00042125299988742947,0.0004979614269715657,0.0009348404888107531,0.007518130703681378,0.9931109816631661
2014-11-05,1,0.0009407340268841114,0.001092407240141684,-0.0017231654361023674,0.00751770225827885,0.9934160780689836
2014-11-07,1,0.0013179057492142942,0.0015414151954766032,-0.0017231654361023674,0.007073226390213933,0.9926826476916405
2014-11-11,1,0.001735511996745047,0.002034498185522508,-0.008365536025176316,0.007073226390213933,0.989062909491706
2014-11-13,1,0.0026976596537781152,0.003073182679605101,-0.008365536025176316,0.007073226390213933,0.9887220558276913
2014-11-17,1,0.0022787525188430117,0.002632979082781987,-0.010945669231967655,0.007073226390213933,0.9870418873742065
2014-11-19,1,0.0021656367352044332,0.002488329528711293,-0.010945669231967655,0.011809651857821263,0.9856272285518126
2014-11-21,1,0.003027261539341285,0.0034872929382622373,-0.010945669231967655,0.011809651857821263,0.9854431318601716
2014-11-25,1,0.0033538977751334364,0.0038680652179201476,-0.010945669231967655,0.011809651857821263,0.9857413095124207
2014-11-28,1,0.003948272677104743,0.004565769926069106,-0.010945669231967655,0.011809651857821263,0.985827715735712
2014-12-02,1,0.0042597139317334925,0.0048854158922732975,-0.010945669231967655,0.008380980076014908,0.9854109349336196
2014-12-04,1,0.004119143612802065,0.004744439225672099,-0.017242697738176882,0.008380980076014908,0.9845090296588536
2014-12-08,1,0.0028787756764274575,0.003226090716960615,-0.013260120241991826,0.012680283185347639,0.9839340360402113
2014-12-10,1,0.0011904598235724856,0.0012730599111865147,-0.007133912770171605,0.016465505863819764,0.9869593254452512
2014-12-12,1,0.0023784689660831656,0.00262765758693043,-0.007601657426039521,0.008343629896364238,0.9876054342920563
2014-12-16,1,0.0009499022856468758,0.0009949216480168062,-0.007019361012783814,0.008343629896364238,0.989571526560547
2014-12-18,1,0.002268761306718334,0.0024759793150110772,-0.007601657426039521,0.005041810568710753,0.9895668522221757
2014-12-22,1,0.0018026534216126395,0.0019191934229607962,-0.007019361012783814,0.005124989259064081,0.9893273375784002
2014-12-24,1,0.0016189289272157377,0.001719078258828951,-0.007019361012783814,0.005124989259064081,0.9892981519106556
2014-12-29,1,0.0018950883808712667,0.002027570237105193,-0.008342963118362681,0.004482251950705065,0.9885014276958864
2014-12-31,1,0.0013963538838374337,0.0014575998396094449,-0.011156207033185098,0.0071183566304081495,0.9870383471257559
2015-01-05,1,0.00048285776028387226,0.0005441379445038095,-0.008342963118362681,0.012503609838268726,0.9877495739239182
2015-01-07,1,0.001856083268128434,0.0020002667844381465,-0.0072850773922602235,0.012503609838268726,0.9889911740643882
2015-01-09,1,0.0023185300667646833,0.0025473043697139515,-0.010955796161976596,0.0076942352536677186,0.9883138514154239
2015-01-13,1,0.002061480973742734,0.0022718717858664006,-0.010955796161976596,0.01239155051446024,0.988430989444146
2015-01-15,1,0.0012539326333773947,0.0013401067969291706,-0.008140934841971176,0.01239155051446024,0.9887110558839547
2015-01-20,1,0.0011876817140664365,0.0012772235244345373,-0.0029073591865073013,0.01239155051446024,0.9891807421750506
2015-01-22,1,0.0025521129346678887,0.00280128594775935,-0.0029073591865073013,0.011437546333301546,0.9905647257989644
2015-01-26,1,0.0021623268510914187,0.0023379934661850663,-0.0029073591865073013,0.011437546333301546,0.990330480385354
2015-01-28,1,0.0017009019875569033,0.0018267664441725703,-0.0011743973377569472,0.01239155051446024,0.9905291020096229
2015-01-30,1,0.0013050240466273896,0.0013771416200315137,0.0001173669973333113,0.01239155051446024,0.9912651408529449
2015-02-03,1,0.00203284314833797,0.0022062897287821737,-0.0012788108917823487,0.011729576722483943,0.9910736114792125
2015-02-05,1,0.0025924179400329695,0.002806396934171689,-0.001989240160770747,0.011014772195863273,0.9910716169769007
2015-02-09,1,0.0010953925528265815,0.001117720666976531,-0.0012788108917823487,0.011014772195863273,0.9910512501447515
2015-02-11,1,0.001509120833775957,0.0015972848659402384,-0.001989240160770747,0.011014772195863273,0.9901953885690508
2015-02-13,1,0.0015928506830851948,0.0016811567616564604,-0.003718795249432431,0.00938397115798264,0.9901909631238475
2015-02-18,1,0.002321024566149993,0.0025085889166536293,-0.004225223748896228,0.00938397115798264,0.9905143831583543
2015-02-20,1,0.0026207072531747996,0.0028386414236653864,-0.004225223748896228,0.008573450063039903,0.9905849457902302
2015-02-24,1,0.0023003382739267978,0.0024506198329814106,-0.004225223748896228,0.00941815782941947,0.9903188442727815
2015-02-26,1,0.0027271742940928973,0.0029198379881241665,-0.008866142048162003,0.008573450063039903,0.9897951125717925
2015-03-02,1,0.0034171105095640525,0.003683362207409418,-0.008866142048162003,0.006670013877078656,0.9900416922728134
2015-03-04,1,0.0024465015851389887,0.002578014181031654,-0.007857653170182739,0.006670013877078656,0.990869714512521
2015-03-06,1,0.0016015125470256605,0.0016228279420539035,-0.005074684303651111,0.00941815782941947,0.9914625952962876
2015-03-10,1,0.0005100198646306254,0.0006926870739324182,-0.005074684303651111,0.00941815782941947,0.9918368561190155
2015-03-12,1,0.0007367955065942691,0.0008874434402490338,-0.004225223748896228,0.00941815782941947,0.9925328071526867
2015-03-16,1,0.0009322228070750716,0.0010415992149873903,-0.005060502646368127,0.00939926576033526,0.9920334818367776
2015-03-18,1,0.0010873331982117827,0.001192444614608295,-0.004186677784146503,0.008125625162616735,0.9927127562713622
2015-03-20,1,0.0010224916300516774,0.001115490992089115,-0.004186677784146503,0.00939926576033526,0.9922575647112656
2015-03-24,1,0.0012597848656361,0.0013269709384153765,-0.004186677784146503,0.009573281028994858,0.990658392054547
2015-03-26,1,0.00019101250999243414,0.00034233016557240134,-0.0017763240516058838,0.012521814358547944,0.9900650964944236
2015-03-30,1,0.0009530580153865436,0.000991167036607518,-0.0017763240516058838,0.009573281028994858,0.9904487933117339
2015-04-01,1,0.0007147004356718938,0.000765276034502782,-0.003060305776175891,0.009573281028994858,0.9903851760439738
2015-04-06,1,0.0010587416184364403,0.001060519799860934,-0.003928186556749741,0.010045399224514319,0.9871037010190371
2015-04-08,1,0.00047728543876037854,0.0005404483419903054,-0.0059178160007071325,0.010045399224514319,0.9870939245657248
2015-04-10,1,0.001683797686841704,0.00181952997983234,-0.0059178160007071325,0.009139033522399989,0.9872641933862293
2015-04-14,1,0.0008820253309783552,0.0008951257727630997,-0.003928186556749741,0.008010483433958328,0.9880341940040105
2015-04-16,1,0.00068805652094893,0.0007253801583910043,-0.005472142401343137,0.008010483433958328,0.9879011870908636
2015-04-20,1,0.0017248761315583813,0.0018740875008469275,-0.005472142401343137,0.008010483433958328,0.986278620072774
2015-04-22,1,0.0030044395560418873,0.003330447857266346,-0.005472142401343137,0.007355572230355958,0.9876167597910028
2015-04-24,1,0.004391086641118076,0.004914724176209953,-0.007262486791306898,0.006343750838384619,0.9868108715296233
2015-04-28,1,0.004130278818766302,0.004652804903243079,-0.007262486791306898,0.006343750838384619,0.9872693807458763
2015-04-30,1,0.0034205860289359784,0.0038261928005794985,-0.008921790685562727,0.006343750838384619,0.986941932554948
2015-05-04,1,0.00519621659852155,0.005777301410085133,-0.006232611622319215,0.005116011157631059,0.9895455648331618
2015-05-06,1,0.003247073599705053,0.0035750321027535645,-0.004678649986880053,0.006343750838384619,0.9901958130730188
2015-05-08,1,0.0038669778005468503,0.004333941978641096,-0.004678649986880053,0.005116011157631059,0.9902705847579367
2015-05-12,1,0.002707191445481997,0.0028740406083237963,-0.004678649986880053,0.005116011157631059,0.990575154365616
2015-05-14,1,0.003036658711428499,0.003307484250493711,-0.004061138909774251,0.005116011157631059,0.9904210636924962
2015-05-18,1,0.0041870254300541004,0.004619898920848187,-0.0035035038263135647,0.005116011157631059,0.9917185587500676
2015-05-20,1,0.004472399118501561,0.00494263000091312,-0.00473922921274383,0.0034387712282708347,0.9907679272887299
2015-05-22,1,0.003089605256469873,0.00339092940992184,-0.0035016634360046195,0.0034387712282708347,0.993050432418304
2015-05-27,1,0.002882009040714573,0.003128903912691597,-0.004425694990526875,0.0020774426201682164,0.9925850949185574
2015-05-29,1,0.0013380007161746144,0.0013614785639245238,-0.00427084947336861,0.004822929428173778,0.9935923290339562
2015-06-02,1,0.0014957421941058,0.0015048522834839317,-0.00427084947336861,0.006519503558232357,0.991934590324278
2015-06-04,1,0.001738792535375247,0.0017997873422860163,-0.0034506617270548463,0.006519503558232357,0.9924107203358437
2015-06-08,1,0.001352686513674728,0.0013716288133864872,-0.00473047734023275,0.006519503558232357,0.991758709115064
2015-06-10,1,0.001595723456146233,0.001636912362667514,-0.005653576261861457,0.006430217382709753,0.9901889093223463
2015-06-12,1,0.0010535840495215399,0.0011701744661741325,-0.005653576261861457,0.010075463873536071,0.9891259386305262
2015-06-16,1,0.0017313330073372955,0.0017516024937192665,-0.0063980982774096955,0.009740519470306193,0.9875093880355472
2015-06-18,1,0.0019372159541045186,0.0019848342120958582,-0.007466801351103514,0.006348331306807328,0.9877507310444423
2015-06-22,1,0.0012824430591890819,0.0013525898043461838,-0.007466801351103514,0.006584632762666708,0.9879361140739353
2015-06-24,1,0.0005457847524107109,0.0007226802074908154,-0.008855023091544583,0.008254176262383638,0.9874077304138912
2015-06-26,1,0.001125923146955125,0.0012180718093929453,-0.010369125877836836,0.006116480385326665,0.9870231884404687
2015-06-30,1,0.0004765910640430183,0.0006192996183854628,-0.008855023091544583,0.009487692157948181,0.9880604927294883
2015-07-02,1,0.00021521407016171566,0.0004389001473855314,-0.008855023091544583,0.008197195850231776,0.9887663555534802
2015-07-07,-1,-0.00036696961609517843,-8.65307019735209e-05,-0.007420874672088748,0.008197195850231776,0.9893968763644728
2015-07-09,-1,-0.000896333529611509,-0.0005618396776271158,-0.007420874672088748,0.008197195850231776,0.9901530180523913
2015-07-13,1,0.0004992896587109662,0.0006374539056491618,-0.007420874672088748,0.006116480385326665,0.9917861946630292
2015-07-15,-1,-0.000995632249570241,-0.0007284958040031203,-0.009474040595547437,0.004549855991146155,0.9898586151352757
2015-07-17,-1,-0.0010263388433152847,-0.0007452739934057587,-0.009474040595547437,0.006116480385326665,0.9883153110177837
2015-07-21,-1,-0.000502811481134452,-0.0003087021170797373,-0.010480848655327099,0.008197195850231776,0.9874517416977666
2015-07-23,-1,-0.00040033142488673926,-0.0002712637001021399,-0.010480848655327099,0.009482609404308095,0.9851044629306935
2015-07-27,-1,-0.0021960142826399315,-0.0018379729485747888,-0.01717508216186271,0.009482609404308095,0.9834400471844005
2015-07-29,-1,-0.0009915211006445693,-0.0007432041337423072,-0.01717508216186271,0.005569440114751755,0.9815349383084521
2015-07-31,-1,-0.0015685178268632102,-0.001214969182892876,-0.01717508216186271,0.011535471618404318,0.9800906395788709
2015-08-04,-1,-0.0013777321044295878,-0.0010533936804374118,-0.025268862880093192,0.011535471618404318,0.9789093567841971
2015-08-06,-1,-0.0016598495552240663,-0.001303842097136129,-0.025268862880093192,0.015400300021076252,0.9793339465773241
2015-08-10,-1,-0.0014563338780694693,-0.0011512764615151687,-0.025268862880093192,0.01853187113149607,0.9769436844866451
2015-08-12,-1,-0.003446829533212582,-0.0028996659101415845,-0.01473556437078425,0.01853187113149607,0.9802407936299979
2015-08-14,-1,-0.002629954167183113,-0.002196479678518109,-0.01473556437078425,0.017707476032025635,0.9808708762328712
2015-08-18,-1,-0.002959134418480003,-0.002452406146944738,-0.01473556437078425,0.018406754140984014,0.9807555030281887
2015-08-20,-1,-0.0035157263869209157,-0.002965708307474886,-0.01473556437078425,0.01563339272406238,0.9827208278314411
2015-08-24,-1,-0.003646928769241326,-0.003064514293773109,-0.01388018260142454,0.01563339272406238,0.9843545858505495
2015-08-26,-1,-0.003396085262675071,-0.0028564762000997303,-0.010244127536801559,0.009612717221498868,0.9870028158583903
2015-08-28,-1,-0.0037268676307695187,-0.003124546167732457,-0.01388018260142454,0.0046529280935889514,0.9871281704252
2015-09-01,-1,-0.0039128148347653095,-0.0033296778998873136,-0.010244127536801559,0.009612717221498868,0.9855368364122531
2015-09-03,-1,-0.004192964318227873,-0.0035657442189409895,-0.010244127536801559,0.01045470302882191,0.9852189474538916
2015-09-08,-1,-0.0035678814916772507,-0.0030114510322247737,-0.007964690585725543,0.010357284257846258,0.9864055901306492
2015-09-10,-1,-0.0033062335089517987,-0.002803600982528935,-0.00632165431154728,0.010357284257846258,0.9825085211805563
2015-09-14,-1,-0.0021676650263060034,-0.001839865994882269,-0.005494613084130631,0.010741364616918117,0.9812332965931857
2015-09-16,-1,-0.0003586639621074802,-0.00030365123523062886,-0.012617389744190195,0.005441000842265684,0.9812144991075258
2015-09-18,-1,-0.0019425774959308721,-0.001674591611843336,-0.008736964298407143,0.011988322067635991,0.9802358122798427
2015-09-22,-1,-0.002559024343766039,-0.0022015265940212806,-0.006577718409807811,0.01792911486562905,0.9798284420214816
2015-09-24,-1,-0.001780950769845952,-0.0015955002850684108,-0.007667814611647906,0.01792911486562905,0.9793836474700567
2015-09-28,-1,-0.002943556936698928,-0.00260489718537498,-0.004328225023441583,0.01792911486562905,0.9796340731558609
2015-09-30,-1,-0.00047299219060199327,-0.0004299388153155522,-0.007667814611647906,0.017715854415440095,0.9821486533319157
2015-10-02,1,0.00026870578788400353,0.00034522490494261817,-0.012007252903927429,0.011970381852073057,0.9819341001938641
2015-10-06,1,0.000109671240385401,0.00014610367503031026,-0.012007252903927429,0.010789458023014497,0.982104715812956
2015-10-08,-1,-0.001124938207044616,-0.0010690714089141482,-0.00994960078518017,0.010789458023014497,0.9864374344162802
2015-10-12,1,0.00016269309108867246,0.000292740434740869,-0.012007252903927429,0.007958251857696672,0.9872964992901547
2015-10-14,-1,-0.001109915768131133,-0.001032393408916006,-0.007047624291886303,0.007958251857696672,0.988568430773197
2015-10-16,1,0.0009280816763402314,0.0011175695460306921,-0.00994960078518017,0.005781976977817035,0.9881863817564576
2015-10-20,1,6.564753085383057e-05,0.00012188026811617183,-0.010008156064509187,0.005781976977817035,0.9882625837772376
2015-10-22,0,-1.163777160382418e-05,2.8026679137810014e-05,-0.009297986818541588,0.00914906388828269,0.9880027805559758
2015-10-26,1,0.0010864487165271456,0.001283858832032754,-0.009297986818541588,0.00914906388828269,0.9880471225653382
2015-10-28,1,0.0005371857037346193,0.0006596100510497679,-0.007047624291886303,0.00914906388828269,0.9886583628646087
2015-10-30,1,5.8090992285734925e-05,0.00015024860777476619,-0.005420884494097166,0.00914906388828269,0.9895386555614499
2015-11-03,1,0.0004417285859388232,0.0005673926801862841,-0.005420884494097166,0.009672253853392265,0.9888115574712205
2015-11-05,1,0.0002768426979224821,0.00040379518073249004,-0.005032386487350066,0.015368817068858611,0.9863580766968649
2015-11-09,-1,-0.00010898956593362769,-1.1960609220371566e-05,-0.005032386487350066,0.015368817068858611,0.987187462964153
2015-11-11,-1,-0.0005127050138561019,-0.0004842354968651267,-0.008538327609277347,0.015368817068858611,0.98595114107725
2015-11-13,1,0.0002884963195270418,0.0004077076795542614,-0.008538327609277347,0.009672253853392265,0.9872265091707353
2015-11-17,1,0.0007783126308521374,0.0009971613978512353,-0.0066922333441191,0.012955720335842321,0.9873848233244059
2015-11-19,1,0.0008737550248663125,0.0010649147656066845,-0.00888208822305731,0.007934854094679287,0.9872770022264282
2015-11-23,1,0.001240237641100175,0.0015032798932123532,-0.00888208822305731,0.007934854094679287,0.9867714422793363
2015-11-25,1,0.0010310854144008415,0.001252196611781711,-0.00888208822305731,0.012955720335842321,0.9862733101968577
2015-11-30,1,0.0005716873089628351,0.0006960128821807107,-0.00888208822305731,0.012955720335842321,0.9864030290511617
2015-12-02,1,0.0019511953187981543,0.0023135820799622827,-0.01040545428119312,0.007264878948881312,0.9869488945072186
2015-12-04,1,0.0027895747984901724,0.0032449350619452345,-0.01040545428119312,0.005035906910361949,0.9890268865243481
2015-12-08,1,0.0020346238314408313,0.0023619046468742874,-0.01059730027619361,0.005035906910361949,0.9876656958438028
2015-12-10,1,0.0016424022065583406,0.0019306941894075085,-0.01059730027619361,0.005035906910361949,0.9886190028977956
2015-12-14,1,0.0008325451989884267,0.0009907439752280677,-0.008395666519458023,0.007264878948881312,0.9889138423882493
2015-12-16,1,0.0013369343866243266,0.001532470682678139,-0.01059730027619361,0.00014008088719810827,0.9871270649061014
2015-12-18,1,0.0009171505257928141,0.0010893711007507216,-0.010558084716101807,0.007612024676929007,0.9867921946505102
2015-12-22,1,0.0012103713644581935,0.0014075032800933654,-0.010558084716101807,0.007612024676929007,0.9873262302377321
2015-12-24,1,0.001423905765186527,0.001661205710458889,-0.011381321852717004,0.007612024676929007,0.9851667197735042
2015-12-29,1,0.0014804752079953104,0.0017170217937308293,-0.011381321852717004,0.014214231095896491,0.9844801936566125
2015-12-31,1,0.0009936624679762038,0.0011626760710051706,-0.011381321852717004,0.01433840550060064,0.983814724130079
2016-01-05,1,0.0001453869890961607,0.00018402457599785306,-0.010838282480925793,0.01433840550060064,0.9840061698717391
2016-01-07,-1,-0.0006206974320982228,-0.000519062066841705,-0.010838282480925793,0.01433840550060064,0.9842319568407649
2016-01-11,-1,-0.0007933358025479021,-0.0006830647639739729,-0.0120658275155442,0.01433840550060064,0.9826758702199161
2016-01-13,-1,-0.0009316760597274108,-0.0007637267989009063,-0.016369775056551628,0.014214231095896491,0.9828702752420113
2016-01-15,-1,-0.0015457390178344231,-0.0013275139212860008,-0.0120658275155442,0.017175242375339905,0.9823380931110769
2016-01-20,-1,-0.0007120496998438962,-0.0005808832054512176,-0.011562003703844793,0.016956421987901406,0.9828451123613187
2016-01-22,-1,-0.000755684059091579,-0.0006340911691248338,-0.011562003703844793,0.021356262953644425,0.9822737186452158
2016-01-26,0,-3.849781522105697e-05,2.4304159124721134e-05,-0.008052679426599057,0.01601994374009941,0.9848162565411803
2016-01-28,-1,-0.00024795963725654415,-0.00015937690029619594,-0.008123614964108175,0.012670248282263125,0.985213319192394
2016-02-01,1,0.0011838149331797416,0.0013119066047019498,-0.008123614964108175,0.01613126453697835,0.9837304345456642
2016-02-03,1,0.00034779598928244137,0.00037491244950672365,-0.00801542699924506,0.01613126453697835,0.9832446544930089
2016-02-05,-1,-0.0006951258831679103,-0.000561835655223369,-0.007203770677848673,0.020747469309290587,0.9839982925059861
2016-02-09,-1,-0.001333580446776947,-0.0011737014060571958,-0.006485150715014258,0.020747469309290587,0.9851080340882654
2016-02-11,-1,-0.0022918425902764697,-0.001964778896261141,-0.005280131239239742,0.020747469309290587,0.9851908307943833
2016-02-16,-1,-0.00044670294326428503,-0.0003230881380765615,-0.005280131239239742,0.013543818893069519,0.9882226215420999
2016-02-18,-1,-0.0002238516048873074,-0.0001161946986881842,-0.005280131239239742,0.013036226512041948,0.9891656246352921
2016-02-22,-1,-0.0004693807087890799,-0.0002795959667343201,-0.005239802976313961,0.013036226512041948,0.9895183778456225
2016-02-24,1,0.0009041636653848292,0.0009844738411338722,-0.005133087047988057,0.013443911088825687,0.9887996190167215
2016-02-26,1,0.0005104832044418662,0.0006068739275524593,-0.005133087047988057,0.013443911088825687,0.9883993303754679
2016-03-01,1,0.002417646982508473,0.0027998137762534157,-0.005133087047988057,0.013036226512041948,0.9906064553211319
2016-03-03,1,0.001472412998571056,0.0015316214659504101,-0.004886341053653523,0.010526348901914255,0.9909542025107334
2016-03-07,1,0.0024533936588461997,0.0027346700930704873,-0.004886341053653523,0.008988703058067926,0.9915987250049234
2016-03-09,1,0.0013232865597334685,0.0014027970527169188,-0.004588838814115203,0.008988703058067926,0.9921274726816869
2016-03-11,1,0.0028388788105800627,0.0031683716529911786,-0.005063750600586153,0.008988703058067926,0.9921390554890425
2016-03-15,1,0.003647585522346874,0.004061495465169624,-0.005063750600586153,0.006665566757792975,0.9925826156012533
2016-03-17,1,0.003615460933468895,0.0040092370652986455,-0.0057720316171118525,0.006665566757792975,0.9921867811802505
2016-03-21,1,0.003945052828076809,0.0044098621917540584,-0.005701587927745442,0.006605419952123374,0.9923679063112774
2016-03-23,1,0.0038842985043036795,0.004304871842163736,-0.005997348417313248,0.005266258447282216,0.9928945560937343
2016-03-28,1,0.0030951645653449203,0.003356976854247463,-0.005918388027619664,0.0049355848341528915,0.9934994660391918
2016-03-30,1,0.0040495158673960205,0.00445853720940739,-0.006321298566300461,0.004159826581508638,0.9935400339718932
2016-04-01,1,0.003609255408970033,0.003928548317237458,-0.006727088970695399,0.0032729087840856303,0.9926723768363873
2016-04-05,1,0.0028398050431887997,0.0029932185453072357,-0.00698986052163454,0.004159826581508638,0.9920953468320723
2016-04-07,1,0.0023810778613090906,0.0024545122453693956,-0.006727088970695399,0.005742231205355882,0.992261260593386
2016-04-11,1,0.0028667532194304427,0.0030166398727455917,-0.006727088970695399,0.005742231205355882,0.9926809627764887
2016-04-13,1,0.002809121631774333,0.0029529545082870373,-0.007611330569029582,0.008620590319835654,0.9908565271655074
2016-04-15,1,0.0028608653825580588,0.0030533968209296783,-0.010277687762248118,0.009782926768682495,0.9900497385661892
2016-04-19,1,0.00300880979293744,0.003240408052350649,-0.010277687762248118,0.011020349153928955,0.9900394506133562
2016-04-21,1,0.0026831936388015277,0.002865138272312841,-0.010236786898677068,0.011020349153928955,0.9899871813577152
2016-04-25,1,0.002346245720572427,0.0024731834188660992,-0.010236786898677068,0.011020349153928955,0.9899896681849558
2016-04-27,1,0.002783176188624331,0.003024754770509504,-0.010236786898677068,0.011439198537867982,0.9893786392870219
2016-04-29,1,0.0023279631438366355,0.002536244099416279,-0.003959802213667804,0.011439198537867982,0.9905695713710522
2016-05-03,1,0.0022395018245779047,0.002423185428388426,-0.003959802213667804,0.011020349153928955,0.991693374241566
2016-05-05,1,0.002005714673018084,0.0020927812675066828,-0.003959802213667804,0.007018459253176906,0.9920354397434191
2016-05-09,1,0.0018721605603758272,0.0018964824056411122,-0.003959802213667804,0.006047229639185669,0.9920969994173585
2016-05-11,1,0.0018094771760484535,0.0018663448920563088,-0.003858303110795591,0.005935939796945622,0.9934526003990797
2016-05-13,1,0.0010958953043414888,0.001168154992550542,-0.003858303110795591,0.0054876023318826935,0.9939188360751097
2016-05-17,1,0.0014418944164058488,0.0014494731170952104,-0.0027279741004727514,0.004932728742450329,0.9943884797105822
2016-05-19,1,0.001202786171901484,0.001221878237689044,-0.0011806301515611586,0.0054876023318826935,0.9947546435390027
2016-05-23,1,0.0010369861642016305,0.001076381991742896,3.0763111892510506e-05,0.005788097436562326,0.9949269930720815
2016-05-25,1,0.0017365160628196805,0.0017429775146066955,-0.0011806301515611586,0.005553058226829027,0.995078487335079
2016-05-27,1,0.0012947395583240199,0.001321288178394633,-0.004925067743098607,0.005553058226829027,0.9912487365010791
2016-06-01,1,0.0003996980318594906,0.0005873353321907794,-0.0019129946991031104,0.006687124405174559,0.9897406449517115
2016-06-03,0,-5.8333685987193846e-05,0.00020782152922426984,-0.0019129946991031104,0.0071048689895039695,0.9891974312322441
2016-06-07,1,0.00038541321577501345,0.0005688850982722812,-0.004925067743098607,0.007416790934437107,0.9889345366060401
2016-06-09,0,-0.0002314814648109152,5.436231409480601e-05,-0.0019129946991031104,0.009100241245663394,0.9884641800250777
2016-06-13,-1,-0.0006195018599374583,-0.00029832568629921863,-0.0013340010845329694,0.00934881256173992,0.9885877700075523
2016-06-15,-1,-0.0004692221844691635,-0.0001792707458090825,-0.0030084846909155423,0.014505549786356367,0.9871522570121758
2016-06-17,0,-6.599780486947352e-06,0.00015305871058828523,-0.004979702466550538,0.014505549786356367,0.9871868669831276
2016-06-21,1,0.00021560970969349013,0.0003442791087137092,-0.004979702466550538,0.014505549786356367,0.987444902033552
2016-06-23,1,0.001241576000633514,0.0012881014532993666,-0.0032427216228401146,0.014505549786356367,0.9877925038084413
2016-06-27,-1,-0.0013948873135530406,-0.0011094070880378348,-0.0009498253913248547,0.014505549786356367,0.9901244993281951
2016-06-29,-1,-0.0008065821488597861,-0.0005317980748006984,-0.0009498253913248547,0.007499648039795949,0.9918807954765297
2016-07-01,-1,-0.0013253164262393444,-0.0009101480863034639,-0.0032427216228401146,0.0064963698959672415,0.9919147277973103
2016-07-06,-1,-0.0018418980791149867,-0.0013412947946281628,-0.0032427216228401146,0.005454237225792762,0.992079352197527
2016-07-08,-1,-0.0006547857356172243,-0.000403731157362192,-0.0032427216228401146,0.004030817202258834,0.993112334604719
2016-07-12,-1,-0.0003363209641244595,-0.00014326886615910147,-0.00184148751009752,0.003700330131278627,0.9934756519720741
2016-07-14,1,0.00033212609690836943,0.0004420300106368026,-0.00204937776957549,0.003700330131278627,0.9941514669097254
2016-07-18,0,-0.0001573725596514412,2.238534275798734e-05,-0.0004827473537439899,0.003700330131278627,0.9945763000844834
2016-07-20,-1,-0.000248968990975917,-5.0910436628285325e-05,-0.0008100323647471877,0.003700330131278627,0.994645721609534
2016-07-22,1,0.0006835607376714295,0.0006976138858647617,-0.0027959380857512277,0.003700330131278627,0.9945503804746924
2016-07-26,1,0.0004057435530449826,0.0004235285894412576,-0.0008100323647471877,0.005321166115102246,0.9947887746964602
2016-07-28,1,0.0007853754685491255,0.0008417682486348713,-0.0026901542935957234,0.003700330131278627,0.9948812405402333
2016-08-01,1,0.000204412835158977,0.000252811040178347,-0.0023070716529393015,0.004329704902161627,0.9944936484101249
2016-08-03,1,8.034370994201617e-05,0.00012436620014235136,-0.0009674691642180401,0.004329704902161627,0.9950776726097685
2016-08-05,1,0.0002022004800542433,0.00022686446721828773,-0.0009674691642180401,0.0054921288768823495,0.9949859522893795
2016-08-09,1,0.000309124614219106,0.000313700807639966,-0.0023070716529393015,0.0054921288768823495,0.99481034633617
2016-08-11,1,0.0005721163069755085,0.0006106420603684339,-0.004941591209644852,0.0029593314098919988,0.9939067056011124
2016-08-15,1,0.0007025546095659548,0.0007782588984724486,-0.006348962928505621,0.0054921288768823495,0.9919349807668664
2016-08-17,1,0.00046329253108934435,0.0004891357738791391,-0.006348962928505621,0.005523751938639497,0.9915112543606514
2016-08-19,1,0.0006744101071777865,0.0007718783480252678,-0.004941591209644852,0.0054921288768823495,0.9925347485806013
2016-08-23,1,0.000874740241546348,0.0010007007426207943,-0.004941591209644852,0.004940999758498495,0.9924051973665738
2016-08-25,1,0.0006450793963053316,0.0007301766489474702,-0.0017179481362344163,0.006440063893936351,0.992301457588472
2016-08-29,1,0.0007778694078283313,0.0008743603757264842,-0.0023591545737823415,0.004940999758498495,0.9924264253806849
2016-08-31,1,0.0007894774822629796,0.0008963895676263375,-0.00518910442762369,0.004940999758498495,0.9921209305793964
2016-09-02,1,0.0009628161623208097,0.0010972939741229171,-0.00518910442762369,0.00587206472829975,0.9919058209215135
2016-09-07,1,0.0007199040516680522,0.0008157602478867515,-0.008368482116568293,0.00587206472829975,0.9909162036687761
2016-09-09,-1,-0.00039240154325099216,-0.00035625810719385696,-0.005168050660872843,0.00587206472829975,0.9916903689130783
2016-09-13,-1,-0.0005494882627264657,-0.0004882024248234016,-0.003957572924078537,0.00587206472829975,0.9930143551519626
2016-09-15,-1,-0.00030139341097439124,-0.00027328327801409214,-0.003957572924078537,0.0055806947602539,0.9930802060005486
2016-09-19,-1,-0.00011893143480986143,-0.00011028221947808321,-0.005168050660872843,0.0055806947602539,0.9920410304181991
2016-09-21,-1,-0.00015887961204642435,-0.00010770338127082509,-0.006688841761744292,0.0055806947602539,0.9918204255099244
2016-09-23,1,5.354173415100588e-05,7.96929770580539e-05,-0.008259615952592074,0.0055806947602539,0.9913487438968962
2016-09-27,1,1.8198378645420595e-05,2.811272450445044e-05,-0.008259615952592074,0.008097223566026074,0.9905074166832388
2016-09-29,1,0.00012121753045203546,0.00014250462258155695,-0.008259615952592074,0.008097223566026074,0.9907080168906967
2016-10-03,1,0.00015631888785919655,0.00015784689467128558,-0.008259615952592074,0.006854353289764681,0.9907737428504905
2016-10-05,-1,-0.0006921127979407939,-0.0005837358154604625,-0.012269641409360186,0.006854353289764681,0.9902337902333886
2016-10-07,-1,-0.0008876250381429699,-0.0007696308644748505,-0.007909338462159621,0.007607957815175247,0.9904019086664542
2016-10-11,-1,-0.0009426591528216386,-0.0007943611833062575,-0.007909338462159621,0.007607957815175247,0.9892040865878808
2016-10-13,-1,-0.0006527214412319438,-0.0005370937080162151,-0.009405023423674908,0.006784096600027349,0.9894280564360183
2016-10-17,-1,-0.0012343158178912688,-0.0010953399500989798,-0.009033156545267523,0.006784096600027349,0.9903213383838974
2016-10-19,-1,-0.001066517909308637,-0.0009485755204653376,-0.009033156545267523,0.004796269738350591,0.9910055369895973
2016-10-21,-1,-0.0011279837822551371,-0.0010007096839066058,-0.006380985594711896,0.00610338254639594,0.9903438816311687
2016-10-25,-1,-0.0015285936403890928,-0.001360503736074521,-0.005682638565633412,0.00610338254639594,0.9910916825894032
2016-10-27,-1,-0.0014133595033451218,-0.0012720205191216582,-0.005682638565633412,0.006573519504175146,0.9906894480077512
2016-10-31,-1,-0.0010766840525959004,-0.0009792424161766226,-0.005682638565633412,0.0067249208083723575,0.9908468807463074
2016-11-02,-1,-0.0023147966635089536,-0.002054827098105956,-0.005119879487558951,0.0067249208083723575,0.9920062865067998
2016-11-04,-1,-0.0021914917090633205,-0.0019499899612243567,-0.004465767485017626,0.0067249208083723575,0.9919521559472885
2016-11-08,-1,-0.0012384279014513182,-0.0011231104607188874,-0.004465767485017626,0.0067249208083723575,0.9927066962365115
2016-11-10,-1,-0.0013196534204705562,-0.0012001717591528867,-0.003800120709995545,0.0067249208083723575,0.9929348650024528
2016-11-14,-1,-0.0013803129185913662,-0.0012561092438809593,-0.0026783535990362803,0.0067249208083723575,0.9931517662180797
2016-11-16,-1,-0.003853894816469978,-0.0033435596180045003,-0.0026783535990362803,0.0067249208083723575,0.9920310701395731
2016-11-18,-1,-0.002506752925607589,-0.0022108583173366834,-0.003359148550689864,0.0067249208083723575,0.9939222033096217
2016-11-22,-1,-0.0020998774291644496,-0.0018663569965515008,-0.0025876732891659685,0.006431194789582904,0.9945615764616441
2016-11-25,-1,-0.0016695607310054437,-0.001498743279093623,-0.003359148550689864,0.004493209805807844,0.9951792356183952
2016-11-29,-1,-0.0012962656825071517,-0.001193459732955325,-0.003388125837256192,0.0035549135887794235,0.9952844938410661
2016-12-01,-1,-0.0015719104404437665,-0.0014482735341045509,-0.003388125837256192,0.0035549135887794235,0.9956178693992259
2016-12-05,-1,-0.0007717455053565937,-0.0007273242653167129,-0.0024528786779454944,0.0034954354487091196,0.9960284217952543
2016-12-07,-1,-0.0002254317799943246,-0.0002153738238667018,-0.0024528786779454944,0.003344618794788467,0.9962499700764583
2016-12-09,-1,-7.694705281693176e-05,-4.3948570241363684e-05,-0.0024528786779454944,0.0034954354487091196,0.9959555914321288
2016-12-13,1,0.0002523168565750475,0.00037860598816674305,-0.003388125837256192,0.003344618794788467,0.9957460118763124
2016-12-15,-1,-0.0002403703632578128,-0.000195266132931926,-0.003388125837256192,0.003344618794788467,0.9959819897608208
2016-12-19,1,8.096063932389697e-05,0.00018882631185103323,-0.0039890102500780315,0.003048257496130061,0.9961037733359511
2016-12-21,1,5.264484459095817e-05,0.00014385456958747767,-0.0039890102500780315,0.003344618794788467,0.9957048339736766
2016-12-23,-1,-0.00015261568697628403,-0.000124855512675749,-0.0031529604067248407,0.0037621962896225965,0.9950352483916404
2016-12-28,-1,-0.00010345773200701153,-6.033444184054486e-05,-0.0031175493908293175,0.004570216482516294,0.9947833480610389
2016-12-30,-1,-0.00017929724139871544,-0.00013824731087463642,-0.0028088766137076425,0.004570216482516294,0.9947920806533661
2017-01-04,1,7.531723913959201e-05,0.00016698526427039856,-0.0036470827256666776,0.006559264347144179,0.9940280663714575
2017-01-06,1,0.0005537784751336978,0.0007118205949605395,-0.0036470827256666776,0.006543712787360859,0.9944006234799154
2017-01-10,1,0.000817962041350559,0.0010116671819541917,-0.0036470827256666776,0.00523150060442245,0.9946598950961846
2017-01-12,1,0.0005968388295591511,0.0007496645451495606,-0.0028088766137076425,0.008705277853687358,0.9941407817519439
2017-01-17,1,0.0005939381870131534,0.0007631031384143714,-0.0023709589742822315,0.008705277853687358,0.9942270938456161
2017-01-19,1,0.0005041798246935364,0.0006567718904172407,-0.0023709589742822315,0.008705277853687358,0.9943792344586391
2017-01-23,1,0.0008331671344028343,0.0010465100216117476,-0.002477612973139428,0.008658623174337396,0.9944610485538224
2017-01-25,1,0.0014255946963598288,0.0016684082800341054,-0.0036470827256666776,0.007307356159338554,0.993752805125039
2017-01-27,1,0.001668516335091293,0.001953857003309568,-0.0038275536119405183,0.0040064889673900655,0.9939027039341891
2017-01-31,1,0.0013838080157768985,0.001617657860416708,-0.003617982273674748,0.004595638742632248,0.9940546823237706
2017-02-02,1,0.0008000600321942554,0.0008766417866055163,-0.003617982273674748,0.003238161938903605,0.9945504548982562
2017-02-06,1,0.000981061459603305,0.001075681066184499,-0.005747767747102583,0.00290970715051093,0.9940759883840867
2017-02-08,1,0.0012330438318992074,0.001379854646028734,-0.005747767747102583,0.0019736866960587372,0.99383380795404
2017-02-10,1,0.0018024560618716122,0.002037916165530329,-0.005747767747102583,0.001220768745252784,0.9940932097893354
2017-02-14,1,0.002133649164639276,0.0024364289816218034,-0.006559831594909856,0.0009581414736705073,0.9935534055601347
2017-02-16,1,0.0022557995398465947,0.002584525935008822,-0.006559831594909856,0.0008219031862731723,0.99353667613907
2017-02-21,1,0.001790471481838001,0.0020411425342340564,-0.005747767747102583,0.0009750844022215268,0.9942101248709685
2017-02-23,1,0.0009835817159994935,0.0011266218074162384,-0.005726090900238146,0.0009750844022215268,0.9956679952963141
2017-02-27,1,0.0010385402935603563,0.0012098736237743028,-0.005352604913019053,0.0009750844022215268,0.995741908630847
2017-03-01,1,0.0007024308998222485,0.0007558086889777151,-0.005726090900238146,0.0009750844022215268,0.9951525014487608
2017-03-03,1,0.0003114688692719715,0.0003135142758644995,-0.005588370786155221,0.0009750844022215268,0.9955446219512388
2017-03-07,-1,-5.1856304063946655e-05,-3.4631200724109345e-06,-0.00448679217905381,0.001599197880039774,0.9959415362373706
2017-03-09,1,4.2648773845014485e-05,6.115531406126424e-05,-0.002984911171512358,0.003489367034580971,0.995620441438436
2017-03-13,-1,-0.0002205976224885254,-0.000139166293747834,-0.00446382706597543,0.0013704242774770297,0.9958275590162127
2017-03-15,-1,-0.00038624089706850665,-0.0002919586686332685,-0.002795890910754965,0.0013704242774770297,0.9961039046234336
2017-03-17,-1,-0.0005024040508801071,-0.00038854550822164843,-0.0038568747943196376,0.001958558059789568,0.9959798509452523
2017-03-21,-1,-0.0008692144639597386,-0.0006895042110344052,-0.0026872258360196247,0.0023165525206407774,0.9958891148228957
2017-03-23,-1,-0.001276552226324401,-0.0010409145848748725,-0.0025958115426791533,0.005005298203586923,0.9956695453466006
2017-03-27,-1,-0.0009352968212505947,-0.0007549624544804969,-0.0025958115426791533,0.0053592961755225006,0.995079285856574
2017-03-29,-1,-0.0011947669121508736,-0.0009198882094420426,-0.001989144690664213,0.004107995220699247,0.9959835469831956
2017-03-31,-1,-0.0013495391410671162,-0.0010565359523273764,-0.0025958115426791533,0.004107995220699247,0.9958381106147481
2017-04-04,-1,-0.0007415336231863686,-0.0005716569188398285,-0.0019863850215120797,0.008053682171248968,0.9944425337975291
2017-04-06,-1,-0.0006842380340973391,-0.000513856718533687,-0.0019863850215120797,0.008053682171248968,0.9942512982294321
2017-04-10,-1,-0.0011575571086661234,-0.0009164702037597348,-0.0019802076489922114,0.008053682171248968,0.9940912312361149
2017-04-12,-1,-0.0014036809402346324,-0.0011236624187598468,-0.0017139911775353467,0.008053682171248968,0.9937497842779314
2017-04-17,-1,-0.000853668017619742,-0.0006760005302194362,-0.0017139911775353467,0.008053682171248968,0.9937710227029818
2017-04-19,-1,-0.00046832919687994943,-0.00034289693953931877,-0.0024165541082903147,0.005420089107273311,0.9942087973978289
2017-04-21,-1,-0.0001663837040247078,-9.112667393964467e-05,-0.0017139911775353467,0.005726637827836075,0.9940805591612258
2017-04-25,1,0.00046405690304486547,0.00046531590128992626,-0.0017139911775353467,0.005726637827836075,0.9942857660583753
2017-04-27,1,0.00017872432425929317,0.00023471401109697316,-0.0015278259785023096,0.00940400122015567,0.9936393480613869
2017-05-01,1,9.749255402772481e-05,0.00015501911101606331,-0.0009675920891593732,0.00940400122015567,0.9935831321250478
2017-05-03,1,0.0016537345634122724,0.0018335605613081444,-0.0009675920891593732,0.006157310715054485,0.9950206986000859
2017-05-05,1,0.002097453398950488,0.0023332420635791564,-0.0009675920891593732,0.004490350151184824,0.99562539213384
2017-05-09,1,0.0018078993550280458,0.0020053226935599026,-0.0006177469561408995,0.004490350151184824,0.9960053991770408
2017-05-11,1,0.0016909446162343502,0.0018459286227962256,-0.0009675920891593732,0.004490350151184824,0.995100903151602
2017-05-15,1,0.0016843435797713091,0.0018460298514820584,-0.0009675920891593732,0.005971420632827932,0.9941703216263387
2017-05-17,1,0.0016189955385694003,0.0017714224103863628,-0.0009675920891593732,0.006460833012014694,0.9938443882691419
2017-05-19,1,0.001825559963274699,0.001990575124816933,-0.0009223358775439163,0.006460833012014694,0.9938979201563783
2017-05-23,1,0.0020927866258093303,0.0022853321823970373,-0.0006177469561408995,0.0054760744955307415,0.9943517751874185
2017-05-25,1,0.0023819073825972524,0.0025959815087646682,-0.0006177469561408995,0.0046021351081523484,0.9948819303904692
2017-05-30,1,0.002371207153142979,0.0025813873137094396,-0.001778245519322425,0.004090153867989476,0.9943174626944324
2017-06-01,1,0.00300912314930576,0.003325964441744279,-0.004400704929218165,0.003067745815879927,0.994161038125339
2017-06-05,1,0.0031908827935133903,0.003543052417103774,-0.0056407606654034995,0.003872424248941012,0.9936951328030489
2017-06-07,1,0.002995981161999832,0.0033087885001513665,-0.005884772408866945,0.003872424248941012,0.9932506777844939
2017-06-09,1,0.002321469519573801,0.0025266719088789967,-0.005639955065539238,0.0044383586301937165,0.9939743112201758
2017-06-13,1,0.002098792367359133,0.0022651521127129144,-0.004150356383704253,0.0044383586301937165,0.9951195732169524
2017-06-15,1,0.002074645872004639,0.002245321432282372,-0.004150356383704253,0.003872424248941012,0.9950918092216122
2017-06-19,1,0.0028459525840525486,0.0031585052244592605,-0.004150356383704253,0.0028760447095487274,0.995343091413625
2017-06-21,1,0.002964540074465856,0.0032945231612717357,-0.004150356383704253,0.003872424248941012,0.995378285927101
2017-06-23,1,0.0028885070274192906,0.003192849409277834,-0.004150356383704253,0.0029921129636168073,0.9951598760924398
2017-06-27,1,0.002396255655184118,0.002634452989189852,-0.0030259161819644626,0.003166767966465627,0.9959396860906933
2017-06-29,1,0.002346316469269704,0.0025878262572220333,-0.0030259161819644626,0.004487324315142123,0.9954780790287592
2017-07-03,1,0.002265335831632841,0.002498782277479271,-0.0022071275127827214,0.005427348191911099,0.9956879461626311
2017-07-06,1,0.002093501097053111,0.0023411093551651396,-0.0008074385702697608,0.005970001406327633,0.9945541282669512
2017-07-10,1,0.002459750116141017,0.002756278357500605,-0.0009015937035157422,0.005427348191911099,0.9949140097339567
2017-07-12,1,0.002539044436834258,0.002839014841379892,-0.0022071275127827214,0.005550187511992547,0.9939931482487471
2017-07-14,1,0.002140418371702898,0.0023603430923211993,-0.0009015937035157422,0.005550187511992547,0.9945148303357789
2017-07-18,1,0.0014951138110386392,0.0016211307217383606,-0.0009015937035157422,0.006353900714707627,0.9941391565603266
2017-07-20,1,0.0016579219647202498,0.001795253328244955,-0.0022071275127827214,0.004497316205493248,0.9938522118934638
2017-07-24,1,0.0015550189696210321,0.001675577588710932,-0.001992573693636616,0.005976036822762396,0.9936613359892303
2017-07-26,1,0.001314023145730085,0.0013836339225440117,-0.0017478951184846134,0.007107233937558588,0.9933570895390411
2017-07-28,1,0.0010996790052286098,0.0011093591626408054,-0.0018624249079390897,0.005976036822762396,0.993891194877061
2017-08-01,1,0.0011076597086246741,0.001108852927651486,-0.0018624249079390897,0.00521705491799284,0.9938448947928771
2017-08-03,1,0.0008664906262232039,0.000891220386982856,-0.0017478951184846134,0.00521705491799284,0.9951408089806955
2017-08-07,1,0.0006243340129675063,0.0006962543723849669,-0.0020906717915107134,0.00521705491799284,0.9949157570901058
2017-08-09,1,0.0004842850071547359,0.0005782843310928065,-0.0018624249079390897,0.004150098251380687,0.9958022210387977
2017-08-11,1,0.0004866296535104673,0.000588564432858805,-0.0018624249079390897,0.00521705491799284,0.995224987368886
2017-08-15,1,0.0004915294443252035,0.0006130758668285573,-0.0020906717915107134,0.0038115336177084467,0.9952314972888696
2017-08-17,1,2.5300123710952633e-05,0.0002002774133063014,-0.0020906717915107134,0.0038115336177084467,0.994752470942986
2017-08-21,1,3.0099345329758398e-05,0.0001888861780208398,-0.0020906717915107134,0.0038115336177084467,0.9947994489081133
2017-08-23,1,5.947535016386993e-05,0.00022598111395782656,-0.0020906717915107134,0.0038115336177084467,0.9948909307395303
2017-08-25,-1,-0.0004255633370992862,-0.00019555494928213404,-0.0028663548510693432,0.0038115336177084467,0.9936578547077793
2017-08-29,-1,-0.0002506331403572281,-5.09733879645748e-05,-0.0047325356347103645,0.0019331865364515513,0.9934121776212138
2017-08-31,-1,-0.00022867512486704543,-1.3321880079198703e-05,-0.0047325356347103645,0.001975368668349792,0.9936273400211448
2017-09-05,-1,-0.0006811149456217657,-0.0004046888395898697,-0.0047325356347103645,0.002581708399107694,0.9936506426996397
2017-09-07,-1,-0.0008512575524128851,-0.0005450070982508676,-0.0047325356347103645,0.0031942961459897512,0.9933383704057037
2017-09-11,0,-0.00022584203565234736,9.39785510609397e-07,-0.0047325356347103645,0.0031942961459897512,0.9934224980392039
2017-09-13,-1,-0.0006422887063372509,-0.00036717054724035145,-0.000730031124771876,0.005613562466389421,0.993217091027437
2017-09-15,-1,-0.0013860044690168678,-0.001048404976797985,-0.002811561358166755,0.005613562466389421,0.9939830022748296
2017-09-19,-1,-0.0012810976843780693,-0.000951266375992605,-0.002811561358166755,0.0031942961459897512,0.9943607612781918
2017-09-21,-1,-0.0011951519170017944,-0.0008630605555611297,-0.002811561358166755,0.0023850860820377124,0.9948495655453541
2017-09-25,-1,-0.001668572804189666,-0.0013197314896142474,-0.0026602397118277296,0.0029803458798447835,0.9956240994518318
2017-09-27,-1,-0.0018917717026788673,-0.0015469220203721944,-0.0026602397118277296,0.0029803458798447835,0.9955479029856374
2017-09-29,-1,-0.001831974356967938,-0.001480422579371741,-0.0027562405542693475,0.0029803458798447835,0.9948810607159969
2017-10-03,-1,-0.0016526771583014587,-0.0013259707010369048,-0.0031810932524681946,0.0029803458798447835,0.9948906215325125
2017-10-05,-1,-0.0013671511161604429,-0.0010796271329151811,-0.0031810932524681946,0.0029303628380388004,0.99212212816517
2017-10-09,-1,-0.0014746787797419543,-0.001289804438142425,-0.003204494859502054,0.0029303628380388004,0.9924066446040543
2017-10-11,-1,-0.0011114149964105166,-0.0009818638397268307,-0.003204494859502054,0.002264972755853818,0.9919513928340277
2017-10-13,-1,-0.00116086333480635,-0.0010420276944689412,-0.004491970787515646,0.002264972755853818,0.991126489587917
2017-10-17,-1,-0.0008873530299166154,-0.0008214711860092583,-0.0046166175209782865,0.002567552638364233,0.990868140286327
2017-10-19,-1,-0.0008964609204599324,-0.0008355870071839048,-0.007085612240978216,0.002567552638364233,0.9905553837065741
2017-10-23,-1,-0.0007029062960321739,-0.0006878223166732235,-0.0046166175209782865,0.0020178420781668802,0.9909010452271877
2017-10-25,-1,-0.0009319333243515256,-0.000897152013524118,-0.00380097903589597,0.004161007332092661,0.9907698222683745
2017-10-27,-1,-0.0007821810241917017,-0.0007689565820513152,-0.0037340824786412053,0.0030759504313587005,0.9916626473851908
2017-10-31,-1,-0.0011953298341623605,-0.0011092154982502828,-0.0030990225374860946,0.009450533080588646,0.9905822375324554
2017-11-02,-1,-0.0007564141425362063,-0.0006955091035212855,-0.0030990225374860946,0.009450533080588646,0.9929527098362776
2017-11-06,-1,-0.0005136399754501247,-0.00047844018318758804,-0.0027154010034472795,0.0061368569049928545,0.9936178334618898
2017-11-08,-1,-7.760355135741119e-05,-3.6783241267523514e-05,-0.0027154010034472795,0.0030759504313587005,0.9942521766856011
2017-11-10,-1,-0.0005987776768623459,-0.0005825116584558905,-0.0027154010034472795,0.0037012097826279546,0.9945747736177368
2017-11-14,-1,-0.0005316083439042355,-0.0005313745641042007,-0.0027154010034472795,0.0037012097826279546,0.9944553454042119
2017-11-16,-1,-0.0009946380082705738,-0.000926719776550729,-0.001939417089217933,0.0037012097826279546,0.9946561531735358
2017-11-20,-1,-0.0010006735105531047,-0.0009193948000055352,-0.0023420443676354747,0.0061368569049928545,0.9942816242493403
2017-11-22,-1,-0.0008986266846024377,-0.0008289186809538119,-0.0023420443676354747,0.0046417649190814755,0.9942874117396191
2017-11-27,-1,-0.00088492401446878,-0.00080497505734077,-0.002527654294405022,0.0035645314209021483,0.9944976486199615
2017-11-29,-1,-0.0002294742527747115,-0.00021712452347502607,-0.002527654294405022,0.0031896620854446086,0.9954911992405957
2017-12-01,1,0.00019112265870626594,0.0002690547491033473,-0.0026634147942712376,0.002708586050000669,0.9958618167645495
2017-12-05,1,3.089522021125817e-05,7.327147981185333e-05,-0.0026634147942712376,0.0031896620854446086,0.9955164133533809
2017-12-07,1,8.079812276170128e-05,0.00013286593489280022,-0.0026634147942712376,0.003257424338804198,0.9953509220564783
2017-12-11,1,1.4821434908942612e-05,7.155176003775522e-05,-0.002574213365146152,0.003196073382164498,0.9957702117096378
2017-12-13,0,-4.717133157074234e-05,2.6956947118743043e-06,-0.0025402180686667766,0.003583765311061817,0.9954556027791835
2017-12-15,1,6.0963777675465995e-05,0.0001232086583957387,-0.002574213365146152,0.003583765311061817,0.995193752456759
2017-12-19,1,0.00024518946488624575,0.00034064117145874014,-0.0025402180686667766,0.003583765311061817,0.9954102503037062
2017-12-21,1,0.00022466828462051755,0.00032608922163508523,-0.0015434386827402424,0.006506993001710749,0.994909938387762
2017-12-26,0,-1.778300722989236e-05,3.5578594826648986e-05,-0.001277741205323344,0.006506993001710749,0.9944701490556601
2017-12-28,1,0.0001936008564713834,0.00027948265350884817,-0.001277741205323344,0.006863913441772134,0.9943373206400861
2018-01-02,0,-3.062123043840248e-05,1.5507324257062904e-05,-0.001277741205323344,0.006863913441772134,0.9938371609390255
2018-01-04,1,0.00024024215401066077,0.00033148354570479096,-0.0037358746227342077,0.005946993440947142,0.9932723295899537
