JNU-Tangyin/eata/results/Batch4_SP500/Batch4_SP500-VRSK.csv
Date,Action,Predicted_Q25,Predicted_Q75,Actual_Q25,Actual_Q75,RL_Reward
2010-12-14,0,0.0,0.0,-0.003634550778633521,0.00594601028895823,0.9942955328979933
2010-12-16,0,0.0,0.0,-0.00616585001386267,0.002273742821866573,0.9942346251975079
2010-12-20,0,0.0,0.0,-0.00616585001386267,0.0014577040276955435,0.9953346674291661
2010-12-22,0,0.0,0.0,-0.00616585001386267,0.0014577040276955435,0.9950674059286673
2010-12-27,1,0.0052379720467197214,0.005913545110757116,-0.005247489196039079,0.0014592993254172256,0.9922363867498246
2010-12-29,1,0.00440047592439336,0.004894287241910574,-0.004378591301668116,0.002269590468722373,0.9933004412906059
2010-12-31,0,0.0,0.0,-0.004378591301668116,0.002952215421500223,0.9947143791364523
2011-01-04,0,0.0,0.0,-0.004378591301668116,0.002952215421500223,0.9946215258464352
2011-01-06,1,0.0005726819342655714,0.0006300718116977195,-0.004378591301668116,0.002952215421500223,0.9943959670536453
2011-01-10,0,0.0,0.0,-0.004378591301668116,0.004284657868302728,0.9943687228474833
2011-01-12,0,0.0,0.0,-0.004135063318099452,0.00392395528953907,0.9947120347615955
2011-01-14,1,0.001893167545907355,0.0019446525670373516,-0.003908601658076659,0.00392395528953907,0.9947348310732401
2011-01-19,1,0.0017863147613954014,0.0018191631613775152,-0.0036174751267806903,0.00392395528953907,0.994822535042891
2011-01-21,1,0.0015210757914149947,0.0015214104865246389,-0.0036174751267806903,0.004284657868302728,0.9943500962828211
2011-01-25,0,0.0,0.0,-0.005291675938459849,0.0031840154894972944,0.993790051436666
2011-01-27,0,0.0,0.0,-0.005291675938459849,0.0025183567809020516,0.9938500886106313
2011-01-31,0,0.0,0.0,-0.005426097474345037,0.0018965891886660274,0.9924043305513218
2011-02-02,1,0.0005542948459017687,0.000677917798748954,-0.004174695026533835,0.0018965891886660274,0.9927395358413518
2011-02-04,1,0.00015456834341642724,0.0003338943117514176,-0.004192275081547391,0.0031840154894972944,0.9916493562306399
2011-02-08,1,9.09842115931768e-05,0.00028234199231537275,-0.004192275081547391,0.0035165943495814654,0.9913744485396541
2011-02-10,1,0.00019916101233953553,0.00035973547371375927,-0.005602205531623295,0.004038124222208861,0.9908437863676566
2011-02-14,1,0.0004518160409798607,0.0005688898196955798,-0.010196583562396331,0.004038124222208861,0.9901901383149705
2011-02-16,1,6.154385100798549e-06,0.00019256274491298597,-0.012672590832699216,0.004038124222208861,0.9893135101489688
2011-02-18,-1,-0.0011634033801799632,-0.000756745805546925,-0.012672590832699216,0.006744635991534848,0.9890883959008772
2011-02-23,-1,-0.002353153611617708,-0.0018551742127299827,-0.006782072646739384,0.007969327347604206,0.9900197470871245
2011-02-25,-1,-0.0025083951884982965,-0.001989586537905616,-0.006782072646739384,0.009215727944420302,0.9893237851962414
2011-03-01,-1,-0.004855042694351544,-0.004051072745197715,-0.005733586445188128,0.009750223474309032,0.9897683939580939
2011-03-03,-1,-0.004510016319427629,-0.003750140574609983,-0.005733586445188128,0.00961717630914902,0.9902434643072109
2011-03-07,-1,-0.0030756113675794615,-0.002523095529650656,-0.005733586445188128,0.00961717630914902,0.9909352716902063
2011-03-09,-1,-0.0028797412801723076,-0.0023449259582147127,-0.005733586445188128,0.009368709278089561,0.991211120762368
2011-03-11,-1,-0.0023949954873379435,-0.0019660832746984046,-0.006782072646739384,0.009368709278089561,0.9911207420423475
2011-03-15,-1,-0.0030432214152003737,-0.0025405218053477256,-0.005733586445188128,0.009368709278089561,0.9914107964260617
2011-03-17,-1,-0.003958772016267382,-0.0033690298229680444,-0.003353828300743472,0.011272494957690424,0.990529915737695
2011-03-21,-1,-0.002684556501804829,-0.0022447999027132397,-0.005217678854810525,0.0081666577363268,0.9925279692341654
2011-03-23,-1,-0.002878882496794961,-0.0023893884890796913,-0.003353828300743472,0.007016444723834571,0.9929411218392146
2011-03-25,-1,-0.0024345112544825066,-0.002007568005245368,-0.0030900887369072153,0.0046886336054488284,0.9935336330366299
2011-03-29,-1,-0.002244787437392117,-0.0018136015338296304,-0.0030900887369072153,0.0046886336054488284,0.9936737011713094
2011-03-31,-1,-0.0017968602897100612,-0.0014569302259422102,-0.0035489551525212572,0.0046886336054488284,0.9938808718389853
2011-04-04,-1,-0.0017428520822594705,-0.001384179319524004,-0.0027974588527572685,0.0046886336054488284,0.9940662096944178
2011-04-06,-1,-0.0013757500768950973,-0.0010701334387928888,-0.0027974588527572685,0.00609858983073466,0.9934260298121652
2011-04-08,-1,-0.002426498631262082,-0.0019947557277304683,-0.0024937910630039115,0.00609858983073466,0.9939818656060352
2011-04-12,-1,-0.002125609532242091,-0.001754938886093536,-0.0024937910630039115,0.0069033366857223005,0.9935540425102595
2011-04-14,-1,-0.0011227856518243053,-0.0008705832137904721,-0.0027974588527572685,0.0069033366857223005,0.9942517506442445
2011-04-18,-1,-0.0018753867595046369,-0.0015198240775370657,-0.0027974588527572685,0.0069033366857223005,0.9940381332024883
2011-04-20,-1,-0.001990313176419829,-0.001627147827825533,-0.0027974588527572685,0.008959490630475016,0.9930246265376329
2011-04-25,-1,-0.0020115925327734083,-0.001632581379427302,-0.0036631977719229413,0.008959490630475016,0.992591750198093
2011-04-27,-1,-0.001755417867063869,-0.0014386443144936527,-0.0036631977719229413,0.0071173231888812215,0.9930633131897595
2011-04-29,-1,-0.0011907744162374726,-0.00100644056312193,-0.0033665038533914455,0.0071173231888812215,0.9929101855263135
2011-05-03,1,0.00016643217662553933,0.00024213631147701448,-0.0040336535168854016,0.004457728250571901,0.9933766221210248
2011-05-05,1,0.0007807466188121281,0.000911823261126185,-0.0040336535168854016,0.0038362368269954923,0.9942363108115227
2011-05-09,1,0.00045735006764619965,0.0005493223805951371,-0.004084075993826066,0.0038362368269954923,0.9937564818233098
2011-05-11,1,0.0014358262809012984,0.0016731715191548476,-0.004084075993826066,0.0038362368269954923,0.9937662459999899
2011-05-13,1,0.0015978634742477476,0.0019175784895245304,-0.004517296634058142,0.0034040521841212862,0.993862064970201
2011-05-17,1,0.0011183322527869336,0.0013694501984269421,-0.0036817194549365155,0.0038362368269954923,0.9943163771883938
2011-05-19,1,0.001956227163066607,0.0023366805902282017,-0.004437301522278797,0.0038362368269954923,0.994323708462753
2011-05-23,1,0.0010525772780505941,0.0012946520787214307,-0.0036817194549365155,0.0038362368269954923,0.9956995855624339
2011-05-25,1,0.0007690260134057907,0.0009560539809602102,-0.002199870382725046,0.004137973368713445,0.9957913526009647
2011-05-27,1,0.0009890809153645466,0.0012199798811523752,-0.0036817194549365155,0.0041269994855656356,0.9954474289020236
2011-06-01,1,0.0010784871227861946,0.0013242343668122612,-0.002357392052829986,0.005228289853460944,0.9953482076030442
2011-06-03,1,0.0013879607005682268,0.001675870120974861,-0.002357392052829986,0.006918968499980046,0.9949644821424017
2011-06-07,1,0.0006780823469276897,0.000861793619150487,-0.0014851428118952236,0.006918968499980046,0.9951242761467151
2011-06-09,1,0.0009027493775067491,0.0010926507624568417,-0.004261515755923976,0.0066641929385214725,0.9951515808281629
2011-06-13,1,0.00041869873939452337,0.0005387489234310663,-0.00475899539429672,0.0066641929385214725,0.9942147046346309
2011-06-15,1,0.0006942750227721527,0.0008382001731799633,-0.005387244991267838,0.006066454501158092,0.9936967461438306
2011-06-17,1,0.0010784989506488188,0.001326410964631253,-0.0059818088552892066,0.006066454501158092,0.9935149478390221
2011-06-21,1,0.0013455317111519295,0.0016340967449800744,-0.007516987247343107,0.006066454501158092,0.9930542339592446
2011-06-23,1,0.001550414636262847,0.0018404197504061966,-0.007516987247343107,0.00529965551005357,0.993083530911213
2011-06-27,1,0.0011097819150738273,0.0013351554664132789,-0.0059818088552892066,0.00529965551005357,0.9932516936436363
2011-06-29,1,0.0014445214467924716,0.0017066430588005882,-0.007516987247343107,0.004796011536550476,0.9930887966308269
2011-07-01,1,0.002007040631040019,0.0023460114190777307,-0.009658969339645569,0.0031051195678622094,0.9927421856249782
2011-07-06,1,0.0020319858985006984,0.0023344624581477895,-0.01051471234324904,0.0031051195678622094,0.988166341147223
2011-07-08,0,0.0,0.0,-0.011998753258595597,0.0031051195678622094,0.988009484292305
2011-07-12,0,0.0,0.0,-0.010902391087465553,0.00456188437525828,0.9861404294813411
2011-07-14,0,0.0,0.0,-0.010902391087465553,0.005020837126571705,0.9842052713275797
2011-07-18,0,0.0,0.0,-0.010902391087465553,0.005020837126571705,0.9846344140565167
2011-07-20,1,0.9956205622492691,1.0021633128966616,-0.010902391087465553,0.006570320256411272,0.49996186903803247
2011-07-22,-1,-0.0018618799041708715,-0.0014697537473953057,-0.013625095958190217,0.006570320256411272,0.9838646379921502
2011-07-26,-1,-0.0012679477642981562,-0.0010048969553232766,-0.013625095958190217,0.010461599887644977,0.9807131659677204
2011-07-28,-1,-0.0011393688443578909,-0.0009279628326827465,-0.016044905193991425,0.010461599887644977,0.9803667030088151
2011-08-01,-1,-0.001351553532262285,-0.0011368452998333392,-0.01465498579315619,0.015806858375783026,0.9794700026886187
2011-08-03,-1,-0.0007284856232711587,-0.0005756099654852056,-0.005828922996308881,0.011290817821374005,0.9839212157845804
2011-08-05,-1,-0.0013324844092389872,-0.001083700164975795,-0.01094564811925946,0.011290817821374005,0.9835567525581673
2011-08-09,0,0.0,0.0,-0.009848401316592894,0.013446872858243341,0.9848373203374288
2011-08-11,0,0.0,0.0,-0.009848401316592894,0.009674938048465082,0.9864930927821812
2011-08-15,0,0.0,0.0,-0.009848401316592894,0.010884743159713797,0.9861185493273049
2011-08-17,0,0.0,0.0,-0.009848401316592894,0.014588634390802399,0.9850919175603616
2011-08-19,-1,-0.0017543318498680063,-0.0014944499320666245,-0.009477041060092471,0.014588634390802399,0.9854570823568787
2011-08-23,1,0.000721076434564165,0.0007566772435178642,-0.009477041060092471,0.010884743159713797,0.9882538366115244
2011-08-25,1,0.00021549459155710053,0.0002235736841193811,-0.012447213726493076,0.010884743159713797,0.9865328405696863
2011-08-29,1,0.0015178587437684992,0.0016956758574724136,-0.012447213726493076,0.0127174173659594,0.9862187975255602
2011-08-31,1,0.0014611382956907651,0.0015748360313916372,-0.012447213726493076,0.0127174173659594,0.9857312478603181
2011-09-02,1,0.0004445389900087515,0.0004632886233764996,-0.012447213726493076,0.0127174173659594,0.984348777950532
2011-09-07,1,0.0011192021418603467,0.001231559767243906,-0.01146294568245561,0.0127174173659594,0.983453197918448
2011-09-09,-1,-0.00010300148253702086,-3.6967949403526445e-05,-0.009773275455946757,0.0127174173659594,0.9841513524653076
2011-09-13,1,7.876808233281833e-05,0.0001266829479896357,-0.009773275455946757,0.010846625528645692,0.9844969840969119
2011-09-15,1,0.001279195436667101,0.0013935077345066612,-0.010297605552498788,0.009406811305495484,0.9857919862969644
2011-09-19,1,0.0007098919873713212,0.0007435595737718941,-0.010297605552498788,0.009406811305495484,0.9846755716249801
2011-09-21,1,0.0011736637161123766,0.0012525269535175521,-0.010297605552498788,0.009117657179225708,0.985437415942218
2011-09-23,-1,-0.0003866550129317137,-0.0002996511680387687,-0.002319538228098092,0.009406811305495484,0.9868788804031746
2011-09-27,1,0.0013924899825111762,0.001578028351642273,-0.009452929611243045,0.008347493319279703,0.9881264383311295
2011-09-29,1,0.0012571786213629401,0.0014137357992951684,-0.0024943149269487687,0.008347493319279703,0.98795931731044
2011-10-03,1,0.0003544962096794804,0.00041341550210085404,0.001072944977877485,0.006379647909383226,0.9898484837450326
2011-10-05,1,0.0017414640175585838,0.0019884945828581146,0.001072944977877485,0.006379647909383226,0.9884933016922955
2011-10-07,1,0.0017981464935420775,0.002025905503721414,0.001072944977877485,0.010087681599812723,0.9861094110160915
2011-10-11,1,0.0025072922287645797,0.00286760274192907,-0.002176559592304278,0.007059444035511097,0.9863657822434765
2011-10-13,1,0.001716886886771891,0.0019250727240195955,-0.002176559592304278,0.008144190404806911,0.9858934257438515
2011-10-17,1,0.0008496046454040784,0.0009337397545500078,-0.002176559592304278,0.008144190404806911,0.9864234588541689
2011-10-19,1,0.001008015193652127,0.001115056099945061,-0.004026400512114201,0.01197097664972617,0.9852191412750415
2011-10-21,1,0.0015072547032952198,0.0016789852937695157,-0.010319335057146625,0.008360787382845914,0.9847388742937622
2011-10-25,1,0.001016098813480427,0.001131115775813788,-0.007598516385307397,0.010408624517537164,0.9852110534601706
2011-10-27,1,0.0014514928439248952,0.0015886218076178837,-0.007598516385307397,0.009601687420486728,0.9857218575428072
2011-10-31,1,0.0019750154887930513,0.0021947910792708,-0.007598516385307397,0.009601687420486728,0.9860270279584153
2011-11-02,1,0.0025140842996379865,0.0027781749672193966,-0.007598516385307397,0.009601687420486728,0.9878251168943607
2011-11-04,1,0.0038830536098404915,0.004341831210405172,-0.010119245167923651,0.009527824484454833,0.9888392923116799
2011-11-08,1,0.0036386023337732147,0.004060043298851738,-0.013681956280088914,0.009601687420486728,0.987992801557105
2011-11-10,1,0.0034713738647669246,0.0038757105763793376,-0.01426027666392784,0.010408624517537164,0.9869075675911767
2011-11-14,1,0.003047019175543917,0.003414059191775669,-0.013681956280088914,0.010408624517537164,0.9871102131895101
2011-11-16,1,0.002540835617597833,0.0028146218088050323,-0.009926798421672905,0.009601687420486728,0.9879634559725987
2011-11-18,1,0.001868566513122325,0.0020745859654312925,-0.008466289887973346,0.010603395201261794,0.9877492125717722
2011-11-22,1,0.0027328218104862283,0.003081074565417805,-0.008466289887973346,0.013598269913640448,0.9871412352297335
2011-11-25,1,0.0029139899753912774,0.003286962033864311,-0.008466289887973346,0.013598269913640448,0.9867630234441358
2011-11-29,1,0.002985748312788401,0.0033630503306362547,-0.008466289887973346,0.013598269913640448,0.9863334832869585
2011-12-01,1,0.0034443827484790172,0.0038217604028645672,-0.00830786347359369,0.011964065937923662,0.9894120998985507
2011-12-05,1,0.003029545236931107,0.0033122921914195518,-0.008466289887973346,0.008927380015442146,0.9890925916984555
2011-12-07,1,0.0028380303746579224,0.003101151780379156,-0.00830786347359369,0.0066186807843631205,0.9904429646547596
2011-12-09,1,0.002790456610568066,0.003020688036099049,-0.008147258008237707,0.0066186807843631205,0.9918541481379984
2011-12-13,1,0.002335897880316984,0.002504709557228698,-0.008147258008237707,0.008531884366680982,0.9914331323535782
2011-12-15,1,0.002102722886609957,0.002231296475623858,-0.00830786347359369,0.008531884366680982,0.9908825983383666
2011-12-19,1,0.0022660465070076727,0.0023878164947899,-0.008147258008237707,0.010298984198034157,0.9912303865322234
2011-12-21,1,0.002197424005184972,0.0022780027608502893,-0.008489568205631287,0.008531884366680982,0.9917048896842726
2011-12-23,1,0.0026727936067998436,0.002869437505758601,-0.003915536326264794,0.008021666587696135,0.9924115093966688
2011-12-28,1,0.0025058616960171643,0.0026485103558287655,-0.00632179625426496,0.006601008656100617,0.9923955239011983
2011-12-30,1,0.0020710194897674574,0.0020921102163597304,-0.00632179625426496,0.006601008656100617,0.9919505136540462
2012-01-04,1,0.0006311389917696327,0.0007950392852836279,-0.005028449592455566,0.006601008656100617,0.9928516612857629
2012-01-06,1,0.0009930862040136205,0.0010983464887794783,-0.005028449592455566,0.010319237477946322,0.9912649947099686
2012-01-10,1,0.0012784732394166506,0.0013487457428211574,-0.005028449592455566,0.0088946169105668,0.9912174370878145
2012-01-12,1,0.0005149190358707704,0.0007274077251070909,-0.005028449592455566,0.005769857285210187,0.9920051785560902
2012-01-17,1,0.0013687942062303173,0.0013765114705016944,-0.004526585796597019,0.005336808469313619,0.9926254762948291
2012-01-19,1,0.0019210352666603925,0.001949921213987448,-0.004526585796597019,0.004788604545135444,0.9928763628122322
2012-01-23,1,0.0018441613214850324,0.0019260545085135344,-0.005028449592455566,0.004788604545135444,0.9928715144850457
2012-01-25,1,0.0022162893090708984,0.0023686313836620244,-0.005028449592455566,0.005944900509595865,0.9924498252654205
2012-01-27,1,0.0014675660134333974,0.001476553070231973,-0.004526585796597019,0.006077534401627024,0.9926916854449814
2012-01-31,1,0.0013195144476786155,0.0013354396395466649,-0.0037160207069422873,0.007776034515848575,0.9915912143521358
2012-02-02,0,-0.0002260443291740926,2.004140534385434e-05,-0.004759613781378678,0.007776034515848575,0.9912798247348596
2012-02-06,1,0.0012782288377041896,0.001335621346953168,-0.004759613781378678,0.006077534401627024,0.9920670762581031
2012-02-08,1,0.0014235013818652857,0.0014353975028787232,-0.003864076420596091,0.006814347352747172,0.9921163277958047
2012-02-10,1,0.0005884147070124228,0.0007084040146279726,-0.0017345781333756914,0.009317440830996117,0.991106911788694
2012-02-14,1,0.0010332700449894937,0.0010719531578553786,-0.0064184425948343215,0.013091223764329285,0.9898614484763495
2012-02-16,1,0.0005553767602127224,0.0007440860768567512,-0.0064184425948343215,0.009317440830996117,0.9901757510990311
2012-02-21,1,0.000697095381051396,0.0007992328265110625,-0.0016145857706683054,0.011369037379453988,0.9901920046919808
2012-02-23,1,0.0011871206086928674,0.0012428578850439496,-0.0016145857706683054,0.0089030576764793,0.9905616709395285
2012-02-27,0,0.0,0.0,-0.002909305725801629,0.011848074300778836,0.9890300759618728
2012-02-29,0,0.0,0.0,-0.006058465506712163,0.0089030576764793,0.99002824170878
2012-03-02,0,0.0,0.0,-0.002104317984723282,0.0089030576764793,0.9907812826605548
2012-03-06,0,0.0,0.0,-0.002717758783886852,0.0089030576764793,0.9913976398121073
2012-03-08,1,4.964482348599955e-05,0.00013577643661546497,-0.003174840068842178,0.008680575218286475,0.9916477744658471
2012-03-12,0,0.0,0.0,-0.003839947460333191,0.007691725814782344,0.9922178590429556
2012-03-14,0,0.0,0.0,-0.003839947460333191,0.007691725814782344,0.9916160851339088
2012-03-16,0,0.0,0.0,-0.004281093328161147,0.00672956058899517,0.9918282876931629
2012-03-20,0,0.0,0.0,-0.004281093328161147,0.006855894856738046,0.991607067112807
2012-03-22,0,0.0,0.0,-0.005383233980414931,0.006712732944059555,0.9915573083579887
2012-03-26,0,0.0,0.0,-0.006695490528500731,0.0043511629678674715,0.992523543396067
2012-03-28,0,0.0,0.0,-0.005383233980414931,0.008289019586730657,0.9916142557091026
2012-03-30,0,0.0,0.0,-0.006695490528500731,0.008289019586730657,0.9911474414089719
2012-04-03,0,0.0,0.0,-0.0077435927206662486,0.008966920495290605,0.9900384938445429
2012-04-05,0,0.0,0.0,-0.0077435927206662486,0.008966920495290605,0.9897267193866967
2012-04-10,1,0.0012095442988952414,0.0012975237672231187,-0.007106510358669808,0.008966920495290605,0.990318624196579
2012-04-12,1,0.0017119199710083138,0.001850749083490087,-0.007106510358669808,0.006973424267212325,0.9913726340053964
2012-04-16,1,0.00041460393813205206,0.0004796227660568783,-0.007106510358669808,0.007676472528421168,0.9910165039236765
2012-04-18,1,0.0013702614353213668,0.0014445040903802594,-0.007106510358669808,0.006973424267212325,0.9919161554103691
2012-04-20,1,0.0016052778978688188,0.001681508609691074,-0.008192093661407494,0.004792709551104024,0.9908744185844578
2012-04-24,1,0.0013244008071703955,0.0013780645270986686,-0.007612710032211432,0.00718512600124026,0.9908451856112526
2012-04-26,1,0.001954341406455997,0.002129480799234864,-0.007612710032211432,0.004454364233273584,0.992124008567739
2012-04-30,1,0.0015100173645571308,0.0016096295065305016,-0.005559567632447282,0.004454364233273584,0.9926297734926639
2012-05-02,1,0.0016991756843683114,0.0018083782363306398,-0.0046423209672959,0.00394457817485437,0.9940869227265697
2012-05-04,1,0.001823970375211704,0.0019531565827173324,-0.0046423209672959,0.0037927401411850547,0.9930244755769541
2012-05-08,1,0.0014979356450505093,0.001556843264174855,-0.004485642393362825,0.004454364233273584,0.9922928261366769
2012-05-10,1,0.0010059405391536686,0.001028970588610857,-0.004318500143419371,0.004454364233273584,0.9927754062080436
2012-05-14,1,0.0010974218606049702,0.0011126913281394783,-0.0041886862759570225,0.003059869717028552,0.9931577805479519
2012-05-16,1,0.00138259133148324,0.001460425498219646,-0.0041886862759570225,0.005544065314520123,0.9927136235300373
2012-05-18,-1,-0.00017702742750345675,-6.200880320744452e-05,-0.0036452467890573537,0.006626005637264315,0.9939473621174273
2012-05-22,1,0.0004234165814537793,0.00045972369139178333,-0.0039398335356503255,0.005814252198169372,0.9937967872009177
2012-05-24,1,0.0004731202983831724,0.0004910293396250678,-0.0041886862759570225,0.005814252198169372,0.9934127373348055
2012-05-29,0,-0.00012123032398162284,4.444010161494484e-05,-0.004318500143419371,0.005814252198169372,0.9927677456590009
2012-05-31,-1,-0.0002100603215762464,-4.806405647819382e-05,-0.005238974447077073,0.006626005637264315,0.9916966451789299
2012-06-04,-1,-0.0013751713111673112,-0.0010964084320948678,-0.00401004412983692,0.009985981429948627,0.9905218767361794
2012-06-06,-1,-0.0008064384607592925,-0.0005837609716080395,-0.0039559267789867625,0.00841868947902925,0.99163904150908
2012-06-08,-1,-0.000909939870061369,-0.0006474105024558872,-0.003798292726141204,0.006626005637264315,0.9921264406695909
2012-06-12,-1,-0.0005128194846449908,-0.0003454539358472376,-0.003798292726141204,0.006626005637264315,0.9922154152494469
2012-06-14,-1,-0.00041843541938029524,-0.00023644909262531683,-0.003798292726141204,0.007078215828300001,0.9920556181025096
2012-06-18,1,0.00020277846349832937,0.00030059595204587125,-0.004766072288540397,0.007031116592038331,0.9913532135494735
2012-06-20,-1,-0.0002798152498441341,-0.00012117314797620217,-0.004422734657145421,0.006962091878307511,0.9916794491281179
2012-06-22,-1,-0.0008264115919066375,-0.0005938718623580613,-0.004422734657145421,0.006962091878307511,0.9911758572586306
2012-06-26,-1,-0.0016851174740374327,-0.0013222661945746113,-0.004422734657145421,0.00517053191224944,0.9917175783453261
2012-06-28,-1,-0.0006457725159214352,-0.00045581696247818293,-0.0038384250706988447,0.016858823413321136,0.9908831307758631
2012-07-02,1,0.000655505318837173,0.0007086856057774685,-0.004451390885143836,0.0014072992532688164,0.992240193670424
2012-07-05,-1,-0.0006695323538542681,-0.00037490075714027447,-0.0064497517096012485,0.0014072992532688164,0.9905600984972035
2012-07-09,-1,-0.0008940235922282775,-0.0006157888095728632,-0.008761857435256763,0.0011050663283170181,0.9894756883398542
2012-07-11,-1,-0.0005638513754844346,-0.0003262123504886651,-0.008761857435256763,0.016077798467640462,0.9867693720763893
2012-07-13,-1,-0.00050681100686291,-0.00023100374181500246,-0.008761857435256763,0.003681495383870575,0.9873259144404944
2012-07-17,-1,-0.0004423722671934722,-0.00022531080298844586,-0.008190805656616845,0.0031846366050167097,0.988386769976262
2012-07-19,-1,-0.0003983589915980227,-0.00016726087868937053,-0.008190805656616845,0.0031846366050167097,0.9885441281209634
2012-07-23,-1,-0.0011892703884483513,-0.0009104810505293535,-0.005679798019007231,0.006567673676736599,0.9890669760416136
2012-07-25,-1,-0.002257208371115439,-0.0018112388804375828,-0.005564231226403589,0.006567673676736599,0.9893997552602195
2012-07-27,-1,-0.0002174657087638598,-3.782384678004244e-05,-0.005564231226403589,0.002886104514490902,0.9903683052029777
2012-07-31,-1,-0.0007315294925227218,-0.0005060159209002291,-0.006340908085789085,0.002886104514490902,0.9904657760188055
2012-08-02,-1,-0.0003364967781380474,-0.00018157314790415635,-0.005156850928350741,0.005055582022113875,0.9921627588192701
2012-08-06,-1,-0.0018507565562755355,-0.0015126944283003177,-0.004592652596659876,0.006080332245811983,0.9930791722127729
2012-08-08,1,0.00038010146702411186,0.0004583775921805823,-0.004797410238865223,0.005055582022113875,0.9931811189136396
2012-08-10,1,0.0003826760804030857,0.0004345399279695929,-0.005156850928350741,0.005055582022113875,0.9924556906370958
2012-08-14,1,0.0009005150988806699,0.0009354790002957737,-0.005156850928350741,0.003846650747765491,0.9923526598210436
2012-08-16,1,0.0010602982152576438,0.0011692215199412806,-0.006340908085789085,0.003846650747765491,0.9921380313954663
2012-08-20,1,0.0008911171643710845,0.0009508812491633999,-0.006340908085789085,0.003846650747765491,0.9925074701894403
2012-08-22,1,0.0004927862116213625,0.0005068499409491872,-0.006240098239231031,0.003846650747765491,0.9925787434221743
2012-08-24,1,0.0007748288988202283,0.0008396100692026349,-0.006240098239231031,0.001998315110242909,0.9925072305840432
2012-08-28,1,0.00010703411138682268,0.00013625940349412847,-0.006240098239231031,0.0041255026603421695,0.9925147043101366
2012-08-30,-1,-0.00032044086836103424,-0.0002056120396570871,-0.006240098239231031,0.0041255026603421695,0.992421841220703
2012-09-04,1,0.0004196262754171303,0.00043137940553358704,-0.007013612828053939,0.001998315110242909,0.9922618773366076
2012-09-06,1,0.0007454146030559237,0.0007773469260204657,-0.006240098239231031,0.003969586429857371,0.9935314737214558
2012-09-10,1,0.0002668609283835774,0.0002759506836790786,-0.004831548176153888,0.005398576392682932,0.9943059276854509
2012-09-12,1,0.0002762804110953567,0.00028249775058721905,-0.007000172941947411,0.005398576392682932,0.9935268700510417
2012-09-14,-1,-0.000263387298450186,-0.0001948764842341891,-0.007000172941947411,0.005398576392682932,0.9935865277957266
2012-09-18,1,0.0005583021838716951,0.0006556038180083033,-0.007000172941947411,0.005398576392682932,0.9934085034646986
2012-09-20,-1,-4.229659393851353e-05,-3.815217880070932e-05,-0.007976580254811558,0.005398576392682932,0.9935304825470735
2012-09-24,0,0.0,0.0,-0.008875994090110563,0.005398576392682932,0.9926498715448316
2012-09-26,0,0.0,0.0,-0.008177862123750889,0.005398576392682932,0.9929835848254016
2012-09-28,0,0.0,0.0,-0.008177862123750889,0.005398576392682932,0.9931573569229948
2012-10-02,-1,-0.0009496311753011859,-0.0008210479680230583,-0.008137542465431307,0.0062901811028866364,0.9887481929926769
2012-10-04,-1,-9.4265128994785e-05,-7.28109531015618e-05,-0.008920693906621438,0.0048363883977455,0.9878960492544775
2012-10-08,1,0.0003729812053245142,0.0004242727533592158,-0.009724284868127105,0.005278641909767173,0.9869286089156429
2012-10-10,-1,-0.0012106163266810293,-0.001008564175678304,-0.008920693906621438,0.005278641909767173,0.9875293023313274
2012-10-12,-1,-0.001166525278697266,-0.000994591128590489,-0.00637813446711206,0.005278641909767173,0.9879339481787734
2012-10-16,-1,-0.0008720412583660409,-0.000734300460412446,-0.010027630959902178,0.0043645553994264286,0.9873935863367767
2012-10-18,-1,-0.001186303872076792,-0.0010156655638616252,-0.010027630959902178,0.0043645553994264286,0.9877707385983229
2012-10-22,-1,-0.002145918453635908,-0.001855559257148243,-0.005221477593625587,0.005278641909767173,0.9877988642960301
2012-10-24,-1,-0.002312742001345231,-0.0019501029945015783,-0.005348786113736667,0.005426670735838034,0.9878962991284764
2012-10-26,0,0.0,0.0,-0.005348786113736667,0.005609800052802213,0.9875439561150352
2012-11-01,0,0.0,0.0,-0.005348786113736667,0.006929539236165133,0.9915053424163283
2012-11-05,1,0.0005975489479808176,0.0006271009054525842,-0.005348786113736667,0.006929539236165133,0.9920464386607645
2012-11-07,0,0.0,0.0,-0.005221477593625587,0.006751766765890307,0.9931502049513921
2012-11-09,0,0.0,0.0,-0.0039290830678704695,0.008408256800267334,0.9931172161021943
2012-11-13,1,0.00020329360406982127,0.00022642549808700734,-0.0039290830678704695,0.008408256800267334,0.9929319614726957
2012-11-15,0,0.0,0.0,-0.0039290830678704695,0.008408256800267334,0.993045317993753
2012-11-19,0,0.0,0.0,-0.0039290830678704695,0.008947869212656646,0.9917092885693761
2012-11-21,1,0.00011557629603330696,0.00016937563450915673,-0.0034341537032335488,0.008947869212656646,0.9917361825427272
2012-11-26,1,0.0014048194444516808,0.0016380151543907797,-0.0034341537032335488,0.008414551801832166,0.9920560888945166
2012-11-28,0,0.0,0.0,-0.0038337180309138677,0.006751766765890307,0.9921510735139123
2012-11-30,0,0.0,0.0,-0.0038337180309138677,0.0064560171045365084,0.9922383415109436
2012-12-04,0,0.0,0.0,-0.0017400945715308983,0.009603513264099415,0.9909603088384732
2012-12-06,0,0.0,0.0,-0.003615175868790177,0.009603513264099415,0.9911318755002548
2012-12-10,0,0.0,0.0,-0.003615175868790177,0.01163948861866908,0.9909960542602907
2012-12-12,0,0.0,0.0,-0.003615175868790177,0.01163948861866908,0.9912233983357913
2012-12-14,0,0.0,0.0,-0.0015320214714254115,0.01163948861866908,0.9911306858694077
2012-12-18,0,0.0,0.0,-0.002090789716070165,0.011285292017790747,0.9915846433558793
2012-12-20,1,0.002580328727673158,0.002887252486592498,-0.002090789716070165,0.011285292017790747,0.9912376721943673
2012-12-24,1,0.002007350338323137,0.0022071802700964877,-0.0010665734343060082,0.01163948861866908,0.9913854482836876
2012-12-27,1,0.001177806115412431,0.0012733067252860173,-0.0010665734343060082,0.01163948861866908,0.9918920039868024
2012-12-31,1,0.0009525794733651674,0.00098121828180731,-0.0010665734343060082,0.011285292017790747,0.9924410596226232
2013-01-03,1,0.0033206851969285584,0.0037670707065084286,-0.0015320214714254115,0.009728319523353065,0.9936755862603283
2013-01-07,1,0.0028790033291429306,0.0032499154542654056,-0.0010665734343060082,0.009728319523353065,0.9933398447783633
2013-01-09,0,0.0,0.0,-0.0027595388363250723,0.007050754122989146,0.9935245089249249
2013-01-11,0,0.0,0.0,-0.0035457372848421683,0.009728319523353065,0.9928194191673769
2013-01-15,0,0.0,0.0,-0.004164952972142013,0.006206294756797398,0.9931865635343541
2013-01-17,0,0.0,0.0,-0.004164952972142013,0.00719494142477782,0.9934285983756127
2013-01-22,0,0.0,0.0,-0.005199549983549589,0.006206294756797398,0.9934160326286087
2013-01-24,0,0.0,0.0,-0.005908191781006267,0.006206294756797398,0.9928527816367018
2013-01-28,0,0.0,0.0,-0.008025039558660237,0.006206294756797398,0.9921873318867257
2013-01-30,0,0.0,0.0,-0.008025039558660237,0.007919127206353316,0.9883694971536126
2013-02-01,1,0.0029061909570075777,0.0032421985951523093,-0.008025039558660237,0.0076924963997134985,0.988617541400631
2013-02-05,1,0.002205341698208662,0.0024022216594878935,-0.005908191781006267,0.0076924963997134985,0.9893436801141754
2013-02-07,1,0.0016482105253636306,0.0017756219019225902,-0.005199549983549589,0.0076924963997134985,0.9899536296518048
2013-02-11,1,0.0014372456102095732,0.001508713304108204,-0.005908191781006267,0.00651217034907985,0.9896620323129564
2013-02-13,1,0.001583012363744808,0.0016808310577940016,-0.0020060005516303343,0.007513255616864689,0.9897911711256797
2013-02-15,1,0.0014594940232053274,0.0015128459484086538,-0.001963844404661171,0.007483122771089437,0.989896469943372
2013-02-20,1,0.0008701411937989005,0.0008970231862485924,4.233076452719739e-05,0.007483122771089437,0.990294546198092
2013-02-22,1,0.0010345387233208097,0.0010487724297832176,4.478421462287158e-05,0.007483122771089437,0.9904774122203723
2013-02-26,1,0.0005063844912682785,0.0005861955916263641,4.478421462287158e-05,0.007483122771089437,0.9908831146754766
2013-02-28,1,0.0024510992347737126,0.002596774245488511,4.478421462287158e-05,0.006256118936343407,0.9952118348367974
2013-03-04,1,0.003040627537857204,0.0032884695026462398,-0.0008769510976850023,0.004868720650202586,0.9949126710481109
2013-03-06,1,0.002863037544970185,0.0030952467894294934,-0.0029245916768332342,0.004868720650202586,0.9940906637785684
2013-03-08,1,0.0025381759629827493,0.0026852686395717005,-0.005944083526879368,0.004999796087739845,0.992653846080716
2013-03-12,1,0.0017319002086325184,0.0017610001062937912,-0.0032094310350659,0.0067450673342531456,0.9924511912678505
2013-03-14,1,0.0022210458437866886,0.0023120746296705404,-0.003782010777121471,0.004154170771062366,0.9926364350870633
2013-03-18,1,0.0018645895907872202,0.0018755931316347283,-0.0043972067288162026,0.0030800338686584033,0.9920594209432227
2013-03-20,1,0.0012104266431382223,0.0013159656182538271,-0.007868058351154216,0.0021671188442615123,0.9917671433658223
2013-03-22,1,0.001945783133083854,0.0019813580238996235,-0.007868058351154216,0.0021099950407338156,0.9922759897107243
2013-03-26,1,0.001824436609482029,0.00185752435231011,-0.007868058351154216,0.0021099950407338156,0.9918835248672841
2013-03-28,1,0.0034283774632631755,0.0037750620032626896,-0.007868058351154216,0.0021099950407338156,0.9904748683409956
2013-04-02,1,0.002739421243935558,0.0029490537171685326,-0.005644182529488153,0.008837298888333909,0.9906873161187488
2013-04-04,1,0.0012792849127260728,0.0013274849040947577,-0.004212613311623752,0.008837298888333909,0.9914147415933745
2013-04-08,1,0.0017067710406280252,0.0017739798179099576,-0.003451951352221384,0.0039182379366742145,0.9927575406416639
2013-04-10,1,0.002010050864997461,0.0021138491955308165,-0.003451951352221384,0.0037079748078873436,0.9937375631830009
2013-04-12,1,0.0013320288698687494,0.0013447565219446172,-0.0037155469747516415,0.0037079748078873436,0.9936244933739947
2013-04-16,1,0.0007106601164271651,0.0007986971142735432,-0.0034855711737472343,0.005337789949710626,0.9946439842203086
2013-04-18,1,0.0005808011241317283,0.0006748137150415375,-0.0034855711737472343,0.005337789949710626,0.9948343626834288
2013-04-22,1,0.0005567273825141222,0.0006541600804591042,-0.0037155469747516415,0.005586139998449067,0.9944762494161328
2013-04-24,1,0.0006425969271396698,0.0007253143132899709,-0.003919510410791106,0.005049658009872487,0.9947527127771431
2013-04-26,1,0.000688831295745352,0.0007548064121085218,-0.004319113185894953,0.003337059518469724,0.9947668764458288
2013-04-30,1,0.0007175071967712677,0.0008239932044220378,-0.004319113185894953,0.001909646893715849,0.9956145194049528
2013-05-02,1,0.0008158115527874136,0.0008917905625282416,-0.0042341711250475835,0.001909646893715849,0.9956982630270755
2013-05-06,1,0.00034025118362227984,0.0004731128571761905,-0.006168088537615425,0.0027206897089769883,0.9950491616832544
2013-05-08,1,0.0005153941655321472,0.0006232930473443568,-0.006461913491602321,0.001909646893715849,0.9937674151532846
2013-05-10,-1,-0.00022566471187393218,-4.810279755087209e-07,-0.006461913491602321,0.0032639614229180826,0.993736173799052
2013-05-14,1,0.00015743484400342376,0.0003086320110706416,-0.0070447531325579325,0.0020662587812525215,0.993407458337619
2013-05-16,1,0.00027470441632547634,0.000403033106613217,-0.006927756818223568,0.0020662587812525215,0.9936998289062381
2013-05-20,-1,-0.00022918233611399154,-2.5527748406963804e-05,-0.00667293063568146,0.003907931511156875,0.9931697766462209
2013-05-22,-1,-0.0006160830292563642,-0.0003607024148941947,-0.009778325351681117,0.003907931511156875,0.9916651221534285
2013-05-24,-1,-0.0007143546780966559,-0.0004860802781605189,-0.006918871281281324,0.006298982623651854,0.9918268285452838
2013-05-29,0,-9.097664891536094e-05,7.459933641649694e-06,-0.006918871281281324,0.006298982623651854,0.9920742372357769
2013-05-31,-1,-0.0005448433206875784,-0.0003759029586649805,-0.003647369557276851,0.009930882939994784,0.9909217752988079
2013-06-04,-1,-0.0005700050753287396,-0.0004049469343149376,-0.0022791544084388906,0.010224962534414635,0.9908400082602054
2013-06-06,-1,-0.0004264449847884147,-0.00027184352779044494,-0.0006883786735402348,0.008131476866409248,0.9918743754544017
2013-06-10,-1,-0.00012933591489227946,-3.330256888777784e-05,-0.0010395375191011456,0.007342923140116662,0.9922299320697824
2013-06-12,-1,-0.0009401192871289732,-0.0007206193101349403,-0.00046117645387547463,0.008458796974931418,0.9916831195812903
2013-06-14,-1,-0.0006037456648207504,-0.00043262496707468866,-0.0010395375191011456,0.0099856662354055,0.9912743620671474
2013-06-18,-1,-0.00011169076704222657,-6.25756750195994e-06,-0.004373900429759013,0.007851879560274689,0.991612516561069
2013-06-20,-1,-0.0012079585224497008,-0.0009635253127414998,-0.0010395375191011456,0.007851879560274689,0.993135032557453
2013-06-24,-1,-0.0006154159460551075,-0.00044586171700802054,-0.0022791544084388906,0.007851879560274689,0.9933552137189321
2013-06-26,-1,-0.0009152246928722476,-0.000713236189485569,-0.002325852327971766,0.007851879560274689,0.9931548783163745
2013-06-28,-1,-0.00018698192541054297,-6.147927899925184e-05,-0.003916574382489567,0.005233055506346156,0.9944210105459069
2013-07-02,-1,-0.0004403589728503897,-0.0002642021730238224,-0.004337289712779295,0.005233055506346156,0.9923187215954702
2013-07-05,-1,-0.0001856840341875036,-9.324398728406344e-05,-0.004337289712779295,0.0027518461366141146,0.992691090262817
2013-07-09,-1,-0.0003409490217421798,-0.000231809777754641,-0.005650187095660533,0.002270508665699636,0.9924866985075949
2013-07-11,1,0.00029041449266576063,0.0003154092396901832,-0.005650187095660533,0.0016511279173172444,0.993003426469271
2013-07-15,-1,-0.0002824013880378478,-0.00016322777906745204,-0.005261173057157292,0.0003884340940520833,0.993732484397361
2013-07-17,-1,-0.00040816220275247437,-0.00029299377613668906,-0.004959959429479929,0.0016022287706837304,0.9939757996567337
2013-07-19,-1,-0.0004979437751753309,-0.0003530685147520046,-0.0052992787176595404,-8.558528043883329e-05,0.9935527856832767
2013-07-23,1,2.1565371673057187e-05,2.8060955487116906e-05,-0.004959959429479929,-8.558528043883329e-05,0.9933531680858196
2013-07-25,1,0.0001678688569731448,0.00019201611840766582,-0.004959959429479929,0.0009963493096982045,0.9932228375801994
2013-07-29,-1,-5.633778983056296e-05,-3.867668768688394e-05,-0.004959959429479929,0.0016022287706837304,0.9930467843457645
2013-07-31,1,0.00048452153642077685,0.0005466468344359298,-0.004959959429479929,0.0009963493096982045,0.9955624467013209
2013-08-02,1,8.85968639311014e-05,0.00010615071039868608,-0.004959959429479929,0.0010448417041736017,0.9957002159639043
2013-08-06,1,0.0003038002130954198,0.0003454970776685521,-0.002450316943659716,0.003347134461750105,0.9953718310318158
2013-08-08,1,0.00026944126399987365,0.0003063415208269929,-0.002414215512421961,0.003347134461750105,0.9954205819356866
2013-08-12,1,0.00021424063043452474,0.00023723931638868815,-0.002253824331195185,0.005335985709762828,0.9945527985945459
2013-08-14,1,0.0002512328541818833,0.0003064378200433932,-0.0021469294221041807,0.006194557857068554,0.9948788374414929
2013-08-16,1,0.00021750094998187615,0.000252261100863757,-0.0014777870781993974,0.0069924364874259905,0.9948355697743068
2013-08-20,1,0.0003266637250379582,0.0003760323449707156,-0.0011131002873202645,0.007773451050335576,0.9947997792446117
2013-08-22,1,0.00031534081181651397,0.0003601426229943613,-0.0020908458598136756,0.007773451050335576,0.9944571345616512
2013-08-26,1,0.00020645209304299088,0.00021969127229774457,-0.0021402944881311094,0.006943950026043185,0.9946171276688773
2013-08-28,1,0.0003272726589519683,0.0003813383854548893,-0.0020908458598136756,0.006943950026043185,0.9946494864535337
2013-08-30,1,0.0003683276523939291,0.0004414104710032543,-0.0022895646645639174,0.006943950026043185,0.9945641204941981
2013-09-04,1,0.0004498131265921443,0.0005093499991873509,-0.003587931245692249,0.0038170511502687845,0.9946376075815778
2013-09-06,1,2.5144931402498647e-05,3.876869600424578e-05,-0.005915293114202889,0.006454896044705082,0.9935956792632717
2013-09-10,1,0.0004278256320758548,0.0004620312055215706,-0.005915293114202889,0.003391747237024411,0.9943396453118588
2013-09-12,1,0.00031718370927623146,0.0003449524108440988,-0.005915293114202889,0.0033923701739593066,0.9935686131440182
2013-09-16,1,0.0005982532934579803,0.0006617641745090444,-0.005915293114202889,0.0033923701739593066,0.9937116193502167
2013-09-18,1,0.0006469577666483629,0.000717975756378188,-0.005915293114202889,0.0033923701739593066,0.9933518220083566
2013-09-20,1,0.0008632623777224991,0.0009905992906877473,-0.005606410535619518,0.0055803344860108454,0.9933379633454992
2013-09-24,1,0.0006615607784483724,0.0008239386466048353,-0.004768991253773627,0.0055803344860108454,0.9934396471588429
2013-09-26,1,0.00030991003098164026,0.00040627693853914734,-0.004768991253773627,0.0055803344860108454,0.9933459768238834
2013-09-30,1,0.00047255915493960563,0.000609745699252408,-0.004768991253773627,0.00641230426023604,0.993147039587734
2013-10-02,1,2.2538427771461896e-05,8.274909606989099e-05,-0.004768991253773627,0.009941530952801694,0.9928051768666718
2013-10-04,1,0.0005461332101429808,0.0006864843554400396,-0.004768991253773627,0.00641230426023604,0.9933614267723985
2013-10-08,1,0.0004324579528744195,0.0005635622967598364,-0.005029794884997426,0.00641230426023604,0.9931951354187579
2013-10-10,1,0.0009663904242912517,0.0010510821640128505,-0.007520635096344295,0.005431750703572731,0.9893811375291772
2013-10-14,1,0.0007585964746790019,0.0008038398926710306,-0.007520635096344295,0.005431750703572731,0.9888178124994017
2013-10-16,1,0.0007071250208149927,0.0007376685219162278,-0.007520635096344295,0.006246287674892365,0.9888208870756644
2013-10-18,1,0.000831925959298936,0.000882325135378026,-0.007520635096344295,0.006246287674892365,0.988864022695113
2013-10-22,1,0.0005139671032166971,0.0005147311727026087,-0.007787546661002295,0.006246287674892365,0.9881830286385315
2013-10-24,1,0.00031213725970872174,0.00034178592392686475,-0.008056363218746709,0.008767026172566065,0.9877583690292311
2013-10-28,1,0.0003728963810995133,0.00038116028145439176,-0.008056363218746709,0.009804686360333471,0.9874038937567494
2013-10-30,1,0.0003475165560950879,0.00036874613781174176,-0.007787546661002295,0.009227187216703011,0.987743111403319
2013-11-01,-1,-0.0001048085860179171,-6.367276479663018e-06,-0.0058351765764286115,0.009227187216703011,0.9878790628521389
2013-11-05,1,0.00018704097500471685,0.0002390598895158599,-0.004395066570158807,0.009227187216703011,0.9882395894042836
2013-11-07,-1,-0.0002516425011149713,-0.00016525798183605146,-0.0024791474024860463,0.009804686360333471,0.991119801835216
2013-11-11,-1,-0.0005090081832888546,-0.00035651961067866114,-0.00418625179669011,0.009227187216703011,0.9914140899008894
2013-11-13,1,0.00032438631937826106,0.00035699520699484177,-0.005482734103891358,0.008897745137844786,0.9907908755129677
2013-11-15,1,7.532417411790793e-05,0.00015438362496987532,-0.005482734103891358,0.008754701073956333,0.9907634715808693
2013-11-19,1,0.0001546724712174199,0.00018851248549841765,-0.004568305163837491,0.008754701073956333,0.9912596602813329
2013-11-21,1,0.0002538981056702624,0.0002787687549653728,-0.00418625179669011,0.008754701073956333,0.9916232914910881
2013-11-25,1,0.0005749724276372275,0.0005986039838429797,-0.004568305163837491,0.007172507566526361,0.9921091515255765
2013-11-27,1,0.0005120039111207867,0.0005202736503208197,-0.004568305163837491,0.005054153499245379,0.9927052257639974
2013-12-02,1,0.0006501687659637969,0.0007042063000372293,-0.00418625179669011,0.0032107045723367765,0.9928743090934667
2013-12-04,1,0.00042493628832047454,0.00043737299482842043,-0.0048562897834852695,0.002854309298675286,0.9927187417350598
2013-12-06,1,0.0007460742817738101,0.0007844673351477105,-0.006750696556324917,0.0011759144909732622,0.9932136932251371
2013-12-10,1,0.0004269410537260779,0.00043184262668783215,-0.0045343217030321655,0.0011759144909732622,0.9937752311043803
2013-12-12,-1,-9.227972647152309e-05,-2.6491232170148193e-05,-0.0037078203288796944,0.0011759144909732622,0.9949414834369839
2013-12-16,1,0.00034286961229976155,0.0003566062272841439,-0.0037078203288796944,0.0011759144909732622,0.9948167940406313
2013-12-18,1,0.00023839238744368884,0.0002718245880140832,-0.004854528545585034,0.0011759144909732622,0.994210015026004
2013-12-20,1,0.0016964824576668949,0.0018547163869060362,-0.004854528545585034,0.0003803394380906363,0.9935266995940707
2013-12-24,1,0.0011337886875474783,0.0012073552180803832,-0.004854528545585034,0.0015382372465035244,0.9938141076918611
2013-12-27,1,0.0009826591095507895,0.0010211555859095957,-0.004974343707982609,0.003933985689138577,0.9932938883493834
2013-12-31,1,0.0008412091372423753,0.0008546775408788093,-0.004974343707982609,0.007290900980138045,0.9928617664924085
2014-01-03,1,0.0004324821293690026,0.00047217019607916967,-0.008019591976752557,0.007290900980138045,0.992073750660865
2014-01-07,-1,-0.00017922290824527444,-5.357659666467367e-05,-0.007405797627454774,0.007290900980138045,0.9930401484886999
2014-01-09,-1,-0.00046429891055151736,-0.0003002052138901756,-0.007405797627454774,0.007290900980138045,0.9933384972495257
2014-01-13,-1,-0.0006060198690592396,-0.0004273387334001405,-0.004900437806118813,0.00795033545976108,0.9933904269516223
2014-01-15,-1,-0.0003333952234098358,-0.00018595442610396136,-0.004900437806118813,0.008145089729503723,0.9917202759864218
2014-01-17,-1,-0.00039229585123475757,-0.0002358460100509747,-0.004743026303431787,0.007769565732201772,0.9922954319735474
2014-01-22,-1,-0.00037159843596367543,-0.0002056946159408172,-0.004743026303431787,0.007769565732201772,0.9921185887311793
2014-01-24,-1,-0.0006433561601192233,-0.0004413412524531123,-0.004743026303431787,0.007769565732201772,0.9922882918803693
2014-01-28,-1,-0.00018431305672602603,-5.758748969838856e-05,-0.006859657217529899,0.0051465128908046096,0.99163982052889
2014-01-30,0,-0.00011309321053838044,1.7340681065719954e-05,-0.006859657217529899,0.0019157376615090383,0.9923764921829409
2014-02-03,-1,-0.0005858237763770413,-0.0004409719449354473,-0.003948065475858627,0.0019157376615090383,0.993501281381089
2014-02-05,-1,-0.0006454721272596781,-0.0004953156822983904,-0.003948065475858627,0.0051465128908046096,0.9924018809280136
2014-02-07,-1,-0.0003567439114785739,-0.0002593635201257893,-0.005007053983813938,0.007710866443180712,0.9909599573476932
2014-02-11,-1,-8.894449493834878e-05,-2.7537917299128885e-05,-0.0057503474143253235,0.005152731691697763,0.9909475025694805
2014-02-13,1,0.0012327336350674738,0.0013130035147996344,-0.006752710607603334,0.00035681037867210907,0.9919941489267363
2014-02-18,1,0.0003619575085282679,0.0003948736966111791,-0.005800812307085784,0.0017890700497236109,0.9925898296885043
2014-02-20,1,0.0007247685526368474,0.0007263010193629796,-0.006023343684117189,0.00035681037867210907,0.9925937383522779
2014-02-24,1,0.00013794160816790876,0.00021417648129736647,-0.006023343684117189,0.00035681037867210907,0.9927239102646793
2014-02-26,-1,-0.0011721398184573982,-0.0009264653202285724,-0.006594547720146485,0.00035681037867210907,0.9935906496976398
2014-02-28,-1,-0.00025526932446995944,-0.00014055920213885422,-0.0070157168032187155,0.00035681037867210907,0.9927031606840852
2014-03-04,-1,-0.0005336876278905661,-0.0003782442031280972,-0.0070157168032187155,0.00035878912312656465,0.9928301762386561
2014-03-06,-1,-9.808125862240824e-05,-2.919217004678415e-05,-0.006594547720146485,0.0010914346310867081,0.9932822099268903
2014-03-10,1,0.0006495687559443441,0.0006788441108221729,-0.008116223715238818,0.00035878912312656465,0.9925185645061418
2014-03-12,1,0.0001341852154905057,0.00016018134609874284,-0.008116223715238818,0.001551886454077984,0.9926778559364393
2014-03-14,0,-1.5300057804694671e-06,2.7165392618424305e-05,-0.01125103421623782,0.001551886454077984,0.9913582060984807
2014-03-18,1,9.671632202671942e-05,0.00012293282259628815,-0.012008080013274759,0.001551886454077984,0.9901465014875183
2014-03-20,-1,-0.00027573745352536523,-0.00019970789784526702,-0.012008080013274759,0.0018507851308560337,0.9895753010480817
2014-03-24,-1,-0.0007658642218326993,-0.0006238659467438026,-0.010665589394305444,0.00351220204357748,0.9899734845565306
2014-03-26,-1,-0.0009703123716451163,-0.0008086905217901844,-0.010665589394305444,0.006176375916070334,0.9902193222382333
2014-03-28,-1,-0.0013609919502599408,-0.0011529422005234036,-0.009669150114822226,0.006176375916070334,0.9903543007259115
2014-04-01,-1,-0.0010994196538368336,-0.0009260271518265142,-0.009669150114822226,0.00773919828065234,0.988447741191403
2014-04-03,-1,-0.0021114139391960112,-0.0018320328250300564,-0.009669150114822226,0.006176375916070334,0.9892354862112447
2014-04-07,-1,-0.003228362455240476,-0.0028443076437792304,-0.006446751574295535,0.007515929329086688,0.9901379149171835
2014-04-09,-1,-0.0022699532057738952,-0.002029752174447913,-0.006446751574295535,0.007306657449613495,0.9904809573549705
2014-04-11,-1,-0.0037177500545064537,-0.003327304895111789,-0.0029977618236205943,0.008078035052169643,0.9905274328665244
2014-04-15,-1,-0.0035541863115826763,-0.003166018825701225,-0.0029977618236205943,0.007306657449613495,0.9916754752324461
2014-04-17,-1,-0.002973509751131389,-0.002661447502065298,-0.0029977618236205943,0.007306657449613495,0.991892041459842
2014-04-22,-1,-0.0023071751554424617,-0.002106401368930015,-0.0039131412650644974,0.006363744490431319,0.9921089850257292
2014-04-24,-1,-0.0018243025564044757,-0.0016997760346838075,-0.006086719991077171,0.006078461708978447,0.9921061625190659
2014-04-28,-1,-0.002237888881641029,-0.0020696358422554306,-0.003729038103700659,0.006078461708978447,0.9918606212415126
2014-04-30,-1,-0.0012341940361784431,-0.0011825567661572591,-0.006086719991077171,0.0053288562114218625,0.9935103607432656
2014-05-02,-1,-0.0006748864508165248,-0.0006199632264422792,-0.006696072997453872,0.005716276309163853,0.9921689571251423
2014-05-06,-1,-0.0006225188828787413,-0.0005765606706234141,-0.006143763513362356,0.006011566698304895,0.9917913737324995
2014-05-08,-1,-0.0009025225756920274,-0.0008649472127718789,-0.006143763513362356,0.006011566698304895,0.9917292748225762
2014-05-12,1,3.633734438266426e-05,0.00015382447549722037,-0.007563293816201593,0.006011566698304895,0.992316762695717
2014-05-14,1,2.051786466774453e-05,0.00014349111889768162,-0.007358453543849098,0.006011566698304895,0.9924133051155282
2014-05-16,1,0.00029834174937797843,0.000489213794992439,-0.006143763513362356,0.0059788928161640725,0.9931454848037208
2014-05-20,1,1.4433896664505614e-05,0.00015088913669938632,-0.006571277820829033,0.0059788928161640725,0.9929125786690238
2014-05-22,1,0.00036109781147638045,0.0005050898124948295,-0.006571277820829033,0.0059788928161640725,0.9930668629776711
2014-05-27,1,0.0004772404207856566,0.0006617580812451336,-0.007388949401237031,0.0059788928161640725,0.9926435366790723
2014-05-29,1,0.00037702579220332813,0.000539938725411499,-0.006571277820829033,0.0059788928161640725,0.9929679515818531
2014-06-02,-1,-0.0004935475261259356,-0.00048423696797705726,-0.005519725643604456,0.0059788928161640725,0.9938901758019235
2014-06-04,1,3.586339672429867e-05,9.93988212754341e-05,-0.00555565339042947,0.0059715559903370154,0.9940015168123728
2014-06-06,0,-1.0464758756865945e-05,4.4963903876576474e-05,-0.00555565339042947,0.0059715559903370154,0.9937165538488085
2014-06-10,1,4.5863763136084074e-05,0.0001218164936515041,-0.0052185827097673025,0.004705589865330738,0.9941904325033681
2014-06-12,-1,-0.00014720145206341675,-9.22099267668085e-05,-0.004355397550988497,0.004705589865330738,0.9945369310225672
2014-06-16,1,0.0002922842152311273,0.00042454330300776264,-0.004355397550988497,0.004629434224360573,0.9947763118381494
2014-06-18,-1,-0.00022472026557920249,-0.00016988143449392205,-0.0019341071185133357,0.004629434224360573,0.9952767714046862
2014-06-20,1,0.0003005403597101326,0.00044090442657342783,-0.003293139758091923,0.005637165715913931,0.9947798209320047
2014-06-24,-1,-0.00011974915857542606,-2.3431279303887337e-05,-0.0018306396456556138,0.005637165715913931,0.9950456780298798
2014-06-26,-1,-0.0006365195448688266,-0.0006148347296070584,-0.0013054806298881147,0.0059915872607202774,0.9946122850045994
2014-06-30,-1,-0.00022395455693551648,-0.00019263412647546548,-0.0034302462972554343,0.004749162994344852,0.9949353796225009
2014-07-02,1,1.673853212040647e-05,9.17944724983715e-05,-0.0037473401986252205,0.004185867329230829,0.9942663876474508
2014-07-07,1,0.0006232774155473832,0.0008035732977415676,-0.004284496079864561,0.002192484340796329,0.9943672878707307
2014-07-09,1,0.0008013249429412302,0.0011109149280844543,-0.00396017514189144,0.0040098305050064505,0.994488732259115
2014-07-11,1,0.000650203561340331,0.0009103910915146077,-0.004086752103943657,0.004621124633310631,0.9937863824147865
2014-07-15,1,0.001279396956525001,0.0016571752355746495,-0.004086752103943657,0.004621124633310631,0.9934697407869449
2014-07-17,1,0.001209873490934652,0.001561058877587446,-0.004086752103943657,0.007186934816074488,0.9924074955062575
2014-07-21,1,0.0009269530175726509,0.0011257014952971351,-0.004086752103943657,0.007186934816074488,0.9923953893738459
2014-07-23,1,0.001531037354447443,0.0018362076231374347,-0.004086752103943657,0.007186934816074488,0.9924086953586762
2014-07-25,1,0.0015894686566339912,0.0018969614225685092,-0.005056250216515408,0.009133655197385359,0.9921808824098128
2014-07-29,1,0.0010725250430092853,0.0012946777935498154,-0.0035394385170399206,0.009133655197385359,0.9924939274259799
2014-07-31,1,0.00034658398785238477,0.0005081324963115257,-0.002860890398017804,0.009133655197385359,0.9939460504731333
2014-08-04,1,0.00023742781392856253,0.0003679190621769744,-0.0023034301039004806,0.009133655197385359,0.9940126429687204
2014-08-06,1,0.00019152978921462455,0.0002984049824429659,-0.002773983358673037,0.009133655197385359,0.9941746676260633
2014-08-08,1,0.0005080421044164677,0.000672504343678977,-0.002773983358673037,0.007427486210485579,0.9944156562306381
2014-08-12,1,0.0007123607618944253,0.0008910325265856405,-0.002773983358673037,0.00686575385390871,0.9945972610991809
2014-08-14,1,0.001089613520053552,0.0012831070974751863,-0.002773983358673037,0.005039779737560492,0.9957347625334839
2014-08-18,1,0.0014838102829539484,0.0017159545136092565,-0.0031891960706732126,0.004484740862702528,0.9960982126283145
2014-08-20,1,0.0011302789334325463,0.0012903484614580703,-0.002773983358673037,0.004484740862702528,0.9961257264155814
2014-08-22,1,0.001006040790002743,0.0011527586951700416,-0.0033802537605797105,0.004230003594769779,0.9955767163003595
2014-08-26,1,0.0015411061435059762,0.0017984442383578905,-0.004591816024344624,0.00384759403893551,0.9951135581361765
2014-08-28,1,0.0006852233093609152,0.0007053348235071192,-0.005917989311000179,0.00384759403893551,0.9945592852951934
2014-09-02,1,0.0011361002708414397,0.0012330093046096784,-0.006544135759314605,0.001646359907615769,0.9943532225336272
2014-09-04,1,0.0002904862415514843,0.00036474579388319885,-0.007256240354721442,0.001646359907615769,0.9941721859190826
2014-09-08,1,0.00024587510679977134,0.0003120787585344476,-0.007256240354721442,0.001646359907615769,0.9945782440351907
2014-09-10,1,0.0006873445235423587,0.0006873725425876428,-0.00954137820223127,0.001646359907615769,0.9936553448355687
2014-09-12,1,0.0006386094436092636,0.0006406226086234609,-0.011535531492805883,0.0015997873654739387,0.9926213384186361
2014-09-16,1,0.0006105354149438742,0.0006114471251310372,-0.011535531492805883,0.0015997873654739387,0.9926887831703858
2014-09-18,1,0.00022354658507844842,0.0002990817607750516,-0.011535531492805883,0.0012196465504603305,0.9926616094118234
2014-09-22,1,0.0004963484461521,0.0005475974151301704,-0.011099068650769395,0.0026381503476154014,0.993255410841735
2014-09-24,1,0.000386840155574418,0.00045754136872110747,-0.008548145032416986,0.003417638738907077,0.9928578708010498
2014-09-26,-1,-0.0008904158140792542,-0.0006707525087645426,-0.006941611752718978,0.007991994588137305,0.9926110375835813
2014-09-30,-1,-0.00018427630995703832,-5.27706553028904e-05,-0.006839377654033859,0.00898190581159276,0.992039827621208
2014-10-02,-1,-0.00013141160751448528,-4.586972012627215e-05,-0.006839377654033859,0.00898190581159276,0.9912013075133557
2014-10-06,1,1.6557219764307607e-05,9.45503931512726e-05,-0.006839377654033859,0.00898190581159276,0.990815682932613
2014-10-08,1,3.9925561081116445e-05,0.00011635527194235457,-0.005847021359904536,0.00898190581159276,0.9912915596476816
2014-10-10,-1,-0.0007902432244204129,-0.0006012793239983169,0.0005078836431437548,0.009873838247809831,0.9909313535202764
2014-10-14,-1,-0.00043326023386822474,-0.0002896484996854661,-0.004438361861800312,0.009873838247809831,0.990713755309886
2014-10-16,-1,-0.0002510961003335869,-0.0001330700695753167,-0.0010116666207517632,0.009873838247809831,0.9910648024033077
2014-10-20,0,-9.232390426559405e-05,1.2357527816429564e-05,-0.004182881892923257,0.009873838247809831,0.991340757816011
2014-10-22,1,5.292658324752744e-05,0.00016360659365027245,-0.0048470080915489246,0.008324839873547516,0.9919637234956691
2014-10-24,1,0.0009914735096195873,0.00103695158012471,-0.0048470080915489246,0.006088232607523239,0.9928074828097558
2014-10-28,1,0.0014703354663162652,0.0015851878765300621,-0.0048470080915489246,0.0038460208525949065,0.9934600750403778
2014-10-30,1,0.0012061218896895652,0.0012739784621169528,-0.004182881892923257,0.0022824658608963837,0.9947082121441356
2014-11-03,1,0.0009876292147787313,0.0010107474654740172,-0.00341938048979727,0.002878970293142084,0.9950483329285458
2014-11-05,1,0.001635678094985675,0.0017557274295196734,-0.0038843327440909224,0.002128698614155095,0.9953892809526349
2014-11-07,1,0.0015646783026770832,0.0016574500388651472,-0.0038843327440909224,0.0020006827405583123,0.9957312193360321
2014-11-11,1,0.0014396428074589028,0.0015305997452783795,-0.003365269243491893,0.0020006827405583123,0.9964024278033481
2014-11-13,1,0.0008526093443188017,0.0008783222924962301,-0.004020548154007127,0.0020006827405583123,0.995922947138314
2014-11-17,1,0.0009158217419541401,0.0009366699191493103,-0.003365269243491893,0.0023411554256104468,0.9960924408912918
2014-11-19,1,0.0005401551647027978,0.0005963821353298907,-0.0019527206999314197,0.0030384185543431068,0.9953156425094166
2014-11-21,1,1.2478784439160098e-05,7.270469170914587e-05,-0.0023779798641982205,0.0038974790975517424,0.9949261759364086
2014-11-25,1,0.0004424821698537523,0.00045533603221164544,-0.0023779798641982205,0.0038974790975517424,0.9949229857098779
2014-11-28,1,6.399149574379002e-05,0.00011418019801906975,-0.00196538335318972,0.0038974790975517424,0.9949799157108398
2014-12-02,1,0.00044478842672198023,0.00044800349982479146,-0.0026173817653859454,0.0030384185543431068,0.9946935179674398
2014-12-04,1,0.00036158096494847043,0.0003626501502015188,-0.0026173817653859454,0.0030384185543431068,0.9942379299140338
2014-12-08,1,0.0008797523636126465,0.0009416974388362798,-0.003495846468843094,0.002033948896158247,0.9946098152760646
2014-12-10,1,0.0005291308100909566,0.0005577031421784694,-0.003495846468843094,0.0030384185543431068,0.9942157093138457
2014-12-12,1,0.0005012173829460889,0.000539092200945676,-0.0026058752209932364,0.004022861451658331,0.9943011533799855
2014-12-16,1,0.0005932332038456594,0.0006440852339462616,-0.003719715391704045,0.0030137381667218813,0.9939038373940609
2014-12-18,1,0.0012063562532526719,0.0013158748992154808,-0.003719715391704045,0.0020723771591055146,0.994906881006044
2014-12-22,1,0.0010011935183963652,0.0010200596554130299,-0.003719715391704045,0.003302161899392499,0.9946981308496167
2014-12-24,1,0.0009354887017603136,0.000939530791105052,-0.0036851957585259175,0.00392179069262716,0.9942047126030119
2014-12-29,1,0.0009095415944195247,0.0009140706151146596,-0.0051956107788499045,0.00392179069262716,0.9936525587469308
2014-12-31,1,0.00032279996824161213,0.0003922925314783541,-0.004343353167817656,0.004121595488235734,0.9942124139868891
2015-01-05,1,0.00018558074032072635,0.0002613384761398303,-0.0036851957585259175,0.007499007084395866,0.993899149965138
2015-01-07,1,0.00057420136658561,0.0006072628524172889,-0.00337569922058727,0.008562248587559641,0.9933954415996908
2015-01-09,1,0.0007806293158876794,0.0008635044709521544,-0.00337569922058727,0.007499007084395866,0.9936767926447159
2015-01-13,1,0.0008000338301873672,0.0008707787526132535,-0.00337569922058727,0.006333141368907355,0.9938416072082101
2015-01-15,1,0.0004817687207075665,0.0004905801673768245,0.0001520200234355544,0.009331985918949456,0.9933422687352584
2015-01-20,1,0.0007902001990482571,0.0008532338703866291,-0.0006541899008955178,0.009331985918949456,0.9934702811870711
2015-01-22,1,0.00119395313011386,0.0013051188974664662,-0.0027623089501139057,0.007135866662853752,0.9939816583904639
2015-01-26,1,0.0012356631802217517,0.0013643974034260606,-0.0006647964938825085,0.006018138701014401,0.9947259937691434
2015-01-28,1,0.0003672642815726898,0.0004527159781709085,0.0001520200234355544,0.007135866662853752,0.9921264224543414
2015-01-30,1,0.0005835270419558257,0.0006891122751442615,0.00011372956757086252,0.007135866662853752,0.9920722558110866
2015-02-03,1,0.0011497554429545425,0.001345029683710714,-0.0029336000776627675,0.004659395896508276,0.9922642971901615
2015-02-05,1,0.0012715647564008332,0.001475935277803076,-0.004069487309564269,0.004636360607116269,0.992436442832534
2015-02-09,1,0.0009597551825273761,0.0011207657342062571,-0.004069487309564269,0.005681457734856246,0.9906882009458727
2015-02-11,1,0.001044756173743746,0.0012094080744575637,-0.004069487309564269,0.007592285810978996,0.9893187206465728
2015-02-13,1,0.0008843433810031389,0.000989505846622551,-0.004069487309564269,0.0056828032632450145,0.9898852986623063
2015-02-18,1,0.000809341326937468,0.0009086054553665456,-0.0029336000776627675,0.0056828032632450145,0.9901938123367039
2015-02-20,1,0.0004903972288098652,0.0004994234721497112,-0.003029771030602568,0.0056828032632450145,0.9901938226395495
2015-02-24,1,0.0007102884329596308,0.0007772085907240813,-0.005603044684441353,0.0056828032632450145,0.9896699134544101
2015-02-26,1,0.0015029646531003946,0.0016608367320497242,-0.006127677910252171,0.0038442185367209233,0.9918527641985614
2015-03-02,1,0.0012925202254403102,0.0014278758648603117,-0.005603044684441353,0.006607935277568609,0.9915529843527517
2015-03-04,1,0.0009480702697549359,0.0010389709582320822,-0.0034541946641273172,0.006607935277568609,0.9923395027546371
2015-03-06,1,0.000547751793164161,0.0005484655575847359,-0.0028169998085567846,0.009284960720056724,0.9921301563903663
2015-03-10,-1,-0.0004182828488881985,-0.0003172788961885286,-0.0028169998085567846,0.009243258051261001,0.9936429148047461
2015-03-12,1,0.0006171260932496904,0.0006383108807656179,-0.0028169998085567846,0.005939891645166789,0.9952636410975204
2015-03-16,1,0.0008188106126765686,0.0008706774382778162,-0.0032773132225931375,0.004152420673688701,0.9953021883066285
2015-03-18,1,0.0006958175502967561,0.0007325599421949668,-0.0032773132225931375,0.004152420673688701,0.9951896923883964
2015-03-20,1,0.0007739443404911282,0.0008448093155445288,-0.004473545215354881,0.006747976301513984,0.9945136803325768
2015-03-24,1,0.0006857646625532425,0.0007634287299544045,-0.0032773132225931375,0.006747976301513984,0.9948100802601757
2015-03-26,1,0.0002100039151618995,0.0002155540622750744,-0.0017573514783106316,0.006747976301513984,0.9951435711374781
2015-03-30,1,0.000545170093087919,0.0005708692232047424,-0.003207570938320089,0.0034238269756306427,0.995724537925508
2015-04-01,1,0.0003836469655161815,0.0004285362405123149,-0.004182753549919897,0.004305948336730964,0.9919107803956151
2015-04-06,1,0.0006503773280940549,0.0007350793719884136,-0.004182753549919897,0.006747976301513984,0.9917699308242507
2015-04-08,1,0.0005551862210877769,0.0006152890210881838,-0.004395760856848171,0.004305948336730964,0.989847909353043
2015-04-10,1,0.00010191012202039221,0.00011091978665277206,-0.004650337704323216,0.00456219520733981,0.9888072737145873
2015-04-14,1,0.0004032738447689393,0.00045072323310480265,-0.004650337704323216,0.00456219520733981,0.9891136868045074
2015-04-16,1,3.726258836323126e-05,6.30142261560454e-05,-0.00583163915133948,0.00456219520733981,0.9886560761769504
2015-04-20,-1,-6.552666450025922e-05,-2.557323940475426e-05,-0.0052099140548561166,0.003670085167488437,0.9891349303229456
2015-04-22,-1,-7.224786686974263e-05,-4.048771223975827e-05,-0.0052099140548561166,0.003670085167488437,0.9892941398017431
2015-04-24,0,-3.273466872334985e-05,8.722709093411581e-07,-0.0052099140548561166,0.0038587335451884816,0.9893553253312757
2015-04-28,1,4.120448931997048e-05,5.1910104680493585e-05,-0.00583163915133948,0.005193344295098741,0.9884255177992257
2015-04-30,-1,-0.00013315914256802048,-9.26115333912775e-05,-0.00583163915133948,0.0038587335451884816,0.9918831005290276
2015-05-04,1,0.0006430703256701993,0.000726940766683826,-0.007371781606101418,0.0033130913344867397,0.9915220602247625
2015-05-06,-1,-0.0013744175425986133,-0.0011943686037095289,-0.0055179208240443995,0.0038587335451884816,0.9929388455751598
2015-05-08,-1,-0.0009179230892757904,-0.0007873166145394688,-0.006245269144174082,0.0038587335451884816,0.9935283548201831
2015-05-12,-1,-0.000956507867778766,-0.0008276570154172136,-0.006245269144174082,0.004204630108344697,0.9930193228222927
2015-05-14,-1,-0.000605291963001318,-0.0005363182030096857,-0.005347790719134317,0.005114517220413917,0.9930179068462589
2015-05-18,-1,-0.0007010758506126992,-0.000615833623966145,-0.005018225826655041,0.005114517220413917,0.9930805111777088
2015-05-20,-1,-0.0006804898722397002,-0.0005997167172086125,-0.005018225826655041,0.006894337255422262,0.9924292722909984
2015-05-22,-1,-0.0005099043765146627,-0.00044780312164834546,-0.005018225826655041,0.006894337255422262,0.9926301162529282
2015-05-27,-1,-0.0007768382127237941,-0.000660945224570469,-0.005018225826655041,0.006671161869037866,0.9932282762653216
2015-05-29,-1,-0.0012925681420181841,-0.0011037226115108846,-0.004465753389482183,0.006894337255422262,0.9932043476777913
2015-06-02,-1,-0.0010570034061688025,-0.0009038685044712025,-0.004465753389482183,0.006671161869037866,0.9931136339790613
2015-06-04,-1,-0.0006496445686684925,-0.0005391527940032915,-0.003913414197562054,0.005114517220413917,0.9940600332938104
2015-06-08,-1,-0.0008878667535086723,-0.000757606952490758,-0.003913414197562054,0.006671161869037866,0.994085194498145
2015-06-10,-1,-0.0007973626378574348,-0.0006646900454660943,-0.004439706879032378,0.005925968707589199,0.9935008592017297
2015-06-12,-1,-0.0005753416000805893,-0.00047420232175781317,-0.004439706879032378,0.007237519958161076,0.9927380155595401
2015-06-16,-1,-0.0003610201475592851,-0.0003064517890330457,-0.0026026153376398136,0.007237519958161076,0.9925674529035434
2015-06-18,-1,-0.00016293767324314688,-0.0001282094156661785,-0.003376944882353583,0.006194826157697589,0.9928794934696354
2015-06-22,-1,-0.0005653162636774748,-0.0004696102118079815,-0.004439706879032378,0.006194826157697589,0.9916831006769065
2015-06-24,-1,-0.0007944400149924131,-0.0006827332726964729,-0.00318832621355855,0.0077695711128964624,0.9917734050879827
2015-06-26,-1,-0.00036211787571466876,-0.0003242809978479246,-0.0038738508726472785,0.0062709521039995345,0.991123156590656
2015-06-30,-1,-0.0007223071060868854,-0.0006486124030467121,-0.00318832621355855,0.008064859359945838,0.9884335626108741
2015-07-02,-1,-0.0006993184134159948,-0.0005650826011536713,-0.0038738508726472785,0.008064859359945838,0.9884809916424399
2015-07-07,-1,-0.0008870256579696097,-0.0007367171913710645,-0.0037136340211082267,0.0062709521039995345,0.9888993012093086
2015-07-09,-1,-0.0006732069888283584,-0.0005675620107031469,-0.0037136340211082267,0.006120878767512766,0.9890346569264982
2015-07-13,-1,-0.0002434635428309319,-0.0001846383513293435,-0.0037136340211082267,0.005416394509902863,0.9895007869380532
2015-07-15,-1,-6.018937164222291e-05,-2.1330176118330803e-05,-0.004440208104749714,0.0044120235680041,0.9893612244271706
2015-07-17,-1,-0.00021356009844312798,-0.0001645632280160383,-0.004440208104749714,0.004198588778968372,0.9897875678042485
2015-07-21,-1,-0.00013490114937412032,-0.0001311887818927951,-0.0037136340211082267,0.0044120235680041,0.9906087587917761
2015-07-23,1,1.8086369292901674e-05,2.5676274537909123e-05,-0.004440208104749714,0.0044120235680041,0.9894666181512216
2015-07-27,-1,-0.001164067928620827,-0.001042107781674074,-0.007088810296728967,0.0044120235680041,0.9883806146210943
2015-07-29,1,0.0015560498870577503,0.0017264422034565545,-0.010922510837504548,0.0029623360299752656,0.989717118946403
2015-07-31,0,-6.67530157422324e-05,1.6449557196862846e-05,-0.010922510837504548,0.005031749926963225,0.9891891865280957
2015-08-04,1,0.000504500946604751,0.0005413505009757111,-0.013178992670538419,0.005031749926963225,0.9878013644468175
2015-08-06,1,0.00024586983167832984,0.0002506583852695982,-0.011394826704323312,0.005740602241976318,0.9874483283227402
2015-08-10,1,0.0005993205259548985,0.000652469334408158,-0.01214378455921526,0.005740602241976318,0.9861773898564531
2015-08-12,1,0.00038878949085341554,0.0004036641079377914,-0.014640973656955956,0.005740602241976318,0.9858809450929966
2015-08-14,1,0.00022202053157949523,0.00023990195295536945,-0.014640973656955956,0.005740602241976318,0.9854985610143073
2015-08-18,1,0.00027354450822764196,0.00028901802270706164,-0.014640973656955956,0.006299568735539041,0.9854081606069673
2015-08-20,-1,-0.0001451018404384996,-0.00010134560037970288,-0.01214378455921526,0.005181262104413528,0.9866561505588718
2015-08-24,-1,-0.00030496697328418913,-0.00023741813990757528,-0.009936146779624226,0.011148875441693044,0.9879297803431414
2015-08-26,-1,-4.1544077434807434e-05,-1.5587170918572994e-05,-0.009564718918873972,0.0069979432225615815,0.9889440399997129
2015-08-28,1,6.783767192100985e-06,2.5999923422587005e-05,-0.010280543122072553,0.004552762097351682,0.9886857896531749
2015-09-01,-1,-0.0005245667582823505,-0.0004421317910436298,-0.00817983142819233,0.007763235012094933,0.9887598770303749
2015-09-03,-1,-0.000737229306365508,-0.0006683274938464665,-0.00817983142819233,0.011148875441693044,0.9863606363768658
2015-09-08,-1,-0.0001764748968348968,-0.00016637854210514708,-0.007185180291362172,0.01104415971753853,0.9872539126207296
2015-09-10,-1,-0.0006527429842814326,-0.0005831060440779839,-0.005993995065405403,0.01104415971753853,0.9878612377582815
2015-09-14,-1,-0.00107178584777572,-0.0009491037106037281,-0.003994454018429986,0.01104415971753853,0.9879399707302178
2015-09-16,-1,-0.0006224491643221032,-0.0005607256657520185,-0.007185180291362172,0.009923951485886345,0.98709408099783
2015-09-18,-1,-0.0008914618034787341,-0.0007990595366131285,-0.005993995065405403,0.009923951485886345,0.9871245306138187
2015-09-22,-1,-0.00036147730170803727,-0.0003349028514015034,-0.003994454018429986,0.00662454047867752,0.9882370701051164
2015-09-24,-1,-0.00011797098666770545,-8.24843593779412e-05,-0.003994454018429986,0.00790979853480469,0.9882810580713852
2015-09-28,-1,-0.0013744120093529804,-0.001186805565601509,-0.0002936365033727916,0.010854632673991175,0.9883377795373678
2015-09-30,-1,-0.00023571969443840696,-0.00022341090681696777,-0.006217535978865933,0.006722513348902309,0.984959548705946
2015-10-02,1,0.001319765704075508,0.0015094906802835123,-0.008588903802522153,0.005627349079806922,0.9866136024443724
2015-10-06,1,0.00046759991080889886,0.0005261220462134612,-0.011599043106417507,0.004626620546020441,0.9863703453435941
2015-10-08,1,0.0009226335220280165,0.0010362892001735922,-0.011599043106417507,0.004128921898758671,0.9859920692602453
2015-10-12,1,0.0005765242085556412,0.0006400957012374828,-0.011599043106417507,0.004626620546020441,0.9856241806408592
2015-10-14,-1,-2.117146465095126e-05,-1.377088816360781e-05,-0.006802633256099528,0.006543077075034868,0.9863660864157079
2015-10-16,1,0.0003481217867525103,0.00039803887277869987,-0.006802633256099528,0.010346696835332575,0.9857438389312818
2015-10-20,1,0.000201169044403793,0.0002038542946362093,-0.009507824685026388,0.013431281217188406,0.984421389400975
2015-10-22,1,0.00023214150327058487,0.00024402424407461422,-0.008418626945734135,0.014846388815080094,0.9840361217481944
2015-10-26,1,0.0007203098500697488,0.0008059710551009634,-0.008418626945734135,0.013431281217188406,0.9844012324217963
2015-10-28,-1,-0.0026496518315510197,-0.0023238463322144583,-0.005849859600381514,0.013431281217188406,0.9893135680311441
2015-10-30,-1,-0.0025706277572917283,-0.0022718876205407323,-0.004255507092264376,0.011389910352758405,0.9913113162965013
2015-11-03,-1,-0.0033949106544036178,-0.003005780707967771,-0.002733397561224476,0.013431281217188406,0.9904215194746866
2015-11-05,-1,-0.0035789937556384103,-0.0031713917182286198,-0.002021476019972554,0.014869077425996184,0.9892780558178641
2015-11-09,-1,-0.0027311093438756014,-0.0024471805744309206,-0.002021476019972554,0.013431281217188406,0.9896433449519149
2015-11-11,-1,-0.0026285817418158063,-0.0023519303777746227,-0.002077009862727102,0.011843496232374951,0.9904291761441439
2015-11-13,-1,-0.002362418967681022,-0.002097156476759095,-0.002077009862727102,0.011743068656088155,0.9899905147721899
2015-11-17,-1,-0.0022297662099020495,-0.0019895394238391454,-0.0017472003276449999,0.014040297488740515,0.9895954314491179
2015-11-19,-1,-0.0019569792864825653,-0.0017207405462507104,-0.004696024457488294,0.011626391635371375,0.9889563066739401
2015-11-23,-1,-0.0016432492499208807,-0.001452885584124246,-0.004696024457488294,0.012169348168857272,0.9885242468288472
2015-11-25,-1,-0.0009882845995200142,-0.0008823324820110285,-0.004696024457488294,0.012169348168857272,0.9887725542236715
2015-11-30,-1,-0.001348384335078885,-0.001179265638922046,-0.004696024457488294,0.012169348168857272,0.9885138168772235
2015-12-02,-1,-0.0009510555167525749,-0.0008647106574081211,-0.004539352294110484,0.010911692763866818,0.9895862018593942
2015-12-04,-1,-0.00031990137163319187,-0.00031571523921592945,-0.0047212970377616265,0.009751042436649341,0.9897989195777259
2015-12-08,1,0.0003032952981189511,0.00039026170166446154,-0.010094964957628075,0.0081909982536467,0.9892966351479835
2015-12-10,-1,-0.0004643320997840934,-0.0004249856851216039,-0.010094964957628075,0.00920856068829288,0.9888850227572518
2015-12-14,-1,-0.0002059753125515574,-0.0002021718250343903,-0.011233893233045989,0.008114210004554452,0.9882972635867916
2015-12-16,1,0.00039772486376516407,0.00046197920545284094,-0.011233893233045989,0.006453492800833084,0.9894904715567356
2015-12-18,1,0.0004871911451442766,0.0007059900874560168,-0.007473436198565006,0.006453492800833084,0.9911508386209443
2015-12-22,1,6.848448199959199e-05,0.000172766607971749,-0.007558157401927316,0.006453492800833084,0.9910400414946408
2015-12-24,1,0.00019965208644172664,0.0003246092821662131,-0.007903648305879644,0.006453492800833084,0.989814046308382
2015-12-29,1,0.0003416470399345211,0.00047188767149236187,-0.007903648305879644,0.005516970641458228,0.9897561082049977
2015-12-31,1,0.00021632181783053366,0.00035002635144029605,-0.008919579856641307,0.006453492800833084,0.9885601651568312
2016-01-05,-1,-0.0002947094705927285,-0.00023473914539023314,-0.013325732816380574,0.006453492800833084,0.9875910994623511
2016-01-07,-1,-0.0007558837155717266,-0.0007477586645451441,-0.01277069716658181,0.006453492800833084,0.9881365587748125
2016-01-11,-1,-0.00029139760088966755,-0.00022641676840111767,-0.015062506933313506,0.006453492800833084,0.9860421798668033
2016-01-13,-1,-0.001527562731405854,-0.001392570275850562,-0.013365660395114432,0.005516970641458228,0.9874707340387605
2016-01-15,-1,-0.0011931756587921735,-0.0010580100207134985,-0.013365660395114432,0.006401680610665883,0.9864040767745289
2016-01-20,-1,-0.0014559859805400213,-0.001305228896970425,-0.013365660395114432,0.006401680610665883,0.9867707043657997
2016-01-22,-1,-0.0016828631347522174,-0.001509308601654173,-0.013365660395114432,0.005867294529548829,0.9868944228606232
2016-01-26,-1,-0.0018715241061581225,-0.0016381227852938704,-0.012390093537115041,0.005867294529548829,0.9856708270804232
2016-01-28,-1,-0.0018441171646753195,-0.0016191676661855441,-0.012390093537115041,0.012134193661554018,0.9843872213090458
2016-02-01,-1,-0.001104871561517563,-0.0009959178386707815,-0.013365660395114432,0.010998231063618594,0.984426696943009
2016-02-03,-1,-0.002800448315922347,-0.002467046803480515,-0.007496694008513847,0.020116102518989255,0.9848887048258116
2016-02-05,-1,-0.003466806540653277,-0.0030366946215702783,-0.007302006953299209,0.020116102518989255,0.9847952701054672
2016-02-09,-1,-0.0026296819880530517,-0.002318030079371239,-0.006972786900383781,0.01321798007920904,0.9868784764445887
2016-02-11,-1,-0.0036897673772551417,-0.0032419150102550314,-0.00654244795357886,0.01321798007920904,0.9864929271208001
2016-02-16,-1,-0.002931073246470845,-0.0025916087362040812,-0.00654244795357886,0.008592861530085958,0.9879888871640504
2016-02-18,-1,-0.0028146333576277967,-0.002484973322566727,-0.00654244795357886,0.008592861530085958,0.9877277807007192
2016-02-22,-1,-0.00332573500116343,-0.0028912671866694636,-0.0028818566884834876,0.008288238942398404,0.9874968475055634
2016-02-24,1,0.0003229538018516259,0.00039934675788082577,-0.002396672514599897,0.007265341067861001,0.9914808648615808
2016-02-26,1,0.002068455455079975,0.0024547117721961283,-0.002396672514599897,0.006839156019355868,0.9935448675108148
2016-03-01,1,0.002453556946052926,0.0028884273677965934,-0.0016743020264945812,0.006839156019355868,0.9949325753800617
2016-03-03,1,0.003572016083094708,0.0041840906804072805,-0.0016743020264945812,0.006839156019355868,0.9953109948508149
2016-03-07,1,0.0031957807764551017,0.0037490106655658755,-0.002396672514599897,0.006091959117570036,0.9948065518908281
2016-03-09,1,0.002827304226719085,0.003264409807666833,-0.002396672514599897,0.006091959117570036,0.9940480659180686
2016-03-11,1,0.0028676156805004854,0.0033307725346888506,-0.005574954687967547,0.00432189622604905,0.993689626297844
2016-03-15,1,0.003112057514867362,0.0036155228801416127,-0.005574954687967547,0.007702683884680524,0.9931841488599908
2016-03-17,1,0.0033319561345556163,0.0038607233185308266,-0.008870808282705804,0.007702683884680524,0.9926475240984574
2016-03-21,1,0.003989222705677599,0.0046378141871731655,-0.008870808282705804,0.007083738010233502,0.9922664939218613
2016-03-23,1,0.0021142750624735538,0.0023162106432213486,-0.008870808282705804,0.007083738010233502,0.9926130439021775
2016-03-28,1,0.0023010629577976793,0.0025141243048256087,-0.008870808282705804,0.007083738010233502,0.9925996306038773
2016-03-30,1,0.0019371264825243976,0.0020303957633038146,-0.008870808282705804,0.004914092221200742,0.9927860383169548
2016-04-01,1,0.0022081088898614687,0.002307626517831409,-0.009084425120460038,0.003941006288534233,0.9925229558982985
2016-04-05,1,0.0017072444418374587,0.0017645840531925012,-0.008471585945722539,0.003941006288534233,0.9932049667888032
2016-04-07,1,0.0014095756107341119,0.0014303752461274218,-0.007147114952186415,0.003941006288534233,0.9943979673234161
2016-04-11,1,0.0009014107057745371,0.0009331894422885919,-0.0016955456714960338,0.004609429231394563,0.9950043073985729
2016-04-13,1,0.001572359890699183,0.0016088762069598962,-0.0042023619697628975,0.003941006288534233,0.9945104419010821
2016-04-15,1,0.001737751956771926,0.0018356578380080298,-0.0042023619697628975,0.004536353144449994,0.9944528373063551
2016-04-19,1,0.0017061142537807962,0.0018011180782823194,-0.007147114952186415,0.004536353144449994,0.99356988937799
2016-04-21,1,0.0016133999071858431,0.0017242949863454642,-0.005220009484012109,0.004536353144449994,0.9935992240234495
2016-04-25,1,0.0017223967162123517,0.0018430212978252562,-0.005220009484012109,0.004609429231394563,0.9931664205380604
2016-04-27,1,0.0015677026380564619,0.0016553213987968007,-0.005220009484012109,0.005719370405913402,0.9922304797992928
2016-04-29,1,0.0013611564464428337,0.0014461317280157842,-0.0035599934803714622,0.005719370405913402,0.9927904040193499
2016-05-03,1,0.0015738270623016184,0.001726570062360148,-0.002790370730642703,0.005719370405913402,0.9933131490211018
2016-05-05,1,0.0011578522991490521,0.0012186591043554062,-0.002544912374345878,0.00710517200627468,0.9932042733717912
2016-05-09,1,0.0013715916460585711,0.0014755464767073775,-0.0028276618003969588,0.005411792797066396,0.9934263344794587
2016-05-11,1,0.0017441766073522753,0.0019658992889019715,-0.0028276618003969588,0.004626295854353816,0.9944749568653459
2016-05-13,1,0.000733714872279873,0.0007422828309658618,-0.0028276618003969588,0.004475113875556164,0.9943889435683595
2016-05-17,1,0.0008197547954428065,0.0008478190558609826,-0.0031516715772523535,0.0039050962982392283,0.99505829365911
2016-05-19,1,0.0008934342905319764,0.0009438067025179663,-0.0031516715772523535,0.0039050962982392283,0.9950244257844334
2016-05-23,1,0.0011321957887555519,0.0012341561999807504,-0.0031516715772523535,0.004475113875556164,0.9941389098702913
2016-05-25,1,0.0016818234253658437,0.0018276085290508102,-0.003691825980471331,0.0039050962982392283,0.9938733895196866
2016-05-27,1,0.001198123887063551,0.0012409320870593143,-0.006446479393726786,0.0039050962982392283,0.9915204734787044
2016-06-01,1,0.0008214010846135504,0.0008568916572895813,-0.006446479393726786,0.008697151688992776,0.9897045710693672
2016-06-03,1,0.0010838618801057172,0.001096121202512392,-0.006446479393726786,0.014501269213138518,0.9888457825282302
2016-06-07,1,0.00011483449381769205,0.0002761994133327031,-0.006446479393726786,0.014501269213138518,0.9888141029772783
2016-06-09,1,0.00041596452736825004,0.0005070994691365842,-0.006446479393726786,0.015041250496478267,0.9881947815857215
2016-06-13,0,-0.00012859724038232336,5.8609007139124626e-05,-0.003765566399886898,0.015041250496478267,0.9882268670851466
2016-06-15,-1,-0.0007944642268636989,-0.0005108294007711245,-0.00017549613163015234,0.015041250496478267,0.9877336714021102
2016-06-17,-1,-0.0009486441373236043,-0.0006617221552511551,-0.0019154546555316236,0.015041250496478267,0.9878485268095903
2016-06-21,1,2.8888265308799478e-05,0.00021889819921209965,-0.0019154546555316236,0.011584221507914879,0.9892800234972142
2016-06-23,0,-3.1818761471917394e-05,0.00015844435974841605,-0.0019154546555316236,0.010680518416993998,0.9898282935726883
2016-06-27,-1,-0.002486944460272804,-0.001939755250752406,-0.0018552478518239174,0.010680518416993998,0.9914158760777715
2016-06-29,-1,-0.0009679818047133644,-0.0005797133685942436,-0.0019310678770846957,0.007706974731996598,0.9938064448008509
2016-07-01,0,-7.517456541346931e-05,0.00016755557356974574,-0.002339985349311678,0.0060908348464043015,0.9947918100215679
2016-07-06,-1,-0.0008071864651673108,-0.00042666266887017557,-0.003331057634530549,0.0055170040696913515,0.99217216603036
2016-07-08,1,0.00023312730706854634,0.00045612886951771324,-0.003331057634530549,0.0060908348464043015,0.991359600951884
2016-07-12,1,0.00035243390542868643,0.0005669894986768789,-0.0043854439351813206,0.004668992535464624,0.9914024747097738
2016-07-14,1,0.0005761905282650816,0.0007738211185215695,-0.0043854439351813206,0.0031103739301982115,0.9916897234118593
2016-07-18,1,0.0010948430929491183,0.0011250934239296,-0.0038007275755883797,0.0031103739301982115,0.9916858841250332
2016-07-20,1,0.001693717841493175,0.0017838566069064707,-0.0038007275755883797,0.0026091733179870657,0.9917949419779813
2016-07-22,1,0.001856383223443753,0.0019772387930417504,-0.003136152181332902,0.0026091733179870657,0.9924552072574062
2016-07-26,1,0.0018481843816231139,0.002011153914653036,-0.003136152181332902,0.002819976869277129,0.992709533054345
2016-07-28,1,0.0019760123161970595,0.0021322209092237156,-0.003136152181332902,0.002819976869277129,0.9923624942589181
2016-08-01,1,0.0016438157166092091,0.0017652486971602484,-0.001926044997755996,0.002819976869277129,0.9928669661510975
2016-08-03,1,0.0003250742639810275,0.00038551262853364106,-0.0009429582450964692,0.002819976869277129,0.9960058192774967
2016-08-05,1,0.0017107531623684771,0.0018269711584835196,-0.0009429582450964692,0.0027768613489335707,0.9972480077235472
2016-08-09,1,0.0013998099058242374,0.0014944861006275807,-0.0009429582450964692,0.0027206040289686913,0.9974196031479169
2016-08-11,1,0.0013953996570013672,0.001503571457185578,-0.0013622458403453948,0.0027206040289686913,0.9965339788848044
2016-08-15,1,0.0013086131521487885,0.0013843573038862624,-0.0014493607603754722,0.0030533502080436516,0.9957048418913096
2016-08-17,1,0.0014284266323460713,0.0015081341733788037,-0.0029491160299917342,0.0033632266852278705,0.9952028475375705
2016-08-19,1,0.0016183951401492324,0.0017375775058116384,-0.0059731425653909926,0.0032338801241971957,0.9947649420771255
2016-08-23,1,0.0019405709444460881,0.002133517262854184,-0.0059731425653909926,0.003157517509587231,0.9946044734749038
2016-08-25,1,0.0018229879336660623,0.001967692699987098,-0.0059731425653909926,0.0030904848772811853,0.9951785852580725
2016-08-29,1,0.0016486339320846907,0.0017539386623925202,-0.0059731425653909926,0.0033290795153965557,0.9950211664022548
2016-08-31,1,0.0012719882658255655,0.001292072970657838,-0.008534045640312966,0.003398268078330505,0.9943881275577177
2016-09-02,1,0.001970843602612865,0.0020789682042555062,-0.008534045640312966,0.0033290795153965557,0.9945317966891551
2016-09-07,1,0.0016612880804302392,0.0017146702283202747,-0.008534045640312966,0.0033290795153965557,0.9941901307237747
2016-09-09,1,0.001326665886057194,0.0013397282099431808,-0.006922074953829821,0.0033290795153965557,0.994801244832093
2016-09-13,1,0.0009260498301852388,0.0009741644639129212,-0.006922074953829821,0.0033290795153965557,0.9951934013619436
2016-09-15,1,0.0004921476568510049,0.0005469775935306604,-0.004967128663475786,0.002960366456819905,0.995684439796326
2016-09-19,1,0.00039439214812879387,0.0005064821565156647,-0.002929466697271933,0.002960366456819905,0.996231187148874
2016-09-21,1,0.00011373925855329793,0.00027135640068374876,-0.002929466697271933,0.002960366456819905,0.9959599631806595
2016-09-23,1,7.27396042248475e-05,0.00024125684893021608,-0.0044045578040774105,0.002960366456819905,0.9952725139133487
2016-09-27,-1,-0.0003912275452520393,-0.00022856898804349165,-0.0044045578040774105,0.0036026691634576838,0.9948967669784758
2016-09-29,-1,-0.0005226846574183555,-0.00035140727258499405,-0.0044045578040774105,0.0018428805283313577,0.9952240017419688
2016-10-03,-1,-0.0005596270738691579,-0.00037518456923933804,-0.0044045578040774105,0.0017480973445992442,0.9951767585730084
2016-10-05,-1,-0.0011171354814491618,-0.0008599902688440549,-0.0028076357998092633,0.003382671380578155,0.9945369107584131
2016-10-07,-1,-0.0014515907864522835,-0.0011520879185602847,-0.0028076357998092633,0.003382671380578155,0.9943095268090979
2016-10-11,-1,-0.001545388949182101,-0.0012428065420621265,-0.002289634666421849,0.004580793127272185,0.9940940302524048
2016-10-13,-1,-0.0013411185430723914,-0.0010959711904326593,-0.0025218335317919666,0.006718068436048587,0.9938873741496811
2016-10-17,-1,-0.0009086192665057726,-0.0007529538588569372,-0.002797486265778597,0.006718068436048587,0.9938880888519643
2016-10-19,-1,-0.0006174393086911052,-0.0004959016680808124,-0.0038563302477231773,0.0031709940198055802,0.9942996497893517
2016-10-21,-1,-0.00019105659696464703,-0.00012156670955829803,-0.002797486265778597,0.0031709940198055802,0.994658293255995
2016-10-25,-1,-0.00015578096837962852,-9.228519070896525e-05,-0.002797486265778597,0.0032076561483185364,0.9948302262300908
2016-10-27,-1,-0.000535361105528922,-0.000420965824202212,-0.0025218335317919666,0.0032939396259567644,0.9951085987044396
2016-10-31,-1,-0.0004706832949981515,-0.0003619597187838495,-0.0026974503470043685,0.0032939396259567644,0.995161191429664
2016-11-02,-1,-0.00021750858574630605,-0.00013142781389928313,-0.0033086427822916612,0.002536212914110131,0.9954372117688932
2016-11-04,-1,-0.0007259373123215807,-0.0005629530036315477,-0.0026974503470043685,0.0032939396259567644,0.9954644365922259
2016-11-08,-1,-0.0005482724745675281,-0.0003960331779525592,-0.0026922190372963214,0.002536212914110131,0.9962117203283536
2016-11-10,0,-2.8589506708257987e-05,2.075640298814977e-05,-0.003146202640871196,0.0020726791626042417,0.9964085467735371
2016-11-14,-1,-0.00031265996424458903,-0.00021111276776301268,-0.00223840161591582,0.002536212914110131,0.9961847983830485
2016-11-16,-1,-0.0015759519211739183,-0.0012447249566535676,-0.003146202640871196,0.002536212914110131,0.994957410408171
2016-11-18,-1,-0.00019367228012044695,-0.00010638753069890517,-0.003146202640871196,0.002975682014954935,0.9951628683412581
2016-11-22,1,0.00021922669741515584,0.00023708838801105305,-0.003146202640871196,0.00275849978832407,0.9954857513790533
2016-11-25,1,0.0004749150560486554,0.0005076617445639423,-0.003498292491501817,0.00196757654477239,0.9954748013177058
2016-11-29,1,0.0006522312787724127,0.0007501547182182574,-0.004797118820126983,0.00196757654477239,0.9953563947203602
2016-12-01,1,0.0001809432361011461,0.0002284127742961097,-0.0034358882688555804,0.00196757654477239,0.9958528515753757
2016-12-05,1,0.0007040949431454903,0.0008451241897747749,-0.0034358882688555804,0.002177621666583897,0.9960975318014142
2016-12-07,1,0.00062690895379363,0.0007403041749329735,-0.003837037066725704,0.00338369220468207,0.9955388423649445
2016-12-09,1,0.0005198513957497433,0.000627139482167114,-0.004797118820126983,0.004564322887315247,0.9950125981314661
2016-12-13,1,0.0009801976175048805,0.001162668694049081,-0.005418890521246764,0.004515603279175756,0.994741941436534
2016-12-15,1,8.932187606411628e-05,0.0001425007313747631,-0.004574606609161564,0.004515603279175756,0.9952247117886829
2016-12-19,1,0.0005794236546212623,0.000706269902799777,-0.005338121265251708,0.0033163230804254588,0.9953797138176962
2016-12-21,1,0.00047718437797224575,0.0005725583130066678,-0.005338121265251708,0.004183696640397351,0.9951407080296848
2016-12-23,-1,-0.0011824512302504235,-0.001045712661776932,-0.005338121265251708,0.006049621300771378,0.9943844245597726
2016-12-28,-1,-0.0011875193335281723,-0.0011085421755060974,-0.0040442943004322975,0.006049621300771378,0.9944907930858866
2016-12-30,-1,-0.0014305458050834234,-0.0013127183590233697,-0.002574361410436322,0.006049621300771378,0.994726211864549
2017-01-04,-1,-0.0009548476752777086,-0.0008904522640946777,-0.0040442943004322975,0.0055672986649533155,0.9945706917110946
2017-01-06,-1,-0.0006659178133167197,-0.0006341562606629753,-0.0035440659321706687,0.0055672986649533155,0.9941980956109866
2017-01-10,-1,-0.0006419895268689868,-0.0006177437667187738,-0.0030255481449129157,0.0055672986649533155,0.9943931261393484
2017-01-12,-1,-0.0007784159739356556,-0.0007560524029523155,-0.002407618621015779,0.005453555362253263,0.9943309368847308
2017-01-17,-1,-0.0012742042915598936,-0.0011937389450998753,-0.00203315185385166,0.005453555362253263,0.9946862789846133
2017-01-19,-1,-0.0006367235334329548,-0.0006246751112392657,-0.0020043347406703002,0.005618473470638859,0.9940338088653595
2017-01-23,-1,-0.0006013121134743188,-0.000588300581050117,-0.0013901856314705795,0.006058642048051347,0.9938255333550086
2017-01-25,1,7.812621266115196e-05,0.00012878907691248807,-0.0021995602468207437,0.005618473470638859,0.9929427784946012
2017-01-27,1,0.00021280499625572432,0.00030290730503749065,-0.0021777106687056744,0.006283549656013951,0.9924378184622319
2017-01-31,1,8.486904677942902e-05,0.00015287197215773746,-0.0030255481449129157,0.007275552568041805,0.9911404763239549
2017-02-02,-1,-0.00023913432467852067,-0.00023877202409691652,-0.0030255481449129157,0.007275552568041805,0.9912175255085017
2017-02-06,-1,-0.00011217322735658577,-9.357462660779005e-05,-0.00837734340134546,0.006283549656013951,0.9910005767430611
2017-02-08,1,7.600951311525882e-05,0.00012019724990278879,-0.010894645643609863,0.005618473470638859,0.9904727827167157
2017-02-10,1,0.00010553822812533968,0.0001330193433570489,-0.010894645643609863,0.005396604175867936,0.9907975957005437
2017-02-14,1,0.00026450263724702886,0.0003207971254148855,-0.010894645643609863,0.0063310759780569135,0.9903988131986855
2017-02-16,1,4.348698576715411e-05,7.86842913446486e-05,-0.008728815534613701,0.007432605734729809,0.9908098206074115
2017-02-21,1,0.00027161539891193756,0.00033928517669178484,-0.010894645643609863,0.004477226592460356,0.9903290312221642
2017-02-23,-1,-0.0011623055904818858,-0.0010439631491213392,-0.008728815534613701,0.0038785066552811114,0.9925312085542782
2017-02-27,-1,-0.0006877912975846994,-0.0006335523308151843,-0.008728815534613701,0.0033840805140437635,0.9930082740925946
2017-03-01,-1,-0.0007101520434174927,-0.0006329059730867375,-0.007825904154694282,0.003814954163117522,0.9938278595471254
2017-03-03,-1,-0.000966216850330494,-0.0008482307222913654,-0.005899694352157563,0.004441410752703792,0.9939276919795661
2017-03-07,-1,-0.001915998657243934,-0.0016781474395488757,-0.003630039248135192,0.004441410752703792,0.9941557507156272
2017-03-09,-1,-0.0025233196415402554,-0.0022209595750516398,-0.002998713307008233,0.004441410752703792,0.9945554999952213
2017-03-13,-1,-0.0025510873832082035,-0.0022454896417560505,-0.002998713307008233,0.004441410752703792,0.99437272558209
2017-03-15,-1,-0.002080299181769841,-0.0018460215819442783,-0.002998713307008233,0.004252757807854922,0.9948292988231388
2017-03-17,-1,-0.0013064943110154886,-0.0011933191251234175,-0.002998713307008233,0.004252757807854922,0.9951190920017537
2017-03-21,-1,-0.002293984856685852,-0.0020673195174436888,-0.0018907876886095866,0.004441410752703792,0.9950028632613022
2017-03-23,-1,-0.0021487053389566144,-0.0019269173498320333,-0.0018907876886095866,0.004441410752703792,0.9947390333027725
2017-03-27,-1,-0.0020097784128235777,-0.001809674509497215,6.188605542581805e-05,0.004794616116350938,0.9939326738500397
2017-03-29,-1,-0.001482272654416369,-0.0013623649804677693,-0.0006806244446030643,0.004252757807854922,0.9945495570275446
2017-03-31,-1,-0.0015247104441207901,-0.0013847695422009383,-0.0018907876886095866,0.0035183605830151113,0.9949368765334035
2017-04-04,-1,-0.0017478627161274182,-0.0015927418270177175,-0.003003384295444049,0.0035183605830151113,0.9922657803574666
2017-04-06,-1,-0.00018618235776730974,-0.00013736594790370285,-0.0018907876886095866,0.00710253155691195,0.991031744765232
2017-04-10,-1,-0.0003521021971848315,-0.00028120905316894986,-0.0022526740661585882,0.00710253155691195,0.9909776904024206
2017-04-12,-1,-0.0005128968419734609,-0.00041604060735565335,-0.004400957238258965,0.00710253155691195,0.9907423053898344
2017-04-17,1,0.0001110995294470544,0.0001159383804924311,-0.004400957238258965,0.00710253155691195,0.9907219740599541
2017-04-19,1,0.0003209955429607943,0.00035560950896451203,-0.004400957238258965,0.004669848695632124,0.9908062187047846
2017-04-21,1,0.0007125952606053291,0.0008054943898108342,-0.004400957238258965,0.005597604568014284,0.9906652974751025
2017-04-25,1,0.001051862596724719,0.0011784720783614786,-0.00499460829098392,0.0034723771634024613,0.9907048356984803
2017-04-27,1,0.0007739136287371478,0.0008343892390093879,-0.00499460829098392,0.009966810918048241,0.9900025718079107
2017-05-01,1,0.0007875223822167038,0.0008657958002634248,-0.005444346569752801,0.009966810918048241,0.9896270507176029
2017-05-03,1,6.623476016001548e-05,7.60559482592759e-05,-0.004265054107965719,0.009966810918048241,0.9930606450221656
2017-05-05,1,0.001339003973176688,0.0014823686524976334,-0.00479331263380582,0.006847503909972721,0.9941365929399687
2017-05-09,1,0.0011016631274553075,0.0012316828955662726,-0.00479331263380582,0.006847503909972721,0.9940457283893287
2017-05-11,1,0.00035224529963470474,0.00036635014689635786,-0.004159600611649626,0.006847503909972721,0.9942993684815172
2017-05-15,1,0.0008828902326658084,0.0009580415563959556,-0.004159600611649626,0.008769501196968375,0.9935851328662727
2017-05-17,1,0.0005939951269319616,0.0006301036592244211,-0.00400717893857569,0.008769501196968375,0.9934887352094341
2017-05-19,1,0.0009798786112539069,0.0010600341231329865,-0.00400717893857569,0.007898565776087357,0.9936791904813435
2017-05-23,1,0.0006258117631674509,0.0006430128314670387,-0.002444764013856802,0.007898565776087357,0.9940346962285108
2017-05-25,1,0.0012192381351494115,0.0013034791960568112,-0.004535129165692104,0.006323786996710008,0.9939900654312486
2017-05-30,1,0.001354334558234679,0.0014809807375876743,-0.004360669125894199,0.006929344009398198,0.99399648441212
2017-06-01,1,0.001265112132418724,0.0013868289035411355,-0.004535129165692104,0.007898565776087357,0.9932300046014626
2017-06-05,1,0.0011372798000343243,0.0012338879400015776,-0.004360669125894199,0.008262460231596207,0.9931567085425631
2017-06-07,1,0.0009138807800888187,0.0009744622821554757,-0.004360669125894199,0.008262460231596207,0.993128067515952
2017-06-09,1,0.00041367593639649166,0.0004357638938519532,-0.0028752195973102148,0.008262460231596207,0.9932903641051496
2017-06-13,1,0.0013377846102707338,0.0014290735143458286,-0.0028752195973102148,0.006929344009398198,0.9942031370753449
2017-06-15,1,0.0014513347419010504,0.0015569970805828196,-0.0028752195973102148,0.008262460231596207,0.9938660701346835
2017-06-19,1,0.0017791023947628334,0.0019570895612924396,-0.0028752195973102148,0.008032286741302828,0.9937855496255904
2017-06-21,1,0.001758193550842454,0.0019322931051979565,-0.0028752195973102148,0.008032286741302828,0.9937205653289657
2017-06-23,1,0.0010907657278544428,0.001170008350911285,-0.0023482993664183938,0.008032286741302828,0.9945063609375348
2017-06-27,1,0.0012202208129589707,0.0013107876609049344,-0.0023482993664183938,0.0070494358680879,0.995012363092929
2017-06-29,1,0.0015207007177228257,0.0016629108841168284,-0.0019158064824316044,0.004176032991763352,0.996060948319065
2017-07-03,1,0.0017621771000192637,0.0019430111644818274,-0.0012171134267588658,0.002900565155131008,0.9965299793826694
2017-07-06,1,0.001609522683419534,0.0017889762253708945,-0.0019158064824316044,0.002900565155131008,0.994153576391182
2017-07-10,1,0.0016256240774243655,0.001813759131768752,-0.0019158064824316044,0.004173392844823891,0.9938180626058916
2017-07-12,1,0.0019952336760511924,0.0022213068134289077,-0.003066192951817148,0.002900565155131008,0.9935753409083006
2017-07-14,1,0.0024373088724001226,0.0027392239802483797,-0.004356764801654361,0.002249376933145311,0.9932945036988927
2017-07-18,1,0.00221526217493537,0.002450262851603503,-0.004356764801654361,0.002249376933145311,0.9933485869575699
2017-07-20,1,0.0023676820058112576,0.0026358561081099826,-0.005205731456317189,0.002249376933145311,0.9927654595652093
2017-07-24,1,0.0027932089822098197,0.003131013815878979,-0.005205731456317189,0.0019809357487209655,0.992312626902554
2017-07-26,1,0.002411925976772147,0.002681105017253714,-0.008022246878925275,0.002230792306508686,0.991742625388738
2017-07-28,1,0.002011940289798669,0.0021843426876322395,-0.009448587908206275,0.001140122585311422,0.9908428062252813
2017-08-01,1,0.0018469809689568985,0.001963826917887395,-0.009448587908206275,0.0032184759644951566,0.9907419868147386
2017-08-03,1,0.00028191703663565877,0.0003680021815861859,-0.007421988566158765,0.00563700754803783,0.9932396645950765
2017-08-07,1,0.00046731626816161494,0.0005277251457792354,-0.007421988566158765,0.00404702479682904,0.9934517455821007
2017-08-09,1,0.0002865238116963419,0.0003492872229234746,-0.005979826894240415,0.006105323286116541,0.9933062379434343
2017-08-11,-1,-0.0005862655911174874,-0.0003777694261849383,-0.005472621645863499,0.006402369192558823,0.9934231356916035
2017-08-15,-1,-0.00021863536282278815,-6.153922686681087e-05,-0.005979826894240415,0.006402369192558823,0.9925371082318218
2017-08-17,-1,-0.0005737330321094127,-0.00037107229031168535,-0.005979826894240415,0.006402369192558823,0.9924973108699322
2017-08-21,-1,-0.00023104186362329335,-8.303310613309481e-05,-0.005979826894240415,0.008319382225739323,0.9923917485783385
2017-08-23,-1,-0.00031511893648180375,-0.00016355959545122958,-0.005472621645863499,0.006402369192558823,0.9931806148649196
2017-08-25,-1,-0.001123837384334927,-0.0008560980237851964,-0.0036627066547758012,0.006402369192558823,0.9936483323260036
2017-08-29,-1,-0.0011753923939135432,-0.0008923068265973143,-0.002129518176063584,0.006402369192558823,0.9939695672323109
2017-08-31,-1,-0.0006095591285640948,-0.00038593637603189987,-0.002129518176063584,0.005556653568357642,0.9942696135265839
2017-09-05,-1,-0.0011158806227195715,-0.0008232429747760563,-0.001614923917098451,0.005556653568357642,0.9939510102002562
2017-09-07,-1,-0.00031828163774445047,-0.00012786447720581772,-0.001614923917098451,0.004768714559572287,0.9949161716525078
