JNU-Tangyin/eata/results/Batch4_SP500/Batch4_SP500-BIO.csv
Date,Action,Predicted_Q25,Predicted_Q75,Actual_Q25,Actual_Q75,RL_Reward
2010-12-14,1,0.0,0.003219198217044294,-0.002237894184287139,0.006919600935449216,0.9955542532910052
2010-12-16,1,0.0062675549879598075,0.0070562830502159755,-0.002237894184287139,0.006919600935449216,0.9932782793123306
2010-12-20,1,0.005093445824987135,0.005693203356721192,-0.002237894184287139,0.007497927454726909,0.9931715502347672
2010-12-22,1,0.00604417297042825,0.006839430782355073,-0.0031267842714055747,0.007497927454726909,0.9922339356573626
2010-12-27,1,0.005967816972539868,0.006748703567858276,-0.003814543176917172,0.007497927454726909,0.9921890914846708
2010-12-29,1,0.005852377970568218,0.006604274079361758,-0.003814543176917172,0.007497927454726909,0.9920682282212258
2010-12-31,1,0.0046220642975549064,0.005145316717574332,-0.0030398166984324376,0.007656314227548692,0.9923033545387896
2011-01-04,1,0.0038931360648882998,0.004187611915004874,-0.003814543176917172,0.007497927454726909,0.9924264518346723
2011-01-06,1,0.0037419885367003074,0.0040112561822054195,-0.003814543176917172,0.005083037237820224,0.9923873976068189
2011-01-10,1,0.004126148691822657,0.004433260088095798,-0.0030398166984324376,0.005083037237820224,0.9930271097492697
2011-01-12,1,0.004178528214549043,0.004468523120979196,-0.0030398166984324376,0.0027255127894500893,0.9927096492762431
2011-01-14,1,0.0032641398222243235,0.003309660099531666,-0.0030398166984324376,0.0027255127894500893,0.9931127410006774
2011-01-19,1,0.00366270277924177,0.0037882937907796465,-0.0030398166984324376,0.0012374931378542743,0.994308524348673
2011-01-21,1,0.002933618773743058,0.0029392748249984215,-0.0016234463002601572,0.0027255127894500893,0.9947754730897749
2011-01-25,1,0.0029159488564709686,0.0029303419428610197,-0.0019258966023610591,0.0026996377859519983,0.9943251357099478
2011-01-27,1,0.003144341618594132,0.0032429005888119982,-0.0019258966023610591,0.006689766440266228,0.9928165302487592
2011-01-31,0,0.0,0.0,-0.0019258966023610591,0.006144557551930082,0.993203897925788
2011-02-02,1,0.0012250478518527927,0.0013046211798577738,-0.00016139278956919215,0.007907916087632284,0.9917260260966677
2011-02-04,1,0.0009012556098006985,0.0010157314874312431,-0.0016367208611998438,0.007907916087632284,0.9915755541264923
2011-02-08,1,0.0010867004164487643,0.00117781634343054,-0.0021614694742205075,0.008133376428734362,0.9913339637703404
2011-02-10,0,0.0,0.0,-0.004069849588863996,0.008912135908354352,0.9899195201979084
2011-02-14,0,0.0,0.0,-0.005452178761513566,0.008912135908354352,0.989763432170527
2011-02-16,1,0.0006683149109968571,0.0008183906020264042,-0.0045846515380299204,0.008912135908354352,0.9900016255858305
2011-02-18,1,0.001015338515058509,0.0011113145652026945,-0.0045846515380299204,0.01077148716990695,0.9890412829823106
2011-02-23,1,0.0008884044821974207,0.0009654552902458321,-0.0045846515380299204,0.01077148716990695,0.9891557638594529
2011-02-25,1,0.0021146713007226337,0.0021790951105730484,-0.0045846515380299204,0.01077148716990695,0.9903396270532095
2011-03-01,1,0.001639017828587679,0.0016498600139406364,-0.0035993530414587327,0.01077148716990695,0.9913614659093852
2011-03-03,1,0.0029290188335108864,0.003104629227956415,-0.0035993530414587327,0.00605364147700271,0.9932217731427523
2011-03-07,1,0.0022572220756914233,0.0023263866419800756,-0.0024155294943688068,0.009223950715084852,0.9926526112262887
2011-03-09,1,0.0024687070071638144,0.0025718009938505452,-0.002666571288284013,0.007737957191251292,0.9927616905880671
2011-03-11,1,0.0018763092893730334,0.001886295071763697,-0.003060396695059139,0.005702615162286517,0.993357139707731
2011-03-15,1,0.0008515428098541692,0.0009966888750254411,-0.003060396695059139,0.008824902806228838,0.9930939608563202
2011-03-17,1,0.0010113956840518508,0.001126531044895254,-0.0033042874284216926,0.008824902806228838,0.9930256233533901
2011-03-21,1,0.0017624470740475763,0.0018036435011733803,-0.0036037587447527476,0.004797571807143494,0.9927903380883861
2011-03-23,1,0.0010236411862000307,0.0011524440448595417,-0.0033691334004637237,0.005702615162286517,0.9921120067741356
2011-03-25,1,0.0009233588541810943,0.0010860682657244801,-0.0033691334004637237,0.005500073455190095,0.9924913683844948
2011-03-29,1,0.001647986411205824,0.001659335869006546,-0.0033691334004637237,0.007776782443629479,0.9916419274603956
2011-03-31,1,0.002339431342504135,0.002475659738571389,-0.0033691334004637237,0.0080964385478949,0.9913978379332697
2011-04-04,1,0.002703312262660697,0.0028536322136749255,-0.0033691334004637237,0.0080964385478949,0.992287675832212
2011-04-06,0,0.0,0.0,-0.004230800574086715,0.0080964385478949,0.991319813021188
2011-04-08,1,0.0027246752968374207,0.002743458457579815,-0.0033836537002277754,0.0080964385478949,0.9915836015407661
2011-04-12,1,0.0017368295194762024,0.001789720791681647,-0.0019850974205309047,0.007499382268290814,0.9923197899703128
2011-04-14,1,0.0016328733197767192,0.001686529126142576,-0.0022398487723145244,0.007499382268290814,0.99215281292597
2011-04-18,0,0.0,0.0,-0.0022398487723145244,0.0080964385478949,0.9920087826324688
2011-04-20,0,0.0,0.0,-0.0009923203503917053,0.007499382268290814,0.9934765421125185
2011-04-25,0,0.0,0.0,-0.005082743790635257,0.007499382268290814,0.9928918508835638
2011-04-27,0,0.0,0.0,-0.0069160602270064795,0.006223655942043439,0.9930919799474022
2011-04-29,1,0.002748921940915034,0.0028041569530784034,-0.0069160602270064795,0.0035810396061239586,0.99310532975706
2011-05-03,1,0.002877905633225962,0.002978535818251162,-0.007595924416396532,0.0035810396061239586,0.9926415912925793
2011-05-05,0,0.0,0.0,-0.0069160602270064795,0.0040760870220003026,0.993792248415519
2011-05-09,0,0.0,0.0,-0.008170275820670229,0.0033300814260097903,0.9934439983080745
2011-05-11,1,0.0025148630164971457,0.0026124785935182472,-0.008170275820670229,0.0040760870220003026,0.9924914792531969
2011-05-13,1,0.0020913645242420244,0.00211647962944053,-0.009974357907825814,0.0033300814260097903,0.9916466991395348
2011-05-17,1,0.0012304891173351637,0.0012592414995798366,-0.008250696446299744,0.0033300814260097903,0.9926678255738351
2011-05-19,1,0.0010460582286675652,0.001099216844535024,-0.008250696446299744,0.0033300814260097903,0.9926225915397237
2011-05-23,1,0.0001515944336941533,0.0003103810658753278,-0.0068923954209228365,0.003762181618192746,0.9935140304177462
2011-05-25,0,-0.00013104293332781602,8.849973415148865e-05,-0.0068923954209228365,0.0033664004756304043,0.9942636792675376
2011-05-27,1,0.00011519137427111036,0.0002862073320098474,-0.0068923954209228365,0.0033664004756304043,0.9941117883974657
2011-06-01,-1,-0.00026098709041409056,-4.1900569391222745e-05,-0.004756666660484115,0.0033664004756304043,0.9939924501486539
2011-06-03,-1,-0.0003312445417097789,-0.00013042244115540045,-0.0031507888117431673,0.0033664004756304043,0.9936420590358335
2011-06-07,-1,-0.0007500866654789707,-0.0005155099376262182,-0.002743135831814687,0.0033664004756304043,0.9943184358008795
2011-06-09,0,0.0,0.0,-0.0024023750728199133,0.002786649551536647,0.9946479516560515
2011-06-13,0,0.0,0.0,-0.0024023750728199133,0.002786649551536647,0.9947034347589483
2011-06-15,0,0.0,0.0,-0.0024023750728199133,0.002648325025191662,0.9947487357077093
2011-06-17,0,0.0,0.0,-0.002743135831814687,0.002648325025191662,0.9943788648184648
2011-06-21,0,0.0,0.0,-0.0031507888117431673,0.000939240620298467,0.9944578303264772
2011-06-23,0,0.0,0.0,-0.00440785205909736,0.0015848015458334377,0.9934133309001101
2011-06-27,0,0.0,0.0,-0.007970006639825415,0.0015848015458334377,0.9922354527113185
2011-06-29,-1,-0.0004257597538824007,-0.00022829441762675325,-0.010476610411014494,0.000939240620298467,0.9911751199951758
2011-07-01,0,0.0,0.0,-0.01181170766983886,0.000939240620298467,0.9912464492394879
2011-07-06,0,0.0,0.0,-0.015439024866333136,0.0004003575557883246,0.9888349919250627
2011-07-08,0,0.0,0.0,-0.015439024866333136,0.0004003575557883246,0.9882555571132486
2011-07-12,-1,-0.002856705858468662,-0.0016304566353896191,-0.015439024866333136,0.00041383866971798954,0.9873981654468167
2011-07-14,-1,-0.0022440839888621545,-0.001832345153284525,-0.01714221718299336,0.00041383866971798954,0.982135969353449
2011-07-18,-1,-0.0030649547424127714,-0.0025310553012296527,-0.01714221718299336,0.0017536565250393268,0.9809225048802829
2011-07-20,-1,-0.0024166226813225225,-0.0020294639583810273,-0.01714221718299336,0.004533951748034594,0.9805532193737168
2011-07-22,-1,-0.0023149364619634034,-0.001901246258589081,-0.022554352398052112,0.0017536565250393268,0.979377652406486
2011-07-26,-1,-0.0022022085806029917,-0.0018991590299506774,-0.020071859877930576,0.004533951748034594,0.9780086623337301
2011-07-28,-1,-0.0038490713580561853,-0.003326192755127428,-0.017278099918650248,0.005270118494990007,0.9788023863155534
2011-08-01,-1,-0.0036608439073378104,-0.0031813809846141343,-0.017278099918650248,0.01717085227088573,0.9773922138530817
2011-08-03,-1,-0.0047155123790617965,-0.00411163900107572,-0.014313490029157792,0.01717085227088573,0.9786173321638122
2011-08-05,-1,-0.005592764682551278,-0.00487788359929582,-0.016606628693762317,0.01717085227088573,0.9778040902052121
2011-08-09,-1,-0.004826885618004097,-0.004205629785076902,-0.012611621778842941,0.01717085227088573,0.9793622331778192
2011-08-11,-1,-0.004891473275436275,-0.004314867100503555,-0.016606628693762317,0.008011844501159797,0.9814847367437007
2011-08-15,-1,-0.004283742411070814,-0.003772066509893873,-0.016606628693762317,0.008011844501159797,0.9826103602753533
2011-08-17,-1,-0.0038656046799881967,-0.003405613771646344,-0.016606628693762317,0.015932706262286895,0.9805260082038787
2011-08-19,-1,-0.00496790034062009,-0.004396793418472532,-0.016606628693762317,0.015932706262286895,0.9809192952122399
2011-08-23,-1,-0.0034470074137703866,-0.0030682531094078187,-0.02593977905581264,0.0085397950605413,0.9810142170567341
2011-08-25,-1,-0.0039095592264631164,-0.0035171001983633704,-0.02593977905581264,0.015932706262286895,0.9799227609013106
2011-08-29,-1,-0.001870172093260676,-0.0017203933566672758,-0.02593977905581264,0.009370782851415786,0.9785804277439095
2011-08-31,-1,-0.002238134243813361,-0.0020332040494774953,-0.026836934974823735,0.010502113989260316,0.9762026178339869
2011-09-02,-1,-0.0032350045996344394,-0.0029489488200757706,-0.02593977905581264,0.010502113989260316,0.9767676991838423
2011-09-07,-1,-0.0018963195543567745,-0.001769652596635407,-0.02593977905581264,0.016366963497464648,0.9757455583766149
2011-09-09,-1,-0.004838440094473432,-0.0043309232114785556,-0.02290098210618446,0.016366963497464648,0.9768900851459531
2011-09-13,-1,-0.003822606834278168,-0.0034470397243701266,-0.02290098210618446,0.01660118237011391,0.9770284605801325
2011-09-15,-1,-0.0018146709482447102,-0.0016861296369671697,-0.02290098210618446,0.010986541015457697,0.9787047426673439
2011-09-19,-1,-0.002139992065280287,-0.0020212211445166375,-0.02290098210618446,0.010986541015457697,0.9788910401869657
2011-09-21,-1,-0.0037963424947748655,-0.003511814139824523,-0.007637123770757979,0.01660118237011391,0.9795691907047638
2011-09-23,-1,-0.0019755076437268536,-0.0019295668201814678,-0.0033283163970948045,0.01660118237011391,0.9800042134374133
2011-09-27,0,-9.113693790677109e-05,5.772882672051155e-05,-0.007637123770757979,0.01660118237011391,0.9808758130670394
2011-09-29,-1,-0.001250781933187174,-0.0012266526983974698,-0.0033283163970948045,0.021598818809222313,0.9816578555303879
2011-10-03,-1,-0.002451328744489174,-0.002345917471856716,-0.003542524310972339,0.021598818809222313,0.9811205719380608
2011-10-05,1,0.000335109307760067,0.0005828805241935538,-0.00905479623845696,0.01249206375246776,0.9821788922438204
2011-10-07,-1,-0.0004631067473282912,-0.00030599665558877825,-0.004849793277158022,0.021598818809222313,0.981978547137426
2011-10-11,1,0.0005169955848307846,0.0008072461405359043,-0.004849793277158022,0.024595276658349145,0.9812024016703206
2011-10-13,1,0.0008368707948994972,0.0011448682052957442,-0.01159586812632583,0.024595276658349145,0.9795174459424458
2011-10-17,-1,-0.00019819500060150785,-1.3059494159209915e-05,-0.009525932985302769,0.024595276658349145,0.9790698648872515
2011-10-19,1,0.0010427467210134855,0.001405839283209646,-0.01800107158715346,0.02284004656841961,0.9795059384246955
2011-10-21,1,0.0025440937669456674,0.0030913407572455125,-0.01800107158715346,0.022262108212409048,0.9808731977458298
2011-10-25,1,0.002153083042808053,0.0026352916181163217,-0.01786396872471926,0.011204622450589955,0.9819544681748281
2011-10-27,1,0.00375955516466128,0.004443882469216577,-0.022205886405883984,0.006626213429700311,0.9816000862739295
2011-10-31,1,0.0022376687382669345,0.0027263862836928816,-0.017378442339851974,0.011204622450589955,0.9823335821215695
2011-11-02,1,0.00013669315609227898,0.0003426175179260983,-0.01406443622612767,0.022262108212409048,0.9834573261694729
2011-11-04,1,0.000977248090693899,0.0012918440573604036,-0.01406443622612767,0.016408341653564796,0.9840043215407045
2011-11-08,1,0.0021423044522418254,0.0026172006360809363,-0.016048047829362755,0.00236448754541894,0.9843984510350408
2011-11-10,1,0.0013017770449126863,0.0016832272128933883,-0.016048047829362755,0.0033419248054424792,0.9857204012949986
2011-11-14,1,0.0016057831685243678,0.0020313050826916987,-0.014181347609360025,-0.0009813582694165378,0.9869446624428727
2011-11-16,1,0.0007738171158681507,0.0010702108071449538,-0.012109273408340258,0.0033419248054424792,0.9872374008890221
2011-11-18,1,0.0013866472539369697,0.0018087141529454745,-0.01284841819824019,0.01129309827742921,0.9837003605901329
2011-11-22,1,0.0011661702162499435,0.0015817592373342903,-0.011385223396879904,0.013322814289232918,0.9847584365231505
2011-11-25,1,0.0006732700091781833,0.001033879001143187,-0.009260725779176863,0.013322814289232918,0.9856320353719114
2011-11-29,1,0.0014717628076779735,0.0019445809291366131,-0.011385223396879904,0.010899994830686776,0.9860525767163111
2011-12-01,1,0.0013082010349089654,0.0017305713380824565,-0.009260725779176863,0.010899994830686776,0.9871648861707298
2011-12-05,1,0.0016322884742899287,0.0020912030883313334,-0.008945707662741293,0.010899994830686776,0.9871464169422856
2011-12-07,1,0.0009225217374666605,0.001278402855567658,-0.008509960597493878,0.010899994830686776,0.987680749968725
2011-12-09,1,0.0011161604542552592,0.0014999993275066701,-0.008327843267633007,0.013196751986868184,0.9876494917107403
2011-12-13,1,0.0011354870688430885,0.001537203659508545,-0.009002636410389717,0.015808696277830173,0.9861717886547281
2011-12-15,1,0.001221637528402199,0.001581569188680712,-0.009002636410389717,0.013196751986868184,0.9864487658038774
2011-12-19,1,0.0011438472081451503,0.0014041282450116262,-0.008327843267633007,0.009900420412981357,0.9900097936698036
2011-12-21,1,0.0022395448169870652,0.002641110258072185,-0.009002636410389717,0.01016746155735906,0.9886424903306154
2011-12-23,1,0.0015353777547836916,0.0017290444420879408,-0.009002636410389717,0.018322260366330174,0.9866962570786956
2011-12-28,1,0.0005944258281203399,0.0005965105673244134,-0.003990844055846498,0.018322260366330174,0.9870704248221795
2011-12-30,1,0.0013097678777480094,0.0014868108636997388,-0.010368755976664255,0.018322260366330174,0.9864454161875095
2012-01-04,1,0.0014537464242954732,0.0016059051004315612,-0.010368755976664255,0.018341020662824593,0.9858052692844037
2012-01-06,1,0.0016149428765334071,0.0018596498685161233,-0.009822403987081644,0.018341020662824593,0.9865057368359165
2012-01-10,1,0.0021773385176557243,0.002502250708985853,-0.006423729479121456,0.011005316253525728,0.9874759097700694
2012-01-12,1,0.0015667789905928421,0.0017225726666151328,-0.006836806863941382,0.008642095448527334,0.9883827315628284
2012-01-17,1,0.0017545817777522292,0.0019897052914229166,-0.0037546582392211296,0.008923523088116916,0.9892692275638562
2012-01-19,1,0.001369068360217534,0.0015050868580113483,-0.004635266322529789,0.008276435472960853,0.9890797809525913
2012-01-23,1,0.002139425362104559,0.002447740201204591,-0.005934805801495098,0.005596515558899681,0.9898367026580791
2012-01-25,1,0.0035535809721601226,0.00402823167263505,-0.005934805801495098,0.002699515178472734,0.990504100394247
2012-01-27,1,0.0027521450038309795,0.003025880483957314,-0.008104485901605262,0.005596515558899681,0.9891714323198706
2012-01-31,1,0.0020065143523615957,0.002264035744945431,-0.005934805801495098,0.008276435472960853,0.9900273669707915
2012-02-02,1,0.0018821206883836978,0.0019399598016329013,-0.007589473569861621,0.008276435472960853,0.9907811950076323
2012-02-06,1,0.0022418687302929764,0.0023979237533914817,-0.009415828250367608,0.008276435472960853,0.9900448745612329
2012-02-08,1,0.0026552834699181673,0.0029615151754646854,-0.009415828250367608,0.009072327171535598,0.9895232930177131
2012-02-10,1,0.0016640461305183181,0.0018091379805293282,-0.007325389858362273,0.009072327171535598,0.9901278821149028
2012-02-14,1,0.00034536428337921486,0.0006283866590244734,-0.009415828250367608,0.00946393629191601,0.9894717924192951
2012-02-16,1,0.000892911703652223,0.0009155564547103443,-0.009415828250367608,0.009530232846712694,0.9894135183608145
2012-02-21,1,0.0007568121429262106,0.0009385653743581347,-0.009415828250367608,0.010332564032434361,0.9887637011306212
2012-02-23,1,0.0010236840923855922,0.0010276623123457406,-0.009415828250367608,0.009530232846712694,0.9892513051552824
2012-02-27,0,-0.00018674219911689023,5.491574557703327e-06,-0.008630913120378845,0.009675883882615786,0.9902993135421208
2012-02-29,1,0.0004322115090849776,0.0004667994647248088,-0.008327604468676678,0.009245042908643152,0.9907820706774938
2012-03-02,-1,-0.0002788519403515544,-0.00011329269823181321,-0.005899826181994979,0.008159327648225684,0.9913936011008692
2012-03-06,1,8.842867648823374e-05,0.00017065834800935857,-0.00568523882632659,0.00987934773150091,0.9866478393514363
2012-03-08,1,0.0008209477402667321,0.0008542007807854966,-0.007640609675380723,0.008159327648225684,0.9868504145170409
2012-03-12,1,2.7483056132806432e-05,0.0001408202981784697,-0.008968790876782571,0.008159327648225684,0.9857012350300416
2012-03-14,1,0.0004537433306316069,0.0004730739872320046,-0.008327604468676678,0.0065721686645965356,0.9864013934944361
2012-03-16,1,0.0016583106679152978,0.0018664723034263282,-0.008968790876782571,0.0049430234315124884,0.9852414472890725
2012-03-20,1,0.0007012451542712738,0.0007761192782975868,-0.008327604468676678,0.0049430234315124884,0.9861709032258289
2012-03-22,1,0.0013750020576384272,0.0015506021239149697,-0.007640609675380723,0.0049430234315124884,0.9863510039124259
2012-03-26,1,0.0011920500361084834,0.0011933302204909478,-0.00883909269791021,0.003961683413718921,0.9867570574038833
2012-03-28,1,0.0005422006054603193,0.0005470292794026268,-0.008195330630905042,0.0049430234315124884,0.9866377757474089
2012-03-30,0,0.0,0.0,-0.009643547946292125,0.0049430234315124884,0.9863635999728503
2012-04-03,0,0.0,0.0,-0.010764380338584885,0.0024053219234191196,0.9904637853788888
2012-04-05,0,0.0,0.0,-0.01189552392653597,0.0024053219234191196,0.9903766866875957
2012-04-10,0,0.0,0.0,-0.008133568887234557,0.0024053219234191196,0.9917520092850524
2012-04-12,0,0.0,0.0,-0.008133568887234557,0.0021964747213839113,0.9919058584588689
2012-04-16,0,0.0,0.0,-0.008133568887234557,0.0021964747213839113,0.9924375520271798
2012-04-18,0,0.0,0.0,-0.009904672720393843,0.0015352085218886908,0.9927182589805027
2012-04-20,0,0.0,0.0,-0.01189552392653597,0.0015352085218886908,0.9918562730380058
2012-04-24,1,0.00038810877108152585,0.0004425798481245257,-0.010252441986039772,0.002050817852889207,0.9913219797233622
2012-04-26,0,-0.00013728547708932953,0.0001352499721847686,-0.010252441986039772,0.0028738038359232406,0.9914895205546518
2012-04-30,-1,-0.00037512225592170026,-7.442633175968043e-05,-0.009029032133045886,0.0028738038359232406,0.9916889147009837
2012-05-02,-1,-0.0005771881094943517,-0.00021935898220604112,-0.009029032133045886,0.0028738038359232406,0.9916939940039478
2012-05-04,-1,-0.0014815430638121744,-0.0010003945131132933,-0.009533369474598903,0.0028738038359232406,0.9911455809440192
2012-05-08,-1,-0.0021434794666011833,-0.0015539469241598854,-0.009392667911397926,0.004209554105513232,0.9901613178920572
2012-05-10,-1,-0.0017747573488991453,-0.001250718368908521,-0.013170563713076667,0.003249829371539511,0.989874023654514
2012-05-14,-1,-0.0013145426234667376,-0.0009606258765101066,-0.008797462119194873,0.005021105543644086,0.9901117785210167
2012-05-16,-1,-0.0014379321016791695,-0.0010945146574090703,-0.007062733995138858,0.0058497053140767336,0.9902044897248597
2012-05-18,-1,-0.0025611919600772187,-0.0020630707718753767,-0.006357489147467356,0.010965761076624763,0.9894160982090967
2012-05-22,0,0.0,0.0,-0.006357489147467356,0.010965761076624763,0.9899095860578895
2012-05-24,0,0.0,0.0,-0.007062733995138858,0.010965761076624763,0.9886800572626915
2012-05-29,0,0.0,0.0,-0.012696488217713617,0.010965761076624763,0.9874157036710443
2012-05-31,0,0.0,0.0,-0.008797462119194873,0.012369477031831845,0.9876288431320794
2012-06-04,-1,-0.003550179987470055,-0.003052810281601482,-0.007103011273698076,0.013650991142089616,0.98748326461647
2012-06-06,-1,-0.002326771902938652,-0.001997518669926708,-0.007103011273698076,0.012369477031831845,0.9883702927103849
2012-06-08,-1,-0.0031874634296075676,-0.002741084970511411,-0.004978423492850178,0.012369477031831845,0.9885261221011653
2012-06-12,-1,-0.002791850631182473,-0.002405655070098881,-0.007897004118981251,0.012369477031831845,0.9877907214151176
2012-06-14,-1,-0.002601652403933743,-0.0022270929301085236,-0.007897004118981251,0.013650991142089616,0.9872896940760783
2012-06-18,-1,-0.00048195434774039186,-0.000445421027300161,-0.007897004118981251,0.01178224580549122,0.9881132602227366
2012-06-20,0,0.0,0.0,-0.007897004118981251,0.010823594245203306,0.9884229032790138
2012-06-22,0,0.0,0.0,-0.009632618710039793,0.008852452018834743,0.9883084492054489
2012-06-26,-1,-0.0015080776862834823,-0.0013529914893647093,-0.010548962581876039,0.008852452018834743,0.9887638195779508
2012-06-28,-1,-0.0011225161001739569,-0.0010161622013443888,-0.010548962581876039,0.008852452018834743,0.9880993601949767
2012-07-02,-1,-0.0005872844366247199,-0.0005465355058716725,-0.010548962581876039,0.008111610395839576,0.9891216692684626
2012-07-05,-1,-0.0006326203667537456,-0.0005637118818631042,-0.017119343450692333,0.007461153795261599,0.9881633694301097
2012-07-09,-1,-0.00033658190903157443,-0.0003133481358161849,-0.017119343450692333,0.008111610395839576,0.986972266065727
2012-07-11,-1,-0.0012244505599318153,-0.0011026617748042483,-0.006361277284432412,0.012209064796835926,0.9848830732088713
2012-07-13,-1,-0.0009100325001272025,-0.0007998137638959932,-0.009883918826411712,0.008994816812145172,0.9855974147747707
2012-07-17,-1,-0.00021686253431674846,-0.00020934561057315505,-0.010945936137043599,0.008111610395839576,0.985763669380952
2012-07-19,-1,-0.0004860514781068717,-0.00043302697065413355,-0.010945936137043599,0.008175340641246621,0.9857033057649374
2012-07-23,-1,-0.0019592737137496953,-0.0017250817073496542,-0.004654471678143039,0.008175340641246621,0.9872255015226953
2012-07-25,-1,-0.0029391325820649454,-0.002592381343486002,-0.0004122357654201468,0.008175340641246621,0.9879495563853301
2012-07-27,-1,-0.002010261989047013,-0.0017613731086471582,-0.004275335781815986,0.00661631014133768,0.9893891193004305
2012-07-31,-1,-0.0012462999709693147,-0.0011235990201725055,-0.0061151012126669235,0.0033490956199244666,0.9898526267839729
2012-08-02,-1,-0.0018500524979857213,-0.0016566994048045763,-0.0061151012126669235,0.002730090492818621,0.9905837906047772
2012-08-06,-1,-0.001006106068773298,-0.0009114687403803934,-0.0061151012126669235,0.002730090492818621,0.9908202135649795
2012-08-08,1,0.0015763808651656024,0.0018353029937316343,-0.0061151012126669235,0.002730090492818621,0.9934871143076676
2012-08-10,1,0.0008169601365066979,0.0009522836534411577,-0.0061151012126669235,0.004866774720530228,0.9926914149639458
2012-08-14,1,0.000462194016064678,0.0005364249598527776,-0.004275335781815986,0.007828117619295692,0.9924951884138942
2012-08-16,1,0.000988349307784716,0.0011544586170632982,-0.004275335781815986,0.009666151473356147,0.9922849761980929
2012-08-20,0,0.0,0.0,-0.0067703044250003765,0.009666151473356147,0.9912680310137262
2012-08-22,0,0.0,0.0,-0.0067703044250003765,0.009666151473356147,0.9914287745694607
2012-08-24,0,0.0,0.0,-0.0032934409977384595,0.009666151473356147,0.9918382623997808
2012-08-28,0,0.0,0.0,-0.0030825298482700988,0.009666151473356147,0.9919353454167191
2012-08-30,1,0.0008637236640013197,0.0010255285410784732,-0.0030825298482700988,0.009666151473356147,0.9926314428026531
2012-09-04,1,0.001977373720390884,0.0023066563000463535,-0.0030825298482700988,0.009626814996071507,0.9936136061804026
2012-09-06,1,0.0018546781287251336,0.0021242080640811217,-0.003723762292810909,0.008102641260245758,0.9937320969473348
2012-09-10,1,0.0023283610889542113,0.00268544693653158,-0.003723762292810909,0.0062925931553764886,0.994410383013944
2012-09-12,1,0.002408340935494208,0.002776958161866078,-0.006734945942647171,0.0030355406545690545,0.9923364061211355
2012-09-14,1,0.0028180169103031666,0.0032282255418236106,-0.006734945942647171,0.002631314420873955,0.9912651540276092
2012-09-18,1,0.002489387013098778,0.002882769853911572,-0.005701734145054453,0.0030355406545690545,0.991900474557099
2012-09-20,1,0.002483332121872312,0.0028709931434910433,-0.006734945942647171,0.0030355406545690545,0.990485712337751
2012-09-24,1,0.0027872340014004505,0.0032284699099101224,-0.008155117318293612,0.003109295088771188,0.9895099221231014
2012-09-26,1,0.0021913873027590218,0.002511676732862424,-0.009854726940173591,0.003109295088771188,0.9891846317352261
2012-09-28,1,0.0017772660356557227,0.0020305525008986664,-0.009854726940173591,0.00508633044319572,0.9894574417863208
2012-10-02,1,0.0022261616160410167,0.002548582160156085,-0.009854726940173591,0.00508633044319572,0.988296792071089
2012-10-04,1,0.0023665528615609945,0.00266833682672529,-0.010601594826611773,0.00508633044319572,0.9878558442784027
2012-10-08,1,0.0017498646245895605,0.0019464874041060054,-0.010601594826611773,0.005086808236222321,0.988134916850163
2012-10-10,1,0.0001699343972687895,0.00021618829042571809,-0.009888913154096762,0.005086808236222321,0.9895800365536033
2012-10-12,1,0.0010948135072925784,0.0011994378787120712,-0.009888913154096762,0.004474656756789024,0.9906301929680793
2012-10-16,1,0.001335958351830539,0.0015075732459820176,-0.008036381100649626,0.0041651182629621605,0.9911701841460409
2012-10-18,1,0.0004791452871995436,0.0005344376135711733,-0.005567935402345803,0.005086808236222321,0.9916576678672785
2012-10-22,-1,-0.00012873115058742573,-7.551043591585104e-05,-0.004680960988098079,0.0041651182629621605,0.9923258412486193
2012-10-24,-1,-0.0015187750380908274,-0.0012530652901106163,-0.004282856447915042,0.005193865595992698,0.9917536548007394
2012-10-26,-1,-0.0006587806906856994,-0.0005303777151769798,-0.004282856447915042,0.0041651182629621605,0.9922965459645264
2012-11-01,1,0.00010337211551871627,0.00017577557564081903,-0.004680960988098079,0.003538388399168756,0.9926170664305443
2012-11-05,-1,-0.000341080557976235,-0.00022903827594880757,-0.004282856447915042,0.003538388399168756,0.9938272854547527
2012-11-07,-1,-0.00026720901597261995,-0.00017572417677559822,-0.004282856447915042,0.0034716381676062028,0.9937215118290945
2012-11-09,-1,-0.00042805281349198325,-0.0003601129204594814,-0.004282856447915042,0.004377018858725662,0.9940717931581089
2012-11-13,-1,-0.00047331114908426937,-0.00040693532026026534,-0.004282856447915042,0.004377018858725662,0.9938124492174293
2012-11-15,-1,-0.0005845577736081074,-0.0004926680349533828,-0.004566387628989453,0.004377018858725662,0.9937415139341376
2012-11-19,-1,-0.0008827440081339767,-0.0006913699032822123,-0.004288475866623072,0.004377018858725662,0.9933338768034081
2012-11-21,-1,-0.0008618328208082869,-0.0006867371345859374,-0.00467447758505345,0.004377018858725662,0.9934147964415048
2012-11-26,-1,-0.00017147973798674614,-0.00010067288018413532,-0.00467447758505345,0.004377018858725662,0.9930901044308756
2012-11-28,0,-1.140934283153932e-05,3.102093052796563e-05,-0.005068271644188725,0.004377018858725662,0.9924061639709287
2012-11-30,1,0.0002847671165873914,0.0002871445812391299,-0.005068271644188725,0.004377018858725662,0.9928679069481456
2012-12-04,-1,-0.00028860867270455866,-0.00016914001661246777,-0.005068271644188725,0.004377018858725662,0.9921490747461474
2012-12-06,1,5.272206522328752e-05,0.00010218757539502072,-0.005068271644188725,0.00567792715111978,0.9918375513335675
2012-12-10,1,9.046880516981328e-05,0.0001245584511947917,-0.00467447758505345,0.008579935189932622,0.991591856852748
2012-12-12,-1,-9.885380967334729e-05,-4.239005674925943e-05,-0.00308823336384246,0.008579935189932622,0.9919076752906851
2012-12-14,-1,-0.0010486255454285882,-0.0008110478181372958,-0.001323443839390614,0.008579935189932622,0.99147925014934
2012-12-18,-1,-0.0007088246105604483,-0.000458034606835035,-0.00191301304642088,0.008579935189932622,0.9910829554458483
2012-12-20,-1,-0.0006470789496330603,-0.00045098885737115133,-0.0022708386923543816,0.008668988327524305,0.9906331713777234
2012-12-24,-1,-0.00038424245667323316,-0.0002274110216810759,-0.0022708386923543816,0.008596977241853399,0.9914120538512546
2012-12-27,-1,-0.0011725086603830736,-0.0008465643527351501,-0.0022708386923543816,0.008596977241853399,0.9912933461300593
2012-12-31,-1,-0.0009670634692690822,-0.0006882344993859695,-0.0010447140084425864,0.008596977241853399,0.9919324287416826
2013-01-03,0,0.0,0.0,-0.0027011012168717823,0.008596977241853399,0.9915801513362204
2013-01-07,0,0.0,0.0,-0.0064294902757456515,0.006486205609335001,0.9915269136204627
2013-01-09,0,0.0,0.0,-0.0064294902757456515,0.006486205609335001,0.9916452284832417
2013-01-11,0,0.0,0.0,-0.0064294902757456515,0.006970552082793366,0.9914088114431067
2013-01-15,0,0.0,0.0,-0.0064294902757456515,0.006970552082793366,0.9914812127031719
2013-01-17,1,0.0019892293320917546,0.002212598735118976,-0.0030825514406477347,0.0060832488273831874,0.993485701186567
2013-01-22,1,0.0016164718472414167,0.0017743702495232692,-0.003132566447786219,0.0060832488273831874,0.9931626970299908
2013-01-24,1,0.0015769439911862318,0.0017233026978779032,-0.0028969832123824325,0.005278383614188317,0.9935366000125881
2013-01-28,1,0.0010740033465003612,0.0011294993658890879,-0.0016021266075519713,0.004809203221663084,0.9940763702613529
2013-01-30,1,0.0016785847002478583,0.0018748836590053526,-0.002195910253747339,0.005439832438674439,0.9915408527304609
2013-02-01,1,0.002365713081824366,0.00267818855975358,-0.002195910253747339,0.004809203221663084,0.9923989539707259
2013-02-05,1,0.0021529729491011436,0.002443605028223982,-0.0011655407971768003,0.004957216014646711,0.9933126987709282
2013-02-07,1,0.0023365486201107817,0.0026551339764590764,-0.00126016808087813,0.004957216014646711,0.9933843314401278
2013-02-11,1,0.0025558202234384777,0.002931831011809011,-0.002479792104851328,0.004773638065005744,0.9932007586130429
2013-02-13,1,0.0024136552464814553,0.002730900241012675,-0.002479792104851328,0.0032970139961049356,0.9932073782405849
2013-02-15,1,0.0023998282481634747,0.002723570822824679,-0.003533983479640677,0.0032970139961049356,0.9927757725100746
2013-02-20,1,0.0022824030927835423,0.0025959112943291732,-0.002479792104851328,0.004773638065005744,0.9932146546381966
2013-02-22,1,0.0020883491967449335,0.0023522635277376924,-0.002479792104851328,0.0033463515937661448,0.9933163937702099
2013-02-26,1,0.00185691524645458,0.0020794297462613117,-0.003229994476388283,0.0058193351535177395,0.9921964772247165
2013-02-28,1,0.003384648117269561,0.0038330018350813703,-0.0028768760602340274,0.0056912381434920285,0.9940789700024988
2013-03-04,1,0.0032006918128600213,0.00364381181893374,-0.0028768760602340274,0.0056912381434920285,0.9942835418465544
2013-03-06,1,0.0030263296127694167,0.0034228137000724855,-0.0038048614196114607,0.003986845740526233,0.9940954206956434
2013-03-08,1,0.0024375374787767223,0.0026787472126645986,-0.004912154133960697,0.0018831651174521214,0.9941048276420625
2013-03-12,1,0.0023051481929051696,0.0025543505825380793,-0.0038048614196114607,0.003986845740526233,0.9941188803833196
2013-03-14,1,0.0022468702321188647,0.00248659278862851,-0.004942918278378911,0.003986845740526233,0.9936156566225202
2013-03-18,1,0.0013458952791591417,0.0014012381744525463,-0.004942918278378911,0.00812809701002571,0.9925622146396242
2013-03-20,1,0.0017307664878778183,0.0018594847572717208,-0.009312480222539367,0.001756730478987722,0.9917019772182175
2013-03-22,1,0.001171974822529968,0.0011831405731903685,-0.009312480222539367,0.003673216381437327,0.9919387882941445
2013-03-26,1,0.0015770288421007269,0.0016527946380208616,-0.009541589325158762,0.0019651135302651136,0.9925764581542081
2013-03-28,1,0.002038312015345925,0.002246211073213036,-0.010313881787654805,0.0019651135302651136,0.9917259554028529
2013-04-02,1,0.0013765877594457947,0.0014543634957940995,-0.010313881787654805,0.0035507793542934305,0.9919787151856868
2013-04-04,1,0.001232383575611776,0.0012788980826169182,-0.011562729832204055,0.005327034126096077,0.9911683905823306
2013-04-08,1,0.000543270431889849,0.0006052163690403835,-0.010313881787654805,0.0063781714822126875,0.9904435060536805
2013-04-10,1,0.0006572238751569892,0.0007259209467487516,-0.011941674786882002,0.0063781714822126875,0.9848123023844841
2013-04-12,1,0.00016845084194373375,0.0003045038699022779,-0.011941674786882002,0.0063781714822126875,0.9850724584643525
2013-04-16,1,0.00047212543171335874,0.0005644446204448636,-0.010313881787654805,0.005327034126096077,0.9863393137868119
2013-04-18,-1,-0.0007550069933969361,-0.0005100307431364703,-0.006653297235743203,0.005327034126096077,0.9876190407876645
2013-04-22,-1,-0.0004788682253329612,-0.0002740882534160953,-0.009550556296014102,0.004411076386087041,0.9873370166652274
2013-04-24,-1,-0.0008197098624627546,-0.0005673732778123104,-0.0070841354493587465,0.004411076386087041,0.9875997131022417
2013-04-26,-1,-0.0010405985248376536,-0.0007678294459596366,-0.005781889629058078,0.0035733990118671814,0.9883485870888263
2013-04-30,-1,-0.0007745344878094334,-0.0005453704423890107,-0.0070841354493587465,0.0035733990118671814,0.9879202075887493
2013-05-02,-1,-0.0011963355398022383,-0.0009171181209184448,-0.0070841354493587465,0.0035733990118671814,0.9882012539540673
2013-05-06,-1,-0.0010921820301058812,-0.0008187742663477196,-0.006246444480460761,0.002357826953486698,0.9893157054011263
2013-05-08,-1,-0.0010671147647297028,-0.0007880195376757024,-0.005931027776676022,0.002357826953486698,0.9948848611192531
2013-05-10,-1,-0.001772223301350228,-0.0014031545220977457,-0.005931027776676022,0.0035733990118671814,0.9947236969624788
2013-05-14,-1,-0.0014833035740803241,-0.00119520688125957,-0.0063816429734128615,0.0035733990118671814,0.9940179859748605
2013-05-16,-1,-0.0015746577000467893,-0.001257985954224261,-0.0063816429734128615,0.004027323433311947,0.9936099885619198
2013-05-20,-1,-0.0018052510245036124,-0.001461488516286841,-0.006246444480460761,0.006256561925430592,0.9934442372406893
2013-05-22,-1,-0.002441541932438028,-0.001998264643732599,-0.006769149459194148,0.006256561925430592,0.9931917784600615
2013-05-24,-1,-0.0023953071484176403,-0.0019636477562334827,-0.00756459144209513,0.007013592126774442,0.9924498178765807
2013-05-29,-1,-0.0023517289165295363,-0.0019497622710493746,-0.00756459144209513,0.006317837602396176,0.9927737747020895
2013-05-31,-1,-0.002469251893280477,-0.0020693998079535357,-0.006769149459194148,0.007432018546817689,0.9927853584442389
2013-06-04,-1,-0.002359216869581019,-0.001993110242907007,-0.006769149459194148,0.008419155191251214,0.9925004235369741
2013-06-06,-1,-0.0021480055598503463,-0.0018051856677848421,-0.006769149459194148,0.009303739697619311,0.9917840168112306
2013-06-10,-1,-0.0020346486802144993,-0.0017105234672694731,-0.006769149459194148,0.009433785012557278,0.9908986830634668
2013-06-12,-1,-0.002275879604696436,-0.0019657808270994296,-0.004092406969362016,0.009544746160332468,0.9910461746695018
2013-06-14,-1,-0.0019934289851314497,-0.0017121953253162923,-0.002120069089309453,0.009433785012557278,0.9916081567956762
2013-06-18,-1,-0.0015582378571927533,-0.0013300724264262169,-0.005080686156319951,0.009303739697619311,0.9919065635088887
2013-06-20,-1,-0.0021749283103052685,-0.0018658444402725443,-0.0002752957504075596,0.00946573189399244,0.9911271931461183
2013-06-24,-1,-0.002141712900426342,-0.001842097690609069,0.0005764980686286572,0.009303739697619311,0.9917251271454106
2013-06-26,-1,-0.002432995621763192,-0.0021211395424194915,0.0012503159696902865,0.009303739697619311,0.9911879741152504
2013-06-28,-1,-0.002154230485566645,-0.0018486538996637853,0.0005764980686286572,0.008328856950296686,0.9914628488122713
2013-07-02,-1,-0.0018291401251042633,-0.0015777778127266696,0.001170071336125721,0.008289371060942477,0.9915965423563634
2013-07-05,-1,-0.0008252284531650941,-0.0007001100731195301,0.001170071336125721,0.009243566999771857,0.991835070524275
2013-07-09,-1,-7.175395298004995e-05,-4.883878324863222e-05,-0.00032088095668995887,0.008289371060942477,0.9925822651219159
2013-07-11,1,0.0001681274223757023,0.0001708046269945412,-0.006672229223452455,0.006810325634373649,0.9916945242925017
2013-07-15,1,0.000164135138733055,0.00016892462664392583,-0.006672229223452455,0.006810325634373649,0.9915843493661665
2013-07-17,-1,-4.013683352533851e-05,-1.4555613208715643e-05,-0.006672229223452455,0.006810325634373649,0.9915178150305369
2013-07-19,1,0.0003732585237165251,0.00039419337963290555,-0.006672229223452455,0.004623833299818253,0.9921395696825355
2013-07-23,1,0.0009624571426433042,0.0011315257199654124,-0.006672229223452455,0.004623833299818253,0.9918715405833198
2013-07-25,1,0.0008584763125768633,0.000998931371336506,-0.005391652284636299,0.004676017695659144,0.9922961263222332
2013-07-29,1,0.0008623504616711052,0.0010076749301649406,-0.004449993143661507,0.001992180079088164,0.9929449344286533
2013-07-31,1,0.0011788329470411379,0.0013861195769052901,-0.005391652284636299,0.0009902225327818057,0.9923628544313685
2013-08-02,1,0.0022694057529609613,0.0026085609990772057,-0.007304156216822076,-0.000168947536973794,0.9922292283777828
2013-08-06,1,0.0012509493748743307,0.0014572250324661421,-0.005391652284636299,0.0009902225327818057,0.9935618583419598
2013-08-08,1,0.0005123999735300685,0.0006109516462549551,-0.003868676677794269,0.0025702542086590563,0.9949105889180939
2013-08-12,1,0.0007974528442383983,0.0009651399883336651,-0.0033749623803586205,0.004314219338469159,0.9949603644665888
2013-08-14,1,0.00042884528775315937,0.0005397450988991279,-0.0040162341537979505,0.0028555717560198183,0.995170352047691
2013-08-16,1,0.0005361053025355731,0.0006816975055735971,-0.0042836811793656344,0.0028555717560198183,0.9952010829024304
2013-08-20,1,0.00045565645197804,0.0005964290457809719,-0.0038562931002162635,0.0028555717560198183,0.9954370107898686
2013-08-22,1,0.0005617936801968059,0.000704471227824221,-0.0042836811793656344,0.002076255164940785,0.9955072369750074
2013-08-26,1,0.0005350404046629401,0.0006772204380817012,-0.0048546762767092905,0.002076255164940785,0.9952991741410915
2013-08-28,1,0.0001270584278215416,0.00020399251279686038,-0.0042836811793656344,0.005285777853013743,0.9949198846378918
2013-08-30,0,-1.8465752153563127e-05,5.708294818184678e-05,-0.0025664132769339936,0.005285777853013743,0.9952471781464415
2013-09-04,1,0.0003376605211724474,0.0004424543214002017,-0.003360292408163647,0.005285777853013743,0.9950864760611454
2013-09-06,1,0.0006682222562325077,0.0008322170099390264,-0.0042836811793656344,0.0027732977731087932,0.9951046567775206
2013-09-10,1,0.00031227761623183034,0.0003748523507910303,-0.0048546762767092905,0.002046674656853452,0.9945612368731148
2013-09-12,1,0.0001961194807603624,0.0002595843837173684,-0.004320194634207922,0.0027732977731087932,0.9939387778750693
2013-09-16,-1,-3.823764767760613e-05,-2.1314981890982962e-05,-0.0035567469165876213,0.0065679205331071406,0.9934746708845361
2013-09-18,1,3.5367641734683157e-05,5.3490098660639125e-05,-0.0053429490702463665,0.008077029404204485,0.9922323743424903
2013-09-20,-1,-0.00014583861158446278,-0.00013674576595839393,-0.0035567469165876213,0.009775980814784377,0.9919853471971238
2013-09-24,-1,-0.0003982666336566142,-0.0003630704974050353,-0.0026828799557048312,0.012651385551053673,0.9916727119992749
2013-09-26,1,0.0004307998779528289,0.000514047269579452,-0.003540399018822526,0.009775980814784377,0.9927161829632041
2013-09-30,1,0.0007720729263755134,0.0009223904872460783,-0.003540399018822526,0.009775980814784377,0.992783961037389
2013-10-02,1,0.00041375582696892706,0.0004729745251778008,-0.0048605144661845595,0.006955290448714108,0.9931988297135436
2013-10-04,1,0.0002042124252949282,0.00022620307188034425,-0.004732703422117112,0.006955290448714108,0.9933994892605761
2013-10-08,-1,-0.00023063404968999896,-0.00020823678582071442,-0.004732703422117112,0.009475618067824968,0.992731405611642
2013-10-10,1,0.000268132546623306,0.00030050766937801763,-0.0013579137942715757,0.007895096277740097,0.9934340069881592
2013-10-14,1,0.0004925032844420288,0.0005400170971181877,-0.004732703422117112,0.006640894389936639,0.9931341214552705
2013-10-16,1,0.0008186232383093246,0.0009111025162179503,-0.004195332677465115,0.005977641264591791,0.994215337348399
2013-10-18,1,0.0007629281753280509,0.0008301766781544566,-0.004195332677465115,0.005977641264591791,0.994172417165097
2013-10-22,1,0.0010596856078513414,0.0011474217307750807,-0.004732703422117112,0.00447284286507655,0.9939541635102487
2013-10-24,1,0.0006508917842794996,0.0006756741998051021,-0.004195332677465115,0.005977641264591791,0.9935343739962612
2013-10-28,1,0.0009290487485580071,0.0010046023635339974,-0.005995711260767052,0.0058450714354401235,0.99306432269639
2013-10-30,1,0.0007002171793169421,0.0007477535799611227,-0.006078841470464185,0.00629090987426712,0.9924233322991853
2013-11-01,1,3.392548937425783e-05,0.00011537643508073757,-0.006078841470464185,0.00629090987426712,0.9924708129997476
2013-11-05,1,2.3147921949819223e-05,9.049499851328504e-05,-0.0046621724359094795,0.0058450714354401235,0.9938057643055286
2013-11-07,1,0.0007124102138192685,0.0007509039258754916,-0.005239238607333233,0.0058450714354401235,0.993373387233295
2013-11-11,-1,-0.00022231081611087905,-0.00012245182476916815,-0.005437567392160866,0.0058450714354401235,0.9940758857876277
2013-11-13,-1,-0.0001302037869319298,-3.188161307673157e-05,-0.006078841470464185,0.0030275368399189633,0.9936307476637509
2013-11-15,0,-8.709528359935015e-05,3.259968966753306e-05,-0.006078841470464185,0.005982519828045063,0.993240493696197
2013-11-19,-1,-0.00038166456872802494,-0.00025395974156574533,-0.005437567392160866,0.007193332537324692,0.9932648652870631
2013-11-21,1,0.00022372547317450463,0.00027959124329948585,-0.006078841470464185,0.0031702880071667336,0.9935346740736132
2013-11-25,1,6.28285185711846e-05,9.559133206581026e-05,-0.005058339713311484,0.006242511071581416,0.9939066424197665
2013-11-27,1,0.0004925781100811733,0.000541623229595007,-0.004415163946945186,0.004513652546471279,0.9946088182936874
2013-12-02,1,0.0005815342439676377,0.0006582048701925154,-0.005058339713311484,0.004513652546471279,0.9945653112370038
2013-12-04,1,0.0006175979252884749,0.0007027933673178814,-0.006679134986821524,0.004513652546471279,0.9939281322340373
2013-12-06,1,0.0005825332172325129,0.0006493681724735231,-0.006679134986821524,0.004513652546471279,0.9931625620066018
2013-12-10,1,0.00043737204329466863,0.0005135974197730846,-0.006431639903308544,0.006242511071581416,0.9921690563572791
2013-12-12,1,0.00032650507714230507,0.00039230334654272614,-0.006431639903308544,0.007975731839004623,0.9898967639875
2013-12-16,1,0.0008966570780619422,0.0010358570102696344,-0.006431639903308544,0.007807469580797664,0.9900014230931001
2013-12-18,1,0.0010942510753394323,0.001255505904356884,-0.006679134986821524,0.004513652546471279,0.9900900398155726
2013-12-20,1,0.0008731001123206308,0.001015019246469588,-0.006431639903308544,0.0048298937097707075,0.9901372253040758
2013-12-24,1,0.0018381346421260493,0.0021830666187196337,-0.006679134986821524,0.005112371063897861,0.989157496186034
2013-12-27,1,0.0014776467554164646,0.0017194040144426115,-0.006679134986821524,0.007559718205125561,0.9888304631419335
2013-12-31,1,0.000827031428580394,0.0009315586792668766,-0.006833576243024178,0.010819455142902262,0.987592344451644
2014-01-03,1,0.00033558688542440374,0.0003683196577235119,-0.009962488370795101,0.010819455142902262,0.9865207230937758
2014-01-07,1,0.000687476150857812,0.0007497519712240123,-0.009962488370795101,0.007559718205125561,0.9875661385755309
2014-01-09,1,0.0015269645115012246,0.001689529129855402,-0.009962488370795101,0.007559718205125561,0.9886146742177826
2014-01-13,1,0.0010810470047741072,0.0011708706891347216,-0.006179538780818708,0.007559718205125561,0.9909968869455476
2014-01-15,1,0.0016180008149118336,0.0017807460726730587,-0.006179538780818708,0.008316172885719649,0.9909373312556243
2014-01-17,1,0.0012285849707279366,0.0013327302910164554,-0.0043484663721010345,0.008316172885719649,0.9910646371144647
2014-01-22,1,0.0009177746863472197,0.0009522779058552406,-0.00208602690308232,0.008401260630140999,0.9908532966877628
2014-01-24,1,0.00020001478194341964,0.00027442109043446727,-0.0060376118243867126,0.008401260630140999,0.9907282767530634
2014-01-28,1,0.0006386908147210519,0.0006453326591304635,-0.0060376118243867126,0.008401260630140999,0.9908558188700892
2014-01-30,1,0.0009546948059622325,0.0010035309530173064,-0.007391758408170237,0.007599608371336475,0.9918144855395601
2014-02-03,-1,-0.0002146361748086845,-0.0001322972760481084,-0.004733783428344901,0.008401260630140999,0.9917454186092532
2014-02-05,-1,-8.693237714903988e-05,-4.034907519952018e-06,-0.004733783428344901,0.008401260630140999,0.9920846074439501
2014-02-07,1,0.00020822749718604823,0.0002683132214766516,-0.004733783428344901,0.007599608371336475,0.9926620254605067
2014-02-11,1,0.0005597452206168597,0.0005765927859964783,-0.0077934100487579315,0.004668856072170869,0.9924187079775575
2014-02-13,1,0.0010470568017373733,0.001071399249521843,-0.009349274390919444,0.003359784493689991,0.9928301109448734
2014-02-18,1,0.0007832525792416413,0.0008005334234673659,-0.009349274390919444,0.0036719160423800876,0.9926194592946805
2014-02-20,1,0.0013122957375301856,0.0014016510348693503,-0.009349274390919444,0.003199811346821094,0.9926189953762714
2014-02-24,1,0.0006093190130558437,0.0006124083615337576,-0.0073088489722483085,0.003199811346821094,0.9934429655646901
2014-02-26,1,0.0009502675072610156,0.0010027209082138773,-0.0073088489722483085,0.0012703475165214237,0.9930199035637258
2014-02-28,1,0.0003147907818434369,0.00035520210364124987,-0.006934644659481452,0.003199811346821094,0.9936599544150001
2014-03-04,1,7.304151819351146e-05,0.00016927488551747805,-0.006486208339284538,0.00406310093625054,0.9942539785933046
2014-03-06,1,8.127283959071972e-05,0.00016032612580031813,-0.006486208339284538,0.00406310093625054,0.9942868396275949
2014-03-10,1,0.00043097089664924447,0.0004531169888287146,-0.0073088489722483085,0.00372259422423393,0.9923618273133273
2014-03-12,1,1.786600113525401e-05,7.467204685781563e-05,-0.006486208339284538,0.005927583248218649,0.9925962472131283
2014-03-14,-1,-0.0002222524436736401,-0.00015198897697953927,-0.006947049925822183,0.005927583248218649,0.9908209332023615
2014-03-18,1,0.0005095422221583685,0.0005553943646704083,-0.007781521615880366,0.005682240907093743,0.9906605133075439
2014-03-20,1,0.000319834549420508,0.00032651827836146076,-0.007781521615880366,0.006629054363619515,0.9907490814567015
2014-03-24,1,4.8721620318425386e-05,6.414621408648826e-05,-0.007382506770432049,0.008240004814759203,0.98995197837817
2014-03-26,-1,-0.0005044527491239332,-0.00041217608969321677,-0.0027722346021236996,0.008240004814759203,0.990445497254014
2014-03-28,-1,-0.00025467875925140084,-0.00018469244086926102,-0.008307073461667223,0.007968809254098617,0.9903028207368915
2014-04-01,1,0.00028549272437242,0.00030262020162648745,-0.008307073461667223,0.005398071603318707,0.9908356439680345
2014-04-03,1,0.0005116559749155322,0.0005443922950756798,-0.008307073461667223,0.006213050024921881,0.9906974973511851
2014-04-07,-1,-0.0011916666041174775,-0.000990499704074191,-0.006815632973947918,0.0066422335165162785,0.9917339198493083
2014-04-09,-1,-0.0005629737096045405,-0.00044307938194343253,-0.007878643008569242,0.006213050024921881,0.9912609004755012
2014-04-11,-1,-0.0019025928410527073,-0.0016458089257666252,-0.002120256681883737,0.0066422335165162785,0.9922760754441449
2014-04-15,-1,-0.0022579571573413514,-0.00193585738392723,-0.0029768292220784007,0.006213050024921881,0.9928002861683672
2014-04-17,-1,-0.0016013755709903708,-0.0013850523867907818,-0.005928109395189637,0.005437269967959332,0.9931872993614598
2014-04-22,-1,-0.000977478879956932,-0.0008102753507888028,-0.005928109395189637,0.004503233920304845,0.9945158460369291
2014-04-24,-1,-0.0009686866469648676,-0.0008143100270029938,-0.005928109395189637,0.004503233920304845,0.9942995713382792
2014-04-28,-1,-0.001558970545604929,-0.001329590336060988,-0.004738005489618597,0.004838802306770253,0.9943258896957874
2014-04-30,-1,-0.0011977216582607765,-0.0010090196716648042,-0.004738005489618597,0.0033547736922665515,0.994713425380477
2014-05-02,-1,-0.0009698087161321757,-0.0008133574759186842,-0.004738005489618597,0.002397739621919417,0.9949127106721086
2014-05-06,-1,-0.0012171602777201105,-0.0010103364935935208,-0.003715130472204411,0.002397739621919417,0.9950718681042485
2014-05-08,-1,-0.0021312088429279886,-0.0018028896509007736,-0.0025783138349534844,0.0033547736922665515,0.9960582378217768
2014-05-12,-1,-0.0012850600248648244,-0.0010870562714185195,-0.003715130472204411,0.0011522025442231236,0.9965238144633243
2014-05-14,-1,-0.001351911327396066,-0.0011628383592828268,-0.003715130472204411,0.0011522025442231236,0.9963709835478034
2014-05-16,-1,-0.0017871858837121377,-0.0015330032422875438,-0.003715130472204411,0.0011522025442231236,0.996362393249809
2014-05-20,-1,-0.001813228514543673,-0.0015639335444411818,-0.0033563264445531623,0.0023163498846820335,0.9959104093235516
2014-05-22,-1,-0.00192066450435387,-0.001669604566822513,-0.0028059987103229963,0.0023163498846820335,0.9960202855109486
2014-05-27,-1,-0.0016626470387413527,-0.0014320793594346422,-0.003788759253598324,0.0011522025442231236,0.9963497613117452
2014-05-29,-1,-0.0018523452128342166,-0.0015798887466622036,-0.003788759253598324,0.0007648541200441153,0.996539865655439
2014-06-02,-1,-0.0015822407089716248,-0.0013699324700075007,-0.003678324132691691,0.0010887747845307006,0.9961838226463025
2014-06-04,-1,-0.00044410655818228684,-0.00042208627798398106,-0.004736698525992903,0.0010887747845307006,0.995853818311644
2014-06-06,-1,-0.0006309403837716964,-0.000566430686969529,-0.004825251356166646,0.0008704953082346902,0.9958938735986819
2014-06-10,-1,-0.0003149816890127818,-0.00030885969135157747,-0.004825251356166646,0.00024947923981406253,0.9956807172443478
2014-06-12,-1,-0.0005831028947628422,-0.0005465298637096056,-0.004736698525992903,-0.0005374769315668012,0.9958932115551271
2014-06-16,-1,-0.0008210951818199849,-0.0007572187156655714,-0.004676971530910174,0.0003762630145687784,0.9956148640073058
2014-06-18,-1,-0.0008449161016216673,-0.0007561335748255668,-0.005346751304866642,-0.0005374769315668012,0.9953957654916773
2014-06-20,-1,-0.0007000047565464557,-0.0006461366773536731,-0.005346751304866642,0.0003762630145687784,0.9943907448308363
2014-06-24,-1,-0.0008842771676495399,-0.0008296260525439951,-0.004676971530910174,0.0025091222585656055,0.9945194451602276
2014-06-26,-1,-0.0018713814787666406,-0.0016295648780144524,-0.005463555901814704,0.0025091222585656055,0.9943592820656579
2014-06-30,-1,-0.001124472732917602,-0.0009982895416296021,-0.007816758335080335,0.001534536892974694,0.9941187463526068
2014-07-02,-1,-0.0008289800455314653,-0.0007658311448637856,-0.008539364220650648,0.001534536892974694,0.9937269475680505
2014-07-07,-1,-0.0007066634956235654,-0.0006790311786182665,-0.008539364220650648,0.0024977899484275898,0.9937791658547867
2014-07-09,-1,-0.00036728836510967693,-0.0003014554834815266,-0.005564423351184866,0.005699885387645285,0.9917184444268038
2014-07-11,-1,-0.0006027191560364646,-0.0005660184770469733,-0.008632033516086993,0.005699885387645285,0.9914574115267133
2014-07-15,1,8.877266775915779e-05,0.00024197433439371926,-0.008778635413158705,0.003532316961039836,0.9917146696037185
2014-07-17,-1,-0.0009686764251951058,-0.0009342789650623189,-0.005241101110200878,0.00601156399866791,0.9914492691961899
2014-07-21,-1,-0.0001549295163825997,-5.1449606999084475e-05,-0.006195773333344188,0.005699885387645285,0.9920410363495428
2014-07-23,-1,-0.00014125950804774753,-7.016838025521147e-05,-0.008303783244785687,0.005616918882014146,0.991666147452963
2014-07-25,-1,-0.00031890713298113674,-0.0002449118749971905,-0.0069986303696325585,0.005616918882014146,0.9918510347147298
2014-07-29,-1,-0.0006362050836541955,-0.0006152000292806157,-0.005760722374959812,0.005699885387645285,0.9917196461038554
2014-07-31,-1,-0.0008324227589493275,-0.0008209995263866273,-0.0045400491604765374,0.005699885387645285,0.9923592755057639
2014-08-04,-1,-0.0008119985364342801,-0.0007969099486061774,-0.0045400491604765374,0.005616918882014146,0.9924305605606315
2014-08-06,1,0.0008844067773205311,0.0010726556984756894,-0.006812973042893191,0.002773142417493931,0.9938825383521476
2014-08-08,1,0.0007726297383772703,0.0009839866502534952,-0.005760722374959812,0.004110125647764776,0.9938295809775888
2014-08-12,1,0.00045414378727665436,0.0006224943826347192,-0.0045400491604765374,0.004110125647764776,0.9940710826425838
2014-08-14,1,0.0010528035102409183,0.0012769238078167919,-0.006528822725562704,0.0023971303070175905,0.9942041253662014
2014-08-18,1,0.0008127404201195779,0.0009785632160995714,-0.006528822725562704,0.002246055289953804,0.9947052606535868
2014-08-20,1,0.0005495783743383917,0.0007056081327422484,-0.004001783232496264,0.0023971303070175905,0.9952576538589977
2014-08-22,1,0.0007933234909318592,0.0010283380368967115,-0.004796082610677502,0.0023971303070175905,0.9950519452768075
2014-08-26,1,0.0013996461055372528,0.001720799874813585,-0.0068015117255754015,0.002246055289953804,0.994361413169176
2014-08-28,1,0.0004010196233339654,0.0005040009200148681,-0.0077231212256731845,0.002246055289953804,0.9937511697246575
2014-09-02,1,0.0009192602432791451,0.0011286659238328163,-0.008569725297688395,0.002246055289953804,0.9926729287737944
2014-09-04,-1,-0.0006375938715909855,-0.0005559660011053185,-0.008755572490216227,0.003168189867742379,0.9928501644665026
2014-09-08,1,1.4262439889608636e-05,2.2201280405168184e-05,-0.008755572490216227,0.0018918708316302954,0.9934058996855891
2014-09-10,-1,-0.00012390123166468496,-0.00011281779981563817,-0.011200065034627676,0.0030495903934259654,0.991989146106598
2014-09-12,0,-4.46070599853958e-05,1.3409568958438502e-05,-0.01413483971967363,0.0030495903934259654,0.9906649805047362
2014-09-16,1,6.909489358441213e-05,0.000140381824829759,-0.014733465149206537,0.002734939093207928,0.9897350728399922
2014-09-18,1,2.4770468016189912e-05,6.006629692719463e-05,-0.014733465149206537,0.002734939093207928,0.989200476010481
2014-09-22,-1,-7.042619738654811e-05,-2.4869750256460563e-05,-0.014733465149206537,0.007840087912111902,0.9885449486133291
2014-09-24,0,-2.0984480398251142e-05,4.746760460803864e-05,-0.015072796208206084,0.007840087912111902,0.9883520859169943
2014-09-26,-1,-0.0006921108836921296,-0.0006787863199900776,-0.014247950072673477,0.009831186223215074,0.9886802711290207
2014-09-30,-1,-0.0016354971868028255,-0.0014702210986129636,-0.012304046622502717,0.009831186223215074,0.9894593646810761
2014-10-02,-1,-0.001318460237608185,-0.0012194951879175781,-0.01114036964768543,0.009831186223215074,0.9896009659998977
2014-10-06,-1,-0.0015010999585733302,-0.0013679605776781391,-0.01114036964768543,0.009831186223215074,0.9891943528586764
2014-10-08,-1,-0.0012884434560877206,-0.0011699821143593262,-0.01118114891872406,0.006979724322393358,0.9901289789742942
2014-10-10,-1,-0.0026646719299095144,-0.0023754390598892203,-0.00467230049429415,0.006979724322393358,0.9915933463975531
2014-10-14,-1,-0.0032063427428423077,-0.0028443618847785995,-0.0021905216314036923,0.008865583892744553,0.9911873358444586
2014-10-16,-1,-0.0019958042608376448,-0.0017969021783481535,-0.0037383488479655253,0.006979724322393358,0.9926638063194839
2014-10-20,-1,-0.001130859516920072,-0.001036840204448647,-0.0037383488479655253,0.0055313603225767526,0.9934089033938595
2014-10-22,-1,-0.0013963547666646613,-0.0012728611100403285,-0.002142054759874677,0.0055313603225767526,0.9938916902105362
2014-10-24,-1,-0.0005714833678689454,-0.0005661783995502869,-0.002142054759874677,0.007236295158744473,0.9935868101597669
2014-10-28,-1,-0.0004084529984909085,-0.00039303656469441784,-0.0037383488479655253,0.009748219392890542,0.992748892923874
2014-10-30,-1,-0.0003918863754572631,-0.00037870624477770736,-0.0037383488479655253,0.009748219392890542,0.9931045257385815
2014-11-03,-1,-0.00024559695937863193,-0.00021794998815971066,-0.0037383488479655253,0.010258161327587214,0.9929572634082214
2014-11-05,-1,-0.0004952991167969112,-0.00047731569765132594,-0.0012328841515987763,0.010258161327587214,0.9934495858327753
2014-11-07,-1,-0.0010056945593131515,-0.000944421516206171,-0.00017110637300684083,0.010258161327587214,0.9929403678918924
2014-11-11,-1,-0.00043588254036618887,-0.0004352771221028931,-0.0035639619494742475,0.010258161327587214,0.9932004261447027
2014-11-13,-1,-0.0008860160626896573,-0.0008160991954707189,-0.004051816617149725,0.010258161327587214,0.9926704576304224
2014-11-17,-1,-0.00019588824409608627,-0.00018526712318990402,-0.004944020933703762,0.006699140248782678,0.9927821347953267
2014-11-19,1,0.0003773595551155233,0.00048603451953155947,-0.004944020933703762,0.010258161327587214,0.9917003886075394
2014-11-21,1,0.0009190092098527269,0.0010934962500293815,-0.004944020933703762,0.004683564638190331,0.9924692966915658
2014-11-25,1,0.001088637504411229,0.0012748345208198205,-0.004944020933703762,0.004275012814566383,0.9932330099289294
2014-11-28,1,0.001003770798644259,0.0011662499352511138,-0.004051816617149725,0.0048208411299674936,0.9932967054232646
2014-12-02,1,0.0012637384504517084,0.0014413598592036719,-0.005003414199256217,0.0044338925005170254,0.9930907667215194
2014-12-04,1,0.0016206892872304593,0.0018686127518450437,-0.005003414199256217,0.0044338925005170254,0.9930200723206767
2014-12-08,1,0.0012065704470435611,0.0013592079102888418,-0.00703506303493262,0.0037512179970142865,0.9927001812321442
2014-12-10,1,0.0008695795395321916,0.0010039377792484803,-0.003073751339821153,0.0044338925005170254,0.9931326726279478
2014-12-12,1,0.0006282461271716248,0.0007455249110113328,-0.0018628165609196618,0.0044338925005170254,0.9936696614520365
2014-12-16,1,0.00015331943608299278,0.00018550102774376887,-0.003073751339821153,0.0044338925005170254,0.9930945863783487
2014-12-18,1,0.0011452823075949925,0.0012902379212752489,-0.00708328152940407,0.0033526547350860693,0.9942466472235726
2014-12-22,1,0.0008807143764715296,0.0009651271041039328,-0.00708328152940407,0.0033526547350860693,0.9936162728213203
2014-12-24,1,0.0008453969809558079,0.0009408343452714186,-0.01159709823414411,0.0033526547350860693,0.9929868148269867
2014-12-29,1,0.002129239110264674,0.002500226411401865,-0.01159709823414411,0.002454508342951624,0.9924172821472861
2014-12-31,1,0.0013030207940780037,0.0015300850562508217,-0.007769390038698965,0.002454508342951624,0.992823617054889
2015-01-05,1,0.0013025695790253805,0.001509761188229146,-0.007769390038698965,0.004961477984515846,0.992140831565925
2015-01-07,1,0.0013357787115146889,0.0015907082622918815,-0.005610099897054163,0.009335821316149738,0.9920343883288523
2015-01-09,1,0.0016898666051542081,0.001988984809130099,-0.007769390038698965,0.00417810320874545,0.9911297567107826
2015-01-13,1,0.0013486215769458426,0.0015718493456589333,-0.007769390038698965,0.009455286391991665,0.9904617206443882
2015-01-15,1,0.0003607566153169682,0.00044366259066038453,-0.0054559086254371645,0.009455286391991665,0.9916531448064093
2015-01-20,1,0.0002837025926121605,0.00038581109951119514,-0.004487085616536011,0.009455286391991665,0.9922419639831752
2015-01-22,1,0.0007372588119255008,0.0008834721099880633,-0.0041804511889653295,0.009236900127791155,0.992614504896411
2015-01-26,1,0.000331251973130757,0.0004358532070824267,-0.0041804511889653295,0.009236900127791155,0.9931157227205258
2015-01-28,-1,-0.0003519220471600489,-0.00033226369934921695,-0.003091476934130021,0.009236900127791155,0.9930797124265707
2015-01-30,1,0.00034533759684025466,0.00045777903908241873,-0.00277528944475098,0.010302804429451674,0.9883542722752451
2015-02-03,1,0.0008061691008875119,0.0009591463662651375,-0.00277528944475098,0.009119902207776255,0.9890211148692268
2015-02-05,1,0.0011981496174567892,0.0013803943812268223,-0.003151832997648518,0.009119902207776255,0.9893861828733406
2015-02-09,1,0.0003752648870540749,0.0004571049507049732,-0.002752167351145893,0.009119902207776255,0.9899322033988223
2015-02-11,1,0.0007440174625546852,0.0008852874842422781,-0.0020507229809068783,0.009119902207776255,0.9902095019359912
2015-02-13,1,0.0009377858183108726,0.0010859923440899582,-0.002752167351145893,0.009119902207776255,0.9898302474957721
2015-02-18,1,0.0007285788815105887,0.0008478360871051521,-0.002752167351145893,0.009119902207776255,0.9898405913434052
2015-02-20,1,0.0005862665771928265,0.0006413144114467482,-0.003151832997648518,0.008773187430434877,0.9897658801617757
2015-02-24,-1,-0.0001151606738772132,-5.680005831671281e-05,-0.0011651231783353622,0.008773187430434877,0.990110931701941
2015-02-26,1,0.0003242852235677177,0.00033266451750090464,-0.0016718352057448643,0.006437290152208704,0.9905982670590557
2015-03-02,1,0.0034898756699430116,0.003892525459491978,-0.0016718352057448643,0.004365725889861623,0.9952908501357127
2015-03-04,1,0.0032932148130033184,0.0036926471479339193,-0.001121599864451073,0.0045054277538255525,0.9952864984531198
2015-03-06,1,0.0024088678995195754,0.0025921998264356316,-0.0005710745301885724,0.004942313715953439,0.9958214780267656
2015-03-10,1,0.0019275236355889513,0.0020200104006153075,-0.00033071018585337843,0.004942313715953439,0.9962393900189812
2015-03-12,1,0.002610914563992985,0.002832511691926333,-0.00033071018585337843,0.0025235810305407084,0.9965457865367855
2015-03-16,1,0.0028060147177197434,0.003083355789044852,-0.00033071018585337843,0.0019914815496416627,0.996683030343106
2015-03-18,1,0.0025234976645499103,0.002736024811362192,-0.0005710745301885724,0.0018824652653877012,0.9965939074699702
2015-03-20,1,0.002212449312750932,0.0024063709442503707,-0.0003308423476714057,0.0018824652653877012,0.996864089002918
2015-03-24,1,0.0023202417591016485,0.0025270055100349376,-0.0003308423476714057,0.0018824652653877012,0.9967946024937977
2015-03-26,1,0.002115669616399319,0.0022911647496283213,2.179186140166561e-07,0.0019914815496416627,0.9969999341248992
2015-03-30,1,0.0020068812087828567,0.002169450335898229,-0.00023655345813392454,0.002906665407956292,0.9957824745833442
2015-04-01,1,0.00224902162145114,0.002394062068382923,-0.0033453078952859934,0.0019914815496416627,0.9951830258770764
2015-04-06,1,0.002221576637242921,0.0023372685725449437,-0.0033453078952859934,0.0019914815496416627,0.9948408725605772
2015-04-08,1,0.0022164645763310667,0.0023507323613362924,-0.00516379675821165,0.0026818860898863203,0.9911404670152426
2015-04-10,1,0.0018512774937722736,0.001937243049251376,-0.0063902672493309064,0.004235483481727207,0.9898235314836297
2015-04-14,1,0.0017768508799489383,0.0018731717357959965,-0.007982547890214459,0.004235483481727207,0.9895278700960228
2015-04-16,1,0.0017439024995133544,0.0018544016457663832,-0.007982547890214459,0.005966313699093398,0.9893962841826115
2015-04-20,1,0.0016360342484401022,0.001762759593257379,-0.005644636954421052,0.008387906434309447,0.9891797566833718
2015-04-22,1,0.0017422184385191873,0.0018952521692671858,-0.007982547890214459,0.008387906434309447,0.9884924981687524
2015-04-24,1,0.0017958344777054928,0.0019474892026785753,-0.007982547890214459,0.008387906434309447,0.9882448666316129
2015-04-28,1,0.0016248149526695034,0.0017677423092075527,-0.007074327979209605,0.007334311298283917,0.9890800046221602
2015-04-30,1,0.0012374037435286778,0.0013364158014364895,-0.007074327979209605,0.009370874939988155,0.9886911898275076
2015-05-04,1,0.0016577383275505236,0.0018092891700986428,-0.007074327979209605,0.009097875322519051,0.9886716791109026
2015-05-06,1,0.0025239166469504326,0.002759809453797356,-0.005151869573041888,0.009097875322519051,0.9916825092751647
2015-05-08,1,0.002552477682785372,0.0027640377314597994,-0.005151869573041888,0.007334311298283917,0.9925329085157738
2015-05-12,1,0.0019087886810391617,0.002008654234965908,-0.004365548563112273,0.009097875322519051,0.9917691993816862
2015-05-14,1,0.0023661330494465058,0.002587009236058474,-0.005151869573041888,0.009097875322519051,0.9911845497203629
2015-05-18,1,0.002815108083119226,0.003092045393539838,-0.0071251842792611295,0.0065400503252259715,0.9910886441403355
2015-05-20,1,0.0023793046349582007,0.0025829287639544556,-0.005151869573041888,0.0065400503252259715,0.9917733092528
2015-05-22,1,0.0021810702362506473,0.002369093042454986,-0.0049220947141960115,0.007576716629801709,0.991812680066641
2015-05-27,1,0.0017227571608822991,0.0018324426775444842,-0.004685350659700258,0.007576716629801709,0.991755294094344
2015-05-29,1,0.0016375171244673594,0.0017278255341998674,-0.0034296318554490482,0.007576716629801709,0.9926039496557302
2015-06-02,1,0.0015892015637422813,0.0016503329624040425,-0.0034296318554490482,0.0065400503252259715,0.9932745461596516
2015-06-04,1,0.001874101379557751,0.001982912775310544,-0.0047552855287724145,0.005547074825534473,0.9924424014173422
2015-06-08,1,0.0016990780242041323,0.0017735587088621913,-0.004312268566521033,0.0065400503252259715,0.9923975918157358
2015-06-10,1,0.0017519895396156645,0.00178379050005393,-0.0047552855287724145,0.005547074825534473,0.9930532761578951
2015-06-12,1,0.000996233144043259,0.001080327730837008,-0.0035923516862462266,0.007576716629801709,0.9929695625981126
2015-06-16,1,0.0008520723554566445,0.0009501249400016499,-0.0035923516862462266,0.0077496197964860795,0.993024124435351
2015-06-18,1,0.0005344071409592199,0.0006993862226465582,-0.0035923516862462266,0.0077496197964860795,0.993093298077051
2015-06-22,1,0.00023578221916407494,0.0004595894164654595,-0.0047552855287724145,0.005194048802766844,0.9928734557073928
2015-06-24,0,-0.00019051413460433064,8.387617937138231e-05,-0.0035923516862462266,0.007736204752940707,0.9927377462168143
2015-06-26,1,0.00018798747074646376,0.00039509070754181264,-0.00946885397748663,0.005194048802766844,0.9917247336027483
2015-06-30,1,0.0003643278126710457,0.0005311775638774069,-0.00946885397748663,0.007736204752940707,0.9905135859208932
2015-07-02,-1,-0.0011211724621042157,-0.0007403968884245253,-0.004718203627661762,0.007736204752940707,0.9915853037608482
2015-07-07,-1,-0.0007028151147327689,-0.00037326461437311065,-0.007694432835954452,0.006975375376391461,0.9920526715205028
2015-07-09,-1,-0.0012310031701019018,-0.0008446849751398465,-0.007694432835954452,0.006975375376391461,0.9911168768962095
2015-07-13,-1,-0.0006714211937065876,-0.00033622990293575,-0.007694432835954452,0.006975375376391461,0.9903118814090224
2015-07-15,-1,-0.000845099619342847,-0.0004910955127885165,-0.012359988632112764,0.004976851989435431,0.9897117384771553
2015-07-17,-1,-0.0010789508875472227,-0.0006760893638959582,-0.012359988632112764,0.004096422878551963,0.989892523168353
2015-07-21,-1,-0.0014021783850215286,-0.0009740913067692674,-0.011332967248634097,0.007084614312946469,0.988951573397709
2015-07-23,1,0.0005860610452283072,0.0006230552351543751,-0.012379151852672663,0.003434148667296197,0.987210181514686
2015-07-27,-1,-0.00039823567519005863,-0.0002374113343863156,-0.013486615261437495,0.003434148667296197,0.9862242646420207
2015-07-29,1,0.0004606071904785438,0.0005011418895047292,-0.013486615261437495,0.001487720523196195,0.98594357668586
2015-07-31,1,0.0003639803334327263,0.0004228368804361978,-0.013647371470621847,0.005240575124923062,0.9842758774137189
2015-08-04,1,0.00019859340280951025,0.00025705745181413286,-0.01795827800569344,0.005240575124923062,0.983159376566719
2015-08-06,-1,-0.0006935614027563277,-0.0005314109010069843,-0.013647371470621847,0.017725075597956844,0.9837900747463468
2015-08-10,1,0.0006149372495367348,0.0006212254421144846,-0.013647371470621847,0.006839347682658586,0.9844590106629239
2015-08-12,-1,-0.0005243997986679767,-0.0003678542531128349,-0.011682130614504627,0.006839347682658586,0.9861249270368017
2015-08-14,-1,-0.0007186846388272756,-0.0005384734104778216,-0.012054035724406185,0.008097055592223542,0.9855257026183352
2015-08-18,-1,-0.0004519313472194732,-0.00029693759397742,-0.012054035724406185,0.008097055592223542,0.9863005771521475
2015-08-20,-1,-0.001594403222079645,-0.0013063305292213365,-0.009422803505330946,0.008097055592223542,0.9877590332995703
2015-08-24,-1,-0.0030847120177297013,-0.002634991306190785,-0.006788313007151586,0.008097055592223542,0.9897684444771057
2015-08-26,-1,-0.002219108599643805,-0.0018882159194759359,-0.007706904478326311,0.004725149847345688,0.9906883598117089
2015-08-28,-1,-0.0018645985101058376,-0.001574651244862251,-0.007706904478326311,0.0032983192218515125,0.9918628926222738
2015-09-01,-1,-0.0028361750283466412,-0.0024388478500781165,-0.007537075209182367,0.004725149847345688,0.9926715493897939
2015-09-03,-1,-0.002220965427438399,-0.0018902639477374368,-0.007537075209182367,0.0059071984647032835,0.9927781307734778
2015-09-08,-1,-0.002162044067241498,-0.0018319640525796248,-0.007537075209182367,0.003692335427637378,0.9928159189072848
2015-09-10,-1,-0.0022896065604380888,-0.0019299488941031601,-0.007537075209182367,0.00658939404344638,0.9913776839185331
2015-09-14,-1,-0.002475112663997173,-0.002094858424696636,-0.006788313007151586,0.006513734751239021,0.9918278078721312
2015-09-16,-1,-0.002025923952896796,-0.001705809199715485,-0.008086674480162676,0.0045001286227325,0.9919388555290176
2015-09-18,-1,-0.0023293452616692306,-0.0019618581308134247,-0.008086674480162676,0.006513734751239021,0.9912721388323985
2015-09-22,-1,-0.0028444477532935013,-0.0023961431143899245,-0.008159736030433733,0.008975526942968616,0.9906418662264316
2015-09-24,-1,-0.0027430614413601903,-0.002333792961871171,-0.008159736030433733,0.008975526942968616,0.9906626434198395
2015-09-28,-1,-0.002851589056838558,-0.002488522909617462,-0.007920052610565212,0.01114707583946464,0.98964189352933
2015-09-30,-1,-0.0025133407334932147,-0.0022145335383025565,-0.003222789093437947,0.01114707583946464,0.9899980419385346
2015-10-02,-1,-0.0019322778301853658,-0.0016858857835686473,-0.008076685834449466,0.008321492146192197,0.990908287368068
2015-10-06,-1,-0.0025075384669398315,-0.0022028839855184057,-0.0075491352508238385,0.01114707583946464,0.9909808612903009
2015-10-08,-1,-0.0009285252750710308,-0.0008451948030409071,-0.0075491352508238385,0.004913873074411885,0.9926471052198679
2015-10-12,-1,-0.000909831260021137,-0.0008172349557839435,-0.0075491352508238385,0.003968905560633419,0.9925643932803485
2015-10-14,-1,-0.0017020667286916265,-0.001507686346851186,-0.004974735725178512,0.003968905560633419,0.993229445533958
2015-10-16,-1,-0.001240335757407672,-0.001088340435160731,-0.006240278183160158,0.0012805799755857268,0.9931208177691074
2015-10-20,-1,-0.001089233304857848,-0.0009599683739810712,-0.004974735725178512,0.0035364610969653362,0.9929385530007565
2015-10-22,-1,-0.0013113093034044516,-0.0011736017844625121,-0.004974735725178512,0.0062396231163474505,0.9919365925761127
2015-10-26,-1,-0.00012464540311768382,-0.00010124566111340879,-0.004974735725178512,0.0057864449792754714,0.9927785476214854
2015-10-28,1,3.114922103269026e-05,6.974307151655442e-05,-0.004974735725178512,0.005591230433296663,0.9928609596958
2015-10-30,0,-3.126132565435717e-05,4.410369625053106e-05,-0.004422070755852503,0.0057864449792754714,0.9924329256087596
2015-11-03,1,0.0002717143913582989,0.0003716513464996123,-0.004422070755852503,0.005591230433296663,0.9930066554641142
2015-11-05,1,0.00019232149297014386,0.00027894253006394994,-0.004974735725178512,0.0057864449792754714,0.9912633388097192
2015-11-09,1,0.0003013954925040871,0.0004184035235507075,-0.006512587072690552,0.0057864449792754714,0.9911108684381301
2015-11-11,1,0.0001227805699906503,0.00022811533791004004,-0.009756653361588968,0.00719364943621397,0.9901187906445573
2015-11-13,-1,-0.0006816672764722731,-0.0006676318643264849,-0.009378501506783956,0.00719364943621397,0.9901760078718963
2015-11-17,1,0.0001480432897566914,0.00026168320030745283,-0.009378501506783956,0.007172915762810074,0.9902527393994931
2015-11-19,1,0.00020369335389109207,0.0003319727010152785,-0.009378501506783956,0.005591230433296663,0.9906619408486803
2015-11-23,-1,-6.161855062533353e-05,-2.0207367826073343e-05,-0.009378501506783956,0.010942206351733217,0.9896809339092294
2015-11-25,1,0.00047731447592422516,0.0006228267504572035,-0.009378501506783956,0.010942206351733217,0.9899043236072085
2015-11-30,1,0.00021226587578923985,0.0002977435202748573,-0.007663374576595366,0.007877109999335198,0.9904291777269596
2015-12-02,1,0.0006536600037724306,0.00085024958926291,-0.008885689105889112,0.007877109999335198,0.9900093894591228
2015-12-04,1,0.0006131352834960169,0.0008044338677837545,-0.008885689105889112,0.006651363767255839,0.9909851466862901
2015-12-08,1,0.0006143037791187017,0.0008216523130036644,-0.010564435307627488,0.006651363767255839,0.9899363406744363
2015-12-10,1,0.0002870602336550669,0.0004330854167765873,-0.010356980542298486,0.005271754078594576,0.9908470498176734
2015-12-14,-1,-0.00010741286072378839,-5.174223318104828e-07,-0.010356980542298486,0.005271754078594576,0.9901736178610194
2015-12-16,1,0.00010126118296493975,0.0001866662429377127,-0.01286313127286527,0.005271754078594576,0.9896816162146181
2015-12-18,1,0.00014514598470427668,0.0002863403290924621,-0.010356980542298486,0.006651363767255839,0.9902618490579888
2015-12-22,1,0.0009896178668966633,0.0012482223889529777,-0.011241249537446374,0.005914674390739128,0.9898331282922125
2015-12-24,1,0.0009841377493558093,0.0012211132906702327,-0.011241249537446374,0.006651363767255839,0.9889452046936946
2015-12-29,1,0.0009688816362977288,0.0011554474551354514,-0.014529199708640908,0.00136908997225283,0.9878593387058698
2015-12-31,1,0.0012521000395390135,0.0015587730093424663,-0.014529199708640908,0.006107662014878021,0.9869527149393196
2016-01-05,1,0.00034701358048666554,0.0004841415103439456,-0.011896955343461786,0.007535335497809712,0.987607815722461
2016-01-07,-1,-0.0005389731574778992,-0.0005239033495860377,-0.011896955343461786,0.007535335497809712,0.9884756475075883
2016-01-11,-1,-0.0005524253565899188,-0.0005104927453255187,-0.011896955343461786,0.007535335497809712,0.9885075207743514
2016-01-13,-1,-0.0021684308618709477,-0.0019605221022197896,-0.009462815605649856,0.007535335497809712,0.9898516703387468
2016-01-15,-1,-0.0037159066026553472,-0.003243142236058213,-0.00846683177034535,0.007726471343472405,0.9900720613432701
2016-01-20,-1,-0.002747450803547288,-0.002425145904283207,-0.00846683177034535,0.008587826503977894,0.989615262945231
2016-01-22,-1,-0.00223258926304262,-0.001996030714699024,-0.0068618073668721205,0.00912963876175477,0.9897758054468301
2016-01-26,-1,-0.002726269617160007,-0.00237358678578697,-0.006401074654873946,0.008301701337575204,0.9905559713824962
2016-01-28,-1,-0.0033083517852554936,-0.002930026191298251,-0.005407348226862799,0.009722382972909399,0.9890695058813401
2016-02-01,-1,-0.0021704031112613894,-0.0019369811464803953,-0.0054713730362499205,0.009722382972909399,0.9889378667888923
2016-02-03,-1,-0.001861973386246165,-0.0016709267470642734,-0.0054713730362499205,0.009722382972909399,0.989151414019291
2016-02-05,-1,-0.0023975638238820625,-0.00213681848975173,-0.0032914750276814473,0.009722382972909399,0.9895975280629692
2016-02-09,-1,-0.0022623974142045224,-0.0020410297740289687,-0.0032914750276814473,0.009722382972909399,0.9887746976563376
2016-02-11,-1,-0.002120148954397062,-0.001911558975069926,-0.0032914750276814473,0.010714945384805746,0.9882381532215502
2016-02-16,-1,-0.0015699653668386068,-0.0014151593395635076,-0.0054713730362499205,0.010449314096752302,0.9882498176571278
2016-02-18,-1,-0.0010840883397864793,-0.000975313785178244,-0.006766582830309082,0.009041094999070288,0.9888605744133906
2016-02-22,-1,-0.000675221045539448,-0.00058384367623994,-0.006766582830309082,0.007024044802366213,0.9889886666441596
2016-02-24,-1,-0.0010695703835989698,-0.0009332850532851992,-0.008762251674454876,0.007092802338700974,0.9885751422674506
2016-02-26,1,0.0009019978383639632,0.0010490878221089996,-0.008762251674454876,0.003538976250004964,0.9908061424130751
2016-03-01,1,0.0008283509982441893,0.0009260339128712883,-0.005447648036719304,0.003538976250004964,0.9915846453475801
2016-03-03,1,0.0014951575785477323,0.0017409607829922055,-0.005447648036719304,0.003561895428783218,0.9910075148964881
2016-03-07,1,0.001499563750315261,0.0017540118713493037,-0.011476944247160632,0.003561895428783218,0.9895723860698333
2016-03-09,1,0.00041959000631369757,0.0004901603519973369,-0.011476944247160632,0.009073547330472123,0.9882706892705061
2016-03-11,1,0.0011853656977300771,0.0013909029334691673,-0.011476944247160632,0.004428485723071593,0.9891313088368431
2016-03-15,1,0.0006494610439930045,0.0007897272005390513,-0.008474502514668926,0.009361666314300313,0.9892249958390353
2016-03-17,-1,-0.00018998385752912327,-0.00018537623521545072,-0.001185082263036962,0.009361666314300313,0.9897571567184178
2016-03-21,1,0.0009071297479807756,0.0011113015236262035,-0.00449066514455632,0.004947274869159341,0.9906873990502382
2016-03-23,1,0.0008543771388704677,0.001064743147850336,-0.0011554655592580535,0.003995647330060376,0.9914075899668188
2016-03-28,1,0.000728013735690782,0.0008927795719408253,-0.0035306186372992044,0.006035951003675151,0.9907568307364819
2016-03-30,1,0.001522851571406358,0.0018180794437640977,-0.0008631904910158519,0.004766968546042498,0.9919298206755631
2016-04-01,1,0.0021742985704132677,0.002551672808194288,-0.0035306186372992044,0.004545166117220898,0.992322719622371
2016-04-05,1,0.001160038187531865,0.0013998894124455726,-0.0009144380443266579,0.004766968546042498,0.9928771250578621
2016-04-07,1,0.0012455618972093989,0.001477398406430438,-0.0009144380443266579,0.004766968546042498,0.9948491264861918
2016-04-11,1,0.0009618256054294326,0.0011117390586995153,-0.0035306186372992044,0.004766968546042498,0.9942764798316222
2016-04-13,1,0.001925269734581029,0.0022377992325607727,-0.004780570839288302,0.004766968546042498,0.9947019753664559
2016-04-15,1,0.002004685682056621,0.002323750958768356,-0.004780570839288302,0.005382436605843987,0.9944188222038891
2016-04-19,1,0.002030044779573279,0.0023601381469019675,-0.005913903924185143,0.006408605415289082,0.9937229092731378
2016-04-21,1,0.0022625408720478883,0.0026366021346035644,-0.005913903924185143,0.006408605415289082,0.9934333953621998
2016-04-25,1,0.002424900033599555,0.0028154748632209007,-0.005913903924185143,0.006408605415289082,0.993409595125875
2016-04-27,1,0.0026582048752930424,0.0030751406499553453,-0.005913903924185143,0.007752352302633065,0.992239048298842
2016-04-29,1,0.002288170664598032,0.002647824860049862,-0.004618495835738706,0.007752352302633065,0.9925638904182565
2016-05-03,1,0.0024241540019156746,0.0027889001179207803,-0.0021388932794566846,0.006479298895304771,0.9934918363716984
2016-05-05,1,0.0023121957325305943,0.0026463925637317033,-0.0021388932794566846,0.006085883728157515,0.9936455317925411
2016-05-09,1,0.0016437996406784125,0.0018524476780480577,-0.0012759497501094725,0.006085883728157515,0.9942215406794588
2016-05-11,1,0.0019045583113241722,0.002182829238433391,-0.0012759497501094725,0.006032275381781362,0.9942190113569145
2016-05-13,1,0.0018750975701050767,0.0021200332242024096,-0.005133611559952479,0.005553699546942266,0.9932357186725563
2016-05-17,1,0.00207178138153194,0.00238613346524728,-0.005459439772938756,0.0040619757664467305,0.99282597112351
2016-05-19,1,0.00217653295495415,0.0025125455047830714,-0.008024723825799808,0.0042076897306828915,0.9925343501124252
2016-05-23,1,0.0026854700754897526,0.0031117236805976818,-0.008024723825799808,0.0042076897306828915,0.9919779888282122
2016-05-25,1,0.003127821362426512,0.003579942307744841,-0.008024723825799808,0.0034932076104147824,0.9930050314051441
2016-05-27,1,0.0028307204859956106,0.003208246387530618,-0.0094904115261676,0.002623415608074606,0.9913453952995508
2016-06-01,1,0.002380823846775405,0.0026401110568009954,-0.0094904115261676,0.0034932076104147824,0.9912076240555128
2016-06-03,1,0.001944322799269661,0.0021197891998988192,-0.0094904115261676,0.0042076897306828915,0.9904343844710715
2016-06-07,1,0.0014627269830878792,0.0015107612121546563,-0.011156459669770157,0.004352833243886833,0.9897078955891008
2016-06-09,1,0.0009755618134496601,0.001016382411290991,-0.011156459669770157,0.006926177453581705,0.9900668019975785
2016-06-13,1,0.00019821405399852093,0.0003139215277914472,-0.007774376842904661,0.007104597525487095,0.9910936072970596
2016-06-15,-1,-0.0006960383140715186,-0.00047714704693880487,-0.0054780170669856245,0.007104597525487095,0.9915628809902021
2016-06-17,-1,-0.0007429239099231523,-0.0005259108572220882,-0.005363094998966483,0.007104597525487095,0.9916654688920149
2016-06-21,-1,-0.0012837013185661762,-0.0009490002887134444,-0.003210339128627589,0.006382969286711833,0.9923351532203647
2016-06-23,-1,-0.0008032188666779696,-0.0005593011828920875,-0.005363094998966483,0.006382969286711833,0.9921902792851336
2016-06-27,-1,-0.0020670630876734155,-0.0016811418934277451,-0.0029257261170562237,0.007104597525487095,0.9927473564628121
2016-06-29,-1,-0.0019361826460051511,-0.0015411950274262093,-0.0030266958974807016,0.006382969286711833,0.9935890246827129
2016-07-01,-1,-0.0012871180981709827,-0.000953331512451567,-0.0030266958974807016,0.006382969286711833,0.9937198928451535
2016-07-06,-1,-0.0015149040930979602,-0.0011512436674680398,-0.0030266958974807016,0.005412457008745587,0.9938390282836457
2016-07-08,-1,-0.0011240628173550787,-0.0008077398445398733,-0.0030266958974807016,0.005817678860899199,0.9909357976093179
2016-07-12,-1,-0.0005787522002200374,-0.0003534127266994236,-0.003907977471020954,0.005271397937359362,0.990650405107375
2016-07-14,-1,-0.0001473897864050718,-1.0472797345361534e-05,-0.0030266958974807016,0.003929646602434185,0.9909357663803723
2016-07-18,-1,-0.0006162564393558728,-0.00039970952228101026,-0.0028654913835561213,0.002907194808245306,0.9913283191033866
2016-07-20,1,0.0003695457023944477,0.00038852909650782927,-0.0031397509176758474,0.002637727285307429,0.9912583650645695
2016-07-22,0,-1.681450772054595e-05,3.5201101583205556e-05,-0.0021448090408658998,0.0037554564830660307,0.9916196831843579
2016-07-26,1,0.0006025907742394465,0.0006351809491489909,-0.0026103780647052624,0.002637727285307429,0.9920725839177587
2016-07-28,1,0.0003873781987758214,0.0003904707233263532,-0.002648063071436978,0.003541730781558325,0.9913048218321473
2016-08-01,1,0.0008882981523476331,0.0008961454707245812,-0.002648063071436978,0.0020937456453453238,0.9925349498062179
2016-08-03,1,0.0003549804582896882,0.0003845759595729267,-0.0033531715197658747,0.0020937456453453238,0.9927721213156658
2016-08-05,1,0.002447040164121767,0.0026406061747024636,-0.0033531715197658747,0.0020937456453453238,0.9946748067401072
2016-08-09,1,0.001333603815803326,0.0013380055820586584,-0.002648063071436978,0.003476575430651924,0.9934356343420034
2016-08-11,1,0.0017101435711731302,0.0017889492881755173,-0.0033531715197658747,0.0037983864046457552,0.9922887721802798
2016-08-15,1,0.001371931963282725,0.001383063559083288,-0.005175977057494669,0.00447208232498642,0.9913581209159016
2016-08-17,1,0.0009988715116256812,0.0010309677242507135,-0.0037216183771365575,0.005074837265211452,0.9913365025734022
2016-08-19,1,0.0013521073610048915,0.0013988658524251743,-0.0037216183771365575,0.006658489616710742,0.9911855745542066
2016-08-23,1,0.0015089216552581868,0.0016203143341644538,-0.0027561465895981707,0.006658489616710742,0.9912042489029412
2016-08-25,1,0.0001735650911560658,0.0002990302260857847,-0.00175651092451928,0.0071396454176905185,0.9915062320732903
2016-08-29,1,0.00026218716221415356,0.00036786309796402823,-0.004273860631312915,0.008530104265675837,0.9904469768280387
2016-08-31,-1,-0.00047304621313842235,-0.0002854510948013492,-0.001400157017369382,0.008530104265675837,0.9910313145582239
2016-09-02,1,0.0006273502949487907,0.0006457996182336085,-0.001400157017369382,0.008530104265675837,0.9912662465432217
2016-09-07,1,0.002665555027834006,0.002919907172464061,-0.0022051632447843304,0.0071396454176905185,0.9931758706607334
2016-09-09,1,0.0021068129819951007,0.002279245599105375,-0.0022051632447843304,0.008530104265675837,0.9933202118041936
2016-09-13,1,0.0018372391321332597,0.0019769457521815483,-0.0022051632447843304,0.007367174670867853,0.9934269487092178
2016-09-15,1,0.0023219215230946685,0.002537100872966395,-0.0035529158890375834,0.006938503320649568,0.9934461716181078
2016-09-19,1,0.002596903917337104,0.0028652355675655586,-0.0035529158890375834,0.00634921355494504,0.9936195370108839
2016-09-21,1,0.0024956661121216814,0.002726915464590518,-0.0035529158890375834,0.006159819895863278,0.9937261021144624
2016-09-23,1,0.002742525658120294,0.0030225392634142213,-0.005337099270746699,0.006159819895863278,0.9933531280632737
2016-09-27,1,0.0028384311141193656,0.0031287257282796516,-0.005413781207796209,0.005013691534246807,0.9933243285102221
2016-09-29,1,0.0023798403689813223,0.0025781385674064176,-0.0085845465827587,0.00606170673193458,0.9923239129932604
2016-10-03,1,0.00263231191853108,0.0028572351741154227,-0.0085845465827587,0.005013691534246807,0.9927316617380811
2016-10-05,1,0.0023896899897974406,0.0025953512214500992,-0.0085845465827587,0.00606170673193458,0.9894096238233084
2016-10-07,1,0.0022689560241873435,0.002443845632888336,-0.007244390133818682,0.005013691534246807,0.9899646558227008
2016-10-11,1,0.001782325811130027,0.001889703149976672,-0.00496706239148287,0.00606170673193458,0.9892548533728003
2016-10-13,1,0.00172458378167596,0.0018424464634019296,-0.007382599096726954,0.00606170673193458,0.9887275169523344
2016-10-17,1,0.0022780741161290475,0.0025255915734970847,-0.008803150645008749,0.00727208043562298,0.9872869556721445
2016-10-19,1,0.0026811554244904378,0.0029887731192180453,-0.008803150645008749,0.010474915871910991,0.9861905186816549
2016-10-21,1,0.0026165168281957526,0.0029173778118332383,-0.010452370517300708,0.01122137311294616,0.9857984835502684
2016-10-25,1,0.0017576715765986704,0.0019269841663714967,-0.007575941757447414,0.012236015945560735,0.9860234246189433
2016-10-27,1,0.0011689914728559001,0.0012755327322760469,-0.006981369368596051,0.012236015945560735,0.9873417326320789
2016-10-31,1,0.001110678113062453,0.0011937850069896954,-0.007575941757447414,0.016225095310501998,0.986098104119387
2016-11-02,1,0.002374996240124822,0.0025595655635801007,-0.006981369368596051,0.012236015945560735,0.9896086644547909
2016-11-04,1,0.0014469497479592443,0.0014526829892813086,-0.006981369368596051,0.01573617119662297,0.9891620001012018
2016-11-08,1,0.002896254711343719,0.003068788852932547,-0.007575941757447414,0.010101072587074003,0.9905526350062676
2016-11-10,1,0.00219087246604097,0.0022765364618047867,-0.005609610225701658,0.011321059980590117,0.9909847468801182
2016-11-14,1,0.002070565766602148,0.0021400361787512977,-0.0046286396081562185,0.010101072587074003,0.992094370490839
2016-11-16,1,0.0016396167364935998,0.0017243077246675155,-0.005150340209361169,0.009930808213947786,0.9923203122519691
2016-11-18,1,0.001406315109084774,0.0014973473648355337,-0.004477259827078577,0.008711351212542197,0.9930765588539624
2016-11-22,1,0.0020021165103224106,0.0020370557405706372,-0.002651338997124345,0.008252244359611634,0.9937357986597453
2016-11-25,1,0.001935654397186684,0.00194485349700945,-0.002651338997124345,0.008252244359611634,0.9935999913803673
2016-11-29,1,0.0022518860170179216,0.0023157144676903005,-0.0007969974919426973,0.006659620801684275,0.9948373457734685
2016-12-01,1,0.0022403104360438695,0.0023114078471455977,-0.001451121534545725,0.0058728269691214205,0.9948234856640956
2016-12-05,1,0.0027607041964317937,0.0028933414363063467,-0.001451121534545725,0.0058728269691214205,0.9949369042679845
2016-12-07,1,0.0022137667959884165,0.002258264294131382,-0.0005996150717037178,0.008227144716674704,0.9953314881916646
2016-12-09,1,0.0025487287653799275,0.0026250425264722405,-0.0005996150717037178,0.005567060086217681,0.9956503476058013
2016-12-13,1,0.0023325707471542586,0.002336910222832576,-0.00254756421368116,0.004657466405523962,0.9952197234944478
2016-12-15,1,0.0023938401729243987,0.0024304799929689407,-0.002195722293395361,0.004657466405523962,0.9955295092776697
2016-12-19,1,0.0017065294650213895,0.0017712393357567223,-0.001525818857529815,0.004657466405523962,0.9957632037450411
2016-12-21,1,0.002527708428775461,0.002622383600216429,-0.0026833897384889597,0.00425367094269715,0.9953440963442661
2016-12-23,1,0.0021579070074036473,0.0021685694522388136,-0.0029287241647528986,0.0037521380110598452,0.9948769205237398
2016-12-28,1,0.003179925753454542,0.0034739109986030837,-0.0035590862826980416,0.004405134583832194,0.9943720277099394
2016-12-30,1,0.0024710118679769104,0.0026314456300373795,-0.0029287241647528986,0.005604313999462756,0.9941528231706921
2017-01-04,1,0.0029970079720675444,0.003227326353963018,-0.0029287241647528986,0.004405134583832194,0.994130140135858
2017-01-06,1,0.003171768314942193,0.003411369821043556,-0.0029287241647528986,0.004405134583832194,0.993950594429109
2017-01-10,1,0.0030019697656927047,0.003194846167772387,-0.0035590862826980416,0.002416093017144958,0.9933389873418732
2017-01-12,1,0.0024205592285065614,0.00253409991480061,-0.002827284846794879,0.005345150423733174,0.993845995583673
2017-01-17,1,0.0024240887152527577,0.0025192938073750407,-0.0030876469334111135,0.005345150423733174,0.9935450555618894
2017-01-19,1,0.0017711541241916577,0.0017977211895071515,-0.0030876469334111135,0.005345150423733174,0.9938920831533335
2017-01-23,1,0.0010960785895020764,0.0012096295673110465,-0.0030876469334111135,0.007651172393941327,0.9939511922513057
2017-01-25,1,0.0007230882019920847,0.0009216189958458613,-0.002522108027235013,0.005095584095830389,0.9945705900771794
2017-01-27,1,0.0006425019015968354,0.0008276629589182622,-0.002252334143556705,0.007651172393941327,0.9938980783191491
2017-01-31,1,0.0023659644634651295,0.002502021728119856,-0.002522108027235013,0.007167929595809447,0.9935455532094214
2017-02-02,1,0.001785617211153335,0.001816915274452636,-0.0030176383116509893,0.007651172393941327,0.993257819055524
2017-02-06,1,0.0018524985848875817,0.0018766368943710261,-0.00383150363575833,0.007167929595809447,0.992782069493932
2017-02-08,1,0.001451767169079082,0.001459910042751189,-0.0030176383116509893,0.007167929595809447,0.9932624641449603
2017-02-10,1,0.0015593572540073181,0.0015688586996801313,-0.0023840531597248767,0.007167929595809447,0.9935009629423469
2017-02-14,1,0.001741843597062505,0.0017794300065741412,-0.0020583160636475036,0.007518392267712781,0.9921544207888611
2017-02-16,1,0.0017142821414731588,0.0017437803150959737,-0.003899124349982448,0.007518392267712781,0.9896726866495079
2017-02-21,1,0.001681249832337841,0.0017111016580781554,-0.0039937693687848415,0.007284715797483686,0.9897707243723061
2017-02-23,1,0.0014105677713085307,0.0014281941333659652,-0.0039937693687848415,0.009240696977588404,0.9889663560131602
2017-02-27,1,0.0024013594795431947,0.0025286833050468913,-0.004541430239789976,0.007284715797483686,0.9899266269229056
2017-03-01,1,0.0018866554735390952,0.0019211959455972857,-0.004541430239789976,0.006376285335867064,0.9903524393356812
2017-03-03,1,0.0021349749861392948,0.0022029316033641676,-0.004541430239789976,0.004113857871783638,0.9909981914778836
2017-03-07,1,0.001189716029001512,0.0012681820347807508,-0.0025666067833932547,0.006376285335867064,0.9913733613436867
2017-03-09,1,0.0008399612906164152,0.0009767504062332601,-0.004541430239789976,0.00779514320875456,0.9906489000980919
2017-03-13,1,0.0010349757413181055,0.0011526570651159901,-0.004541430239789976,0.00768832360439902,0.9906143462893114
2017-03-15,1,0.0030509392122503452,0.0031974438725221187,-0.004541430239789976,0.004113857871783638,0.9923977003786131
2017-03-17,1,0.0007059794807122047,0.000864282080335778,-0.001246988766314683,0.005687129089262196,0.9952828538473384
2017-03-21,-1,-0.0003624897285137413,-3.7105073877826875e-05,0.00020309407326715652,0.006881646654352341,0.9939056459246475
2017-03-23,0,-0.0001407209829460967,0.00020691726755833805,0.00020309407326715652,0.005872904126573158,0.9948515069341826
2017-03-27,-1,-0.0005181886428571297,-0.0001235791889361527,0.00020309407326715652,0.006881646654352341,0.9944318318744322
2017-03-29,1,0.000186914437588419,0.0004146654417538189,0.0005941242732546626,0.007915783660311362,0.9941323570674998
2017-03-31,0,-5.916651390245275e-05,0.00021848000693612123,0.0015690098159962386,0.008101298494275539,0.9937094343549098
2017-04-04,1,0.001418812092426261,0.0014334422818985289,0.0003455428740467706,0.007832445598748973,0.9945580908591164
2017-04-06,1,0.00057583957648775,0.0007285596528333422,0.0003455428740467706,0.0077501618823870785,0.9945116702995552
2017-04-10,1,0.0005945292940025908,0.0007524442715466351,0.0003455428740467706,0.008101298494275539,0.9936978477224835
2017-04-12,1,0.0008482537147295817,0.0009481255782637292,-0.0007357016538887905,0.008101298494275539,0.9933617216067083
2017-04-17,1,0.0007190120628561302,0.000854615650016611,-0.0013601228586699512,0.008244055310705956,0.9930459799810241
2017-04-19,1,0.0019081899022769745,0.0019166645632087938,-0.0017918804371408813,0.008065546038189954,0.9936275442594492
2017-04-21,1,0.0020508639611666953,0.002083713811667571,-0.0028201468235738818,0.008244055310705956,0.9927790201770821
2017-04-25,1,0.0022937100043496166,0.002366765749487566,-0.0028201468235738818,0.008065546038189954,0.9931198553135033
2017-04-27,1,0.002916761582873847,0.003065839660236451,-0.0028201468235738818,0.005276752826191866,0.99318381487772
2017-05-01,1,0.0033329514387555065,0.003577570417596705,-0.0028201468235738818,0.0037842100998665045,0.9930958323106257
2017-05-03,1,0.0030052891676164086,0.0031794453798720057,-0.002168824656602606,0.0072647905357526524,0.9930772152970571
2017-05-05,1,0.002738641927964768,0.002901954248966342,-0.002168824656602606,0.008039589673578016,0.9929736661546548
2017-05-09,1,0.003588418513290604,0.0038729458647079546,-0.00297968089366552,0.008039589673578016,0.993362217322176
2017-05-11,1,0.0029972028081259256,0.003196760385871419,-0.00297968089366552,0.008039589673578016,0.993549599436532
2017-05-15,1,0.002832649132205522,0.0029843542109637628,-0.0038801949554316487,0.0072647905357526524,0.9926781500882366
2017-05-17,1,0.0023552752909309165,0.002455911036749155,-0.0038801949554316487,0.0072647905357526524,0.9930047577456895
2017-05-19,1,0.002251197161540534,0.0023504137566747996,-0.0022996094457583137,0.0072647905357526524,0.9930872046290945
2017-05-23,1,0.002047385969530597,0.0021122596764283374,-0.0038801949554316487,0.008671402418346448,0.9924512940155524
2017-05-25,1,0.002049237046791811,0.0020903853789674635,-0.005564415871510856,0.0072647905357526524,0.99209185151592
2017-05-30,1,0.0022335118175909837,0.002328540861069816,-0.006659134451224437,0.0072647905357526524,0.9911634267532164
2017-06-01,1,0.0025627548654342906,0.002738855373824497,-0.008647552617261661,0.0057281624829652695,0.9892374390342895
2017-06-05,1,0.002817979413732258,0.0030324623610564825,-0.008647552617261661,0.005442108006251076,0.9896658751423244
2017-06-07,1,0.002575626760016136,0.002726561478210612,-0.009289457904913104,0.005442108006251076,0.9882264458299561
2017-06-09,1,0.002296500457276302,0.002419428771257434,-0.010504898543974676,0.009920736779237552,0.9873591037798877
2017-06-13,1,0.001319571155887384,0.001337614100360096,-0.009289457904913104,0.009920736779237552,0.9886993251404542
2017-06-15,1,0.0004753942843051511,0.0006132733052420533,-0.0070171618878034445,0.01207322344034024,0.988303803902661
2017-06-19,1,0.0012687442108157499,0.0013068148407595083,-0.0070171618878034445,0.009920736779237552,0.9888635605554885
2017-06-21,1,0.0011453737003194568,0.0012126597218237243,-0.009348849277230748,0.009837703154409736,0.9887428472691753
2017-06-23,1,0.0007289775600523474,0.0008152789614561571,-0.009269909389364115,0.011764810445814088,0.9883783607158781
2017-06-27,-1,-0.00032955828913879405,-0.00010451504596774232,-0.0031946755831097646,0.015078061482247294,0.9883474818271875
2017-06-29,1,0.0008275819091959167,0.0009031334793382223,-0.0052908816554817825,0.011681221849271384,0.990413633529164
2017-07-03,1,0.0008680931753996117,0.0009665618727033681,-0.0052908816554817825,0.011681221849271384,0.9904252945586138
2017-07-06,1,0.00047611611474737366,0.000616704192522604,-0.0036032438742900933,0.011681221849271384,0.9917727790283529
2017-07-10,1,0.0002567405069262939,0.00033473887115632525,-0.0052908816554817825,0.009264756066320694,0.9893478926701785
2017-07-12,1,0.00028311170766330573,0.0003635790495165414,-0.009183531274411601,0.009264756066320694,0.9885177470431897
2017-07-14,1,0.0006229611809459269,0.0006679056039641951,-0.009362829541717394,0.007120446857739187,0.9884910610776494
2017-07-18,1,0.0006892397372180473,0.0007311161108363053,-0.010355433505052218,0.009264756066320694,0.9871207991706491
2017-07-20,1,0.0008978978654191979,0.0009066486145885428,-0.013277242670163695,0.005311500652670323,0.986838241608904
2017-07-24,1,0.000873052824787491,0.0008796264938966623,-0.013277242670163695,0.0038429244204298734,0.9879405702400439
2017-07-26,1,0.0012775030807223372,0.001325442198425684,-0.013277242670163695,0.0038429244204298734,0.9861094917665478
2017-07-28,1,0.0007045028222751565,0.0007488976671510535,-0.013277242670163695,0.0038429244204298734,0.9863722026345163
2017-08-01,1,0.0007091538652441018,0.0007563136483097272,-0.013277242670163695,0.0038429244204298734,0.9866676973740189
2017-08-03,1,0.001161020803371347,0.001174733091869703,-0.013277242670163695,0.003635678291294936,0.9870970077290524
2017-08-07,-1,-0.00010702040795423887,-3.316046624538482e-05,-0.011954068813200047,0.004350268449629215,0.9904070326846468
2017-08-09,-1,-0.0012840556910772,-0.001023707304296967,-0.007230379317314893,0.004350268449629215,0.9910506461300259
2017-08-11,-1,-0.0018379938391602606,-0.0014968667697648661,-0.00549461786703442,0.004999363293764776,0.9911261039418424
2017-08-15,-1,-0.001523908787132894,-0.001244172181065319,-0.004164689925248182,0.004999363293764776,0.9922160851907748
2017-08-17,-1,-0.0020924799924986713,-0.0017373812192036874,-0.003533753063021998,0.006952449730042273,0.9914674141149622
2017-08-21,-1,-0.002264283642775016,-0.0018798938529741166,-0.003533753063021998,0.008314669104494802,0.9908636374139439
2017-08-23,-1,-0.00167666544805897,-0.001362662200702059,-0.003533753063021998,0.008314669104494802,0.9924278526629782
2017-08-25,-1,-0.0017761102144545418,-0.0014624458329549038,-0.004240710596068656,0.008314669104494802,0.9916422878409052
2017-08-29,-1,-0.001820660423970243,-0.001493815117233883,-0.006684931560309744,0.008314669104494802,0.9911833286548898
2017-08-31,-1,-0.0016747140208812057,-0.0013704792352821427,-0.009276713096683143,0.008314669104494802,0.9911945489503206
