JNU-Tangyin/eata/results/Batch4_SP500/Batch4_SP500-TJX.csv
Date,Action,Predicted_Q25,Predicted_Q75,Actual_Q25,Actual_Q75,RL_Reward
2010-12-14,0,0.0,7.384154706583572e-07,-0.00583774074645689,0.0036939935457016965,0.9916753472615776
2010-12-16,0,0.0,0.0,-0.00583774074645689,0.004856175358679308,0.9914634470189495
2010-12-20,-1,-0.00018286036378516748,-0.00012402133673979668,-0.004178328954216706,0.004856175358679308,0.991538486494115
2010-12-22,0,0.0,0.0,-0.004178328954216706,0.004856175358679308,0.9915672043143443
2010-12-27,0,0.0,0.0,-0.0024625327927297203,0.00618675698014641,0.9905229378912213
2010-12-29,0,0.0,0.0,-0.0024625327927297203,0.00618675698014641,0.9908152851223597
2010-12-31,0,0.0,0.0,-0.005614244991679474,0.00618675698014641,0.9900609139647849
2011-01-04,0,0.0,0.0,-0.0028268454624132285,0.007552956478802058,0.9895619399869553
2011-01-06,1,1.3595717622919782e-05,0.00015094401606795819,-7.463734438050904e-05,0.007552956478802058,0.9905168472311334
2011-01-10,0,0.0,0.0,0.0005662296362437118,0.007552956478802058,0.9905005222225429
2011-01-12,0,0.0,0.0,-0.0013680831904860989,0.01031578788613313,0.9897655043727449
2011-01-14,0,0.0,0.0,-0.0013680831904860989,0.011735978880203413,0.9886274414132719
2011-01-19,0,-0.00014953170981768483,9.072261986559993e-05,-0.005310248627121785,0.007982963204695853,0.9891802229277101
2011-01-21,0,0.0,0.0,-0.005310248627121785,0.011793279602392322,0.9885069908782486
2011-01-25,1,0.000913021294849329,0.0009693149424829634,-0.007748933002586316,0.005779695520007833,0.9886676726443705
2011-01-27,1,0.0011482666557148771,0.0011529544242629105,-0.007748933002586316,0.011793279602392322,0.9872638499973075
2011-01-31,0,-0.0001098024712315903,5.445891786664696e-05,-0.007676316594213447,0.011793279602392322,0.9877840155709754
2011-02-02,0,0.0,0.0,-0.00555690307842282,0.013368409830933962,0.987803666789561
2011-02-04,0,0.0,0.0,-0.007676316594213447,0.010073231974952135,0.9888956738479407
2011-02-08,1,0.002335099115599017,0.0025069257556739294,-0.007676316594213447,0.010073231974952135,0.9887074289076421
2011-02-10,0,0.0,0.0,-0.007097433903360806,0.006876302164870663,0.9894166212867409
2011-02-14,0,0.0,0.0,-0.007097433903360806,0.004405339991079431,0.9907546063086317
2011-02-16,1,0.0018324285462228505,0.002042522417565757,-0.007350391114245929,0.004405339991079431,0.9903677016711132
2011-02-18,0,0.0,0.0,-0.007350391114245929,0.004405339991079431,0.9910120923217705
2011-02-23,0,0.0,0.0,-0.007259314690350064,0.006876302164870663,0.9911718176240041
2011-02-25,1,0.0013346319394294498,0.0014585526202810447,-0.007259314690350064,0.006876302164870663,0.9916860732415196
2011-03-01,1,0.0009375218453341966,0.0010150656195753525,-0.007259314690350064,0.006876302164870663,0.9913046597479579
2011-03-03,1,0.0016248560941773658,0.001788310360957223,-0.0073493149557704125,0.005631090778844621,0.9914993598783169
2011-03-07,1,0.000559007832748899,0.0005884094587516756,-0.006353257783516232,0.005631090778844621,0.9928673082670315
2011-03-09,1,0.0009428668010455038,0.0010026651959535392,-0.006353257783516232,0.011616459093290617,0.9912330062362082
2011-03-11,1,0.001197315079970891,0.001313761641869415,-0.007931006804966955,0.011616459093290617,0.9907419634515016
2011-03-15,0,0.0,0.0,-0.007444288285523662,0.011616459093290617,0.9910821677222248
2011-03-17,1,0.00010284740643920608,0.00013549869594227552,-0.0052654931387169,0.011616459093290617,0.9913533845742186
2011-03-21,1,0.0008929078290419933,0.0010008153803420386,-0.0052654931387169,0.008614022528897754,0.9915455466429752
2011-03-23,1,0.001082036750724333,0.001208844076339585,-0.003689997933458209,0.008328137289354968,0.9922188826456178
2011-03-25,1,0.0008376626379970677,0.0009131478390652354,-0.003058269190895349,0.006298847840770261,0.992865385575246
2011-03-29,1,0.0009940759642392892,0.0011222649069685341,-0.001074390629296157,0.008328137289354968,0.9936218896555172
2011-03-31,1,0.0008665686020194956,0.0009729257445035519,-0.0009057680390165673,0.007786487077585406,0.9940310044778294
2011-04-04,1,0.0004748970881137469,0.00047979251512955364,-0.0019120135282528295,0.007786487077585406,0.9937056764224693
2011-04-06,1,0.0015013948750471112,0.0016669361654685253,-0.0019120135282528295,0.005712411406351699,0.9957965063073005
2011-04-08,1,0.0005937564098246938,0.0006240961529105621,-0.0009057680390165673,0.006298847840770261,0.9953905588140661
2011-04-12,1,0.0010337450615872093,0.0011238394696548339,-0.0019098934751635229,0.006115799035952205,0.9955665426190804
2011-04-14,1,0.001056256990644429,0.0011581920545572365,-0.0018990888979275923,0.007237340663131236,0.9946350704573356
2011-04-18,1,0.0012998385038421368,0.0014158994446496589,-0.0020570539753765075,0.007237340663131236,0.9927269680667892
2011-04-20,1,0.0014024911040012259,0.0015488955744283538,-0.0027386835760026427,0.007237340663131236,0.9921451285387519
2011-04-25,1,0.0013086372301408832,0.0014314040992351109,-0.0027386835760026427,0.008138284400538749,0.9918498370073747
2011-04-27,1,0.001323130300004363,0.0013989118383832973,-0.00501871378130997,0.007237340663131236,0.991869698349728
2011-04-29,1,0.0012771220253024595,0.001348558922107683,-0.00501871378130997,0.007306563367510715,0.9911502413404759
2011-05-03,1,0.0009893635455285625,0.0010103348141417379,-0.006450220207715188,0.007306563367510715,0.9901797559866048
2011-05-05,1,0.0013573383208714612,0.0014294018573318926,-0.008594004940358462,0.007306563367510715,0.9891612851417879
2011-05-09,1,0.000850449867055387,0.0008620192960265702,-0.008594004940358462,0.0047214941134323014,0.989365375267331
2011-05-11,1,0.00042686304466452407,0.0005139207391883049,-0.008594004940358462,0.00407687445454084,0.9894143301144445
2011-05-13,1,0.0008515149314713582,0.0008843122643107058,-0.010484698826869344,0.0032678401520090158,0.9895743781971437
2011-05-17,-1,-0.0004089924385178805,-0.00023509862170617248,-0.008594004940358462,0.0032678401520090158,0.9920538868691422
2011-05-19,-1,-0.0004980768408492507,-0.00030724853826297573,-0.006587141589518869,0.0032678401520090158,0.9925696403808011
2011-05-23,1,4.893022312726995e-05,0.00016875655022615684,-0.006587141589518869,0.00407687445454084,0.9921278529738341
2011-05-25,-1,-0.0004898807939311148,-0.00028901229316199983,-0.006587141589518869,0.00407687445454084,0.9924820720555906
2011-05-27,-1,-0.0005362889186294259,-0.000310947857414413,-0.00939396538874376,0.00407687445454084,0.9920890143318218
2011-06-01,-1,-0.0005397153020272275,-0.0003875810722252529,-0.005964397208136232,0.006274230436428377,0.9913748813364054
2011-06-03,-1,-0.0010551938570863804,-0.0008200116558285804,-0.0008986957559891065,0.009259638591323295,0.9909403464683876
2011-06-07,-1,-0.0013385205868764877,-0.0010730243130207089,-5.013784881955917e-05,0.009760506747074968,0.9909725539921099
2011-06-09,-1,-0.0012247343979743248,-0.000982472141759908,0.0005046328263795674,0.010131635118217795,0.9901697356067041
2011-06-13,-1,-0.0014979807339399569,-0.0012411443458669332,0.0009889154649264545,0.010131635118217795,0.9904353499825967
2011-06-15,-1,-0.0013839569246157863,-0.0011421294031151762,0.0009664637531603265,0.010131635118217795,0.9904953579025251
2011-06-17,-1,-0.0006850977414884971,-0.0005672097999659029,0.0005213671688823161,0.010131635118217795,0.9911161570030851
2011-06-21,-1,-0.0003188760787960991,-0.0002308051241801233,-0.0012828066498191913,0.010131635118217795,0.9913778364678071
2011-06-23,-1,-0.0007176448203334626,-0.0005541240774277684,-0.0018262815867202877,0.010131635118217795,0.9909204803730459
2011-06-27,-1,-0.0014489979511648089,-0.0011855406031800705,-0.0018262815867202877,0.010945086628132195,0.9909103487833091
2011-06-29,1,0.00024405563288396802,0.00024474153906980944,-0.0026782445096476593,0.010131635118217795,0.9919343123688416
2011-07-01,1,0.0007665715069531769,0.0008374242491099133,-0.0032568752472245874,0.006710480468246707,0.9925681699205905
2011-07-06,1,0.0009236049110620302,0.0010249822912373153,-0.003480104433549449,0.006710480468246707,0.9911677762235794
2011-07-08,1,0.0011755423483937049,0.0012769477268094864,-0.0056431003133037205,0.006710480468246707,0.9906201378076976
2011-07-12,1,0.0010355056975636363,0.0011199694652276645,-0.011421193151860397,0.007468740159467437,0.9869177281405247
2011-07-14,1,0.0010766493160108764,0.0011934237347030236,-0.016874885426354253,0.008761446820233918,0.9826023469982406
2011-07-18,1,0.0009417837299899521,0.0009911564190455673,-0.016874885426354253,0.010638881207598148,0.9818867689298092
2011-07-20,1,0.0013198518045505398,0.0014587364249188752,-0.016874885426354253,0.010638881207598148,0.9812779094988471
2011-07-22,1,0.000867835578932068,0.000920403196608777,-0.022665232802926157,0.010638881207598148,0.9801551910374365
2011-07-26,1,0.0013198401970521624,0.0014799726042027488,-0.022665232802926157,0.011251149637524535,0.9795640617576066
2011-07-28,1,0.0004635369018534306,0.00048179004943526004,-0.0267844884469774,0.011251149637524535,0.9787974077170933
2011-08-01,1,0.00021504524333938288,0.00023961689650888154,-0.0267844884469774,0.015727498038603724,0.9781383698900838
2011-08-03,1,0.00021131830786363262,0.00022929557742442814,-0.01287581860980368,0.015727498038603724,0.9794696786559492
2011-08-05,-1,-0.00046281803527654046,-0.0003461429177128586,-0.017651243658780548,0.015727498038603724,0.9791193300922908
2011-08-09,1,0.00011526579968247784,0.00019249346655548884,-0.009795510025298531,0.015727498038603724,0.9820309953179879
2011-08-11,1,0.0002519337415489339,0.0002893017536433971,-0.009795510025298531,0.011455971470371754,0.9853007158594356
2011-08-15,-1,-0.00015571187918565302,-8.169143813618285e-05,-0.009795510025298531,0.01092434807259363,0.9855549210259247
2011-08-17,1,9.126467446621611e-05,0.0001398114683230478,-0.009795510025298531,0.014076735874626477,0.9844449104714783
2011-08-19,-1,-0.00045719442382248813,-0.0003399294408322531,-0.004715626817141398,0.01581442358084641,0.9843101166110033
2011-08-23,1,0.000885805618006651,0.0009235095210852714,-0.009795510025298531,0.01531320919825968,0.9843651987766825
2011-08-25,-1,-0.0008708515911967838,-0.0006942005396986543,-0.009795510025298531,0.01581442358084641,0.984642287879839
2011-08-29,1,0.0008672017491884707,0.000951173155932085,-0.009795510025298531,0.016409359876746514,0.98470275913289
2011-08-31,-1,-0.00011907633432867287,-3.811098365390822e-05,-0.014350657959534848,0.016409359876746514,0.9834961320736426
2011-09-02,-1,-0.000661080396248935,-0.0005375013041657316,-0.007122834094785166,0.016409359876746514,0.9841459502327232
2011-09-07,-1,-0.0002964496483794733,-0.00021234809967402411,-0.007122834094785166,0.017304599317545084,0.9830956175967309
2011-09-09,-1,-0.0009570780133540346,-0.0008219713599856884,-0.00646519322851305,0.017304599317545084,0.983411214212501
2011-09-13,-1,-0.00015411961620998205,-0.00011979858347022162,-0.00646519322851305,0.019560677215775545,0.9822792667244649
2011-09-15,1,0.0014041991261832811,0.0015743188482210456,-0.00828109971179306,0.017304599317545084,0.9845418338053432
2011-09-19,1,0.002404628406769857,0.002720785203003769,-0.01078013467631919,0.015611622345192538,0.9851983806746399
2011-09-21,1,0.0010498519326939027,0.0011887805777034215,-0.007204613752813996,0.008699990190035381,0.9870676711589031
2011-09-23,1,0.0017233028922334606,0.001939831135715144,-0.004555695614691942,0.01409625437154069,0.9872997435656287
2011-09-27,1,0.0017355104407557552,0.0019737641079835343,-0.007204613752813996,0.007748013581237287,0.9877739057696119
2011-09-29,1,0.00023605547503580292,0.00025892524793419164,-0.00718945985861929,0.01409625437154069,0.9869222057934746
2011-10-03,-1,-0.0001444365117943116,-0.00011756787305244354,-0.007837527296851464,0.01409625437154069,0.986819413492823
2011-10-05,1,0.0015309816601339575,0.0017451306431773195,-0.007837527296851464,0.008589584451301712,0.9884457947616897
2011-10-07,1,0.00043888039150255043,0.0004396834734178363,-0.007513505240310253,0.01225528257791985,0.9876420118629139
2011-10-11,1,0.0014667050253167775,0.0016034708161741806,-0.007513505240310253,0.008589584451301712,0.9895394992018792
2011-10-13,1,0.0013802990839046666,0.0015417216357741517,-0.008670966970937664,0.01225528257791985,0.987535827498867
2011-10-17,1,0.0008769239323368785,0.0009534128026856889,-0.008670966970937664,0.014102535102932533,0.9863308193267506
2011-10-19,1,0.0012995596598256104,0.0014478751170699349,-0.008670966970937664,0.014102535102932533,0.9862840649286196
2011-10-21,1,0.001681193718517408,0.0018313709022404708,-0.010370522556139227,0.008589584451301712,0.986551502598201
2011-10-25,1,0.0009698800127121905,0.00101687294098832,-0.008670966970937664,0.008589584451301712,0.9868692223643913
2011-10-27,1,0.001656913211283259,0.0017749167578379396,-0.007754541705983072,0.006447321927039321,0.9886830811837848
2011-10-31,1,0.00037073535801245694,0.00041673933422199644,-0.007305798958078622,0.01188102705589611,0.9889146713626691
2011-11-02,1,0.0006424956663236051,0.0006840155259479337,-0.007305798958078622,0.014698142822821184,0.9883198205604066
2011-11-04,1,0.0007487004739819519,0.000777802019582607,-0.0064953733882794585,0.014991779393908866,0.9883843376523829
2011-11-08,1,0.0009694874206696738,0.0009705131487600398,-0.007266346339814449,0.014991779393908866,0.9882582088117657
2011-11-10,1,0.0009715662571641384,0.0010015196037606285,-0.007266346339814449,0.01402180586289462,0.9896736842060594
2011-11-14,1,0.0007753202470723743,0.0007753831557640447,-0.0064953733882794585,0.012375894690799907,0.9907128566458137
2011-11-16,1,0.00030936173986799404,0.000396430042565106,-0.0059757412601270515,0.012375894690799907,0.9910023583684507
2011-11-18,1,0.0005243587946636072,0.0005460109399375906,-0.0059757412601270515,0.012375894690799907,0.9916065716088045
2011-11-22,1,0.0006093529204292985,0.0006267535355361601,-0.005739599779517337,0.01402180586289462,0.9904888571229553
2011-11-25,1,0.00040400978036879377,0.00041155988610054145,-0.005621611169876778,0.014868040642820152,0.9895243258699805
2011-11-29,1,0.0014611532124915955,0.0016236962239938833,-0.005739599779517337,0.01402180586289462,0.9907044045566272
2011-12-01,1,0.0020735177657963447,0.002308442587281308,-0.006262269389966301,0.009159532714373708,0.990973148865188
2011-12-05,1,0.0020395696551052805,0.0022583846667459154,-0.007614302846713957,0.009071462279004017,0.9909661344247729
2011-12-07,1,0.0017417046198970358,0.0019223186751030604,-0.0064773087398916716,0.011389298359552836,0.9901429080498154
2011-12-09,1,0.002003634022499746,0.002227108798790028,-0.0064773087398916716,0.009071462279004017,0.9905060435955115
2011-12-13,1,0.001521026971311694,0.0016893724602813078,-0.006263539080356756,0.009071462279004017,0.990930419108803
2011-12-15,1,0.0014594196389103985,0.0016233047800352013,-0.004696874072009458,0.011389298359552836,0.9905584034424927
2011-12-19,1,0.0008462715490102769,0.0009048728127834414,-0.0027146850304752427,0.011925096990670857,0.9906309414061197
2011-12-21,1,0.0014418685066435108,0.0015452521047585365,-0.003902178543021252,0.011389298359552836,0.9917267623638623
2011-12-23,1,0.002012566123022849,0.002183024028272456,-0.003902178543021252,0.010148075992507805,0.9920269095866681
2011-12-28,1,0.0011945285503559347,0.0012208072411994384,-0.003902178543021252,0.010148075992507805,0.9920568460671741
2011-12-30,1,0.001474267012667939,0.0015890694618383493,-0.0027146850304752427,0.01027420954904296,0.9926269743269809
2012-01-04,1,0.00181849804527498,0.001958413864403231,-0.002459684580811942,0.010103702953846366,0.9935367717970772
2012-01-06,1,0.0017040859911138793,0.0017877764373502567,-0.0027443571148593527,0.010103702953846366,0.9939330744983214
2012-01-10,1,0.0012400846657881384,0.001272759579445773,-0.0027443571148593527,0.010103702953846366,0.9941892048414929
2012-01-12,1,0.0008682885884195167,0.0009120752090456272,-0.0031371771940313506,0.010103702953846366,0.9939839022978705
2012-01-17,1,0.002017126160161512,0.0022088235717010376,-0.0031371771940313506,0.008634269105836064,0.9946920113360839
2012-01-19,1,0.0010717840787245166,0.0011122355836456575,-0.005111059382468638,0.006225839264377337,0.9943487272836565
2012-01-23,1,0.0015264438520298021,0.0016111821243170333,-0.003167597795962743,0.010043425066294125,0.993503901931119
2012-01-25,1,0.0017584580443869503,0.001833108573820896,-0.003217108181830224,0.008628191316267,0.9931046125630147
2012-01-27,1,0.0006141487704187784,0.0007064818671402114,-0.0025058601271518792,0.010085469585139176,0.992424108170711
2012-01-31,1,0.0011445768023577202,0.0011728729015127832,-0.003217108181830224,0.008628191316267,0.9922767937544049
2012-02-02,1,6.201834300940555e-05,0.00026704605908087046,-0.003217108181830224,0.01080580022969561,0.991642798131515
2012-02-06,1,0.0005743745205780484,0.0006850657038655762,-0.003217108181830224,0.008981822236298021,0.9915131518386278
2012-02-08,1,0.0012305783843108318,0.0012891695451988827,-0.0008410195255061908,0.01080580022969561,0.9912061654362271
2012-02-10,1,0.0019195083714289248,0.002100764022208591,-0.0005300837601941376,0.010829404170359089,0.9913886545267614
2012-02-14,1,0.0011170607946651995,0.0011244060786432513,-0.0007219269166069307,0.010829404170359089,0.9910861045390229
2012-02-16,1,0.001158039230539858,0.001208252384944149,-0.0007219269166069307,0.010829404170359089,0.9915402803829024
2012-02-21,1,0.0014383636597121478,0.0015158562709217042,-0.0007219269166069307,0.009800723724606782,0.9922724527295544
2012-02-23,1,0.001184902404212871,0.0012067894834983787,-0.0003335169151393987,0.009800723724606782,0.9928877936674672
2012-02-27,1,0.0012807124821364864,0.0012933091300626977,-0.0007219269166069307,0.009800723724606782,0.9926187778739883
2012-02-29,1,0.0013152219793785111,0.0013699294593769657,-0.0007102307708697574,0.009800723724606782,0.9931325619242309
2012-03-02,1,0.0013181724762747384,0.0013369497417837768,-0.0012765390145596275,0.009800723724606782,0.9928316861748249
2012-03-06,1,0.001377736129879877,0.001455437542195875,-0.0012765390145596275,0.009800723724606782,0.9935541059698133
2012-03-08,1,0.001822271366721704,0.001939008218318674,-0.002561604937147871,0.009800723724606782,0.9931970236170364
2012-03-12,1,0.0013571525679572905,0.001398820150930694,-0.0065372565998897125,0.006186715152294071,0.9915911629477737
2012-03-14,1,0.0014133795255325582,0.0014744070939007295,-0.0065372565998897125,0.010142880848438411,0.9904734521006582
2012-03-16,1,0.001513166118461729,0.0016317115220801672,-0.0063639410340389484,0.010142880848438411,0.9906221428960463
2012-03-20,1,0.0016464482850528873,0.0017488672131716668,-0.0063639410340389484,0.01170147848081,0.9898026101978779
2012-03-22,1,0.002356155383122059,0.0025755353789936814,-0.0065372565998897125,0.010092232516238175,0.9897663125723075
2012-03-26,1,0.001698594773519314,0.0017796701557603917,-0.0065372565998897125,0.005733693484318063,0.9899382006121068
2012-03-28,1,0.0019496822094530236,0.0020806693434046843,-0.0065372565998897125,0.012705932747422837,0.9885492399348764
2012-03-30,1,0.002198235776192065,0.002355417525144476,-0.006628283845818558,0.014137013777342142,0.9877995961031943
2012-04-03,1,0.0020203475750353713,0.0021552080837907175,-0.00647107292353584,0.014137013777342142,0.9875712799652202
2012-04-05,1,0.002286771075753337,0.0024256441174320747,-0.006964319254157115,0.011896983227867343,0.9878955888744766
2012-04-10,1,0.0009752270793632512,0.0010112723473366997,-0.005112707218090493,0.011896983227867343,0.9893742879512291
2012-04-12,1,0.0017028665097301799,0.001749636323095324,-0.005112707218090493,0.01171121923647131,0.9899228635061986
2012-04-16,1,0.0015561923334221084,0.0015672168502020925,-0.008486622165260657,0.01171121923647131,0.9876961976993786
2012-04-18,1,0.0019731935999597297,0.002011815637508609,-0.008486622165260657,0.01171121923647131,0.9855583557127836
2012-04-20,1,0.001526624487787291,0.0015885893402579755,-0.014786000893896943,0.01171121923647131,0.9833744838336338
2012-04-24,1,0.0012910713336374436,0.0013521740911105443,-0.013872714333442206,0.01171121923647131,0.983998253457787
2012-04-26,1,0.002692959321205708,0.0028551321376997355,-0.013872714333442206,0.007092807583970039,0.9852974741973507
2012-04-30,1,0.0022973171439399963,0.002417194898651941,-0.007722537044057195,0.007092807583970039,0.9861063413744044
2012-05-02,1,0.002667814438032372,0.00281435169237252,-0.00809817142843144,0.006148114186057471,0.9850906148437681
2012-05-04,1,0.0018057721113197624,0.0018487870450469958,-0.00809817142843144,0.006148114186057471,0.9842737037419731
2012-05-08,1,0.0011618686652420163,0.0012315456371806617,-0.00809817142843144,0.008204916643194293,0.9836570957541046
2012-05-10,1,0.0012056697773066044,0.0012864344562449814,-0.013599429339770427,0.006148114186057471,0.9833022108557101
2012-05-14,-1,-0.0010026384248860533,-0.0006354057428591669,-0.005421401819328261,0.0077822033716392,0.9851504576230317
2012-05-16,1,0.0016009916917235005,0.0016242448714588354,-0.006606342688119738,0.0077822033716392,0.9873559790890231
2012-05-18,1,9.642242683556421e-05,0.0002578446150232976,-0.0030709363315426673,0.011596821711715641,0.989091192897559
2012-05-22,1,0.0001302971085355084,0.00031545930025686465,-0.005421401819328261,0.011596821711715641,0.988797481334816
2012-05-24,1,8.656518997039915e-05,0.0002952351070665704,-0.006606342688119738,0.01416915110638788,0.9874830298862749
2012-05-29,1,0.0005632543255844492,0.0007098811875655276,-0.007343252493404736,0.014073913054171806,0.9867538628288556
2012-05-31,1,0.0014491821554941703,0.001457691431605664,-0.015446588034884511,0.011596821711715641,0.9864905895354311
2012-06-04,0,-4.0131213890488545e-05,0.00017265913141630582,-0.010228389228176878,0.014073913054171806,0.9869138811768968
2012-06-06,1,0.0005669359936911226,0.0007209813023825327,-0.015446588034884511,0.014073913054171806,0.9855909160464229
2012-06-08,0,-0.00011783384059472633,0.00010004180574855407,-0.010228389228176878,0.014073913054171806,0.9858894741927965
2012-06-12,1,0.00014839752822912926,0.00032458149091218086,-0.014598840939522264,0.014073913054171806,0.985545347842852
2012-06-14,1,0.0001248228787348721,0.0003202475543177967,-0.014598840939522264,0.014073913054171806,0.9853667316679638
2012-06-18,1,0.000952702158027038,0.0010263592124477312,-0.014598840939522264,0.011739957803871248,0.986052261935036
2012-06-20,1,0.00040863189439305036,0.0005710291065110062,-0.014598840939522264,0.011739957803871248,0.9868160615266415
2012-06-22,1,0.0006521361303173965,0.0007776287057445556,-0.014476545204138526,0.008420631555069011,0.9875899410273121
2012-06-26,1,0.0002787014856202682,0.0004562147366088926,-0.010231942890507174,0.0076287501749569145,0.9887366306641636
2012-06-28,-1,-0.0009196877436252121,-0.0006042116864140781,-0.0028236290471182167,0.008420631555069011,0.9898113956049948
2012-07-02,1,0.00012516879509846053,0.00032174594111494066,-0.005608816170636329,0.0076287501749569145,0.9908277380251581
2012-07-05,1,0.00060901757649935,0.0007558062954574252,-0.005608816170636329,0.0076287501749569145,0.9916820417480998
2012-07-09,1,0.0007625334627372935,0.0008952751945594385,-0.005608816170636329,0.006501526475325274,0.9920102904956942
2012-07-11,-1,-0.0004458724738647099,-0.0001518156554491544,-0.0023003970433115167,0.006501526475325274,0.9931338405002044
2012-07-13,1,0.0007967026273651878,0.0009060846015223401,-0.0029541847187583574,0.003446205839373691,0.9934277083583436
2012-07-17,1,0.0010546616406043054,0.0011064436770217311,-0.004629963013536232,0.003446205839373691,0.992649103101611
2012-07-19,1,0.0011312638237076305,0.0011442400046092773,-0.004629963013536232,0.003950616581248539,0.9926277079559261
2012-07-23,1,0.00033990384030956744,0.00046639562379403935,-0.0029541847187583574,0.004889462431830524,0.9928556936626964
2012-07-25,1,0.00042462245771525013,0.0005265420434492141,-0.002270684035240671,0.005048603972710573,0.9929630277286027
2012-07-27,1,0.0003885901713150454,0.0005134048380358936,-0.0030602670021161317,0.004946311392894676,0.99276483547425
2012-07-31,1,0.00033871152899970635,0.000432864088184096,-0.0028587422838333,0.004422638051864897,0.9933340159735123
2012-08-02,1,0.0009793284035301904,0.0009940111445975019,-0.0028587422838333,0.004422638051864897,0.992956926151914
2012-08-06,1,0.000816978592046419,0.0008531816290217349,-0.0028587422838333,0.006464668384559646,0.9926417974231555
2012-08-08,1,0.00046984625984049965,0.0005598313645497475,-0.004343635708761059,0.007098745444102814,0.9916491008881635
2012-08-10,1,0.00015793492073279582,0.0002610840136925643,-0.004343635708761059,0.007098745444102814,0.9918874531206012
2012-08-14,1,0.0006645094452356839,0.000699504939415808,-0.004688176363288474,0.006464668384559646,0.9926201353254038
2012-08-16,1,0.0008159558333730624,0.0008217599442081457,-0.004688176363288474,0.007098745444102814,0.9916489149514143
2012-08-20,1,0.0009963878907454328,0.0010122329045542467,-0.00955132259484483,0.006464668384559646,0.9912088106647617
2012-08-22,1,0.0012084036471239176,0.0012573708627323216,-0.00955132259484483,0.004715634210464896,0.9912705602253499
2012-08-24,1,0.0009141987763681657,0.0009173807282039186,-0.00955132259484483,0.002847732126980359,0.9911695905603725
2012-08-28,1,0.001021000007430297,0.00105200564804998,-0.00955132259484483,0.005145126110376268,0.9905771779334229
2012-08-30,-1,-0.0001966514603342416,-8.920863648358927e-06,-0.007067598702893125,0.005145126110376268,0.992232200328694
2012-09-04,1,0.0007984670402692342,0.0008231204018471238,-0.007067598702893125,0.0031810578776055457,0.9914666419436146
2012-09-06,1,0.0009253529634863263,0.0009274193104567197,-0.005910089112711446,0.002267805466176758,0.9924001440919752
2012-09-10,1,0.0009910452016856357,0.0010456584543188858,-0.005674382306360863,0.002267805466176758,0.992594361735913
2012-09-12,1,0.0005405103377279451,0.000562254178893362,-0.005674382306360863,0.003282962119591245,0.9923291849701743
2012-09-14,1,0.0006088455131396184,0.000656268260294484,-0.011117273874577203,0.001223949357843044,0.9912616250828122
2012-09-18,1,0.0004737347915917559,0.0004812835211163924,-0.005827585778781767,0.003282962119591245,0.9916414518981348
2012-09-20,1,0.0002199977313181066,0.0002733996143686525,-0.005827585778781767,0.004739526485116221,0.9916786603515279
2012-09-24,1,4.849251722161738e-05,8.314356023205015e-05,-0.007865949523976512,0.004739526485116221,0.9910627308214576
2012-09-26,-1,-0.00014182020302564108,-4.4274631829618644e-05,-0.013570108877742034,0.004739526485116221,0.9904673536155865
2012-09-28,-1,-0.00021967256080253496,-9.946547323869088e-05,-0.015055896560479103,0.002724627466432523,0.9897995423604674
2012-10-02,0,-4.148044180636389e-05,4.72779838680861e-05,-0.015055896560479103,0.004739526485116221,0.9888067839615255
2012-10-04,-1,-0.0009245810296538451,-0.000639220265458884,-0.015363806062792465,0.005965862657212887,0.9880291187967558
2012-10-08,1,0.00023120377863625752,0.00026253884359093917,-0.015363806062792465,0.005965862657212887,0.9867237836575072
2012-10-10,-1,-0.0012459359064060588,-0.0009562914450669506,-0.015819795470850422,0.009705568255916749,0.9867733871394516
2012-10-12,-1,-0.0026913807966526034,-0.0022456138423835453,-0.015055896560479103,0.011583525055305938,0.9871982661702237
2012-10-16,-1,-0.0022080522844119856,-0.0018311372305864263,-0.015055896560479103,0.009705568255916749,0.9879197026654488
2012-10-18,-1,-0.0016755917270285293,-0.0013890592878227075,-0.015055896560479103,0.012513435966326569,0.9856293743514827
2012-10-22,-1,-0.0026255243431659815,-0.0022546857053408736,-0.013209031648578106,0.012513435966326569,0.9864565645986065
2012-10-24,-1,-0.003322975404324203,-0.002815191076499706,-0.01243617657406915,0.010865696692877853,0.9869776224607633
2012-10-26,-1,-0.0036394713306816167,-0.003144790141938583,-0.00979981880437944,0.012513435966326569,0.9864940458093678
2012-11-01,-1,-0.0029013304802176874,-0.0024528192996199193,-0.00979981880437944,0.010444350919586943,0.9882115651884604
2012-11-05,-1,-0.0027075501601539617,-0.002295004276822293,-0.00979981880437944,0.009464191122575068,0.9888593565731055
2012-11-07,-1,-0.003516793982877736,-0.003024517442099168,-0.007182687127755456,0.009464191122575068,0.9889998114904061
2012-11-09,-1,-0.0030260687769444235,-0.00262984385820496,-0.007034170462344617,0.007007969525501485,0.9900524606861496
2012-11-13,-1,-0.002001520998021987,-0.0017181239340449987,-0.008664027031071294,0.004881486119885858,0.9917379799892935
2012-11-15,-1,-0.001962871448573167,-0.0016994089451798809,-0.008664027031071294,0.004881486119885858,0.9916400630588261
2012-11-19,-1,-0.00010566572352538998,-5.220925777846299e-05,-0.008664027031071294,0.0029759575366680533,0.992545071777462
2012-11-21,-1,-0.0018425701020854022,-0.0015183348621701472,-0.009245410678702428,0.0029759575366680533,0.9920395985191061
2012-11-26,-1,-0.0010207662975565998,-0.0008593733348111004,-0.00949701289512489,0.0029759575366680533,0.9920962466918972
2012-11-28,1,0.0001622859540277317,0.0001807626157749195,-0.009544867302442504,0.0029759575366680533,0.9919103733493037
2012-11-30,1,0.00044789682025756416,0.0005256488425536034,-0.009544867302442504,0.0029759575366680533,0.9911254317837019
2012-12-04,-1,-0.0012354217581516426,-0.0010557629243506356,-0.008747894436545448,0.006467420031293943,0.9898732546385249
2012-12-06,-1,-5.941482411057557e-05,-3.6634421385201474e-05,-0.008747894436545448,0.006467420031293943,0.9897731443533084
2012-12-10,-1,-0.00048045083465277284,-0.00045805367088002074,-0.009544867302442504,0.006467420031293943,0.9892523465193531
2012-12-12,-1,-0.0009098990241761948,-0.0008333194223203976,-0.007410684505299038,0.006467420031293943,0.9893224550446456
2012-12-14,-1,-0.0010624778562147328,-0.0009427613255025523,-0.007410684505299038,0.007847333284300803,0.9889515172012268
2012-12-18,-1,-0.00012603388275458883,-0.00011619025179964422,-0.007410684505299038,0.0067265656840066485,0.9900490890436211
2012-12-20,-1,-0.0012704521382422666,-0.001146153283411903,-0.0009587457233396963,0.0067265656840066485,0.990950730977949
2012-12-24,-1,-0.0013184164924287295,-0.0011672978813351746,-0.0009587457233396963,0.007847333284300803,0.9909400208156368
2012-12-27,-1,-0.0013508085360993635,-0.0012419398111070735,-0.0009587457233396963,0.007297662237981212,0.9919260923004958
2012-12-31,-1,-0.0002812874338063776,-0.00025962753577085884,-0.0009587457233396963,0.006632035778039158,0.9927567654014269
2013-01-03,1,0.0012335936992135571,0.0014505959537211366,-0.002338154951026127,0.00567045391385144,0.9949943998640299
2013-01-07,1,0.0005988549767073008,0.0006963910889550657,-0.0014402746831977341,0.006110981209265289,0.9947898367099537
2013-01-09,1,0.0005436006381301087,0.0006699159171668113,-0.0014402746831977341,0.006110981209265289,0.9955211005215381
2013-01-11,1,0.0008651474961520997,0.0010416778903601844,-0.0023270077537858166,0.006427655054786604,0.9951962969740985
2013-01-15,1,0.001472506001836688,0.0017563411140820696,-0.004042924861528181,0.006072418893560784,0.9951717816138457
2013-01-17,1,0.001802811726602725,0.0021487007417217534,-0.004254021074197481,0.00567045391385144,0.9950864422068132
2013-01-22,1,0.0017607888431203586,0.0020932653296266337,-0.004409931502609166,0.00567045391385144,0.9942428692068976
2013-01-24,1,0.0019299297207291198,0.0022775358848184917,-0.004254021074197481,0.004725518486803006,0.9947081277217895
2013-01-28,0,0.0,0.0,-0.004409931502609166,0.003443736942331454,0.9945831102496229
2013-01-30,0,0.0,0.0,-0.004409931502609166,0.003443736942331454,0.993753757032823
2013-02-01,0,0.0,0.0,-0.004254021074197481,0.004555378065050056,0.994001290102088
2013-02-05,0,0.0,0.0,-0.004409931502609166,0.003443736942331454,0.9942083527569407
2013-02-07,0,0.0,0.0,-0.004645893283994983,0.004555378065050056,0.99379559884635
2013-02-11,0,0.0,0.0,-0.0044341875998458995,0.003443736942331454,0.9940614103041773
2013-02-13,0,0.0,0.0,-0.0044341875998458995,0.004555378065050056,0.9938128144824825
2013-02-15,0,0.0,0.0,-0.0046770050556907096,0.004221444783285217,0.9939118194709905
2013-02-20,0,0.0,0.0,-0.0031203150281304197,0.004897374511229273,0.9945132722716626
2013-02-22,0,0.0,0.0,-0.0031203150281304197,0.005294715228734741,0.9932916434144369
2013-02-26,0,0.0,0.0,-0.002259653292313298,0.0064474688785181025,0.9934737560173186
2013-02-28,1,0.0020353720274995735,0.0024695050262878927,-0.0028200272904804983,0.005275861344363615,0.9947434834208334
2013-03-04,0,0.0,0.0,-0.0028200272904804983,0.0064474688785181025,0.9942531156405348
2013-03-06,0,0.0,0.0,-0.0028200272904804983,0.0064474688785181025,0.9939306084496732
2013-03-08,0,0.0,0.0,-0.0028200272904804983,0.006466678133103752,0.9940179654326747
2013-03-12,0,0.0,0.0,-0.0028200272904804983,0.006466678133103752,0.9939964392261106
2013-03-14,1,0.0011194427285018183,0.001441974997150847,-0.0030261050343839526,0.006466678133103752,0.993587955527756
2013-03-18,1,0.0009854224475013328,0.0012851549500680361,-0.0030261050343839526,0.006466678133103752,0.9927198109148025
2013-03-20,1,0.0005289193255103479,0.0006664245236821199,-0.00378088471821255,0.006422118689226679,0.9918414841596893
2013-03-22,1,0.0016461071004364746,0.0019342409307230915,-0.00378088471821255,0.006384063959075552,0.9927855037985791
2013-03-26,1,0.0009314564559470228,0.0010274660897007413,-0.00378088471821255,0.0057275241551702685,0.9930682623052001
2013-03-28,1,0.001265433783443762,0.0014398255086002462,-0.00378088471821255,0.006384063959075552,0.9926388661675454
2013-04-02,1,0.0015210729182424327,0.0016961904951722307,-0.00378088471821255,0.006384063959075552,0.9926672006658666
2013-04-04,1,0.0009406175238023974,0.000978245589199706,-0.00378088471821255,0.00646202115754833,0.9922041754523903
2013-04-08,1,0.0006382442848970812,0.0006629473704255272,-0.0037738388712825173,0.00709069492817911,0.9918074715792379
2013-04-10,1,0.001251027933856037,0.001378605125730038,-0.0037738388712825173,0.009454628039480235,0.9913234461153229
2013-04-12,1,0.0018016593722018387,0.001981779973431419,-0.0023867316931739206,0.007819433413795675,0.9925346001020539
2013-04-16,1,0.0018427361007273897,0.0021373920004809153,-0.0023867316931739206,0.009454628039480235,0.9927605803189502
2013-04-18,1,0.0006154797647065272,0.0007123190587062149,-4.0102904810920825e-05,0.009454628039480235,0.9924120900846772
2013-04-22,1,0.0010128525085153258,0.0011650687391616904,-6.613358681667805e-05,0.010716749132667798,0.9924311597155047
2013-04-24,1,0.0014795935299256996,0.0017226855744009542,-0.0023867316931739206,0.010716749132667798,0.9911041760404024
2013-04-26,1,0.002313330092620595,0.002681724002604758,-0.0023867316931739206,0.010642997808819523,0.9917362531958299
2013-04-30,1,0.002072867966275628,0.002351950459845051,-0.005456182102056151,0.010642997808819523,0.9911066252432092
2013-05-02,1,0.0021699653625587992,0.0024634381076276803,-0.0036716776341090144,0.01099799367661669,0.9915647115293172
2013-05-06,1,0.002131009639286152,0.002388692288171132,-0.0036442215229286357,0.008280307965224153,0.9920742649113984
2013-05-08,1,0.0025879251565364193,0.002866813237056262,-0.005373813768515015,0.006116809536581466,0.9921213434786014
2013-05-10,1,0.002867554539078607,0.0031788059488388285,-0.005373813768515015,0.008058389740484229,0.9916830830848052
2013-05-14,1,0.0036149949750811186,0.004076911698113736,-0.005890797722681479,0.004279484001446914,0.9918123775716352
2013-05-16,1,0.0020212693149528746,0.0021635494651163797,-0.005890797722681479,0.008058389740484229,0.9914073909117355
2013-05-20,1,0.002230581487544884,0.0023859492673750254,-0.008588075453085807,0.008058389740484229,0.9904994526862455
2013-05-22,1,0.0006526575895459151,0.0007468077724748112,-0.01064718884605351,0.005037574464827117,0.9908945458591354
2013-05-24,1,0.001486632743107518,0.0015326800595698066,-0.012901740970164841,0.005037574464827117,0.990059632051853
2013-05-29,1,0.002039273606712457,0.0021893799256311394,-0.01064718884605351,0.008795532222392086,0.9904698572178439
2013-05-31,1,0.001965693331022271,0.0021014509618747746,-0.01064718884605351,0.008795532222392086,0.9903255497548104
2013-06-04,1,0.001447738702282379,0.0014806339139318333,-0.01064718884605351,0.00879688627378568,0.9901361407354388
2013-06-06,1,0.0010171553047040544,0.0010281529429832241,-0.00933623407512044,0.010617468462522258,0.9902767422173016
2013-06-10,1,0.001285644388630546,0.001320899230325045,-0.00933623407512044,0.009871917251610744,0.9903407301207697
2013-06-12,1,0.001048532912428387,0.0010598960924039307,-0.006640781296031073,0.010116678955929747,0.9899869363044762
2013-06-14,1,0.0011912359958627136,0.0012181954434368055,-0.0033276008555093526,0.009704558485499167,0.9917389104204505
2013-06-18,1,0.0013291423125826674,0.0013785842291519637,-0.0024499891588528463,0.009214723156711568,0.9930566489544539
2013-06-20,0,-0.00010427148335201246,2.091697791893458e-05,-0.0005853718456926713,0.009214723156711568,0.994222409071228
2013-06-24,1,6.319293424573893e-05,0.0001462185659930076,-0.00147132587883165,0.008412286505476976,0.9949673618048843
2013-06-26,1,0.0004114756100390578,0.0004674453309270381,-0.0024499891588528463,0.008412286505476976,0.9951771465415954
2013-06-28,1,0.0008897656986953915,0.000901390111961948,-0.002467880571696987,0.004518501267908692,0.9955901627976473
2013-07-02,1,0.0007855699245772585,0.0008025237586981219,-0.0023000326903760884,0.0038705774764384157,0.9958896676697784
2013-07-05,1,0.00118544079291752,0.0012162664650794699,-0.0023000326903760884,0.006302448728016474,0.9948194458475128
2013-07-09,1,0.0010539792137146402,0.0010674376357963488,-0.0023000326903760884,0.005682258006438721,0.9946766350633628
2013-07-11,1,0.0016438543745621167,0.0017037786363399998,-0.0027928967840232647,0.00326340604677957,0.9944088876218262
2013-07-15,1,0.0010308242028798024,0.00109003261762668,-0.004308407262371974,0.00326340604677957,0.9942462164480306
2013-07-17,1,0.001002014157080947,0.001072062162387972,-0.005071642863422211,0.003806831137371693,0.9934493791331107
2013-07-19,1,0.00044137991818852076,0.000607823685416123,-0.006756451093304173,0.003806831137371693,0.9922550341497974
2013-07-23,1,0.0005242293912460154,0.0006254827416060566,-0.006756451093304173,0.005411114875228172,0.9891212082275552
2013-07-25,1,0.0003704258496202397,0.0004431711765746666,-0.00613097727157711,0.005411114875228172,0.9894602337560915
2013-07-29,1,9.179029114568581e-05,0.0002130824408306823,-0.007423619464415176,0.005411114875228172,0.9891438926733132
2013-07-31,1,4.836153033775924e-05,0.00017135478629106093,-0.007906490570543398,0.005344781511333198,0.9883413181052987
2013-08-02,1,0.0008456389725805613,0.000897031768281868,-0.007906490570543398,0.004133381103241038,0.9893765103294108
2013-08-06,1,0.0007831587782628685,0.0008257617190714664,-0.007423619464415176,0.005213255401950927,0.9891493922368082
2013-08-08,0,-7.237295114134799e-05,8.339894864473627e-05,-0.00613097727157711,0.005213255401950927,0.9898489710074203
2013-08-12,0,-0.00011256722214885188,3.625902869360524e-05,-0.005390260038712775,0.005213255401950927,0.9901542494067155
2013-08-14,-1,-0.00016487649203790846,-4.591463752294522e-05,-0.005390260038712775,0.0052145489143650536,0.9900303676745397
2013-08-16,-1,-0.0009983410534346036,-0.0007926945023986434,-0.003048543892374588,0.00595572945524234,0.9901739559924039
2013-08-20,1,0.0011138881449591384,0.0011461451581438334,-0.003048543892374588,0.008771737011173132,0.9927047557668854
2013-08-22,1,0.00117844374831814,0.0012364789964864047,-0.003048543892374588,0.008771737011173132,0.9925824650452575
2013-08-26,1,0.0008989434329933243,0.0009168363254841912,-0.0038853142348589014,0.008771737011173132,0.9924605864913765
2013-08-28,1,0.00023668871293748667,0.00029901832414301187,-0.0038853142348589014,0.011830845976909542,0.992695385416104
2013-08-30,0,-3.828448964344913e-06,9.482472327941463e-05,-0.00251065459109694,0.011830845976909542,0.993065428607285
2013-09-04,1,0.0009583382149462312,0.0010146794457150995,-0.00251065459109694,0.008126120102626897,0.9935712887087272
2013-09-06,1,0.0005627946878636038,0.0005829596897416495,-0.0027004631554702714,0.008126120102626897,0.9934532512327352
2013-09-10,1,6.280249510862509e-05,0.00018933682289155418,-0.005476144453782466,0.008126120102626897,0.9921142464892659
2013-09-12,1,0.0001642616242727944,0.00025585711496853167,-0.004459723304582108,0.008126120102626897,0.9921866300054804
2013-09-16,1,0.0008024523458258323,0.0008195645371860864,-0.004459723304582108,0.007976351846489435,0.9924178311639519
2013-09-18,1,0.0017402954333904448,0.0018768443348503871,-0.005476144453782466,0.00502153258496715,0.9911311004565082
2013-09-20,1,0.001588219831155094,0.0017124133417835067,-0.005476144453782466,0.00502153258496715,0.9912295255606192
2013-09-24,1,0.0012136193644196823,0.0012881415146901547,-0.0035853287169603405,0.007976351846489435,0.9910196379623282
2013-09-26,1,0.0014289771130792045,0.001532808742887155,-0.002975456913725723,0.00502153258496715,0.9919616207800679
2013-09-30,1,0.0015435056634185134,0.0016969005157360306,-0.003904901311688194,0.005683750285259223,0.9916654771555686
2013-10-02,1,0.0017587650918755061,0.0019552213380234834,-0.003904901311688194,0.006743993001234337,0.9910355582269066
2013-10-04,1,0.0015832621297871268,0.0017666831782195463,-0.002975456913725723,0.009636869870813872,0.9912255152434781
2013-10-08,1,0.0002809976065899811,0.0003044192012576954,-0.0013089564421765862,0.009636869870813872,0.9918601058833415
2013-10-10,1,0.0013042142309529427,0.001438591519319632,-0.0027967456504334755,0.00795406547830218,0.9919235685605623
2013-10-14,1,0.0008692201550938982,0.000886570370314042,-0.0013089564421765862,0.00795406547830218,0.9914881863127756
2013-10-16,1,0.001784029757829615,0.001969136657675295,-0.000899631641062566,0.00795406547830218,0.993202919147313
2013-10-18,1,0.0014854004874287911,0.0015937361483737242,-0.0005698999010906816,0.00835302388527686,0.9929676674528944
2013-10-22,1,0.0018478948481622168,0.002026322411643522,-0.0005698999010906816,0.00835302388527686,0.9928105554314173
2013-10-24,1,0.0017852509016687843,0.001943278115530516,-0.0005698999010906816,0.009367992080949138,0.9923080549046395
2013-10-28,1,0.0013274517908110554,0.0014097666459359558,-0.0005698999010906816,0.009367992080949138,0.9918613615049089
2013-10-30,1,0.0017696774308581294,0.0019083407519224105,-0.000899631641062566,0.00835302388527686,0.9928118170385657
2013-11-01,1,0.001949913708902321,0.002100959454740325,-0.0021008382819602757,0.007695029052412166,0.9925854608782227
2013-11-05,1,0.0020915218422972843,0.0022599997047586425,-0.003064206006754616,0.007285370319968943,0.9926770324984692
2013-11-07,1,0.0014104839401073298,0.0015022333886569252,-0.003064206006754616,0.005491255496693971,0.993470286618363
2013-11-11,1,0.0015052889990858458,0.0015472494245844985,-0.0042324015376197415,0.0037732744314512216,0.994062623255764
2013-11-13,1,0.0018602144376203985,0.0019417968715074005,-0.00487033702335578,0.0027939870029554787,0.9940846177572218
2013-11-15,1,0.0021654187332941777,0.0023026801582501184,-0.00487033702335578,0.002422849343748868,0.9939879333092816
2013-11-19,1,0.0017396947916281744,0.0018265855367990591,-0.004287406248411467,0.002422849343748868,0.9943053677939026
2013-11-21,1,0.002139168244317609,0.0022766045448780843,-0.004287406248411467,0.001809133351783746,0.9943924760797984
2013-11-25,1,0.0017166821713875445,0.0018172893827865131,-0.004164377406053283,0.0027939870029554787,0.9952033602167356
2013-11-27,1,0.0018239358372227799,0.0019360235930963123,-0.004225025398674456,0.002801665795042624,0.99474515827456
2013-12-02,1,0.0016044010657936666,0.001715975697678986,-0.004164377406053283,0.0039161036680691996,0.9950323012973941
2013-12-04,1,0.0015462746428456938,0.0016402939762363673,-0.003996945032534433,0.0039161036680691996,0.9950741745008879
2013-12-06,1,0.001317405852083564,0.0013826822606199315,-0.003996945032534433,0.004494601989648546,0.9947219483741694
2013-12-10,1,0.0011835638102324878,0.0012311939215520523,-0.003106687690847925,0.005074379228599758,0.9946540243833514
2013-12-12,1,0.00043879842547154375,0.000502579096132861,-0.003106687690847925,0.00544589846287005,0.9940397966172818
2013-12-16,1,0.0005840654235662408,0.0006358864909861437,-0.003996945032534433,0.005074379228599758,0.9941324790008816
2013-12-18,1,0.0008632165316090611,0.0008865678506071843,-0.004267899931922704,0.004485111860107625,0.9946035680207861
2013-12-20,1,0.0005212266659330956,0.0005891966006702294,-0.005377361639492202,0.004485111860107625,0.992544044323586
2013-12-24,1,0.0013070222428765725,0.0013755196227551842,-0.010919317159465525,0.002490719962010521,0.9913414553512672
2013-12-27,1,0.0012479586272715584,0.0012972016194058625,-0.010919317159465525,0.002490719962010521,0.9917965788953015
2013-12-31,1,0.0010107721838875994,0.0010219018243824772,-0.011684322232377998,0.002490719962010521,0.9912615589023462
2014-01-03,1,0.0006108268790363437,0.0006767875661704043,-0.013879410328066418,0.0017184415049814501,0.9905459054169015
2014-01-07,1,3.131263114776613e-05,0.00018653377736570676,-0.013879410328066418,0.0017808421593571147,0.9898136705462696
2014-01-09,-1,-0.0005475545930949252,-0.000261271779114316,-0.013879410328066418,0.0017808421593571147,0.9890406426662447
2014-01-13,1,0.0004947923495372845,0.0005924781531419948,-0.011684322232377998,0.0017808421593571147,0.989390947213847
2014-01-15,1,0.00012168510684080428,0.000271482010876706,-0.011684322232377998,0.0032618063057733224,0.9896709860960611
2014-01-17,-1,-0.0005323721820779545,-0.00029647040290645425,-0.011684322232377998,0.004921236458085034,0.9896073835252939
2014-01-22,-1,-0.0028780415831969886,-0.002321454417160005,-0.006310723068403637,0.004921236458085034,0.9911975605656197
2014-01-24,-1,-0.003948936487848609,-0.003260477820967839,-0.0030789182913711945,0.005384954527782226,0.9910827616924309
2014-01-28,-1,-0.003350979547933443,-0.002765656857816853,-0.004377827956897318,0.00570957638506607,0.9909535026608073
2014-01-30,-1,-0.0037725538014591288,-0.0031391965434592866,-0.0030789182913711945,0.0080031647438269,0.9904752954081089
2014-02-03,-1,-0.004623408889031705,-0.003894875570255136,-0.0030789182913711945,0.010120346541717201,0.9898855616528073
2014-02-05,-1,-0.003504587250433182,-0.0029095296470047225,-0.003722697654697421,0.0080031647438269,0.991539384420318
2014-02-07,-1,-0.00210219755368929,-0.001707688189378439,-0.003722697654697421,0.008691874939550929,0.9925405491897848
2014-02-11,-1,-0.0011796768117625102,-0.000941837777079152,-0.006277589509275705,0.00762592996152327,0.9930695743455916
2014-02-13,-1,-0.0012146742893288922,-0.0009644160082704311,-0.006310723068403637,0.00762592996152327,0.9927586411981807
2014-02-18,-1,-0.001516161693309882,-0.0012058454614919934,-0.006560833080603155,0.008691874939550929,0.991854737997087
2014-02-20,-1,-0.0015235651832534837,-0.0012277392492334553,-0.006529256543002862,0.008691874939550929,0.9919137748897671
2014-02-24,-1,-0.0014372109976985735,-0.001146781341221338,-0.007805455620535964,0.009599822314345493,0.9905647314010123
2014-02-26,-1,-0.0015948351912082664,-0.001291449351839584,-0.0075918711956202,0.008691874939550929,0.9910105863133732
2014-02-28,-1,-0.0009708776682947447,-0.0007243898222064274,-0.0075918711956202,0.008691874939550929,0.9912191491880801
2014-03-04,-1,-0.0017664773882277531,-0.0013649401089757052,-0.006823982480670324,0.008965489008165649,0.9913103914343183
2014-03-06,-1,-0.0017447179105909538,-0.0013774232406500739,-0.006823982480670324,0.009235584946945048,0.990661303418734
2014-03-10,-1,-0.0009490309849459411,-0.0006868894036876442,-0.0075918711956202,0.008965489008165649,0.9903036564980359
2014-03-12,-1,-0.0009315945295432159,-0.000714100592177014,-0.0075918711956202,0.009243357192348143,0.9901451633197641
2014-03-14,-1,-0.0011235475017103641,-0.0008817088700723555,-0.011818262780824328,0.009243357192348143,0.9888740542959192
2014-03-18,-1,-0.0013084912364869407,-0.0010694746257864992,-0.008768335341973866,0.008965489008165649,0.9896238878467998
2014-03-20,-1,-0.001225072342585098,-0.0010017443418506322,-0.008768335341973866,0.008965489008165649,0.9894219350124454
2014-03-24,-1,-0.00153495071718018,-0.0012700767793511435,-0.007100019494505899,0.008965489008165649,0.9902956774035504
2014-03-26,-1,-0.001459456506312151,-0.0012499932592010426,-0.00990889259254753,0.008965489008165649,0.989808686114581
2014-03-28,-1,-0.0008195897400131497,-0.0007072264097392279,-0.00990889259254753,0.008191623879032788,0.9901199415960289
2014-04-01,1,6.886079418117425e-05,7.533029993063112e-05,-0.00990889259254753,0.006737998268736367,0.9906345150515948
2014-04-03,-1,-0.0001449079860434232,-9.643772266350927e-05,-0.00705736329152308,0.006146064090231832,0.9917742158899996
2014-04-07,-1,-0.0007688704155033663,-0.0006881989991046062,-0.00674160481439469,0.006146064090231832,0.9920496401833209
2014-04-09,0,-1.3047157860679443e-05,3.321077053299284e-05,-0.00674160481439469,0.006146064090231832,0.9919117790888338
2014-04-11,-1,-0.0012180447295465965,-0.001144529606268754,-0.004663557254527172,0.007148561675834416,0.9919652848110084
2014-04-15,-1,-0.0006890865999628071,-0.0006639614837859399,-0.004994741632449581,0.006193388426510786,0.9921453574577009
2014-04-17,-1,-0.00032158741180589605,-0.0002652540136183553,-0.0061460021612000275,0.007052624920208948,0.9915548354640163
2014-04-22,1,7.467210164905668e-05,0.00015781241904724527,-0.010904135738271693,0.004087172054382851,0.9885494047281045
2014-04-24,-1,-0.000625958179895111,-0.0006148903343286178,-0.00685475149882569,0.007052624920208948,0.9863473317505973
2014-04-28,-1,-0.0005522557600887326,-0.0005357740277799359,-0.009921263184970374,0.0042598256970185705,0.9861167111502102
2014-04-30,-1,-0.0007061501622946505,-0.0006727224982600699,-0.009921263184970374,0.0042598256970185705,0.9859174136746254
2014-05-02,-1,-0.0006247714784479888,-0.0005951796357384114,-0.009921263184970374,0.0042598256970185705,0.9858559024812673
2014-05-06,-1,-0.001433759341366588,-0.0013088446328121026,-0.0071608575880180705,0.008343559994867699,0.9855850177156891
2014-05-08,-1,-0.0012032765012734126,-0.001082348279225168,-0.0071608575880180705,0.007883961757950895,0.985500991062799
2014-05-12,1,0.0001766342516398409,0.0002356263856348781,-0.0071608575880180705,0.0038569108386285176,0.9869317651855183
2014-05-14,1,5.690403185971659e-05,0.00012941616127060785,-0.00929477738870469,0.0038569108386285176,0.986428181520903
2014-05-16,-1,-0.00018052536554093626,-0.00013862261921761273,-0.0071608575880180705,0.0020761468981466726,0.9875137824811429
2014-05-20,-1,-0.0027534711256048568,-0.002508197162184955,-0.006054254290769851,0.0038569108386285176,0.990573387462351
2014-05-22,-1,-0.0014104785410856214,-0.001335896827484391,-0.006054254290769851,0.0020761468981466726,0.9935944520915875
2014-05-27,-1,-0.0016450753075659538,-0.001557658186787942,-0.006054254290769851,0.0020761468981466726,0.9933341571059623
2014-05-29,-1,-0.0016598105677709846,-0.001572171099544186,-0.006496220141858491,0.0018332413457312741,0.9930160645048012
2014-06-02,-1,-0.0018749344026340541,-0.0017556845048843765,-0.006496220141858491,0.0031705986578343406,0.9928549870000991
2014-06-04,-1,-0.0007405188220933989,-0.0007153536284622707,-0.006496220141858491,0.004496530803223641,0.9934668195344671
2014-06-06,-1,-0.0002478443567077831,-0.0001660185191629084,-0.0074166470916425505,0.0017138837951639928,0.9937580123393993
2014-06-10,-1,-0.0004337675766726025,-0.0003828443510861774,-0.0074166470916425505,0.004496530803223641,0.9930561258856171
2014-06-12,-1,-0.001375532918957498,-0.0012931837005450153,-0.006328632440161016,0.004496530803223641,0.9934938506976181
2014-06-16,-1,-0.002073557240979078,-0.0018364468809208504,-0.006328632440161016,0.006880187355144049,0.9931821834276569
2014-06-18,-1,-0.0019375052530573012,-0.0016793621468301693,-0.0074166470916425505,0.004496530803223641,0.9927486093439379
2014-06-20,-1,-0.002161455412254975,-0.0018902494680126626,-0.008220864746713599,0.006880187355144049,0.991874947037706
2014-06-24,-1,-0.0030930800062078283,-0.0026978322890408198,-0.006804689865979352,0.0074603440305492826,0.9916915409972558
2014-06-26,-1,-0.004124247970184354,-0.0035704098537880464,-0.006804689865979352,0.0074603440305492826,0.9914141387360721
2014-06-30,-1,-0.0029861753988918204,-0.0026185961395745324,-0.006804689865979352,0.007139449998184638,0.9919981702233037
2014-07-02,-1,-0.0019327484273336123,-0.0017298705191259403,-0.007253110616561149,0.008470450498169323,0.9913377993860353
2014-07-07,-1,-0.0017918566457413396,-0.0016228967225600229,-0.0068087410925954245,0.009652287286920606,0.9910563525342458
2014-07-09,-1,-0.0010322291462449514,-0.0009581461267613015,-0.008102084065447466,0.009652287286920606,0.9908510485762215
2014-07-11,-1,-0.0014662527504020427,-0.0013489354710640774,-0.007396630331999458,0.01128369914013939,0.9899411396050979
2014-07-15,-1,-0.0011964845110122638,-0.0011079034496268658,-0.007846700378152511,0.01128369914013939,0.989961828810415
2014-07-17,-1,-0.0020312321158707505,-0.0018552425602649596,-0.007846700378152511,0.011671146284153897,0.99010015538041
2014-07-21,-1,-0.001955311658748947,-0.0017821526880454773,-0.007846700378152511,0.011671146284153897,0.989902553343597
2014-07-23,-1,-0.0006441119931949716,-0.0006345976516943389,-0.007846700378152511,0.01431247955320445,0.9855615117772929
2014-07-25,-1,-0.0009588591322699587,-0.0009354988647981632,-0.007846700378152511,0.01431247955320445,0.9854999833142096
2014-07-29,-1,-0.0009872277271445887,-0.0009506630926807912,-0.007846700378152511,0.01431247955320445,0.9849895350322442
2014-07-31,-1,-0.00015394715174170344,-4.925917811367264e-05,-0.007846700378152511,0.012293116386403319,0.986247742031111
2014-08-04,1,2.265776843776582e-06,0.00011503818852498152,-0.007846700378152511,0.014018324784313925,0.9861553985573185
2014-08-06,1,5.630812341616648e-05,0.00017364989362386886,-0.00674890849372191,0.012198596464679542,0.9868930400089079
2014-08-08,1,0.0004704221463418806,0.0006234988826996011,-0.006804880433104688,0.009518298608776659,0.9879156866098764
2014-08-12,1,0.00023968586622384396,0.0003737604320065844,-0.006863522957596584,0.009518298608776659,0.9878283436791956
2014-08-14,1,0.00013488794922605587,0.00024036282665305546,-0.005214577713628819,0.008789610796194195,0.9885254080148027
2014-08-18,1,2.15161993088492e-05,0.0001022976761718647,-0.0035840679635330353,0.008789610796194195,0.9893537453709723
2014-08-20,1,0.002488932229449623,0.002914625827485116,-0.004900908814548818,0.0077391362916397815,0.9937810265228539
2014-08-22,1,0.0027381296939430295,0.003221415431948289,-0.005460628481465967,0.005765093296853863,0.99340959975314
2014-08-26,1,0.0027781995609387033,0.0032653662490823893,-0.005634476114116011,0.005765093296853863,0.9924612868497211
2014-08-28,1,0.002428060974789214,0.0028233040483284615,-0.007292598320874173,0.008225302206960071,0.9912723421728749
2014-09-02,1,0.0028860316150252003,0.0033646369421535716,-0.00827580928236745,0.005765093296853863,0.9910957066450531
2014-09-04,1,0.0024608853818798545,0.002822111044963921,-0.00827580928236745,0.005765093296853863,0.9911154031188542
2014-09-08,1,0.0025321562152959675,0.0029284213920146287,-0.00827580928236745,0.00824957027148312,0.9902611738197951
2014-09-10,1,0.0022107288272094744,0.002560896427284524,-0.00827580928236745,0.009272099560598338,0.9896928663367291
2014-09-12,1,0.002471491397263933,0.002882208060369265,-0.008514870938923062,0.010923197721168822,0.9890201474086234
2014-09-16,1,0.002192253896994501,0.0025221895077351623,-0.009627990618400974,0.012461405947933466,0.9882568084738947
2014-09-18,1,0.0022939652661492574,0.002647705745095555,-0.010220856127230145,0.012461405947933466,0.9870615257683086
2014-09-22,1,0.0016633026054006577,0.0019211245835295135,-0.010220856127230145,0.012919398958841085,0.9875730982005807
2014-09-24,1,0.002217900976798081,0.002551861229083658,-0.010220856127230145,0.012919398958841085,0.9875984231918749
2014-09-26,1,0.0017039539594337536,0.0019360838380456883,-0.009044479199208156,0.012919398958841085,0.9881952091660005
2014-09-30,1,0.0015472586071360783,0.0017804130882304431,-0.008320367132525456,0.012919398958841085,0.9882959371452387
2014-10-02,1,0.002279050966311767,0.0026565618554226693,-0.008320367132525456,0.012919398958841085,0.9885338340471014
2014-10-06,1,0.002047397391939136,0.0023718813281234105,-0.008039527336236911,0.012277113407246028,0.9896592799942784
2014-10-08,1,0.0023816257992809557,0.0027422825373888057,-0.005124657858255397,0.01178369982242962,0.9908505160853572
2014-10-10,1,0.0012492301906429748,0.0013068234325807862,-0.005124657858255397,0.01178369982242962,0.9910275220578489
2014-10-14,1,0.0018181807425173102,0.002015039215265289,-0.005124657858255397,0.00979102356829796,0.991650535205993
2014-10-16,1,0.0008592571288635268,0.0009168483531807926,-0.00254645660306352,0.00979102356829796,0.9927428246832801
2014-10-20,1,0.0012832806556439885,0.0014021780793132361,-0.005296503529469012,0.008627639626696604,0.9918063900867512
2014-10-22,1,0.0010572958657535433,0.0011276125188113717,-0.003749388655498429,0.008074616988258551,0.9931407159690032
2014-10-24,1,0.001829953745927708,0.0020455665022184747,-0.00254645660306352,0.008074616988258551,0.9928569630346223
2014-10-28,1,0.0021237037460938427,0.002387087359981028,-0.00254645660306352,0.00767904688323195,0.993127641904243
2014-10-30,1,0.00218677076648965,0.002453124294669015,-0.00254645660306352,0.00815091665070047,0.9920661865789927
2014-11-03,1,0.0018628168416926082,0.002038967841769871,-0.00487524218662268,0.00767904688323195,0.9915738518567463
2014-11-05,1,0.0016870781369700734,0.0018527171071905965,-0.00487524218662268,0.00815091665070047,0.9914894964460716
2014-11-07,1,0.0017478445781979948,0.0019395908711710545,-0.004339594180150941,0.00767904688323195,0.991937433936501
2014-11-11,1,0.0011499514136063833,0.0012330050535140737,-0.004339594180150941,0.00767904688323195,0.9917326301996183
2014-11-13,1,0.0009026520900112635,0.0009136229105961022,-0.004339594180150941,0.00815091665070047,0.9912516804441218
2014-11-17,-1,-0.00026751620759329285,-0.00013200543457115172,-0.0016193231814789967,0.008942429237242325,0.9911696585455135
2014-11-19,1,0.00023099384853707676,0.0002961913198753143,-0.0016193231814789967,0.009794825607983861,0.9902251690373957
2014-11-21,1,0.0007320903476973101,0.0007355927609572414,-0.004339594180150941,0.009794825607983861,0.9897341603038745
2014-11-25,1,0.0005118341728391837,0.0005554393567161078,-0.004339594180150941,0.011198346895722336,0.9893147629181018
2014-11-28,1,0.001575969397577086,0.0016899863716013106,-0.004339594180150941,0.009794825607983861,0.9906877358494103
2014-12-02,1,0.0009766712325568968,0.0009857954368275037,-0.0037817889621625236,0.009794825607983861,0.9913580939517663
2014-12-04,1,0.001325058647116947,0.0013849126197500797,-0.006015285348115815,0.006589180835171568,0.9907285792494069
2014-12-08,1,0.0002581529126508308,0.00037417741451144747,-0.005943115269808282,0.011198346895722336,0.9899187504686693
2014-12-10,-1,-0.0005900941639467997,-0.000371283942009387,-0.005943115269808282,0.011198346895722336,0.9898090519474998
2014-12-12,1,0.0002867086977750579,0.00038501899733822713,-0.00613466595562094,0.006623895189742327,0.99050938267182
2014-12-16,-1,-0.0006844027716303301,-0.00044743965971710787,-0.009576202414786667,0.005240792996268368,0.9906433085569609
2014-12-18,1,0.0005309011161809324,0.00062881000231324,-0.009576202414786667,0.0046243313672691185,0.9905673965128607
2014-12-22,1,0.0006398143127670434,0.0007111256588541206,-0.008215186565891725,0.0046243313672691185,0.9908889879849772
2014-12-24,1,0.0006841877496193499,0.0007465993746583607,-0.008215186565891725,0.0046243313672691185,0.9912943688406981
2014-12-29,1,0.0006561914898025426,0.0007257515085134971,-0.009576202414786667,0.0028530606262948525,0.9908065521131758
2014-12-31,1,0.000658036753253644,0.0007076104029389005,-0.011484972474025437,0.005109615475871296,0.9894214187732442
2015-01-05,0,-5.3736116535034256e-05,0.00010447467694433638,-0.009052704610612321,0.005841896508037743,0.9894841239652222
2015-01-07,1,0.00035356573646777177,0.0004741277393594602,-0.009052704610612321,0.007755398956278579,0.9898857688973072
2015-01-09,-1,-0.00036943095684343144,-0.00015983910428906192,-0.008702295211262579,0.007755398956278579,0.9901477251201545
2015-01-13,1,0.0007096972699378351,0.0007254765351354371,-0.008702295211262579,0.00841618652898873,0.9898970163546683
2015-01-15,-1,-0.00019475776189253473,-0.00010262971540225086,-0.0028749507700086283,0.00841618652898873,0.9905711067092258
2015-01-20,1,0.00033633131731335424,0.0003678574411776843,-0.004725339987744505,0.007804654786909095,0.9910322261550689
2015-01-22,1,0.0009509396253386688,0.000998323393589131,-0.00442905728445924,0.007804654786909095,0.9917538257124742
2015-01-26,1,0.0012561338721565805,0.001356120676424846,-0.009787997395575003,0.007804654786909095,0.9909350750578634
2015-01-28,1,0.0004949514045095904,0.0004955611556173294,-0.009787997395575003,0.00841618652898873,0.9890694907878879
2015-01-30,0,-4.442786422657687e-05,2.8119638446696233e-05,-0.005947982265321321,0.009278080159753647,0.9895095397319889
2015-02-03,1,0.0006114203974097495,0.0006254637414530586,-0.009787997395575003,0.00841618652898873,0.9898234620097027
2015-02-05,1,0.0009059336138347639,0.0009285196119201644,-0.010277838047923274,0.00779848593442313,0.9897933353248767
2015-02-09,1,0.00042715125165857795,0.0004580033643222165,-0.009550939748545763,0.00779848593442313,0.9899259650804344
2015-02-11,1,0.0007621169134031338,0.0007703428625062311,-0.009550939748545763,0.00779848593442313,0.9890384933552331
2015-02-13,1,0.0007155932339576231,0.0007413715194737789,-0.010078279844115311,0.008743915343050464,0.9886235723456761
2015-02-18,1,0.00016376894333256325,0.00022426139402575317,-0.0093254088926653,0.008743915343050464,0.9893015342424725
2015-02-20,1,0.000534895453864566,0.0005680149464220295,-0.0093254088926653,0.008743915343050464,0.9889260645175283
2015-02-24,-1,-0.0009128440418017559,-0.0006868512535462164,-0.007374523173233679,0.008940286139692163,0.989692591917064
2015-02-26,0,-0.00010345489124560049,9.505499217251831e-06,-0.007534702086614522,0.008439185408483589,0.9915171759729703
2015-03-02,1,0.00045497615480709374,0.0005095802840402868,-0.007534702086614522,0.00835274288945171,0.9914319070465288
2015-03-04,1,0.00017799772587877332,0.00024177080752142496,-0.007534702086614522,0.00835274288945171,0.9912363763499622
2015-03-06,-1,-0.0001210996326120476,-2.228402468565404e-05,-0.0069722282450615115,0.00835274288945171,0.9917864247274529
2015-03-10,-1,-0.00024187301602789638,-0.00012807133022503644,-0.0069722282450615115,0.008940286139692163,0.9914373452276165
2015-03-12,-1,-0.0003180508493431797,-0.00014436412819961262,-0.007534702086614522,0.00835274288945171,0.9923847394802401
2015-03-16,-1,-0.000164940148060405,-3.0504251152343922e-05,-0.007534702086614522,0.006089303547491012,0.9924443362886268
2015-03-18,-1,-0.0004986141177323603,-0.0003275011216522166,-0.007785662507934965,0.006089303547491012,0.9924385644267988
2015-03-20,1,0.00040856260532743055,0.0004555188662127553,-0.008364512561831409,0.006089303547491012,0.991790619723952
2015-03-24,1,0.0007129986874923608,0.0007159801824458654,-0.008364512561831409,0.004979575610925689,0.9918207882058601
2015-03-26,1,0.00032764814947438257,0.00036013906539785146,-0.008364512561831409,0.004979575610925689,0.9926025561962086
2015-03-30,1,0.000850419660223165,0.000894124886425819,-0.009558824494094512,0.00023621585084271536,0.9922836020452117
2015-04-01,0,-6.642726396415016e-05,1.5155596873167143e-05,-0.009558824494094512,0.0025642936071228572,0.9930478909949334
2015-04-06,1,0.00019423313796325837,0.0002452521551553938,-0.009558824494094512,0.0025642936071228572,0.9924378235251206
2015-04-08,1,3.4567610568364635e-05,0.00012456655498980699,-0.008543806071007461,0.0021576374943977853,0.9932462977365829
2015-04-10,-1,-0.0003548920660463146,-0.00022519519735975205,-0.006485176760927009,0.004832446380948434,0.992775520578171
2015-04-14,-1,-0.0018966197912354797,-0.0015237096107281742,-0.00683188133586588,0.004832446380948434,0.9929543068707224
2015-04-16,-1,-0.001998908674377429,-0.001630128873700965,-0.00683188133586588,0.004832446380948434,0.9929761025781105
2015-04-20,-1,-0.001774640588895682,-0.0014689981191058719,-0.006161746044779211,0.004832446380948434,0.9930739447272412
2015-04-22,-1,-0.0015167058786672136,-0.0012451382230480573,-0.00683188133586588,0.00494877772636682,0.9916676210446028
2015-04-24,-1,-0.0009309664792371123,-0.0007842648413763777,-0.008028870256964731,0.00494877772636682,0.9908538655251042
2015-04-28,-1,-0.0020002000989740227,-0.001704688588472871,-0.008028870256964731,0.005069389175480295,0.9907977756658191
2015-04-30,-1,-0.001972468473780367,-0.0017000666123912402,-0.008131959296049715,0.005069389175480295,0.9901539988854153
2015-05-04,-1,-0.0016681303156335162,-0.001410277223023442,-0.008131959296049715,0.005069389175480295,0.9903645315403713
2015-05-06,-1,-0.0018516308279372946,-0.001539053629615926,-0.008131959296049715,0.006744071754728038,0.9896354943554415
2015-05-08,-1,-0.0006755055234697587,-0.0005395316465551497,-0.008131959296049715,0.004559237691086561,0.9901966640055281
2015-05-12,-1,-0.0014606413577195726,-0.0012090259550185368,-0.008590384147011812,0.0064974505568268556,0.9899781604685971
2015-05-14,-1,-0.0010793186153648382,-0.0009393285055188559,-0.008590384147011812,0.0064974505568268556,0.9901752806972101
2015-05-18,-1,-0.00012453764505061186,-9.872950275310844e-05,-0.008590384147011812,0.0045893602678974054,0.9907866717361161
2015-05-20,1,0.00039087096501082535,0.0004422197349704086,-0.008122714739246136,0.00507912002327898,0.9912789137561505
2015-05-22,-1,-8.958596089992705e-05,-8.767873139715897e-05,-0.006630558943273963,0.00507912002327898,0.9918258822951797
2015-05-27,-1,-0.00023300497839579145,-0.0002173463433669367,-0.005780738540127496,0.0067732642981240924,0.9920266641551455
2015-05-29,-1,-0.0019153513264517671,-0.0016757493828898184,-0.0043657447913727065,0.010893440675616607,0.9927508969156654
2015-06-02,-1,-0.0010116016640257489,-0.0009083509350695703,-0.00485137860000882,0.006728325890407056,0.992033617229867
2015-06-04,-1,-0.0008278975770691201,-0.0007291822321847787,-0.00485137860000882,0.006728325890407056,0.9918296038023564
2015-06-08,-1,-0.0011614223027090849,-0.0010087686300917272,-0.0043657447913727065,0.011304845532075438,0.9909670239939495
2015-06-10,-1,-0.0015834090840903515,-0.0013350534468769132,-0.0043657447913727065,0.006728325890407056,0.991166232392469
2015-06-12,-1,-0.0013254925508468804,-0.0011359531841485964,-0.0043657447913727065,0.011780805643503681,0.9901252139088493
2015-06-16,-1,-0.000882710560777986,-0.0007793981288850861,-0.004701117325721892,0.011780805643503681,0.9903763044861774
2015-06-18,1,0.00021985391298760714,0.00026705694898490184,-0.006421022602943357,0.009806146750756702,0.9910137214013705
2015-06-22,-1,-0.0003972933085662027,-0.0003410375595769642,-0.006510325913985688,0.009806146750756702,0.990712764329742
2015-06-24,-1,-0.0002462262143771266,-0.00017666380623137604,-0.006510325913985688,0.007462934740040273,0.9912167600270284
2015-06-26,1,0.00038158769766326696,0.00042840119047502835,-0.008457134198902053,0.005627271168829635,0.9913211295422776
2015-06-30,-1,-0.00016336253322805227,-0.00015901672165697848,-0.006510325913985688,0.008156227418972803,0.9912136815107505
2015-07-02,-1,-0.00015600467907571808,-0.00013787890722259075,-0.005527329339898202,0.007028778909128181,0.992334167157011
2015-07-07,1,0.0007890314980678112,0.0009184855543675844,-0.006095187571093291,0.005627271168829635,0.9930838427168195
2015-07-09,1,0.0007261111857924157,0.0008719302624786069,-0.006095187571093291,0.007028778909128181,0.9929673551834387
2015-07-13,1,0.0010117407115135958,0.0011494161579905814,-0.006095187571093291,0.005858368728473812,0.9935901096458052
2015-07-15,1,0.0010271431185639585,0.0011976392981493892,-0.005691719153082244,0.005858368728473812,0.9938202803516691
2015-07-17,1,0.0005704585239841055,0.0006311941857935154,-0.0034858430734873644,0.00571178119458711,0.9942488437402043
2015-07-21,1,0.000825141895939469,0.0009515372266905364,-0.0018247118499353726,0.007730376529002906,0.9908258797429443
2015-07-23,1,0.0007261873610370661,0.0008630100096427505,-0.0037847223593417564,0.007730376529002906,0.9894774259565479
2015-07-27,1,0.0003349971158344043,0.0003991933156726415,-0.0067443961662837296,0.007730376529002906,0.9867232681840215
2015-07-29,1,0.0008479345289057736,0.0009635974515926869,-0.007497826203241643,0.007290613927342803,0.9865056195956201
2015-07-31,1,0.0008679437247911378,0.0009832501282335871,-0.00872329685354389,0.008040747939567569,0.9857469957856305
2015-08-04,1,0.0010010050657238122,0.0011602542437507558,-0.009893522805721542,0.008040747939567569,0.985206783617781
2015-08-06,1,0.0007761032144829949,0.0009009787522640403,-0.008784923985201688,0.008576687682329167,0.9847796519370103
2015-08-10,1,0.0008948605385118236,0.0010214699829538224,-0.009658461792796587,0.010249333171065314,0.9836178161244966
2015-08-12,1,0.0011164461881805429,0.0013003970410033782,-0.010865118242997771,0.010249333171065314,0.9826817261627292
2015-08-14,1,0.001320537991622189,0.0015369498002951992,-0.010865118242997771,0.010249333171065314,0.9823947469105484
2015-08-18,1,0.0026332528735131585,0.0030059092463058205,-0.010865118242997771,0.008458160525693727,0.9856757996038907
2015-08-20,1,0.0019430699144025718,0.002238823900380026,-0.010865118242997771,0.008576687682329167,0.9860977021498586
2015-08-24,1,0.0001755715803445761,0.00020542001587968257,-0.009658461792796587,0.008635440494229776,0.9885090418002657
2015-08-26,1,0.0011973684013911784,0.001375980001545585,-0.009658461792796587,0.008489461946145162,0.9902679327832604
2015-08-28,1,0.0009800112006807184,0.0011377253459525513,-0.009744112886846288,0.008458160525693727,0.9896261491163497
2015-09-01,1,0.0005229948043747575,0.0006033793554071178,-0.008542614072832074,0.008489461946145162,0.9890365956618956
2015-09-03,1,0.0007808852301749549,0.0008623309876374545,-0.008890350432532943,0.008257569810959773,0.9895938190272088
2015-09-08,1,0.0011500017548606936,0.0012797061266781081,-0.009115982329215426,0.006586423651230218,0.9905325322518918
2015-09-10,1,0.000742243714782525,0.0008124457965407573,-0.008333237220288454,0.008257569810959773,0.9907575300333282
2015-09-14,1,0.0006269911724953606,0.0006885114489767236,-0.005013191518008914,0.008477744796327263,0.9905079478489823
2015-09-16,1,0.000855878881425862,0.000943890410774074,-0.010471992100223669,0.008281059798199276,0.9898479766578312
2015-09-18,1,0.00024471444985129065,0.0002644471306641268,-0.009115982329215426,0.008281059798199276,0.9907061377516437
2015-09-22,1,0.00030564232914900955,0.00032470460759351173,-0.005013191518008914,0.007758877677949209,0.9912810573294455
2015-09-24,1,0.00042322956061187594,0.00043461640387644496,-0.008333766781165168,0.008583699805476585,0.9899762754525189
2015-09-28,-1,-0.0005953303945604631,-0.0004941405360589716,-0.008333766781165168,0.009546720086136433,0.9893655896874309
2015-09-30,1,0.0007417035560492822,0.0008209544084522402,-0.008382343926063837,0.009546720086136433,0.9899635315296392
2015-10-02,1,0.0006107805764944412,0.000656004841353679,-0.008234223563190007,0.009546720086136433,0.9905707280835646
2015-10-06,-1,-0.00018993445046863754,-0.00011928805210414427,-0.0035907789855028844,0.010067099313696395,0.9903392569615126
2015-10-08,1,0.0006445955819884978,0.0007120116969557988,-0.007611590782909161,0.009546720086136433,0.9907116601177313
2015-10-12,1,0.0009312171064518476,0.0010314813774662324,-0.009066150362479495,0.008883660537060169,0.9893112011277955
2015-10-14,-1,-9.39430837713883e-05,-4.245182788481015e-05,-0.008234223563190007,0.009546720086136433,0.9881647564668822
2015-10-16,1,0.0005730205247010022,0.0005982451291543734,-0.01368703545118536,0.008883660537060169,0.9851769320092653
2015-10-20,1,3.963111306568419e-05,0.00013727211695227292,-0.01368703545118536,0.011363250560481264,0.9826672133708223
2015-10-22,1,0.0005625058574380687,0.000569075882490387,-0.01368703545118536,0.00974527038548006,0.9834312621225973
2015-10-26,1,0.00019815039982923427,0.00024056241468887823,-0.010027468981564706,0.011363250560481264,0.9832908922836964
2015-10-28,1,0.00035311754261535246,0.0003826138381957811,-0.010027468981564706,0.011363250560481264,0.9838260568818522
2015-10-30,1,0.00020918629801114607,0.00024742580580014873,-0.010783395002195308,0.011363250560481264,0.9832559709002773
2015-11-03,1,0.00045624161231397657,0.0004734269181386065,-0.010783395002195308,0.00915289573674332,0.9837296816746877
2015-11-05,1,0.0005164860778063879,0.000526620374447093,-0.01215710114480444,0.01188468366132554,0.9830942655793821
2015-11-09,-1,-0.0005704940428114756,-0.000460820398904902,-0.009616906916795526,0.01188468366132554,0.9850536185245441
2015-11-11,-1,-0.0016580668997546325,-0.0014002168443827826,-0.007808822889018711,0.011066468634944553,0.9864260134216843
2015-11-13,-1,-0.0025507417070186836,-0.002209480363821855,-0.005067524918594236,0.011066468634944553,0.9885604092624909
2015-11-17,-1,-0.0013196337788067072,-0.0011301707534241297,-0.006897991948823534,0.00706965535936285,0.9907549707602472
2015-11-19,-1,-0.0016365827309942546,-0.0013762721905220211,-0.008060798229228911,0.00706965535936285,0.9896922743041667
2015-11-23,-1,-0.0005767228842281896,-0.0004408149579519742,-0.008060798229228911,0.006298358113447192,0.9910969987812023
2015-11-25,1,0.00015861935858127763,0.00017368528103249678,-0.008060798229228911,0.006298358113447192,0.9909156920400283
2015-11-30,-1,-0.0006769608786808738,-0.0005457868423038065,-0.006897991948823534,0.009933756254504622,0.9907573012339616
2015-12-02,-1,-0.00011038188338810614,-7.618934263942715e-05,-0.006897991948823534,0.009933756254504622,0.9903399464549516
2015-12-04,1,1.703298476000841e-05,4.9685014120416583e-05,-0.006421328894221552,0.009933756254504622,0.9909278028094756
2015-12-08,1,4.442527462348168e-06,4.169749159875327e-05,-0.006897991948823534,0.009933756254504622,0.9898458930656956
2015-12-10,-1,-0.00023254116581791168,-0.00016121745909791597,-0.008293165347054066,0.011707745954070169,0.9879515167610198
2015-12-14,-1,-0.0004261013225940721,-0.00032800019019056496,-0.009250816765169242,0.01283775830203578,0.9872073566898231
2015-12-16,-1,-0.00010298081158071655,-3.411224391300092e-05,-0.01469089885608728,0.01183835431937661,0.9871862238110932
2015-12-18,-1,-0.0008097313984788998,-0.0006956482306125268,-0.0072610699096839065,0.01183835431937661,0.9880539633129054
2015-12-22,-1,-0.00012570849500868653,-9.489980004340848e-05,-0.0072610699096839065,0.01283775830203578,0.9876264205733439
2015-12-24,-1,-8.324055657920457e-05,-5.079872570147969e-05,-0.0072610699096839065,0.013130349573712986,0.9877329517433371
2015-12-29,-1,-4.6217214840377864e-05,-5.508066513540297e-06,-0.007912534357028364,0.011892000314993371,0.9881460998321929
2015-12-31,-1,-0.00016960109024041347,-0.000131759492467964,-0.007912534357028364,0.013547972981413295,0.9867430255684314
2016-01-05,1,0.00033284467222530255,0.00035523964431174516,-0.010580255125299946,0.013130349573712986,0.9865883697419269
2016-01-07,-1,-0.0003602844179712198,-0.0003094027964400623,-0.012461891732290691,0.013130349573712986,0.9851092476374526
2016-01-11,1,0.00016221516672728346,0.0002836852204839281,-0.010580255125299946,0.013547972981413295,0.9867681645890638
2016-01-13,-1,-0.0007468922269576151,-0.0007042336328118706,-0.010580255125299946,0.012023653599820296,0.9870689283476181
2016-01-15,-1,-0.0017477252672235461,-0.0014863146149420182,-0.007912534357028364,0.014265025416356476,0.9857259148705839
2016-01-20,-1,-0.0011130969710300876,-0.0009835754548124537,-0.004701097619923949,0.014265025416356476,0.9863096423525889
2016-01-22,-1,-0.0007373057930541972,-0.0006372544714663708,-0.004701097619923949,0.015240616797950265,0.9864776623653045
2016-01-26,-1,-0.0006318068215918941,-0.0005199542861093387,-0.005285335746464516,0.020416773342945047,0.9860334678031432
2016-01-28,-1,-0.00015784683039439876,-0.0001429806029329842,-0.00407133278368393,0.020416773342945047,0.9856182381991478
2016-02-01,1,0.0011061880558847624,0.0012869856174819283,-0.0064772483110485165,0.018895068913232834,0.9858878340057159
2016-02-03,1,0.000526678930892066,0.0006058106189153956,-0.00407133278368393,0.018895068913232834,0.9866005993097948
2016-02-05,-1,-0.0017741187617444218,-0.0015664714195918784,-0.0026095481367006514,0.018895068913232834,0.988723177357908
2016-02-09,1,1.321465051110745e-05,3.34465742536881e-05,-0.0031563273612448006,0.013108173317840432,0.9901100809980986
2016-02-11,-1,-0.0011223104957956203,-0.00099366975199209,-0.0009252256435561908,0.013108173317840432,0.9906117920068598
2016-02-16,1,0.0006389361015701377,0.0007336860095138058,-0.0009252256435561908,0.00736836937709344,0.9931501326541431
2016-02-18,1,0.0007155827601990582,0.0008187985203709891,-0.00039758501871535934,0.008422685741117028,0.9928869474941925
2016-02-22,1,0.0005975037368918898,0.000613150347241748,-0.0005229846882803407,0.007860250857309039,0.9933403534362378
2016-02-24,1,0.0016426212822657077,0.0018732790473721833,-0.0006099536309108439,0.00736836937709344,0.9945932355549568
2016-02-26,1,0.0021063493054830117,0.0023967824045268457,-0.0009629192054421424,0.005709246059466086,0.9945307316462664
2016-03-01,1,0.001780988794444092,0.001994859328148672,-0.0006099536309108439,0.005709246059466086,0.9959468981576158
2016-03-03,1,0.0020345956284874714,0.0023233298589333167,-0.0006099536309108439,0.0059507151273188764,0.9958585123072268
2016-03-07,1,0.0021345503618937518,0.00246627658276567,-0.0015656131019168415,0.0059507151273188764,0.9951039106260244
2016-03-09,1,0.0014526092883735977,0.0016348794394303733,-0.0018563292479600473,0.0059507151273188764,0.9944193313172855
2016-03-11,1,0.001896712315524149,0.0021672935349610076,-0.0031430087740342205,0.005246728935339383,0.9941005813158315
2016-03-15,1,0.0021864617399614834,0.002508593750145452,-0.0031430087740342205,0.0077742197072097185,0.9936603543345647
2016-03-17,1,0.002759715544669426,0.0031772884442803906,-0.003984699081575224,0.0077742197072097185,0.993218393661633
2016-03-21,1,0.0025067310977599736,0.0028549668333176254,-0.003984699081575224,0.006055904981835905,0.9936089701631032
2016-03-23,1,0.002618711772008752,0.0029976218068013764,-0.00507567092914508,0.006055904981835905,0.9932169314311912
2016-03-28,1,0.0024729996669997545,0.0028219199332633694,-0.004703920765245057,0.004573804241731115,0.9934398624396654
2016-03-30,1,0.0029585555065257483,0.003395371451050658,-0.004703920765245057,0.005995341653420934,0.9933100604754919
2016-04-01,1,0.003016044352177133,0.0034639713151300607,-0.008289758055453551,0.005080947891959876,0.9922136409853007
2016-04-05,1,0.001655566348093907,0.0018339583952217567,-0.008289758055453551,0.007577335932522187,0.9917609961958641
2016-04-07,1,0.0005501327825869879,0.0005699455582768233,-0.006639451848575525,0.007577335932522187,0.9926285941008017
2016-04-11,-1,-0.000885673272383774,-0.0006152851269783277,-0.006135589425447462,0.0077742197072097185,0.9924611559308298
2016-04-13,1,0.0007089089154068181,0.000730383313333615,-0.00836841183889317,0.005080947891959876,0.9906505812076278
2016-04-15,1,0.0008068599851305475,0.0008172365529739128,-0.010156385784125864,0.0036000086124837165,0.9902201344104085
2016-04-19,1,0.001502404719419015,0.001650328743176751,-0.010156385784125864,0.005869024413461732,0.9883852732976527
2016-04-21,1,0.0012020804287065363,0.0013349382174687211,-0.011077745854043447,0.0077944541658561475,0.987774686551742
2016-04-25,1,0.0008321385704916372,0.0008778613276988289,-0.011077745854043447,0.0077944541658561475,0.9874204056801735
2016-04-27,1,0.0012392074600068863,0.001346636634575086,-0.011077745854043447,0.005797063315943283,0.9877282493313464
2016-04-29,1,0.000534971245184965,0.0005626580133927279,-0.009831200936973018,0.008378350858861941,0.9882859953881057
2016-05-03,1,0.0010544037797742272,0.0011529285426662274,-0.007638196014908719,0.00741319402481118,0.9894682674731732
2016-05-05,1,0.0007298916631613874,0.0007765353681867621,-0.008004243161428618,0.00741319402481118,0.9891965239196499
2016-05-09,1,0.0010232481071393046,0.0010959242362095119,-0.008004243161428618,0.0065365644584584,0.9895162021003515
2016-05-11,-1,-0.0002544158977291835,-0.00019318064717467148,-0.005948182920305081,0.00741319402481118,0.9910536035788856
2016-05-13,-1,-0.001975662497110389,-0.0016460708505592683,-0.005948182920305081,0.00741319402481118,0.9912874346223824
2016-05-17,-1,-0.0006917298198483346,-0.0005463795062486796,-0.005948182920305081,0.0065365644584584,0.993158011068556
2016-05-19,1,0.00024063340155285745,0.000270021137298039,-0.004968527931398792,0.005492908239229166,0.9942658731272046
2016-05-23,-1,-0.000330813479673077,-0.00024746786131834154,-0.0037573289435679095,0.00741319402481118,0.9939081564710224
2016-05-25,-1,-0.00015112132516661574,-6.778711936878927e-05,-0.0037573289435679095,0.0067208302692361626,0.9941334101765831
2016-05-27,1,0.0007329300416572483,0.0007872921011965841,-0.005948182920305081,0.004618431381167459,0.9926631023346176
2016-06-01,1,4.3988602834290475e-05,0.00012790459159558694,-0.0047048903386752595,0.006037602078075431,0.9916262767091328
2016-06-03,-1,-0.0006391522263335866,-0.0004391852133447951,-0.0037573289435679095,0.008690974453169385,0.9915901343250677
2016-06-07,-1,-0.0011418642149217083,-0.0008575272312665127,-0.0037573289435679095,0.00999672244084763,0.9912262949452406
2016-06-09,-1,-0.0005823361746734918,-0.00036408074386659703,-0.004385155237383338,0.012214624404930352,0.990622555807428
2016-06-13,-1,-0.001570438880328203,-0.0012258039755423914,-0.0035080364729351138,0.012214624404930352,0.9913325601636901
2016-06-15,-1,-0.001327301220591246,-0.0010376684629822362,-0.003717311904206923,0.012214624404930352,0.991403712309651
2016-06-17,-1,-0.0011009059785020523,-0.0008570199336247009,-0.003717311904206923,0.012747725611285706,0.9904110495258239
2016-06-21,-1,-0.0005549210824354761,-0.0003694013305480635,-0.003717311904206923,0.012272342546166597,0.99106620969891
2016-06-23,-1,-0.00030254486071145927,-0.00020364637540180983,-0.004390155348843004,0.012272342546166597,0.9904337512834868
2016-06-27,-1,-0.0017787266175661985,-0.0014868265929145177,-0.003180293141973646,0.012272342546166597,0.9916297291369756
2016-06-29,-1,-0.001972738368917195,-0.0015444902300311828,-0.003180293141973646,0.009547135277849735,0.9934947648917366
2016-07-01,-1,-0.0008793042614898026,-0.0006736672161350083,-0.003054449494088933,0.006642910882827063,0.9938428390905891
2016-07-06,-1,-0.0012382034612616513,-0.0009270639156716764,-0.003054449494088933,0.005563248233677473,0.9935469286837675
2016-07-08,1,0.00017483124247065062,0.00023926022047019227,-0.0027565701582940513,0.006227906992166318,0.9941766774538177
2016-07-12,-1,-9.500487404227561e-05,-1.96065413603111e-06,-0.0034526193559752246,0.006227906992166318,0.9937696073093625
2016-07-14,-1,-0.00015715224501519677,-8.03413994969954e-05,-0.0009534536182475161,0.008055284871482753,0.9930798679379617
2016-07-18,1,0.0006119533692175382,0.0006474060096207793,-0.00048639379367651373,0.007367432169823579,0.9941059548505357
2016-07-20,1,0.0008579243549997002,0.0009593452813165555,-0.0021249014995080345,0.007367432169823579,0.9914026288941163
2016-07-22,1,0.0009311290628046782,0.0010408896698758138,-0.0021200918896852475,0.007367432169823579,0.9909785099450326
2016-07-26,1,0.0012436857737370469,0.0013886031881925164,-0.004864828422295041,0.006227906992166318,0.9912356902801973
2016-07-28,1,0.0010441366165305458,0.0011453999530963534,-0.004864828422295041,0.006227906992166318,0.9910897516960533
2016-08-01,1,0.0010544557372517988,0.0011473706800193362,-0.004864828422295041,0.005799980281584866,0.991100669884855
2016-08-03,1,0.0009067924984851645,0.0009915933490915292,-0.004864828422295041,0.005799980281584866,0.9914484362666731
2016-08-05,1,0.0012595662870015377,0.0014001251179423043,-0.004864828422295041,0.0030524218505866606,0.9918217827043075
2016-08-09,1,0.0009558886224719659,0.0010813700331504504,-0.003457194519224226,0.0030524218505866606,0.9923113443804505
2016-08-11,1,0.0011949820299698513,0.001353886844058342,-0.004940829661262768,0.0027364550897033086,0.9911574901044248
2016-08-15,1,0.0013828056969489226,0.0015693704282747798,-0.00735567989399832,0.0027364550897033086,0.990074702877261
2016-08-17,1,0.00018106375743311343,0.00020605629190750872,-0.004940829661262768,0.0027364550897033086,0.9928285713815501
2016-08-19,1,0.0009351995848104553,0.001078041383360975,-0.004993870676520157,0.0008797693333636183,0.9934390005715034
2016-08-23,1,0.000559724711274122,0.0006567003290718608,-0.004515421581985899,0.0030359941398191794,0.9932289629605406
2016-08-25,1,0.0005153375025315767,0.0005764401729510522,-0.005266693545963192,0.00404707069662227,0.9928688771074179
2016-08-29,0,-1.642064033777385e-05,2.1073949694176022e-05,-0.007468334282022658,0.00404707069662227,0.9925541915853783
2016-08-31,-1,-0.0004542070667398938,-0.00035343586779594977,-0.008005025356180449,0.00404707069662227,0.9924346862922934
2016-09-02,1,0.00012783698665281938,0.00013109694911229373,-0.008005025356180449,0.005029373141783542,0.991658988783985
2016-09-07,1,0.00015870488822059835,0.00017816136341372146,-0.008005025356180449,0.005029373141783542,0.9918601843065333
2016-09-09,-1,-0.0009750940338122786,-0.0008594709611131587,-0.00632274141953495,0.005029373141783542,0.9933834346949965
2016-09-13,-1,-0.0013198376796457177,-0.0011452157313619061,-0.00632274141953495,0.005029373141783542,0.9936334152971142
2016-09-15,-1,-0.0006965152992203927,-0.0005999470791091472,-0.006598013912511204,0.005029373141783542,0.9928916122995715
2016-09-19,-1,-0.0007176171851408979,-0.0006368611628436044,-0.00724714482357751,0.005029373141783542,0.992443072731488
2016-09-21,-1,-0.0005484409997667207,-0.000448662313185509,-0.00724714482357751,0.0016236737512049016,0.9931001245114114
2016-09-23,-1,-0.00047973348022373126,-0.000415843363344298,-0.00724714482357751,0.0012807499838874195,0.9933922431358116
2016-09-27,-1,-0.0006779783937451874,-0.000581037945436486,-0.007129899261810386,0.0030717673441200007,0.9931934544084243
2016-09-29,-1,-0.0009967483702888783,-0.0008843190736247178,-0.006737771390038082,0.004671415848770186,0.9931528154168779
2016-10-03,-1,-0.0015257288275697038,-0.0012865251875735385,-0.006737771390038082,0.004099776474582517,0.9936344074761594
2016-10-05,-1,-0.002232071509404282,-0.0018672915187697198,-0.007666417256158142,0.004099776474582517,0.9928122871283556
2016-10-07,-1,-0.001966318251913938,-0.0016814080426946457,-0.009064411902551545,0.004099776474582517,0.9923838143816883
2016-10-11,-1,-0.0011089472671327563,-0.0009574649687131971,-0.008712675217250174,0.004099776474582517,0.9924048173868146
2016-10-13,-1,-0.001433968354461015,-0.0012150576972318654,-0.004304352073277314,0.004671415848770186,0.9922355485244123
2016-10-17,-1,-0.0015995313430673533,-0.0013815828962152252,-0.003622912693513242,0.004671415848770186,0.9920486305269282
2016-10-19,-1,-0.0009660561819211889,-0.0008485026672564867,-0.008120795992994697,0.007135302096469361,0.9900191668181729
2016-10-21,-1,-0.0010693977847591454,-0.0009371485728400111,-0.008120795992994697,0.009318065268177484,0.9892976113929224
2016-10-25,-1,-0.001128831944286631,-0.0009829851866159883,-0.003481675352817748,0.009394665526357647,0.989013397240735
2016-10-27,-1,-0.0016112587116445271,-0.001404519706715979,-0.0016207766396061374,0.009394665526357647,0.9895614381285127
2016-10-31,-1,-0.0007581443132012122,-0.0006759291463422801,-0.0036554776426822805,0.009394665526357647,0.9898274731909978
2016-11-02,-1,-0.0015736771231128358,-0.0013643352151097965,-0.006334216512962681,0.009394665526357647,0.990124686661884
2016-11-04,-1,-0.0018761589819540968,-0.001632431822141279,-0.006307478664862361,0.009394665526357647,0.9902663488369893
2016-11-08,-1,-0.0013133231416264852,-0.0011396497108046417,-0.006307478664862361,0.00939202802686595,0.9907387414625286
2016-11-10,-1,-0.00030541345190235444,-0.0002767919952982527,-0.006307478664862361,0.004280204214453874,0.9922057201287179
2016-11-14,-1,-0.0012526539599010808,-0.0010967195571641262,-0.006307478664862361,0.008452051876842958,0.9915662425156625
2016-11-16,-1,-0.0005862301573931539,-0.0004580353968856147,-0.006307478664862361,0.004280204214453874,0.9934057041495294
2016-11-18,1,0.00042802106827735176,0.0004779757300846422,-0.007365474918550271,0.0020793296926903027,0.9937556468256875
2016-11-22,1,0.0008233494912388186,0.000928016782732187,-0.007365474918550271,0.0020793296926903027,0.9942968447024629
2016-11-25,1,0.0009294281759680192,0.001068589177570465,-0.007683212166216325,0.0020793296926903027,0.9937502079365927
2016-11-29,1,0.0010636710687019872,0.0012440114098177528,-0.008434947618917664,0.0017178681071813226,0.9933583401775281
2016-12-01,1,0.0004907707158591417,0.000583173930036031,-0.0078445722693659,0.002406657316078427,0.9936221832113701
2016-12-05,1,0.0003296135158298726,0.00038552741333776797,-0.0078445722693659,0.004522310017312113,0.9931906890251003
2016-12-07,1,0.0009526591143983125,0.0011191787023711838,-0.0078445722693659,0.002725681721526964,0.9931322006583
2016-12-09,1,0.0009302733927172512,0.0011006670484743739,-0.0078445722693659,0.004522310017312113,0.9929880961346532
2016-12-13,1,0.0010302642370515545,0.0012189049505016755,-0.006515847069063807,0.002725681721526964,0.9937258627931036
2016-12-15,1,0.0009855692725764917,0.0011927214884323448,-0.006032167838847139,0.004522310017312113,0.9938912222338864
2016-12-19,1,0.000891659780395596,0.0010885364103882186,-0.006032167838847139,0.004522310017312113,0.9932515683167822
2016-12-21,1,0.0011895140696475718,0.0014375434523548193,-0.006515847069063807,0.004522310017312113,0.9928014188596197
2016-12-23,1,0.0007657232077133689,0.0009418371752477565,-0.006032167838847139,0.005348747246969803,0.9931006348520574
2016-12-28,1,0.0005137291652689738,0.000676844091125078,-0.006032167838847139,0.005348747246969803,0.9930824753714307
2016-12-30,1,0.0003160618614995518,0.0004344888473965181,-0.005178475475725489,0.00603384382711896,0.9929887226106641
2017-01-04,1,0.0012835372800485839,0.0015617465788546451,-0.005178475475725489,0.0038759095612381977,0.9934595620328368
2017-01-06,1,0.0012020815537004594,0.001488220632831412,-0.004177935386139762,0.005897276212858236,0.9935921597915373
2017-01-10,1,0.0007655701490634396,0.000911145150953388,-0.004177935386139762,0.004156624489708714,0.9937010027467447
2017-01-12,1,0.0008218691291541628,0.0010071493810732612,-0.0030227823738213696,0.007391540597481344,0.9933786983174225
2017-01-17,1,0.0009624644170814996,0.0011490001062953428,-0.0030227823738213696,0.007391540597481344,0.9930591375965692
2017-01-19,1,0.00028915224201546576,0.0003948086294020687,-0.0030227823738213696,0.007391540597481344,0.9931470300613728
2017-01-23,1,0.00011905210512170246,0.0001957578852898651,-0.0030227823738213696,0.007391540597481344,0.9931985049376141
2017-01-25,1,0.00039901609230300804,0.0004897846295528149,-0.0030227823738213696,0.007391540597481344,0.9928415076504964
2017-01-27,-1,-9.582755858158371e-05,-6.261731919770206e-05,-0.0018779770975135787,0.007391540597481344,0.992998663728794
2017-01-31,1,0.0003037076793966921,0.000387221025671185,-0.0018779770975135787,0.006042808397856151,0.9937421385538189
2017-02-02,-1,-0.000412561741659615,-0.00034331437475883394,-0.0018779770975135787,0.007391540597481344,0.9929310067509824
2017-02-06,-1,-0.0003253648628468098,-0.00025664494223659007,-0.0023195763218860125,0.006227610528394726,0.9931079392700187
2017-02-08,1,1.0424748688173822e-06,1.1186165595769425e-05,-0.003047572870819605,0.006227610528394726,0.9929708863845965
2017-02-10,1,0.0004704123154880869,0.0005087306979375103,-0.003047572870819605,0.004696375520820613,0.9937587125202295
2017-02-14,1,0.0011348816946975542,0.0012962131151305321,-0.003047572870819605,0.004696375520820613,0.9940889045885332
2017-02-16,1,0.00047555749836328254,0.0005421991257421959,-0.0023195763218860125,0.004696375520820613,0.9949252123539842
2017-02-21,1,0.00012304715160512666,0.00012760104302934774,-0.0023195763218860125,0.003491565594559618,0.9949771759487207
2017-02-23,1,0.0003918731696610782,0.0003945970301563187,-0.0027005851555098382,0.003491565594559618,0.9954746750215879
2017-02-27,1,0.0008760026782036024,0.0009537996751862071,-0.0027005851555098382,0.0021413132376762855,0.9956977132076983
2017-03-01,1,0.0006785499843421148,0.0007227119453508309,-0.0027005851555098382,0.0034581419309352187,0.9951784300927651
2017-03-03,1,0.0006289616866187171,0.0006474878994064383,-0.0027005851555098382,0.0028835865062591345,0.9956427992313281
2017-03-07,1,0.0005177743989787221,0.0005362569477385406,-0.003628010406189668,0.0028835865062591345,0.9944984892005623
2017-03-09,1,0.0004062900203408864,0.00041383620856413146,-0.0041652397672194445,0.0034581419309352187,0.9938540531194476
2017-03-13,1,8.933622379022596e-05,0.0001489618980951675,-0.008798572453918895,0.0032624641794089253,0.9936228165918463
2017-03-15,1,0.0006361150694863215,0.0006472455921484855,-0.008798572453918895,0.002122831387574104,0.9934943814253263
2017-03-17,1,0.0005362144193439257,0.0005408504062308983,-0.008798572453918895,0.002122831387574104,0.9931057983928296
2017-03-21,0,-2.7990976309824118e-05,4.323209162430025e-05,-0.005384631097993028,0.004622836459767635,0.9937327190853003
2017-03-23,-1,-0.0001430921728249265,-4.1051677459615164e-05,-0.005384631097993028,0.004777545383971351,0.9931584122215038
2017-03-27,1,6.331686633061234e-05,0.0001233808768484084,-0.005384631097993028,0.004777545383971351,0.9930756782590321
2017-03-29,1,0.0002286451384637321,0.0002978353638953377,-0.005384631097993028,0.002703046525840151,0.9938296875620362
2017-03-31,-1,-0.0004896601733672071,-0.00031161417611694437,-0.005533399853171351,0.002703046525840151,0.9934502342111293
2017-04-04,-1,-0.00138127598653157,-0.001124943717921938,-0.003768783280496137,0.004777545383971351,0.9936502238842286
2017-04-06,-1,-0.0006225358875935302,-0.0005049635108759431,-0.0035672517109956374,0.0033627492610325146,0.9946773264658897
2017-04-10,-1,-0.001424430342999288,-0.0011819321836045193,-0.0026973354421686944,0.004777545383971351,0.9945391419728781
2017-04-12,-1,-0.00022986013966875545,-0.0001813543971688876,-0.0035672517109956374,0.004777545383971351,0.9936352328388071
2017-04-17,-1,-0.00013535880383666482,-0.00013032350842131178,-0.003703932350448605,0.004777545383971351,0.9924172377123519
2017-04-19,1,0.00038582599926443803,0.00048481883966006525,-0.004459937181583079,0.005270512040354808,0.9901250592742475
2017-04-21,1,0.0010337202735352141,0.0012177228686842667,-0.004459937181583079,0.002254955950212067,0.9906501518286561
2017-04-25,1,0.0010360273527795056,0.0012105975778549244,-0.006932692524394178,0.0037146671253068062,0.9894562944848965
2017-04-27,1,0.000914256085216218,0.0010480027598990045,-0.007088339024856671,0.008009265258328537,0.9883533585816184
2017-05-01,1,0.0003464168664681598,0.0003949138701448316,-0.006383863681184659,0.008009265258328537,0.9888055988240497
2017-05-03,1,0.0010404023876087521,0.0011995201356742905,-0.006383863681184659,0.006879605458629527,0.9889658777760948
2017-05-05,1,0.0008137467710210677,0.0009385687202985659,-0.008970132802815613,0.006879605458629527,0.9887134690751838
2017-05-09,1,0.0009534835098986686,0.0011021317566100306,-0.009707524677259086,0.005900806743010076,0.9882767728654928
2017-05-11,1,0.0009641264620181158,0.0010931119857218027,-0.009707524677259086,0.005900806743010076,0.9885670911455087
2017-05-15,-1,-0.00017968666852388463,-0.0001493642072984811,-0.008970132802815613,0.005900806743010076,0.9901574214133732
2017-05-17,-1,-0.0009608115538324049,-0.0008512435424211594,-0.008970132802815613,0.0034330532537382268,0.9920501688558044
2017-05-19,-1,-0.001457430024783846,-0.0012689624424924912,-0.008970132802815613,0.0034330532537382268,0.9923254194893733
2017-05-23,-1,-0.001682210317381706,-0.0014431010615666969,-0.009255349699750937,0.0023356546735114384,0.9917220357702528
2017-05-25,-1,-0.0012624695199841545,-0.0010685738145603055,-0.009527574712393844,0.0023356546735114384,0.992021850184413
2017-05-30,-1,-0.0011263834632724767,-0.0009811613966959126,-0.009527574712393844,0.0034330532537382268,0.9919316660601771
2017-06-01,-1,-0.0007978460243817762,-0.0006764915504814605,-0.009527574712393844,0.0021669630414792953,0.9914001688020763
2017-06-05,-1,-0.0010111350588995777,-0.0008813733252061749,-0.009527574712393844,0.004121543264902401,0.9907571190270512
2017-06-07,-1,-0.0016263142585413051,-0.001407839807275139,-0.009527574712393844,0.0033143111316822826,0.9909262819548514
2017-06-09,-1,-0.0015755174625964466,-0.0013833110706634295,-0.009527574712393844,0.0013905579134701198,0.9912456540427046
2017-06-13,-1,-0.0019193416206964272,-0.0016495506810657685,-0.009527574712393844,0.0018428094136116156,0.9912599182050766
2017-06-15,-1,-0.0027868514228682564,-0.0024020952484315847,-0.008576766121610787,0.005498788703064745,0.9910944688867986
2017-06-19,-1,-0.0025810115084376984,-0.0022436385056208027,-0.008576766121610787,0.0076784124786745,0.9905263406634952
2017-06-21,-1,-0.004366389037497665,-0.0037952797439625473,-0.006448840602232183,0.0076784124786745,0.9913702128321958
2017-06-23,-1,-0.003868231152862292,-0.0033772277745654847,-0.00867779200269153,0.005758467918380377,0.9906961473550362
2017-06-27,-1,-0.0034817206965052716,-0.0030366190684567905,-0.00867779200269153,0.005758467918380377,0.9900350069250277
2017-06-29,-1,-0.002793972627554582,-0.0024402235641619433,-0.00867779200269153,0.005758467918380377,0.9901624958309285
2017-07-03,-1,-0.00250830426718751,-0.002193523867023945,-0.006812949781812979,0.006379249877952512,0.9902898638927503
2017-07-06,-1,-0.00253168476369129,-0.0022510879666903525,-0.006812949781812979,0.006379249877952512,0.9903702889087135
2017-07-10,-1,-0.002996899837533915,-0.0026874440833293814,-0.003967677131669194,0.008028678413111372,0.9904707651493613
2017-07-12,-1,-0.003024437303935451,-0.0026865508305266646,-0.003974266741622108,0.00858482291966631,0.990214228208117
2017-07-14,-1,-0.002685652808476205,-0.0023781983695984996,-0.006812949781812979,0.00858482291966631,0.989883251290552
2017-07-18,-1,-0.0021477376028673496,-0.0019418531001832154,-0.009816937263647182,0.00858482291966631,0.9891785968481175
2017-07-20,-1,-0.0019862802966038834,-0.0018225538369095382,-0.010554095238755685,0.010532995603262306,0.9879913217018702
2017-07-24,-1,-0.003334135151455003,-0.0030138629966385546,-0.0033500238693412294,0.011546824756196818,0.9883514006428166
2017-07-26,-1,-0.002177091973704353,-0.0020052208545121705,-0.0030662363822087876,0.010532995603262306,0.9898115564911883
2017-07-28,-1,-0.0015384868079812465,-0.001431421360549169,-0.004961925062850198,0.010401588673869717,0.9899613767884339
2017-08-01,-1,-0.0009327822583973047,-0.0008923511062108027,-0.005682680567710526,0.008785275098732072,0.9906745338792388
2017-08-03,-1,-0.0013903066855012608,-0.0013025965263996735,-0.003596865314247586,0.008785275098732072,0.9905674681587275
2017-08-07,-1,-0.0004138976391265727,-0.0003528487925243271,-0.003596865314247586,0.008625738450501672,0.9916518848295915
2017-08-09,0,-6.618550803212106e-05,4.5535664669822196e-05,-0.0022090842290502168,0.008259583556141894,0.991968502724114
2017-08-11,-1,-0.0003096913094069047,-0.0002549868714193645,-0.0022090842290502168,0.007775637563577156,0.992465617157892
2017-08-15,-1,-0.0006021228094175377,-0.0005727181884712172,-0.0008865173624308379,0.008259583556141894,0.9932396640959192
2017-08-17,-1,-0.0004140226442451787,-0.00035643802857418863,-0.0008865173624308379,0.007387907733763201,0.9947030751768905
2017-08-21,1,0.0005495854141625478,0.0007707147787115478,-0.003936924466948375,0.006472072482865803,0.9951293470126003
2017-08-23,1,0.0005573938562011265,0.0007671792680219679,-0.004323107477954935,0.006472072482865803,0.9946753343943996
