JNU-Tangyin/eata/results/Batch4_SP500/Batch4_SP500-FLS.csv
Date,Action,Predicted_Q25,Predicted_Q75,Actual_Q25,Actual_Q75,RL_Reward
2010-12-14,1,0.0,0.0020986345260155235,-0.007611371340823906,0.009063005186716882,0.9929790539093675
2010-12-16,1,0.0032362267047879806,0.0033969636343709033,-0.008479891435811345,0.009218390761785853,0.9907904036885586
2010-12-20,1,0.003255840818132227,0.0034805315760318826,-0.008509115651438783,0.009218390761785853,0.9900954232279712
2010-12-22,0,0.0,0.0,-0.008509115651438783,0.00902679644677684,0.9902410377642925
2010-12-27,0,0.0,0.0,-0.00765586838828647,0.009218390761785853,0.9895560968421648
2010-12-29,-1,-0.003148082090907692,-0.002860998017489372,-0.007509896071869456,0.009822715880085719,0.9875112351302405
2010-12-31,0,0.0,0.0,-0.007509896071869456,0.01127353483723735,0.9874274112581601
2011-01-04,0,0.0,0.0,-0.007180308030172152,0.012670402025880902,0.9871213395305363
2011-01-06,-1,-0.021585522795371414,-0.018458773138106465,-0.0035895992317691297,0.015754435773607574,0.9738340270952897
2011-01-10,0,0.0,0.0,-0.003945968203942484,0.015754435773607574,0.9865896043719198
2011-01-12,0,0.0,0.0,-0.004848184944428634,0.013590884990611335,0.9868558023134454
2011-01-14,0,0.0,0.0,-0.003945968203942484,0.013590884990611335,0.9882326504616983
2011-01-19,-1,-0.0020608573075779025,-0.0013554957718073888,-0.003945968203942484,0.013590884990611335,0.9878747247752224
2011-01-21,-1,-0.002128549076110088,-0.001412842356311139,-0.003326794801618688,0.013590884990611335,0.9886231764658219
2011-01-25,-1,-0.0008213313774500478,-0.0003360983260238509,-0.004896167143383669,0.011949218431548822,0.9871779521757195
2011-01-27,1,0.0015159589660172206,0.0016521904176142678,-0.004896167143383669,0.0118020738697791,0.9877859587831558
2011-01-31,1,0.0017453240064652072,0.001872802563562718,-0.008589940027329681,0.009528020465697782,0.9873899956626014
2011-02-02,1,0.003006317410304928,0.003106171313684339,-0.006161852543676095,0.0118020738697791,0.9862614958603853
2011-02-04,1,0.00382559809949719,0.004053616656568141,-0.013531255335498864,0.009528020465697782,0.9857105438190188
2011-02-08,1,0.0037192935915338014,0.003907729994101157,-0.013531255335498864,0.007467546959558653,0.9855044553556538
2011-02-10,1,0.0038326779268544565,0.0040867504707829865,-0.01731804133964347,0.009528020465697782,0.983916933668204
2011-02-14,1,0.003618398090749078,0.003840977695304973,-0.018414319102811553,0.013383398669265337,0.9825292117879436
2011-02-16,1,0.0032864421034395895,0.003479491866811283,-0.019318426595341272,0.01805778265802741,0.9818516438091172
2011-02-18,1,0.002878268284698687,0.003006890688836237,-0.019318426595341272,0.0192319107718397,0.9812034041078918
2011-02-23,1,0.0011396860192620676,0.0011912685491784966,-0.013181642494273097,0.0192319107718397,0.9841608294815825
2011-02-25,1,0.0015402538424158525,0.0015691149681877881,-0.013181642494273097,0.01805778265802741,0.9851789429937173
2011-03-01,1,0.0010715386287158892,0.0011311242729346678,-0.011012413966794277,0.01805778265802741,0.9857322587010049
2011-03-03,1,0.003190682973042406,0.0034433599297791838,-0.011012413966794277,0.01118268335429159,0.9875473555175933
2011-03-07,0,0.0,0.0,-0.001690058405559721,0.012874752853141234,0.987402436161575
2011-03-09,0,0.0,0.0,-0.0015750877150700077,0.012874752853141234,0.9876687480745056
2011-03-11,0,0.0,0.0,-0.0013343072802387453,0.01162493068368712,0.9890860731390587
2011-03-15,1,0.00031854320327498584,0.0003215943811038575,-0.0015750877150700077,0.01118268335429159,0.9882986926990456
2011-03-17,1,0.00034343459974797166,0.00046392288795735567,-0.0013343072802387453,0.010422722533713628,0.9904049063318721
2011-03-21,1,0.0015928005202057562,0.0016292217753097879,-0.0015750877150700077,0.008350511367909161,0.9911450029085686
2011-03-23,-1,-0.0010223765544090592,-0.0006267583227990083,-0.0013343072802387453,0.010444672595707631,0.9890718116289515
2011-03-25,-1,-0.0019085116062948645,-0.0013593139398324252,-0.0013343072802387453,0.01078662384615223,0.9882983983798322
2011-03-29,-1,-0.0021767930890357183,-0.0015693732664281662,-0.0017089094377892833,0.011163020989565745,0.9880536212333638
2011-03-31,-1,-0.00025870709732687535,-7.201849365859629e-06,-0.005366296883208797,0.011163020989565745,0.9864519737886004
2011-04-04,1,0.0008171547632868219,0.0009174017546397925,-0.00860079107402669,0.009987714143433305,0.9864595774696907
2011-04-06,0,0.0,0.0,-0.021602963846476874,0.009987714143433305,0.9847637520070263
2011-04-08,0,0.0,0.0,-0.021602963846476874,0.007870571043815697,0.9842963882069613
2011-04-12,0,0.0,0.0,-0.01595155474142397,0.011639912704630074,0.9853115925375943
2011-04-14,0,0.0,0.0,-0.01595155474142397,0.011639912704630074,0.984722231111606
2011-04-18,-1,-0.0025192492403512496,-0.0018803280436363084,-0.019257009089573236,0.011639912704630074,0.9849192216609051
2011-04-20,0,0.0,0.0,-0.019257009089573236,0.007870571043815697,0.984982117024624
2011-04-25,0,0.0,0.0,-0.02041791347442888,0.0049811059248020435,0.983809466525533
2011-04-27,0,0.0,0.0,-0.02041791347442888,0.004943286256510685,0.9841476718605071
2011-04-29,0,0.0,0.0,-0.019257009089573236,0.006836417737509599,0.985691831855132
2011-05-03,0,0.0,0.0,-0.019257009089573236,0.0070735015277913664,0.9845004856095657
2011-05-05,-1,-0.002335520689666197,-0.001910095618931754,-0.012813701653803319,0.0070735015277913664,0.9857453118976149
2011-05-09,-1,-0.001054838744279192,-0.0007771395559179374,-0.012813701653803319,0.00567439034515695,0.9866477037843097
2011-05-11,-1,-0.001344943659396783,-0.0010192620267613828,-0.0109863683662677,0.0039120667648032655,0.9878496970327826
2011-05-13,-1,-0.00219263719246467,-0.0017459852964926048,-0.017579342484985765,0.0039120667648032655,0.9862226238496106
2011-05-17,-1,-0.0021012581230952995,-0.0017461638963785933,-0.017677948129421382,0.00567439034515695,0.9855433081471424
2011-05-19,-1,-0.001270166028010919,-0.0009928397634702353,-0.019947392831456887,0.00567439034515695,0.9836621431775759
2011-05-23,-1,-0.002289335295275651,-0.001887130098206971,-0.017677948129421382,0.0070735015277913664,0.9832308023913483
2011-05-25,-1,-0.001995462592206424,-0.0016520870221241484,-0.019947392831456887,0.005949293803730076,0.982124717518871
2011-05-27,-1,-0.0012648553993778796,-0.0009728458931207724,-0.019947392831456887,0.0043869228456355725,0.9824397233489511
2011-06-01,-1,-0.003364653848914559,-0.0027844350634649495,-0.017677948129421382,0.007087417880781596,0.9842766150052262
2011-06-03,-1,-0.003665620113603116,-0.003075225416167308,-0.015133942858144667,0.010552224232377082,0.9833562072531409
2011-06-07,-1,-0.0037309730946224456,-0.0031775539297370994,-0.015133942858144667,0.010552224232377082,0.983581166977456
2011-06-09,-1,-0.004386630803707996,-0.00372088284475875,-0.017677948129421382,0.012921680769046638,0.9824725477845655
2011-06-13,-1,-0.006942950975451349,-0.005948686122993731,-0.019735601928642106,0.012921680769046638,0.9823701527776247
2011-06-15,-1,-0.006869635545183474,-0.005885785710475069,-0.019272372467538604,0.010749086684044631,0.9829710422396661
2011-06-17,-1,-0.006153379339050797,-0.005376150168476045,-0.01554256963614038,0.010749086684044631,0.9839577006039559
2011-06-21,-1,-0.004259282900001718,-0.0037754576890633605,-0.01554256963614038,0.010749086684044631,0.9846189767231948
2011-06-23,-1,-0.00501165051528679,-0.0044275099210729085,-0.01422790255564585,0.013588887101415485,0.983538675086384
2011-06-27,-1,-0.00478720770670496,-0.0042638578531186185,-0.015296852224612618,0.013588887101415485,0.9833492900588146
2011-06-29,-1,-0.0036446557372444665,-0.0033260760042490073,-0.021760134533470234,0.010749086684044631,0.9810052216246966
2011-07-01,-1,-0.002769755782462323,-0.0026316587223206194,-0.021760134533470234,0.003978842550619299,0.9820027817621487
2011-07-06,-1,-0.002013400876772554,-0.0018972892193848889,-0.025528536407487132,0.012776942653383184,0.9789877926623569
2011-07-08,-1,-0.0020295504142027517,-0.0019313940721870071,-0.0293570406199855,0.003978842550619299,0.9769371381285697
2011-07-12,-1,-0.003258955167353475,-0.0030201058946761595,-0.0309438745773775,0.014896265010822153,0.9729376092238776
2011-07-14,-1,-0.005679125995439439,-0.005305148243446368,-0.03847820283216485,0.02265549024929822,0.9694217300595853
2011-07-18,-1,-0.004869787530665656,-0.004417084854387706,-0.03847820283216485,0.019335655707803913,0.9700524135963011
2011-07-20,-1,-0.0031948535411569913,-0.0029784892469043632,-0.03847820283216485,0.014011631062155068,0.9700532032517448
2011-07-22,-1,-0.002383180006701028,-0.0022877933915538364,-0.04039712119759532,0.010327609522476905,0.9672794990244232
2011-07-26,-1,-0.0015196908109870164,-0.0014616898850360674,-0.04039712119759532,0.014011631062155068,0.9657527707979076
2011-07-28,-1,-0.004369848496656621,-0.00404313066337577,-0.03802788987996985,0.016616267679748636,0.9672473064938308
2011-08-01,-1,-0.004401782146416301,-0.004054143098456204,-0.03802788987996985,0.024734911553779725,0.9637930879355806
2011-08-03,-1,-0.005346952861632741,-0.004881116302177188,-0.03478865479858149,0.024249364595146816,0.964545446776419
2011-08-05,-1,-0.008317572569902369,-0.007483067654890872,-0.0344275749964805,0.024249364595146816,0.965528982789487
2011-08-09,-1,-0.007401138824492694,-0.006691453166059017,-0.026209591163324157,0.02305687598221203,0.9700910900153136
2011-08-11,-1,-0.005907165707303789,-0.005375992639437806,-0.026209591163324157,0.019173806721592943,0.9730421278906958
2011-08-15,-1,-0.004871989561056406,-0.004498050134452352,-0.026209591163324157,0.02221156837906925,0.9730783756496962
2011-08-17,-1,-0.005119433876009275,-0.004730243233430828,-0.023564920961045864,0.02221156837906925,0.9724299609136415
2011-08-19,-1,-0.007937327232623068,-0.007241672309533386,-0.014720597359072867,0.02221156837906925,0.9760690886494285
2011-08-23,-1,-0.004837636298651779,-0.004525543706399919,-0.02083818378513904,0.019607230740508852,0.9758089330507876
2011-08-25,-1,-0.0061593902139435676,-0.00586660954735818,-0.02083818378513904,0.019607230740508852,0.9758706004830427
2011-08-29,-1,-0.0035988420608176535,-0.003592898065300338,-0.02083818378513904,0.019607230740508852,0.9753377954945546
2011-08-31,-1,-0.0016208126644020556,-0.001342853886448418,-0.026247363468760034,0.01553701494543596,0.974764771663177
2011-09-02,-1,-0.004492173263180025,-0.004348504190065706,-0.03879833605838241,0.01553701494543596,0.9728647955618428
2011-09-07,-1,-0.004107011359664839,-0.004019495381958355,-0.03879833605838241,0.02047663751061681,0.969375906513749
2011-09-09,0,0.0,0.0,-0.02665679277717665,0.02664608118639319,0.9690510105046014
2011-09-13,0,0.0,0.0,-0.02665679277717665,0.03377351364607997,0.9681949999408614
2011-09-15,0,0.0,0.0,-0.028659138097782935,0.040067386071256456,0.9664896314710493
2011-09-19,0,0.0,0.0,-0.03808479350455523,0.040067386071256456,0.9656601979413156
2011-09-21,-1,-0.0037695912607770515,-0.0037542919666100423,-0.028659138097782935,0.04023069979406707,0.9671461317668743
2011-09-23,-1,-0.007998498818355917,-0.007541209617243651,-0.0201448153174915,0.04023069979406707,0.9672457615823382
2011-09-27,-1,-0.0017621788140609396,-0.0017189082809380002,-0.02659515761762196,0.04025224471535567,0.9674862352938689
2011-09-29,0,0.0,0.0,-0.0201448153174915,0.04483826815619763,0.9668190738672053
2011-10-03,0,0.0,0.0,-0.013768169893303081,0.04746174975245907,0.9674610526985166
2011-10-05,0,0.0,0.0,-0.0201448153174915,0.04339429868424502,0.9690815972853375
2011-10-07,0,0.0,0.0,-0.0201448153174915,0.04483826815619763,0.9682705284945807
2011-10-11,0,0.0,0.0,-0.0201448153174915,0.04339429868424502,0.9698029408332804
2011-10-13,0,0.0,0.0,-0.02044750074158914,0.03998428150551702,0.9702527944103333
2011-10-17,0,0.0,0.0,-0.01876324726709807,0.03998428150551702,0.969757728601518
2011-10-19,0,0.0,0.0,-0.01876324726709807,0.03889288214336112,0.971373616559529
2011-10-21,0,0.0,0.0,-0.021810975745831792,0.03889288214336112,0.9716727774620981
2011-10-25,0,0.0,0.0,-0.021810975745831792,0.023397937779698674,0.9740953453705986
2011-10-27,0,0.0,0.0,-0.02726804336881932,0.013863898854917163,0.974750032863862
2011-10-31,0,0.0,0.0,-0.021810975745831792,0.013863898854917163,0.9763453228363655
2011-11-02,0,0.0,0.0,-0.013570150843486669,0.013863898854917163,0.9757830429438716
2011-11-04,0,0.0,0.0,-0.013570150843486669,0.013863898854917163,0.977310717999888
2011-11-08,1,0.011408806564763589,0.012677517149150476,-0.013627701521780528,0.013302713330145481,0.9760777800855858
2011-11-10,1,0.01038814729934455,0.011527163753603503,-0.013627701521780528,0.020080835991394187,0.9761150174725479
2011-11-14,1,0.01031223253210152,0.01140581470658882,-0.020591062479756117,0.013302713330145481,0.975719045864482
2011-11-16,1,0.009932774345588754,0.010974192185706768,-0.02495421469368788,0.007971189375031905,0.974381694616183
2011-11-18,1,0.009141420112517198,0.010102779245255508,-0.020591062479756117,0.0060420313051322274,0.9759318067248455
2011-11-22,1,0.008867544801128658,0.00981195889912509,-0.013447014361441089,0.014293361781695157,0.9762606199392325
2011-11-25,1,0.00775494468959491,0.00856068651846854,-0.011403810593633271,0.014917189119122189,0.9788345399229503
2011-11-29,1,0.003796429985033582,0.004883667888178947,-0.013447014361441089,0.011194650194804302,0.9801465037514573
2011-12-01,1,0.005015750070246255,0.00622355183236934,-0.013447014361441089,0.011194650194804302,0.9821738908750103
2011-12-05,1,0.005065597055519304,0.006262506516499351,-0.013447014361441089,0.015287280828751696,0.9811748923647401
2011-12-07,1,0.009755500252824002,0.010691655184390999,-0.014600595101247598,0.015287280828751696,0.9792074424061143
2011-12-09,0,0.0,0.0,-0.011707894902863603,0.012722251231806862,0.9836412081628529
2011-12-13,0,0.0,0.0,-0.00812008854845116,0.012722251231806862,0.9852858478422477
2011-12-15,0,0.0,0.0,-0.005471419977518156,0.012722251231806862,0.9865064840040203
2011-12-19,0,0.0,0.0,-0.004337217290610496,0.014535579553159494,0.9864463520919704
2011-12-21,0,0.0,0.0,-0.005471419977518156,0.012422920306015543,0.9882917279261585
2011-12-23,1,0.0029610191359422645,0.004300986657387943,-0.005471419977518156,0.01219405302803231,0.9893357374897052
2011-12-28,0,0.0,0.0,-0.0013207545796504675,0.01219405302803231,0.9902765260828088
2011-12-30,0,0.0,0.0,-0.001123504883838348,0.011899345708542099,0.990966162655062
2012-01-04,1,0.002678924539255093,0.002996058830132941,-0.003588002403899365,0.01018967728162912,0.9928228095579346
2012-01-06,0,0.0,0.0,0.00011803317512524793,0.011899345708542099,0.9919684588119481
2012-01-10,0,0.0,0.0,-0.0030659952597948043,0.0093848662814103,0.9928877135818484
2012-01-12,0,0.0,0.0,-0.0010152524010742009,0.01029381283563769,0.9927694541809894
2012-01-17,0,0.0,0.0,-0.0024001301601980895,0.012211752370567807,0.9919588370451432
2012-01-19,1,0.004617931021055887,0.004894935900052045,-0.0030659952597948043,0.011410114604834879,0.9923408363772569
2012-01-23,1,0.005764413628359068,0.006372368678690617,-0.0030659952597948043,0.011410114604834879,0.9925894421061175
2012-01-25,1,0.005767456319722141,0.006472664009869082,-0.0030659952597948043,0.012211752370567807,0.991712876537458
2012-01-27,1,0.0058736797735972025,0.006406691435481871,-0.0037650762420364248,0.012211752370567807,0.9911137637494777
2012-01-31,1,0.005841082283336066,0.006428090416778158,-0.004903654664136949,0.011410114604834879,0.9908887437664324
2012-02-02,1,0.00466265077510517,0.004936768944405357,-0.005008533917051467,0.0070717013465004174,0.9911472141373462
2012-02-06,1,0.004879787373133105,0.005265781490515162,-0.0052176349953039205,0.003558501108589298,0.9896630340670513
2012-02-08,1,0.004947372143304946,0.005369006406896535,-0.005008533917051467,0.0070717013465004174,0.989910126289325
2012-02-10,1,0.005811344498330077,0.006322135249849681,-0.005363073445744377,0.0070717013465004174,0.9887508323540093
2012-02-14,1,0.0029856613586268003,0.0031640608239246575,-0.005363073445744377,0.0070717013465004174,0.9896318971134999
2012-02-16,1,0.0011049860400509667,0.0015978716980400915,-0.006249714466660949,0.006830328536513271,0.9900847957382224
2012-02-21,1,0.001521765073324152,0.0018416853483394775,-0.007954558763983217,0.005439361687496432,0.9893516081766041
2012-02-23,1,0.0022935041056392083,0.0025934552404878884,-0.010430157528290365,0.0034535660082850657,0.9883667560816096
2012-02-27,-1,-0.0014666980155530816,-0.00047415609896274977,-0.00849495412032,0.011736505042996172,0.9882391475135585
2012-02-29,1,0.0017178306807031371,0.0020750353272649255,-0.011986815370586048,0.011736505042996172,0.9869668014490045
2012-03-02,1,0.00105973339258388,0.0014453693926754741,-0.00849495412032,0.011736505042996172,0.9877205608410901
2012-03-06,0,-0.00032567116774794274,0.00019388518535948794,-0.007309490961326428,0.016400837617249746,0.988458178227217
2012-03-08,1,0.0001977874366428595,0.0006209734321914681,-0.00849495412032,0.011736505042996172,0.9885931406449584
2012-03-12,-1,-0.0016535798172051357,-0.0008994595838747216,-0.013026688038998004,0.009570535233929226,0.9874648897494521
2012-03-14,0,-0.0005511835464648183,4.646993702626121e-06,-0.013026688038998004,0.009570535233929226,0.9868919116966504
2012-03-16,0,-7.330561168171316e-05,0.0004458100651894758,-0.013026688038998004,0.008032652801870852,0.9868505394575116
2012-03-20,0,-0.00029231572417956074,0.0001273788793284558,-0.011766993722627057,0.011591028466875878,0.9866624800755558
2012-03-22,-1,-0.0025771606977985145,-0.0020640403774419024,-0.011766993722627057,0.011591028466875878,0.9870102475603797
2012-03-26,1,0.00033207604240360054,0.0006739589465749777,-0.013026688038998004,0.008032652801870852,0.9871004462508772
2012-03-28,1,0.0012938293847740447,0.0013521025700563361,-0.012373975418481307,0.008915213468022633,0.9872078115095898
2012-03-30,1,0.0019387720687650018,0.002011821073765843,-0.012373975418481307,0.013461495132468122,0.9864376516357778
2012-04-03,1,0.0028449863114511286,0.0030355509876084335,-0.013108923258732587,0.013461495132468122,0.9852764779198744
2012-04-05,1,0.0015025619466374697,0.001513068001942348,-0.014059851416674428,0.013461495132468122,0.9836048680240126
2012-04-10,-1,-0.0002291923866123974,-5.0405700180104e-05,-0.009698256454648611,0.013461495132468122,0.985916295746683
2012-04-12,1,0.0005362636583174855,0.0006555765781717153,-0.009698256454648611,0.008070321594591872,0.9870478283253339
2012-04-16,0,-0.00011193743769335953,0.00012324181163493315,-0.009943239068065705,0.0128339539531723,0.9866024404003658
2012-04-18,0,-0.00018080115192284775,0.00011409851377481022,-0.014520496511002368,0.007960976972334343,0.9862675407229872
2012-04-20,0,0.0,0.0,-0.014520496511002368,0.007960976972334343,0.9846637110129992
2012-04-24,0,0.0,0.0,-0.012842755862383235,0.011985034024382252,0.9840549096528864
2012-04-26,0,0.0,0.0,-0.012842755862383235,0.008665008806907602,0.9846102629014888
2012-04-30,0,0.0,0.0,-0.014520496511002368,0.008665008806907602,0.9837201136779291
2012-05-02,0,0.0,0.0,-0.019394770822429613,0.005358455381959087,0.9835554563001961
2012-05-04,0,0.0,0.0,-0.019394770822429613,0.005358455381959087,0.9844896904143773
2012-05-08,0,0.0,0.0,-0.019394770822429613,0.011985034024382252,0.9824409869964684
2012-05-10,0,0.0,0.0,-0.019394770822429613,0.011985034024382252,0.9821666443838342
2012-05-14,0,0.0,0.0,-0.019394770822429613,0.01193443173496883,0.9823824033086879
2012-05-16,0,0.0,0.0,-0.014139044488747768,0.013266628516169058,0.9830352077035883
2012-05-18,-1,-0.006482839078525586,-0.005482158525814797,-0.008869191269657302,0.016796641722633947,0.9834233710607372
2012-05-22,0,0.0,0.0,-0.008869191269657302,0.013886023056902234,0.9862695521311305
2012-05-24,0,0.0,0.0,-0.014139044488747768,0.013886023056902234,0.9852751960254877
2012-05-29,0,0.0,0.0,-0.0093931774488023,0.013886023056902234,0.9859981831475951
2012-05-31,0,0.0,0.0,-0.005770911274346249,0.01604606488970661,0.986924883344575
2012-06-04,0,0.0,0.0,-0.004409902168639964,0.01931956406132869,0.9868334156577002
2012-06-06,-1,-0.0027810329261071425,-0.0023314045502567226,-0.004409902168639964,0.015762380167076706,0.9878512262076996
2012-06-08,-1,-0.003041492715478308,-0.0025598552979638435,-0.004409902168639964,0.015762380167076706,0.9878429674968553
2012-06-12,0,0.0,0.0,-0.005752377808351984,0.015762380167076706,0.9866734397835779
2012-06-14,0,0.0,0.0,-0.005338002247131191,0.01771793306051164,0.9864719126896002
2012-06-18,0,0.0,0.0,-0.007047788589641516,0.014443312447170578,0.9867856736893612
2012-06-20,0,0.0,0.0,-0.007047788589641516,0.01771793306051164,0.9865013526220473
2012-06-22,0,0.0,0.0,-0.0077902556395756,0.01771793306051164,0.986854898824192
2012-06-26,-1,-0.001842279573684481,-0.0016861788003215894,-0.008142905013085346,0.01145264968906741,0.9870714080112918
2012-06-28,0,0.0,0.0,-0.008142905013085346,0.014453398142434808,0.9864559504369111
2012-07-02,0,0.0,0.0,-0.008142905013085346,0.014453398142434808,0.9859048267626089
2012-07-05,0,0.0,0.0,-0.009835732300718915,0.010459032957251767,0.9862792454225594
2012-07-09,1,0.13850647858090737,0.13881127709670424,-0.009835732300718915,0.015069484048042437,0.8811957311527017
2012-07-11,0,0.0,0.0,-0.005154911739056252,0.015336362432307474,0.9862480644705797
2012-07-13,0,0.0,0.0,-0.003718644102280805,0.013548740872040844,0.987318143456782
2012-07-17,0,0.0,0.0,-0.003408839270845742,0.013548740872040844,0.9878245956935962
2012-07-19,0,0.0,0.0,-0.003408839270845742,0.013548740872040844,0.9881228564577152
2012-07-23,0,0.0,0.0,-0.0027218639795710785,0.013548740872040844,0.9886434382050353
2012-07-25,0,0.0,0.0,-0.0027218639795710785,0.013548740872040844,0.988819264753817
2012-07-27,1,0.0011942756033897761,0.001414437561641002,-0.0027218639795710785,0.007873552356440718,0.9910058466816017
2012-07-31,1,0.0024387656962713616,0.0028634214954752846,-0.003564552882002333,0.006260642484767788,0.9921818215883941
2012-08-02,1,0.0019286536879792927,0.002290428935980565,-0.003564552882002333,0.006260642484767788,0.9922415423890921
2012-08-06,1,0.0034656662725193414,0.004055932426189472,-0.003564552882002333,0.004783843518942997,0.9934252324158179
2012-08-08,1,0.004197765352961926,0.004885550998385141,-0.004937943645033433,0.00268073485588968,0.9923623774770749
2012-08-10,0,0.0,0.0,-0.0053480178073147654,0.005057860131318497,0.9931658461679602
2012-08-14,0,0.0,0.0,-0.004845456662196246,0.008279092853920957,0.9927317365525521
2012-08-16,0,0.0,0.0,-0.004845456662196246,0.008279092853920957,0.9924263379982668
2012-08-20,0,0.0,0.0,-0.005402724965168147,0.008279092853920957,0.9918571257538537
2012-08-22,0,0.0,0.0,-0.004845456662196246,0.00791476904414852,0.9922370199580657
2012-08-24,0,0.0,0.0,-0.005402724965168147,0.00791476904414852,0.9917109362507824
2012-08-28,0,0.0,0.0,-0.008987643430078691,0.00791476904414852,0.9906932430746473
2012-08-30,0,0.0,0.0,-0.006043617902905522,0.00791476904414852,0.9910988665740234
2012-09-04,0,0.0,0.0037016150871811947,-0.006043617902905522,0.005668508102717668,0.9931577312790288
2012-09-06,0,0.0,0.0,-0.006043617902905522,0.005668508102717668,0.992269950396715
2012-09-10,0,0.0,0.0,-0.005380571763965352,0.004458747531131221,0.9928242394022538
2012-09-12,0,0.0,0.0,-0.008110316160930301,0.0032067788325501907,0.9931485103352348
2012-09-14,1,0.005276570618868073,0.005672910877027618,-0.008110316160930301,0.0019543753216501665,0.9915517235752783
2012-09-18,1,0.005741642329208151,0.006321616664038459,-0.003978975254111953,0.0032067788325501907,0.9924176275889655
2012-09-20,1,0.005758251895421706,0.006486865530837469,-0.003978975254111953,0.004458747531131221,0.9916913894930081
2012-09-24,1,0.005451786158780992,0.005857621040223731,-0.004802994849827924,0.004458747531131221,0.9914988023603538
2012-09-26,0,0.0,0.0,-0.003597918007513463,0.004458747531131221,0.9936846812707413
2012-09-28,0,0.0,0.0,-0.003597918007513463,0.004788603354088982,0.9936062801931064
2012-10-02,0,0.0,0.0,-0.003597918007513463,0.010159439906570887,0.9915229958732504
2012-10-04,0,0.0,0.0,-0.003597918007513463,0.010159439906570887,0.9911317547627511
2012-10-08,1,0.0017285727050712833,0.0018194616607885932,-0.004029443551450703,0.010159439906570887,0.9900643075332719
2012-10-10,-1,-0.0005165133288145864,-0.0002464832582662087,-0.005220845605905015,0.010159439906570887,0.9896779204589397
2012-10-12,1,0.00031086847276196283,0.00040170823231650834,-0.005220845605905015,0.010159439906570887,0.9894597163205873
2012-10-16,0,0.0,0.0,-0.008021672441626887,0.008103918662918633,0.9884718500447773
2012-10-18,0,0.0,0.0,-0.008021672441626887,0.008103918662918633,0.9881137047374653
2012-10-22,0,0.0,0.0,-0.007122787816051053,0.008495060992007527,0.9882657742396094
2012-10-24,0,0.0,0.0,-0.005365007298237691,0.009475262858964432,0.9884775956672605
2012-10-26,-1,-0.00013095923083205615,-1.4048676827124035e-05,-0.005365007298237691,0.009475262858964432,0.9885740706581994
2012-11-01,1,0.0008801194706529803,0.0009040992810399235,-0.006939328440988931,0.00763892906422573,0.9902942423856147
2012-11-05,1,0.0016840957159249433,0.0017646273462311082,-0.006939328440988931,0.00763892906422573,0.9905554535783553
2012-11-07,1,0.0002103212104693388,0.0003026285310339275,-0.005365007298237691,0.007429090025332539,0.9919199446747535
2012-11-09,1,0.0001520013018965455,0.00022605927365636555,-0.00213478166544513,0.007429090025332539,0.9922421220400566
2012-11-13,1,0.0008490989959081155,0.0008849483447768297,-0.004039257294082067,0.007292910033489709,0.9923850040850609
2012-11-15,-1,-0.0008815105991119284,-0.000649821908555133,-0.0011860971754364992,0.007292910033489709,0.9933169312461604
2012-11-19,1,0.00028826984428276893,0.00037310288916902177,-0.0017670987950024462,0.004788572412756497,0.9947151228061502
2012-11-21,1,0.00042949798627837905,0.0004409449457321246,-0.0011775534752527352,0.004788572412756497,0.9950048894135969
2012-11-26,1,0.0009342868863711534,0.0010077131578860494,-0.0011775534752527352,0.0037141790652996495,0.9949305660549174
2012-11-28,1,0.0012760632504804515,0.0014093071425598032,-0.0011775534752527352,0.004467051454452396,0.994822383610987
2012-11-30,1,0.0007238087961741195,0.0007717864721193859,-0.0011775534752527352,0.007265114297879033,0.9930340611697377
2012-12-04,1,0.0005416246773303258,0.0007799908379814934,-0.0011775534752527352,0.007265114297879033,0.9921215571647544
2012-12-06,1,0.000745757991713128,0.0008974559311206145,-0.0011775534752527352,0.007941525479922204,0.9918377796821357
2012-12-10,1,0.0009016913686593748,0.0010379013764761063,-0.001931702670703374,0.008088376253429801,0.991776335479578
2012-12-12,0,0.0,0.0,-0.0011775534752527352,0.008088376253429801,0.9915611517392297
2012-12-14,0,0.0,0.0,-0.0027036373039551805,0.008088376253429801,0.9910996390639635
2012-12-18,1,0.0017812397806906345,0.0019081986068950356,-0.003859352834998662,0.008088376253429801,0.9913332479804462
2012-12-20,1,0.00304393688638572,0.003127912767503325,-0.003859352834998662,0.008088376253429801,0.9908660878448945
2012-12-24,1,0.003010162444900219,0.0031536714099244093,-0.004790521939329043,0.008088376253429801,0.9907005122472169
2012-12-27,1,0.0029449731896571585,0.0030575970319490797,-0.005581511684139799,0.008088376253429801,0.9904124809033851
2012-12-31,1,0.004119339782234062,0.004473776626640011,-0.004790521939329043,0.008088376253429801,0.9908561493099909
2013-01-03,1,0.004883687216829049,0.005356098036998024,-0.00485157691150001,0.004912166599083431,0.9914137745518782
2013-01-07,1,0.0049497548852365045,0.005422205758232605,-0.005581511684139799,0.004991106285440165,0.9906093816828792
2013-01-09,1,0.0047660950543659845,0.0051926088039762576,-0.007306884479887763,0.002805689771352564,0.9902729973594532
2013-01-11,1,0.005101237795983419,0.0055948781760632215,-0.007306884479887763,0.0028621862626318946,0.9894937479596678
2013-01-15,1,0.004286373379836452,0.0046442244297193935,-0.005379016317890295,0.009712578920672019,0.9907049431415429
2013-01-17,1,0.004436312522843733,0.004799057725112892,-0.004723023483912542,0.006651862467401235,0.9915085952041228
2013-01-22,1,0.004478696147264463,0.004831805876149083,-0.0055220708944674025,0.0014136473020756018,0.9909859589830881
2013-01-24,1,0.003702839231450333,0.0039375776528100094,-0.0055220708944674025,0.006651862467401235,0.9902343940291406
2013-01-28,1,0.002076577367157138,0.0021491283539848307,-0.0055220708944674025,0.006651862467401235,0.9892674166381411
2013-01-30,1,0.003537579486583467,0.0038041494646968857,-0.0055220708944674025,0.009272242827266469,0.9889368189471754
2013-02-01,0,0.0,0.0,-0.003012436171957362,0.009272242827266469,0.9894722433984017
2013-02-05,0,0.0,0.0,-0.0017443679844754525,0.009272242827266469,0.9893551689502739
2013-02-07,0,0.0,0.0,-0.0017443679844754525,0.009272242827266469,0.9894269292112308
2013-02-11,0,0.0,0.0,-0.0029235394053090565,0.007174052841867121,0.9896426028626132
2013-02-13,1,0.0016478099543292225,0.001788802456472957,-0.0029235394053090565,0.007376166962660618,0.9896878974630736
2013-02-15,0,0.0,0.0,-0.0029235394053090565,0.007376166962660618,0.9892954965189563
2013-02-20,0,0.0,0.0,-0.0020534127995097116,0.010099354113109714,0.9893492203943415
2013-02-22,0,0.0,0.0,-0.0020534127995097116,0.007376166962660618,0.99067050079611
2013-02-26,0,0.0,0.0,-0.0020534127995097116,0.007582240349841185,0.9922462401668353
2013-02-28,1,0.001143304153657061,0.0011889259133945635,-0.0020534127995097116,0.0066107186827253596,0.9932061952492103
2013-03-04,1,0.0014949211174510365,0.0015102378613990747,-0.004725630340946257,0.005569021825849903,0.9919687208058076
2013-03-06,1,0.0016022175321311048,0.0016162491659654683,-0.007468254688693599,0.004793765773077682,0.992661862026047
2013-03-08,1,0.0013874153384639475,0.0014175316155852335,-0.007987696921543446,0.005569021825849903,0.9919582418078245
2013-03-12,1,0.0008596258445121394,0.0009719391043086043,-0.007661923972937672,0.008697068087605628,0.9917279455092979
2013-03-14,1,0.0015435004224066161,0.0015584920148414248,-0.008916064974433008,0.007251625045463143,0.9911774887018426
2013-03-18,1,0.0021617099618700024,0.0022789188314225935,-0.010902559116186808,0.008697068087605628,0.988342897852611
2013-03-20,1,0.0018146525701991357,0.0018306903830142356,-0.0160328733697191,0.007251625045463143,0.986689877513373
2013-03-22,1,0.0004895712484041832,0.0006597638525019426,-0.014181574581457284,0.007251625045463143,0.9879431663699689
2013-03-26,1,0.00038256078947491404,0.0005628028068214765,-0.014181574581457284,0.008697068087605628,0.9877527076959058
2013-03-28,1,0.0016437535104504319,0.0016760745263852662,-0.014181574581457284,0.008427403198482489,0.9881152598031127
2013-04-02,1,0.0009702479436688878,0.0009745697414130028,-0.008953697714376782,0.008427403198482489,0.9894713820603442
2013-04-04,1,0.00043622760979134933,0.0006025660873432844,-0.014181574581457284,0.008697068087605628,0.9869310045594771
2013-04-08,0,-4.737503968834007e-05,0.00021482566019322494,-0.005835864760153027,0.009765790233503078,0.9864974275105608
2013-04-10,1,0.0006137635381696563,0.0007829531028736961,-0.005835864760153027,0.010106050394068162,0.9864934223652341
2013-04-12,-1,-0.0009314410998430948,-0.0005238601204294387,-0.002033068209215425,0.010106050394068162,0.9861747304739272
2013-04-16,-1,-0.0002926393156985174,-3.4008876261009584e-05,0.00014789406637160047,0.010106050394068162,0.9885768811003625
2013-04-18,-1,-0.002019550095920742,-0.001546201326596602,0.0010617257764029687,0.010232176157372961,0.9889449368317164
2013-04-22,-1,-0.0018103174383416046,-0.0013684970572164963,0.0010617257764029687,0.015624939234557428,0.9880257496283377
2013-04-24,-1,-0.001021458293359881,-0.0006727777961612275,0.0007254424878083112,0.010586402637452905,0.9885364335216491
2013-04-26,-1,-0.0013432878416748484,-0.0009310529937827097,-0.0015039061099894565,0.010586402637452905,0.9885906807697391
2013-04-30,-1,-0.0009147943135430641,-0.0005911814915561864,-0.004470167949912861,0.014870748091110995,0.9878095294123143
2013-05-02,-1,-0.0016632326404255107,-0.0012477013147441228,-0.004413778815914797,0.01036536992708174,0.9898709622064964
2013-05-06,-1,-0.0006867321233064443,-0.0003978595264910521,-0.006321587948287502,0.008680860897512873,0.9913565991943429
2013-05-08,0,-0.0002392443357953659,1.4535762090661392e-05,-0.006578043823962907,0.008680860897512873,0.990569217299947
2013-05-10,-1,-0.0005348891984032817,-0.00024733371374623613,-0.006321587948287502,0.01036536992708174,0.9903128210890102
2013-05-14,1,0.0006239548768313582,0.000732914430213111,-0.0066632880647387255,0.008680860897512873,0.9898149532270806
2013-05-16,1,0.0006869266446085283,0.0007895189146638032,-0.0066632880647387255,0.009864039153333382,0.989548278501681
2013-05-20,1,0.0011201502263935726,0.0012009393928456577,-0.0066632880647387255,0.007911972480355547,0.9900742002740733
2013-05-22,1,0.0004999056903581369,0.0006466243893800722,-0.00741984929107183,0.007911972480355547,0.9896119752510151
2013-05-24,1,0.000359921845835686,0.000492921079650118,-0.009807036766917479,0.007911972480355547,0.9889126387964731
2013-05-29,1,0.0015173205432525271,0.001539150119192192,-0.008067216628721636,0.009864039153333382,0.9880638940859712
2013-05-31,1,0.0015320900797887093,0.0015738731845347958,-0.00995308805082277,0.010988949719652984,0.9878449439152582
2013-06-04,1,0.0012904687348843944,0.0013024464051130471,-0.00995308805082277,0.011257879976247777,0.9876074337924652
2013-06-06,1,0.0011486914007349939,0.001150006751377763,-0.00729191187210577,0.011257879976247777,0.9884755732336237
2013-06-10,1,0.0013172988555951917,0.0013230179548511258,-0.00729191187210577,0.011257879976247777,0.9884152599084995
2013-06-12,1,0.000682687169744765,0.0007383305857160094,-0.0056556718548379376,0.011257879976247777,0.9894532121578136
2013-06-14,1,0.0010929462765458,0.0010982101408492353,-0.006392464985898055,0.010654975888994863,0.9894037607881362
2013-06-18,1,0.0006828158036119631,0.0007545666468773374,-0.006392464985898055,0.011047229467070919,0.9894945182107048
2013-06-20,-1,-0.0007641173574369826,-0.0004958863355313355,-0.005082121924291586,0.011833848313753,0.9901146119288203
2013-06-24,-1,-0.0007788913928099868,-0.000553331611447237,-0.004208650841121502,0.011833848313753,0.9909264600119815
2013-06-26,1,0.00011606575547611384,0.0002475352973419868,-0.005198999117874425,0.011047229467070919,0.9907617897177622
2013-06-28,0,0.0,0.0,-0.006214430983500747,0.011047229467070919,0.9908137215287484
2013-07-02,0,0.0,0.0,-0.006214430983500747,0.010917352082185196,0.9912099530882111
2013-07-05,0,0.0,0.0,-0.007152710930455651,0.010917352082185196,0.9904554941058804
2013-07-09,0,0.0,0.0,-0.007589545417775604,0.007744476090382837,0.9907106513671403
2013-07-11,1,7.630204058638717e-05,8.346057633264496e-05,-0.007789040919987157,0.007744476090382837,0.990478153333906
2013-07-15,-1,-0.0007259702730065919,-0.000605395303259951,-0.0076917734001151865,0.008816646727873464,0.9905150767302645
2013-07-17,1,0.0003734251661775878,0.000453659442148537,-0.0076917734001151865,0.00783244316562668,0.9904931318289321
2013-07-19,1,0.0005988595208532253,0.000607390207355454,-0.008241094464290676,0.005838884796013631,0.9907413359274565
2013-07-23,1,0.0009019164156232661,0.0010159236866107506,-0.008947782900747301,0.006986610553811266,0.9901250487435115
2013-07-25,1,0.0018594825438554394,0.0020040544995752834,-0.008241094464290676,0.006986610553811266,0.990573892995786
2013-07-29,1,0.0015395736905449713,0.0016877583134195888,-0.007317345639994651,0.006986610553811266,0.9912525829293657
2013-07-31,1,0.0016151771711508196,0.0017698439923252984,-0.007837142997399958,0.006882559319606232,0.9903197203159018
2013-08-02,1,0.0018681084759886012,0.0020467185408559493,-0.007837142997399958,0.0058042010512786195,0.9914901847843668
2013-08-06,1,0.0016541743643500597,0.0018287632487525025,-0.007597365726242996,0.00783244316562668,0.9906891812266677
2013-08-08,1,0.0016412047539099714,0.0018115746539874723,-0.005465327977235684,0.008895350124502873,0.9905623318140497
2013-08-12,1,0.0015133279304661517,0.001765829530833326,-0.005465327977235684,0.011391108172332139,0.9894234099562093
2013-08-14,1,0.0011993098582063805,0.0013756331876093562,-0.004994047810973032,0.011391108172332139,0.9893400440026624
2013-08-16,1,0.0009784623857699752,0.0010950736414077813,-0.004994047810973032,0.011391108172332139,0.9895218492667471
2013-08-20,1,0.0010615721205737502,0.0012263305208505585,-0.003023907570084763,0.01288222641742861,0.9898023835623683
2013-08-22,1,0.001134340623940192,0.0012374945090399766,-0.0027919857067393826,0.011360023226904532,0.9904921555025046
2013-08-26,1,0.0008272750719390577,0.0008729645581057085,-0.003550491530280458,0.011360023226904532,0.9900707556321307
2013-08-28,1,0.00024132012016849392,0.0002712228486681084,-0.003550491530280458,0.011360023226904532,0.9902545973480046
2013-08-30,1,0.0006566409628419401,0.0006665258921634635,-0.003550491530280458,0.011360023226904532,0.9906477257196336
2013-09-04,1,0.001045899882958667,0.001118600506128204,-0.004783164375956119,0.00844389110519994,0.9920426099668201
2013-09-06,1,0.0015039468575908346,0.0015961956309474925,-0.0063284123752173176,0.00750097542189831,0.9924652442424508
2013-09-10,1,0.0021510535271382844,0.002199497225848897,-0.007593114889460018,0.00498459669120933,0.992669092339472
2013-09-12,1,0.0020914714303149917,0.0021313846998783116,-0.007593114889460018,0.00498459669120933,0.9919609140885705
2013-09-16,1,0.002092190511648576,0.002182451548451873,-0.006896250114772036,0.007581208474436451,0.9918350217059363
2013-09-18,1,0.002609457985836669,0.0027741045281691416,-0.008744462499226403,0.005777038218230038,0.9915339795197864
2013-09-20,1,0.002679855113728712,0.002847897541975003,-0.008744462499226403,0.007581208474436451,0.991307044702108
2013-09-24,1,0.001960053024388265,0.0019717884351333854,-0.007237370583534328,0.007581208474436451,0.9915906830543215
2013-09-26,1,0.0022581427541193367,0.002370639276422488,-0.006896258435259795,0.006113024369090248,0.9917127239182028
2013-09-30,1,0.0023552059354329455,0.00251608154601303,-0.00874448746068968,0.009470239481209446,0.9863276944127543
2013-10-02,1,0.0015743789495998941,0.0016801290201369173,-0.009090789199422241,0.012155954193654374,0.9855730064885491
2013-10-04,1,0.0016315466565581306,0.0017671575342642935,-0.009090789199422241,0.012155954193654374,0.9858487812056952
2013-10-08,1,0.001078156488924921,0.001153272772720528,-0.0028858719417649984,0.012155954193654374,0.9863698303470936
2013-10-10,1,0.002137610949426179,0.0023925482633932616,-0.005621489099040613,0.01175052014576514,0.9863716705765191
2013-10-14,1,0.0023915641280450486,0.002653203550335795,-0.005621489099040613,0.011974920148398238,0.9860413808877698
2013-10-16,1,0.0019103975334430461,0.00208877980483057,-0.0038806992926446447,0.012155954193654374,0.9862871857130875
2013-10-18,1,0.0029066134255394346,0.003176779893324496,-0.0038806992926446447,0.011704341147302372,0.9869091730713179
2013-10-22,1,0.0025512014035037884,0.0028185981799083346,-0.008618008758812492,0.011704341147302372,0.9859422727952017
2013-10-24,1,0.0020179563638589105,0.002172215728822739,-0.005836122545437958,0.012045270376366036,0.9860467294958318
2013-10-28,1,0.004132755511815991,0.004535355237591155,-0.0035169784328125844,0.011855386039849624,0.9911570419150249
2013-10-30,1,0.004180834693339929,0.0046186413173625925,-0.0035169784328125844,0.011679889443940423,0.9917350552561681
2013-11-01,1,0.0036289495515865137,0.003952572175549464,-0.005123902946731714,0.011679889443940423,0.9915114577810781
2013-11-05,1,0.003820631691535755,0.004177243318495902,-0.0071252503018857955,0.005820697993693859,0.9908548219843214
2013-11-07,1,0.0029688074973652566,0.003206874778046513,-0.003946687684961863,0.011855386039849624,0.9919725140017048
2013-11-11,1,0.0030133353683956406,0.0031977351345719813,-0.003946687684961863,0.005820697993693859,0.9925533758004216
2013-11-13,1,0.002572695306747797,0.002650318993195483,-0.0027515697571286555,0.003669464925739346,0.993110002447219
2013-11-15,1,0.002993569827659784,0.003180212777749527,-0.0027515697571286555,0.005820697993693859,0.9924541429867737
2013-11-19,1,0.002130299338556827,0.0021941871766531238,-0.0015254363620717003,0.011974403258472283,0.992406738598175
2013-11-21,1,0.0024409600901474566,0.0025465648033675833,-0.0015254363620717003,0.008042838555744466,0.9928337525867685
2013-11-25,1,0.002989577123978428,0.0031930179467651453,-0.0015254363620717003,0.0059328830240267735,0.9931468453620496
2013-11-27,1,0.0026358690725879186,0.0027956483167657737,-0.0006641470976873597,0.0059328830240267735,0.9934804136515372
2013-12-02,1,0.002202182973609289,0.0023019217385586957,0.0010861335354850595,0.010903498408149468,0.9929907917035447
2013-12-04,1,0.0012027610418945222,0.0012580924507004764,0.0023605949957309644,0.010903498408149468,0.9921934864089036
2013-12-06,1,0.0018659032475712187,0.0019001569415242512,-0.00016242827922692766,0.008034117853902668,0.9928610901173583
2013-12-10,1,0.0025985753722362567,0.00277356736398409,-0.0009634645554483804,0.0068962224893631095,0.9932731107687579
2013-12-12,1,0.002277093287949227,0.0023878119227740795,-0.0011980283207256987,0.0068962224893631095,0.9921807992706955
2013-12-16,1,0.0028498991340067392,0.0030410125214247056,-0.0011980283207256987,0.0068962224893631095,0.9919277534399255
2013-12-18,1,0.0027842286661058204,0.002924991072886886,-0.0011980283207256987,0.0059328830240267735,0.9927525066190519
2013-12-20,1,0.0029891521733641942,0.0031567583838604204,-0.003207890234942617,0.006048965551226486,0.9922207636517071
2013-12-24,1,0.0032546363655898904,0.0034668186009525286,-0.007017150155298775,0.005927132567177603,0.9891046626385432
2013-12-27,1,0.0028938319294677765,0.0030220456528556976,-0.008746628679025075,0.008034117853902668,0.9876959708197389
2013-12-31,1,0.003204630839543696,0.0033614265976993933,-0.012993813089870184,0.0030185810316358413,0.9872049184216608
2014-01-03,1,0.002764464396208757,0.0028749828785756613,-0.012993813089870184,0.0010392518702828067,0.9865249276975324
2014-01-07,1,0.002302077753056472,0.0023479869830575813,-0.012993813089870184,0.0030185810316358413,0.9863503277828034
2014-01-09,1,0.0017426995760869604,0.00179484204318248,-0.012993813089870184,0.01288450326889696,0.9852592659234269
2014-01-13,1,0.0007441595530026316,0.0009200824290254415,-0.010013323856631687,0.015722600732352043,0.9853595511052027
2014-01-15,1,0.0016760128736560825,0.001728868362719238,-0.010013323856631687,0.015722600732352043,0.9849897631088901
2014-01-17,1,0.001075136133809248,0.0012174167052192164,-0.010013323856631687,0.015722600732352043,0.9852493841071587
2014-01-22,1,0.0007088500094144585,0.0009319143390435392,-0.010013323856631687,0.01676412364951227,0.9829274970095649
2014-01-24,-1,-0.0019263448584658878,-0.0013663797020731332,-0.003918599623466201,0.01676412364951227,0.9851026301533173
2014-01-28,-1,-0.0009180340864396986,-0.0005306059557095458,-0.005376186544420186,0.015722600732352043,0.9864952896372954
2014-01-30,-1,-0.001430942051158939,-0.001010745506230827,-0.0034288863328612476,0.015722600732352043,0.9871380143183432
2014-02-03,-1,-0.00199898469415684,-0.0015657817699525573,-0.0031577534579043396,0.01676412364951227,0.9865292076024764
2014-02-05,-1,-0.0015209245192287437,-0.0011460550958430214,-0.005376186544420186,0.015722600732352043,0.9873879258333433
2014-02-07,-1,-0.00043289697023904134,-0.0001790780942824118,-0.006440004874170276,0.012386796771084271,0.988434732025938
2014-02-11,0,-3.202437728371996e-05,0.00015169541737344156,-0.006639087476716013,0.008622848825437651,0.9887769613900769
2014-02-13,1,0.0009303546472849572,0.0009876230828637428,-0.007190379607293124,0.004306525111145751,0.9884096677782342
2014-02-18,1,0.0005309279923965125,0.0006478422961775877,-0.007190379607293124,0.006924239740141583,0.988057487807084
2014-02-20,1,0.002430406397290162,0.0025339336880606097,-0.008251497701125576,0.004306525111145751,0.9903307778233311
2014-02-24,1,0.002115584369304994,0.0021640397455661314,-0.008251497701125576,0.004301455117390809,0.9904375035823677
2014-02-26,1,0.001311335954266205,0.0013848553013483017,-0.009715175864898382,0.004301455117390809,0.9904404223939882
2014-02-28,1,0.0012600219308450552,0.0013529547697067898,-0.009715175864898382,0.004301455117390809,0.9899893560289791
2014-03-04,1,0.0005354680223540579,0.0007605604876299708,-0.008251497701125576,0.006387081103581642,0.9907562912243216
2014-03-06,1,0.0005085285715870642,0.0007004251852999919,-0.009715175864898382,0.006478155432899781,0.9903162573760569
2014-03-10,1,0.0002796685799291939,0.00046998496261122056,-0.010026989560438886,0.006478155432899781,0.9897754434514091
2014-03-12,-1,-0.0008034909432732785,-0.0004574143546930517,-0.010026989560438886,0.007093319671036899,0.9897174482656992
2014-03-14,-1,-0.0014849115590294254,-0.0010930333038368073,-0.010335376645441516,0.007093319671036899,0.9897952275412405
2014-03-18,-1,-0.0011353901643942773,-0.0007794991695621843,-0.010335376645441516,0.006861904093507164,0.9898188693333849
2014-03-20,-1,-0.002015361134966848,-0.001537230398203148,-0.010335376645441516,0.009398737374791135,0.9884981309024689
2014-03-24,-1,-0.0006075333756510025,-0.0004315867651492165,-0.010335376645441516,0.009398737374791135,0.9883698145622214
2014-03-26,-1,-0.0012909133934963062,-0.0010298904363822744,-0.010335376645441516,0.009398737374791135,0.9861303261983566
2014-03-28,-1,-0.0012988040980226401,-0.0010537822500877431,-0.011332399697504268,0.008320715758925665,0.985880932447827
2014-04-01,1,1.6290881105088598e-06,8.385509238268917e-05,-0.011332399697504268,0.008320715758925665,0.986718827537312
2014-04-03,-1,-0.0007900990708960945,-0.0005636895736381087,-0.010848797434109518,0.009398737374791135,0.9867566822820709
2014-04-07,-1,-0.0014137144300443547,-0.00116169254339933,-0.009358445653512593,0.009398737374791135,0.9876213994176769
2014-04-09,-1,-0.0005880955742852407,-0.000449267804454259,-0.009358445653512593,0.009398737374791135,0.9876589190954923
2014-04-11,-1,-0.0018465869514209966,-0.0015644190628997814,-0.0061165684851680995,0.01225811771595934,0.9878243191931778
2014-04-15,-1,-0.00183143890096869,-0.0015082269576940288,-0.008277575188772276,0.009709403822962481,0.9877719037766773
2014-04-17,-1,-0.0004068634063550494,-0.00027205421170699637,-0.009358445653512593,0.005662232692056544,0.9886936751434865
2014-04-22,-1,-0.0002762972749791485,-0.00017656404831802437,-0.010421625579583415,0.0075594367520229935,0.9879382198452588
2014-04-24,-1,-0.0031634871164188515,-0.0027124233240606622,-0.008277575188772276,0.0075594367520229935,0.9906444165107324
2014-04-28,-1,-0.004213939128648043,-0.003625458606053799,-0.005637123643725601,0.008925001954466215,0.99028574379935
2014-04-30,-1,-0.004191510458535873,-0.003575673368473112,-0.006146256908489103,0.007162893305663694,0.990940439901023
2014-05-02,-1,-0.0030412576084058182,-0.002594264937232289,-0.006722378291746678,0.004280577242148411,0.9919639244786463
2014-05-06,-1,-0.002769982539897971,-0.00238128848489612,-0.006722378291746678,0.005710198334195366,0.9919707206243452
2014-05-08,-1,-0.0024276939915064896,-0.002078495683228501,-0.006722378291746678,0.007012765185976057,0.9912908162076001
2014-05-12,-1,-0.0010986940046812646,-0.0009408425763291079,-0.006722378291746678,0.007012765185976057,0.9919053133539194
2014-05-14,-1,-0.0015888376193992477,-0.0014032594288191295,-0.004798077615410786,0.007012765185976057,0.9923465391167235
2014-05-16,-1,-0.0018473261061165485,-0.0016555714784196429,-0.0032907619497447266,0.008297275689479654,0.9923827743018017
2014-05-20,-1,-0.0018904081909028713,-0.0017134663457530467,-0.0032907619497447266,0.0078938866623473,0.9929024481867869
2014-05-22,-1,-0.0014843400792062505,-0.0013654552183337918,-0.0032907619497447266,0.008585196065153722,0.9922028316362341
2014-05-27,-1,-0.00046136497494920744,-0.00041186427721275174,-0.006722378291746678,0.008354013246526461,0.9917787040285785
2014-05-29,-1,-0.0008796685355107648,-0.0008569879755617281,-0.005561614220840292,0.008354013246526461,0.9917341621816957
2014-06-02,-1,-0.0009517916761446104,-0.0008939091147290913,-0.00617381799336245,0.008354013246526461,0.990652934971434
2014-06-04,-1,-0.0008092394866997419,-0.0007645332870081029,-0.00617381799336245,0.008354013246526461,0.9906669494004247
2014-06-06,-1,-0.0001447559599619007,-0.00014349798694023762,-0.009141876997338963,0.0078938866623473,0.9907428251285038
2014-06-10,1,0.000792770126758445,0.0009672076354452555,-0.009141876997338963,0.007638080934264232,0.9916146347031091
2014-06-12,1,0.00036083124178029147,0.0004661313975012283,-0.00929426622822362,0.007638080934264232,0.9914790527911208
2014-06-16,1,0.0006731648596256923,0.0008344937750696308,-0.010560969195536025,0.007638080934264232,0.9908263519424179
2014-06-18,-1,-0.0006777033878274247,-0.0005562596913844469,-0.011749492189233815,0.007166610939121215,0.9905228442601012
2014-06-20,1,0.00035024412209779063,0.000363528565514466,-0.011749492189233815,0.004672006588674641,0.9906258832544739
2014-06-24,-1,-0.0012158441126315655,-0.0010077165106333733,-0.010450200980519235,0.006932431381697923,0.9913953170765215
2014-06-26,-1,-0.0025040387228000777,-0.002098682591601761,-0.010450200980519235,0.00779487864836417,0.9877864365382888
2014-06-30,-1,-0.0029352434169093713,-0.002504769002723872,-0.010450200980519235,0.007372418552849961,0.9882330461254836
2014-07-02,-1,-0.0019189206061499737,-0.001669828368644641,-0.011749492189233815,0.007372418552849961,0.987766553747129
2014-07-07,-1,-0.002234754754145007,-0.0019589415506212045,-0.011749492189233815,0.006932431381697923,0.988545517998605
2014-07-09,-1,-0.0015263247600323373,-0.0013908780184091654,-0.011749492189233815,0.006932431381697923,0.9879897919964629
2014-07-11,-1,-0.0019717585923981896,-0.00178216292063846,-0.01124193371821075,0.007738118228963582,0.9876225956203358
2014-07-15,-1,-0.0008342071113612811,-0.0007661117733998835,-0.009792904191722802,0.006932431381697923,0.9880565403722291
2014-07-17,-1,-0.0010804248432001759,-0.0010396676057553434,-0.00906732396915183,0.008490234630643217,0.9884768095743057
2014-07-21,-1,-0.0007865139888633436,-0.0007219873778541272,-0.00906732396915183,0.00862188288966625,0.9875959250439029
2014-07-23,-1,-0.0006276279049665984,-0.0005217594086124178,-0.008319950033717436,0.011897428507116014,0.9875527070217165
2014-07-25,1,0.0014924308690867877,0.0018842083817463883,-0.008319950033717436,0.0039004176850956783,0.9905827931070074
2014-07-29,1,0.0006162924912065329,0.0008797584232638294,-0.0074676305132200475,0.005498680054754649,0.991850325027354
2014-07-31,-1,-0.00026434725526113315,-0.00013633963764562274,-0.007320091596040756,0.005498680054754649,0.9926740591594515
2014-08-04,-1,-0.0009696055487782799,-0.000963652254968474,-0.0055557308637458405,0.0071171794758667795,0.9923968975895303
2014-08-06,-1,-0.0019377461265551034,-0.001774011850429646,-0.0045559000644982,0.0071171794758667795,0.9924073970820828
2014-08-08,-1,-0.0009483397161235555,-0.0009280358302373629,-0.005008862404316108,0.005498680054754649,0.9930497441992288
2014-08-12,-1,-0.0012221597434989347,-0.0011599136456342774,-0.005008862404316108,0.005498680054754649,0.9929027966635426
2014-08-14,-1,-0.0005628593228554697,-0.0005432751012942865,-0.005314268307046625,0.0048607854706380965,0.9929232500376219
2014-08-18,-1,-0.00027372092614098284,-0.0002420742599048298,-0.005314268307046625,0.0048607854706380965,0.99376855003492
2014-08-20,1,0.00041441417193227494,0.0005594483041039002,-0.006323272610176201,0.0032905194450953785,0.9940352806025249
2014-08-22,1,0.0008016639141344887,0.0010571163826080345,-0.006323272610176201,0.0032905194450953785,0.993840895962861
2014-08-26,1,0.0010895250608785722,0.0013810943530692993,-0.0066531392848339635,0.0019335796488703179,0.9934795169582227
2014-08-28,1,0.0005329303948524364,0.0006930138251619536,-0.007603928470990982,0.0032905194450953785,0.9926536375838013
2014-09-02,1,0.001276926126429742,0.0015734772169658517,-0.008576221419643973,-0.0006522323873140907,0.9924071059932967
2014-09-04,1,0.0004535349057120945,0.0005780119329024853,-0.008738066018084911,0.000747388339622219,0.9927810660507065
2014-09-08,1,0.0006714361769967989,0.0008530056848083102,-0.00923355417594058,-0.0013996207269363098,0.9919217562225937
2014-09-10,1,0.0007338191731749817,0.000989764637867806,-0.00923355417594058,0.000747388339622219,0.9907463004962508
2014-09-12,1,0.0005442426797195187,0.0007757812761915533,-0.010656151843877658,-0.002069583695917274,0.9892232317079435
2014-09-16,-1,-0.0007030409751678833,-0.0006263543435003243,-0.014102654372764126,-0.002069583695917274,0.9878418234153665
2014-09-18,-1,-0.0013561661554026324,-0.0011671440697243298,-0.01602578977469633,-0.002069583695917274,0.9859373954759221
2014-09-22,-1,-0.0015987983366225252,-0.0013895129806217339,-0.01602578977469633,0.0019748820828580883,0.985051393159067
2014-09-24,-1,-0.0014725177274468562,-0.0013136691048850455,-0.018413418141522784,0.009672413886079433,0.9825928170543922
2014-09-26,-1,-0.0018110375909580652,-0.0016293064209315469,-0.020352588963178736,0.015049461308599101,0.9809494447997436
2014-09-30,-1,-0.001706751383661025,-0.0015196235282891042,-0.020352588963178736,0.017206777941219605,0.9789146701489927
2014-10-02,-1,-0.0014640844760688354,-0.0013373408725213753,-0.020352588963178736,0.017206777941219605,0.9783067769876356
2014-10-06,-1,-0.0025443209595214754,-0.002259269329529472,-0.020352588963178736,0.02029356108748222,0.9781827417172013
2014-10-08,-1,-0.003079783994145557,-0.0027132700251711887,-0.01834085195594765,0.02029356108748222,0.978615718631696
2014-10-10,-1,-0.004645613317619779,-0.0040865571355477096,-0.01665529140411653,0.02029356108748222,0.9797799220218543
2014-10-14,-1,-0.0052662517151373205,-0.00464786515695243,-0.01444134178104961,0.02029356108748222,0.9818754903767358
2014-10-16,-1,-0.004264762258594004,-0.0037875164855863397,-0.01444134178104961,0.016147302785378587,0.9833641142083236
2014-10-20,-1,-0.0038193480503132095,-0.003389879201942156,-0.01444134178104961,0.011470513301409534,0.9842821721003283
2014-10-22,-1,-0.003892430108924027,-0.0034534104781372994,-0.009331732300678288,0.007676321910432738,0.9862785610648153
2014-10-24,-1,-0.003700318613225859,-0.0032936992685777544,-0.006477554906827959,0.007676321910432738,0.9880463853617392
2014-10-28,-1,-0.0014174246645829753,-0.0013279827407512608,-0.007692747149729541,0.0074486260339249296,0.9903850648371358
2014-10-30,-1,-0.0022231959440419708,-0.0021067296282484475,-0.009331732300678288,0.0074486260339249296,0.9850908020393474
2014-11-03,-1,-0.0008033530986925228,-0.000786488463129434,-0.009331732300678288,0.0074486260339249296,0.9853356037632185
2014-11-05,-1,-0.0006783183954543824,-0.0006666642466135696,-0.007692747149729541,0.0074486260339249296,0.9849696880734793
2014-11-07,-1,-0.00034483759427395586,-0.0002901352318951323,-0.009331732300678288,0.006079444561943708,0.9839638493281431
2014-11-11,-1,-0.00038397304538612353,-0.00028707473747179377,-0.011330937743494569,0.006079444561943708,0.982697287233091
2014-11-13,-1,-0.0012291881058161568,-0.0011745164435972915,-0.013741505286024875,0.005923078164986433,0.9818146939790903
2014-11-17,-1,-0.0011193867995694597,-0.0010633235491396933,-0.013741505286024875,0.00307188796294065,0.9819848146040363
2014-11-19,-1,-0.0014328607302630803,-0.0013195332287093923,-0.013614754043778383,0.011745087708358713,0.9800339968440809
2014-11-21,-1,-0.0005070919635634841,-0.0004925481671854241,-0.013614754043778383,0.011423117040617083,0.9799975579418561
2014-11-25,-1,-0.0005737117265023981,-0.0005617054844704,-0.01178176576775053,0.017973913566162864,0.9797104793787902
2014-11-28,-1,-0.0047785106702542615,-0.004278262808961547,-0.0036196880091980102,0.017973913566162864,0.9842727572968502
2014-12-02,-1,-0.004204339035355546,-0.003754545231572121,-0.004313192580415425,0.008281447426160042,0.9855721816076735
2014-12-04,-1,-0.0029481503737360283,-0.002642468798755503,-0.005935710976008443,0.0034567511636046148,0.9864446850222517
2014-12-08,-1,-0.00416494401538849,-0.0036996403256707,-0.005935710976008443,0.0034567511636046148,0.9870916943347692
2014-12-10,-1,-0.005098683612617255,-0.004547972460928214,-0.005255064437076016,0.006872197572260365,0.9879638033856311
2014-12-12,-1,-0.006587030837791561,-0.005862854734579917,-0.003966013341062058,0.00847846193772444,0.987866086001309
2014-12-16,-1,-0.004370188705354777,-0.004046435563927831,-0.0067258518533543175,0.00847846193772444,0.9888694336343763
2014-12-18,-1,-0.002602569362509159,-0.0024484512485226815,-0.0067258518533543175,0.005702111010004952,0.9911751928927702
2014-12-22,-1,-0.0021157098572861595,-0.0019840803167603368,-0.008746870881039964,0.005702111010004952,0.9895215998061282
2014-12-24,-1,-0.0016759740099293401,-0.0015735243366742455,-0.011216121715594208,0.0054989824415159275,0.9893948600525053
2014-12-29,-1,-0.0016146451085801946,-0.0014969670264136162,-0.017480382066250563,0.0032438212273048087,0.987789987475254
2014-12-31,-1,-0.0014821528021862463,-0.00141306621116028,-0.017480382066250563,0.006698989670001953,0.9868490619263603
2015-01-05,-1,-0.002645661148615694,-0.002433502234230892,-0.014094115579654422,0.009732094162312816,0.984546787835461
2015-01-07,-1,-0.0027086273357262835,-0.002528321605100992,-0.017480382066250563,0.01395203750009321,0.982473479369079
2015-01-09,-1,-0.001864866890209183,-0.001821211336497174,-0.017480382066250563,0.011777492428620855,0.9821573426573824
2015-01-13,-1,-0.0016105947935560654,-0.0015822867840205195,-0.015709118949191046,0.011777492428620855,0.9829877493559883
2015-01-15,-1,-0.002096109533851956,-0.0020580715409358403,-0.015709118949191046,0.020179224972604434,0.9815085321448831
2015-01-20,-1,-0.0013128436334353395,-0.0012253249855881919,-0.015709118949191046,0.02189808151658172,0.9804862450165188
2015-01-22,-1,-0.0010977291099293915,-0.0009731848036646691,-0.010760274959295492,0.020179224972604434,0.9824004473888492
2015-01-26,-1,-0.0009586771496272135,-0.0007782755703316492,-0.006175403024654982,0.020179224972604434,0.983127087715837
2015-01-28,-1,-0.002254262357142763,-0.0022523581410756957,-0.0022143306945223156,0.020179224972604434,0.9841715797158145
2015-01-30,-1,-0.0012891935961156316,-0.0011520474496142083,-0.004381132793537314,0.01800927304787421,0.9855726629105046
2015-02-03,1,0.001289141324206476,0.0017425540193405067,-0.005862469878731278,0.011104425303337294,0.9886207867829909
2015-02-05,1,0.000933031545005849,0.0013327406744305119,-0.005862469878731278,0.006370035991062244,0.9897723997677401
2015-02-09,1,0.0009053217687754124,0.0013054031655249205,-0.005862469878731278,0.0048420190654521085,0.9900667390651348
2015-02-11,1,0.000671914760600784,0.0010401449905582216,-0.005708126438254398,0.006005763851303926,0.9900423101910302
2015-02-13,1,0.0018787031199153238,0.0023898633454884667,-0.0070449156444171036,0.0048420190654521085,0.9895725365364032
2015-02-18,1,0.003032274486650598,0.0036835620174754985,-0.0070449156444171036,0.0048420190654521085,0.98928012321349
2015-02-20,1,0.003455592056363275,0.00414606916507889,-0.009781389605260392,0.0048420190654521085,0.9887955515703345
2015-02-24,1,0.0033218722896475447,0.003972124292723374,-0.009781389605260392,0.001794504969131465,0.9887651035404532
2015-02-26,1,0.0032437029019069218,0.0038667237299088732,-0.011090009267463752,8.122461068045352e-05,0.9883250889374949
2015-03-02,1,0.0026088929728451124,0.0031036157413200554,-0.011090009267463752,0.004832747908146511,0.9891001198447106
2015-03-04,1,0.0017073364750265787,0.002062606767566729,-0.011074315256692599,0.004832747908146511,0.9897995928999449
2015-03-06,1,8.116389236718075e-05,0.00013110215841568565,-0.007481122198484891,0.006075575720580845,0.99004897918756
2015-03-10,-1,-0.0009483294130494492,-0.0008195826743138512,-0.010172721668396088,0.006075575720580845,0.989657658887125
2015-03-12,-1,-0.0004673995635697012,-0.0004440677515814609,-0.01095140670107867,0.004832747908146511,0.9897093890957642
2015-03-16,-1,-0.0006184889392550468,-0.000600745690577203,-0.009512333859679749,0.004832747908146511,0.991271414150646
2015-03-18,1,0.00020301616772787248,0.00028412640629127373,-0.009512333859679749,0.004832747908146511,0.9898350813576503
2015-03-20,-1,-6.178886218639079e-05,-1.6599461339157693e-05,-0.009512333859679749,0.0049635052234328954,0.9894420414767882
2015-03-24,1,0.0007628015766937715,0.001024717207761177,-0.01095140670107867,0.0049635052234328954,0.988693398650103
2015-03-26,1,0.00030319348647835445,0.00048674556276214343,-0.012776452046720645,0.0049635052234328954,0.988504031506056
2015-03-30,1,0.001060697350919652,0.0013747361587012966,-0.012776452046720645,0.004414509046405157,0.9879399388944847
2015-04-01,1,0.0006887227551251068,0.0009505817608410522,-0.010899367340909656,0.00694069000792449,0.9878722340925995
2015-04-06,1,0.0018034135331029958,0.0022277543868810617,-0.012776452046720645,0.004414509046405157,0.9868424299900866
2015-04-08,1,0.0006884816365798799,0.0009381241648749465,-0.010454375069016357,0.00694069000792449,0.9879032989442341
2015-04-10,1,0.00011642196444384723,0.00026399214765610376,-0.011389435870871736,0.00694069000792449,0.9875726001505919
2015-04-14,1,0.0004186341451019376,0.0006192496797817697,-0.011389435870871736,0.0052455828231462494,0.9877057369868436
2015-04-16,1,0.0020569876408331423,0.0024743380957633794,-0.011389435870871736,0.009865023825657493,0.988848806214694
2015-04-20,1,0.002039725348290025,0.0025001050085218623,-0.007067690975632826,0.008831660087316607,0.9901384887564837
2015-04-22,1,0.0018395096890494393,0.00228052385022084,-0.007067690975632826,0.008831660087316607,0.9897622272593107
2015-04-24,-1,-0.00048797937869776253,-0.0004263295610835451,-0.006586960294789897,0.011584210527549302,0.9894429013064723
2015-04-28,1,0.0006213508370995512,0.0007349137943896994,-0.009502251556449648,0.008831660087316607,0.9891190272277625
2015-04-30,1,0.0015285955339014853,0.0018304228371404364,-0.009502251556449648,0.0075912451085776425,0.989376685892325
2015-05-04,-1,-0.0002471117332736742,-0.00024049309175120753,-0.005618499961978586,0.008640062977125537,0.9910776397759166
2015-05-06,-1,-0.0005995672101688952,-0.000495158169552966,-0.009012136975658436,0.0075912451085776425,0.9907080085338802
2015-05-08,-1,-0.002280007911306458,-0.0019129386963412645,-0.007772000031621008,0.0075912451085776425,0.991353153864667
2015-05-12,-1,-0.0024754874124012184,-0.002085757795884064,-0.007772000031621008,0.008266349354928725,0.9908868513508287
2015-05-14,-1,-0.00015874036487661548,-0.00010291826947623917,-0.007772000031621008,0.0042950218642297585,0.9922488556170495
2015-05-18,1,0.00046862039261039325,0.0005294696823161119,-0.009012136975658436,0.002432765312189565,0.9915893313721398
2015-05-20,1,0.0004059035193775931,0.0004888866293898766,-0.007772000031621008,0.002432765312189565,0.9924888467483799
2015-05-22,1,0.0006381020335267972,0.0007639216966674198,-0.00445271073141789,0.002432765312189565,0.9928109165713835
2015-05-27,-1,-0.00021803129473448276,-0.00021666924928184932,-0.00445271073141789,0.0017969689767068728,0.9940542319150142
2015-05-29,-1,-0.0013469003141694208,-0.001165534036911759,-0.005544299349915191,0.0017969689767068728,0.9936600707721238
2015-06-02,-1,-0.0013110724710395957,-0.0010945883540021551,-0.007460589649938368,0.0017969689767068728,0.9917848302916197
2015-06-04,-1,-0.0016807864798814342,-0.001436567455388815,-0.007460589649938368,0.002713431760860907,0.9920173752848419
2015-06-08,-1,-0.0022390478376012038,-0.0019162357682741874,-0.008623513810994245,0.002713431760860907,0.9914256181986535
2015-06-10,-1,-0.0022506301859206244,-0.0018976160775845202,-0.012826108323294186,0.0019825959120510304,0.9908574777101804
2015-06-12,-1,-0.0021771125455268747,-0.0018527729439063961,-0.018112952551196725,0.004721274140942778,0.9890706348542346
2015-06-16,-1,-0.0024839982461226716,-0.002136902341729759,-0.019388781139847232,0.005915864725595075,0.9888172302868914
2015-06-18,-1,-0.0024853594040793402,-0.0021199898919314493,-0.019388781139847232,0.005915864725595075,0.9882775816558297
2015-06-22,-1,-0.0030482141950573796,-0.0025516100986632513,-0.01980027970123912,0.00505282377231288,0.9876513167919925
2015-06-24,-1,-0.0029459567762045247,-0.0024974796805405357,-0.01980027970123912,0.00505282377231288,0.9875493620699661
2015-06-26,-1,-0.0020856111392953867,-0.0018850525129519285,-0.01980027970123912,0.00505282377231288,0.9869126042404908
2015-06-30,-1,-0.0020535346536721464,-0.0018381626881843654,-0.018596245711309224,0.00505282377231288,0.9883244256157633
2015-07-02,-1,-0.00217748940798329,-0.0019412692831402526,-0.018596245711309224,0.004211834498342639,0.9889846202675736
2015-07-07,-1,-0.003053225730581541,-0.0027052406673645554,-0.018596245711309224,0.00505282377231288,0.9882156676101259
2015-07-09,-1,-0.002735787869948192,-0.002487942757546072,-0.01435472476811326,0.005996639929285422,0.988233537215955
2015-07-13,-1,-0.0016387552180076078,-0.0015410446402881132,-0.01256641405012927,0.005996639929285422,0.9879778178212976
2015-07-15,-1,-0.0016521002991006337,-0.0015955097436313437,-0.01256641405012927,0.007551009512926785,0.9872016058375863
2015-07-17,-1,-0.0015831183479868244,-0.0015412593411557054,-0.013248238148015064,0.005917977598448133,0.9872141518726465
2015-07-21,-1,-0.001964403013938838,-0.0018850503742127117,-0.009515578789179831,0.005917977598448133,0.9883510890574524
2015-07-23,-1,-0.0023311188350589947,-0.0022037813320304276,-0.013248238148015064,0.005917977598448133,0.9875664738333861
2015-07-27,-1,-0.0035972828819282607,-0.0033043814823489883,-0.016727098787471695,0.005917977598448133,0.9864090186856093
2015-07-29,-1,-0.0026420595015430657,-0.0023737403569854933,-0.019949303573490333,0.005917977598448133,0.9860964013539191
2015-07-31,-1,-0.002714009266018769,-0.0024261668762182126,-0.019949303573490333,0.012297009621419074,0.9841445818586995
2015-08-04,-1,-0.003089399256276152,-0.002762936684468409,-0.019949303573490333,0.012297009621419074,0.9831549324631761
2015-08-06,-1,-0.002953947790440681,-0.0026471595249844926,-0.019949303573490333,0.010185225227575187,0.9833504500364556
2015-08-10,-1,-0.0008579701188228311,-0.0008336612402482551,-0.019949303573490333,0.010185225227575187,0.9833144600245192
2015-08-12,-1,-0.001321126074316255,-0.001225330011815906,-0.019608774782154944,0.006506416899301289,0.984656677758691
2015-08-14,-1,-0.001641793371099383,-0.0015058813698085064,-0.019608774782154944,0.005873113418854213,0.9852763656016166
2015-08-18,-1,-0.002041908840301421,-0.001846861579492638,-0.019608774782154944,0.012875033671285542,0.9830347667474811
2015-08-20,-1,-0.0026941056678165603,-0.002450470743438956,-0.020002435887598233,0.012875033671285542,0.9816625494670591
2015-08-24,-1,-0.003971765237979403,-0.0035610471136050107,-0.015248088712342686,0.012875033671285542,0.9832320913773743
2015-08-26,-1,-0.003752418369325324,-0.0034121720134894008,-0.013909187820762567,0.011091277105199233,0.9839401797974723
2015-08-28,-1,-0.002483001750984053,-0.0022510919810866427,-0.015586670868926842,0.005873113418854213,0.9845720399009382
2015-09-01,-1,-0.003807509008320468,-0.0034050097590032774,-0.013909187820762567,0.009857170122633933,0.9855757868236046
2015-09-03,-1,-0.0031614296352394148,-0.0028450552986701233,-0.01506113880644853,0.01375594080005358,0.9844003128204586
2015-09-08,-1,-0.0019071409695043664,-0.001838408871635812,-0.013909187820762567,0.014416694329017814,0.9825180058906288
2015-09-10,-1,-0.0025181298233068476,-0.002367361223350148,-0.012197437794745625,0.025071408845599805,0.9792467285073764
2015-09-14,-1,-0.002953078795333307,-0.0027441143829559206,-0.018827260190363904,0.025071408845599805,0.9773178778512114
2015-09-16,-1,-0.00116190812331832,-0.0011589900991535156,-0.023341442166009377,0.014416694329017814,0.9782741640075608
2015-09-18,-1,-0.002282720775768814,-0.002199343862434264,-0.018895302397408074,0.014416694329017814,0.9790651227739063
2015-09-22,-1,-0.0021673000799195047,-0.0021296472523133084,-0.018895302397408074,0.014416694329017814,0.97897506276859
2015-09-24,-1,-0.0036660175341967573,-0.0034023118246847882,-0.018895302397408074,0.02434560269258617,0.9782938199828555
2015-09-28,-1,-0.0035348088567347087,-0.003319616174809395,-0.01752392602943534,0.02434560269258617,0.9786741678146668
2015-09-30,-1,-0.0024116084374366667,-0.0023086608904247597,-0.01752392602943534,0.02665546874675437,0.9778945398286311
2015-10-02,-1,-0.0019145553210270243,-0.0018675335068889943,-0.013195111313418495,0.02740745063569742,0.9780133144255098
2015-10-06,1,0.001620171581472671,0.0021054427546293828,-0.013195111313418495,0.026970291695310594,0.9800064330083322
2015-10-08,1,0.004550545379862757,0.005445920289558934,-0.013195111313418495,0.011077701012456784,0.9824235112857997
2015-10-12,1,0.0026828496889232485,0.0033148762766276674,-0.011520797322450493,0.011077701012456784,0.9841738109689835
2015-10-14,1,0.0018096138829515969,0.002343831466006258,-0.00701068949645859,0.011077701012456784,0.9856447927892218
2015-10-16,1,0.0002047269858348684,0.0004893662201861871,-0.0066911409571192145,0.011077701012456784,0.9861433031425307
2015-10-20,1,0.0003307355940316011,0.0006168156869004222,-0.00701068949645859,0.0158091496522416,0.9852002901580741
2015-10-22,1,0.0014034199658688174,0.0018513110118222424,-0.0066911409571192145,0.0158091496522416,0.9859566252990042
2015-10-26,1,0.0017601413004596587,0.0022322564885754485,-0.00637438946940276,0.009400178620274877,0.9869041196025675
2015-10-28,1,0.002718949178165669,0.0033027352958853724,-0.00620721902925315,0.009400178620274877,0.9881666995328102
2015-10-30,1,0.004298871073809163,0.005113486033680597,-0.00620721902925315,0.007056461437575051,0.9888036258228425
2015-11-03,1,0.005508229442208138,0.006477423010584505,-0.006386362138295232,0.003852857572289671,0.987962684175986
2015-11-05,1,0.0049245207297309215,0.0057895111378426165,-0.007087827528982485,0.003852857572289671,0.9882960251500188
2015-11-09,1,0.0042316975503473835,0.0050312485072422555,-0.0115029335523657,0.003852857572289671,0.9867055720190361
2015-11-11,1,0.004516196412594337,0.00536742262029782,-0.0115029335523657,0.00205626678312698,0.9867102779432467
2015-11-13,1,0.0033556289924585266,0.0040364117946666,-0.0115029335523657,0.0037272542821653325,0.9883913663764271
2015-11-17,1,0.0029577119721200737,0.0035388735081522,-0.008401727575877212,0.0037272542821653325,0.9888058475095857
2015-11-19,1,0.004069118866716567,0.004833045746239245,-0.012551569762941691,0.0009138541791246186,0.9870522868079569
2015-11-23,1,0.0039906091183263374,0.004737015232716444,-0.012551569762941691,0.00205626678312698,0.9870837268079165
2015-11-25,1,0.003930735409427225,0.004629775423238945,-0.012551569762941691,0.0037272542821653325,0.9861457727934766
2015-11-30,1,0.0035447498548192343,0.004161948307894567,-0.018221310598130428,0.00439492866034253,0.9852135599243491
2015-12-02,1,0.0028842084049631334,0.0034074719368912074,-0.0127719856439138,0.00439492866034253,0.9854637472862248
2015-12-04,1,0.002358531165862717,0.002790777896697618,-0.018221310598130428,0.00439492866034253,0.9850079813237909
2015-12-08,1,0.0002341502150815417,0.0003840132427644017,-0.018047047052715176,0.00439492866034253,0.9866637009756369
2015-12-10,1,3.470141845536218e-05,0.00011605862741213813,-0.020602283351041778,0.00439492866034253,0.9849105802986647
2015-12-14,-1,-0.0007713891809485862,-0.0007248502452588411,-0.018047047052715176,0.0054513058744917195,0.9853807702210793
2015-12-16,-1,-0.0009914350870550656,-0.0008694325348769454,-0.02061736944364776,7.437080759181854e-05,0.9850762994353515
2015-12-18,-1,-0.0016079049584367755,-0.0014426729571882092,-0.018047047052715176,0.004076235857449291,0.9856364174839699
2015-12-22,-1,-0.001500972447754797,-0.0013504375008796038,-0.018047047052715176,0.006077084384382647,0.9840366542009271
2015-12-24,1,0.00022761316281447224,0.00026386015232861444,-0.02061736944364776,0.004076235857449291,0.9827548632232632
2015-12-29,1,0.0005696906011382794,0.0006926762626165085,-0.02061736944364776,0.004076235857449291,0.9832095677138722
2015-12-31,1,0.0007412059708551476,0.0009747172628601329,-0.02061736944364776,0.006077084384382647,0.9823751445153527
2016-01-05,1,0.0002195016907239501,0.0002839168009627959,-0.02152756916346419,0.009709294420932464,0.9801487497101932
2016-01-07,-1,-0.001355344527795989,-0.00121461349418059,-0.016465296524109524,0.017592338877322696,0.979572683651497
2016-01-11,-1,-0.0026513476708617915,-0.0023484893988856507,-0.016465296524109524,0.017592338877322696,0.9801074667996208
2016-01-13,-1,-0.0035303852569694852,-0.0030785748591444766,-0.011244238224334987,0.018745190849921267,0.9800485948476734
2016-01-15,-1,-0.005940858943731736,-0.00517914743558746,-0.00916192659467151,0.027857105228509964,0.9783940256338536
2016-01-20,-1,-0.00650787490382335,-0.0056629919916120815,-0.008353289429032395,0.02990054888331193,0.9773236050472802
2016-01-22,-1,-0.0035575897056833775,-0.003120545806395152,-0.00916192659467151,0.02990054888331193,0.9760930594981233
2016-01-26,-1,-0.0036134265195863933,-0.0030817136118610556,-0.00916192659467151,0.027857105228509964,0.9782560209273015
2016-01-28,-1,-0.003162085916546241,-0.00270553496115967,-0.008414569689836213,0.027857105228509964,0.9782153843086157
2016-02-01,-1,-0.002209823704684712,-0.0018800784844926414,-0.008414569689836213,0.025825992120211638,0.9787723096057689
2016-02-03,-1,-0.0018774000341717817,-0.0015556499589220087,-0.007532935633804791,0.020800042312641282,0.9813114522075923
2016-02-05,1,0.00012841802965245344,0.00023985310278169537,-0.007532935633804791,0.020800042312641282,0.9820038332740312
2016-02-09,1,0.00023498923546683717,0.0002472742833094278,-0.00720426447350676,0.020800042312641282,0.9815377663453981
2016-02-11,-1,-0.0007233972429429533,-0.0005079488200003036,-0.006577918547716345,0.025825992120211638,0.9812727970866815
2016-02-16,1,0.0009917880362316008,0.0010227844679954236,-0.00720426447350676,0.017075816254590842,0.9823209608250042
2016-02-18,1,0.0013953450074045775,0.0014221772853288037,-0.00720426447350676,0.017075816254590842,0.9816603066211832
2016-02-22,1,0.0016051616506593375,0.0016316958015414116,-0.006577918547716345,0.016769516057377424,0.9847328207016292
2016-02-24,1,0.0009180740096638368,0.000977023068016167,-0.006577918547716345,0.016769516057377424,0.9834011187682455
2016-02-26,1,0.000993206837351925,0.0010186063791760452,-0.006587742600078471,0.016469128936657584,0.98382924707245
2016-03-01,1,0.002650312433719453,0.003004728833752193,-0.005707380754025039,0.014672675191489145,0.9848987352499041
2016-03-03,1,0.004295941615787644,0.005014928302080321,-0.008204707983924666,0.014672675191489145,0.9844433382563347
2016-03-07,1,0.0048799047151905665,0.005568617283760571,-0.011234488466349824,0.00843735497395734,0.983600670506619
2016-03-09,1,0.0031161033877534373,0.0035076291688301018,-0.010912856195185484,0.00843735497395734,0.985736121764121
2016-03-11,1,0.0033165043555067938,0.0036477589928921896,-0.010912856195185484,0.005858064238512836,0.9870074974392099
2016-03-15,1,0.0024868786354030376,0.002708071213407743,-0.008100190236270547,0.010394279220018753,0.9866539969538549
2016-03-17,1,0.004040418637917015,0.004505013591845447,-0.008100190236270547,0.005858064238512836,0.9878493565965302
2016-03-21,1,0.004921047516891164,0.005519768945414296,-0.008100190236270547,0.004815528102003964,0.9867163632242828
2016-03-23,1,0.0037478571506936124,0.004240519185317374,-0.004985413182339444,0.005858064238512836,0.9894450924458429
2016-03-28,1,0.004037158877502767,0.004633673119121876,-0.0044190756451228325,0.0083758246611462,0.9891460003866025
2016-03-30,1,0.0045896876933132925,0.005318788609483887,-0.0044190756451228325,0.016480550313495233,0.9881256257553381
2016-04-01,1,0.004263080321353379,0.004929424168284723,-0.0044190756451228325,0.018428799768351774,0.9861131190710462
2016-04-05,1,0.002781252759386095,0.00320780617683661,-0.0030909049623910442,0.018428799768351774,0.9873173028531387
2016-04-07,1,0.002712193707425317,0.0031333738416649388,-0.006486886377722079,0.018428799768351774,0.985236595806812
2016-04-11,1,0.0023202765455342354,0.0026290256602270264,-0.012933700278077897,0.018428799768351774,0.9837190843772379
2016-04-13,1,0.0037185272125718136,0.004203717859464779,-0.012933700278077897,0.016480550313495233,0.9849205791554281
2016-04-15,1,0.003919796229447191,0.004474197310650583,-0.014308107541370123,0.016480550313495233,0.9839233919129569
2016-04-19,1,0.005000306257153763,0.005689265272113967,-0.014308107541370123,0.010880353451658057,0.9850284198262463
2016-04-21,1,0.005444878864800309,0.006205432162189059,-0.015545872857280641,0.008736126419440242,0.9844478234999723
2016-04-25,1,0.004993621806925748,0.0056852121005330145,-0.013461707187973643,0.010880353451658057,0.9849524051153298
2016-04-27,1,0.005660459636809657,0.006403004325885727,-0.013461707187973643,0.011718133144321186,0.9837927073067362
2016-04-29,1,0.006030007392874771,0.00679381142178687,-0.011968227293960196,0.008736126419440242,0.9856325405644725
2016-05-03,1,0.004540855159861205,0.004985617231339547,-0.011314414334252374,0.008736126419440242,0.9869414010669199
2016-05-05,1,0.003220579190634225,0.003482651893032984,-0.006025839877485472,0.011128340715044116,0.9892185953968717
2016-05-09,1,0.002451291350903756,0.0025747524557792395,-0.003299860671461842,0.01761636421960654,0.9884002741163526
2016-05-11,1,0.003177369920959271,0.0034012833099111347,-0.003299860671461842,0.014536662045718313,0.9889302630194814
2016-05-13,1,0.0018497775511572832,0.0018569302589897683,-0.003299860671461842,0.014536662045718313,0.9878873515789763
2016-05-17,1,0.0019010164958506853,0.0019108244936212177,-0.0057774975213315104,0.014536662045718313,0.9877193716519042
2016-05-19,1,0.0021099144857491072,0.0022172536164165933,-0.003298123373496397,0.014536662045718313,0.9879268524346261
2016-05-23,1,0.0026143095792925384,0.0027862350884627803,-0.0057774975213315104,0.012382352364981688,0.9878139793697965
2016-05-25,1,0.003800461854333541,0.004084826329661194,-0.0057774975213315104,0.010953150418360407,0.9892030928497428
2016-05-27,1,0.002764564939326675,0.0030029186119991786,-0.010885150857123384,0.010953150418360407,0.9824249435995963
2016-06-01,1,0.001897489563657232,0.0019212759684334687,-0.010885150857123384,0.012496448458822538,0.9812127934794941
2016-06-03,1,0.0016049923503320854,0.0016785361392656945,-0.010885150857123384,0.012496448458822538,0.9810642820804012
2016-06-07,1,0.0027087472306528953,0.0027429893424714947,-0.01399690629732326,0.011978937807639891,0.9812981824863389
2016-06-09,1,0.002014955965455323,0.002133086220650713,-0.01399690629732326,0.012957881282846091,0.9810843640672408
2016-06-13,0,-4.589995945470087e-05,0.00034526542408270904,-0.006885898393885881,0.015626287187355037,0.9811161901066013
2016-06-15,1,0.00037620024435536074,0.000681462219162164,-0.006472133287227482,0.016278783316536913,0.9807062165381286
2016-06-17,1,0.0003076249731669966,0.0006197165241242927,-0.005167220880340445,0.016278783316536913,0.9814327738072457
2016-06-21,0,-0.00011929540850326957,0.00025423337026271304,-0.005167220880340445,0.016278783316536913,0.9811481736132823
2016-06-23,1,0.00034876146811442185,0.0006483876669703992,-0.0062605300957972055,0.016278783316536913,0.9815205230387023
2016-06-27,-1,-0.004778776253183442,-0.003915391719778497,-0.003012296665956948,0.017842212824781246,0.9854712346568338
2016-06-29,-1,-0.002578156938917604,-0.002067793385761606,-0.003012296665956948,0.01751019414882034,0.9870791340423775
2016-07-01,-1,-0.0025488166875699083,-0.0019898918817732236,-0.007432879783467356,0.016258348746021545,0.9853203869576507
2016-07-06,-1,-0.0030074527513026666,-0.0024029782997815946,-0.006828580624587698,0.016864193736506328,0.9861947442649386
2016-07-08,-1,-0.0014221882571752206,-0.0010906427699943152,-0.006828580624587698,0.011112727346518123,0.986870402147495
2016-07-12,1,0.0005419103317240598,0.0005971197359713729,-0.007007718272335767,0.01009447030914479,0.9879402725593761
2016-07-14,1,0.000925034766202877,0.0009270286392101451,-0.007007718272335767,0.01009447030914479,0.9877897406656259
2016-07-18,-1,-0.000268346217190987,-7.892380211243805e-05,-0.007007718272335767,0.013543103764390652,0.9871301566259779
2016-07-20,-1,-0.00045038847081258025,-0.00024625301500956086,-0.006913190929527399,0.013543103764390652,0.9880492909097892
2016-07-22,-1,-0.0004692920891695067,-0.0002762095884573018,-0.006758761428438054,0.013543103764390652,0.9880255467834493
2016-07-26,1,0.0003697973209094195,0.00044008447502215994,-0.006913190929527399,0.009440438702447568,0.9890272883089679
2016-07-28,1,0.0016033932519832002,0.0017719650828992924,-0.007007718272335767,0.007312985368135063,0.9894808104550296
2016-08-01,-1,-0.0015063142030682874,-0.0012260382618556847,-0.004906557408116057,0.008761373512867616,0.9916005624686511
2016-08-03,-1,-0.0005254221628037917,-0.0003930530932945396,-0.006913190929527399,0.007312985368135063,0.9920329990480988
2016-08-05,-1,-0.0008128928970953299,-0.0005974317796912492,-0.006913190929527399,0.008761373512867616,0.9916061184366171
2016-08-09,1,0.00015306260811809796,0.0001694772447065995,-0.007002651636873931,0.007312985368135063,0.9917359425660905
2016-08-11,1,0.0010713107172027185,0.0012197000295361138,-0.007453954441168585,0.00616522800848003,0.9909402842400906
2016-08-15,1,0.00034981596394812646,0.0004077507673660122,-0.008711107936623,0.00616522800848003,0.9898555769873902
2016-08-17,1,0.00016949126077380573,0.0002694649288799222,-0.008711107936623,0.007312985368135063,0.9894563188826823
2016-08-19,1,0.0005277792712055248,0.0005814658051574163,-0.008711107936623,0.007681321824321519,0.9892523795796244
2016-08-23,1,0.00033091845905145357,0.0004167737361639723,-0.011742667561939524,0.010668114488258357,0.9884265241375861
2016-08-25,-1,-0.0011292153316924101,-0.0008100215408869056,-0.013581608562778878,0.013445510208022956,0.9861059520912562
2016-08-29,-1,-0.0007587169327612389,-0.0004729058529990915,-0.014409177640284508,0.013445510208022956,0.9857497275623057
2016-08-31,-1,-0.0015672450014566333,-0.0011805308663429635,-0.014409177640284508,0.014582223812043075,0.9850483009403399
2016-09-02,-1,-0.00040178829798618644,-0.00023510505357967048,-0.014409177640284508,0.014725399382002062,0.9850637762434691
2016-09-07,-1,-0.0011423834967799829,-0.000879755717926561,-0.01126668017480862,0.014725399382002062,0.9847244030633755
2016-09-09,-1,-0.0016950493181856162,-0.0014365462463223624,-0.01126668017480862,0.014725399382002062,0.9851701826078263
2016-09-13,-1,-0.00154733714698934,-0.0013268110343832233,-0.01126668017480862,0.01346562111423168,0.9856489746258813
2016-09-15,-1,-0.001246210847381763,-0.001041981977222752,-0.01624546017988707,0.011441008243917729,0.9851958125812215
2016-09-19,-1,-0.00014214488848057332,-0.00012424088788799684,-0.01624546017988707,0.008829819805144776,0.9850301927982068
2016-09-21,1,0.0001453320662707493,0.000199554138224789,-0.01126668017480862,0.008829819805144776,0.9846002299143708
2016-09-23,-1,-0.0007904641568773329,-0.0007017979002212117,-0.01126668017480862,0.004100892515849091,0.9871122791966757
2016-09-27,-1,-0.001982567548552588,-0.001680323060952104,-0.00965751538918326,-8.884563521985647e-05,0.9884377520972197
2016-09-29,-1,-0.0011481154843564405,-0.0009118594169316094,-0.00965751538918326,-0.0024887458801193295,0.9888539376382646
2016-10-03,1,8.304519733822135e-06,5.975877240658591e-05,-0.0113642560472081,-0.0029793943682137154,0.9875383124962152
2016-10-05,-1,-0.0002544982871242427,-1.8699131379739395e-05,-0.013310966714090426,-0.0038769263946394203,0.9878248346440273
2016-10-07,-1,-0.0012282538329173433,-0.0008922235765776888,-0.010306418944810701,-0.0029793943682137154,0.9894272646558003
2016-10-11,-1,-0.003014288051852887,-0.002441714141950154,-0.008327023297334049,-0.0016886126654570757,0.9910721412969665
2016-10-13,-1,-0.0038213827882822068,-0.0031566801347985888,-0.006556439464247631,0.00578692459182535,0.9875511364181652
2016-10-17,-1,-0.0029831144386428445,-0.002554280579583259,-0.00589505591329183,0.00578692459182535,0.9876397578626805
2016-10-19,-1,-0.0019622636783615424,-0.0016372184277432724,-0.00589505591329183,0.0024521728398391555,0.989130753305101
2016-10-21,-1,-0.0026905244544354855,-0.0022807421854702317,-0.005678502508174876,0.003799301807819975,0.9893918970578678
2016-10-25,-1,-0.002545145810204239,-0.0021924354477512466,-0.0046279852705285625,0.0072346244228906655,0.9885088823400481
2016-10-27,-1,-0.0010059429741548845,-0.0009363689938509255,-0.0036888429960653243,0.004208751124363359,0.9893516435607391
2016-10-31,-1,-0.0013337161631399338,-0.0012444327857359543,-0.0046279852705285625,0.004208751124363359,0.9890868019966088
2016-11-02,-1,-0.0027702356990379554,-0.0024323756836928502,-0.0026685790664328496,0.014284795199402782,0.9842012557767404
2016-11-04,-1,-0.0028536446286520616,-0.002517726530600912,-0.0036888429960653243,0.014284795199402782,0.9840941124509562
2016-11-08,-1,-0.002264900461062499,-0.0020077704245230867,-0.0026685790664328496,0.018062513310558893,0.9830415824949914
2016-11-10,1,0.001322822726088328,0.001493986852768432,-0.0026685790664328496,0.013493451860143814,0.9878156093750197
2016-11-14,1,0.0013269088464774675,0.0015123358502918374,-0.008530381129753078,0.013493451860143814,0.9870093210541073
2016-11-16,-1,-0.0007597676928687078,-0.00045663221350790515,-0.008655379386198378,0.013493451860143814,0.9854083044415941
2016-11-18,1,7.115809554524363e-05,0.00022496412583210642,-0.008860453580545732,0.013493451860143814,0.984705340608248
2016-11-22,1,0.001119585398891343,0.0011276734178022265,-0.008860453580545732,0.012351267380799141,0.9845803187492214
2016-11-25,1,0.0008480891855771658,0.0008961913587500297,-0.008860453580545732,0.012351267380799141,0.9839992271046364
2016-11-29,0,-9.337373540136182e-05,3.130190552014521e-05,-0.008771967478389636,0.012905145107751075,0.984608555157846
2016-12-01,1,0.004706036220661312,0.005287551167340292,-0.009278303984412612,0.007728447171694518,0.9879564287062663
2016-12-05,1,0.004295442619437437,0.004851470515808273,-0.009278303984412612,0.012145813706075446,0.9882972364602234
2016-12-07,1,0.005475561870311436,0.006168880790046519,-0.010447200318419187,0.007543715773299059,0.9884208639283663
2016-12-09,1,0.005563745996884035,0.006246660942466897,-0.010447200318419187,0.007314938602653639,0.9882197810287408
2016-12-13,1,0.004556332377916694,0.0050861389953236625,-0.007743168494451389,0.01053593069157337,0.9891333334682071
2016-12-15,1,0.003802614172757536,0.004268211941263093,-0.006977988997848816,0.01053593069157337,0.9905070304823855
2016-12-19,1,0.003729630266368987,0.004218721553539346,-0.006564828879590745,0.01053593069157337,0.9911842403214709
2016-12-21,1,0.00327236120722716,0.003570461295773061,-0.006564828879590745,0.009646602082844742,0.9909354128721439
2016-12-23,1,0.002880971196038244,0.0031391621753973594,-0.005491726690521571,0.011579330644753912,0.990305114411576
2016-12-28,1,0.0027292368894795927,0.0029817498452550505,-0.0053744845049270755,0.01053593069157337,0.9911658723754602
2016-12-30,1,0.002415049933100201,0.002634893905545304,-0.0060959802322015,0.01053593069157337,0.9894166999099978
2017-01-04,1,0.0035643149772842646,0.003958359991029985,-0.006626622726031541,0.009201011417715605,0.9893257347737642
2017-01-06,1,0.0031674921625457395,0.003521220155804291,-0.0060959802322015,0.009456216028192898,0.989738556606423
2017-01-10,1,0.0032306872461338784,0.0036004252735513096,-0.005965407632386092,0.01032184096886212,0.9886567707584065
2017-01-12,1,0.003595742574178155,0.0040336253456906175,-0.005370041033520105,0.009456216028192898,0.9893645949680571
2017-01-17,1,0.003638518702670038,0.004077337667828503,-0.005965407632386092,0.009808348093443671,0.9889735455379787
2017-01-19,1,0.0038158803271572516,0.004250691860529195,-0.006388347401346825,0.009808348093443671,0.9887082738708969
2017-01-23,1,0.0037596511042337377,0.004195466571348228,-0.00847987040900102,0.009808348093443671,0.9867074715071898
2017-01-25,1,0.004483243281070299,0.004969250801907896,-0.012966591964576581,0.005538835283692495,0.9857566932920402
2017-01-27,1,0.004328247619639942,0.004818784940566012,-0.012966591964576581,0.006572023219586519,0.9858927557584771
2017-01-31,1,0.0025799351630678164,0.0027992496531100107,-0.00847987040900102,0.009808348093443671,0.9851570032082382
2017-02-02,1,0.0012871127946051358,0.0013027171864281029,-0.010900068781716243,0.009808348093443671,0.9844127782459122
2017-02-06,1,0.001106547446162497,0.0011598216342546984,-0.010900068781716243,0.006834762010709615,0.9845304019239105
2017-02-08,1,0.0027629801174223114,0.002941961157288689,-0.012379713330089331,0.005357261709640384,0.9852943136259192
2017-02-10,1,0.0029677118113839093,0.0031883594303780795,-0.012379713330089331,0.005371259234634608,0.9847036233593595
2017-02-14,1,0.002692320094794775,0.002860996613850095,-0.015924260579048118,0.005371259234634608,0.9832222962159711
2017-02-16,1,0.0022718966470518585,0.0023592139242850007,-0.015924260579048118,0.004982183389176264,0.9834758801146771
2017-02-21,1,0.0007821873123769518,0.0008990350433236709,-0.015924260579048118,0.004982183389176264,0.9849532207358157
2017-02-23,1,0.00040235022864064575,0.0005033005031501235,-0.01208158453136917,0.004653287690894447,0.9869197887628999
2017-02-27,1,0.0014059574784671593,0.0014548870141240216,-0.01208158453136917,0.0034877247127457697,0.9859994005063155
2017-03-01,1,0.0017012139675416356,0.001788578154449134,-0.009709729262913589,0.004518944126098299,0.9888937227531764
2017-03-03,0,-3.7147163805165574e-05,0.00013966842107573626,-0.00612152751060082,0.005774466887764309,0.9897029162416073
2017-03-07,-1,-0.0012102504005472177,-0.0008341353729421593,-0.005843577216380071,0.005774466887764309,0.9896075678499057
2017-03-09,-1,-0.0024779445868853564,-0.0019071936733109614,-0.00552717594578481,0.009727020202039603,0.9889692359860978
2017-03-13,-1,-0.0021347730953060525,-0.0015758657424438792,-0.00552717594578481,0.009440767958017356,0.9895838613652557
2017-03-15,-1,-0.0006057610585599442,-0.00027271233204430865,-0.00552717594578481,0.005684754440791034,0.9907717725248535
2017-03-17,-1,-0.0014337620485958109,-0.0009645197093186462,-0.005843577216380071,0.009440767958017356,0.9894251819205363
2017-03-21,-1,-0.002631420344001911,-0.002002610159092708,-0.00514869481884357,0.009440767958017356,0.9897594254045273
2017-03-23,-1,-0.0024482040576166535,-0.0018526373112804355,-0.005843577216380071,0.011799438517009642,0.9886664926694687
2017-03-27,-1,-0.0029996226965147135,-0.0023823648124392267,-0.00514869481884357,0.013038645557608116,0.9882906046507343
2017-03-29,-1,-0.0032247248935750017,-0.002545963952023999,-0.005843577216380071,0.013038645557608116,0.9881500149887189
2017-03-31,-1,-0.002817005288091167,-0.0021685510190181407,-0.006744296622615345,0.012179888825541373,0.9882138346756765
2017-04-04,-1,-0.0032610416846350636,-0.002571027353012277,-0.005514537911964377,0.012179888825541373,0.9876635555674748
2017-04-06,-1,-0.0003486399804156163,-0.00016645769702126325,-0.007872669676147217,0.012179888825541373,0.9862780235967928
2017-04-10,-1,-0.0003140129866239306,-0.0001208287236269662,-0.009848168395883072,0.011548965501405505,0.9861983282245614
2017-04-12,-1,-0.001486359864352122,-0.0011507546116888885,-0.009848168395883072,0.013007742398968803,0.9864151619433524
2017-04-17,-1,-0.0012437269747232337,-0.0009462142242396986,-0.007820547504082688,0.012673757946437464,0.9873820044404353
2017-04-19,-1,-0.0008634732815224839,-0.0006369024319889718,-0.009848168395883072,0.012673757946437464,0.9867693640372536
2017-04-21,-1,-0.0004886091116967277,-0.00030983623501479513,-0.007820547504082688,0.011648881534714817,0.9875413882461044
2017-04-25,1,1.548655910671784e-07,0.00018148416866075332,-0.007820547504082688,0.00816585998897447,0.9891542802716843
2017-04-27,1,0.0021497642808324525,0.002439750492370809,-0.010219361456391709,0.006666455831356427,0.9882229622936051
2017-05-01,1,0.0010825026173162293,0.001195283466213115,-0.009543926386833504,0.006666455831356427,0.9892544838576409
2017-05-03,1,0.002006463216719642,0.0023362021338743703,-0.009543926386833504,0.008329415787214741,0.9889167901552576
2017-05-05,1,0.0021891063043108752,0.002567034755027724,-0.009543926386833504,0.005245964960743875,0.990882158435425
2017-05-09,1,0.0012913863272347816,0.0015031123023111657,-0.012493088579876317,0.005245964960743875,0.9893919089631681
2017-05-11,1,0.0007393261795917466,0.0008185242218468257,-0.010725950048109107,0.007658640082807383,0.9895862918602842
2017-05-15,1,0.0008999518769526298,0.0009749079434080375,-0.010725950048109107,0.007658640082807383,0.9889661440562031
2017-05-17,1,0.0002639917092160833,0.0003002432093391292,-0.010725950048109107,0.007658640082807383,0.9889383158815758
2017-05-19,1,0.0005659048068816412,0.0006193559283029363,-0.010725950048109107,0.005121396238845857,0.9896141829044188
2017-05-23,1,0.0006679412919320408,0.0007218835565058404,-0.021262559621777283,0.004214772615921594,0.9862538419427395
2017-05-25,-1,-0.0007565696027855336,-0.0006279444481799036,-0.0160009670116643,0.004819223361912993,0.9872722375233288
2017-05-30,1,0.00022095250274956502,0.00026502174757710476,-0.0160009670116643,0.005889603136573315,0.9864927373730762
2017-06-01,1,0.0006437305378998917,0.0007159148685411832,-0.0160009670116643,0.005549613361739075,0.9870825730844303
2017-06-05,1,0.0001895101302520514,0.0002044546173588674,-0.008331609229075122,0.009228366958146236,0.9865208182582365
2017-06-07,-1,-0.0014113489568941106,-0.001252471942732368,-0.0043035402781289225,0.009228366958146236,0.9877345844997824
2017-06-09,-1,-0.0004271982067670103,-0.00039194330005650385,-0.0043035402781289225,0.005549613361739075,0.989049268079772
2017-06-13,1,0.0009086778967137103,0.0010762770646479776,-0.005655503416776588,0.005549613361739075,0.9894867443081065
2017-06-15,-1,-3.597013580140396e-05,-2.0315099112898225e-06,-0.005655503416776588,0.007592085044282595,0.9897553656404788
2017-06-19,1,0.0007220634452613433,0.0009316676150725536,-0.0065263296231353185,0.007592085044282595,0.9894917313096097
2017-06-21,-1,-0.0018557792074283255,-0.0017288771448370657,-0.0043035402781289225,0.008665923483063939,0.9918469009624692
2017-06-23,-1,-0.0023006456713754193,-0.00204417600958818,-0.004977054533823112,0.008665923483063939,0.992065126816186
2017-06-27,-1,-0.0020046080714041007,-0.0017547919630049578,-0.006317658833589467,0.008665923483063939,0.9917835990117702
2017-06-29,-1,-0.0016321376469849024,-0.0014367134412327622,-0.007935663903358191,0.008665923483063939,0.9874093926024714
2017-07-03,1,0.0014179860761566287,0.0015464974700067063,-0.007935663903358191,0.005724476443485248,0.9877468009890622
2017-07-06,1,0.0010499752500277451,0.0011396781276607794,-0.008389276178054364,0.008080661660998537,0.9873977023809525
2017-07-10,1,0.0010576153037840806,0.0011478514405144245,-0.0110096104849719,0.008080661660998537,0.9865785726856191
2017-07-12,1,0.0009887312379273593,0.0010648248635930844,-0.013566983766060704,0.005578366721575563,0.9859406962612902
2017-07-14,1,0.00024214740623586373,0.00031312982615816325,-0.013566983766060704,0.004824040618321853,0.9862398869062106
2017-07-18,-1,-0.00040385207638774445,-0.00020860561775241872,-0.013566983766060704,0.00567157362932772,0.9860764665997962
2017-07-20,1,0.00033201433327061016,0.00040555469269326486,-0.015827903489267554,0.0013915788563645221,0.9849921622215746
2017-07-24,1,0.00032893029804441603,0.0003885808199808298,-0.015827903489267554,0.0008489786197270004,0.9843281359566936
2017-07-26,0,-3.478252701289114e-05,0.00012141617728579873,-0.015827903489267554,0.0008489786197270004,0.9844813507165585
2017-07-28,-1,-0.0021961917907079532,-0.0017655203932812568,-0.014508721829045314,0.00567157362932772,0.9891029953045658
2017-08-01,-1,-0.0023691391641861115,-0.0018922604208223251,-0.014508721829045314,0.005380632983108882,0.9893652429866785
2017-08-03,-1,-0.0022527471502920733,-0.0018255177297532938,-0.01346622398332406,0.007066785554814215,0.9895617191997049
2017-08-07,-1,-0.0020959774805624294,-0.0017320262974521747,-0.01251071040910421,0.007066785554814215,0.9897373123742136
2017-08-09,-1,-0.0033894239316693397,-0.0028651767682121854,-0.005437565199672213,0.00797074548111052,0.9902303545359968
2017-08-11,-1,-0.004032505780393969,-0.0033945744003173214,-0.005437565199672213,0.008512029565390353,0.9894457720400087
2017-08-15,-1,-0.003231588903782768,-0.0026977729553856146,-0.005437565199672213,0.008512029565390353,0.9896272182701775
2017-08-17,-1,-0.003640723199174531,-0.003088600484604013,-0.0021648547431036393,0.010085760140285031,0.9898038424903287
2017-08-21,-1,-0.004067844470558692,-0.0034863977685921986,0.00011616560857027447,0.01052490921365266,0.9891536705873886
2017-08-23,-1,-0.0025841853449606565,-0.002217632790991863,0.00011616560857027447,0.01052490921365266,0.9906430169486078
2017-08-25,-1,-0.002882100408140579,-0.002459246504191029,0.0002500634605917516,0.010571745928209747,0.990345242776326
2017-08-29,-1,-0.0021905499346742833,-0.0018823108647834,0.0002500634605917516,0.010571745928209747,0.9908415356816668
2017-08-31,-1,-0.0013545508950686762,-0.0011588172301065422,-0.00013156614580869894,0.010571745928209747,0.9913134222123233
2017-09-05,-1,-0.0016106886925960637,-0.0013408555362262632,-0.0016301403892946232,0.01109284104563309,0.9904186481293689
2017-09-07,-1,-0.001130019934712329,-0.0009258197129279712,-0.0005104743477638789,0.01109284104563309,0.9904524327789456
2017-09-11,-1,-0.0005917094942863044,-0.00045385731921844194,-0.00045357233677671346,0.010571745928209747,0.9918749820129269
2017-09-13,1,0.0004131233228124307,0.0004179135393193317,-0.00045357233677671346,0.009644524688763648,0.9925300760439077
2017-09-15,1,0.0017608195657628388,0.002033570459008025,-0.00045357233677671346,0.009023371882826068,0.9930676533860733
2017-09-19,1,0.0023212102808091036,0.0026785858967038347,-0.0016428377494641933,0.008229963922566962,0.9936297351107027
2017-09-21,1,0.002213269712612171,0.00251498780877636,-0.0016428377494641933,0.007927464487243598,0.994385047449624
2017-09-25,1,0.0030800467818886306,0.0035188079578603757,-0.0025961589621986665,0.007703239647009363,0.9933994133043103
2017-09-27,1,0.003254337271758222,0.003719706647815027,-0.0026328002690442598,0.007185012054877342,0.9932313283401465
2017-09-29,1,0.0023769969002620612,0.002687118666617999,-0.0026328002690442598,0.007185012054877342,0.9932730348358302
2017-10-03,1,0.002466372189607877,0.00278885352693587,-0.0026328002690442598,0.006991547575288505,0.993952410297852
2017-10-05,1,0.0031413493895928657,0.0035733935420544276,-0.0043314648259023866,0.0061381672603940075,0.9890245855743771
2017-10-09,1,0.0023957143175153024,0.00278447844106467,-0.0043314648259023866,0.006991547575288505,0.9884997824296433
2017-10-11,1,0.0031435207693555813,0.0036665946479488704,-0.00953989601853388,0.0061381672603940075,0.9871408001761559
2017-10-13,1,0.003909314319453247,0.0045480447123939765,-0.00953989601853388,0.004536415694956447,0.9871620585728265
2017-10-17,1,0.003413598532222061,0.003916898616244927,-0.00953989601853388,0.004536415694956447,0.9870361566176545
2017-10-19,1,0.0034246690414201928,0.003946500063659139,-0.010925261891613967,0.005400174930069199,0.9863842952639594
2017-10-23,1,0.003977074769300884,0.0046185837901275666,-0.00953989601853388,0.004536415694956447,0.9874203052920817
2017-10-25,1,0.003480816779762884,0.004022630038643502,-0.009121358746352672,0.00478080629215214,0.9877514537198726
2017-10-27,1,0.002490683772818053,0.0028045982252129942,-0.009098089909443953,0.00478080629215214,0.987292958243945
2017-10-31,1,0.0027202440976096306,0.003113433028655647,-0.008183369402061618,0.010025565127254207,0.9862338866524355
2017-11-02,1,0.0011359770219804364,0.0013909622439246439,-0.007005993052122753,0.011942697785493792,0.9896754627441589
2017-11-06,1,0.0015726488089793668,0.0018374912737056668,-0.008183369402061618,0.010697147452761045,0.9892869437612586
2017-11-08,1,0.0006480010700233754,0.0007945409855877538,-0.005824729334647512,0.011942697785493792,0.9892434642514132
