JNU-Tangyin/eata/results/Batch4_SP500/Batch4_SP500-NOXL.csv
Date,Action,Predicted_Q25,Predicted_Q75,Actual_Q25,Actual_Q75,RL_Reward
2010-12-13,0,-0.0005911433380716612,0.0,0.0,0.0,0.984782571967838
2010-12-15,1,0.0005689605217641388,0.0007434765419908544,0.0,0.0,0.9891428021308826
2010-12-17,0,0.0,0.0,0.0,0.0,0.9885107995170299
2010-12-21,0,0.0,0.0,0.0,0.0,0.9934208356395045
2010-12-23,0,0.0,0.0,0.0,0.0,0.9983798925753437
2010-12-28,0,0.0,0.0,0.0,0.0,0.9983798925753437
2010-12-30,0,0.0,0.0,0.0,0.0,0.9983798925753437
2011-01-03,0,0.0,0.0,0.0,0.0,0.9983798925753437
2011-01-05,1,0.0021682907726603097,0.0025082581986141505,0.0,0.0,0.9939919674857786
2011-01-07,0,0.0,0.0,0.0,0.0,0.9963076115969416
2011-01-11,0,0.0,0.0,0.0,0.0,0.9967080256444526
2011-01-13,0,0.0,0.0,0.0,0.0,0.9967080256444526
2011-01-18,0,0.0,0.0,0.0,0.0,0.9880609275953676
2011-01-20,0,0.0,0.0,0.0,0.0,0.9832036022789534
2011-01-24,0,0.0,0.0,0.0,0.0,0.9832036022789534
2011-01-26,0,0.0,0.0,0.0,0.0,0.9832036022789534
2011-01-28,0,0.0,0.0,-0.002358488444120755,0.0,0.9779424743202831
2011-02-01,0,0.0,0.0,-0.002358488444120755,0.0,0.9710361672467436
2011-02-03,-1,-0.00046883213236574394,-0.00035316428962803574,0.0,0.0,0.9728080121992506
2011-02-07,-1,-0.001371078788424798,-0.001160604163847449,0.0,0.0,0.9723530555124328
2011-02-09,-1,-0.0011511287595354094,-0.0009558393076424474,0.0,0.0,0.9724686997919036
2011-02-11,-1,-0.0017073593546443353,-0.0014833601131881329,0.0,0.0,0.9721704671795025
2011-02-15,1,0.0002961748716797947,0.00039319280764618056,0.0,0.0,0.9823165463043609
2011-02-17,0,0.0,0.0,0.0,0.0,0.9874159536615283
2011-02-22,0,0.0,0.0,0.0,0.0,0.9874159536615283
2011-02-24,0,0.0,0.0,0.0,0.0,0.9874159536615283
2011-02-28,1,0.0034549964356153855,0.003996341951447909,0.0,0.0,0.9899513114377663
2011-03-02,0,0.0,0.0,0.0,0.0,1.0
2011-03-04,0,0.0,0.0,0.0,0.0,1.0
2011-03-08,0,0.0,0.0,0.0,0.0,1.0
2011-03-10,0,0.0,0.0,0.0,0.0,1.0
2011-03-14,0,0.0,0.0,0.0,0.0,1.0
2011-03-16,0,0.0,0.0,0.0,0.0,1.0
2011-03-18,0,0.0,0.0,0.0,0.0,1.0
2011-03-22,0,0.0,0.0,0.0,0.0,1.0
2011-03-24,0,0.0,0.0,0.0,0.0,0.9950248756218907
2011-03-28,0,0.0,0.0,0.0,0.0,0.9917355364084357
2011-03-30,0,0.0,0.0,0.0,0.0,0.9917355364084357
2011-04-01,1,0.0013837908098802963,0.00158917191892098,0.0,0.0,0.9873855278840766
2011-04-05,1,0.0007576011425489864,0.0008087992905665511,0.0,0.0,0.9879879484596014
2011-04-07,-1,-0.0009829982542630283,-0.0008230068915234962,0.0,0.0,0.9879954377738315
2011-04-11,0,0.0,0.0,0.0,0.0,0.9838081559640491
2011-04-13,0,0.0,0.0,0.0,0.0,0.9838081559640491
2011-04-15,0,0.0,0.0,0.0,0.0,0.9838081559640491
2011-04-19,0,0.0,0.0,0.0,0.0,0.9838081559640491
2011-04-21,0,0.0,0.0,0.0,0.0,0.9838081559640491
2011-04-26,-1,-0.006257061528450319,-0.0059942110058562835,0.0,0.0,0.9781458817927128
2011-04-28,-1,-0.00691957817580652,-0.006536275503084814,0.0,0.0,0.9777735804981357
2011-05-02,-1,-0.006556682226314269,-0.006157459444378578,0.0,0.0,0.9803825313738551
2011-05-04,-1,-0.009173692135942216,-0.008485414352584646,0.0,0.0,0.9746627271755042
2011-05-06,-1,-0.008484784324435222,-0.00786567413708461,0.0,0.0,0.9750803794863894
2011-05-10,-1,-0.0042792038585928146,-0.004201827817873358,0.0,0.0,0.9819538948961282
2011-05-12,-1,-0.00509634162403184,-0.004894618897816201,0.0,0.0,0.9813945618692822
2011-05-16,0,-0.00027918551567124045,0.00029096512388299915,0.0,0.0,0.98509004679715
2011-05-18,-1,-0.0021149223401072848,-0.0018382879089567988,0.0,0.0,0.9837398920421025
2011-05-20,-1,-0.0006548003007638336,-0.0001879198628091279,0.0,0.0,0.9897731334374177
2011-05-24,-1,-0.0018046775948864584,-0.00150506081347906,0.0,0.0,0.9935820357250601
2011-05-26,-1,-0.0017480008538494588,-0.001459411328767393,0.0,0.0,0.9936264067347402
2011-05-31,-1,-0.0020620192423566643,-0.001815520534616078,0.0,0.0,0.9933246171660908
2011-06-02,-1,-0.0013655468458407746,-0.001031958599119448,0.0,0.0,0.9988026825650547
2011-06-06,0,0.0,0.0,0.0,0.0,1.0
2011-06-08,0,0.0,0.0,0.0,0.0,0.9950248756218907
2011-06-10,0,0.0,0.0,0.0,0.0,0.9900990099009901
2011-06-14,0,0.0,0.0,0.0,0.0,0.9900990099009901
2011-06-16,-1,-0.0009214784427631077,-0.0005180880915511099,0.0,0.0,0.9895038714207224
2011-06-20,-1,-0.001252726853493843,-0.0008116514628355919,0.0,0.0,0.9843635206247561
2011-06-22,-1,-0.0017401678079078527,-0.0012507505533105318,0.0,0.0,0.9793325232451816
2011-06-24,-1,-0.0019881484052867555,-0.0014623478970199433,0.0,0.0,0.9791628532641272
2011-06-28,-1,-0.0012565575952401464,-0.000917229869352285,0.0,0.0,0.9796188137784707
2011-06-30,0,0.0,0.0,0.0,0.0,0.9786154421387586
2011-07-05,0,0.0,0.0,0.0,0.0,0.9786154421387586
2011-07-07,1,0.00026175835902377144,0.0003207714283966001,0.0,0.0,0.9832129364560416
2011-07-11,0,0.0,0.0,0.0,0.0,0.9882869710501003
2011-07-13,0,0.0,0.0,0.0,0.0,0.9882869710501003
2011-07-15,0,0.0,0.0,0.0,0.0,0.9882869710501003
2011-07-19,0,0.0,0.0,0.0,0.0,0.9931947783458716
2011-07-21,1,0.00037997331602087063,0.00044860525811131133,0.0,0.0,0.9977870607846375
2011-07-25,0,0.0,0.0,0.0,0.0,0.9981515729973649
2011-07-27,0,0.0,0.0,0.0,0.0,0.9931947783458716
2011-07-29,0,0.0,0.0,0.0,0.0,0.9950248756218907
2011-08-02,0,0.0,0.0,0.0,0.0,0.9950248756218907
2011-08-04,0,0.0,0.0,0.0,0.0,0.9950248756218907
2011-08-08,-1,-0.0019248730497692219,-0.0018294112632600075,0.0,0.0,0.9933644429741468
2011-08-10,-1,-0.0017278666736084002,-0.001661420600120062,0.0,0.0,0.9935236814412035
2011-08-12,-1,-0.0015271349732627589,-0.0014898244601701622,0.0,0.0,0.99368621645988
2011-08-16,-1,-0.0013293167302054906,-0.0013210297431212965,0.0,0.0,0.9938462755840194
2011-08-18,0,0.0,0.0,0.0,0.0,0.9950248756218907
2011-08-22,0,0.0,0.0,0.0,0.0,0.9900990099009901
2011-08-24,0,0.0,0.0,0.0,0.0,0.9950248756218907
2011-08-26,0,0.0,0.0,0.0,0.0,0.9950248756218907
2011-08-30,0,-7.286504437176877e-05,2.7849494076954463e-05,0.0,0.0,0.9949777817647385
2011-09-01,1,1.3112930595658007e-05,0.0001290311179413754,0.0,0.0,0.9949625144210581
2011-09-06,1,0.00010156206974945656,0.00023243988122814571,0.0,0.0,0.9948890429785555
2011-09-08,1,0.00018895577852776248,0.00033460243736733314,0.0,0.0,0.9948060811090015
2011-09-12,1,0.00027645979508051537,0.0004366213881708865,0.0,0.0,0.9947231227764916
2011-09-14,1,0.0003005218633573002,0.00046552381487344663,0.0,0.0,0.9947000191060548
2011-09-16,1,0.0005242783176272943,0.0008407857578960671,0.0,0.0,0.9944483646256275
2011-09-20,1,0.0015525922693108308,0.00200160248048962,0.0,0.0,0.9932685225035701
2011-09-22,1,0.0016119199128177663,0.0020414816180804292,0.0,0.0,0.9932195870845907
2011-09-26,1,0.0014698899125038844,0.0018745180574004624,0.0,0.0,0.9886654247019784
2011-09-28,0,0.0,0.0,0.0,0.0,0.9852216748768474
2011-09-30,0,0.0,0.0,0.0,0.0,0.9852216748768474
2011-10-04,0,0.0,0.0,0.0,0.0,0.9852216748768474
2011-10-06,0,0.0,0.0,0.0,0.0,0.9852216748768474
2011-10-10,0,0.0,0.0,0.0,0.0,0.9852216748768474
2011-10-12,0,0.0,0.0,0.0,0.0,0.9803921568627451
2011-10-14,1,0.000462327930913687,0.0005133676148314247,0.0,0.0,0.9799752263765567
2011-10-18,-1,-3.5900706589149114e-05,-2.2202030705611565e-05,0.0,0.0,0.9852016354326499
2011-10-20,-1,-6.021934099990396e-05,-3.287232588957831e-05,0.0,0.0,0.9809885592172259
2011-10-24,0,0.0,0.0,0.0,0.0,0.976230900769809
2011-10-26,0,0.0,0.0,0.0,0.0,0.976230900769809
2011-10-28,0,0.0,0.0,0.0,0.0,0.976230900769809
2011-11-01,0,0.0,0.0,0.0,0.0,0.971488913285287
2011-11-03,0,0.0,0.0,0.0,0.0,0.971488913285287
2011-11-07,0,0.0,0.0,0.0,0.0,0.9667927709929669
2011-11-09,0,0.0,0.0,0.0,0.0,0.971488913285287
2011-11-11,0,0.0,0.0,0.0,0.02173912550528706,0.9667927709929669
2011-11-15,0,0.0,0.0,0.0,0.02173912550528706,0.9667927709929669
2011-11-17,0,0.0,0.0,0.0,0.025,0.9661835748792271
2011-11-21,0,0.0,0.0,0.0,0.0,0.9756097560975611
2011-11-23,1,0.0019111921395629275,0.00198247476335809,0.0,0.0,0.9791023817828283
2011-11-28,1,0.001844720506425898,0.001912520994165948,0.0,0.0,0.979147261885327
2011-11-30,1,0.0022196050883250412,0.0024261860194380474,0.0,0.0,0.9836995319317592
2011-12-02,1,0.002084581729011267,0.002267945973907425,0.0,0.0,0.9837928336739847
2011-12-06,1,0.0021762772486827913,0.002366274951459471,0.0,0.0,0.9883561550699925
2011-12-08,1,0.001954758198370148,0.0021653247900890824,0.0,0.0,0.9885250662285476
2011-12-12,1,0.001290659745809269,0.0013288925817316682,0.0,0.0,0.9842126612058909
2011-12-14,1,0.001210127154460755,0.001231487343040029,0.0,0.0,0.9842785143740094
2011-12-16,1,0.001080578297289542,0.0010821108941587896,0.0,0.0,0.9891460441978864
2011-12-20,1,0.0016701480157683077,0.0017865739148694923,0.0,0.0,0.988587858143267
2011-12-22,1,0.0011138313791732109,0.00119867744278915,0.0,0.0,0.9881300525624658
2011-12-27,1,0.0010863388127428078,0.0011443110853825238,0.0,0.0,0.9881633969388115
2011-12-29,1,0.0009728555197106777,0.0010122001063626708,0.0,0.0,0.9882695060044757
2012-01-03,1,0.0008763597093695038,0.0008987066955054134,0.0,0.0,0.9883601454037613
2012-01-05,1,0.0007769058525357933,0.0007821117105815138,0.0,0.0,0.9884534516221463
2012-01-09,1,0.0006726541626261459,0.0006836366091094868,0.0,0.0,0.9885431566618621
2012-01-11,-1,-0.00024303767089390227,-0.00012148208752761234,0.0,0.0,0.9988690110112459
2012-01-13,-1,-0.00022870771636499036,-0.0001045735805876036,0.0,0.0,0.998883294016108
2012-01-18,-1,-0.00017566294822374338,-7.753155583850038e-05,0.0,0.0,0.9989166592721394
2012-01-20,-1,-0.00025231077926226464,-0.00014293375915708407,0.0,0.0,0.9988540012394423
2012-01-24,-1,-0.000506765312564006,-0.0003652754537194493,0.0,0.0,0.9995641696477754
2012-01-26,0,0.0,0.0,0.0,0.0,1.0
2012-01-30,0,0.0,0.0,0.0,0.0,1.0
2012-02-01,0,0.0,0.0,0.0,0.0,1.0
2012-02-03,0,0.0,0.0,0.0,0.0,1.0
2012-02-07,0,0.0,0.0,0.0,0.0,1.0
2012-02-09,1,0.003934582363465236,0.004033785122028326,0.0,0.0,0.9960316269845066
2012-02-13,1,0.00261944241238223,0.002663112793658743,0.0,0.0,0.9973656803664269
2012-02-15,1,0.0025173698446553003,0.0025794912190810343,0.0,0.0,0.9974580474576015
2012-02-17,1,0.0015732074097179482,0.0016909998902150231,0.0,0.0,0.9983705557719056
2012-02-22,1,0.0012089657489272043,0.0013780224594633656,0.0,0.0,0.9987081768614181
2012-02-24,1,0.000841995355565483,0.0010648932821161056,0.0,0.0,0.9990474638713196
2012-02-28,1,0.0004954986411849939,0.0007826157078577238,0.0,0.0,0.9993613509587305
2012-03-01,0,0.0,0.0,0.0,0.0,1.0
2012-03-05,0,0.0,0.0,0.0,0.0,1.0
2012-03-07,-1,-0.00035482918446328566,-4.498014369352097e-05,0.0,0.0,0.999775737303385
2012-03-09,-1,-0.000627485899415363,-0.0002775268232585315,0.0,0.0,0.9995476983080559
2012-03-13,0,-8.474148122359889e-05,0.00014869004207275288,0.0,0.0,0.9998751880424197
2012-03-15,-1,-0.0003182428032834615,-5.047991827962267e-05,0.0,0.0,0.9997991142152115
2012-03-19,1,0.0014067232939374862,0.0015259689266640532,0.0,0.0,0.9985358009123361
2012-03-21,1,0.0014848879542271288,0.001626662171459952,0.0,0.0,0.9984466416133981
2012-03-23,1,0.0013976305682470685,0.0015243773540978267,0.0,0.0,0.9985411274573912
2012-03-27,1,0.001311032689391825,0.0014228135701170148,0.0,0.0,0.9986349427985077
2012-03-29,1,0.0012233834634690181,0.001320093436569472,0.0,0.0,0.9987298768144721
2012-04-02,0,0.0,0.0,0.0,0.0,1.0
2012-04-04,0,0.0,0.0,0.0,0.0,1.0
2012-04-09,0,0.0,0.0,0.0,0.0,1.0
2012-04-11,0,0.0,0.0,0.0,0.0,1.0
2012-04-13,-1,-0.004350804831348795,-0.003228907754192871,0.0,0.0,0.9962244524897198
2012-04-17,-1,-0.0038632336981094134,-0.0028585672280455107,0.0,0.0,0.9966503573524479
2012-04-19,-1,-0.004072401715683139,-0.0030366832133965865,0.0,0.0,0.9964580475558303
2012-04-23,-1,-0.0045366026910353685,-0.00343277748194038,0.0,0.0,0.9960311246517667
2012-04-25,-1,-0.0040118234467943666,-0.002987101116507863,0.0,0.0,0.9965127412488151
2012-04-27,-1,-0.004021778045042191,-0.0029951590279330615,0.0,0.0,0.9965037977790019
2012-05-01,-1,-0.004585022418657856,-0.003476311753401247,0.0,0.0,0.9959855139706763
2012-05-03,-1,-0.004605643635758034,-0.0034929725408517596,0.0,0.0,0.9959670226793795
2012-05-07,-1,-0.005171027650144463,-0.003976361771480221,0.0,0.0,0.9954471287324231
2012-05-09,-1,-0.005182261736027029,-0.003984096255277906,0.0,0.0,0.9954377307011704
2012-05-11,-1,-0.0034111458131055286,-0.002619818266148871,0.0,0.0,0.9969935837545647
2012-05-15,-1,-0.0032680403225915536,-0.002496767626204601,0.0,0.0,0.9971258803993618
2012-05-17,-1,-0.003577129508742598,-0.002760507819792943,0.0,0.0,0.9968411910285578
2012-05-21,-1,-0.0038862186948936416,-0.0030242480133812854,0.0,0.0,0.9965566641746557
2012-05-23,-1,-0.004195307881044682,-0.003287988206969626,0.0,0.0,0.9962722996985345
2012-05-25,-1,-0.004504397067195728,-0.0035517284005579697,0.0,0.0,0.9959880974612314
2012-05-30,-1,-0.00481348625334677,-0.0038154685941463114,0.0,0.0,0.9957040573239431
2012-06-01,-1,-0.005122583149695218,-0.004079214981365011,0.0,0.0,0.9954201722596407
2012-06-05,-1,-0.0025472227157822915,-0.0020268656672473876,0.0,0.0,0.9977181744443683
2012-06-07,-1,-0.002536256340018192,-0.0020173910474619652,0.0,0.0,0.9977283484563185
2012-06-11,-1,-0.0026917061132824462,-0.002150033518085131,0.0,0.0,0.9975849766414691
2012-06-13,-1,-0.0028471539138170453,-0.0022826743042648843,0.0,0.0,0.9974416478444986
2012-06-15,0,0.0,0.0,0.0,0.0,1.0
2012-06-19,0,0.0,0.0,0.0,0.0,1.0
2012-06-21,0,0.0,0.0,0.0,0.0,1.0
2012-06-25,0,0.0,0.0,0.0,0.0,1.0
2012-06-27,0,0.0,0.0,0.0,0.0,1.0
2012-06-29,0,0.0,0.0,0.0,0.0,1.0
2012-07-03,0,0.0,0.0,0.0,0.0,1.0
2012-07-06,0,0.0,0.0,0.0,0.0,1.0
2012-07-10,0,0.0,0.0,0.0,0.0,1.0
2012-07-12,0,0.0,0.0,0.0,0.0,1.0
2012-07-16,0,0.0,0.0,0.0,0.0,1.0
2012-07-18,0,0.0,0.0,0.0,0.0,1.0
2012-07-20,0,0.0,0.0,0.0,0.0,1.0
2012-07-24,0,0.0,0.0,0.0,0.0,1.0
2012-07-26,0,0.0,0.0,0.0,0.0,1.0
2012-07-30,0,0.0,0.0,0.0,0.0,1.0
2012-08-01,0,0.0,0.0,0.0,0.0,1.0
2012-08-03,0,0.0,0.0,0.0,0.0,1.0
2012-08-07,0,0.0,0.0,0.0,0.0,1.0
2012-08-09,0,0.0,0.0,0.0,0.0,0.9950248756218907
2012-08-13,0,0.0,0.0,0.0,0.0,0.9900990099009901
2012-08-15,0,0.0,0.0,0.0,0.0,0.9900990099009901
2012-08-17,0,0.0,0.0,0.0,0.0,0.9900990099009901
2012-08-21,0,0.0,0.0,0.0,0.0,0.9900990099009901
2012-08-23,0,0.0,0.0,0.0,0.0,0.9900990099009901
2012-08-27,0,0.0,0.0,0.0,0.0,0.9900990099009901
2012-08-29,0,0.0,0.0,0.0,0.0,0.9900990099009901
2012-08-31,0,0.0,0.0,0.0,0.0,0.9900990099009901
2012-09-05,0,0.0,0.0,0.0,0.0,0.9900990099009901
2012-09-07,-1,-0.004930656547035444,-0.00435650450785052,0.0,0.0,0.9909606479564141
2012-09-11,-1,-0.004782007329320222,-0.004229955994751742,0.0,0.0,0.9955142311302312
2012-09-13,-1,-0.004653005046370954,-0.0041208323065192,0.0,0.0,0.9956322423212898
2012-09-17,-1,-0.004493575480713533,-0.003984793951267117,0.0,0.0,0.9957787101115864
2012-09-19,-1,-0.004334145915056112,-0.003848755596015031,0.0,0.0,0.995925221002074
2012-09-21,-1,-0.00417471634939869,-0.0037127172407629455,0.0,0.0,0.99607177501178
2012-09-25,-1,-0.004015286783741268,-0.0035766788855108593,0.0,0.0,0.9962183721597424
2012-09-27,-1,-0.0038558572180838477,-0.0034406405302587744,0.0,0.0,0.9963650124650107
2012-10-01,-1,-0.003696427652426428,-0.0033046021750066904,0.0,0.0,0.9965116959466457
2012-10-03,-1,-0.0035369980867690064,-0.0031685638197546055,0.0,0.0,0.9966584226237192
2012-10-05,-1,-0.0033775685211115854,-0.00303252546450252,0.0,0.0,0.9968051925153143
2012-10-09,-1,-0.0032181389554541634,-0.0028964871092504343,0.0,0.0,0.9969520056405254
2012-10-11,0,0.0,0.0,0.0,0.0,1.0
2012-10-15,0,0.0,0.0,0.0,0.0,0.9950248756218907
2012-10-17,-1,-0.0018072838283828387,-0.0016399834983498354,0.0,0.0,0.9935078827376234
2012-10-19,-1,-0.001703621662166217,-0.001551530453045305,0.0,0.0,0.9935917215614791
2012-10-23,-1,-0.0015999594959495952,-0.0014630774077407742,0.0,0.0,0.993675574536288
2012-10-25,0,0.0,0.0,0.0,0.0,0.9950248756218907
2012-10-31,0,0.0,0.0,0.0,0.0,0.9950248756218907
2012-11-02,0,0.0,0.0,0.0,0.0,0.9950248756218907
2012-11-06,0,0.0,0.0,0.0,0.0,0.9950248756218907
2012-11-08,0,0.0,0.0,0.0,0.0,0.9950248756218907
2012-11-12,0,0.0,0.0,0.0,0.0,0.9950248756218907
2012-11-14,0,0.0,0.0,0.0,0.0,1.0
2012-11-16,0,0.0,0.0,0.0,0.0,1.0
2012-11-20,0,0.0,0.0,0.0,0.0,1.0
2012-11-23,0,0.0,0.0,0.0,0.0,1.0
2012-11-27,-1,-0.0018694017142930753,-0.0017419754937209307,0.0,0.0,0.9981975660304713
2012-11-29,-1,-0.0017138476319921224,-0.0016092440180896159,0.0,0.0,0.9983412103300099
2012-12-03,0,0.0,0.0,0.0,0.0,1.0
2012-12-05,0,0.0,0.0,0.0,0.0,1.0
2012-12-07,0,0.0,0.0,0.0,0.0,0.9950248756218907
2012-12-11,0,0.0,0.0,0.0,0.0,0.9950248756218907
2012-12-13,0,0.0,0.0,0.0,0.0,0.9950248756218907
2012-12-17,0,0.0,0.0,0.0,0.0,0.9950248756218907
2012-12-19,0,0.0,0.0,0.0,0.0,0.9950248756218907
2012-12-21,0,0.0,0.0,0.0,0.0,0.9950248756218907
2012-12-26,0,0.0,0.0,0.0,0.0,0.9950248756218907
2012-12-28,0,0.0,0.0,0.0,0.0,0.9950248756218907
2013-01-02,-1,-0.002265397309821009,-0.002201943183685141,0.0,0.0,0.9930447564231029
2013-01-04,-1,-0.0021487375654405316,-0.002064064383793899,0.0,0.0,0.9931598167907685
2013-01-08,-1,-0.0045741339617245014,-0.004534445399785276,0.0,0.0,0.9909870796791438
2013-01-10,-1,-0.0006663856585658565,-0.0006436175817581758,0.0,0.0,0.9944438189810862
2013-01-14,0,0.0,0.0,0.0,0.0,0.9950248756218907
2013-01-16,0,0.0,0.0,0.0,0.0,0.9950248756218907
2013-01-18,-1,-0.0003490800174557453,-0.0002715600135793576,0.0,0.0,0.9947561073553494
2013-01-23,-1,-0.0002430000121512152,-0.00014724000736273643,0.0,0.0,0.9948605187165142
2013-01-25,-1,-0.0001369200068466843,-2.292000114611424e-05,0.0,0.0,0.9949583945776581
2013-01-29,0,-3.084000154215407e-05,0.0001014000050705073,0.0,0.0,0.9949612931370291
2013-01-31,0,0.0,0.0,0.0,0.0,0.9950248756218907
2013-02-04,0,0.0,0.0,0.0,0.0,0.9950248756218907
2013-02-06,0,0.0,0.0,0.0,0.0,0.9900990099009901
2013-02-08,0,0.0,0.0,0.0,0.0,0.9900990099009901
2013-02-12,0,0.0,0.0,0.0,0.0,0.9900990099009901
2013-02-14,0,0.0,0.0,0.0,0.0,0.9900990099009901
2013-02-19,-1,-1.757736457614044e-06,-1.6154718428574872e-06,0.0,0.0,0.9900975358150819
2013-02-21,1,2.839918003138986e-07,3.07353479409124e-07,0.0,0.0,0.9852214188462333
2013-02-25,1,2.6434843539299247e-07,2.84332522329872e-07,0.0,0.0,0.9852214371540555
2013-02-27,1,2.4470507047208644e-07,2.6131156525062007e-07,0.0,0.0,0.9852214554618783
2013-03-01,1,2.250617055511804e-07,2.3829060817136827e-07,0.0,0.0,0.985221473769702
2013-03-05,1,0.0025701354893262543,0.0029088413268706596,0.0,0.0,0.9828669880101637
2013-03-07,1,0.006706103228493299,0.0075840374831136845,0.0,0.0,0.9880006624430487
2013-03-11,1,0.006492241608241724,0.007333529715364037,0.0,0.0,0.988227360447128
2013-03-13,1,0.0062808378233771885,0.007085707421982142,0.0,0.0,0.9884516498998822
2013-03-15,1,0.006068671765056772,0.0068370603219595726,0.0,0.0,0.9886768168562236
2013-03-19,1,0.005856505706736354,0.006588413221937002,0.0,0.0,0.988902086420943
2013-03-21,1,0.005644317183310772,0.006339740710277664,0.0,0.0,0.9940436616052838
2013-03-25,1,0.005431305502044226,0.006090221201970018,0.0,0.0,0.9942722329584546
2013-03-27,1,0.005219040342959835,0.005841423742399422,0.0,0.0,0.9945001832203044
2013-04-01,1,0.005006940082594623,0.005592853754007613,0.0,0.0,0.9947280439055572
2013-04-03,1,0.004796193300884695,0.005345736454568654,0.0,0.0,0.9949546200667098
2013-04-05,1,0.004583990067323157,0.005097045787182055,0.0,0.0,0.9951827998165943
2013-04-09,1,0.0043725069609001355,0.004849125582108478,0.0,0.0,0.9949200724691721
2013-04-11,1,0.0041590239371387654,0.004599085629552006,0.0,0.0,0.9906952006413684
2013-04-15,1,0.003947902688113414,0.0043515278437101365,0.0,0.0,0.9908942467739843
2013-04-17,1,0.004776220413283825,0.005207856522139884,0.0,0.0,0.9809625618051822
2013-04-19,1,0.004341887304442398,0.004715030961651767,0.0,0.0,0.9765175696196192
2013-04-23,1,0.003958298593809106,0.004277953452946992,0.0,0.0,0.9768210300725972
2013-04-25,1,0.003528104181046573,0.003794295992860219,0.0,0.0,0.9727754800613234
2013-04-29,1,0.0032287253075914263,0.00344966501295591,0.0,0.0,0.9682668169078232
2013-05-01,1,0.0029709534411924803,0.0031475703821987745,0.0,0.0,0.9684394077481445
2013-05-03,1,0.0027131815747935342,0.0028454757514416386,0.0,0.0,0.9686120601270999
2013-05-07,1,0.002457182559304165,0.002545386499383023,0.0,0.0,0.9692484382913945
2013-05-09,1,0.002514932030279735,0.002605093161287219,0.0,0.0,0.9689632102298409
2013-05-13,1,0.0022516756035962354,0.002296461126418395,0.0,0.0,0.9691699583205591
2013-05-15,1,0.002646593180092665,0.002732577677326417,0.0,0.0,0.9780792598162243
2013-05-17,1,0.002690111417920011,0.0027706378927386767,0.0,0.0,0.9828499711902948
2013-05-21,0,0.0,0.0,0.0,0.0,0.9852216748768474
2013-05-23,0,0.0,0.0,0.0,0.0,0.9900990099009901
2013-05-28,0,0.0,0.0,0.0,0.0,0.9950248756218907
2013-05-30,0,0.0,0.0,0.0,0.0,0.9950248756218907
2013-06-03,1,0.00014392564893312852,0.0003144451712544968,0.0,0.0,0.9947980167249516
2013-06-05,0,-5.90704872116349e-05,0.00014123225199583764,0.0,0.0,0.9949323126779298
2013-06-07,0,0.0,0.0,0.0,0.0,1.0
2013-06-11,1,0.00011529072687626479,0.0002770326359436098,0.0,0.0,0.9948306988431808
2013-06-13,0,-7.476577803268263e-05,0.00011481399742058196,0.0,0.0,0.9949418866921935
2013-06-17,-1,-0.0002644637406229828,-4.716920647266439e-05,0.0,0.0,0.9948960966094088
2013-06-19,-1,-0.00045353763501441394,-0.0002085025294862019,0.0,0.0,0.9947542484590997
2013-06-21,-1,-0.0006426115294058442,-0.000369835852499739,0.0,0.0,0.9946009838534308
2013-06-25,-1,-0.0008314982754055333,-0.0005309009232398397,0.0,0.0,0.9944479771499067
2013-06-27,-1,-0.0010206871672539639,-0.0006923323714966086,0.0,0.0,0.9942947137526319
2013-07-01,-1,-0.0008395404981534919,-0.0005514117090218253,0.0,0.0,0.9944340377200699
2013-07-03,-1,-0.0010142718089832285,-0.0007005067657529904,0.0,0.0,0.994292488822875
2013-07-08,-1,-0.0011890031198129628,-0.0008496018224841537,0.0,0.0,0.9941509802164141
2013-07-10,-1,-0.0007753611813762742,-0.000478547886501321,0.0,0.0,0.9944045309161917
2013-07-12,-1,-0.0010488510248778569,-0.0007163640801254899,0.0,0.0,0.9941517951415673
2013-07-16,-1,-0.0012371560183203657,-0.000877013471569669,0.0,0.0,0.9939793826445935
2013-07-18,-1,-0.001427543621966792,-0.0010395586950440237,0.0,0.0,0.9938050652839705
2013-07-22,-1,-0.001618996185645687,-0.0012030140333674998,0.0,0.0,0.9936298340569031
2013-07-24,-1,-0.0018045040355130302,-0.0013611388649252447,0.0,0.0,0.9934602286965966
2013-07-26,0,0.0,0.0,0.0,0.0,0.9950248756218907
2013-07-30,0,0.0,0.0,0.0,0.0,0.9950248756218907
2013-08-01,1,0.0003442828689795277,0.0003503849779252056,0.0,0.0,0.9947160778232431
2013-08-05,0,0.0,0.0,0.0,0.0,0.9950248756218907
2013-08-07,0,0.0,0.0,0.0,0.0,1.0
2013-08-09,0,0.0,0.0,0.0,0.0,0.996015933668014
2013-08-13,0,0.0,0.0,0.0,0.0,0.9910802749410872
2013-08-15,0,0.0,0.0,0.0,0.0,0.9910802749410872
2013-08-19,0,0.0,0.0,0.0,0.0,0.9910802749410872
2013-08-21,0,0.0,0.0,0.0,0.0,0.9910802749410872
2013-08-23,-1,-0.0007587477564349387,-0.0006203026016094152,0.0,0.0,0.9904846803604684
2013-08-27,-1,-0.0011577874194587095,-0.0011012863003502468,0.0,0.0,0.99008828982325
2013-08-29,-1,-0.0009599582061102363,-0.000869738648715396,0.0,0.0,0.9902810409728787
2013-09-03,-1,-0.0007647530208182657,-0.0006396499209307285,0.0,0.0,0.9904721790012663
2013-09-05,-1,-0.0007367727169360037,-0.0005988240780997705,0.0,0.0,0.9905038157656706
2013-09-09,-1,-0.002329839006361552,-0.002268142573840629,0.0,0.0,0.9929866129384087
2013-09-11,-1,-0.003861679698520106,-0.0036129362629384212,0.0,0.0,0.9962766074838368
2013-09-13,-1,-0.003546248771633023,-0.0033449067916314053,0.0,0.0,0.9965662534591566
2013-09-17,-1,-0.003211843735627513,-0.003058845239951941,0.0,0.0,0.9968744551719582
2013-09-19,-1,-0.0030567649869583835,-0.002931536229733335,0.0,0.0,0.9970147875672756
2013-09-23,-1,-0.003601098644328434,-0.0034232880954291117,0.0,0.0,0.9965000989593514
2013-09-25,-1,-0.0032274466415494986,-0.003104496044260516,0.0,0.0,0.9968440203980734
2013-09-27,-1,-0.00362527072215429,-0.003441420152033232,0.0,0.0,0.9964790951360417
2013-10-01,-1,-0.003373440782471004,-0.003222621744974602,0.0,0.0,0.9967128099916944
2013-10-03,-1,-0.003685853393166254,-0.003485378410448874,0.0,0.0,0.9964271948053126
2013-10-07,0,0.0,0.0,0.0,0.0,1.0
2013-10-09,1,0.000401535943046016,0.0004951255782858202,0.0,0.0,0.9995518701497307
2013-10-11,1,0.00042076260794386727,0.0005176753830226717,0.0,0.0,0.9995310010677245
2013-10-15,1,0.0009154482715768746,0.0011301713216752575,0.0,0.0,0.9941355382791498
2013-10-17,1,0.000556962011784013,0.0006813756036467375,0.0,0.0,0.994485764821732
2013-10-21,1,0.0005790555463775543,0.0007072680265414308,0.0,0.0,0.9944647847829376
2013-10-23,1,0.0006013294130195043,0.0007333803821114688,0.0,0.0,0.9895235046855209
2013-10-25,1,0.0004452111276806416,0.0005422266976295773,0.0,0.0,0.9847999617372363
2013-10-29,1,0.00017360680938230562,0.00020345775398197808,0.0,0.0,0.9850598979957613
2013-10-31,1,0.00017360680938230557,0.00020345775398197802,0.0,0.0,0.9850598979957613
2013-11-04,1,0.00017360680938230568,0.00020345775398197813,0.0,0.0,0.9850598979957613
2013-11-06,1,0.00017360680938230568,0.00020345775398197813,0.0,0.0,0.9850598979957613
2013-11-08,1,0.00017360680938230568,0.00020345775398197813,0.0,0.0,0.9850598979957613
2013-11-12,1,0.0006832331333043454,0.000780248703253281,0.0,0.0,0.9893822064907859
2013-11-14,1,0.0006675842797355429,0.000761905001029194,0.0,0.0,0.9845283877946004
2013-11-18,1,0.0005787596790872887,0.0006601009342232518,0.0,0.0,0.984620784281432
2013-11-20,1,0.00011213359772349534,0.0001314144878297977,0.0,0.0,0.989979649679002
2013-11-22,1,0.00010512524786577697,0.00012320108234043547,0.0,0.0,0.9949118584211384
2013-11-26,1,0.00010542359427447061,0.00012355072813161945,0.0,0.0,0.9949115377138299
2013-11-29,-1,-0.00021869699510027285,-0.0001691368722011505,0.0,0.0,0.9948570177746564
2013-12-03,-1,-0.0002372061109342636,-0.00018493036486258663,0.0,0.0,0.9948420089711297
2013-12-05,-1,-0.00025571522676825435,-0.00020072385752402277,0.0,0.0,0.9948270006204537
2013-12-09,-1,-0.00027422434260224534,-0.00021651735018545908,0.0,0.0,0.9948119927226077
2013-12-11,-1,-0.0002927334584362363,-0.00023231084284689542,0.0,0.0,0.9947969852775712
2013-12-13,-1,-0.000888437560031563,-0.0007580876477489397,0.0,0.0,0.9991774145999082
2013-12-17,-1,-0.0008869457820983243,-0.0007568147407093811,0.0,0.0,0.9991787946710464
2013-12-19,-1,-0.0008876916711537042,-0.0007574511943048981,0.0,0.0,0.9991781046349187
2013-12-23,-1,-0.0008876916711537046,-0.0007574511943048987,0.0,0.0,0.9991781046349187
2013-12-26,-1,-0.0008876916711537046,-0.0007574511943048985,0.0,0.0,0.9991781046349187
2013-12-30,-1,-0.0006177246291675557,-0.0005470749924001864,0.0,0.0,0.9994179391813267
2014-01-02,-1,-0.0005965583412291533,-0.0005290141830010091,0.0,0.0,0.9994375302881116
2014-01-06,-1,-0.0005753920532907514,-0.0005109533736018322,0.0,0.0,0.9994571221629814
2014-01-08,-1,-0.0005542257653523493,-0.0004928925642026551,0.0,0.0,0.9994767148059817
2014-01-10,-1,-0.0005330594774139474,-0.0004748317548034781,0.0,0.0,0.9994963082171572
2014-01-14,-1,-0.0005118931894755451,-0.0004567709454043011,0.0,0.0,0.9995159023965532
2014-01-16,-1,-0.000490726901537143,-0.0004387101360051241,0.0,0.0,0.999535497344215
2014-01-21,-1,-0.00046956061359874066,-0.00042064932660594665,0.0,0.0,0.9995550930601877
2014-01-23,-1,-0.00044806514876114277,-0.0004022929674369307,0.0,0.0,0.9995750016423023
2014-01-27,-1,-0.00042691439949625257,-0.0003842454169058854,0.0,0.0,0.9995945845201721
2014-01-29,-1,-0.0004057636502313619,-0.00036619786637483967,0.0,0.0,0.999614168165361
2014-01-31,0,0.0,0.0,0.0,0.0,1.0
2014-02-04,-1,-0.0009009936093609362,-0.0008386099909991,0.0,0.0,0.9991309540975104
2014-02-06,-1,-0.0008270468946894688,-0.0007755126012601259,0.0,0.0,0.9991993617872105
2014-02-10,-1,-0.0006574985598559854,-0.000621978307830783,0.0,0.0,0.9956010717229878
2014-02-12,-1,-0.0005929389438943895,-0.0005668907590759076,0.0,0.0,0.9956535041711043
2014-02-14,-1,-0.00101446300551032,-0.0009454760098753191,0.0,0.0,0.995300959593068
2014-02-19,-1,-0.0008267254816408057,-0.0007254578257929471,0.0,0.0,0.9954859614393484
2014-02-21,-1,-0.0006389879577712909,-0.0005054396417105746,0.0,0.0,0.9956710320729556
2014-02-25,-1,-0.0004512504339017757,-0.0002854214576282017,0.0,0.0,0.9958561715322609
2014-02-27,-1,-0.00046235617869526207,-0.00024974193739905263,0.0,0.0,0.9909375446776608
2014-03-03,-1,-0.0003283920656605765,-0.00016549446733081475,0.0,0.0,0.9861426145582148
2014-03-05,-1,-0.00021982484589465069,-5.513792281139167e-05,0.0,0.0,0.9814265679097637
2014-03-07,0,-2.5766208587150465e-05,0.0001563680275205408,0.0,0.0,0.9814660390179195
2014-03-11,-1,-0.0009655879011616448,-0.000900852506117368,0.0,0.0,0.9844133651643492
2014-03-13,-1,-0.0007874268152994563,-0.0006921394356776058,0.0,0.0,0.9845850644122622
2014-03-17,-1,-0.0006095131086183307,-0.0004836342319200878,0.0,0.0,0.979994962788995
2014-03-19,-1,-0.0010061556439271203,-0.0009471476315605441,0.0,0.0,0.9796524800113112
2014-03-21,-1,-0.000851266576826223,-0.0007678853923058764,0.0,0.0,0.9797852065856569
2014-03-25,-1,-0.0006740695337743672,-0.0005602200794080003,0.0,0.0,0.9799385563999363
2014-03-27,1,0.0010050753792689797,0.0013461411640606751,0.0,0.0,0.9842287762900931
2014-03-31,1,0.0030215541841949857,0.003632196537694552,0.0,0.0,0.9868483944470556
2014-04-02,1,0.0011694966431307872,0.001538929188512129,0.0,0.0,0.9936859081680489
2014-04-04,1,0.0012978896201988493,0.0016893763000945558,0.0,0.0,0.9935482622567134
2014-04-08,1,0.002861673184220638,0.003624614170389513,0.0,0.0,0.9918242502029417
2014-04-10,1,0.00296953262807353,0.00374473166886517,0.0,0.0,0.9893760007897767
2014-04-14,1,0.0010566293569108773,0.001588083071344941,0.0,0.0,0.9963103592283985
2014-04-16,1,0.00010869830009488499,0.0003631420180643716,0.0,0.0,0.9973899615472948
2014-04-21,-1,-0.0004192630772115212,-0.000347281776963487,0.0,0.0,0.9972886757892646
2014-04-23,-1,-0.0003089139133684839,-0.00021789373756418798,0.0,0.0,0.9973978788528973
2014-04-25,-1,-0.00019774844759675798,-8.761384781361326e-05,0.0,0.0,0.9975078781933145
2014-04-29,0,-8.518020719217132e-05,4.425446371303908e-05,0.0,0.0,0.9975704671933249
2014-05-01,1,2.5942412570033736e-05,0.00017448414026693547,0.0,0.0,0.9975198876002634
2014-05-05,1,0.00013706503233224204,0.00030471381682083555,0.0,0.0,0.9974049141467636
2014-05-07,1,0.00024818765209444905,0.00043494349337473454,0.0,0.0,0.9972848779637584
2014-05-09,-1,-0.0026875123789501416,-0.0023928274455751993,0.0,0.0,0.9974662662020964
2014-05-13,-1,-0.0025826290806481374,-0.0023033543042922855,0.0,0.0,0.9975629619711884
2014-05-15,-1,-0.00247617800016174,-0.0022124739139344767,0.0,0.0,0.9976611570531816
2014-05-19,-1,-0.0023706778174690368,-0.0021224525225248727,0.0,0.0,0.9977584705719436
2014-05-21,-1,-0.002265177634776334,-0.00203243113111527,0.0,0.0,0.9978558030768007
2014-05-23,-1,-0.0021596774520836306,-0.0019424097397056656,0.0,0.0,0.9979531545733095
2014-05-28,-1,-0.002054177269390928,-0.001852388348296062,0.0,0.0,0.9980505250670293
2014-05-30,-1,-0.0019486770866982243,-0.0017623669568864577,0.0,0.0,0.9981479145635213
2014-06-03,-1,-0.0015155019924883138,-0.001375056515439956,0.0,0.0,0.9886842328609156
2014-06-05,-1,-0.0017075064270660033,-0.0015616533013655402,0.0,0.0,0.9884992268000791
2014-06-09,-1,-0.001597665856026697,-0.001467975682830527,0.0,0.0,0.9837360679049058
2014-06-11,-1,-0.001271412785461459,-0.0011762363179545817,0.0,0.0,0.9840351857929871
2014-06-13,-1,-0.00117463397045865,-0.0010936567113305634,0.0,0.0,0.9794198108817841
2014-06-17,-1,-0.0010778551554558422,-0.0010110771047065457,0.0,0.025,0.969994818810856
2014-06-19,-1,-0.0008813220450891615,-0.0008357094877401121,0.0,0.025,0.9701503152392297
2014-06-23,-1,-0.0007926673542268757,-0.000760062048819011,0.0,0.025,0.9702186837307997
2014-06-25,-1,-0.0007040126633645908,-0.0006844146098979108,0.0,0.025,0.9702870618591856
2014-06-27,-1,-0.0006153579725023051,-0.0006087671709768099,0.0,0.025,0.9703554496264251
2014-07-01,1,0.0033183053347714056,0.0038311233791921743,0.0,0.0,0.9781245870396008
2014-07-03,1,0.0033077848280289946,0.0038352460175112256,0.0,0.0,0.9737427937038874
2014-07-08,1,0.004927817983690993,0.005677941189508995,0.0,0.0,0.9770293875661639
2014-07-10,1,0.004858521112235658,0.005596629724444009,0.0,0.0,0.9770766303736522
2014-07-14,1,0.006884803404166752,0.00789056834949145,0.0,0.0,0.976473027278873
2014-07-16,1,0.009436703373732324,0.01078062423520024,0.0,0.0,0.9776773831312876
2014-07-18,1,0.009221840946208752,0.010528834306638868,0.0,0.0,0.9778491458331983
2014-07-22,1,0.009006673911302207,0.01027661871567364,0.0,0.0,0.97802122636681
2014-07-24,1,0.008791715468350374,0.010024699092485748,0.0,0.0,0.9781931901996892
2014-07-28,1,0.008576757025398543,0.009772779469297855,0.0,0.0,0.9783652145154278
2014-07-30,1,0.008366005893867545,0.009525682834763502,0.0,0.0,0.9785339523260707
2014-08-01,1,0.010478597376831954,0.011813433347286056,0.0,0.0,0.9804902729586444
2014-08-05,1,0.010117221446145032,0.011390075870685495,0.0,0.0,0.9808239132895187
2014-08-07,1,0.009756981985109445,0.01096781707589723,0.0,0.0,0.981156808851013
2014-08-11,1,0.010197710379985743,0.011450994951815724,0.0,0.0,0.9844221566214949
2014-08-13,1,0.007950832471345839,0.008893581508295703,0.0,0.0,0.991648134153093
2014-08-15,1,0.007622335749106897,0.008508678971731513,0.0,0.0,0.9919990245658356
2014-08-19,1,0.006937873826964314,0.0077754065267516695,0.0,0.0,0.9926970847429305
2014-08-21,1,0.007115392918438031,0.008062917554848293,0.0,0.0,0.9924680062332938
2014-08-25,1,0.006580739584914584,0.0073526247335217575,0.0,0.0,0.9930815167148532
2014-08-27,1,0.0063021610329395805,0.007026206414235018,0.0,0.0,0.9933799336150643
2014-08-29,1,0.006024831491246842,0.0067011912499887775,0.0,0.0,0.9936772205469359
2014-09-03,1,0.005747501949554101,0.006376176085742531,0.0,0.0,0.9939746854690689
2014-09-05,1,0.0038859681767621137,0.00418413178902136,0.0,0.0,0.9959811662123144
2014-09-09,1,0.0028634481768662927,0.00304372537604758,0.0,0.0,0.9970551112081368
2014-09-11,1,0.0026227559112590487,0.0027616471100191816,0.0,0.0,0.9973150269777872
2014-09-15,1,0.0023820636456518066,0.002479568843990784,0.0,0.0,0.9975750782942535
2014-09-17,1,0.0019604839598486665,0.0020063344957662447,0.0,0.0,0.993065020571528
2014-09-19,1,0.0017358012385434922,0.0017430184218608976,0.0,0.0,0.9933057057621902
2014-09-23,1,0.0013590454404857275,0.0013941677604312956,0.0,0.0,0.9887513646981625
2014-09-25,1,0.0011106242999054197,0.0011821945092025386,0.0,0.0,0.9889764634469524
2014-09-29,1,0.0008611824236772478,0.0009692178657811671,0.0,0.0,0.9892026550365782
2014-10-01,1,0.0003432254322545073,0.0005438885310998998,0.0,0.0,0.9896643836169599
2014-10-03,1,7.73245363033852e-05,0.00031700012181342134,0.0,0.0,0.9899057701710937
2014-10-07,0,-0.00018836153382214465,9.044151555496138e-05,0.0,0.0,0.9851585288705128
2014-10-09,-1,-0.00045207707940030334,-0.00014807214579405593,0.0,0.0,0.9850446009735981
2014-10-13,-1,-0.0007038435034498077,-0.00036289986670116176,0.0,0.0,0.9848703260256562
2014-10-15,-1,-0.001819666949172771,-0.0013415954186218014,0.0,0.0,0.9887531691000573
2014-10-17,-1,-0.002043795477931641,-0.001532781811045263,0.0,0.0,0.9885737107333279
2014-10-21,-1,-0.00313596029651028,-0.0024911723062901467,0.0,0.0,0.9922470121829422
2014-10-23,-1,-0.003322424530208615,-0.0026505868929522754,0.0,0.0,0.9920767731846346
2014-10-27,-1,-0.0035271559553076604,-0.0028249725313469485,0.0,0.0,0.9918902416618434
2014-10-29,-1,-0.003722789687374086,-0.0029919032448090326,0.0,0.0,0.9917119198909188
2014-10-31,-1,-0.003918423419440513,-0.0031588339582711202,0.0,0.0,0.9915336622257529
2014-11-04,-1,-0.0032339832593697316,-0.002548171294104314,0.0,0.0,0.9971172569561717
2014-11-06,-1,-0.0034578386323268033,-0.002739183021608225,0.0,0.0,0.9969110602861797
2014-11-10,-1,-0.0036771800746245825,-0.00292657775193186,0.0,0.0,0.996708987611132
2014-11-12,-1,-0.0039007868792118074,-0.00311737738055648,0.0,0.0,0.9965031884689709
2014-11-14,-1,-0.004125664400870749,-0.003309202601740365,0.0,0.0,0.9962963346284245
2014-11-18,-1,-0.0043454785186891505,-0.003496941879054995,0.0,0.0,0.9960941056339517
2014-11-20,-1,-0.0019496199695920914,-0.0015819975651961962,0.0,0.0,0.9982373038169801
2014-11-24,-1,-0.0035016033446645172,-0.002835387620588086,0.0,0.0,0.9968415121717893
2014-11-26,-1,-0.0032889793811758886,-0.0026751012385375214,0.0,0.0,0.99702682581541
2014-12-01,-1,-0.0034306297215369493,-0.002795910135331251,0.0,0.0,0.9968963924396531
2014-12-03,-1,-0.0020261786381992244,-0.0016816528447568392,0.0,0.0,0.9981495149019746
2014-12-05,-1,-0.0008067816917443245,-0.0006884121771254675,0.0,0.0,0.9992529615492208
2014-12-09,-1,-0.0008067816917443238,-0.0006884121771254671,0.0,0.0,0.9992529615492208
2014-12-11,-1,-0.000806781691744321,-0.0006884121771254647,0.0,0.0,0.9992529615492208
2014-12-15,-1,-0.0008067816917443193,-0.0006884121771254632,0.0,0.0,0.9992529615492208
2014-12-17,-1,-0.0008067816917443169,-0.0006884121771254612,0.0,0.0,0.9992529615492208
2014-12-19,-1,-0.0008059046570191856,-0.0006876638193098062,0.0,0.0,0.999253773032373
2014-12-23,1,0.0018626277842607453,0.002389267855762594,0.0,0.0,0.9978785622459567
2014-12-26,1,0.0020217902205043716,0.002575797588735893,0.0,0.0,0.9977064784287878
2014-12-30,1,0.002182343467068429,0.0027639916650258967,0.0,0.0,0.9975329339018101
2015-01-02,-1,-3.6275958862869103e-07,-2.7551361161713765e-07,0.0,0.0,0.9999996808635018
2015-01-06,-1,-7.472706713178115e-09,-3.87084670794029e-09,0.0,0.0,0.9999999943282234
2015-01-08,-1,-1.01267088219194e-08,-6.135458545901004e-09,0.0,0.0,0.995024867571512
2015-01-12,1,3.967690086777107e-08,6.036842282265335e-08,0.0,0.0,0.9900989677960577
2015-01-14,1,5.037357069755715e-08,7.290433904851123e-08,0.0,0.0,0.9900989577276935
2015-01-16,1,6.107024052734325e-08,8.544025527436915e-08,0.0,0.0,0.9900989476593299
2015-01-21,1,7.176691035712933e-08,9.797617150022703e-08,0.0,0.0,0.9900989375909662
2015-01-23,1,8.246358018691546e-08,1.1051208772608502e-07,0.0,0.0,0.9900989275226029
2015-01-27,1,9.316025001670148e-08,1.2304800395194278e-07,0.0,0.0,0.9900989174542396
2015-01-29,1,1.0385691984648763e-07,1.3558392017780077e-07,0.0,0.0,0.9900989073858768
2015-02-02,1,1.1455358967627371e-07,1.481198364036587e-07,0.0,0.0,0.990098897317514
2015-02-04,1,1.252502595060598e-07,1.606557526295166e-07,0.0,0.0,0.9900988872491514
2015-02-06,1,4.760018073937676e-07,5.578482720145843e-07,0.0,0.0,0.9950243638278519
2015-02-10,1,1.3594692932350933e-07,1.7319166884145367e-07,0.0,0.0,0.9999998454307247
2015-02-12,1,1.4664359915370945e-07,1.8572758506779677e-07,0.0,0.0,0.9999998338144355
2015-02-17,-1,-5.307926687514844e-07,-4.2123265619805956e-07,0.0,0.0,0.9999995239875642
2015-02-19,-1,-5.643539262916197e-07,-4.4986986823037585e-07,0.0,0.0,0.9999994928883598
2015-02-23,1,0.000315112552406042,0.000393746691473721,0.0,0.0,0.995124006868217
2015-02-25,1,0.00033369723631382836,0.0004155068813456048,0.0,0.0,0.9951040310740444
2015-02-27,1,0.000352540312449339,0.000437589943422968,0.0,0.0,0.9950837683001371
2015-03-03,1,0.00037138338858484895,0.0004596730055003303,0.0,0.0,0.9950635063514133
2015-03-05,1,0.0003902264647203596,0.00048175606757769335,0.0,0.0,0.9950432452278223
2015-03-09,1,0.00040906954085587,0.0005038391296550563,0.0,0.0,0.9950229849293141
2015-03-11,1,0.00010233425139480454,0.00011993018602377554,0.0,0.0,0.9953649957690691
2015-03-13,1,0.00010239390980270593,0.00012000010243846506,0.0,0.0,0.9953649315808498
2015-03-17,-1,-0.0004968196961036818,-0.00039227036921496574,0.0,0.0,0.9950891446059772
2015-03-19,-1,-0.0005303531644184531,-0.00042088386920556206,0.0,0.0,0.9950619403912805
2015-03-23,-1,-0.0014993239098107778,-0.0012764687680357095,0.0,0.0,0.9986140272475856
2015-03-25,-1,-0.0015023715805524162,-0.0012790692901743271,0.0,0.0,0.9986112109819045
2015-03-27,-1,-0.0015054192512940524,-0.001281669812312944,0.0,0.0,0.998608394732108
2015-03-31,-1,-0.0011880526989356942,-0.0010527083252968128,0.0,0.0,0.9988808733355892
2015-04-02,-1,-0.0011467783809535489,-0.0010174896987560635,0.0,0.0,0.998919035708401
2015-04-07,-1,-0.0011055040629714033,-0.0009822710722153136,0.0,0.0,0.9989572009973211
2015-04-09,-1,-0.0010642297449892579,-0.0009470524456745643,0.0,0.0,0.9989953692026836
2015-04-13,-1,-0.0010229554270071127,-0.000911833819133815,0.0,0.0,0.9990335403248228
2015-04-15,-1,-0.0009816811090249677,-0.0008766151925930657,0.0,0.0,0.9990717143640732
2015-04-17,-1,-0.0009404067910428216,-0.0008413965660523157,0.0,0.0,0.9991098913207688
2015-04-21,-1,-0.0008991324730606765,-0.0008061779395115664,0.0,0.0,0.9991480711952446
2015-04-23,-1,-0.0008578581550785312,-0.0007709593129708167,0.0,0.0,0.9991862539878349
2015-04-27,-1,-0.000816583837096386,-0.0007357406864300672,0.0,0.0,0.9992244396988742
2015-04-29,-1,-0.0007753095191142407,-0.000700522059889318,0.0,0.0,0.9992626283286972
2015-05-01,-1,-0.0007340352011320953,-0.0006653034333485684,0.0,0.0,0.9993008198776385
2015-05-05,-1,-0.00069276088314995,-0.0006300848068078191,0.0,0.0,0.9993390143460329
2015-05-07,-1,-0.0006514865651678046,-0.0005948661802670695,0.0,0.0,0.9993772117342151
2015-05-11,-1,-0.0006102122471856597,-0.0005596475537263203,0.0,0.0,0.9994154120425199
2015-05-13,-1,-0.0005689379292035138,-0.0005244289271855704,0.0,0.0,0.999453615271282
2015-05-15,-1,-0.0005276636112213688,-0.0004892103006448211,0.0,0.0,0.9994918214208367
2015-05-19,-1,-0.0004863892932392232,-0.00045399167410407144,0.0,0.0,0.9995300304915188
2015-05-21,-1,-0.00044511497525707815,-0.00041877304756332215,0.0,0.0,0.9995682424836634
2015-05-26,-1,-0.0004038406572749328,-0.00038355442102257263,0.0,0.0,0.9996064573976053
2015-05-28,-1,-0.00036256633929278737,-0.00034833579448182307,0.0,0.0,0.99964467523368
2015-06-01,-1,-0.0003212920213106421,-0.0003131171679410736,0.0,0.0,0.9996828959922225
2015-06-03,-1,-0.0002803666653029839,-0.00027824501978617345,0.0,0.0,0.999720772147426
2015-06-05,-1,-0.0002429823610864444,-0.000239040744021401,0.0,0.0,0.9997590465200183
2015-06-09,-1,-0.0002077197023867153,-0.00019771482273981802,0.0,0.0,0.9997973238233966
2015-06-11,-1,-0.00017245704368698604,-0.0001563889014582349,0.0,0.0,0.999835604057897
2015-06-15,-1,-0.00013719438498725718,-0.00011506298017665221,0.0,0.0,0.9998738872238563
2015-06-17,-1,-0.00010193172628752796,-7.373705889506907e-05,0.0,0.0,0.9999121733216118
2015-06-19,-1,-6.666906758779922e-05,-3.241113761348658e-05,0.0,0.0,0.9999504623514995
2015-06-23,0,-3.1406408888070406e-05,8.914783668096077e-06,0.0,0.0,0.9999773150417697
2015-06-25,1,3.85624981165915e-06,5.024070494967956e-05,0.0,0.0,0.9999681476906535
2015-06-29,1,3.907882269526785e-05,9.14728032288382e-05,0.0,0.0,0.9999347284476916
2015-07-01,1,0.001208151585212555,0.0015644827519420126,0.0,0.0,0.9986156020460744
2015-07-06,1,0.000507459922821669,0.0007510297755922954,0.0,0.0,0.9993711508508811
2015-07-08,1,0.0006280174535323267,0.0008923166554749217,0.0,0.0,0.9992404103605153
2015-07-10,1,0.000748574984242984,0.0010336035353575473,0.0,0.0,0.9991097040733381
2015-07-14,1,0.0008691325149536413,0.0011748904152401726,0.0,0.0,0.9989790319759292
2015-07-16,1,0.0009896900456642984,0.0013161772951227977,0.0,0.0,0.9988483940548757
2015-07-20,1,0.0011102475763749551,0.0014574641750054226,0.0,0.0,0.9987177902967711
2015-07-22,1,0.0012308051070856125,0.0015987510548880481,0.0,0.0,0.9985872206882168
2015-07-24,1,0.0013513626377962703,0.0017400379347706743,0.0,0.0,0.9984566852158202
2015-07-28,1,0.0014719201685069272,0.0018813248146532999,0.0,0.0,0.9983261838661966
2015-07-30,1,0.0015924776992175852,0.002022611694535926,0.0,0.0,0.9981957166259676
2015-08-03,1,0.0017130352299282428,0.002163898574418552,0.0,0.0,0.9980652834817624
2015-08-05,1,0.0018335927606389002,0.002305185454301177,0.0,0.0,0.9979348844202164
2015-08-07,1,0.001954150291349558,0.0024464723341838033,0.0,0.0,0.9978045194279729
2015-08-11,1,0.002074707822060218,0.0025877592140664332,0.0,0.0,0.9976741884916814
2015-08-13,0,0.0,0.0,0.0,0.0,1.0
2015-08-17,0,0.0,0.0,0.0,0.0,1.0
2015-08-19,0,0.0,0.0,0.0,0.0,1.0
2015-08-21,0,0.0,0.0,0.0,0.0,1.0
2015-08-25,0,0.0,0.0,0.0,0.0,1.0
2015-08-27,0,0.0,0.0,0.0,0.0,1.0
2015-08-31,0,0.0,0.0,0.0,0.0,1.0
2015-09-02,0,0.0,0.0,0.0,0.0,1.0
2015-09-04,0,0.0,0.0,0.0,0.0,1.0
2015-09-09,0,0.0,0.0,0.0,0.0,1.0
2015-09-11,0,0.0,0.0,0.0,0.0,1.0
2015-09-15,0,0.0,0.0,0.0,0.0,1.0
2015-09-17,0,0.0,0.0,0.0,0.0,1.0
2015-09-21,0,0.0,0.0,0.0,0.0,1.0
2015-09-23,0,0.0,0.0,0.0,0.0,1.0
2015-09-25,0,0.0,0.0,0.0,0.0,1.0
2015-09-29,0,0.0,0.0,0.0,0.0,1.0
2015-10-01,0,0.0,0.0,0.0,0.0,1.0
2015-10-05,0,0.0,0.0,0.0,0.0,1.0
2015-10-07,0,0.0,0.0,0.0,0.0,1.0
2015-10-09,0,0.0,0.0,0.0,0.0,1.0
2015-10-13,0,0.0,0.0,0.0,0.0,1.0
2015-10-15,0,0.0,0.0,0.0,0.0,1.0
2015-10-19,0,0.0,0.0,0.0,0.0,1.0
2015-10-21,0,0.0,0.0,0.0,0.0,1.0
2015-10-23,0,0.0,0.0,0.0,0.0,1.0
2015-10-27,0,0.0,0.0,0.0,0.0,1.0
2015-10-29,0,0.0,0.0,0.0,0.0,1.0
2015-11-02,0,0.0,0.0,0.0,0.0,1.0
2015-11-04,0,0.0,0.0,0.0,0.0,1.0
2015-11-06,0,0.0,0.0,0.0,0.0,1.0
2015-11-10,0,0.0,0.0,0.0,0.0,1.0
2015-11-12,0,0.0,0.0,0.0,0.0,1.0
2015-11-16,0,0.0,0.0,0.0,0.0,1.0
2015-11-18,0,0.0,0.0,0.0,0.0,1.0
2015-11-20,0,0.0,0.0,0.0,0.0,1.0
2015-11-24,0,0.0,0.0,0.0,0.0,1.0
2015-11-27,0,0.0,0.0,0.0,0.0,1.0
2015-12-01,0,0.0,0.0,0.0,0.0,1.0
2015-12-03,0,0.0,0.0,0.0,0.0,1.0
2015-12-07,0,0.0,0.0,0.0,0.0,1.0
2015-12-09,0,0.0,0.0,0.0,0.0,1.0
2015-12-11,0,0.0,0.0,0.0,0.0,1.0
2015-12-15,0,0.0,0.0,0.0,0.0,1.0
2015-12-17,0,0.0,0.0,0.0,0.0,1.0
2015-12-21,0,0.0,0.0,0.0,0.0,1.0
2015-12-23,0,0.0,0.0,0.0,0.0,1.0
2015-12-28,0,0.0,0.0,0.0,0.0,1.0
2015-12-30,0,0.0,0.0,0.0,0.0,1.0
2016-01-04,0,0.0,0.0,0.0,0.0,1.0
2016-01-06,0,0.0,0.0,0.0,0.0,1.0
2016-01-08,0,0.0,0.0,0.0,0.0,1.0
2016-01-12,0,0.0,0.0,0.0,0.0,1.0
2016-01-14,0,0.0,0.0,0.0,0.0,1.0
2016-01-19,0,0.0,0.0,0.0,0.0,1.0
2016-01-21,0,0.0,0.0,0.0,0.0,1.0
2016-01-25,0,0.0,0.0,0.0,0.0,1.0
2016-01-27,0,0.0,0.0,0.0,0.0,1.0
2016-01-29,0,0.0,0.0,0.0,0.0,1.0
2016-02-02,0,0.0,0.0,0.0,0.0,1.0
2016-02-04,0,0.0,0.0,0.0,0.0,1.0
2016-02-08,0,0.0,0.0,0.0,0.0,1.0
2016-02-10,0,0.0,0.0,0.0,0.0,1.0
2016-02-12,0,0.0,0.0,0.0,0.0,1.0
2016-02-17,0,0.0,0.0,0.0,0.0,1.0
2016-02-19,0,0.0,0.0,0.0,0.0,1.0
2016-02-23,0,0.0,0.0,0.0,0.0,0.9950248756218907
2016-02-25,0,0.0,0.0,0.0,0.0,0.9950248756218907
2016-02-29,0,0.0,0.0,0.0,0.0,0.9950248756218907
2016-03-02,0,0.0,0.0,0.0,0.0,0.9950248756218907
2016-03-04,0,0.0,0.0,0.0,0.0,0.9950248756218907
2016-03-08,0,0.0,0.0,0.0,0.0,0.9950248756218907
2016-03-10,0,0.0,0.0,0.0,0.0,0.9900990099009901
2016-03-14,0,0.0,0.0,0.0,0.0,0.9900990099009901
2016-03-16,0,0.0,0.0,0.0,0.0,0.9900990099009901
2016-03-18,0,0.0,0.0,0.0,0.0,0.9900990099009901
2016-03-22,1,0.001750769442916907,0.0019804010184281237,0.0,0.0,0.9931812296185497
2016-03-24,1,0.0016956977357134567,0.001915859967904623,0.0,0.0,0.9932402266705596
2016-03-29,1,0.0016406260285100071,0.0018513189173811236,0.0,0.0,0.9932992307320834
2016-03-31,1,0.0015855543213065585,0.0017867778668576246,0.0,0.0,0.9933582418043707
2016-04-04,1,0.001530482614103108,0.001722236816334124,0.0,0.0,0.9934172598886709
2016-04-06,1,0.0014754109068996582,0.001657695765810624,0.0,0.0,0.9934762849862339
2016-04-08,-1,-0.00041951682840274916,-0.00035796609682242305,0.0,0.0,0.9996114095985883
2016-04-12,-1,-0.000419516828402749,-0.0003579660968224229,0.0,0.0,0.9996114095985883
2016-04-14,-1,-0.0004195168284027483,-0.0003579660968224223,0.0,0.0,0.9996114095985883
2016-04-18,-1,-0.00041951682840274905,-0.00035796609682242294,0.0,0.0,0.9996114095985883
2016-04-20,-1,-0.00041951682840274927,-0.0003579660968224231,0.0,0.0,0.9996114095985883
2016-04-22,-1,-0.000419516828402749,-0.0003579660968224229,0.0,0.0,0.9996114095985883
2016-04-26,-1,-0.00041951682840274927,-0.00035796609682242305,0.0,0.0,0.9996114095985883
2016-04-28,-1,-0.0004195168284027486,-0.00035796609682242256,0.0,0.0,0.9996114095985883
2016-05-02,-1,-0.00041951682840274927,-0.0003579660968224231,0.0,0.0,0.9996114095985883
2016-05-04,-1,-0.00041951682840274927,-0.00035796609682242305,0.0,0.0,0.9996114095985883
2016-05-06,-1,-0.00041951682840274884,-0.00035796609682242273,0.0,0.0,0.9996114095985883
2016-05-10,-1,-0.00041951682840274884,-0.00035796609682242273,0.0,0.0,0.9996114095985883
2016-05-12,-1,-0.00041951682840274884,-0.00035796609682242273,0.0,0.0,0.9996114095985883
2016-05-16,-1,-0.00041951682840274916,-0.00035796609682242305,0.0,0.0,0.9996114095985883
2016-05-18,-1,-0.00041951682840274916,-0.00035796609682242305,0.0,0.0,0.9996114095985883
2016-05-20,-1,-0.00041951682840274884,-0.00035796609682242273,0.0,0.0,0.9996114095985883
2016-05-24,-1,-0.0004195168284027486,-0.0003579660968224226,0.0,0.0,0.9996114095985883
2016-05-26,-1,-0.00041951682840274916,-0.00035796609682242305,0.0,0.0,0.9996114095985883
2016-05-31,-1,-0.00041943546354635333,-0.00035789666966696556,0.0,0.0,0.9996114849360151
2016-06-02,-1,-0.00041943546354635377,-0.0003578966696669659,0.0,0.0,0.9996114849360151
2016-06-06,-1,-0.0004194354635463538,-0.00035789666966696594,0.0,0.0,0.9996114849360151
2016-06-08,-1,-0.00041943546354635366,-0.0003578966696669658,0.0,0.0,0.9996114849360151
2016-06-10,-1,-0.0004194354635463542,-0.00035789666966696627,0.0,0.0,0.9996114849360151
2016-06-14,-1,-0.00041943546354635393,-0.00035789666966696605,0.0,0.0,0.9996114849360151
2016-06-16,-1,-0.00041943546354635436,-0.0003578966696669664,0.0,0.0,0.9996114849360151
2016-06-20,-1,-0.0004194354635463542,-0.0003578966696669663,0.0,0.0,0.9996114849360151
2016-06-22,-1,-0.0004191838022682264,-0.000357681931665166,0.0,0.0,0.9996117179545413
2016-06-24,-1,-0.0004191838022682263,-0.000357681931665166,0.0,0.0,0.9996117179545413
2016-06-28,-1,-0.00041918380226822646,-0.0003576819316651662,0.0,0.0,0.9996117179545413
2016-06-30,-1,-0.00041918380226822657,-0.0003576819316651663,0.0,0.0,0.9996117179545413
2016-07-05,-1,-0.00041918380226822695,-0.00035768193166516656,0.0,0.0,0.9996117179545413
2016-07-07,-1,-0.00041918380226822673,-0.00035768193166516634,0.0,0.0,0.9996117179545413
2016-07-11,-1,-0.00041918380226822695,-0.00035768193166516656,0.0,0.0,0.9996117179545413
2016-07-13,-1,-0.00041918380226822695,-0.00035768193166516656,0.0,0.0,0.9996117179545413
2016-07-15,-1,-0.00041918380226822673,-0.00035768193166516634,0.0,0.0,0.9996117179545413
2016-07-19,-1,-0.000419183802268227,-0.0003576819316651666,0.0,0.0,0.9996117179545413
2016-07-21,-1,-0.00041918380226822744,-0.00035768193166516694,0.0,0.0,0.9996117179545413
2016-07-25,-1,-0.000419214029346512,-0.0003577077238825449,0.0,0.0,0.9996116899666415
2016-07-27,-1,-0.0004194158954259414,-0.0003578799725449152,0.0,0.0,0.9996115030545498
2016-07-29,-1,-0.0004192140293465118,-0.00035770772388254486,0.0,0.0,0.9946849366918799
2016-08-02,-1,-0.0006164455247927786,-0.0005260017798424869,0.0,0.0,0.9945250828180874
2016-08-04,-1,-0.000616445524792778,-0.0005260017798424865,0.0,0.0,0.9945250828180874
2016-08-08,-1,-0.0006164455247927791,-0.000526001779842487,0.0,0.0,0.9945250828180874
2016-08-10,-1,-0.0006163446929192646,-0.0005259157418345848,0.0,0.0,0.9945251645280418
2016-08-12,1,0.0007764026402640266,0.000995874587458746,0.0,0.0,0.9941483052724311
2016-08-16,1,0.000842709270927093,0.0010735823582358238,0.0,0.0,0.9940771434285104
2016-08-18,1,0.000909015901590159,0.0011512901290129016,0.0,0.0,0.9940059917714914
2016-08-22,1,0.000975322532253225,0.0012289978997899788,0.0,0.0,0.9939348502991869
2016-08-24,1,0.0010416291629162912,0.0013067056705670561,0.0,0.0,0.9938637190094104
2016-08-26,-1,-0.0010388538853885378,-0.0010331533153315323,0.0,0.0,0.9989650685923045
2016-08-30,-1,-0.0023454781466765405,-0.0020747104670531735,0.0,0.0,0.9928415190161227
2016-09-01,-1,-0.0022678517851785177,-0.002008475847584758,0.0,0.0,0.9831506038942852
2016-09-06,-1,-0.00218926795679568,-0.0019413923492349236,0.0,0.0,0.9786325280110836
2016-09-08,-1,-0.000703018781878188,-0.0006242870687068708,0.0,0.0,0.9750490653466002
2016-09-12,-1,-0.0006771576357635762,-0.0006022202220222019,0.0,0.0,0.9750692097911347
2016-09-14,-1,-0.0011194158415841582,-0.000997138613861386,0.0,0.0,0.9655231269498524
2016-09-16,-1,-0.0016699574707470747,-0.0014901312781278125,0.0,0.0,0.9607186603601708
2016-09-20,-1,-0.0016009063456345638,-0.001431211206120612,0.0,0.0,0.9607509461843491
2016-09-22,-1,-0.0013787731323132314,-0.001235154680468047,0.0,0.025,0.956264477574461
2016-09-26,-1,-0.0013166224572457245,-0.0011821226372637265,0.0,0.025,0.9562932680635718
2016-09-28,1,0.0005568364536453648,0.0006525820882088211,0.0,0.0,0.9612329240398951
2016-09-30,1,0.003955206570657065,0.00449776516651665,0.0,0.0,0.9677933957571699
2016-10-04,1,0.0021366994149414936,0.002435334608460846,0.0,0.0,0.9739258334865287
2016-10-06,1,0.003769594419441945,0.004280237803780378,0.0,0.0,0.9769714539899932
2016-10-10,1,0.003663530333033304,0.004155936453645365,0.0,0.0,0.9770686679025468
2016-10-12,1,0.00015913591359135895,0.00018649864986498632,0.0,0.0,0.9899492440280666
2016-10-14,-1,-0.0017193110711071105,-0.0015256855085508548,0.0,0.0,0.9934210706584841
2016-10-18,-1,-0.0016588658865886586,-0.001474167416741674,0.0,0.0,0.9934763211938457
2016-10-20,1,0.0002650939093909384,0.00031067566756675595,0.0,0.0,0.9947399298564198
2016-10-24,1,0.0001946762676267623,0.0002281500150014997,0.0,0.0,0.9948156048835256
2016-10-26,1,0.00019460996099609948,0.00022807230723072286,0.0,0.0,0.9948156761460393
2016-10-28,1,0.00017843114311431185,0.00020911161116111656,0.0,0.0,0.9899310879957804
2016-11-01,1,0.00017843114311431142,0.00020911161116111607,0.0,0.0,0.9899310879957804
2016-11-03,1,0.0001784311431143111,0.00020911161116111575,0.0,0.0,0.9899310879957804
2016-11-07,1,0.00017843114311431147,0.00020911161116111618,0.0,0.0,0.9899310879957804
2016-11-09,1,0.0001784311431143112,0.0002091116111611158,0.0,0.0,0.9850554031608448
2016-11-11,1,0.00016470567056705698,0.00019302610261026133,0.0,0.0,0.9850681913003235
2016-11-15,1,0.0001647056705670573,0.0001930261026102617,0.0,0.0,0.9850681913003235
2016-11-17,-1,-0.001010853105310531,-0.0008989873987398741,0.0,0.0,0.9892681797236031
2016-11-21,-1,-0.0009722478847884791,-0.0008660462646264628,0.0,0.0,0.9892991349027964
2016-11-23,-1,-0.000934018526852685,-0.0008334405190519048,0.0,0.0,0.989329782711519
2016-11-28,1,0.0002471579657965795,0.0002896557155715569,0.0,0.0,0.9898664242394992
2016-11-30,1,0.00034661791179117904,0.00040621737173717355,0.0,0.0,0.9849404170534183
2016-12-02,1,0.00034661791179117893,0.00040621737173717344,0.0,0.0,0.9849404170534183
2016-12-06,1,0.00034661791179117925,0.00040621737173717376,0.0,0.0,0.9849404170534183
2016-12-08,-1,-0.001283904230423042,-0.0011467074707470744,0.0,0.0,0.9889090821848753
2016-12-12,-1,-0.001193030063006301,-0.0010676403240324037,0.0,0.0,0.9858645814041207
2016-12-14,-1,-0.0011404374437443744,-0.0010227639963996402,0.0,0.0,0.9859064630165738
2016-12-16,-1,-0.0010889231538793883,-0.000978857002808281,0.0,0.0,0.9811108443094639
2016-12-20,-1,-0.0009727460999999997,-0.0008766782999999998,0.0,0.0,0.9812040887688173
2016-12-22,-1,-0.0009233289,-0.0008345115000000001,0.0,0.0,0.9812430703725143
2016-12-27,1,0.0005695933852385238,0.0006675325193519351,0.0,0.0,0.9863784836997433
2016-12-29,1,0.0019097648999999994,0.0021834674999999994,0.0,0.0,0.9899540304767143
2017-01-03,1,0.001866664207560756,0.002132983168136814,0.0,0.0,0.9899945799082907
2017-01-05,1,0.0018273361386138623,0.002086808415841585,0.0,0.0,0.9900316204368952
2017-01-09,1,0.0017825254367986806,0.0020343724170627077,0.0,0.0,0.9900737677389203
2017-01-11,1,0.0008470717565102106,0.0009745052079202606,0.0,0.0,0.9942265598832758
2017-01-13,1,0.0008334506899645884,0.0009585326818943014,0.0,0.0,0.9942394914022853
2017-01-18,1,0.0021820304065924027,0.002484285931807346,0.0,0.0,0.9976722727865638
2017-01-20,1,0.0011867243270587769,0.0012809086047940268,0.0,0.0,0.9987677039612171
2017-01-24,1,0.0011010086016532714,0.001180552138751361,0.0,0.0,0.9988605195267537
2017-01-26,1,0.0009557982888401518,0.0010169132064243365,0.0,0.0,0.994049267454345
2017-01-30,1,0.0008765222194564944,0.0009239658370174518,0.0,0.0,0.9893100348899092
2017-02-01,1,0.0007516751039529707,0.0007835094148160623,0.0,0.0,0.9894253683553325
2017-02-03,1,0.0006765452549765019,0.000695461311264454,0.0,0.0,0.9894959940452448
2017-02-07,1,0.0006004246063196364,0.0006064125269752622,0.0,0.0,0.9895675064153281
2017-02-09,1,0.0005187233845103007,0.0005256352865659579,0.0,0.0,0.9896391998050722
2017-02-13,1,0.0004307840718609424,0.0004505982668921811,0.0,0.0,0.9897122963494498
2017-02-15,1,0.00034652062054745425,0.00037958788327105127,0.0,0.0,0.9885589720456547
2017-02-17,1,0.0002578486847080859,0.00030399419800698963,0.0,0.0,0.9886324933582559
2017-02-22,1,0.0008197701942160348,0.0009045342790757382,0.0,0.0,0.9832672896943504
2017-02-24,1,0.0007887417639567783,0.00098520262228213,0.0,0.0,0.9881143413594708
2017-02-28,1,0.0017380886518170466,0.002019974458062377,0.0,0.0,0.9870411082125752
2017-03-02,1,0.003007791634733124,0.003566808566394761,0.0,0.0,0.9856710068386118
2017-03-06,1,0.0030400608376133682,0.003604626319996495,0.0,0.0,0.9856369616167302
2017-03-08,1,0.0009610194235033274,0.0010659669338911979,0.0,0.0,0.9878850801285955
2017-03-10,1,0.00020904275355472887,0.0002631706044178281,0.0,0.0,0.9854251499383072
2017-03-14,1,0.00014607850247825535,0.00022855011203230178,0.0,0.0,0.9762004140178644
2017-03-16,1,0.0005480572616216728,0.0005857160782431439,0.0,0.0,0.9771278343475222
2017-03-20,1,0.000504421993560821,0.000534577913411648,0.0,0.0,0.9771575830730556
2017-03-22,-1,-0.0009645020978758538,-0.0008192848358249663,0.0,0.0,0.9815382306473291
2017-03-24,-1,-0.0009684291670302657,-0.0008226357326710089,0.0,0.0,0.9815351308933019
2017-03-28,-1,-0.002443538127354873,-0.0021258562269248337,0.0,0.0,0.984925196021663
2017-03-30,-1,-0.0024002882862653022,-0.002088951922365779,0.0,0.0,0.9849640754286406
2017-04-03,-1,-0.0023562622881221347,-0.002051371890035938,0.0,0.0,0.9850036622374387
2017-04-05,-1,-0.0023130266912096344,-0.0020144797397746925,0.0,0.0,0.9850425350322746
2017-04-07,-1,-0.0013049632114302528,-0.0011246334861378152,0.0,0.0,0.9892152822014469
2017-04-11,1,0.0013842547177700362,0.001534222725509657,0.0,0.0,0.9985428875532641
2017-04-13,1,0.0007371517291776852,0.0007844700348540002,0.0,0.0,0.9992397675111345
2017-04-18,1,0.0005724635774945219,0.0006439446235722277,0.0,0.0,0.9993921655868492
2017-04-20,1,0.0004079822604406792,0.0005036744974478128,0.0,0.0,0.9995443793058982
2017-04-24,1,0.0014363648087255246,0.0015583826785785996,0.0,0.0,0.9935445696003308
2017-04-26,1,0.001095571840948859,0.0011817794987112418,0.0,0.0,0.9915523424308069
2017-04-28,1,0.0009968567693084342,0.0010680915843639372,0.0,0.0,0.9916567681914426
2017-05-02,1,0.0009196002508166949,0.0009775511396157,0.0,0.0,0.9917392794090436
2017-05-04,0,-0.00013374976715188288,3.44900147134494e-05,0.0,0.0,0.9926202488413691
2017-05-08,-1,-0.0003311114925277631,-0.00011350749987554167,0.0,0.0,0.9876371822683604
2017-05-10,-1,-0.0005095611035711575,-0.0002659722781476763,0.0,0.0,0.9827169519367498
2017-05-12,-1,-0.000636057215537741,-0.0003867520596091686,0.0,0.0,0.9826348597614236
2017-05-16,-1,-0.000801287907809948,-0.0005277404109302411,0.0,0.0,0.9825376657890419
2017-05-18,-1,-0.0009662745620058554,-0.0006685599272629059,0.0,0.0,0.9824406110338283
2017-05-22,-1,-0.0016522897305758847,-0.0013750267902507315,0.0,0.0,0.9817981058219004
2017-05-24,-1,-0.0014504030413636044,-0.0012776022587020466,0.0,0.0,0.9840482605313766
2017-05-26,-1,-0.0014080322132589947,-0.0012414479999718583,0.0,0.0,0.9840818776277845
2017-05-31,-1,-0.0012606184767548615,-0.0011125851598411257,0.0,0.0,0.9795074954269809
2017-06-02,-1,-0.0012222727694719366,-0.001079888602195214,0.0,0.0,0.9795337333563285
2017-06-06,-1,-0.0003097179032686534,-0.00022177643206201954,0.0,0.0,0.9850315248381107
2017-06-08,-1,-0.0019538037033727217,-0.001673053211741265,0.0,0.0,0.9885290979064189
2017-06-12,-1,-0.0010690548574787597,-0.0009712927573817774,0.0,0.0,0.9892093285305049
2017-06-14,-1,-0.0010067447824545247,-0.0009181411537158885,0.0,0.0,0.9892592773510733
2017-06-16,-1,-0.0009441370143698064,-0.0008647190813347196,0.0,0.0,0.9893094787869653
2017-06-20,1,0.0007261027193243774,0.0008584873247947866,0.0,0.0,0.9942410624432825
2017-06-22,1,0.0007319136037637812,0.0008652973658346307,0.0,0.0,0.9942348244935136
2017-06-26,1,0.0007375191659468737,0.00087186468223903,0.0,0.0,0.9942288080671122
2017-06-28,-1,-0.000832968305345467,-0.0007698443866425585,0.0,0.0,0.9991992353918446
2017-06-30,-1,-0.0007090213028480185,-0.0006593769956697044,0.0,0.0,0.9943479283515965
2017-07-05,-1,-0.0006506271291838897,-0.00060948449057599,0.0,0.0,0.9944014642587967
2017-07-07,-1,-0.0005930911198202489,-0.0005603900578757402,0.0,0.0,0.9944541869717647
2017-07-11,-1,-0.0004967757870261109,-0.0004742732664902991,0.0,0.0,0.9896232808167452
2017-07-13,-1,-0.0004127010981564511,-0.00039904525447342627,0.0,0.0,0.9848685579942958
2017-07-17,-1,-0.00036353590376272704,-0.0003571593108214153,0.0,0.0,0.9849075959107894
2017-07-19,-1,-0.0012558286240871457,-0.001077057656579083,0.0,0.0,0.9842210452381668
2017-07-21,-1,-0.0003825594725675895,-0.00038078013192759135,0.0,0.0,0.9848885352256076
2017-07-25,-1,-0.0003316559546930825,-0.00032498860422488455,0.0,0.0,0.9849355842606331
2017-07-27,-1,-0.0002823606796722135,-0.00026725578518353645,0.0,0.0,0.984983127568068
2017-07-31,1,0.001157718880910493,0.0013637074821331854,0.0,0.0,0.9890081212103077
2017-08-02,1,0.001163411178902583,0.0013703806444012993,0.0,0.0,0.9890027743794382
2017-08-04,1,0.0011691067130957286,0.0013770575993213104,0.0,0.0,0.9889974245670436
2017-08-08,1,0.0023456859826894117,0.0026855568810475244,0.0,0.0,0.9925404417837339
2017-08-10,1,0.0009168203780821232,0.0010672661170343127,0.0,0.0,0.9990089399268951
2017-08-14,1,8.599031830167496e-05,0.0001321685433534217,0.0,0.0,0.9998909324661969
2017-08-16,1,2.7092742307059344e-05,9.045721028019493e-05,0.0,0.0,0.9949666874194368
2017-08-18,-1,-0.001078316804610064,-0.0008090983607534182,0.0,0.0,0.989293455685545
2017-08-22,-1,-0.0011004682553380995,-0.0008368568548186547,0.0,0.0,0.9892709263134704
2017-08-24,-1,-0.0012086765675778594,-0.0009291890440270985,0.0,0.0,0.9891841704887921
2017-08-28,-1,-0.00131688487981762,-0.001021521233235543,0.0,0.0,0.9890974298791839
2017-08-30,-1,-0.000667865945579502,-0.000509050195950827,0.0,0.0,0.9895956577635417
2017-09-01,1,0.0006418149856581192,0.0007721989916667708,0.0,0.0,0.984617063843303
2017-09-06,1,0.00032948229086339725,0.0003961735959887569,0.0,0.0,0.9801253839263173
2017-09-08,1,0.00033722429277343387,0.00040524680184712554,0.0,0.0,0.9801191648843774
2017-09-12,1,0.00034496629468347027,0.0004143200077054941,0.0,0.0,0.9801129459213583
2017-09-14,-1,-0.00016426552389968782,-0.00016136716663559474,0.0,0.0,0.985079741021079
2017-09-18,1,0.0003854643921999563,0.00046179795422803856,0.0,0.0,0.9897328727280446
2017-09-20,1,0.00039289884046534633,0.00047050253630238296,0.0,0.0,0.9897258829981556
2017-09-22,1,0.000400973654831009,0.00047997396789972474,0.0,0.0,0.9897182854639618
2017-09-26,1,0.000408728286146535,0.0004890619747355675,0.0,0.0,0.9897109919931659
2017-09-28,1,0.00041648291746206175,0.000498149981571411,0.0,0.0,0.9897036986298641
2017-10-02,-1,-0.00010158750504580963,-8.7886552278418e-05,0.0,0.0,0.994931087746292
2017-10-04,1,0.0004401342250673631,0.0005258680298509272,0.0,0.0,0.9995172320500049
2017-10-06,1,0.00044679475337848983,0.0005336492445358236,0.0,0.0,0.9995100182008999
2017-10-10,1,0.0004549014563618257,0.0005431580478624804,0.0,0.0,0.9995012191543696
2017-10-12,1,0.0002536855626664525,0.0002812767006694558,0.0,0.0,0.9997325903953558
2017-10-16,1,1.9344866091825614e-05,4.3191710893314146e-05,0.0,0.0,0.9999687326891826
2017-10-18,0,-8.922103260968603e-06,1.9072018897300537e-05,0.0,0.0,0.9999848408396758
2017-10-20,-1,-3.716863232966089e-05,-5.0448987388023884e-06,0.0,0.0,0.9983180052602963
2017-10-24,-1,-5.394690969097069e-05,-2.403886888689027e-05,0.0,0.0,0.9983041111513279
2017-10-26,-1,-0.0003916338690399154,-0.00034548581855501357,0.0,0.0,0.9980102111220998
2017-10-30,-1,-0.00016679613278933607,-0.00016679613278933607,0.0,0.0,0.998186511219869
2017-11-01,-1,-0.00014467675364355557,-0.0001408734214827426,0.0,0.0,0.9982084312566161
2017-11-03,-1,-0.000122557374497775,-0.00011495071017614909,0.0,0.0,0.9982303522561062
2017-11-07,-1,-0.0001001971479783078,-8.881451233353738e-05,0.0,0.0,0.998252475228153
2017-11-09,-1,-7.803690755808799e-05,-6.287830059472763e-05,0.0,0.0,0.9982744198139143
2017-11-13,-1,-0.0003133959136611406,-0.0002807513582373591,0.0,0.0,0.9980729518904347
2017-11-15,-1,-0.00029992745134889323,-0.00026928830495420513,0.0,0.0,0.9980839282262759
2017-11-17,1,0.00038617887861565694,0.00046972309518151644,0.0,0.0,0.9995722320768063
2017-11-21,0,-2.0950428158584265e-05,9.800844074187668e-06,0.0,0.0,0.9982647432914249
2017-11-24,1,9.25234674289133e-06,6.816728978681607e-05,0.0,0.0,0.9982456364888548
2017-11-28,1,5.339448921471901e-05,0.00011982542528167492,0.0,0.0,0.9982077737110013
2017-11-30,1,9.754858506674053e-05,0.0001715716281127771,0.0,0.0,0.9981655314049829
2017-12-04,1,0.0001417026809187624,0.00022331783094387968,0.0,0.0,0.9981232926740456
2017-12-06,1,0.0001858567767707838,0.0002750640337749817,0.0,0.0,0.9980810575177357
2017-12-08,1,0.00023001087262280583,0.00032681023660608425,0.0,0.0,0.9980388259355993
2017-12-12,1,0.0002741649684748277,0.00037855643943718694,0.0,0.0,0.9979965979271826
2017-12-14,1,0.00031831906432684947,0.0004303026422682892,0.0,0.0,0.9979543734920325
2017-12-18,1,0.00036290844247330366,0.0004826277219663571,0.0,0.0,0.9979117124615051
2017-12-20,1,0.0007838467717088636,0.0009186258546271297,0.0,0.0,0.9991494876738087
2017-12-22,1,1.7106575908857165e-05,5.1319727726570954e-05,0.0,0.0,0.9999657880186821
2017-12-27,1,4.125214796095084e-05,7.96376675063488e-05,0.0,0.0,0.9999395587456323
2017-12-29,-1,-0.00048103352229506653,-0.000410457175394632,0.0,0.0,0.9995544532515459
2018-01-03,1,7.993452330013352e-05,0.0001319336829250221,0.0,0.0,0.9998940771177329
2018-01-05,1,0.00010943853941592385,0.000166510787784704,0.0,0.0,0.9998620443707812
2018-01-09,1,0.0001389425555317141,0.00020108789264438573,0.0,0.0,0.999830013676175
2018-01-11,1,0.00016844657164750477,0.00023566499750406796,0.0,0.0,0.9997979850337166
2018-01-16,1,0.00019768373205082302,0.000269877790999075,0.0,0.0,0.9948237496995361
2018-01-18,1,0.0002787609013222133,0.00037357642139042893,0.0,0.0,0.9898206152644393
2018-01-22,1,0.0002666578369928849,0.0003522072404702748,0.0,0.0,0.9898344650321855
2018-01-24,1,0.00029727551823742433,0.0003880895003903459,0.0,0.0,0.989805662019978
2018-01-26,1,0.00032789319948196404,0.0004239717603104173,0.0,0.0,0.989776860683989
2018-01-30,1,0.0003585108807265038,0.0004598540202304888,0.0,0.0,0.9897480610240719
2018-02-01,1,0.0003891285619710427,0.0004957362801505593,0.0,0.0,0.9897192630400806
2018-02-05,1,0.00041938273369473565,0.000531158146668908,0.0,0.0,0.9896908203934154
2018-02-07,1,0.000732879217057579,0.000921372808175846,0.0,0.0,0.9893882529207614
2018-02-09,-1,-9.32461659067302e-05,-7.956526125632124e-05,0.0,0.0,0.9900241238373952
2018-02-13,1,0.0016332479985941657,0.0018453020206754974,0.0,0.0,0.9933058387837602
2018-02-15,1,0.0016067262448420648,0.0018142199653732607,0.0,0.0,0.9982924476173185
2018-02-20,-1,-0.00015544906820246787,-0.00013264186900673722,0.0,0.0,0.999855975277504
2018-02-22,-1,-0.00015536883989354007,-0.0001325734116466114,0.0,0.0,0.9998560495989313
2018-02-26,1,0.0006718768304766391,0.0008446808527740145,0.0,0.0,0.9992422957095063
2018-02-28,-1,-0.00011654179727693195,-9.944300076525853e-05,0.0,0.0,0.9998920192620779
2018-03-02,-1,-0.00011654179727693174,-9.944300076525838e-05,0.0,0.0,0.9998920192620779
2018-03-06,-1,-0.00011656540019799988,-9.946314070949025e-05,0.0,0.0,0.9998919973953688
2018-03-08,-1,-0.00011653433894826478,-9.943663670875102e-05,0.0,0.0,0.999892026171778
2018-03-12,-1,-0.00012423716406498222,-0.00010600931759984972,0.0,0.0,0.9998848900110024
2018-03-14,-1,-0.0001242371640649828,-0.00010600931759985018,0.0,0.0,0.9998848900110024
2018-03-16,-1,-0.00011299328085724326,-9.641511609826553e-05,0.0,0.0,0.9949332269644127
2018-03-20,-1,-0.00011299328085724329,-9.64151160982655e-05,0.0,0.0,0.9949332269644127
2018-03-22,-1,-0.00011299328085724273,-9.641511609826501e-05,0.0,0.0,0.9949332269644127
2018-03-26,-1,-0.00011299328085724253,-9.641511609826488e-05,0.0,0.0,0.9949332269644127
2018-03-28,-1,-0.00011294352828138709,-9.63726631281327e-05,0.0,0.0,0.9949332673149268
2018-04-02,-1,-0.00011303659275760595,-9.645207335687501e-05,0.0,0.0,0.9900082315884429
2018-04-04,-1,-0.00011396722072222918,-9.724616131124482e-05,0.0,0.0,0.9900074842815338
2018-04-06,1,0.0014728283152891965,0.001663030366089137,0.0,0.0,0.9887362022908333
2018-04-10,-1,-0.0001424590259027809,-0.00012155770163905132,0.0,0.0,0.98998460552058
2018-04-12,-1,-0.00014249780140845864,-0.00012159078807439755,0.0,0.0,0.9899845743847854
2018-04-16,1,0.0019250234223150637,0.0022560229247945767,0.0,0.0,0.9931982102729239
2018-04-18,1,0.0011898839462880155,0.001340892753270464,0.0,0.0,0.9873045478362183
2018-04-20,1,0.00105102218192166,0.0011827047754802901,0.0,0.0,0.9825658033092063
2018-04-24,1,0.001013203009502613,0.0011383827589348907,0.0,0.0,0.9825963355374012
2018-04-26,1,0.0009764086415515235,0.0010952102368699114,0.0,0.0,0.9779299034400261
2018-04-30,-1,-0.00030714981789643216,-0.0002620853658498501,0.0,0.0,0.9831931428174945
2018-05-02,-1,-0.00030714981789643374,-0.0002620853658498515,0.0,0.0,0.9831931428174945
2018-05-04,-1,-0.000306684056183215,-0.0002616879398320081,0.0,0.0,0.9831934640679943
2018-05-08,-1,-0.0003440565649411766,-0.00029357722336679473,0.0,0.0,0.9831676877408629
2018-05-10,-1,-0.0003440565649411773,-0.0002935772233667955,0.0,0.0,0.9831676877408629
2018-05-14,-1,-0.00034405656494118067,-0.0002935772233667981,0.0,0.0,0.9831676877408629
2018-05-16,1,0.001363624571807844,0.0015980939551956163,0.0,0.0,0.9888171441678636
2018-05-18,1,0.0019415415669627033,0.0021847973549348285,0.0,0.0,0.9932138396870738
2018-05-22,1,0.001873098272961764,0.0021045168241033475,0.0,0.0,0.9932786966755384
2018-05-24,1,0.0006743644143228677,0.0007449921539569871,0.0,0.0,0.9992908250019558
2018-05-29,1,0.0007162075701236342,0.0007885857734498769,0.0,0.0,0.9992481690033528
2018-05-31,1,0.0006761347025805498,0.0007416912370407642,0.0,0.0,0.9944000697972641
2018-06-04,1,0.001780039309940305,0.0019910941268316577,0.0,0.0,0.9933683675802849
2018-06-06,1,0.0005419367106941146,0.0005876127531556758,0.0,0.0,0.9945263955844525
2018-06-08,1,0.0005054790745536995,0.0005448692083266478,0.0,0.0,0.9945610264968235
2018-06-12,1,0.0004688255184955038,0.0005019132308647805,0.0,0.0,0.9945958399654671
2018-06-14,1,0.0004323832479163469,0.00045918163400038796,0.0,0.0,0.9946304632168621
2018-06-18,1,0.0003957117722223961,0.00041620465569842745,0.0,0.0,0.9946652985698705
2018-06-20,1,0.00035904029652844484,0.00037322767739646657,0.0,0.0,0.9947001363630702
2018-06-22,1,0.0015065173204768406,0.0016704603882850924,0.0,0.0,0.9936276219636374
2018-06-26,1,0.00026578523164156416,0.0002673616072935667,0.0,0.0,0.9947875535204782
2018-06-28,1,0.00022280825333960343,0.00023069013159961565,0.0,0.0,0.9997733022110709
2018-07-02,-1,-0.0011393014610964285,-0.0009721452621710813,0.0,0.0,0.9989453900147651
2018-07-05,-1,-0.0011384783886798137,-0.0009714429494140491,0.0,0.0,0.9989461511000937
2018-07-09,-1,-0.00027272371276281003,-0.0002662147936037932,0.0,0.0,0.9997306033409332
2018-07-11,-1,-0.00029436907466484874,-0.0002898603987933196,0.0,0.0,0.9997079705693711
2018-07-13,-1,-0.0011311566518469453,-0.0009651954442400578,0.0,0.0,0.9989529214745874
2018-07-17,-1,-0.0011311566518469442,-0.0009651954442400567,0.0,0.0,0.9989529214745874
2018-07-19,-1,-0.0011311566518469444,-0.0009651954442400571,0.0,0.0,0.9989529214745874
2018-07-23,-1,-0.0011311566518469444,-0.0009651954442400571,0.0,0.0,0.9989529214745874
2018-07-25,-1,-0.0011311566518469442,-0.0009651954442400567,0.0,0.0,0.9989529214745874
2018-07-27,-1,-0.001131552638463477,-0.000965533332434086,0.0,0.0,0.9989525553053384
2018-07-31,-1,-0.001131552638463478,-0.0009655333324340864,0.0,0.0,0.9989525553053384
2018-08-02,-1,-0.0011315526384634796,-0.0009655333324340882,0.0,0.0,0.9989525553053384
2018-08-06,-1,-0.0011315526384634796,-0.0009655333324340882,0.0,0.0,0.9989525553053384
2018-08-08,-1,-0.0011315526384634803,-0.0009655333324340888,0.0,0.0,0.9989525553053384
2018-08-10,-1,-0.001131552638463481,-0.0009655333324340891,0.0,0.0,0.9989525553053384
2018-08-14,-1,-0.0011311566518469422,-0.0009651954442400552,0.0,0.0,0.9989529214745874
2018-08-16,-1,-0.0011311566518469422,-0.0009651954442400552,0.0,0.0,0.9989529214745874
2018-08-20,-1,-0.0011592711350262924,-0.0009891850225513912,0.0,0.0,0.9956781574977526
2018-08-22,-1,-0.001146995939301081,-0.0009787108207935863,0.0,0.0,0.9956881279842553
2018-08-24,-1,-0.0011469959393010805,-0.000978710820793586,0.0,0.0,0.9956881279842553
2018-08-28,-1,-0.00023474101197775663,-0.00023345290245354677,0.0,0.0,0.9964115595881028
2018-08-30,-1,-0.0009653203454717018,-0.0008236903333947727,0.0,0.0,0.9958357167264142
2018-09-04,-1,-0.0009641554476142226,-0.0008226963471920587,0.0,0.0,0.9958366632016865
2018-09-06,-1,-0.0002475861009490133,-0.00024288431592349484,0.0,0.0,0.9964019459917789
2018-09-10,-1,-0.00021133016539855517,-0.00020034875809321859,0.0,0.0,0.9964377722159522
2018-09-12,-1,-0.00017483556367706198,-0.00015757906648296183,0.0,0.0,0.9964738118285916
2018-09-14,-1,-0.00013834096195556868,-0.00011480937487270504,0.0,0.0,0.9915838264132233
2018-09-18,-1,-9.81922064264857e-05,-7.63877743191779e-05,0.0,0.0,0.9851579059198627
2018-09-20,-1,-0.0006331540867855411,-0.0005406022223590058,0.0,0.0,0.9847831636625854
2018-09-24,-1,-0.0006309263550880505,-0.0005387003276942663,0.0,0.0,0.9847847057532174
2018-09-26,-1,-0.0005361645452752499,-0.00045779053732267444,0.0,0.0,0.9800244245836657
2018-09-28,-1,-0.0008718755536450999,-0.0007444292380683851,0.0,0.0,0.974212753660365
2018-10-02,-1,-0.0008168156684436071,-0.00069741796763185,0.0,0.0,0.9742500576303011
2018-10-04,-1,-0.0008166552016715374,-0.0006972812128282881,0.0,0.0,0.9742501662106284
2018-10-08,-1,-6.472690199176824e-05,-2.7298772760401033e-05,0.0,0.0,0.9747755623750813
2018-10-10,1,0.0006915746908380335,0.0009137182617160876,0.0,0.0,0.9744174334864659
2018-10-12,1,0.002049279781253136,0.002453554797701008,0.0,0.0,0.9784141011909787
2018-10-16,1,0.0014720592040751968,0.001725808159273032,0.0,0.0,0.988241313685895
2018-10-18,1,0.001408945453031342,0.0016542402610420313,0.0,0.0,0.9882851359309457
2018-10-22,1,0.002786449992541051,0.0032134012433143325,0.0,0.0,0.9873297928415254
2018-10-24,1,0.0006387146830337515,0.0008423881518798323,0.0,0.0,0.9936394095356006
2018-10-26,1,5.676015252012369e-05,0.00011901152852653293,0.0,0.0,0.9999121218827188
2018-10-30,1,9.721088158717411e-05,0.00016639946923125147,0.0,0.0,0.9998682121949056
2018-11-01,1,0.0001378237409845303,0.0002140498872032687,0.0,0.0,0.9998240941342237
2018-11-05,1,0.00017821297807628554,0.000261347645354795,0.0,0.0,0.9948073243145923
2018-11-07,1,0.00020065884609034087,0.0002833225232830128,0.0,0.0,0.9947853444909157
2018-11-09,1,0.00023780325003021853,0.0003268537478098377,0.0,0.0,0.994745427877154
2018-11-13,1,0.0006793618070104171,0.0006964330366366085,0.0,0.0,0.9943442717801367
2018-11-15,1,0.0006024356218271528,0.0006062797245892535,0.0,0.0,0.9944268761064484
2018-11-19,1,0.0001655256468474292,0.00021571723216009,0.0,0.0,0.9899121797181384
2018-11-21,-1,-0.0002845027617993694,-0.00024497175626462874,0.0,0.0,0.9802242645050785
2018-11-26,-1,-0.0003147612648252347,-0.0002710462615278654,0.0,0.0,0.9802063994788097
2018-11-28,-1,-0.0002816550565671902,-0.00024255636755468862,0.0,0.0,0.9707379836109066
2018-11-30,-1,-0.0002630632277280914,-0.0002265629311964165,0.0,0.0,0.9700461003464427
2018-12-04,1,0.0008831466431815196,0.0009930147476821685,0.0,0.0,0.9743061687270776
2018-12-07,1,0.0008507655511114356,0.0009550658660253731,0.0,0.0,0.9743281173311603
2018-12-11,1,0.0009546805662308897,0.0010698562069040628,0.0,0.0031645396517519437,0.9691445442313185
2018-12-13,1,0.0008216870081599149,0.0009190812364040312,0.0,0.0031645396517519437,0.9686178473384649
2018-12-17,1,0.0008482141732290594,0.0009468058780599677,0.0,0.012658158607007775,0.968100622752734
2018-12-19,1,0.002995410649111822,0.0033757885722827162,0.0,0.012658158607007775,0.9714716373823922
2018-12-21,1,0.0027834098922482602,0.0031331753536245786,0.0,0.0031645396517519437,0.9807756800916342
2018-12-26,1,0.0015866583498410696,0.0017754049939709034,0.0,0.0031645396517519437,0.9813291645373335
2018-12-28,1,0.0015034017792481937,0.0016778974105269638,0.0,0.0031645396517519437,0.989859476683375
2019-01-02,1,0.0014150346593419124,0.0015720444616557092,0.0,0.0,0.989854131227428
2019-01-04,1,0.0012942591496259523,0.0014339718888752896,0.0,0.0,0.9899245141552478
2019-01-08,1,0.0012312578291766023,0.0013600784499442236,0.0,0.0,0.989961165176147
2019-01-10,1,0.0012614161170725706,0.0013872965474711692,-0.003124983119777577,0.0,0.9902859362592437
2019-01-14,1,0.0011673554807670576,0.0012803840751199164,0.0,0.0,0.9862175200711573
2019-01-16,-1,-0.00025628595365740237,-0.00018692266024874216,-0.012499932479110309,0.0,0.9779245371845955
2019-01-18,-1,-0.000303520802594442,-0.00022828464739627034,-0.003124983119777577,0.0,0.9784792586138332
2019-01-23,-1,-0.000344682996872919,-0.0002626233996857922,-0.003124983119777577,0.0,0.9737001146732868
2019-01-25,-1,-0.0003659750636713958,-0.0002817960229692788,-0.003124983119777577,0.0,0.9736913168863888
2019-01-29,-1,-0.0003985338987043502,-0.00030955738530275137,0.0,0.0,0.9748342930167757
2019-01-31,-1,-0.0004536337158033409,-0.0003565935601166144,0.0,0.0,0.9753646950748155
2019-02-04,-1,-0.0005213858276253509,-0.00041218111781212287,-0.0050000100582840434,0.0,0.9697531221635313
2019-02-06,-1,-0.0005497593521910821,-0.0004367606702572433,-0.0050000100582840434,0.0,0.9687834362433518
2019-02-08,-1,-0.0005348060545851615,-0.00042791697345961145,-0.0050000100582840434,0.0,0.9641166392462202
2019-02-12,-1,-0.0019606722765168182,-0.0016850585542745548,-0.0050000100582840434,0.0,0.9676195063204941
2019-02-14,-1,-0.0018883564615873292,-0.0016228531749943105,0.0,0.0032051346343768905,0.9738622711662306
2019-02-19,-1,-0.0018692439265507782,-0.0016065024544400003,0.0,0.0032051346343768905,0.9738714790415914
2019-02-21,-1,-0.0028484058218232167,-0.0024718713258934056,0.0,0.0032051346343768905,0.9733832572509423
2019-02-25,-1,-0.0026023284855535376,-0.0022589142131530984,0.0,0.0032051346343768905,0.9735031788166499
2019-02-27,-1,-0.0025372778579648547,-0.002203042295452425,0.0,0.014717455192473087,0.9688187365765599
2019-03-01,-1,-0.0026259511803099654,-0.0022806695534574465,0.0,0.014717455192473087,0.9687754034712365
2019-03-05,-1,-0.0026039786079528468,-0.0022619207561951956,0.0,0.014717455192473087,0.9739404105188623
2019-03-07,-1,-0.002560639648495209,-0.0022249251852273625,0.0,0.0032051346343768905,0.9749386937487962
2019-03-11,-1,-0.0007372335471583001,-0.000677087721775638,0.0,0.0,0.9857214956190536
2019-03-13,-1,-0.0018266848786603076,-0.001642660787021869,0.0,0.0,0.9854579134104553
2019-03-15,-1,-0.0014301915035474016,-0.0012920828397000505,0.0,0.0,0.9887664882957671
2019-03-19,-1,-0.0009784836241841532,-0.0009543621997379942,0.0,0.0,0.9891525349770038
2019-03-21,-1,-0.0012020482237834812,-0.001031127562583852,0.0,0.0,0.9939205973077216
2019-03-25,-1,-0.003088157154112676,-0.0027006388786061904,0.0,0.0,0.9921674353663474
2019-03-27,-1,-0.0017532165707088996,-0.001523248591694364,0.0,0.0,0.998364446835281
2019-03-29,-1,-0.0029718051203577634,-0.0026014079779821554,0.0,0.0,0.9972211370485299
2019-04-02,-1,-0.0029011849194855123,-0.0025411239529252363,0.0,0.0,0.997286230150659
2019-04-04,-1,-0.0028295348057722387,-0.002479936032703748,0.0,0.0,0.9973522935408788
2019-04-08,-1,-0.002760103974338523,-0.002420691964183088,0.0,0.0,0.9974162948552993
2019-04-10,-1,-0.002690673142904808,-0.002361447895662427,0.0,0.0,0.9974803043843318
2019-04-12,-1,-0.0026242523161144745,-0.002304847477064137,0.0,0.0,0.9975415091767149
2019-04-16,-1,-0.0025537649975133237,-0.0022446768380377713,0.0,0.0,0.9976065215657502
2019-04-18,-1,-0.002485231194417159,-0.0021862232766969294,0.0,0.0,0.9976697156730121
2019-04-23,-1,-0.0024147970287244484,-0.0021260979920827844,0.0,0.0,0.9977346957440048
2019-04-25,-1,-0.0023453130443300114,-0.002066808569105292,0.0,0.0,0.9977987951849524
2019-04-29,-1,-0.0022775699632192215,-0.002009054805646609,0.0,0.0,0.993145183203886
2019-05-01,-1,-0.0016946137393043673,-0.0015680638559743203,0.0,0.0,0.9899970663781318
2019-05-03,-1,-0.0015484826381256481,-0.0014420616619995386,0.0,0.0,0.9898537812374004
2019-05-07,-1,-0.0013738105755831398,-0.001289043682417747,0.0,0.0,0.9804081012201141
2019-05-09,-1,-0.0012994304682451122,-0.0012301856916074926,0.0,0.0,0.9756659688411791
2019-05-13,-1,-0.001137869091085839,-0.0010889111722113686,0.0,0.0,0.9757616914795116
2019-05-15,1,0.00040134657995914225,0.0007187887370830423,0.0,0.0,0.9762733565294932
2019-05-17,1,0.0005339313647984406,0.0008574996505189464,-0.00499999161809605,0.0,0.9705132810572372
2019-05-21,1,1.2247967079588563e-05,0.00020066474858960158,-0.00499999161809605,0.0012562792904456399,0.9661340850612062
2019-05-23,1,0.00020483212277941625,0.00045734212154374036,-0.00499999161809605,0.0012562792904456399,0.9660528703769782
2019-05-28,1,0.0014885529463658806,0.0018718855562193171,-0.024999958090481507,0.0012562792904456399,0.960833581720036
2019-05-30,1,0.0007643398739349439,0.00104897195741418,-0.00499999161809605,0.0012562792904456399,0.96006860918901
2019-06-03,0,-7.874559994877639e-05,9.477388082782673e-05,-0.00499999161809605,0.0,0.9606469244188335
2019-06-05,1,0.0018374060238338546,0.0022803747808133714,0.0,0.0,0.9686897030383266
2019-06-07,1,0.0005817140176362164,0.0008333178627786381,0.0,0.0,0.9741667180428675
2019-06-11,-1,-0.001028103966675102,-0.0010101931286018633,0.0,0.0,0.9740840523231041
2019-06-13,-1,-0.0009442071314071157,-0.0009380389902405108,0.0,0.0,0.9741247211569303
2019-06-17,-1,-0.0008037314539977179,-0.0007792948685182315,0.0,0.0,0.9774312392575552
2019-06-19,-1,-0.0007352025102879163,-0.0006853065270718834,0.0,0.0,0.9775632457860841
2019-06-21,-1,-0.0006039128036506602,-0.0005241095426925801,0.0,0.0,0.9776567344787658
2019-06-25,1,0.0020726307516766938,0.002515675948637515,0.0,0.0,0.97940376880313
2019-06-27,1,0.0006917760857961745,0.0009300491326941664,0.0,0.0,0.9850800217114376
2019-07-01,-1,-0.00033957969064823067,-0.00023271273195570779,0.0,0.0,0.9854633896333354
2019-07-03,-1,-0.00017871485557710164,-5.756377393806707e-05,0.0,0.0,0.9759977270758675
2019-07-08,-1,-0.0004842668428924349,-0.0004841041635023044,0.0,0.0,0.975722789358211
2019-07-10,-1,-0.0003544268732577059,-0.0003428180135459332,0.0,0.0,0.971111722813383
2019-07-12,-1,-0.00029147281968466745,-0.00027074067906688237,-0.012711858520799754,0.0,0.966912078246839
2019-07-16,1,0.00028533561414739955,0.00035195181570494,0.0,0.0,0.9692264542878544
2019-07-18,1,0.0003115900982841568,0.00038285573605809477,0.0,0.0,0.9739285345716068
2019-07-22,-1,-0.00034980035256531884,-0.0003365700792621141,0.0,0.0,0.973916439433363
2019-07-24,-1,-0.0003210266704405133,-0.00031194520168063866,0.0,0.0,0.9758339048475361
2019-07-26,-1,-0.0008286423174785195,-0.0007559353518398477,0.0,0.0,0.975518067354418
2019-07-30,-1,-0.0007541604323201459,-0.0006909523275344397,0.0,0.0,0.9754594860572904
2019-08-01,1,0.00012358940517642237,0.0002110041933700937,0.0,0.0,0.985354737818707
2019-08-05,-1,-0.0015902133652378678,-0.0014411113087033577,0.0,0.0,0.9844781265689019
2019-08-07,-1,-0.0006457653677392552,-0.0006184222255389623,0.0,0.0,0.9861484073320872
2019-08-09,-1,-0.0001064850708972225,-8.118677721124223e-05,0.0,0.0,0.9909996154068009
2019-08-13,1,0.0005975082785638461,0.0007676802273141804,0.0,0.0,0.9897081377758752
2019-08-15,-1,-0.00033061892393468773,-0.0003129372417755413,0.0,0.0,0.9898825881103643
2019-08-19,1,0.00014268962055114735,0.00022685429005839952,0.0,0.0,0.9900269666350097
2019-08-21,-1,-0.0002233824026518963,-0.000218107358253092,0.0,0.0,0.9948839641117678
2019-08-23,-1,-0.001186684874030444,-0.001070200061148976,0.0,0.0,0.9941635679854386
2019-08-27,-1,-0.0011422639484532813,-0.0010327995756228459,0.0,0.0,0.9942983193397323
2019-08-29,-1,-0.001091736043865622,-0.0009898838418149589,0.0,0.0,0.9895308685619827
2019-09-03,-1,-0.0009950191693998656,-0.000905378803338523,0.0,0.0,0.9895995866273523
2019-09-05,-1,-0.0015456932442354005,-0.0013937702776497458,0.0,0.0,0.9880314385263474
2019-09-09,-1,-0.0014220685719106322,-0.0012860206412929906,0.0,0.0,0.9847625983442194
2019-09-11,-1,-0.0015252223945198904,-0.0013830011957248211,0.0,0.0,0.9854822124773389
2019-09-13,-1,-0.0014388311463872968,-0.0013092851114109095,0.0,0.0,0.9855420806377526
2019-09-17,-1,-0.0013524398982547032,-0.0012355690270969976,0.0,0.0,0.9856019560726039
2019-09-19,-1,-0.0012660486501221099,-0.0011618529427830857,0.0,0.0,0.9856618387832187
2019-09-23,-1,-0.0011456162338965893,-0.0010567366827530823,0.0,0.0,0.9793714979633162
2019-09-25,-1,-0.0012425133646498223,-0.0011529044092508205,0.0,0.0,0.9746546182832297
2019-09-27,-1,-0.0001872564513206281,-0.00014790488617928387,0.0,0.0,0.9799859647090233
2019-10-01,-1,-0.00013200766688790968,-8.319215720452576e-05,0.0,0.0,0.9800287289385053
2019-10-03,-1,-0.0009854371922404814,-0.0009311472527680107,0.0,0.0,0.9842788368034896
2019-10-07,1,4.749074812837584e-06,7.693593257775244e-05,0.0,0.0,0.9835334097455947
2019-10-09,-1,-0.0009159820506641969,-0.0008837402823070077,0.0,0.0,0.9816844335466322
2019-10-11,-1,-0.0007873770290617796,-0.0007714241917304532,0.0,0.0,0.9817614878489679
2019-10-15,-1,-0.0006812850034632762,-0.0006808072736355717,0.0,0.0,0.9818238477604571
2019-10-17,0,-6.77961272630269e-05,6.066661547802929e-05,0.0,0.0,0.982284803466818
2019-10-21,1,0.00033230545000260915,0.0004731044708948212,0.0,0.0,0.9885224579467792
2019-10-23,1,4.2709178961715605e-05,0.00010949082026411589,0.0,0.0,0.9936766927171107
2019-10-25,-1,-0.0012754527851854692,-0.0011904889334748664,0.0,0.0,0.9926381027948417
2019-10-29,-1,-0.00028213272473360737,-0.00017293366110374868,0.0,0.0,0.9935329161377556
2019-10-31,-1,-0.0001600654160477276,-3.030278594268529e-05,0.0,0.0,0.9887601640381286
2019-11-04,1,0.0009514428525076275,0.0011975015010712712,0.0,0.0,0.992794556824157
2019-11-06,1,0.00024273385397724105,0.000338323213764417,0.0,0.0,0.9947373138573317
2019-11-08,-1,-0.0004117115746418582,-0.0004030235811557732,0.0,0.0,0.989781252961632
2019-11-12,-1,-0.0003513022261593453,-0.0003486003657515227,0.0,0.0,0.9898251428212047
2019-11-14,1,0.0005971631247817905,0.0008333149118402397,0.0,0.0,0.9797964982866482
2019-11-18,1,0.00017269650031961643,0.00028871620204141187,0.0,0.0,0.9707205610882027
2019-11-20,-1,-0.0002351571446190868,-0.00021395735322780906,0.0,0.0,0.9660644797877234
2019-11-22,-1,-0.00020850806621966426,-0.00017587308001696116,-0.0016666638726986806,0.0,0.9657948813235131
2019-11-26,-1,-0.0001511336832693219,-0.00011063338065861614,-0.02848991611408693,0.0,0.9614776613063353
2019-11-29,1,0.0009255902478562393,0.001114225566387018,-0.0016666638726986806,0.0,0.9610027744743205
2019-12-03,-1,-7.338752058730209e-05,-9.284515024946601e-06,-0.008869939769665294,0.0,0.9608053841816023
2019-12-05,1,0.000739255914731917,0.0009971363358309096,-0.008869939769665294,0.0,0.9603939674394765
2019-12-09,1,0.0006342029490403058,0.0008462032956843197,-0.008869939769665294,0.025,0.955939117538554
2019-12-11,1,0.00026639571440618693,0.00039519808636724813,-0.019476980282179313,0.025,0.9540319328993564
2019-12-13,1,0.0014680379842977706,0.001761134809054446,-0.014214758462349732,0.011732849072482865,0.9605164762671754
2019-12-17,1,0.0009347957303684701,0.0010887520126451856,-0.008448261721689535,0.011732849072482865,0.9671521075941416
2019-12-19,-1,-0.0002574862858583134,-0.0002544244046513703,-0.014214758462349732,0.0,0.9674981310003238
2019-12-23,1,0.0004902956824063331,0.0006766334277820757,-0.019476980282179313,0.0,0.9629529028903584
2019-12-26,1,0.0004631197785156459,0.0004731139568366952,-0.014214758462349732,0.011732849072482865,0.9627259437123351
2019-12-30,-1,-0.00025276137840625425,-0.00023861492636311897,-0.014214758462349732,0.0,0.9675118132479938
2020-01-02,1,0.0006338051006323196,0.0008637343826021493,-0.0034482701035934934,0.011732849072482865,0.9633941774991048
2020-01-06,1,0.0010477140702313988,0.0013704317246644284,-0.01821194613825204,0.011732849072482865,0.9585979177975569
2020-01-08,1,0.0007519900533255384,0.0009954901898041643,-0.01821194613825204,0.0,0.9632469991456747
2020-01-10,1,0.0022994079865687692,0.0027411402878314717,0.0,0.050715794798193485,0.9567337856436331
2020-01-14,1,0.0007354559835481177,0.0009575791238050246,0.0,0.06635173488932282,0.9548665275563325
2020-01-16,-1,-0.00011132816772926212,-9.976903825741324e-05,0.0,0.020355989660890632,0.9578025705793467
2020-01-21,1,0.001174602486651526,0.0013528463418024392,-0.01851852107358688,0.020355989660890632,0.9540272045218555
2020-01-23,1,0.0011939148293984721,0.0013746252605513045,0.0,0.07939997942149624,0.9550546946482207
2020-01-27,-1,-0.0006798932062404253,-0.0006214091748906028,0.0,0.020355989660890632,0.9596270868524354
2020-01-29,-1,-0.0013021475640370257,-0.0011187618184756842,-0.01851852107358688,0.020355989660890632,0.9560802433798702
2020-01-31,-1,-0.002750161945856426,-0.002398405267472295,-0.01851852107358688,0.020355989660890632,0.9564318831548714
2020-02-04,-1,-0.0011580791176968356,-0.0009954665408426861,0.0,0.020355989660890632,0.9615423784491129
2020-02-06,-1,-0.0011509224857324716,-0.0009893635628071941,0.0,0.020355989660890632,0.9660807046897779
2020-02-10,-1,-0.0036763583926095883,-0.003221634456707794,0.0,0.0,0.9730118466076676
2020-02-12,-1,-0.005558101650901044,-0.004887627811801701,0.0,0.0,0.973691831262363
2020-02-14,-1,-0.005404751012031841,-0.00475678308034475,0.0,0.0,0.9697427547579038
2020-02-19,-1,-0.0029129585641972707,-0.002559026752968244,0.0,0.0,0.9745097475934734
2020-02-21,-1,-0.0033812352661129613,-0.0030477740313858293,0.0,0.0,0.977953324785672
2020-02-25,-1,-0.003162665950132281,-0.0028589262858951634,0.0,0.0,0.9781038223415705
2020-02-27,-1,-0.0028515020385028902,-0.0025164917403341903,0.0,0.0,0.9816301089163408
2020-03-02,-1,-0.002966353198639138,-0.0026922122124447864,0.0,0.0,0.9853668077286474
2020-03-04,-1,-0.0037946632967845294,-0.003357054490468661,0.0,0.0,0.9847306926963592
2020-03-06,-1,-0.003669548479942218,-0.003250331515989164,0.0,0.0,0.9800043955493325
2020-03-10,-1,-0.0039042466169092287,-0.0034627345240154884,0.0,0.0,0.9754244732887896
2020-03-12,-1,-0.0022853713481554034,-0.0020342265304469148,0.0,0.0,0.9705834483397158
2020-03-16,-1,-0.0014329310282074205,-0.0013366772030515297,0.0,0.0,0.9751745295906349
2020-03-18,-1,-0.0024443866715465863,-0.0022306896833604196,0.0,0.0,0.9786368080787906
2020-03-20,-1,-0.0025175561297401247,-0.0023037300504705964,0.0,0.0,0.9740607099716229
2020-03-24,-1,-0.0023027513162825627,-0.002117132873157194,0.0,0.0,0.9741868392513928
2020-03-26,-1,-0.0009935086406781652,-0.0009633856909162068,0.0,0.0,0.9702362306329416
2020-03-30,-1,-0.001037353276796063,-0.0010255189118496299,0.0,0.0,0.9655130063445089
2020-04-01,-1,-0.001184118729022649,-0.0011490875352272625,0.0,0.0,0.9609026379006828
2020-04-03,-1,-0.0006552702454146456,-0.0006353507644740402,0.0,0.0,0.9658285264371295
2020-04-07,-1,-0.0005232323398677735,-0.000518247610633547,0.0,0.0,0.9658446614093297
2020-04-09,-1,-0.002642496395071942,-0.0023932800470477834,0.0,0.0,0.9737410371928379
2020-04-14,-1,-0.0028245558350618845,-0.002565762472620109,0.0,0.0,0.9691639686839921
2020-04-16,-1,-0.0026139057303388286,-0.002383338514324254,0.0,0.0,0.9648584015023799
2020-04-20,-1,-0.0024262266835009976,-0.002220393033137858,0.0,0.0,0.9693951606134318
2020-04-22,-1,-0.002269464664031225,-0.002086781563015563,0.0,0.0,0.9694848344859905
2020-04-24,-1,-0.0012906930202558633,-0.0012777488678722222,0.0,0.0,0.9700304436561242
2020-04-28,-1,-0.004064041505412622,-0.0036787293958793978,0.0,0.0,0.9688110260188447
2020-04-30,-1,-0.0026535550842776553,-0.0024374931558960697,0.0,0.0,0.9739717054794735
2020-05-04,-1,-0.0033972489786967403,-0.0030969443158964955,0.0,0.0,0.9735274904390137
2020-05-06,-1,-0.004772483851969559,-0.004318926229752232,0.0,0.0,0.977459539519609
2020-05-08,-1,-0.0031289493585015507,-0.0029455979997779296,0.0,0.0,0.9689200718791349
2020-05-12,-1,-0.002493086422561361,-0.002369613478322859,0.0,0.024999994412064536,0.9643929869150843
2020-05-14,-1,-0.0015500522217134127,-0.0014734840255166835,0.0,0.024999994412064536,0.9663219533214963
2020-05-18,-1,-0.0007088745815404677,-0.0005977457144606712,0.0,0.09999998323619361,0.9581167792162085
2020-05-20,0,-0.00011852235657492868,7.249579113163948e-05,-0.006250012572854571,0.1,0.9493979448809817
2020-05-22,0,-1.7332619415796598e-05,0.00011050908613290529,-0.006250012572854571,0.1,0.9472507507883852
2020-05-27,1,8.136985488653708e-05,0.00020229851665539962,-0.006250012572854571,0.1,0.9462736221487877
2020-05-29,-1,-0.00023865556058017605,-0.00016210526796481774,-0.006250012572854571,0.1,0.9460775637921178
2020-06-02,-1,-0.00015389736482227976,-5.271242283541469e-05,-0.006250012572854571,0.1,0.9434860697371008
2020-06-04,1,5.4354359837020805e-05,0.0001833809198882993,-0.006250012572854571,0.1,0.9379240743234767
2020-06-08,1,0.0003899452233493564,0.0005363777495281138,-0.0065000540477515795,0.07857145708130303,0.9468599928722441
2020-06-10,1,0.0005564904811695252,0.0007171929688408528,-0.0065000540477515795,0.0641337706693454,0.9522211368199288
2020-06-12,1,0.0018970748388920707,0.0020656088171946137,-8.334715829900273e-05,0.06646825836140789,0.9509216093334895
2020-06-16,1,0.0015005206478485356,0.0015332490418754157,0.00025012486368344,0.06646825836140789,0.9549197882853669
2020-06-18,1,0.0021970091230585687,0.002369293511922621,0.0015863615772008894,0.07366149209480903,0.9561188385072142
2020-06-22,1,0.003986664049026355,0.004382516354194721,0.0,0.06646825836140789,0.9615965038044053
2020-06-24,1,0.004851553600262504,0.005426684066802759,-8.334715829900273e-05,0.06646825836140789,0.959779803996865
2020-06-26,1,0.004116820793968986,0.004494671997980209,-0.0003333886331960109,0.06646825836140789,0.95548783682657
2020-06-30,1,0.003960585131264377,0.004212896486449572,-0.0003333886331960109,0.06646825836140789,0.9565549619484518
2020-07-02,1,0.005809663147879889,0.0064744408183853,-0.007602975776552615,0.06870114101447955,0.9531008872451548
2020-07-07,1,0.007169972051374466,0.008074781315411216,-0.03531759856974026,0.06870114101447955,0.9478289412896052
2020-07-09,1,0.007817907839784392,0.00879934860695235,-0.04730280438951619,0.06888137681547907,0.9450285722211298
2020-07-13,1,0.008399159383983354,0.009280058944064223,-0.05392733534168595,0.055933086482934796,0.9434107372806144
2020-07-15,1,0.010531599002816614,0.011743189976805898,-0.05392733534168595,0.056939407028431636,0.9416563397753175
2020-07-17,1,0.012165235839714308,0.013583548804626972,-0.05392733534168595,0.03652822242670114,0.9475046296231551
2020-07-21,1,0.010795445890527354,0.011941924377375842,-0.05392733534168595,0.03652822242670114,0.947052241370656
2020-07-23,1,0.008712205540654796,0.00963360735315365,-0.04552526012126093,0.04438763383303914,0.9532155407383285
2020-07-27,1,0.008197452618079843,0.00903021573331998,-0.04552526012126093,0.04792350509235657,0.9517885315581307
2020-07-29,1,0.008041324836136034,0.008838364537052397,-0.05006875768201414,0.04792350509235657,0.9476699401166468
2020-07-31,1,0.007347106481761213,0.008045205289615534,-0.04552526012126093,0.05338922111878495,0.9513292132680294
2020-08-04,1,0.005780896776372185,0.006188450065290663,-0.04552526012126093,0.05338922111878495,0.9537048784785357
2020-08-06,1,0.006860591179676092,0.007465844208977649,-0.028241061417540472,0.03795556898055197,0.9590912251070148
2020-08-10,1,0.005934258546786051,0.006487995518637549,-0.006235139447591952,0.030276917331497778,0.964951743833546
2020-08-12,1,0.006668122873449634,0.007304096603763975,-0.0002161787024170626,0.00719145370971035,0.9697380594215677
2020-08-14,1,0.006274336606471136,0.006842600480924921,-0.012129787503769366,0.00719145370971035,0.9662147742836728
2020-08-18,1,0.005295701855311155,0.005716231845389443,-0.008148524824943234,0.0257481746794831,0.9664840113838428
2020-08-20,1,0.005662235042974967,0.006112529682909586,-0.007499988717692046,0.00719145370971035,0.9681175965877508
2020-08-24,1,0.005336702112457482,0.005728162388950082,-7.141913808105908e-05,0.0006096667757823173,0.9738087483633567
2020-08-26,1,0.004071433571466847,0.004380629957996648,0.0,0.0006096667757823173,0.9792980765118634
2020-08-28,1,0.0050260276651719355,0.005354694362909755,0.0,0.0,0.984355364671303
2020-09-01,1,0.0037920184434059824,0.0039242260991164245,0.0,0.0,0.9874814902061714
2020-09-03,1,0.003842753004276896,0.003957048435051629,-7.141913808105908e-05,0.0,0.9832916811138451
2020-09-08,1,0.0034857526142732034,0.003528370767291288,-7.141913808105908e-05,0.0,0.9780949907609853
2020-09-10,1,0.0021313722970300016,0.002393933967302083,-7.141913808105908e-05,0.0,0.9789856220480248
2020-09-14,1,3.265360083396971e-05,0.0005575052659777422,-7.141913808105908e-05,7.143954668445551e-05,0.9841837899788826
2020-09-16,1,0.0006682408021114598,0.0010453927937816583,-7.141913808105908e-05,0.0,0.98217046468199
2020-09-18,1,0.0012803154942945148,0.001492616904402489,-0.0002877990266557392,0.0,0.9811314394121069
2020-09-22,0,-0.0002712913940525665,0.00028979612445561697,-0.00333701089471019,0.0,0.9727040716008438
2020-09-24,-1,-0.000801981749239486,-0.00017665177643942632,-0.016849146890109558,0.0,0.9693179926301103
2020-09-28,0,-8.317819060257208e-05,0.00035497970497445626,-0.016849146890109558,7.356325225330204e-05,0.9646291076544857
2020-09-30,-1,-0.001076067980273358,-0.0005201132955584289,-0.027206310532851954,7.356325225330204e-05,0.9612543611576585
2020-10-02,-1,-0.004186553966578968,-0.003200475959309228,-0.027206310532851954,0.01584569848790924,0.9557713156071894
2020-10-06,-1,-0.0036616728579134286,-0.002591153533664069,-0.07647587831714077,0.0,0.9552912594250822
2020-10-08,-1,-0.004192077542031378,-0.003048092979794483,-0.08477940600871348,7.356325225330204e-05,0.9502281707812398
2020-10-12,-1,-0.004595837506991862,-0.003410033742955087,-0.08477940600871348,0.0,0.9460814759460734
2020-10-14,-1,-0.006001988194708403,-0.004692419265650339,-0.07419645200559534,0.008855572997537775,0.9472561846904826
2020-10-16,-1,-0.008065780216178448,-0.006389423583389211,-0.07419645200559534,0.008855572997537775,0.9454994456572952
2020-10-20,-1,-0.008581455368602553,-0.006827989989780439,-0.06999176620951078,0.02293063873642838,0.9486113741998693
2020-10-22,-1,-0.010461191199597562,-0.00847731252510366,-0.06149585425323817,0.02293063873642838,0.94940703313485
2020-10-26,-1,-0.008780002667971713,-0.0069955372823666175,-0.06149585425323817,0.02293063873642838,0.9494559292006511
2020-10-28,-1,-0.009704505245183704,-0.00792771144035814,-0.05637257057501609,0.02293063873642838,0.9516487782031429
2020-10-30,-1,-0.006991601620199082,-0.005756714932895559,-0.053362542848391155,0.004691688579630202,0.9601509287374665
2020-11-03,-1,-0.0112405858222081,-0.00943072724978391,-0.04119700216529002,0.02065400691569332,0.9637989764654159
2020-11-05,-1,-0.010961810184262307,-0.009238839357141633,-0.028836020615551586,0.02065400691569332,0.9656960063628319
2020-11-09,-1,-0.01411098200619305,-0.011978930415763405,0.0,0.02065400691569332,0.9671588839683921
2020-11-11,-1,-0.010167017577226965,-0.008666185916488994,-0.006410250532086064,0.02065400691569332,0.9654374061925357
2020-11-13,-1,-0.010654818383107837,-0.009111354828072508,0.0,0.02065400691569332,0.9668222994492721
2020-11-17,-1,-0.008721285605645139,-0.007404804350024733,0.0,0.0,0.973227116855803
2020-11-19,-1,-0.00846634368065758,-0.00724182865299679,0.0,0.0,0.9720716204694169
2020-11-23,-1,-0.005560189216062283,-0.004774312209350096,-0.006410250532086064,0.0,0.9748758149508814
2020-11-25,-1,-0.006104681550961839,-0.005260032944126743,0.0,0.006578941176802714,0.9737734984945394
2020-11-30,-1,-0.005035289766417417,-0.004377945415552457,0.0,0.006578941176802714,0.974269062765127
