JNU-Tangyin/eata/results/Batch4_SP500/Batch4_SP500-GE.csv
Date,Action,Predicted_Q25,Predicted_Q75,Actual_Q25,Actual_Q75,RL_Reward
2010-12-14,0,0.0,0.0012875227864127049,-0.0030317472812931134,0.0074388166668559515,0.9947574498934708
2010-12-16,1,0.004257586482429931,0.0048114294500487004,-0.002984273506712532,0.0074388166668559515,0.9945424941177917
2010-12-20,1,0.003906354536838826,0.004403475975301662,-0.0038849939438850914,0.0074388166668559515,0.9934785521441944
2010-12-22,1,0.005008500321487018,0.005688071636759816,-0.0038849939438850914,0.0066489511988169405,0.990557852124205
2010-12-27,1,0.005277642276558083,0.005998438381350099,-0.0038849939438850914,0.0066489511988169405,0.9900320791787204
2010-12-29,1,0.005277198232913111,0.005987209751782129,-0.0038849939438850914,0.007819242526148002,0.9894811485409347
2010-12-31,1,0.004886632988373887,0.005506601614833972,-0.0037982255158194905,0.007819242526148002,0.9892165665805781
2011-01-04,1,0.0043502562678554004,0.004767795916713328,-0.004031556651723453,0.007819242526148002,0.9884044587101936
2011-01-06,1,0.003914767541469357,0.004257666591187582,-0.004040320102985089,0.007819242526148002,0.9882700398594317
2011-01-10,1,0.0039189849321212625,0.004293778924972194,-0.0037982255158194905,0.01510779622183488,0.987547561306022
2011-01-12,1,0.0030226572951069382,0.0031544034476666794,-0.0037982255158194905,0.01510779622183488,0.9874087486511114
2011-01-14,0,0.0,0.0,-0.003238420686498658,0.01510779622183488,0.9878538689045122
2011-01-19,0,0.0,0.0,-0.0029761879894718525,0.01510779622183488,0.988997595702271
2011-01-21,0,0.0,0.0,-0.002996221741692186,0.009746977807509114,0.9923879098301098
2011-01-25,0,0.0,0.0,-0.0037743116820609917,0.004791018737516161,0.9907979691642032
2011-01-27,1,0.003303353088525458,0.003546512634990757,-0.0037743116820609917,0.00855482532970762,0.9904647003750205
2011-01-31,1,0.005297712052438827,0.005762689439910581,-0.0038698435613882276,0.00855482532970762,0.9887628243908715
2011-02-02,1,0.0065763838696434596,0.007242880009552168,-0.002337166652160551,0.00855482532970762,0.9892587083534742
2011-02-04,1,0.006185561012877311,0.006816809310441206,-0.002337166652160551,0.00855482532970762,0.9888849518808385
2011-02-08,0,0.0,0.0,-0.002337166652160551,0.005594855763171532,0.990621729727966
2011-02-10,0,0.0,0.0,-0.0073664333270489855,0.00855482532970762,0.9888907872015835
2011-02-14,0,0.0,0.0,-0.019137702765637983,0.006179678456392124,0.9876024947480939
2011-02-16,0,0.0,0.0,-0.021611689278520092,0.010647408955293846,0.9854073617528835
2011-02-18,0,0.0,0.0,-0.021611689278520092,0.011813054492283528,0.9845086434963247
2011-02-23,0,0.0,0.0,-0.016249993600216665,0.011813054492283528,0.9862961000832257
2011-02-25,1,0.0019586145069597372,0.0020832716567786074,-0.016249993600216665,0.01240039857304516,0.9867347398064391
2011-03-01,0,0.0,0.0,-0.012637999657331329,0.01240039857304516,0.9881924815986627
2011-03-03,0,0.0,0.0,-0.012637999657331329,0.012347248455979887,0.9886343884446599
2011-03-07,0,0.0,0.0,-0.005153478039301873,0.012641290371187271,0.9883900572739294
2011-03-09,0,0.0,0.0,-0.010222222400562584,0.012641290371187271,0.9879849811875668
2011-03-11,0,0.0,0.0,-0.009734695222614848,0.011263114160230589,0.989012496575361
2011-03-15,0,0.0,0.0,-0.008002875586588132,0.011263114160230589,0.9903962445296507
2011-03-17,0,0.0,0.0,-0.004589326081917446,0.009711304677880147,0.9924307042133101
2011-03-21,0,0.0,0.0,-0.004589326081917446,0.006512489524710611,0.9934650850639126
2011-03-23,0,0.0,0.0,-0.0031200527621079435,0.009711304677880147,0.9931092920298181
2011-03-25,0,0.0,0.0,-0.004589326081917446,0.007145379018554667,0.9925795056775634
2011-03-29,-1,-0.000491194248416463,-0.00018211232812236696,-0.004589326081917446,0.010623923242481525,0.9911481729656888
2011-03-31,0,0.0,0.0,-0.007426741308581376,0.009645466160173949,0.9912766498837745
2011-04-04,1,0.0007964161981575606,0.0010054893263310395,-0.007426741308581376,0.0067631721889960025,0.9920093695154435
2011-04-06,1,3.125352683350973e-05,0.00037808299550672335,-0.008002875586588132,0.0038601709347693153,0.9913550255107815
2011-04-08,-1,-0.001459735299309903,-0.0009064771083646703,-0.0044440939979966,0.005749117918568386,0.9918846522134728
2011-04-12,0,0.0,0.0,-0.0044440939979966,0.0067631721889960025,0.9910355916129375
2011-04-14,0,0.0,0.0,-0.008047318260910426,0.0067631721889960025,0.9906235275678302
2011-04-18,0,0.0,0.0,-0.009038621283757032,0.0067631721889960025,0.9901259801207
2011-04-20,-1,-0.0009761333756901694,-0.0006886636523319985,-0.009038621283757032,0.008028800676011548,0.99037870812321
2011-04-25,-1,-0.0015195271369612743,-0.001158699389003206,-0.01068925943403335,0.008028800676011548,0.9902356065510254
2011-04-27,0,0.0,0.0,-0.011895383892676007,0.005716449825680487,0.9908677041290859
2011-04-29,0,0.0,0.0,-0.011895383892676007,0.0066651679103323066,0.9907826473130807
2011-05-03,0,0.0,0.0,-0.01304887122995191,0.006881535932605023,0.9894603652478775
2011-05-05,0,0.0,0.0,-0.011895383892676007,0.006881535932605023,0.9904376914322713
2011-05-09,0,0.0,0.0,-0.012845750491135385,0.006881535932605023,0.9899937923171984
2011-05-11,0,0.0,0.0,-0.012845750491135385,0.0044070222424921115,0.990668941289352
2011-05-13,-1,-0.0022129498022601893,-0.001747437354931914,-0.01403105829743634,0.004436357060511886,0.9907664854815501
2011-05-17,-1,-0.002323832355239878,-0.0018818624994865359,-0.01403105829743634,0.006881535932605023,0.9901663938535852
2011-05-19,0,0.0,0.0,-0.01403105829743634,0.0037915591529304737,0.9908105826084763
2011-05-23,0,0.0,0.0,-0.011966139723769937,0.004436357060511886,0.991319307493634
2011-05-25,-1,-0.6609568717332875,-0.6608159718800634,-0.011790461251480828,0.0037915591529304737,0.6028758844570419
2011-05-27,-1,-0.001261431784677665,-0.0010346760019928974,-0.013466505680778807,0.0037915591529304737,0.9899099613924085
2011-06-01,-1,-0.0044869640475380685,-0.0037688510465615586,-0.011790461251480828,0.004492547758083771,0.9902639023388633
2011-06-03,-1,-0.005418818466719828,-0.004583896523175405,-0.010096279620206844,0.009419393019647369,0.9884590106086802
2011-06-07,-1,-0.006063364671547215,-0.005173013565967043,-0.008674588826113317,0.009419393019647369,0.988796635085914
2011-06-09,-1,-0.005570127774352653,-0.004756065816354419,-0.010096279620206844,0.011845269734392882,0.9883134852204726
2011-06-13,-1,-0.006824313972834512,-0.0058027166117332754,-0.011790461251480828,0.011845269734392882,0.9880053173607642
2011-06-15,0,0.0,0.0,-0.010596401605876467,0.009845396093464378,0.989393642365059
2011-06-17,-1,-0.0010356078936728202,-0.000958394455475263,-0.010596401605876467,0.009845396093464378,0.9890183122961167
2011-06-21,-1,-0.002493524324913801,-0.0022260750692272412,-0.010596401605876467,0.011757688684140379,0.988500890774913
2011-06-23,-1,-0.0036984196557586085,-0.003277773922877799,-0.006972007339047555,0.013806382300138115,0.9879767211494892
2011-06-27,-1,-0.0029396815371761902,-0.002679506324086604,-0.006972007339047555,0.011757688684140379,0.9890052709480113
2011-06-29,-1,-0.002235397340547674,-0.0020455630593469035,-0.009604834086322763,0.011757688684140379,0.9888058101333884
2011-07-01,1,0.0003581831559429505,0.0005825772703056008,-0.01163755845215154,0.004280840380248271,0.9896952293962449
2011-07-06,1,0.0001448786836901185,0.0003452182318337836,-0.014079970831515473,0.008130302068715563,0.9873560975400647
2011-07-08,1,0.0004009197907903155,0.0006688921755738146,-0.014803759156346664,0.004280840380248271,0.985849289540544
2011-07-12,-1,-0.0008862380184841479,-0.0007887181962561174,-0.01355702972576341,0.008130302068715563,0.9826075810048696
2011-07-14,-1,-0.0003462430692524295,-0.00016986911002406105,-0.021884256741679688,0.012253742922669841,0.9785628936607726
2011-07-18,-1,-0.002081520002667537,-0.001922345702265005,-0.021884256741679688,0.015294545015726501,0.9768147943779437
2011-07-20,0,-0.00011490949993474145,2.7778029032426424e-05,-0.021884256741679688,0.013343189374124067,0.9773593838664365
2011-07-22,0,-6.381962944494648e-05,1.7753432617323276e-05,-0.028757426905237807,0.006903956337519756,0.9751774784434092
2011-07-26,-1,-0.0004925452532740721,-0.00039885963317425396,-0.028757426905237807,0.013343189374124067,0.9749257311142465
2011-07-28,0,0.0,0.0,-0.023454894389900824,0.013343189374124067,0.9747072689392449
2011-08-01,1,0.0005025305616216888,0.0006998226545350414,-0.023454894389900824,0.018445118349475827,0.9737956878276095
2011-08-03,-1,-0.0006026878140142071,-0.0005922105724995999,-0.016516870423880052,0.016680811813638136,0.9753506573930303
2011-08-05,-1,-0.0032600084992194063,-0.002854862152462996,-0.016516870423880052,0.016680811813638136,0.9763559649711886
2011-08-09,-1,-0.004415863605723525,-0.003909615304692158,-0.016516870423880052,0.016680811813638136,0.977689414507856
2011-08-11,-1,-0.003814349206744731,-0.0034036275414869132,-0.016516870423880052,0.01202873282005502,0.9804138008519652
2011-08-15,-1,-0.002774090846752922,-0.002476481572087012,-0.016516870423880052,0.01163394562819758,0.9813273756000378
2011-08-17,0,0.0,0.0,-0.016516870423880052,0.019939358081479095,0.9800501018196159
2011-08-19,0,0.0,0.0,-0.0102119384221566,0.019939358081479095,0.9822835920339285
2011-08-23,0,0.0,0.0,-0.014262223478866569,0.0162519767326825,0.9813188670740202
2011-08-25,0,0.0,0.0,-0.015494984884013362,0.0162519767326825,0.9810949663927948
2011-08-29,0,-0.001784866050293224,0.0,-0.015494984884013362,0.0162519767326825,0.9819404378479584
2011-08-31,-1,-0.0019381752959723667,-0.001842804687628759,-0.020279186808353528,0.019691688563125302,0.9800118752371054
2011-09-02,-1,-0.0029501807363854792,-0.002727975062829572,-0.024597963386300457,0.019691688563125302,0.9781879794435407
2011-09-07,-1,-0.002678020192731246,-0.0024975207546120075,-0.020279186808353528,0.019691688563125302,0.9792976913477683
2011-09-09,-1,-0.00398505805588977,-0.00365976123675996,-0.011806672396936654,0.019691688563125302,0.9800830663446096
2011-09-13,-1,-0.002511790344074353,-0.0023947241135696094,-0.011806672396936654,0.019691688563125302,0.9795581240171546
2011-09-15,0,0.0,0.0,-0.013149201290966148,0.01633849677388856,0.9807914931937836
2011-09-19,-1,-0.00041780380398458763,-0.0002456981979570917,-0.020279186808353528,0.01862709567170035,0.9798374865199814
2011-09-21,-1,-0.0017442309821885708,-0.001736133862895598,-0.013445390016337417,0.02348804104902317,0.9798780730802853
2011-09-23,-1,-0.0016521285465810971,-0.0016249091444166014,-0.013338468639542904,0.02348804104902317,0.980267512883869
2011-09-27,-1,-0.000988942152314772,-0.0009274421730868036,-0.015296881098377572,0.01862709567170035,0.9811480152619184
2011-09-29,-1,-0.000489610105296245,-0.0003390433378149326,-0.012023313550198915,0.01862709567170035,0.9800396609652806
2011-10-03,-1,-0.0022925242146289654,-0.0022154372612358847,-0.011074320671882756,0.01862709567170035,0.9813946910074262
2011-10-05,-1,-0.0010819263748799359,-0.001021053752552199,-0.012023313550198915,0.01633849677388856,0.9809598767618485
2011-10-07,-1,-0.0007201020280279875,-0.0006302235095434366,-0.014685470539518734,0.0179387426680602,0.9798722934963313
2011-10-11,1,0.0007313105508651029,0.0010478115231853154,-0.014685470539518734,0.014795069820814726,0.9817744075720298
2011-10-13,1,0.0005802230752668308,0.0008319094894181307,-0.01740811468983303,0.013526145198466403,0.9805674303826084
2011-10-17,1,0.0005886142443632991,0.0008307195570370502,-0.014685470539518734,0.013526145198466403,0.9814529290342573
2011-10-19,1,0.0012782008190492789,0.0016318765642235223,-0.01577327108154736,0.009750039013253256,0.9824401211304828
2011-10-21,1,0.0008756400623316431,0.0011576580269575753,-0.01577327108154736,0.009750039013253256,0.9826470702713747
2011-10-25,1,0.000624818468411184,0.0008528263278488585,-0.017456457530673753,0.009323389182316026,0.9816056364265927
2011-10-27,1,0.002187806788620396,0.002599131960428943,-0.017867601748322637,0.005671204336494437,0.9833507806201125
2011-10-31,1,0.0013497929869797634,0.0016591765440462382,-0.01693375220352382,0.007129095207918654,0.9850906021630023
2011-11-02,1,0.0006351753050978384,0.0008383143208148141,-0.016502299664636916,0.007129095207918654,0.9846683314170175
2011-11-04,1,0.000928125886200111,0.0011733409823871566,-0.015675136259434938,0.00890952495884668,0.985530125768241
2011-11-08,1,0.0011996360325262387,0.0014913114841580998,-0.015675136259434938,0.011797553859886168,0.9846906729056231
2011-11-10,1,0.0009034840440927604,0.001185719626351145,-0.015675136259434938,0.012214284911625609,0.984376860036762
2011-11-14,1,0.0007467169927735899,0.0009766355362112707,-0.016639347737186543,0.00890952495884668,0.9843729903877837
2011-11-16,1,0.0005215582828308977,0.0007166455852624692,-0.016639347737186543,0.01137807904662279,0.9843998883335314
2011-11-18,1,0.0003592068490614941,0.0005592007638575796,-0.010714844563441702,0.011954238122733402,0.9842974158428648
2011-11-22,0,-9.516187963626364e-05,9.976510556531661e-05,-0.002135061690120074,0.017118768454819386,0.9839441001495353
2011-11-25,-1,-0.0005012433919962898,-0.0003633462120987532,0.0008970881029140326,0.021194618551592003,0.9831246779550602
2011-11-29,0,-4.066483508365125e-06,0.0002024041298468723,-0.004027208279493018,0.021194618551592003,0.9831091974743331
2011-12-01,1,0.0013089841748476954,0.0016457166744261395,-0.008827425521481892,0.01627470855821676,0.9856854030976032
2011-12-05,1,0.002120402428823771,0.00257797252808951,-0.008827425521481892,0.021194618551592003,0.9854386526830838
2011-12-07,1,0.002614199062764491,0.003119762231385206,-0.008827425521481892,0.015183023617090466,0.9863772729934193
2011-12-09,1,0.0031844798383773394,0.003807537638353157,-0.007771921331058619,0.01319248845426503,0.9884834389517444
2011-12-13,1,0.0028283418472659257,0.003427029963293175,-0.002259849747366212,0.01319248845426503,0.9896239270819803
2011-12-15,1,0.0030784114115972117,0.0036733641539327877,-0.0058367196967318,0.01319248845426503,0.9896629387468324
2011-12-19,1,0.002919820960954257,0.0034605677971707117,-0.004892744615688049,0.013830723891903124,0.9899283695193173
2011-12-21,1,0.004034134034949189,0.004712335479305468,-0.0058367196967318,0.010984902114414621,0.9912327241933955
2011-12-23,1,0.004379754401472346,0.005061594179457783,-0.0058367196967318,0.010984902114414621,0.9912413465958856
2011-12-28,1,0.0030927516025450524,0.003520106217174965,-0.004885712233875296,0.010984902114414621,0.9920774773498484
2011-12-30,1,0.0028609519985942342,0.003203894782075036,-0.005286831244224098,0.009133575697978406,0.9920246285637512
2012-01-04,1,0.00321087960973238,0.00357323493200793,-0.005286831244224098,0.005751829681998454,0.993152319079576
2012-01-06,1,0.0038331082679480544,0.004340032873941517,-0.005286831244224098,0.007262943211989568,0.9926017030801388
2012-01-10,1,0.0037188532381624726,0.004190462703493282,-0.004885712233875296,0.006826837672635304,0.9933772276853885
2012-01-12,1,0.002895331085199557,0.003140099728881915,-0.0054102721177060175,0.004111136981434116,0.9926942700399564
2012-01-17,1,0.002829254286275532,0.003105522508652135,-0.005992224999190935,0.006826837672635304,0.9926876501672797
2012-01-19,1,0.003048749884518098,0.003341726530613415,-0.006820572338339112,0.004111136981434116,0.9922471009406453
2012-01-23,1,0.00315288925501619,0.0035092768999544026,-0.005992224999190935,0.0076339896779367665,0.9923990919904006
2012-01-25,1,0.0034824491626053,0.003902471912772351,-0.005992224999190935,0.006763090578966847,0.992707604599881
2012-01-27,1,0.002672490811798777,0.002931264435926459,-0.006820572338339112,0.006763090578966847,0.9925763720245212
2012-01-31,1,0.002275002897799427,0.0024749741630601795,-0.005723245399613675,0.006763090578966847,0.9931851178607065
2012-02-02,1,0.0015257492217542823,0.0015523396953580908,-0.006010051292520979,0.006763090578966847,0.9928175174419605
2012-02-06,1,0.002001547656183644,0.0021178037248046583,-0.007074027715718291,0.005225269641784624,0.9918080194749244
2012-02-08,1,0.0025904874825713794,0.0028454501319304035,-0.007074027715718291,0.0075729335485787185,0.9906225207025074
2012-02-10,1,0.0021310529951850225,0.0023275392898662317,-0.006448598664139616,0.0075729335485787185,0.9916278702048424
2012-02-14,1,0.0013068156128362303,0.001324848901709554,-0.005887254150149931,0.010988559685752818,0.9909020171199563
2012-02-16,0,0.0,0.0,-0.004529581692335012,0.011119969994676097,0.9909466356081217
2012-02-21,0,0.0,0.0,-0.005887254150149931,0.006097494568527113,0.9916110677617587
2012-02-23,1,0.0008729165373584894,0.0008978824456726082,-0.006476161476821155,0.006097494568527113,0.9913517885555546
2012-02-27,1,0.0001992859831333326,0.0002817171867390028,-0.005887254150149931,0.0110695544700584,0.9911822293324439
2012-02-29,1,0.0003951487505255443,0.0005103504626294465,-0.0042263154992413475,0.0110695544700584,0.9916135016686408
2012-03-02,1,0.0003294994130441675,0.0004369320565283571,-0.003130542970527736,0.0110695544700584,0.9917259035717554
2012-03-06,1,8.40710003459157e-05,0.0001790602176266156,-0.002617690234908217,0.0110695544700584,0.9928590455444961
2012-03-08,1,0.0008578603603319684,0.0008625082744330427,-0.003130542970527736,0.00504892739112133,0.9930975428831602
2012-03-12,0,0.0,0.0,-0.007935837717462417,0.0029918661409086503,0.9915953114129424
2012-03-14,0,0.0,0.0,-0.007935837717462417,0.0029918661409086503,0.9918211466202087
2012-03-16,0,0.0,0.0,-0.01097672913848283,0.0006360885150809221,0.9917158777977368
2012-03-20,0,0.0,0.0,-0.011368891797653956,0.0022982203231957992,0.9903277637837045
2012-03-22,0,0.0,0.0,-0.011368891797653956,0.007384856710879522,0.9901989656933323
2012-03-26,0,0.0,0.0,-0.012473260074650046,0.007384856710879522,0.989099646209523
2012-03-28,0,0.0,0.0,-0.012473260074650046,0.009428836837583571,0.9885447362710996
2012-03-30,1,0.0009379727324632478,0.0009432742415539664,-0.012473260074650046,0.009428836837583571,0.9880037297814338
2012-04-03,1,0.0008552169321239712,0.0008584982647720673,-0.012473260074650046,0.011300521449711623,0.9877401241167821
2012-04-05,-1,-0.0003096437259660106,-0.00012564078064555557,-0.012749235001792158,0.011300521449711623,0.9879219891815602
2012-04-10,-1,-0.0013218884659937685,-0.0010137960181020268,-0.008597541327425379,0.011300521449711623,0.9896420754053938
2012-04-12,-1,-0.0006434058266641745,-0.00040046056845011917,-0.010685736440030798,0.008934991274066164,0.9897945949057823
2012-04-16,-1,-0.0017352866360633187,-0.0013442538932864115,-0.010685736440030798,0.008934991274066164,0.9899269477655688
2012-04-18,-1,-0.00211285446319048,-0.0016402277821427325,-0.010271527360890003,0.008934991274066164,0.9895932641770987
2012-04-20,-1,-0.0021245776057036096,-0.0016353983015168633,-0.010271527360890003,0.008301247213829755,0.9899580852240796
2012-04-24,-1,-0.0015161225374311557,-0.0011179830097620155,-0.008597541327425379,0.008301247213829755,0.9910574794195927
2012-04-26,-1,-0.0008682178129844766,-0.0006178642925754927,-0.008597541327425379,0.00481939019468774,0.9913001634781312
2012-04-30,-1,-0.0008261682161971172,-0.0006039481174590345,-0.006760032359585424,0.004733810680447861,0.9916691456479847
2012-05-02,-1,-0.00031149760031498684,-0.00017215865332703033,-0.008757906476287046,0.0036640690207800828,0.9912903865288216
2012-05-04,-1,-0.0007387123508509158,-0.000563820675279774,-0.012069656560378282,0.0036640690207800828,0.989975589642481
2012-05-08,-1,-0.0013719357528918026,-0.0010689121249988554,-0.012069656560378282,0.005672140819919033,0.9881268870977861
2012-05-10,-1,-0.001564149534862165,-0.0012551017927471633,-0.007424937803314743,0.006720027306818287,0.9884719940846005
2012-05-14,-1,-0.0023016269802123897,-0.0018977685028985468,-0.005094546434623817,0.008102162918410746,0.9882519593792202
2012-05-16,-1,-0.0005999326792273241,-0.000473486220629949,-0.004927335062822758,0.008102162918410746,0.9895411364766975
2012-05-18,-1,-0.0006833092783944117,-0.000563544451861875,-0.004927335062822758,0.009359827558629095,0.9886968202225486
2012-05-22,-1,-0.0008197297967957564,-0.0006545202338975234,-0.004927335062822758,0.011059330021705036,0.9884136170171708
2012-05-24,-1,-0.0006753070381962887,-0.0005242801411589225,-0.007360153565037311,0.013043397358309117,0.9866057271100248
2012-05-29,-1,-0.0001207790392090251,-8.229499033849176e-05,-0.013034792289975183,0.014233345485706225,0.9857441664939597
2012-05-31,-1,-0.0003885350135481003,-0.0003098849960154537,-0.007360153565037311,0.014338732099220347,0.9856070913579182
2012-06-04,0,0.0,0.0,-0.004927335062822758,0.0149249145327884,0.9857387652254228
2012-06-06,0,0.0,0.0,-0.005082765706423206,0.014338732099220347,0.9873067969048285
2012-06-08,-1,-0.00016072104251152683,-0.00011006318500015542,-0.007360153565037311,0.014338732099220347,0.9872535436354656
2012-06-12,1,0.0004913740543729646,0.0005516135528536928,-0.013034792289975183,0.014233345485706225,0.9873240500346881
2012-06-14,0,0.0,0.0,-0.013034792289975183,0.014233345485706225,0.9869768953245615
2012-06-18,0,0.0,0.0,-0.012806076452626032,0.013077905608629693,0.9875109127332606
2012-06-20,0,0.0,0.0,-0.012806076452626032,0.008561246694411214,0.9879771149671926
2012-06-22,1,0.00025912780214879455,0.00027839843947429356,-0.009877283620263086,0.007745019035538986,0.9893859751744076
2012-06-26,1,0.00031745009220853545,0.0003215745521554862,-0.006756029853789316,0.006222921680264891,0.9904370251325145
2012-06-28,1,0.0010895737982120571,0.001211719036377636,-0.006756029853789316,0.007745019035538986,0.9893359645061617
2012-07-02,1,0.0011831561187929988,0.0013316028168224568,-0.005795405446189872,0.006222921680264891,0.9912151860076778
2012-07-05,1,0.0008673557608604806,0.0009412781162127782,-0.006756029853789316,0.006222921680264891,0.9910159986205191
2012-07-09,1,0.0006670434825011498,0.0007172494348184097,-0.005795405446189872,0.007745019035538986,0.9908695366609536
2012-07-11,1,0.00024216719062107643,0.0002485649242000775,-0.005340252066733667,0.008132763984028315,0.9913965415189201
2012-07-13,1,0.0005601684746297194,0.0006323978713481612,-0.0031049443484100696,0.00676528716315541,0.9927366809710556
2012-07-17,1,0.0004101236933282634,0.00045660938419216925,-0.0031049443484100696,0.006352169996428,0.9930618670608097
2012-07-19,1,0.0002971818621156262,0.00030806839023448605,-0.0031049443484100696,0.005008672321494063,0.9932010183904851
2012-07-23,1,0.0006250008347844539,0.0006694317921972514,-0.003802097893970374,0.0028583248616307526,0.9935809920302099
2012-07-25,1,0.000325266627858842,0.0003256982015455314,-0.0034735115563340117,0.0028583248616307526,0.9935576297077805
2012-07-27,1,0.0010179949434934092,0.0010630612096509647,-0.004168780191419307,0.0020194580020219334,0.9948725632611178
2012-07-31,1,0.0011739598709458805,0.001291656042496671,-0.0034735115563340117,0.0023858113009198583,0.9951435369131784
2012-08-02,1,0.0008791450528055301,0.0009630245477934439,-0.0034735115563340117,0.0023858113009198583,0.9953640029218565
2012-08-06,1,0.0016364456033363846,0.0018638393897482176,-0.004168780191419307,0.0023858113009198583,0.9955790945159226
2012-08-08,1,0.002006593049244106,0.0023091778954954447,-0.0034735115563340117,0.002650751094607493,0.994373625761999
2012-08-10,1,0.002072913566416657,0.0023718863813547496,-0.004140434954888181,0.0036171038806661862,0.9934758617419244
2012-08-14,1,0.0015722058994782574,0.0017901750736538245,-0.0034735115563340117,0.005547248010872557,0.9933751346681827
2012-08-16,1,0.001922005811441515,0.0022017907670815575,-0.0034735115563340117,0.006160591978666988,0.9932443410215016
2012-08-20,1,0.0010958534358344774,0.0011998814382836202,-0.0034735115563340117,0.0070575018211415964,0.9929885466825137
2012-08-22,1,0.0013842491165149552,0.0015868706885537468,-0.0021172718696694085,0.007949780971571518,0.9931486184534446
2012-08-24,1,0.001287294326725703,0.0014691837869802177,-0.0021172718696694085,0.007255315007684619,0.9932397015088634
2012-08-28,0,0.0,0.0,-0.0033089778173475506,0.007255315007684619,0.9924689025931606
2012-08-30,0,0.0,0.0,-0.002355509170554511,0.00856160172981682,0.9914720691647207
2012-09-04,0,0.0,0.0,-0.0012189866036882713,0.00856160172981682,0.991854050946004
2012-09-06,0,0.0,0.0,-0.0012189866036882713,0.006589893819838976,0.9934195285390979
2012-09-10,0,0.0,0.0,-0.0012189866036882713,0.006305942139505958,0.9935269259980878
2012-09-12,0,0.0,0.0,-0.003921627721230148,0.005433811749862733,0.9934049210331283
2012-09-14,0,0.0,0.0,-0.003921627721230148,0.004660087385770361,0.9936579512366526
2012-09-18,0,0.0,0.0,-0.0035634671358929226,0.004660087385770361,0.993865983253885
2012-09-20,0,0.0,0.0,-0.005160099890131462,0.004660087385770361,0.9934834879173902
2012-09-24,0,0.0,0.0,-0.00846234737353478,0.004618861613081505,0.9916524496715317
2012-09-26,0,0.0,0.0,-0.00846234737353478,0.004618861613081505,0.9912275328671498
2012-09-28,0,0.0,0.0,-0.00846234737353478,0.0037757625639937087,0.992325805179392
2012-10-02,1,0.0016604191616819697,0.0019108259513664692,-0.00846234737353478,0.0039913044800108915,0.991393045975417
2012-10-04,1,0.001163964728687297,0.0013145021914233116,-0.00846234737353478,0.0038480835958554314,0.9914377300776602
2012-10-08,1,0.0017351845652841158,0.0019923322863305555,-0.009571962403078515,0.0038480835958554314,0.9905681438560886
2012-10-10,0,0.0,0.0,-0.008131240289627075,0.004835883173922292,0.9914275070568992
2012-10-12,0,0.0,0.0,-0.010379078921425075,0.004835883173922292,0.9909170623082936
2012-10-16,0,0.0,0.0,-0.01226360559317358,0.0030472024433987363,0.9895550661267057
2012-10-18,0,0.0,0.0,-0.01226360559317358,0.004538050509748895,0.9888942458534039
2012-10-22,0,0.0,0.0,-0.007804832823907945,0.004538050509748895,0.9910665082356221
2012-10-24,-1,-0.0020133943062517028,-0.0015778407494125358,-0.0056924923032424316,0.004835883173922292,0.9911630869276028
2012-10-26,0,0.0,0.0,-0.006184055515306385,0.006051108946825274,0.9904300746995754
2012-11-01,-1,-0.0008573942007059394,-0.0006727101483993147,-0.006184055515306385,0.004835883173922292,0.9911635317131003
2012-11-05,-1,-0.0006935757270938681,-0.0005313141631007291,-0.009279522460099807,0.004681329859159975,0.9906671645097265
2012-11-07,-1,-0.0007802717562442809,-0.0006128539690130881,-0.006184055515306385,0.005597895971139723,0.9908446376968956
2012-11-09,1,1.9727243142850535e-05,3.4045068464578886e-05,-0.0037559039803985858,0.005013504608144166,0.991384088228488
2012-11-13,0,0.0,0.0,-0.0008387903683142934,0.008083908323211325,0.9912330204457693
2012-11-15,-1,-0.0029765752838113407,-0.0025211479567277244,-0.0008387903683142934,0.008083908323211325,0.9913534453136271
2012-11-19,-1,-0.0020478138195413843,-0.001698873333087559,-0.0022675432634023684,0.008083908323211325,0.9922610812525993
2012-11-21,-1,-0.0017436142485689455,-0.001456775652404173,-0.0042829235519470715,0.008083908323211325,0.990954896016098
2012-11-26,0,0.0,0.0,-0.007528666841492449,0.005856125034922201,0.9917769323869846
2012-11-28,0,0.0,0.0,-0.004725347234317214,0.0045611349485288714,0.9925499609749054
2012-11-30,0,0.0,0.0,-0.007528666841492449,0.005856125034922201,0.9906562700800448
2012-12-04,0,0.0,0.0,-0.007528666841492449,0.008083908323211325,0.9901006857335942
2012-12-06,0,0.0,0.0,-0.007528666841492449,0.004956987309135763,0.9908998146357644
2012-12-10,0,-0.0009157225803327401,0.0,-0.008778277989081608,0.004956987309135763,0.991063361354236
2012-12-12,0,0.0,0.0,-0.008778277989081608,0.0029790743573208022,0.990898223139164
2012-12-14,-1,-0.0009558529484481,-0.0007235216590264524,-0.008778277989081608,0.004025746913743611,0.9912976244138426
2012-12-18,0,0.0,0.0,-0.004907797145284238,0.004025746913743611,0.9916878414139458
2012-12-20,0,0.0,0.0,-0.003793130537231692,0.0056851824123689935,0.991547807725347
2012-12-24,-1,-0.0016576239318174786,-0.00140364168161327,-0.0034197718081155123,0.005890988406055635,0.9918433402626109
2012-12-27,-1,-0.001807447014288132,-0.0015295161684707433,-0.003210762720245123,0.009691279660584404,0.9908121396469761
2012-12-31,-1,-0.0006126493514652569,-0.0004985155086806605,-0.003210762720245123,0.0087474250788342,0.9923138881364151
2013-01-03,-1,-0.0009947435577001805,-0.0008397809465462793,-0.002212206813662265,0.0087474250788342,0.992681375516594
2013-01-07,-1,-0.0007196633335638195,-0.0006064932064621903,-0.002212206813662265,0.009643272079140976,0.9919503406633667
2013-01-09,-1,-0.0013198445512216813,-0.001120330453378505,-0.002212206813662265,0.009643272079140976,0.9921739161677489
2013-01-11,-1,-0.0007873134195988633,-0.0006649867693281957,-0.0024617583278462207,0.0087474250788342,0.9927404300529029
2013-01-15,-1,-0.0008144204084954494,-0.0006739860194625363,-0.0024617583278462207,0.009643272079140976,0.9908575277358306
2013-01-17,-1,-0.0007843775167245513,-0.0006382047139985845,-0.0024617583278462207,0.009643272079140976,0.9911800448323357
2013-01-22,0,0.0,0.0,-0.003494437952656998,0.009643272079140976,0.9914209837753679
2013-01-24,0,0.0,0.0,-0.004608906204328774,0.009643272079140976,0.9912341495250591
2013-01-28,1,0.0006321140402996145,0.0006325002302129691,-0.005446395426487823,0.006920297152252725,0.9905593799939559
2013-01-30,-1,-0.0001193032343545062,-2.0103266838187607e-05,-0.005446395426487823,0.010362373513144629,0.9901255667809398
2013-02-01,0,0.0,0.0,-0.005446395426487823,0.006920297152252725,0.9907162906105821
2013-02-05,0,0.0,0.0,-0.004608906204328774,0.006973419813658051,0.9910536093460119
2013-02-07,0,0.0,0.0,-0.002948165072583056,0.006973419813658051,0.9911516343877423
2013-02-11,0,0.0,0.0,-0.006334759854026758,0.006973419813658051,0.9905581670187862
2013-02-13,0,0.0,0.0,-0.006334759854026758,0.006320318883933255,0.9920189524748563
2013-02-15,0,0.0,0.0,-0.006840277033942567,0.006320318883933255,0.9913955370957079
2013-02-20,0,0.0,0.0,-0.006410220936102721,0.0056925981484766824,0.9926282387291482
2013-02-22,0,0.0,0.0,-0.006625430560198,0.004351417605834224,0.9926930333340728
2013-02-26,0,0.0,0.0,-0.006337501618588794,0.0035375203123953055,0.9939062392585941
2013-02-28,1,0.0026809162555177725,0.0031955184276289696,-0.005749645533705141,0.003438666904183379,0.9949255420890533
2013-03-04,1,0.0028775490413887237,0.0034326183985534577,-0.005749645533705141,0.003526411182573969,0.9944945377114648
2013-03-06,1,0.003172230044841612,0.0037625751246962644,-0.0065444859489979645,0.0034457914128947407,0.9939507162597434
2013-03-08,1,0.002854652839824976,0.0033482643611553948,-0.006685980522499594,0.0034457914128947407,0.9935470222787517
2013-03-12,1,0.002355079881645199,0.002784774404359825,-0.005796810391539018,0.004109558296796539,0.9934114731178161
2013-03-14,1,0.0028352522650269673,0.003338470856216794,-0.005796810391539018,0.0034457914128947407,0.9930801403282841
2013-03-18,1,0.0023282183966003445,0.002739002114848403,-0.005523779220280622,0.004109558296796539,0.9924138565263011
2013-03-20,1,0.0012878278078329898,0.0014351298137967052,-0.005796810391539018,0.0034457914128947407,0.9917610697454576
2013-03-22,1,0.0006015814556525924,0.0006409935489508751,-0.008516204408227507,0.0015189538499187794,0.9895501865559662
2013-03-26,1,0.00011942564110329902,0.0001630195514509406,-0.008516204408227507,0.007340823891209339,0.9888774648482819
2013-03-28,1,0.00031172257758487295,0.00032423487829948616,-0.008516204408227507,0.009030897148496253,0.9883278641029601
2013-04-02,1,0.0005910693828261824,0.00061801642161994,-0.008516204408227507,0.007340823891209339,0.9888077619226611
2013-04-04,-1,-0.0003002184716961644,-0.00019296953712517694,-0.0063354122075621805,0.007827748281021707,0.9890668747634729
2013-04-08,-1,-0.00044035855830736417,-0.0002999957659830029,-0.00570331315895501,0.00855639727877765,0.9892006677907587
2013-04-10,-1,-0.00033234896946592355,-0.00018306179243870563,-0.00570331315895501,0.00855639727877765,0.9894904673685404
2013-04-12,-1,-0.0010885938249400972,-0.0007705034471534988,-0.007209524213837535,0.00855639727877765,0.9889314362609166
2013-04-16,-1,-0.0013520114015421708,-0.0010358964326259686,-0.004535930157674342,0.007188026171365946,0.9903824240967736
2013-04-18,-1,-0.0021122756961096294,-0.0017018564333438927,-0.0008873626321142471,0.008255119805373495,0.9901711710071941
2013-04-22,-1,-0.0036212159578070478,-0.0030495304192902813,0.0007842824583446055,0.008622646798344945,0.9909127851304428
2013-04-24,-1,-0.0023959367334516106,-0.0020119131425505718,0.0007842824583446055,0.008237019319386177,0.9925622653257515
2013-04-26,-1,-0.0020208152000188656,-0.0016786231063690101,-0.00021356392192365054,0.0077974595588354645,0.9931122053188862
2013-04-30,-1,-0.002174096892903623,-0.0017839749107573754,-0.00021356392192365054,0.0077974595588354645,0.9930121985384299
2013-05-02,-1,-0.0019217037705209531,-0.0015956404596294128,-0.0018148885434276555,0.00729290794950672,0.9932846411628982
2013-05-06,-1,-0.0017804572855970935,-0.0014734430874079189,-0.0018148885434276555,0.00729290794950672,0.9931979475414637
2013-05-08,-1,-0.0009413762732587593,-0.0007569179913434479,-0.0030111710294072024,0.005701337492180021,0.9936504073052761
2013-05-10,-1,-0.0009625686966606369,-0.0007598740467796692,-0.0024757707938541144,0.00729290794950672,0.9932300920816377
2013-05-14,-1,-0.0008972406686530502,-0.0006852589953879286,-0.003918165375253382,0.005557900062014024,0.9932096366370906
2013-05-16,-1,-0.0005622942704238067,-0.0002852919873623704,-0.005810053876948758,0.005431543844266942,0.9932062929635029
2013-05-20,-1,-0.0007562335096041626,-0.0004394471466786543,-0.005810053876948758,0.007857950666144933,0.9921584021680498
2013-05-22,-1,-0.0010636339921797741,-0.0007175458975982765,-0.00838931124885373,0.00414610895843626,0.9907196691698146
2013-05-24,0,-5.605042493384894e-06,0.00011387586275494712,-0.009273958553718337,0.005463242921923376,0.9900628754720902
2013-05-29,1,7.47819107901648e-05,0.00016069256244825863,-0.009273958553718337,0.007707162508104541,0.9895930071074518
2013-05-31,-1,-0.00035646970785121665,-0.0002199088294901832,-0.007170139481512707,0.007707162508104541,0.9898336585523696
2013-06-04,-1,-0.00026380319683141023,-0.00013110163045516816,-0.00990041014937653,0.00676615400653125,0.9893341353322775
2013-06-06,-1,-0.0006170937524327726,-0.0004499707647141347,-0.007170139481512707,0.007707162508104541,0.9894016758560905
2013-06-10,-1,-0.00019826842948144372,-8.148975225604632e-05,-0.007170139481512707,0.007707162508104541,0.9897700046612071
2013-06-12,-1,-0.0005493794120456953,-0.00039965458158133983,-0.005870135359668605,0.008544791481608433,0.989250596135937
2013-06-14,-1,-0.00015477976716116477,-7.660491245841216e-05,-0.006060656736722028,0.008544791481608433,0.9894055451888373
2013-06-18,1,0.0005856260690960037,0.0005995129031410858,-0.007755029834650049,0.006160625169868919,0.9904699078797247
2013-06-20,-1,-0.00048019665799965206,-0.000392156180123007,-0.00549718899348077,0.0068137548338172045,0.9900817206283182
2013-06-24,-1,-0.0009791186124830284,-0.0008146544775538639,-0.00549718899348077,0.0068137548338172045,0.9905431070900504
2013-06-26,-1,-0.0003133886521514777,-0.00024187021163420808,-0.00549718899348077,0.005864707129827187,0.9910752215670009
2013-06-28,-1,-0.0005684896853415352,-0.0004629625087855732,-0.005611993468123886,0.005864707129827187,0.9911209159957065
2013-07-02,-1,-0.000989769286266171,-0.0008310054428797336,-0.004737971220436327,0.004936965567449969,0.9921534492981844
2013-07-05,-1,-0.0006050041186380728,-0.0004908444971498736,-0.004737971220436327,0.004936965567449969,0.9922318629455967
2013-07-09,1,0.0009375942946262088,0.0010387863151144038,-0.006148098250354941,0.004041152330107102,0.9920652278271749
2013-07-11,1,0.0012064112990407866,0.0013345047104920608,-0.006148098250354941,0.0033928706603406447,0.9929388246590477
2013-07-15,1,0.0008873902742187547,0.00096615883758305,-0.004878584076629838,0.0033928706603406447,0.9935081924931763
2013-07-17,1,0.000791311482857282,0.0008563593977553255,-0.004713101324872352,0.0029447867342493592,0.9936806419579669
2013-07-19,1,0.0019647626538383174,0.00215731839889879,-0.004713101324872352,0.0009270496574438777,0.9950803975681204
2013-07-23,1,0.0019665443352475925,0.002162737297554295,-0.004713101324872352,-0.00010005731076075087,0.9949642976438074
2013-07-25,1,0.001869678170763736,0.002052272774351126,-0.004821019168342243,-0.00010005731076075087,0.9947676360344447
2013-07-29,1,0.0018570442379699278,0.0020728896998575435,-0.004821019168342243,0.00020617612209749132,0.9948213100838984
2013-07-31,1,0.0017009183786185207,0.0019014800921121448,-0.005391609254001978,0.0008342216831713296,0.9943149886165852
2013-08-02,1,0.0017920996151283893,0.001979028790668945,-0.005391609254001978,0.00020617612209749132,0.9943891730381483
2013-08-06,1,0.0015151952925900648,0.0016785149379900147,-0.004290914903790336,0.0008342216831713296,0.9951937240193058
2013-08-08,1,0.0011976170650368414,0.0012923995633315887,-0.004290914903790336,0.00020617612209749132,0.9953975424532775
2013-08-12,1,0.0012302827502942467,0.0013371100453728497,-0.004290914903790336,0.0009716213952914784,0.9942538246943743
2013-08-14,1,0.0008331413239662522,0.0008812251989515334,-0.004290914903790336,0.0021661754721162374,0.9939935573700611
2013-08-16,1,0.0004933125826964858,0.0005062365933334855,-0.004290914903790336,0.005377739716768355,0.993487749803867
2013-08-20,1,0.00014984276118212056,0.00020354516623512307,-0.003562748570283135,0.009395181278527212,0.9926223584905147
2013-08-22,1,0.00031641352505381676,0.0003419875427491194,-0.004696695639283338,0.009395181278527212,0.9914607234926405
2013-08-26,-1,-0.00015697924889366367,-5.982754168232051e-05,-0.003562748570283135,0.010259555159348108,0.9912246716108845
2013-08-28,-1,-0.0005620925878838717,-0.00042128138129901116,-0.0035180855190041624,0.010259555159348108,0.991876670922166
2013-08-30,-1,-0.0004007381486214924,-0.0003063696833784831,-0.0044386967754772,0.010259555159348108,0.9914484751722589
2013-09-04,-1,-0.00046356472484681606,-0.0003533949512941836,-0.0044386967754772,0.011364079120558063,0.9909120011560265
2013-09-06,-1,-0.0007160697129784694,-0.0005625107062553791,-0.0070514874940266255,0.011364079120558063,0.9904094009774185
2013-09-10,1,2.8688690508212587e-05,0.0001230911302973148,-0.008548921672589525,0.0097237613781562,0.9911510765409538
2013-09-12,-1,-0.0009596914804397055,-0.0006978339257240624,-0.0070514874940266255,0.011364079120558063,0.990643378976865
2013-09-16,-1,-0.00023484506559055183,-0.00010658611043000649,-0.0070514874940266255,0.007776113593935249,0.9910537736634885
2013-09-18,1,0.0007104536529938771,0.0007183851545439113,-0.007906855721120945,0.006294076706291297,0.991561536141586
2013-09-20,-1,-0.00034084359361147255,-0.00020663363804588784,-0.0050935899889149264,0.008082101741933015,0.9910844365569449
2013-09-24,-1,-0.00012818398709893864,-2.7491406251825893e-05,-0.005106220436995676,0.008200885404256007,0.9903484150975636
2013-09-26,1,2.6161751171441207e-05,9.286567087835948e-05,-0.0069379547736147735,0.00993402533677362,0.9894792403422491
2013-09-30,-1,-0.0001582431549023246,-9.341742064537407e-05,-0.004578052790830152,0.00993402533677362,0.9897034539866093
2013-10-02,1,0.00011729892089402757,0.00016493434024638404,-0.004578052790830152,0.008420428747077033,0.9900687097530789
2013-10-04,-1,-0.0002208194219326971,-0.00014603731383581352,-0.004578052790830152,0.010288002628364986,0.9894522675920178
2013-10-08,-1,-0.0005200552893252034,-0.00041857131379027313,-0.0041646682145701054,0.010288002628364986,0.9899822737980541
2013-10-10,1,0.0003837365068994153,0.0004069696724953816,-0.004256156181222527,0.010288002628364986,0.9902215845979155
2013-10-14,1,0.0007314157605327837,0.0008232306480071593,-0.004256156181222527,0.013677804849844672,0.9897358573899673
2013-10-16,1,0.0004341684660644968,0.00046711691076481665,-0.0027709695855556177,0.013677804849844672,0.9901899648735175
2013-10-18,1,0.002030872374484282,0.002281844205436143,-0.004256156181222527,0.008420428747077033,0.9920653287553302
2013-10-22,1,0.0024015343584718307,0.0026733414485403395,-0.004581787442914374,0.007864099534274655,0.9928805940490186
2013-10-24,1,0.002429621183534462,0.002724115183209793,-0.002978469275347604,0.0065235902814146035,0.9934775293619781
2013-10-28,1,0.002279203645929689,0.002526488824769618,-0.004581787442914374,0.006157762554216429,0.9930535221014352
2013-10-30,1,0.00278146115233296,0.0031243349129097178,-0.004581787442914374,0.004352021330053438,0.9931009924014726
2013-11-01,1,0.002568836303561822,0.002865713488746568,-0.004581787442914374,0.0023271366163743127,0.9937647164514247
2013-11-05,1,0.002262862971058152,0.0025164961321367633,-0.004286488250118196,0.0031832718746781737,0.9940469552036415
2013-11-07,1,0.00270799916085576,0.0030680535124709835,-0.004286488250118196,0.0031832718746781737,0.9940728397103785
2013-11-11,1,0.0023419442598898617,0.002593495298426808,-0.004286488250118196,0.0031832718746781737,0.994555967765424
2013-11-13,1,0.0023467210686155004,0.0026043356216577758,-0.0060039553618690105,0.002155924407215006,0.9933148278196353
2013-11-15,1,0.0025083038200415233,0.002809717376617324,-0.00439723532630892,0.0035630828439464778,0.9933774144400654
2013-11-19,1,0.0021358996954648564,0.0023717675036157497,-0.0028800362110822115,0.005491454237858351,0.9934456530172585
2013-11-21,1,0.0014353183251518264,0.001536488295304468,-0.003400383634528871,0.005491454237858351,0.993631817961489
2013-11-25,1,0.0013229383838332296,0.0014330049260981067,-0.0022000601213566437,0.005828175505714513,0.9942614604586941
2013-11-27,1,0.0017108194060282231,0.0019014346001020037,-0.0022000601213566437,0.0077402141767696124,0.9939339487732803
2013-12-02,1,0.0015884180734060287,0.0017813729204022505,-0.001588397560123576,0.0077402141767696124,0.9942386590522662
2013-12-04,1,0.0012584514351037506,0.0013695017851665372,-0.001588397560123576,0.0077402141767696124,0.9933632457480305
2013-12-06,1,0.0014261456303998356,0.00154714145542656,-0.001588397560123576,0.005828175505714513,0.9941787030483125
2013-12-10,1,0.0029821994138721757,0.0033540136747858412,-0.0018615444757137637,0.005068815929334087,0.9939923417945202
2013-12-12,1,0.002030898803569331,0.002269973523285899,-0.0030195008681272065,0.005068815929334087,0.9945372069610803
2013-12-16,1,0.0024964210029978138,0.002789935649798591,-0.0030195008681272065,0.00568083905581929,0.9940607691754956
2013-12-18,1,0.0028259340835777628,0.0031489730552021773,-0.0058419683599748974,0.002871918983560961,0.9928525534669594
2013-12-20,1,0.0025694663799869246,0.002835874950360833,-0.008786301109094076,0.002871918983560961,0.9919611739466586
2013-12-24,1,0.0029207331682243147,0.0032484963337373633,-0.009891452100170634,0.0013643996564482142,0.9898051655203669
2013-12-27,1,0.0029822488734844,0.003259558496037084,-0.009891452100170634,0.0028194024130873538,0.9894814553388211
2013-12-31,1,0.0030140971515990756,0.0032932612084701474,-0.009891452100170634,0.002027811351243957,0.9888733273385936
2014-01-03,1,0.0022144717567086393,0.0023760842052327675,-0.011035602853522215,0.002027811351243957,0.9879814940342949
2014-01-07,1,0.0016530581455266972,0.0017283982587515934,-0.011035602853522215,0.005683130803988138,0.988208619169068
2014-01-09,1,0.0013502198024916247,0.00136396958274095,-0.011035602853522215,0.008992702006180745,0.9873781858563279
2014-01-13,1,0.00039418235993142486,0.0005152536387803675,-0.011035602853522215,0.009180974828416625,0.9875243083785596
2014-01-15,1,0.001020891148873048,0.0010727285210032364,-0.011035602853522215,0.008486433361265627,0.9882630773498426
2014-01-17,-1,-0.00024239827258471327,-1.7246867773240476e-05,-0.007735461684034934,0.009180974828416625,0.9891866558652329
2014-01-22,-1,-0.0015962354321308549,-0.0011822488610756037,-0.007444511395022836,0.009180974828416625,0.9894821553990727
2014-01-24,-1,-0.0031446209846310094,-0.0025407394952748656,-0.006799257967574175,0.010162511342396405,0.9901626592682043
2014-01-28,-1,-0.002568041669058552,-0.002027260550539665,-0.006799257967574175,0.009180974828416625,0.9912183361635398
2014-01-30,-1,-0.0027154473643307827,-0.0021503693796113776,-0.0059597054270573045,0.009180974828416625,0.9913555806462853
2014-02-03,-1,-0.0034475787499493368,-0.002831477450996241,-0.004011808920969409,0.010162511342396405,0.9913665884299071
2014-02-05,-1,-0.003210941394057718,-0.0026191871613742146,-0.004011808920969409,0.011336100230433008,0.9907026660910085
2014-02-07,-1,-0.002225393396228889,-0.0017595310000549206,-0.004011808920969409,0.010983102852986521,0.9924284345002967
2014-02-11,-1,-0.0014234964134003172,-0.0011024062683177055,-0.005383610904517038,0.008657853391378692,0.993090827875183
2014-02-13,-1,-0.0022678817328481513,-0.0018019261801847574,-0.00764334778727448,0.008657853391378692,0.9922880440719033
2014-02-18,-1,-0.0017972865738424479,-0.0013979676473556725,-0.00764334778727448,0.009217430844823727,0.9917552284100121
2014-02-20,-1,-0.0027544433793139558,-0.00223547943133733,-0.005845496337378849,0.009217430844823727,0.9919006043122333
2014-02-24,-1,-0.002779389359360061,-0.002231500831487922,-0.005383610904517038,0.008091615813246706,0.9924300936964203
2014-02-26,-1,-0.0024993927803602786,-0.002010676888523937,-0.005383610904517038,0.009217430844823727,0.9919840633273536
2014-02-28,-1,-0.0026652461445613547,-0.0021338038116057428,-0.005383610904517038,0.009217430844823727,0.9918245152881939
2014-03-04,-1,-0.0030129134307784753,-0.002414348968980993,-0.003927314897006009,0.007724895040851967,0.9932865719645229
2014-03-06,-1,-0.0015801472831912296,-0.0011676347152739536,-0.003927314897006009,0.006752602428617762,0.9938646333326733
2014-03-10,-1,-0.001900527335776869,-0.0014535144287940414,-0.005687439563557226,0.006752602428617762,0.9934436988786727
2014-03-12,-1,-0.0024283945602665458,-0.0019174374257175367,-0.0045347351258165506,0.007326360465678691,0.993107964000075
2014-03-14,-1,-0.0025615162892175525,-0.0021560650267010784,-0.004367373847698838,0.007326360465678691,0.9932624802974928
2014-03-18,-1,-0.0011102116073225818,-0.0009571945701428821,-0.004367373847698838,0.006752602428617762,0.9938369238864804
2014-03-20,-1,-0.001736656111987153,-0.0015052527718902716,-0.0033017705054500315,0.0075038517386927465,0.9928196425332301
2014-03-24,-1,-0.001353892227047026,-0.0011784734532488078,-0.0033017705054500315,0.0075038517386927465,0.9931710607765456
2014-03-26,-1,-0.0007975566511768232,-0.0007064638584975515,-0.004367373847698838,0.007326360465678691,0.9936822704575468
2014-03-28,-1,-0.0002601376465974492,-0.00024355169419497556,-0.004367373847698838,0.006899288715213252,0.9936893782003785
2014-04-01,-1,-0.00035004174047659713,-0.00031572220657065354,-0.004367373847698838,0.006899288715213252,0.9934627733555902
2014-04-03,1,0.00025517263507458257,0.00031000307698936903,-0.004812961928465934,0.005659967314380284,0.9938382116095044
2014-04-07,1,8.80665933167427e-05,0.00014987992176245302,-0.00401705430220044,0.005659967314380284,0.9936501921684072
2014-04-09,1,0.00032581666034474995,0.0004297544045785796,-0.003926793588713485,0.005659967314380284,0.9934381819737803
2014-04-11,-1,-0.00019838714208287559,-0.0001589564121554417,-0.0033695700210388665,0.007827824618880607,0.9935393357165303
2014-04-15,1,0.00020318201383776198,0.00028625048795943847,-0.003481329544852912,0.005659967314380284,0.9939125792803332
2014-04-17,1,0.0010064359424120488,0.0011887249024134675,-0.003926793588713485,0.003188148980626324,0.994836281578846
2014-04-22,1,0.0009158160772022878,0.0010737568385516653,-0.004832853160086905,0.003188148980626324,0.9941201883656685
2014-04-24,1,0.0008471441850875739,0.0010029160474444886,-0.003926793588713485,0.004966244592752348,0.9941854863555134
2014-04-28,1,0.0011009507104129124,0.0012788401065944631,-0.003926793588713485,0.002613156365678961,0.9945060923686455
2014-04-30,1,0.0011912771413830465,0.0013791275392055946,-0.003926793588713485,0.0027238401910677354,0.9945758050307891
2014-05-02,1,0.0011593858418809553,0.0013642417846402716,-0.003481329544852912,0.0027238401910677354,0.9950637388472053
2014-05-06,1,0.0007445928571283301,0.0009089970901350244,-0.0025353627630813978,0.0027238401910677354,0.9954374463780129
2014-05-08,1,0.0006701512155321511,0.0007839151938931904,-0.001680578165204009,0.0030973895600193407,0.9951199495076797
2014-05-12,1,0.001383014911432738,0.0016205300409586018,-0.001680578165204009,0.0030973895600193407,0.9955808279308883
2014-05-14,1,0.001556599947085471,0.0018466492291897138,-0.0031820416536542996,0.0030973895600193407,0.9950455604382613
2014-05-16,1,0.0014548657990583235,0.0017293422872734611,-0.0034368184680009586,0.0030973895600193407,0.9949249752828676
2014-05-20,1,0.001207590467278856,0.0014666065672776026,-0.0011926518576306244,0.0030973895600193407,0.9956922560273449
2014-05-22,1,0.001612185498808987,0.001940810763366256,-0.0011926518576306244,0.002975718224214468,0.9960357212836327
2014-05-27,1,0.0018591883566181882,0.0022368357791767565,-0.004560683769178621,0.002975718224214468,0.9951591986226799
2014-05-29,1,0.0017671514799933266,0.002097898672163433,-0.0062641848422766485,0.0018656633710654462,0.9945421428092753
2014-06-02,1,0.0017767506938322348,0.002096883742828,-0.0062641848422766485,0.002140044349777317,0.9940358627970399
2014-06-04,1,0.0014351162590479785,0.0017060477343587344,-0.005761434981422842,0.004755971012241864,0.9944063627296842
2014-06-06,1,0.0018635914326960757,0.002157825980329835,-0.005761434981422842,0.003367084708570075,0.9945992521374059
2014-06-10,1,0.0024822887259646105,0.002900095664350546,-0.0062641848422766485,0.002140044349777317,0.9938296336880101
2014-06-12,1,0.0015563433163767414,0.0018004392320500678,-0.005109238305703251,0.003367084708570075,0.9943592499050645
2014-06-16,1,0.0009860191209265727,0.0011108642199841982,-0.0046495381680324846,0.004248871294450199,0.9946597028551104
2014-06-18,1,0.0003219672708259408,0.00036211963728107805,-0.005109238305703251,0.004755971012241864,0.9932305856485033
2014-06-20,1,0.0007599336571223664,0.0008088884280144654,-0.005761434981422842,0.004755971012241864,0.9920099735818729
2014-06-24,1,0.00023538394493353567,0.00025332162280030756,-0.005646560474613453,0.004755971012241864,0.9926094038638755
2014-06-26,-1,-0.0013242468893151862,-0.0010353227421493452,-0.005646560474613453,0.004755971012241864,0.9931104781826152
2014-06-30,-1,-0.00129849872031426,-0.001020173096505961,-0.005673362199758179,0.004248871294450199,0.9931032884046693
2014-07-02,-1,-0.00022373985380138905,-0.00012201670502531701,-0.006275686268834178,0.0021904529737110136,0.9921429197193863
2014-07-07,1,0.00013062942930401974,0.00017558613378113657,-0.006275686268834178,0.0021904529737110136,0.9921371366135548
2014-07-09,-1,-0.0005470243035904856,-0.0004230874957334055,-0.006275686268834178,0.004973731139667079,0.9917977840965825
2014-07-11,0,-4.5811926572688326e-05,4.5291635237752195e-06,-0.006275686268834178,0.004675947879726406,0.9921253655599642
2014-07-15,-1,-0.0004929893460612926,-0.00035042554285530007,-0.007173302370356622,0.005368321767037153,0.991915556651936
2014-07-17,-1,-0.0004112403339161368,-0.00028873964426004987,-0.006081821546952562,0.005368321767037153,0.9928519313223797
2014-07-21,-1,-0.001361787449374821,-0.0011278136068559204,-0.006081821546952562,0.00657231722449258,0.992674157294176
2014-07-23,-1,-0.001318341936789833,-0.0011019391735883838,-0.006081821546952562,0.007587329468013179,0.9922817120781398
2014-07-25,-1,-0.001467334859216468,-0.0012417803190273955,-0.007173302370356622,0.007587329468013179,0.9919473324533851
2014-07-29,-1,-0.0014510912745526053,-0.0012705822087606738,-0.007047566930729526,0.007587329468013179,0.9919849598466491
2014-07-31,-1,-0.0020416249003898912,-0.001780014793016723,-0.005189189428297517,0.006693979688191161,0.9927160146978186
2014-08-04,-1,-0.0020852283165453114,-0.0017986115188766978,-0.005497746115895872,0.005368321767037153,0.9930763691124871
2014-08-06,-1,-0.002311923942213144,-0.0019539530180521713,-0.0046952922507711384,0.004726783631632464,0.9939367713328499
2014-08-08,-1,-0.0015127534445717127,-0.0012867783330135032,-0.0046952922507711384,0.004726783631632464,0.9943669260268523
2014-08-12,-1,-0.0019484018459773992,-0.0016434471118754424,-0.0046952922507711384,0.004054743111634682,0.994403632698087
2014-08-14,-1,-0.0014497843410102614,-0.001211930980852344,-0.005194077035737589,0.002990198134376728,0.9948007156349208
2014-08-18,-1,-0.0009763160762895593,-0.0008088940742207775,-0.0046952922507711384,0.002990198134376728,0.9954231525993359
2014-08-20,-1,-0.0003265126427272767,-0.0002532403277343847,-0.0046952922507711384,0.0026660378023512896,0.9958674121144611
2014-08-22,-1,-0.0006678616421185828,-0.0005535128017274363,-0.0046952922507711384,0.002786156516517316,0.9959663962097323
2014-08-26,-1,-0.0005613507097661338,-0.00048503948392492947,-0.0037422640382174972,0.002786156516517316,0.9961766121494731
2014-08-28,-1,-0.0008847227542483677,-0.0007442301474663803,-0.0038451162674169497,0.002786156516517316,0.995779058886143
2014-09-02,-1,-0.0010256130117477615,-0.0008759326591813463,-0.004035344364785044,0.0030719737186325844,0.9951829982590877
2014-09-04,-1,-0.0012747027678855947,-0.0010621192584131455,-0.006049028173009007,0.002786156516517316,0.9946503319878593
2014-09-08,-1,-0.0008113024407963097,-0.0006781028738720709,-0.00694802209227724,0.002786156516517316,0.9940093309016722
2014-09-10,-1,-0.0003770028166808671,-0.0003439633931325384,-0.007311911556213039,0.0030719737186325844,0.9926786456377938
2014-09-12,-1,-0.0004507740502856117,-0.00041121586246130256,-0.009808788899178193,0.0030719737186325844,0.9912187249116501
2014-09-16,-1,-5.087784493003498e-05,-5.0712168820850045e-05,-0.013552423415374864,0.0030719737186325844,0.99081879045113
2014-09-18,1,0.00016707738560734083,0.0002194734730239428,-0.013552423415374864,0.003914039662348017,0.990568740922268
2014-09-22,1,9.102708603654335e-05,0.0001390288227236643,-0.013552423415374864,0.007568593413845424,0.9895765756128179
2014-09-24,-1,-0.0001759923333590474,-0.00017548503647560874,-0.013552423415374864,0.008016061955522466,0.9885540803270992
2014-09-26,-1,-0.0008574373740831579,-0.0007496435831509355,-0.010958325375379056,0.008826845979213925,0.988592071072668
2014-09-30,-1,-0.0006602515764831426,-0.0005911505399803856,-0.010958325375379056,0.01023005876677015,0.9884390070054198
2014-10-02,-1,-0.0009677909515713878,-0.0008888337594407188,-0.00892960285509657,0.01023005876677015,0.9888736193633811
2014-10-06,-1,-0.0008233293273745578,-0.0007572357413753369,-0.00892960285509657,0.008826845979213925,0.9892971809042733
2014-10-08,-1,-0.0007670335623166687,-0.0007038418878565448,-0.005635345475158979,0.008011481631161606,0.9906649070862997
2014-10-10,-1,-0.0022163651900836416,-0.001964904865914892,-0.0019921335686372606,0.008826845979213925,0.9907747064744727
2014-10-14,-1,-0.002204769411452141,-0.001969716204373487,-0.0017766636738432106,0.008826845979213925,0.9914466189835537
2014-10-16,-1,-0.001885705450925318,-0.0016942159825781432,-0.003492731327629431,0.008826845979213925,0.9916209206458748
2014-10-20,-1,-0.0006568848607832053,-0.0006208294310149616,-0.003492731327629431,0.006217090921618617,0.9932271835916056
2014-10-22,-1,-0.0003368096509118824,-0.0003272524978405554,-0.003349087674740187,0.006217090921618617,0.993762757503435
2014-10-24,1,5.3495428275095416e-05,9.769594249391941e-05,-0.003349087674740187,0.005343749205517428,0.9944195588857213
2014-10-28,1,0.0007133896445811279,0.0008866786332857122,-0.003349087674740187,0.005237359965147567,0.9952026942851789
2014-10-30,1,0.0006600825517453541,0.0008425958727219786,-0.003349087674740187,0.005237359965147567,0.9949273458284126
2014-11-03,1,0.000489098717652782,0.0006225378276638791,-0.003349087674740187,0.004805492780721291,0.9944476701266125
2014-11-05,1,0.0005742336479246091,0.0007108576839926686,-0.003492731327629431,0.005237359965147567,0.9935111314895783
2014-11-07,1,0.001268684643869115,0.0015021910815428284,-0.004124329102638548,0.00300746863864352,0.9936213726927836
2014-11-11,1,0.001302724263305281,0.0015467900760773106,-0.006637176093988967,0.002439041587654854,0.9929334392730831
2014-11-13,1,0.0011205672249712906,0.001315285182404386,-0.011274607497561737,0.002439041587654854,0.9921622747816403
2014-11-17,1,0.0011753370825911033,0.0013589544139036615,-0.012069487686224508,0.000567458519112351,0.9914302424126437
2014-11-19,1,0.0014956500396112698,0.001720377023048043,-0.012069487686224508,0.002168270945543319,0.9910185868605532
2014-11-21,1,0.0016975153572746527,0.0019688592373048497,-0.012069487686224508,0.004019693041008123,0.990392792168077
2014-11-25,1,0.001647454970821969,0.0019213777771518602,-0.012069487686224508,0.005808165927382804,0.9904150643575945
2014-11-28,1,0.0010040785774532834,0.0011647168150744655,-0.01125815965800809,0.005808165927382804,0.9909938190228785
2014-12-02,1,0.000664617336708995,0.0007953852935258438,-0.011178025961281052,0.005808165927382804,0.9910768883194649
2014-12-04,1,0.0007553067414421107,0.0009023396739810247,-0.011812638756489748,0.004019693041008123,0.9908211758189518
2014-12-08,1,0.00036095818600017005,0.00045855632009064625,-0.011812638756489748,0.004019693041008123,0.9906815651699991
2014-12-10,-1,-0.0005032965623454895,-0.0004524480124858801,-0.011812638756489748,0.005808165927382804,0.9904075916968541
2014-12-12,-1,-0.0010282313291818898,-0.0009127830524659849,-0.009165822378272737,0.004287710811404347,0.9915577256788273
2014-12-16,-1,-0.0016077033804445145,-0.0014187811922457688,-0.008335311326635854,0.004287710811404347,0.9919667307328133
2014-12-18,-1,-0.0009761305456640517,-0.0008406366526106321,-0.008335311326635854,0.0011962702692178001,0.9924993447994441
2014-12-22,-1,-0.00045431072139535906,-0.0003609064974681234,-0.008335311326635854,0.0019711064116068435,0.992560830715553
2014-12-24,-1,-0.0002295514911918015,-0.00016931807156188942,-0.008335311326635854,0.005361692409196374,0.9922594366655789
2014-12-29,-1,-0.00028307219677800794,-0.00022735552838756625,-0.009338118010115217,0.005361692409196374,0.991007013295958
2014-12-31,-1,-0.0006802259743497599,-0.0005912436347940394,-0.008442842888302899,0.008034197325209049,0.990979916785741
2015-01-05,-1,-0.0015692379350241048,-0.0013742919528527252,-0.008020427169923313,0.010004275489486793,0.990951500827202
2015-01-07,-1,-0.0019848974442826938,-0.0017598295983484503,-0.008020427169923313,0.010235205376483593,0.9906928968698991
2015-01-09,-1,-0.0018583109057968318,-0.0016617700626800425,-0.00572568398779977,0.010004275489486793,0.9915096398557934
2015-01-13,-1,-0.0017819217990864156,-0.0016142916056210944,-0.004487282399759696,0.010004275489486793,0.9912524766526951
2015-01-15,-1,-0.0022307445016638977,-0.0020015226724896676,0.0007182948150856499,0.010161855107872365,0.9905026552841766
2015-01-20,-1,-0.001848856866197342,-0.001658668048803043,0.0008110953949675901,0.010004275489486793,0.9910699311732009
2015-01-22,-1,-0.0011765067931659677,-0.0010671614735155138,-0.0013761506439300443,0.008694736096130565,0.9915542446040332
2015-01-26,-1,-0.0008303056801038052,-0.0007536439254982954,-0.0031626124701164085,0.009072206653019856,0.9919034253677758
2015-01-28,-1,-0.0017440755353941985,-0.0015701288507303933,0.000403467351669111,0.010161855107872365,0.9917827418421428
2015-01-30,-1,-0.0014863063429748128,-0.0013523716070397783,0.0008110953949675901,0.00916690913507013,0.9922461692825387
2015-02-03,-1,-0.0007030109241508518,-0.0006548439391668276,-0.0009756274646809076,0.005669695009868804,0.9932034657776139
2015-02-05,-1,-0.000650286199760488,-0.0006051524679490602,-0.0009756274646809076,0.005229339457949261,0.9934697277937267
2015-02-09,-1,-0.00016824424893332123,-0.00013092190173267135,-0.003123503838396414,0.006675765226684389,0.9926220270924668
2015-02-11,1,3.65914853619915e-05,0.0001026473265465261,-0.003123503838396414,0.008081787372174338,0.9925101415254141
2015-02-13,1,0.00044607597733632243,0.0005586912222179329,-0.008176732692409674,0.008081787372174338,0.9918624128495747
2015-02-18,1,0.0004944615449702146,0.0006039951114979007,-0.008176732692409674,0.008416139484184914,0.9911018728144727
2015-02-20,1,0.0002842275355335077,0.0003459632447426525,-0.00819420924221013,0.008416139484184914,0.9911844653244086
2015-02-24,1,0.000495844704877281,0.0005853445103610275,-0.00828302704838648,0.006760720716415707,0.9912070240300035
2015-02-26,1,0.0007568902002996474,0.0008447367672909844,-0.010203787399552687,0.005021735902245228,0.9912797078024248
2015-03-02,1,0.0010219288385734525,0.001151116109513259,-0.010203787399552687,0.006760720716415707,0.9910567562184246
2015-03-04,1,0.0005139925493895261,0.0005772617862322624,-0.01215304154256375,0.006760720716415707,0.9912899460474573
2015-03-06,-1,-0.000538203487653261,-0.00040916987247776665,-0.008911921724936787,0.008416139484184914,0.991571899627773
2015-03-10,-1,-0.001082120981999272,-0.0008745360333913442,-0.006728806550961795,0.005103528651582597,0.992546531562872
2015-03-12,-1,-0.0008513045736945977,-0.0006635571746867048,-0.006728806550961795,0.009831931117264481,0.9867205680385996
2015-03-16,0,-1.864762101855696e-05,4.138487187773678e-06,-0.006728806550961795,0.005425128253335534,0.9865559327033543
2015-03-18,1,0.00030442752734873035,0.00033165124642974377,-0.008323486528568277,0.003720879246352228,0.9866684206993487
2015-03-20,1,0.0003060146444589627,0.00036372776901882496,-0.007999389987568477,0.003720879246352228,0.986909862448038
2015-03-24,1,0.0003097288528383225,0.00038431424437885615,-0.008764441020730165,0.005425128253335534,0.9861829182322244
2015-03-26,-1,-0.000331113845341236,-0.00031046056872924537,-0.007026319481823828,0.005425128253335534,0.9869296167407592
2015-03-30,1,8.892322350004218e-05,0.00012423389467337875,-0.007026319481823828,0.005251516614017087,0.9869423910175024
2015-04-01,-1,-0.00012784369823679495,-0.00011230513409729035,-0.006404449715713578,0.005251516614017087,0.9875543331492057
2015-04-06,1,0.0006317654829249863,0.0007880576526370989,-0.006404449715713578,0.004837756792949384,0.9875685330742353
2015-04-08,1,0.00046811813762809003,0.0006024937510981412,-0.007026319481823828,0.004837756792949384,0.9871138118593966
2015-04-10,1,0.004106427701774909,0.00472480177579954,-0.007026319481823828,0.004837756792949384,0.991234818422052
2015-04-14,1,0.0033959097980262236,0.003930726339006161,-0.007026319481823828,0.005187994127743645,0.9923057530859342
2015-04-16,1,0.0031004235590524646,0.0036156330414062075,-0.002693754956523575,0.007636032770704841,0.9932240217282589
2015-04-20,1,0.0028733660126813105,0.003363106736787385,-0.002693754956523575,0.007636032770704841,0.9935497213843474
2015-04-22,1,0.002692142122022209,0.0031497073212742224,-0.0019541014025648267,0.007636032770704841,0.994390660097223
2015-04-24,1,0.002339458338047856,0.0027256755275458207,-0.001448422829305361,0.007636032770704841,0.9946334563897693
2015-04-28,1,0.0024153186731137198,0.0027825273615251817,-0.002120038344760544,0.006832008778273708,0.9944051263060227
2015-04-30,1,0.0023805728572881824,0.002745113143357984,-0.004341526365590043,0.006832008778273708,0.9939014188672308
2015-05-04,1,0.0022821644327034197,0.0026051602674221413,-0.004341526365590043,0.004729475536784123,0.9942459830149931
2015-05-06,1,0.0015086536971367086,0.001699375254532848,-0.00235917530000354,0.006823922252357329,0.9944757686562071
2015-05-08,1,0.001794979735631795,0.001995493173022848,-0.0026510414208955908,0.0040193985739785144,0.9950640114093416
2015-05-12,1,0.0011260668889174444,0.0012078477789763385,-0.0015402956228062032,0.004662658754229774,0.99550955096263
2015-05-14,1,0.0018446716355400078,0.0020626450473403696,-0.00434785801477992,0.0029967650270827906,0.9954077271225477
2015-05-18,1,0.0020007450073364005,0.0022756461607462575,-0.00434785801477992,0.0029967650270827906,0.9952325626601927
2015-05-20,1,0.0023476690030730307,0.00267421767583805,-0.00434785801477992,0.0029967650270827906,0.9954695003140225
2015-05-22,1,0.002246222732559819,0.0025483081748728996,-0.004458981527553389,0.0033947402504502415,0.9951561013635759
2015-05-27,1,0.0017758427764333323,0.001984618531387597,-0.004458981527553389,0.003749594436621314,0.9950441310926602
2015-05-29,1,0.001029805790576294,0.0010925037272532519,-0.004458981527553389,0.0033947402504502415,0.9954159577390591
2015-06-02,1,0.0006512829612519229,0.0006743972995232057,-0.005205226985272202,0.0033947402504502415,0.9944499409590398
2015-06-04,1,0.0004121992099736712,0.00046856574600466754,-0.004458981527553389,0.0034572258392824044,0.994989948291195
2015-06-08,1,0.00013326841417711884,0.00023413409363700472,-0.005205226985272202,0.00387559849059881,0.9939708485085428
2015-06-10,1,0.00020721601125303223,0.00031494271777256206,-0.0069464046337681575,0.00387559849059881,0.9933322082941941
2015-06-12,1,1.1878519567613593e-05,0.00013170893948908854,-0.0069464046337681575,0.004811109602979266,0.9929301899087556
2015-06-16,1,2.2203138221127514e-05,0.00011829687189849984,-0.005579901212797745,0.005286273216590479,0.9927073815456811
2015-06-18,1,0.00029588221061857566,0.00034646857933798736,-0.005579901212797745,0.00675041569082656,0.9921701597419925
2015-06-22,-1,-0.0002747634608628327,-0.00011515019284716007,-0.008684404929481738,0.006355497967990065,0.9919449171392835
2015-06-24,-1,-0.0005306615290394359,-0.0003387095152793114,-0.008816568194423871,0.006355497967990065,0.9916241270056189
2015-06-26,-1,-0.0004174851545479604,-0.0002656344317989903,-0.011487498277725088,0.007232550766296637,0.9907644531929931
2015-06-30,-1,-0.0010532138020955069,-0.0008258115396771466,-0.008816568194423871,0.007232550766296637,0.9909102538870782
2015-07-02,-1,-0.0007963952261885033,-0.0006050629795054086,-0.008816568194423871,0.007232550766296637,0.9911971812915565
2015-07-07,-1,-0.0011112134299100173,-0.0008882429929788449,-0.008348306299139109,0.007232550766296637,0.9918289786271544
2015-07-09,-1,-0.0013840067279058377,-0.00114956054378505,-0.006046879350039079,0.0074506774957097035,0.9925957314217624
2015-07-13,-1,-0.0008495428032511983,-0.0006817432504060985,-0.008348306299139109,0.007232550766296637,0.9922740447883012
2015-07-15,-1,-0.0005974342533790762,-0.0004554336102523631,-0.008914219411599703,0.006446838275621102,0.9915880127486022
2015-07-17,0,-2.4722829309715814e-05,4.220084703454924e-05,-0.008914219411599703,0.005908333482575969,0.991668617713801
2015-07-21,-1,-0.00015142456277230843,-9.607752345274355e-05,-0.008348306299139109,0.005908333482575969,0.991875827445065
2015-07-23,-1,-0.0006783763342378919,-0.0005724271174229417,-0.008914219411599703,0.005908333482575969,0.9913639847485809
2015-07-27,-1,-0.0015133738652486977,-0.0012783655104226098,-0.01017557963937468,0.005793820454512265,0.9903089114895548
2015-07-29,-1,-0.0011034830310852925,-0.0009127286448596524,-0.014830923420345343,0.00519708373898549,0.9881410533511716
2015-07-31,-1,-0.0014727253414623847,-0.001224523084923139,-0.014830923420345343,0.006428722907405001,0.9860093626024937
2015-08-04,-1,-0.00159738128389267,-0.0013448144273959478,-0.020395475044272887,0.006428722907405001,0.9841529472137964
2015-08-06,-1,-0.001402250213091248,-0.001176418382625234,-0.020395475044272887,0.007309405874101043,0.983092080709081
2015-08-10,-1,-0.0010290984662366118,-0.0008581103124018132,-0.020852692585562597,0.007309405874101043,0.9813518416944796
2015-08-12,-1,-0.0016393715019830377,-0.0013824536145833365,-0.020852692585562597,0.007309405874101043,0.9817106415939747
2015-08-14,-1,-0.0015071996448828189,-0.0012580474090921655,-0.020852692585562597,0.007233236170525202,0.9814796617614369
2015-08-18,-1,-0.0018898095082026565,-0.0015685574240140196,-0.020852692585562597,0.022272909730493555,0.9796905150018943
2015-08-20,-1,-0.0026183410617223006,-0.0022304660432749656,-0.021864178619017263,0.022272909730493555,0.9793091262917912
2015-08-24,-1,-0.004207094742831765,-0.003620834822734755,-0.017521646920185437,0.022272909730493555,0.9805993020573494
2015-08-26,-1,-0.0037423968688909143,-0.003229963382566435,-0.014241705267729377,0.014119387936842743,0.9828911924709188
2015-08-28,-1,-0.0025228673234513627,-0.002144641523678551,-0.017521646920185437,0.011128403417299473,0.9843730166841109
2015-09-01,-1,-0.0018662172639643464,-0.0017361632980975655,-0.010968118396586525,0.014119387936842743,0.9845845036799559
2015-09-03,-1,-0.0014548311735678007,-0.0013393289244540984,-0.010968118396586525,0.011260066849634286,0.9855560742045831
2015-09-08,-1,-0.0011021223372666815,-0.0010095142699261598,-0.007697998054962978,0.013151241695378709,0.985057515749468
2015-09-10,-1,-0.001499334352471111,-0.0013498542215482166,-0.0026957713623092135,0.01754039881851235,0.9845498627959843
2015-09-14,-1,-0.0014030145542274124,-0.0012613841848309673,3.6810362165412753e-06,0.01754039881851235,0.9852312213504527
2015-09-16,-1,-0.00011015518824767384,-0.0001044066585887856,-0.008161158210308396,0.011260066849634286,0.9872174788524944
2015-09-18,-1,-0.001141698728454431,-0.0010448545661112685,3.6810362165412753e-06,0.016065848421507024,0.9864876837787226
2015-09-22,-1,-0.0007137363368468981,-0.0006656309899259061,-0.0027031391703368026,0.016065848421507024,0.9869734225862414
2015-09-24,-1,-0.0007519086886397238,-0.0007106838184880953,-3.8601758746141686e-05,0.01754039881851235,0.9860349046639163
2015-09-28,-1,-0.001672924330028486,-0.0015039104572313502,-3.8601758746141686e-05,0.01754039881851235,0.9866479101202736
2015-09-30,-1,-0.0002185858029967349,-0.00018360457287762405,-0.0023688994346166784,0.016065848421507024,0.9889115609939274
2015-10-02,-1,-8.355076779670603e-05,-4.7905366230305694e-05,-0.002543516822652268,0.016065848421507024,0.9887774883323032
2015-10-06,1,0.00188321161453427,0.002200516604560796,-0.002543516822652268,0.010916894970190227,0.9912321409561136
2015-10-08,1,0.002495729069379544,0.002887701212584846,-0.002543516822652268,0.0041545714041337735,0.9919024016479153
2015-10-12,1,0.0026790893117306824,0.00311259857276086,-0.0037046993641371827,0.007208635759078538,0.9912916675621535
2015-10-14,1,0.00227124134024862,0.0026534874419803173,-0.0023688994346166784,0.013222632774946445,0.9912476322189503
2015-10-16,1,0.003442279300514448,0.003969673923465113,-0.002543516822652268,0.007208635759078538,0.9922012666265732
2015-10-20,1,0.0031038584116236468,0.003570680879228235,-0.0023688994346166784,0.007208635759078538,0.9926866155790389
2015-10-22,1,0.003790256555189154,0.00434897039247822,-0.002543516822652268,0.006496036485622705,0.9928825721111719
2015-10-26,1,0.003677335144543913,0.00421472594456848,-0.002543516822652268,0.007308864948615262,0.9926328289633036
2015-10-28,1,0.0034646421763009755,0.00397007322534083,-0.003132786668224758,0.007308864948615262,0.9925704848445197
2015-10-30,1,0.0031982586974513344,0.003688814054524851,-0.003132786668224758,0.007308864948615262,0.9927245514929962
2015-11-03,1,0.0036183644620226066,0.004148289530812673,-0.005918583217109232,0.0068677018321566426,0.9926823069089735
2015-11-05,1,0.0034874111769018297,0.003987066331378417,-0.005918583217109232,0.008123173419606897,0.9923627416615609
2015-11-09,1,0.0035977098557491596,0.004117659104356849,-0.006102433928689099,0.0068677018321566426,0.9922081136018831
2015-11-11,1,0.0043536200089225666,0.004973075935509809,-0.006102433928689099,0.0060796464145323114,0.9926981223137508
2015-11-13,1,0.003813900587260487,0.0043489324631906644,-0.006102433928689099,0.0060796464145323114,0.992887093856923
2015-11-17,1,0.003655747874528102,0.004156088966435452,-0.006102433928689099,0.0068677018321566426,0.9923042383441009
2015-11-19,1,0.0032992561174095955,0.003717410161608448,-0.0071812849363548596,0.0063510825715295234,0.9916323206392579
2015-11-23,1,0.00356485790918961,0.004026021133911791,-0.0071812849363548596,0.004449130208691578,0.9922298788907221
2015-11-25,1,0.003126495167769314,0.003505853541133523,-0.006102433928689099,0.0063510825715295234,0.9921637561978321
2015-11-30,1,0.0024400042330216397,0.002694448362968041,-0.004433521517473271,0.008080148658231597,0.9927382864841355
2015-12-02,1,0.0026234441542296247,0.0029254230589973135,-0.004433521517473271,0.006749220926612842,0.9929264846193073
2015-12-04,1,0.003093245033085797,0.00347230434162571,-0.006283398977626172,0.004449130208691578,0.9925333316005676
2015-12-08,1,0.003008105115127415,0.003400476134990853,-0.009809543402463941,0.004449130208691578,0.9901920135389128
2015-12-10,1,0.0030560181638896898,0.0034269657426412112,-0.013013212053270416,0.003406200859889601,0.9894739179084774
2015-12-14,1,0.0022730442705365945,0.0024996379485889265,-0.013901561638038797,0.003406200859889601,0.9897595833172903
2015-12-16,1,0.002453526748794582,0.0026846675812700165,-0.014006145968535227,0.003406200859889601,0.9882962559319414
2015-12-18,1,0.001839139137920831,0.002005145764229351,-0.01457892394909906,0.003406200859889601,0.9886805185430996
2015-12-22,1,0.001783090358015312,0.0019289105491682114,-0.01457892394909906,0.0035577990952121233,0.9872054395888793
2015-12-24,1,0.0018183964281068186,0.001952133074656587,-0.01457892394909906,0.0035577990952121233,0.9873035734130541
2015-12-29,1,0.0020864107338340165,0.00225799904112747,-0.01457892394909906,0.0035577990952121233,0.9868478827276328
2015-12-31,1,0.0019732388305766665,0.0021351178008840585,-0.01584072031256156,0.005302067661298027,0.9851016741951394
2016-01-05,1,0.0013215010906085102,0.001371064648594611,-0.01584072031256156,0.008032279488383875,0.9846106105660385
2016-01-07,-1,-0.00022272180213649606,-9.277115885923692e-05,-0.01442674475635606,0.011028472250510445,0.9858134774173924
2016-01-11,-1,-0.0007039222301882056,-0.0005117864572694003,-0.01396646438914856,0.011028472250510445,0.9861199130307124
2016-01-13,-1,-0.0016831778577415235,-0.0013303059512208269,-0.01442674475635606,0.011028472250510445,0.9854889760328494
2016-01-15,-1,-0.0026485965252360123,-0.0020885781777513768,-0.013214835411487567,0.015867119360418683,0.9852606147009003
2016-01-20,-1,-0.003133666612114945,-0.002528752945496338,-0.012422600959092162,0.016921152392040954,0.9848360013632694
2016-01-22,-1,-0.002225115856838412,-0.0017857792479883294,-0.01145371090518431,0.015577978313218666,0.9856958001762944
2016-01-26,-1,-0.0032670232909447735,-0.002622654928099067,-0.01145371090518431,0.015577978313218666,0.985975714759882
2016-01-28,-1,-0.0030111067406743477,-0.0024331197186992044,-0.00991458453776524,0.015577978313218666,0.9858511981848423
2016-02-01,-1,-0.0024258124674656255,-0.001933512496556443,-0.008870720614491576,0.015577978313218666,0.9865525541766224
2016-02-03,-1,-0.002690142219225428,-0.0021501965691951,-0.008848058868928203,0.014237258309956294,0.9871477141722758
2016-02-05,-1,-0.002895200864655118,-0.0023327345756089662,-0.00705620616927389,0.010889826115579005,0.9883795743575668
2016-02-09,-1,-0.0024792706493978606,-0.002027243485516935,-0.006743632985116734,0.010889826115579005,0.9889032244324117
2016-02-11,-1,-0.004287472803163479,-0.003556239045834042,-0.005800928450543335,0.013379780386649765,0.9891635900802886
2016-02-16,-1,-0.0026544902495146665,-0.0021271372298866803,-0.005800928450543335,0.00950246774284481,0.992157427922791
2016-02-18,-1,-0.002737243107373873,-0.0021821833271529756,-0.0041406714519212715,0.00950246774284481,0.9919373657715554
2016-02-22,-1,-0.0030675175136213985,-0.0024266275236570376,-0.0041406714519212715,0.008287157515997188,0.9922458134858609
2016-02-24,-1,-0.003020064819983368,-0.0024369057964807274,-0.002638556537013653,0.008287157515997188,0.992426207070408
2016-02-26,-1,-0.0024109108555883476,-0.0019182236905916738,-0.002638556537013653,0.008466367953269799,0.9927494567308067
2016-03-01,-1,-0.0007875699551626422,-0.0005790374564700988,-0.0015457341755457752,0.008466367953269799,0.9942281807818911
2016-03-03,0,-3.168629300137057e-05,5.162550112719223e-05,-0.0015457341755457752,0.006108947824751673,0.9945932418481896
2016-03-07,0,-5.5797794816996136e-06,7.548198330736329e-05,-0.002638556537013653,0.0046774146009051654,0.9937774466076711
2016-03-09,-1,-0.0006740501103983498,-0.0004854846835373138,-0.002844938524570337,0.0046774146009051654,0.9937009665827417
2016-03-11,1,0.00047110176841223925,0.0004909988889793924,-0.0025863047594068354,0.004608828777222321,0.9939571455409073
2016-03-15,1,0.0002432301784088029,0.00026469711664823945,-0.0025863047594068354,0.0052922426554629694,0.9937339508191573
2016-03-17,1,0.0012526291206475574,0.001408249778361922,-0.001614528171398003,0.004608828777222321,0.995115022548265
2016-03-21,1,0.001306418542989499,0.0014655287327209592,-0.0015880908887007587,0.0035431578059232968,0.9953408202235577
2016-03-23,1,0.0011541727117841951,0.0012818782602008576,-0.0025863047594068354,0.0035431578059232968,0.9951285989661959
2016-03-28,1,0.0012298749028109156,0.0013378088407705905,-0.00331495977945531,0.00298727151360296,0.9950380554296172
2016-03-30,1,0.001797417486720865,0.002016853564480245,-0.00331495977945531,0.00298727151360296,0.9950992229579423
2016-04-01,1,0.0018401785115791287,0.0020653648701949735,-0.005005121677832954,0.001692773517217528,0.9948716799540164
2016-04-05,1,0.0010118207279239475,0.0011320532142587902,-0.003164177428915872,0.00298727151360296,0.9962020232552308
2016-04-07,1,0.0011179370501221515,0.0013026002701245136,-0.005005121677832954,0.00298727151360296,0.9955493704022931
2016-04-11,1,0.000986998627718315,0.0011325001530307851,-0.005589607149938639,0.00298727151360296,0.9951706541030431
2016-04-13,1,0.0012240893822830401,0.001402287818126941,-0.005589607149938639,0.001692773517217528,0.9941605660126461
2016-04-15,1,0.0012227873390305908,0.0013972318147910776,-0.007386003673517515,0.001452573297535354,0.9929361971797327
2016-04-19,1,0.0014712162342745217,0.0016955467910289039,-0.008255008836802628,0.0018663777899778874,0.9919734074202089
2016-04-21,1,0.0011856901309706034,0.0013587795788194846,-0.008311213171876271,0.0018663777899778874,0.9917941255178295
2016-04-25,1,0.0006840057734190532,0.0007668587664547404,-0.008311213171876271,0.005117609724483537,0.992107877418564
2016-04-27,1,0.0008944037334873729,0.0010056459275618573,-0.008311213171876271,0.00703267565684214,0.9914595831141263
2016-04-29,1,0.0009564263580070695,0.0011034187241499168,-0.008311213171876271,0.00703267565684214,0.991566109490184
2016-05-03,1,0.0006881060220751061,0.0007826343813582491,-0.008255008836802628,0.00703267565684214,0.9918609698716282
2016-05-05,1,0.0002558915187979966,0.0003182009532896932,-0.005504861320875276,0.00703267565684214,0.9928498358782033
2016-05-09,1,6.090491261884181e-05,7.681812937079127e-05,-0.00412547651098755,0.006211997196238205,0.9933363247954651
2016-05-11,1,0.0008216487698124841,0.0009767566015964923,-0.003737793142576306,0.005733216556205867,0.9941429222629398
2016-05-13,-1,-0.0001193276349355434,-0.0001139543893514018,-0.003737793142576306,0.005733216556205867,0.9946660776321411
2016-05-17,1,5.964529926293761e-05,8.921549058148318e-05,-0.0034395697333078575,0.005733216556205867,0.9943587596172725
2016-05-19,-1,-6.892825615284386e-05,-3.709152225561683e-05,-0.0023367412411578,0.005733216556205867,0.9947931806803014
2016-05-23,1,0.00029131602884018964,0.0003955506897480901,-0.002313649903767555,0.005733216556205867,0.9948078750500373
2016-05-25,1,0.0007959302359153252,0.0009609590038372021,-0.0026598678935096888,0.005105892467983955,0.9949263575646333
2016-05-27,1,0.0006112918456975269,0.0007288580469133285,-0.004270016027585473,0.005105892467983955,0.992118775641385
2016-06-01,-1,-0.0002637153691731046,-0.00018611365537235245,-0.00403822747201035,0.006388090367936318,0.990411370315451
2016-06-03,-1,-0.0006938738522181344,-0.0005470007340925023,-0.0030249012174627206,0.008967333210453435,0.9890507070322195
2016-06-07,-1,-0.0007432114866875615,-0.000574461661573432,-0.0030249012174627206,0.010245799630501123,0.988931892738477
2016-06-09,-1,-0.0006279783439461961,-0.0004732318329395483,-0.0022719457654053867,0.012286735222851525,0.9885699648375318
2016-06-13,-1,-0.0014908078174295076,-0.001204069377062081,-8.465374219729805e-05,0.012286735222851525,0.988637870834267
2016-06-15,-1,-0.0005648004294474088,-0.0003976584074121279,-8.465374219729805e-05,0.009901253755625896,0.9897442628934515
2016-06-17,-1,-0.0005980848862954363,-0.00042822853882168633,0.000315919064034706,0.009901253755625896,0.9893939433485477
2016-06-21,-1,-0.00040440850427444906,-0.00024812406219391767,-8.465374219729805e-05,0.009901253755625896,0.9898300471747604
2016-06-23,1,8.862442629949547e-05,0.00016504162630059908,-0.0020914743396592333,0.00856295036202093,0.989837495682622
2016-06-27,-1,-0.0019284688621855313,-0.001617628513766004,-0.0020914743396592333,0.00856295036202093,0.9912008634138422
2016-06-29,-1,-0.0006652615861644247,-0.0004984151178545658,-0.004759599625339648,0.0042403112707087975,0.9934962331378243
2016-07-01,1,1.953806067729705e-05,0.00012091633901571312,-0.004759599625339648,0.0026653306010668947,0.9949174587520984
2016-07-06,-1,-0.0004027223233905834,-0.0001986397743685822,-0.004759599625339648,0.002534475283952415,0.9951666182405472
2016-07-08,1,0.0007941252970683606,0.0008121112979063963,-0.004759599625339648,0.0018083364758891443,0.9955416780543025
2016-07-12,1,0.0008679099800273718,0.000904487091691725,-0.004759599625339648,0.0016078131602239114,0.9955326732351192
2016-07-14,1,0.001237982322815459,0.0013377461232994788,-0.004759599625339648,0.0009241107478355124,0.995687235141739
2016-07-18,1,0.0011432851046849586,0.0012026470626904883,-0.004759599625339648,0.0006157032106014662,0.9958842225142415
2016-07-20,1,0.0011300959860233847,0.0012091867080951107,-0.003983212019235717,0.0007195065392644181,0.9959705515741258
2016-07-22,1,0.0007238279021264037,0.0007709537197077205,-0.0032876813995164566,0.00104074130932723,0.9968581185401884
2016-07-26,1,0.00035715488530412985,0.00037229029776697617,-0.001918766366616008,0.0015237104191729298,0.9976705148120988
2016-07-28,1,0.00017800794061930856,0.0001833989178113693,-0.0015985842513862364,0.0015237104191729298,0.9980047898888204
2016-08-01,-1,-8.766029553628393e-05,-3.887266069207371e-05,-0.0011183031661234067,0.0023241271769889574,0.9979910787440964
2016-08-03,1,2.589729672466284e-05,4.934535645911874e-05,-0.0011183031661234067,0.0015237104191729298,0.9980502774568378
2016-08-05,1,0.00010180745957563144,0.00012011252864364198,-0.0013597971751116626,0.001279512648248912,0.9980687552441055
2016-08-09,1,0.0004043318500521828,0.00045858787068272676,-0.0015985842513862364,0.0010406469710941683,0.9976968731132326
2016-08-11,1,0.0004404546962787424,0.0005054181581797335,-0.001918766366616008,0.0010406469710941683,0.996198695986664
2016-08-15,1,0.00040338293978714793,0.0004624274974526676,-0.0031911904000912,0.002401170950447948,0.9946709550936346
2016-08-17,1,0.0006294818800563549,0.0007397188276425991,-0.004364355355045736,0.001822674789571612,0.9945180911178896
2016-08-19,1,0.0007517436647302954,0.0008955323595800145,-0.004364355355045736,0.0009015304223053803,0.9943611495108918
2016-08-23,1,0.0007823681067020735,0.0009351771317858974,-0.004364355355045736,0.0019838213040815843,0.9939892236095093
2016-08-25,1,0.00033953687876067077,0.00038644267387448103,-0.005001274197030861,0.003204123876401678,0.9936209026367666
2016-08-29,1,0.0002999869733832657,0.0003235250677706711,-0.005686408036699477,0.0036801387865719403,0.9926790411741142
2016-08-31,1,0.00022232479454355753,0.0002388270303031015,-0.00785841004442575,0.0036801387865719403,0.9922608147498526
2016-09-02,1,0.0003691740088658025,0.0004183535515049976,-0.00785841004442575,0.00380253853152323,0.9923149832537999
2016-09-07,1,0.00019818461934156955,0.00022708413881519747,-0.005874670012888174,0.00380253853152323,0.9924516616439936
2016-09-09,-1,-0.0005963791721130959,-0.0005347389799883115,-0.0068176107594314275,0.00380253853152323,0.9932940389624596
2016-09-13,-1,-0.0009167148011342325,-0.0008107302570591994,-0.0067597795577189115,0.0023211842708209234,0.9945008426640801
2016-09-15,-1,-0.001155353815439289,-0.001008739627835618,-0.0067597795577189115,0.0023211842708209234,0.9946655270057635
2016-09-19,-1,-0.00128892945665194,-0.0011391463788534505,-0.0053677993935657845,0.003328614455261101,0.9948045555152099
2016-09-21,-1,-0.0009385045554554563,-0.0008224961262719732,-0.0053677993935657845,0.0028323537784395365,0.9951644285592722
2016-09-23,-1,-0.0009410555142894102,-0.0008200438036854978,-0.005165314074783527,0.0022493654789964633,0.9955592611304026
2016-09-27,-1,-0.0013315787173431774,-0.001132371922764446,-0.005165314074783527,0.00102613529804886,0.9962738812910013
2016-09-29,-1,-0.001694540156588397,-0.001451662584660162,-0.005165314074783527,0.0022493654789964633,0.9961304279343499
2016-10-03,-1,-0.001289581064553103,-0.0011164868676160425,-0.005165314074783527,0.0022493654789964633,0.995191850340227
2016-10-05,-1,-0.0018243351264493465,-0.0015568906022048676,-0.0075614830549977675,0.0022493654789964633,0.99461707791198
2016-10-07,-1,-0.0021880780867712876,-0.0018818472890490838,-0.007418261555729977,0.0031131580797877203,0.9945337153934374
2016-10-11,-1,-0.0025998948367197067,-0.002227978883458144,-0.005216439577740003,0.004254786966076178,0.9930680841735214
2016-10-13,-1,-0.002714887748561253,-0.002335083717608935,-0.004922780207997671,0.0060277478600702285,0.9913319741209352
2016-10-17,-1,-0.0022867987779855254,-0.001986462596110786,-0.006727158183611703,0.007273228228606973,0.9909591139677157
2016-10-19,-1,-0.002024863275740923,-0.0017573315483160417,-0.006727158183611703,0.007725734220511402,0.990964121863545
2016-10-21,-1,-0.002089982329692637,-0.00181528492562487,-0.006727158183611703,0.007725734220511402,0.9908594353200929
2016-10-25,-1,-0.002527839256329369,-0.002194478654823683,-0.004708183371325114,0.008366022749383157,0.9901193307078008
2016-10-27,-1,-0.002398465779287506,-0.002091287278370848,-0.0039497190318818435,0.008366022749383157,0.9902860388112831
2016-10-31,-1,-0.0017752125965939563,-0.0015469168704041738,-0.006132461985933231,0.007320084621700423,0.9912546348470694
2016-11-02,-1,-0.002699371805775507,-0.002343157582629844,-0.00443386193232952,0.008366022749383157,0.9903712221402681
2016-11-04,-1,-0.0022365148452709,-0.001975146080108113,-0.00443386193232952,0.008366022749383157,0.9908504672728563
2016-11-08,-1,-0.0010656956236224724,-0.0009428650950425408,-0.00443386193232952,0.008366022749383157,0.9920851539899596
2016-11-10,1,0.0002179314665071719,0.000269420709165214,-0.00443386193232952,0.007881954540581344,0.9934917016807286
2016-11-14,1,0.00048246857353817523,0.0005864863181229775,-0.00379921558041495,0.006857318668136691,0.9940458770883743
2016-11-16,-1,-0.0005125177946755,-0.0003748243498267833,-0.006132461985933231,0.0054788353709203175,0.9936659664722445
2016-11-18,1,0.00030592700278185195,0.0003477067878945558,-0.006132461985933231,0.0068729698089262815,0.9928833129393341
2016-11-22,1,0.001484934340263029,0.0017495382769701917,-0.006132461985933231,0.005997978549474464,0.9930903869492297
2016-11-25,1,0.0018976753776640716,0.002232554208001775,-0.006634681925876283,0.005997978549474464,0.9927181601604773
2016-11-29,1,0.0017531708411759146,0.0021004849198519833,-0.006536876878310531,0.005997978549474464,0.9931001775457238
2016-12-01,1,0.0022105551854558515,0.002623622098384326,-0.0043922581411089965,0.003226570961856886,0.9940392945286983
2016-12-05,1,0.002133628099550853,0.002561285895358233,-0.0037323315509079314,0.0034746562116748305,0.9946466726562999
2016-12-07,1,0.0028795601255093735,0.0034255816669807706,-0.004244441129373709,0.002849903653103748,0.994429584160129
2016-12-09,1,0.0030356190747837294,0.0035951280202208462,-0.004978550252763517,0.00260001122853208,0.9940973698965127
2016-12-13,1,0.0027155336189634933,0.00319186636950678,-0.004978550252763517,0.002849903653103748,0.9944192271804095
2016-12-15,1,0.0018130528029078653,0.002129487416461486,-0.0035319606690802996,0.002849903653103748,0.9953791102274268
2016-12-19,1,0.002400773909409768,0.002778537394617089,-0.0035319606690802996,0.0009419041155855304,0.9955518243460341
2016-12-21,1,0.0024583152910255916,0.0028335985978863824,-0.004978550252763517,0.00039353479626343395,0.993566066947592
2016-12-23,1,0.002182149501785952,0.002519131434644054,-0.003788050781521387,0.0011825170012475861,0.9936475040749483
2016-12-28,1,0.0020172288633779015,0.0023407945418566535,-0.003788050781521387,0.0009487279552975801,0.9934195798767755
2016-12-30,1,0.0019214649887915323,0.0022335971591141207,-0.004978550252763517,0.0009487279552975801,0.9931104690272154
2017-01-04,1,0.0020030298990045357,0.0023244232815087737,-0.004978550252763517,-0.0003367699786224242,0.9929315219116523
2017-01-06,1,0.0018601228025451257,0.00215863690253955,-0.0033387460105720823,-0.0003367699786224242,0.9931845421953784
2017-01-10,1,0.0016210825563426254,0.0018911877995894198,-0.003628101509131197,-0.0003367699786224242,0.9933438556930452
2017-01-12,1,0.0016144805675345844,0.0018808096646730685,-0.003628101509131197,-8.405779998164859e-05,0.993336857650293
2017-01-17,1,0.0014586230903941525,0.0017026078495958068,-0.003628101509131197,0.004654194592785549,0.993029047411966
2017-01-19,1,0.0013736871539926664,0.0016048454972342992,-0.003628101509131197,0.004654194592785549,0.9931858340762028
2017-01-23,-1,-0.00015692654967367539,-0.00011697233558556065,-0.0019064423240411298,0.005063453342007034,0.9952846344320565
2017-01-25,1,0.0005355587227977719,0.000660938879713235,-0.003628101509131197,0.0035695477092769407,0.9954205528900174
2017-01-27,1,0.00018057542669411015,0.0002637046475676809,-0.003628101509131197,0.004529795678350881,0.9953945348269387
2017-01-31,-1,-0.00027788802993389093,-0.00027004869704567525,-0.0036141471062547644,0.005063453342007034,0.9950436876522211
2017-02-02,-1,-0.0009476575316337099,-0.0008207333301203531,-0.0036141471062547644,0.005063453342007034,0.994936102984646
2017-02-06,-1,-0.0011647279414102216,-0.0009971082588446632,-0.004355971748817005,0.005063453342007034,0.9947173848612929
2017-02-08,-1,-0.0015351997039772791,-0.0013183912517280517,-0.004423175885160648,0.005063453342007034,0.9947955459844416
2017-02-10,-1,-0.001388735366116296,-0.001169455443918489,-0.0046744980483527255,0.005120014921242387,0.9936892448929207
2017-02-14,-1,-0.00036396293880149846,-0.0002895767178467234,-0.0050798785328808604,0.0037059672923507687,0.9935810252626914
2017-02-16,-1,-0.0001353609266269436,-8.948110163773949e-05,-0.0050798785328808604,0.004512074430406783,0.9935788601240023
2017-02-21,-1,-8.351698729974064e-05,-4.232832967568636e-05,-0.006739276484135381,0.0010924369411712306,0.9931281997732052
2017-02-23,-1,-0.0010231099902887112,-0.0008495605957010819,-0.00468860383863768,0.0044681882003159935,0.9937262917545461
2017-02-27,-1,-0.0010630660244660942,-0.000891122833249979,-0.00468860383863768,0.003624494332061275,0.9937860979420663
2017-03-01,-1,-0.0008613569815866345,-0.0007037094914201192,-0.00468860383863768,0.003624494332061275,0.9941251142799451
2017-03-03,-1,-0.0013213008070946722,-0.0010821950786652056,-0.00468860383863768,0.0044681882003159935,0.9938500069820839
2017-03-07,-1,-0.001827938376092811,-0.0015183250727145339,-0.00468860383863768,0.004704922003979173,0.9936130093091246
2017-03-09,-1,-0.002269704031819102,-0.0018966960712580544,-0.002928950528779829,0.004704922003979173,0.9936082697910402
2017-03-13,-1,-0.0019957092526980734,-0.0016576475008219516,-0.0018350214861524454,0.004448659032572649,0.9950850367112909
2017-03-15,-1,-0.001992730816829342,-0.0016675325723927998,-0.0018350214861524454,0.003624494332061275,0.9954832772151766
2017-03-17,-1,-0.001946205508186092,-0.0016195444482132865,-0.002928950528779829,0.0031298767457313696,0.9954155287340245
2017-03-21,-1,-0.0028980819160771875,-0.0024378812030468548,-0.0014173913201986216,0.004704922003979173,0.9946989109100466
2017-03-23,-1,-0.0026515503621763643,-0.00221731953248325,-0.0018350214861524454,0.0048545156611764645,0.9938891631880732
2017-03-27,-1,-0.0024373381339886733,-0.002062118208140942,-0.0018350214861524454,0.0048545156611764645,0.9944442420365702
2017-03-29,-1,-0.0026498595990731948,-0.0022097291863662355,-0.004075988726801644,0.0032011259323768775,0.9946647555716629
2017-03-31,-1,-0.0025403544030966375,-0.0021109175598193718,-0.004075988726801644,0.002690023032591505,0.9950801810167855
2017-04-04,-1,-0.0015855483601212115,-0.0013257714172974278,-0.004075988726801644,0.002180081611450776,0.9950910272381166
2017-04-06,-1,-0.0009398625067311916,-0.0008169942959814244,-0.004075988726801644,0.002180081611450776,0.9950092102173789
2017-04-10,-1,-0.0007363206836293915,-0.0006439991860857366,-0.0053880124157376415,0.001972369033413795,0.9947885309780912
2017-04-12,-1,-0.0008500075345709818,-0.0007589298688400117,-0.0053880124157376415,0.003370248757317513,0.9946069546829974
2017-04-17,-1,-0.0009860519796320013,-0.0008759962540767804,-0.0053880124157376415,0.0026362474929740812,0.9940173310810255
2017-04-19,-1,-0.00016164775151949966,-0.0001432431695928556,-0.0062267130417491936,0.0001712250365037467,0.9930903831783957
2017-04-21,-1,-0.00046691242248627,-0.0004644407795673304,-0.0053880124157376415,0.0009456005958360695,0.9936294188780689
2017-04-25,-1,-0.0008297645678814509,-0.0007657088872049549,-0.0053880124157376415,0.002802492105065381,0.9934429204033541
2017-04-27,-1,-0.0009716948940710001,-0.0009122651159468773,-0.0058376472356743425,0.002802492105065381,0.9927034829329251
2017-05-01,-1,-0.0012693931621692053,-0.001161997600850896,-0.0058376472356743425,0.002802492105065381,0.9927685612529836
2017-05-03,-1,-0.00046485256492749685,-0.000446636430908872,-0.0058376472356743425,0.002802492105065381,0.9924365950328108
2017-05-05,-1,-0.0002996404363427252,-0.0002448911490767307,-0.0058376472356743425,0.003848782748443294,0.9920162314083549
2017-05-09,-1,-0.0005565760355663073,-0.0005353852346067084,-0.008200445179242795,0.003848782748443294,0.9919871598418046
2017-05-11,-1,-0.0008522910970478516,-0.0008137315637964859,-0.005963775963438384,0.003848782748443294,0.991922783042409
2017-05-15,-1,-0.001080927529423545,-0.0010503195994840467,-0.005963775963438384,0.0049189249303596555,0.9904244976213834
2017-05-17,-1,-0.0017724007287936005,-0.0016781757646715325,-0.0032582504090704935,0.008505324312124096,0.9905925152180557
2017-05-19,-1,-0.0009714468855197524,-0.0009647510088771256,-0.004183139741335674,0.006437920716925868,0.9915255515563609
2017-05-23,-1,-0.0006882521793017881,-0.000663802015257266,-0.009767484459267839,0.006437920716925868,0.9903447719693299
2017-05-25,-1,-0.0016190395897712731,-0.0015311792391819318,-0.007242211236732219,0.006437920716925868,0.9912377378147823
2017-05-30,-1,-0.0015590614459089663,-0.0014885282324410525,-0.00844722801988445,0.006437920716925868,0.9905409753947017
2017-06-01,-1,-0.0009801526220444513,-0.0009771012771727762,-0.00844722801988445,0.004133126472787838,0.9910542562533122
2017-06-05,-1,-0.0006863366128693884,-0.0006617169329259652,-0.00844722801988445,0.003663875108658227,0.9907132728510201
2017-06-07,-1,-0.0009179653062636091,-0.000916535930601149,-0.009320043596324093,0.003663875108658227,0.9892096314888038
2017-06-09,-1,-0.0005415791671749837,-0.0004963928315879897,-0.009320043596324093,0.0016064506072427849,0.9895195591367586
2017-06-13,1,0.00011052448348449054,0.00024312395280429324,-0.007242211236732219,0.003450285152241281,0.9909631662377555
2017-06-15,-1,-0.00010023731846861355,-8.649882269273117e-05,-0.007242211236732219,0.0016064506072427849,0.9914020665155269
2017-06-19,1,0.00013915641567690122,0.0002273257796007002,-0.00663084980439555,0.0017727485013618353,0.9916150164701477
2017-06-21,-1,-0.0012655130577565693,-0.0011605455232645621,-0.005103581726088005,0.0020470671567036245,0.9928241519996367
2017-06-23,-1,-0.001563011384730301,-0.0014059676302279273,-0.006880995372315642,0.0020470671567036245,0.9910648647349047
2017-06-27,-1,-0.0019231056971370066,-0.0017250374845662146,-0.005103581726088005,0.0034315828400481724,0.9913798466225756
2017-06-29,-1,-0.0020845780290061847,-0.0018694635066131178,-0.006880995372315642,0.006317565010055158,0.9906406250807932
2017-07-03,-1,-0.0016233310168802628,-0.0014522204995450019,-0.007298502982471174,0.0038242523655544246,0.9911605510367821
2017-07-06,-1,-0.002757465072366877,-0.0024727558707898813,-0.006220530366724226,0.006317565010055158,0.992018362366233
2017-07-10,-1,-0.0025842645375930553,-0.0023546287008960327,-0.0060233884864835645,0.006317565010055158,0.9919657756510933
2017-07-12,-1,-0.0016194834095710055,-0.001516071515142181,-0.0060233884864835645,0.003825626755140815,0.993017190959096
2017-07-14,-1,-0.001184720879411766,-0.0011401723999967992,-0.007298502982471174,0.0031363517822278293,0.9927304841398589
2017-07-18,-1,-0.0012346126246979817,-0.0011602928231674364,-0.008826279252864885,0.003825626755140815,0.9923227681349391
2017-07-20,-1,-0.001420524561790998,-0.0013237281764172954,-0.009026661510290902,0.003825626755140815,0.9922525961576621
2017-07-24,-1,-0.0027619029072552324,-0.002527900441797364,-0.006998718197436821,0.003825626755140815,0.9941609667263307
2017-07-26,-1,-0.002401817653802509,-0.0022109389110332245,-0.008194718534223811,0.003481416246140564,0.9940535590984756
2017-07-28,-1,-0.002486878552846904,-0.0022767261121638327,-0.006998718197436821,0.003481416246140564,0.9943866600333522
2017-08-01,-1,-0.0025901374789305664,-0.0023620748435524506,-0.006384068707040627,0.003481416246140564,0.9947414296091542
2017-08-03,-1,-0.0018354842309148962,-0.0017113652251179833,-0.006930192078266032,0.001705245924447226,0.994613294271276
2017-08-07,-1,-0.0019300481686113883,-0.0017943073378918557,-0.008194718534223811,0.004835877185116844,0.993000848900916
2017-08-09,-1,-0.0015482043322214481,-0.0014660228606664504,-0.008571216420696255,0.004956037912803378,0.9912366489581691
2017-08-11,-1,-0.0023555409516663487,-0.002157220146770932,-0.008378907436693558,0.004956037912803378,0.9917418290796555
2017-08-15,-1,-0.0021211855085997164,-0.0019672361636421465,-0.008142155159931257,0.007106244463204238,0.9914316377423752
2017-08-17,-1,-0.0025872008559022137,-0.002374732594797787,-0.008142155159931257,0.007106244463204238,0.9910901208171954
2017-08-21,-1,-0.002603475830386088,-0.002408355525160763,-0.008378907436693558,0.007866716314010492,0.989747646881937
2017-08-23,-1,-0.0024634134736913286,-0.002297436439501196,-0.006991588379089281,0.008098789760318113,0.9890390538484218
2017-08-25,-1,-0.001995603307375413,-0.0019042156572413016,-0.006991588379089281,0.008686021794221909,0.9887471814100304
2017-08-29,-1,-0.0019168105908855685,-0.001836501129081541,-0.0089021579827338,0.008686021794221909,0.9875868215550422
2017-08-31,-1,-0.0015205048237811403,-0.0015003249484226379,-0.0089021579827338,0.008098789760318113,0.98822051674039
2017-09-05,-1,-0.0012109821373952026,-0.0011999461079393984,-0.0074579211824795984,0.008613733440704381,0.9887846818622853
2017-09-07,-1,-0.0021492937689911768,-0.0020509691825688486,-0.0074579211824795984,0.008613733440704381,0.9900941024114368
2017-09-11,-1,-0.0020960658873108505,-0.002031975292112974,-0.008033735102812394,0.008613733440704381,0.9884678952794004
2017-09-13,-1,-0.0015307721540469652,-0.0015104938755238992,-0.011075802250498746,0.00700639314967909,0.9888435006309894
2017-09-15,-1,-0.0016330043199023884,-0.0016009259669862428,-0.008033735102812394,0.006059268721969772,0.9897228361983923
2017-09-19,-1,-0.0012909267677599793,-0.0012834989996697774,-0.007195686126835837,0.006059268721969772,0.9901171441172042
2017-09-21,-1,-0.0005211003223523109,-0.00043106664229103744,-0.007195686126835837,0.005976623682746903,0.9900709882237781
2017-09-25,1,0.00020289438968660223,0.0004029721343501271,-0.008561655322569072,0.004178458038208249,0.9869518012692428
2017-09-27,-1,-0.0005448819081412014,-0.0004275894574586321,-0.012536606168179787,0.004178458038208249,0.9868607878306549
2017-09-29,-1,-0.0007846565159468879,-0.0007104723406619255,-0.014131485207281743,0.004178458038208249,0.9857074766442482
2017-10-03,1,0.00010572416146504974,0.00030470539995573797,-0.01793177603462117,-0.0024574631651060022,0.9850862519270706
2017-10-05,-1,-0.0004962969007617472,-0.00041666115499847806,-0.01793177603462117,-0.003010781204445045,0.9856860298398447
2017-10-09,-1,-0.002480226661550457,-0.002277401299453282,-0.013764896015137647,-0.0007742907137829646,0.9882029295233346
