JNU-Tangyin/eata/results/Batch4_SP500/Batch4_SP500-AJG.csv
Date,Action,Predicted_Q25,Predicted_Q75,Actual_Q25,Actual_Q75,RL_Reward
2010-12-14,0,0.0,0.0037476199962554156,-0.003753027126520737,0.0006803114505977145,0.9959185325385821
2010-12-16,0,0.0,0.0,-0.003753027126520737,0.0006803114505977145,0.9960714973555506
2010-12-20,1,0.001268905885512878,0.0013557849267516913,-0.003753027126520737,0.0006803114505977145,0.9948691842070524
2010-12-22,0,0.0,0.0,-0.004126600089620245,-0.0005924585468837173,0.9951224111086899
2010-12-27,0,0.0,0.0,-0.004126600089620245,0.004951945105322202,0.9938671936985001
2010-12-29,1,0.0014090638027284734,0.0014777758881855502,-0.004126600089620245,0.008520761534446275,0.9930524890666311
2010-12-31,1,0.0014095406380739872,0.0014812855203772777,-0.0054514795619978965,0.008520761534446275,0.9927975194688549
2011-01-04,0,0.0,0.0,-0.0038758332801181712,0.008520761534446275,0.993645393043939
2011-01-06,0,0.0,0.0,-0.004562213609328889,0.009014676336219217,0.9931533306578788
2011-01-10,0,0.0,0.0,-0.0026443927633565956,0.009014676336219217,0.9933522658874561
2011-01-12,0,0.0,0.0,-0.004562213609328889,0.009014676336219217,0.9930985568176341
2011-01-14,-1,-0.0003888975777567433,-0.00015970399718427013,-0.0026443927633565956,0.009014676336219217,0.9933047408700704
2011-01-19,-1,-0.00042159353653537727,-0.0001387523757141498,-0.0020215650537825963,0.009258935341058571,0.9931306776878911
2011-01-21,-1,-0.0007007640013130762,-0.00039064986482059976,0.0008253278510242075,0.009800399781387754,0.9925499127476926
2011-01-25,1,0.0011465877968973373,0.0011855961820440234,-0.002589851701763483,0.007876961429267602,0.9929758482264945
2011-01-27,1,0.0016884586731541122,0.0017139769929828792,-0.002589851701763483,0.007288612946930105,0.9930200872483435
2011-01-31,0,0.0,0.0,-0.002589851701763483,0.009153220134520669,0.9920852055337526
2011-02-02,1,0.0005897682288565074,0.0006568445666271646,-0.003994264132088615,0.009427444634027005,0.9917788544050594
2011-02-04,0,0.0,0.0,-0.00674070840455666,0.007344782711252917,0.9911705343814267
2011-02-08,0,0.0,0.0,-0.006867655300111391,0.008437924061769787,0.9907313599705775
2011-02-10,0,0.0,0.0,-0.007613504113663315,0.009483254161774046,0.9900954551132511
2011-02-14,1,0.00026550788596512223,0.00041369649868168624,-0.009598745588415357,0.009483254161774046,0.9899744806446592
2011-02-16,1,0.0025548615041900862,0.0027168365097483753,-0.01142465513344431,0.008437924061769787,0.9898097371310409
2011-02-18,1,0.0023181377552716443,0.0024234608276364677,-0.01142465513344431,0.008437924061769787,0.989773105842609
2011-02-23,1,0.0014517044933650303,0.0014572932522717657,-0.007613504113663315,0.008437924061769787,0.9912959926316921
2011-02-25,0,0.0,0.0,-0.007613504113663315,0.004512675148553666,0.9921839946699343
2011-03-01,0,0.0,0.0,-0.006867655300111391,0.004287256255538866,0.9926546206471448
2011-03-03,0,0.0,0.0,-0.006867655300111391,0.0033814548741022605,0.9933850075159838
2011-03-07,0,-3.138461648493967e-05,0.0001251578738641226,-0.005572289440975363,0.004524242556827667,0.9937791846143457
2011-03-09,1,0.0001268610729018268,0.00024696470039977715,-0.003770985215058047,0.004415606261413256,0.9940974378152543
2011-03-11,1,0.000520781815506566,0.0005807964386638446,-0.003770985215058047,0.0033814548741022605,0.9946647083451363
2011-03-15,0,-1.4180950230058948e-06,0.00011925893386781404,-0.004235812745762414,0.0033814548741022605,0.9941931859783996
2011-03-17,0,0.0,0.0,-0.003432568885834296,0.0033814548741022605,0.9947874292285913
2011-03-21,0,0.0,0.0,-0.00430675081301693,0.0027730327055758095,0.9942234667876979
2011-03-23,0,0.0,0.0,-0.004102814816158998,0.0033814548741022605,0.9936186292375782
2011-03-25,0,0.0,0.0,-0.004102814816158998,0.0028520281393387427,0.9938459580414272
2011-03-29,0,0.0,0.0,-0.003921042438956836,0.0034374996570652595,0.9939606609554104
2011-03-31,0,0.0,0.0,-0.004102814816158998,0.004035380124836113,0.9934308954896051
2011-04-04,0,0.0,0.0,-0.005340019177947247,0.004035380124836113,0.9929745984434949
2011-04-06,0,0.0,0.0,-0.008906406448367089,0.0018436054376365395,0.9927248800662883
2011-04-08,1,0.00041176115881259943,0.0004288408313080016,-0.006957183971608848,0.0023816930636651455,0.9927093271117416
2011-04-12,-1,-0.0006772050221617263,-0.0005155429270587963,-0.004690278352361166,0.004035380124836113,0.9933540624464791
2011-04-14,0,0.0,0.0,-0.006957183971608848,0.0065270085172907215,0.9921433941036885
2011-04-18,0,0.0,0.0,-0.006957183971608848,0.0065270085172907215,0.9926502437859069
2011-04-20,-1,-0.0007310613494769477,-0.0005973992824492202,-0.006957183971608848,0.0065270085172907215,0.9928462460088877
2011-04-25,-1,-0.0008188958986258691,-0.0006667261859980543,-0.012146288125273796,0.0065270085172907215,0.9913698703012714
2011-04-27,0,0.0,0.0,-0.012146288125273796,0.0049759785473845655,0.9914868543097988
2011-04-29,0,0.0,0.0,-0.012031520464107453,0.005944508633333428,0.9916233895028924
2011-05-03,0,0.0,0.0,-0.011993465580683073,0.00431574608385352,0.9920302909146914
2011-05-05,-1,-0.0017119269928950473,-0.0014604717671185263,-0.007487394180173088,0.00431574608385352,0.9923869317065032
2011-05-09,-1,-0.0016573140573877708,-0.0014298372522095497,-0.006450986770890491,0.004710248393286832,0.9923705484429465
2011-05-11,0,0.0,0.0,-0.007088041308135889,0.00431574608385352,0.9928876678251282
2011-05-13,0,0.0,0.0,-0.007088041308135889,0.00431574608385352,0.9928803529835175
2011-05-17,0,0.0,0.0,-0.00660104331969371,0.00431574608385352,0.9928414766523364
2011-05-19,0,0.0,0.0,-0.00660104331969371,0.00397300912696842,0.9932990766600887
2011-05-23,0,0.0,0.0,-0.002824641856930443,0.00431574608385352,0.9943960663870295
2011-05-25,0,0.0,0.0,-0.0036200570008267105,0.00397300912696842,0.9943123043113657
2011-05-27,0,0.0,0.0,-0.004934909571945339,0.0031611572345175486,0.994624242546113
2011-06-01,0,0.0,0.0,-0.003907342114672181,0.003659713386989392,0.9945154745595155
2011-06-03,-1,-0.004151563904936657,-0.0035113473018757646,-0.003907342114672181,0.004157130793845459,0.9935428346181747
2011-06-07,-1,-0.002287970782430505,-0.0019620094749221552,-0.003907342114672181,0.004316529431895915,0.9939528431855381
2011-06-09,-1,-0.001986280320359594,-0.0017097540604099608,-0.0039195620112282645,0.005852796417636128,0.9934769603739493
2011-06-13,-1,-0.0020879519218412997,-0.0017907955080436527,-0.0039195620112282645,0.005598416427928678,0.99371537980026
2011-06-15,-1,-0.0026179208627991456,-0.0022468143040264947,-0.005130708523158272,0.005598416427928678,0.9938860906025204
2011-06-17,-1,-0.0018187931359528427,-0.0015976767792193008,-0.00663774232221234,0.005598416427928678,0.9933339773128284
2011-06-21,-1,-0.0011408673031027715,-0.0010237235390154838,-0.008795046559458102,0.004082415903785876,0.9929287436175916
2011-06-23,-1,-0.0015859621464733012,-0.0013943322653908563,-0.008795046559458102,0.005598416427928678,0.9918445920740171
2011-06-27,-1,-0.0017912331318968436,-0.001592239265654634,-0.008795046559458102,0.005598416427928678,0.991925715321817
2011-06-29,-1,-0.0008298195787289066,-0.0007532663503769309,-0.008795046559458102,0.005598416427928678,0.9915551787030228
2011-07-01,-1,-0.0004245516617439619,-0.00039780268734349635,-0.008795046559458102,0.005598416427928678,0.9916428996683884
2011-07-06,-1,-0.0003859563259476596,-0.00036494248857298886,-0.008795046559458102,0.005918993003218368,0.9913508549522092
2011-07-08,-1,-0.0003369710611470178,-0.00032776659295418825,-0.010426539910779279,0.002226654321241251,0.9889285012632811
2011-07-12,-1,-0.00010036387339152638,-3.086359981357647e-05,-0.010426539910779279,0.0025058925596010075,0.9830488053868365
2011-07-14,-1,-0.00026957450204716395,-0.00020038810828014328,-0.01318721500119752,0.006846247004022544,0.9791732982312465
2011-07-18,-1,-0.001316144055007674,-0.0012231118404173924,-0.011082445299073707,0.011090871385063598,0.9786433043178148
2011-07-20,-1,-0.0015931377816854036,-0.0014918630923334182,-0.00735682774586136,0.011090871385063598,0.9793938166900189
2011-07-22,-1,-0.0008181533554533678,-0.0008039970580521158,-0.014136742430577437,0.006846247004022544,0.9789297501691092
2011-07-26,0,0.0,0.0,-0.014136742430577437,0.011090871385063598,0.9765929173746587
2011-07-28,-1,-0.00017661186048798528,-0.00011210650276272213,-0.014136742430577437,0.009028907320724549,0.9768282044153852
2011-08-01,1,0.00011569208578164495,0.0002269906086467568,-0.014136742430577437,0.018523383024532963,0.9752913124860689
2011-08-03,0,0.0,0.0,-0.014136742430577437,0.018523383024532963,0.9754895842584401
2011-08-05,-1,-0.0014335066002284136,-0.001381126661603405,-0.00858715249541815,0.018523383024532963,0.9770819899820863
2011-08-09,-1,-0.0022735711801692704,-0.002073251401280395,-0.00858715249541815,0.018523383024532963,0.9818118364019336
2011-08-11,-1,-0.001061902301534726,-0.001030508379280787,-0.00858715249541815,0.015480326081395868,0.9853873544200366
2011-08-15,0,0.0,0.0,-0.00858715249541815,0.00688673691746523,0.9865264780478699
2011-08-17,0,0.0,0.0,-0.00858715249541815,0.015480326081395868,0.9854056120828493
2011-08-19,0,0.0,0.0,-0.008131251565286164,0.015480326081395868,0.9862953336308459
2011-08-23,0,0.0,0.0,-0.008679156277764779,0.01445320176807276,0.9867239921112947
2011-08-25,0,0.0,0.0,-0.009402771957571549,0.011338771315366886,0.9873083475516125
2011-08-29,1,0.0018477722211096483,0.002302493641553183,-0.009402771957571549,0.007028425856209093,0.9879148319713938
2011-08-31,0,0.0,0.0,-0.010557620346114786,0.011225491037450012,0.985386312041686
2011-09-02,0,0.0,0.0,-0.01327263365038404,0.011225491037450012,0.9847735465020966
2011-09-07,0,0.0,0.0,-0.011688976586608066,0.013915132376905965,0.9845081117125222
2011-09-09,0,0.0,0.0,-0.010816596513160026,0.014070404716646657,0.9840379473495864
2011-09-13,0,0.0,0.0,-0.011672659463906655,0.015231377701177289,0.9822420911064674
2011-09-15,0,0.0,0.0,-0.011672659463906655,0.014070404716646657,0.9829044564547192
2011-09-19,-1,-0.00018664109445385417,-0.00015221893900917383,-0.01500393997191573,0.013915132376905965,0.9822236974456219
2011-09-21,0,0.0,0.0,-0.011672659463906655,0.01570088347738665,0.9815298589271794
2011-09-23,0,0.0,0.0,-0.011672659463906655,0.02404379499136796,0.9786416011002684
2011-09-27,1,0.0002374228135672158,0.0003467739354051981,-0.01500393997191573,0.02684312874032823,0.9772537486446347
2011-09-29,0,-2.6848950597997126e-05,4.106075882003414e-05,-0.011672659463906655,0.026829695903716914,0.9782794173909901
2011-10-03,-1,-0.00139631565738793,-0.0013060770827294263,-0.008762378743381172,0.026829695903716914,0.9787309793709045
2011-10-05,1,0.00021502485805078095,0.00031615052394597446,-0.011672659463906655,0.023412960650171795,0.9791443514823943
2011-10-07,1,6.632323816027887e-05,0.0001254572904334419,-0.008762378743381172,0.023412960650171795,0.9803146455143847
2011-10-11,1,0.0007663768098864349,0.0009405358378032436,-0.003953855216698899,0.019666771875722133,0.9816110442484608
2011-10-13,1,0.0002823483778572598,0.0003373107265885253,-0.0063980543539145585,0.019666771875722133,0.9808228656013807
2011-10-17,-1,-5.188666580305921e-05,-3.562664939881348e-05,-0.004119167718110101,0.019666771875722133,0.9813173613959832
2011-10-19,1,0.0015996019796031139,0.0018552989842925602,-0.007689332529366101,0.017974055065764993,0.9836376460325791
2011-10-21,1,0.003344672297689019,0.003811692092960931,-0.010899590990673617,0.016419349598320657,0.9856774941141114
2011-10-25,1,0.003153138154860023,0.00359795902361483,-0.010501770152143229,0.011890356450256174,0.987132707070167
2011-10-27,1,0.004273393497898135,0.004863860575128986,-0.01654278838249583,0.004346119370670746,0.9873068332135126
2011-10-31,1,0.003264413950843547,0.0037128758154462965,-0.010501770152143229,0.006969053411659386,0.9886618299513507
2011-11-02,0,0.0,0.0,-0.007689332529366101,0.007468260483841837,0.9891573692506987
2011-11-04,0,0.0,0.0,-0.007689332529366101,0.011567479833180305,0.9882452668563516
2011-11-08,1,0.002964450560587897,0.00335069351620655,-0.007689332529366101,0.009737687345969873,0.9891580954015016
2011-11-10,1,0.00290402153876506,0.003299267217139162,-0.006097556010589409,0.010799533174191321,0.9895978789720458
2011-11-14,1,0.00344822544412373,0.003898481345929441,-0.006097556010589409,0.008014868498421784,0.9900763942315501
2011-11-16,1,0.002111343291655411,0.002406487852333133,-0.003985320305053229,0.008014868498421784,0.990396630513349
2011-11-18,1,0.0024976928215641224,0.0028208707285427475,-0.003985320305053229,0.008014868498421784,0.9907418315950556
2011-11-22,1,0.001952152487182124,0.0022319745967503755,-0.00269634788308785,0.010799533174191321,0.9903349009019284
2011-11-25,1,0.0016171413023231282,0.0018718082303546446,-0.0017875849953285718,0.010856706372460594,0.9907062141439519
2011-11-29,1,0.0018001900435552177,0.0020230437051942476,-0.0017875849953285718,0.009500762859063303,0.9910479638916971
2011-12-01,1,0.0029276696386203345,0.0033137624089341422,-0.00269634788308785,0.008695699764915743,0.99259566369576
2011-12-05,1,0.0028783177713551434,0.003234084265222148,-0.005145668380646442,0.007490215357205909,0.9921603022659747
2011-12-07,1,0.00304479409315505,0.0033885547244388568,-0.005145668380646442,0.006872638176296975,0.9924890483255153
2011-12-09,1,0.0025036847308636057,0.0027717234926096473,-0.005145668380646442,0.006560578272046314,0.9934021059696417
2011-12-13,0,0.0,0.0,-0.002961839665666167,0.005134505785897515,0.9938876864850807
2011-12-15,0,0.0,0.0,-0.004077755923071747,0.0034992305018286514,0.9939078271244187
2011-12-19,0,0.0,0.0,-0.004077755923071747,0.006872638176296975,0.9936161741943313
2011-12-21,0,0.0,0.0,-0.004077755923071747,0.005265240136640401,0.9945032019999591
2011-12-23,1,0.0036055007066988047,0.003984379365825864,-0.004077755923071747,0.002403120234385993,0.9941538843645142
2011-12-28,0,0.0,0.0,-0.0036711955068335403,0.002403120234385993,0.9955065924480506
2011-12-30,0,0.0,0.0,-0.0029065735552387412,0.0021961883999423466,0.9961564635230193
2012-01-04,0,0.0,0.0,-0.0013527678392702648,0.00296343115527646,0.9952059769878784
2012-01-06,0,0.0,0.0,-0.0013527678392702648,0.00461764287944243,0.9950333188041982
2012-01-10,0,0.0,0.0,-0.0013527678392702648,0.005454211763277636,0.9948014424081035
2012-01-12,0,0.0,0.0,-0.0020324587182243233,0.007352305114352865,0.9940633024243657
2012-01-17,0,0.0,0.0,-0.001569204413777951,0.007352305114352865,0.993969533433195
2012-01-19,0,0.0,0.0,-0.001569204413777951,0.005454211763277636,0.9941196933281592
2012-01-23,0,0.0,0.0,-0.0029065735552387412,0.004680190831328148,0.9943195407695878
2012-01-25,0,0.0,0.0,-0.0037711086362847432,0.005454211763277636,0.993967782396701
2012-01-27,1,0.0004883084675983359,0.0005360772167573585,-0.004765147038520759,0.005454211763277636,0.9937428415122972
2012-01-31,1,0.0004686502514562584,0.0004738315745476382,-0.004765147038520759,0.005454211763277636,0.993492244921393
2012-02-02,1,0.0010753148678686502,0.0010863558695608333,-0.005399922311848899,0.004680190831328148,0.9938838003494214
2012-02-06,1,0.0011892531282874336,0.001208014814354496,-0.006132380230286574,0.005246478799054261,0.9934243472014455
2012-02-08,1,0.0018797227492686986,0.002016035708429137,-0.006132380230286574,0.007000141834775484,0.9927902046459627
2012-02-10,1,0.0014127144377182146,0.001486686495760326,-0.005399922311848899,0.006190900616351641,0.993232608055952
2012-02-14,1,0.0003150393189528844,0.00043451880608104,-0.004765147038520759,0.007000141834775484,0.9930140900355918
2012-02-16,-1,-0.0005017840379469558,-0.0003206685278784346,-0.004765147038520759,0.007860241969630635,0.9924618025143592
2012-02-21,1,6.224964863688195e-05,0.0002096177964401912,-0.004765147038520759,0.007860241969630635,0.9923178666961152
2012-02-23,0,-6.899422564152506e-05,0.00012308214325857064,-0.005579947334122014,0.007011644528528777,0.9923814601106464
2012-02-27,1,0.0005037858205177229,0.0008629738630903713,-0.005047440527491622,0.010026823382302187,0.9917945087702041
2012-02-29,-1,-0.0008672735258648273,-0.0005849797292559463,-0.005047440527491622,0.010026823382302187,0.9917326674394182
2012-03-02,-1,-0.0010151395337378857,-0.0007127701303563516,-0.004770152563402829,0.008199613444329595,0.9928491050635182
2012-03-06,1,0.0007233073865279219,0.0009360042306484928,-0.0023760443183464,0.007316507921967857,0.9934165144194075
2012-03-08,1,0.0011021249502056627,0.0012781932420589121,-0.0023760443183464,0.005900826329778758,0.9941191441554845
2012-03-12,1,0.0008359084788438104,0.0010725357571145246,-0.005869775134516481,0.0033713615863952186,0.9927143534189523
2012-03-14,1,0.0012806050962617115,0.0013876445833830593,-0.005869775134516481,0.005743883140087095,0.992833146769537
2012-03-16,1,0.0018295191834941807,0.0019393377482041195,-0.005240276389317856,0.004228422846530162,0.9936989548398528
2012-03-20,1,0.0006586963234697873,0.0007779900122434364,-0.00517440614137474,0.005743883140087095,0.9930194649814749
2012-03-22,1,0.0004669954338674971,0.0004993180589486245,-0.0025327522603180753,0.00579217906369345,0.9926235037743488
2012-03-26,1,0.0016963259813597797,0.0016963259813597797,-0.0037557341369166787,0.005743883140087095,0.9932624985190722
2012-03-28,1,0.0003097998761350357,0.00031895425176672816,-0.0037557341369166787,0.005806950183678937,0.9922339667979156
2012-03-30,1,0.00028467745358254934,0.00030028870407120846,-0.0020731030762128535,0.005806950183678937,0.9922989940438709
2012-04-03,0,0.0,0.0,-0.0037557341369166787,0.005773622105919266,0.99187251985554
2012-04-05,1,0.0005118581494503619,0.0005567620161350766,-0.005313918538140792,0.005773622105919266,0.9913045949183298
2012-04-10,-1,-0.00040779811376117454,-0.0002575755062860831,-0.00517440614137474,0.005773622105919266,0.9923817208752561
2012-04-12,0,0.0,0.0,-0.005313918538140792,0.005382525941319577,0.992413274472135
2012-04-16,0,0.0,0.0,-0.005466650494146045,0.005382525941319577,0.9923412823775642
2012-04-18,0,0.0,0.0,-0.006858924182164932,0.004720028624926054,0.993173487873374
2012-04-20,0,0.0,0.0,-0.010257835431128915,0.001342802321649827,0.9924347130985525
2012-04-24,0,0.0,0.0,-0.010257835431128915,0.0045306051411598824,0.9917676735530322
2012-04-26,0,0.0,0.0,-0.010257835431128915,0.003298481319868291,0.9922488789203356
2012-04-30,0,0.0,0.0,-0.010257835431128915,0.003298481319868291,0.991767978975451
2012-05-02,0,0.0,0.0,-0.010394021663471868,0.0009336152045439894,0.9917726991743635
2012-05-04,0,0.0,0.0,-0.01111873187259295,0.0009336152045439894,0.9917027558114933
2012-05-08,0,0.0,0.0,-0.010489047621293351,0.004116951029453687,0.9912353160478644
2012-05-10,0,0.0,0.0,-0.010489047621293351,0.004116951029453687,0.9911050507772249
2012-05-14,0,0.0,0.0,-0.010774770370658136,0.007186982018061618,0.9907553010254273
2012-05-16,0,0.0,0.0,-0.008636669345650933,0.007186982018061618,0.9911359928788198
2012-05-18,0,0.0,0.0,-0.006278986223453411,0.008052011409692236,0.9915566221038534
2012-05-22,0,0.0,0.0,-0.006278986223453411,0.007555827932457013,0.9919457515753859
2012-05-24,0,0.0,0.0,-0.006319452985442219,0.005656010186847041,0.9921588902930091
2012-05-29,0,0.0,0.0,-0.008636669345650933,0.005431665207343121,0.9918810747594152
2012-05-31,0,0.0,0.0,-0.008422308033143842,0.00634855258713812,0.9914317313060063
2012-06-04,-1,-0.002469878158241144,-0.0020817397567344503,-0.006319452985442219,0.01073553279906417,0.9909420057536784
2012-06-06,-1,-0.0016801668542993672,-0.0013851980168460539,-0.006319452985442219,0.007903765031922473,0.991790176322363
2012-06-08,-1,-0.002394234343211837,-0.00200179322052684,-0.006476331831015595,0.007903765031922473,0.9915506575992641
2012-06-12,-1,-0.002227473186042364,-0.001873597179353988,-0.004012933060504854,0.007492616960266313,0.9922402393873944
2012-06-14,-1,-0.0017184869353959074,-0.0014482493983537605,-0.005789657885244617,0.01073553279906417,0.9916842221185449
2012-06-18,-1,-0.0018365412808521624,-0.001555347491566102,-0.005789657885244617,0.01073553279906417,0.991964081263583
2012-06-20,-1,-0.0017416654984683283,-0.0014627604278642373,-0.005789657885244617,0.007492616960266313,0.9925011481244415
2012-06-22,-1,-0.0018963401893026146,-0.0015979833486875986,-0.005249385681730256,0.007492616960266313,0.9927572475816157
2012-06-26,-1,-0.0010810950673600377,-0.0009271826967025792,-0.005249385681730256,0.007492616960266313,0.9926228304967556
2012-06-28,-1,-0.0006188294869564855,-0.0005299337156060018,-0.00479897545612888,0.009471281062438774,0.9922324130044451
2012-07-02,1,0.00019561953974824275,0.00021711825232367392,-0.005249385681730256,0.006346085268905475,0.9923430009870368
2012-07-05,1,0.0008106740144110368,0.0008504497460890961,-0.006189368061782131,0.0070056399696296285,0.9913983036048108
2012-07-09,1,0.00039064816469810206,0.0004124510901672635,-0.006189368061782131,0.0070056399696296285,0.9914576598037064
2012-07-11,1,0.0001519380433188418,0.00021409198193135333,-0.006220904594242391,0.0070056399696296285,0.9913793617030988
2012-07-13,1,4.0674609693787357e-05,0.00013390753772627486,-0.006220904594242391,0.002867190399033855,0.9921209560811824
2012-07-17,1,0.0003629816379959476,0.00040812815355041685,-0.005358140584081891,0.002867190399033855,0.9924816370712316
2012-07-19,0,-4.562985806534075e-05,2.0651977808949697e-05,-0.005358140584081891,0.0064553628644221555,0.9916370008454881
2012-07-23,-1,-0.0006733369978111944,-0.0005299769746496504,-0.005358140584081891,0.006927710661545626,0.9916731503331836
2012-07-25,-1,-0.0009039848249690659,-0.0007373142933532043,-0.005358140584081891,0.006927710661545626,0.9924901303266942
2012-07-27,1,8.448523646329011e-05,0.0001369617301852911,-0.005894159079207485,0.0035118484268942176,0.9935124615436076
2012-07-31,-1,-0.00015907346161416727,-0.00012166295116680014,-0.005334797322185283,0.004624411624648333,0.9941416185583194
2012-08-02,1,6.320388800747556e-05,7.499735439746348e-05,-0.005327042546244312,0.0035118484268942176,0.9950035048880337
2012-08-06,1,3.9711254477967534e-05,6.681870461754924e-05,-0.004503349534310036,0.004624411624648333,0.994889593316055
2012-08-08,-1,-0.00018893003529053877,-0.00016576808870963748,-0.0017007844907777768,0.0054036899981794746,0.9948522221450677
2012-08-10,-1,-0.00031648910981935666,-0.0002680543645579035,-0.0019183761428333487,0.0054036899981794746,0.9944460632183268
2012-08-14,-1,-0.0006062661051435789,-0.0005040667752074431,-0.0008361481995619479,0.006263685543978563,0.9941240760028254
2012-08-16,1,0.0006348289223380888,0.00072496488352641,-0.0008361481995619479,0.006263685543978563,0.994688040726078
2012-08-20,1,0.0008091223946368985,0.0009169426652031956,-0.00387352004797198,0.005249452689625266,0.994477399347568
2012-08-22,1,0.00033521683241877903,0.0003777418511862145,-0.0014338686434092382,0.005249452689625266,0.9945517754926696
2012-08-24,1,0.0004501506081242008,0.000526367843857844,-0.0014338686434092382,0.005249452689625266,0.9947445079765544
2012-08-28,1,0.0006108741813497087,0.0007052896523149117,-0.004486537527272389,0.004269806900024882,0.9936630924583114
2012-08-30,0,-1.8955348080756652e-05,2.8858699905604353e-05,-0.003422433652547112,0.004269806900024882,0.9937307496302288
2012-09-04,1,0.000765851736818846,0.0008449053086232872,-0.003422433652547112,0.004269806900024882,0.9940335884035566
2012-09-06,1,0.0009527578646569283,0.0010474797458809276,-0.003422433652547112,0.006262299594517875,0.9935943271711121
2012-09-10,1,0.0005587181481418402,0.0006099102874964915,-0.0031077190019374373,0.00695584271512704,0.9938294770623688
2012-09-12,1,0.0016890891620308292,0.0019288425242542082,-0.003422433652547112,0.004709323441051433,0.994027669802668
2012-09-14,1,0.002295055498048287,0.002629697909155476,-0.004541722030908232,0.0027017969101101862,0.993861989313494
2012-09-18,1,0.002422043297891172,0.0028284321015187154,-0.0034800105984034236,0.0036115883274979166,0.9945783881280914
2012-09-20,1,0.0027707032660961215,0.0032295418156423734,-0.0034800105984034236,0.004415302913314656,0.99408587872226
2012-09-24,1,0.002648200398475768,0.0031303414765345115,-0.003986281497464135,0.004415302913314656,0.9932420182543958
2012-09-26,1,0.001489116628330974,0.0017692231375007368,-0.0037405434522673068,0.004415302913314656,0.9943616541170881
2012-09-28,1,0.0010009444839369891,0.0011818017779640635,-0.0037405434522673068,0.006221860711877216,0.9942477041328233
2012-10-02,1,0.0009652075105534465,0.0011208885492725571,-0.005323320592499882,0.0064568497552058195,0.9937547125010806
2012-10-04,1,0.0014870313434785403,0.0016690094509774738,-0.005323320592499882,0.0032536588012997665,0.9942401482783069
2012-10-08,1,0.0014558295495494045,0.0015997091951910872,-0.006157396799102103,0.0032536588012997665,0.9935763394328606
2012-10-10,1,0.0007817268738964541,0.000802004681949393,-0.005525800018289725,0.0038728289915227728,0.9936923296587402
2012-10-12,1,0.0006822683427846633,0.0006847882963007535,-0.005145075689233,0.0038728289915227728,0.9940727041072766
2012-10-16,1,0.0011124847657728826,0.0011882532396133311,-0.005622662089301458,0.0035209609417759125,0.9937427929569824
2012-10-18,1,0.0013662311800166547,0.0014696819434269382,-0.005622662089301458,0.004824245736516642,0.9931440553655428
2012-10-22,1,0.00048705931001255423,0.000530543951453337,-0.005145075689233,0.006029783262982973,0.9938303570681831
2012-10-24,0,0.0,0.0,-0.0020623241152391827,0.0076420981452599065,0.993699812767276
2012-10-26,0,0.0,0.0,-0.004996423371204575,0.006029783262982973,0.9937482396727272
2012-11-01,0,0.0,0.0,-0.002251466029748901,0.005634923009061167,0.9943546469455162
2012-11-05,0,0.0,0.0,-0.003271797180328436,0.005634923009061167,0.99434387943293
2012-11-07,0,0.0,0.0,-0.002329582398718683,0.005634923009061167,0.9952895692414134
2012-11-09,0,0.0,0.0,-0.002329582398718683,0.0048914282149135555,0.9950900419091456
2012-11-13,0,0.0,0.0,-0.003271797180328436,0.0048914282149135555,0.9948150696543429
2012-11-15,0,0.0,0.0,-0.0037422439152650674,0.0048914282149135555,0.994691736307439
2012-11-19,0,0.0,0.0,-0.0051404872014273375,0.002409617628891229,0.9952148082784744
2012-11-21,0,0.0,0.0,-0.0051404872014273375,0.0020172334619482715,0.9952003217401204
2012-11-26,0,0.0,0.0,-0.006044079932293514,0.001039362435236844,0.9949709541169941
2012-11-28,0,0.0,0.0,-0.00514163251219491,0.001039362435236844,0.9950014512042633
2012-11-30,0,0.0,0.0,-0.005592290481427367,0.001039362435236844,0.9948397272377326
2012-12-04,0,0.0,0.0,-0.005592290481427367,0.0020172334619482715,0.9935804058232323
2012-12-06,1,2.5201369636942736e-05,3.069094410459312e-05,-0.005592290481427367,0.0036465065582441053,0.9928321770964174
2012-12-10,-1,-0.0001784901947524299,-0.00016398848619225302,-0.005592290481427367,0.0036465065582441053,0.9930519041233525
2012-12-12,-1,-0.0005863743088144334,-0.0005096213814312267,-0.0050311258606994015,0.0048949735141274285,0.9931401344421383
2012-12-14,-1,-0.0010783127028204803,-0.0009373912093184459,-0.004925082153877096,0.0048949735141274285,0.99358163210524
2012-12-18,-1,-0.0011227165264472557,-0.0009612672217746989,-0.004863044540376461,0.0048949735141274285,0.9937350256407332
2012-12-20,-1,-0.00012685952673615922,-0.00012467394617079731,-0.004863044540376461,0.0048949735141274285,0.9935495706400584
2012-12-24,-1,-0.0011987024885206975,-0.0010412856695533814,-0.004925082153877096,0.0048949735141274285,0.9939961413540993
2012-12-27,-1,-0.0015848116639533623,-0.001381793447775323,-0.005119271997150293,0.005405415522030032,0.9931279480737827
2012-12-31,0,0.0,0.0,-0.004644680717113674,0.006791464198855922,0.9926269804160045
2013-01-03,0,0.0,0.0,-0.00401944047524296,0.009950739773208603,0.9926025498120883
2013-01-07,-1,-0.0007367634378539387,-0.0005939016994700212,-0.00401944047524296,0.008542852214554544,0.9926469234187061
2013-01-09,-1,-0.0011283731577798736,-0.0009424336532218459,-0.003474738383374764,0.008542852214554544,0.9928188608031958
2013-01-11,-1,-0.0004314923926422756,-0.0003727988219322197,-0.003474738383374764,0.008542852214554544,0.9931775000623928
2013-01-15,-1,-0.0005812304904052237,-0.000513747572058389,-0.002629852978376062,0.009950739773208603,0.9923735184651161
2013-01-17,-1,-0.0006063115793155194,-0.0005229249069486259,-0.0017805632116341583,0.009950739773208603,0.9923732806926823
2013-01-22,-1,-0.0002690834769559934,-0.0002207185950825144,-0.002629852978376062,0.009195254406741142,0.9927210510954628
2013-01-24,-1,-0.0006998786836680853,-0.0006107871605400593,-0.0017805632116341583,0.009195254406741142,0.9926138275795799
2013-01-28,-1,-0.00043834343476508586,-0.0003737393583183468,-0.0017805632116341583,0.00871761723323968,0.9925189895269577
2013-01-30,1,0.0004834957288617664,0.0005623364812966313,-0.002629852978376062,0.007542906703282141,0.9929246471040077
2013-02-01,1,0.0015065783405965529,0.0017273952149397666,-0.0037790347420493535,0.007269398582161483,0.9939985964764554
2013-02-05,0,0.0,0.0,-0.004896260864774471,0.007269398582161483,0.9935656024346659
2013-02-07,0,0.0,0.0,-0.004896260864774471,0.007284998160160445,0.9934925264891462
2013-02-11,0,0.0,0.0,-0.004896260864774471,0.007284998160160445,0.9933309626236475
2013-02-13,1,0.003093475697721424,0.003570211626910129,-0.004896260864774471,0.007682541242380464,0.9936303683295915
2013-02-15,0,0.0,0.0,-0.004896260864774471,0.007682541242380464,0.9935698981694231
2013-02-20,0,0.0,0.0,-0.003928939000170723,0.008871038587345165,0.9929681022335543
2013-02-22,0,0.0,0.0,-0.0020171298076742316,0.008871038587345165,0.9931906615562014
2013-02-26,0,0.0,0.0,-0.0013183090385713381,0.008085111597130788,0.9942115874646129
2013-02-28,0,0.0,0.0,-0.0012412450329775965,0.008805808128029344,0.9941012546547746
2013-03-04,0,0.0,0.0,-0.0012412450329775965,0.008805808128029344,0.9942346781133354
2013-03-06,0,0.0,0.0,-0.0012412450329775965,0.00807052700132101,0.9948229828553329
2013-03-08,0,0.0,0.0,-0.0013183090385713381,0.00807052700132101,0.9945994059816012
2013-03-12,1,0.0013174863382624858,0.0014925047226711232,-0.0013183090385713381,0.00807052700132101,0.9950476685683637
2013-03-14,1,0.002147062473021364,0.002436383853177483,-0.0016002643235471397,0.006991139344342184,0.9949678345564771
2013-03-18,1,0.002130473677818249,0.0024307125962529747,-0.0019341643237030057,0.006991139344342184,0.9943859153423544
2013-03-20,1,0.0022656431886756137,0.0025197085944197234,-0.0022191625877562085,0.006329311371406777,0.9944066529642134
2013-03-22,1,0.0020700878977640154,0.0022687996928124486,-0.0022191625877562085,0.005911911322190065,0.9947106403747472
2013-03-26,1,0.00232064774524873,0.002564045420235331,-0.0022191625877562085,0.0056890336765853386,0.994968850103234
2013-03-28,1,0.0029229559215031274,0.0032625476852128775,-0.0022191625877562085,0.003140022993259944,0.9951013600565871
2013-04-02,1,0.0028644776108278577,0.0031962234738295635,-0.0022167055511313812,0.0037960559461903388,0.9952325522724088
2013-04-04,1,0.002293411321388935,0.0024994616411661446,-0.0008391319487713108,0.004324292248233415,0.9954204378576872
2013-04-08,1,0.002178316080931747,0.0023796165194991583,0.00023493299905654456,0.005911911322190065,0.9954462162699399
2013-04-10,1,0.0021843606471880425,0.002376322187896664,0.0006566835590963154,0.006438906357887937,0.9955316708295249
2013-04-12,1,0.0022436623756226497,0.002427264435791183,0.000353531539355754,0.00442502480770255,0.9964625323989206
2013-04-16,1,0.0021783528167569777,0.002395505518706254,0.0006566835590963154,0.007380875060773581,0.9965675429332623
2013-04-18,1,0.0021061434281672677,0.0023318081468876664,0.001183966351647986,0.008239479499107406,0.9966972500695525
2013-04-22,1,0.0024107085962587534,0.002671927689196192,0.0,0.008239479499107406,0.9963099886504531
2013-04-24,1,0.00214706570288002,0.002337049059856021,-0.0001645600745330553,0.008239479499107406,0.9956489575170543
2013-04-26,1,0.002191317249778486,0.0024035414502235185,-0.0011007420747463994,0.008239479499107406,0.9951535738311158
2013-04-30,1,0.002064830216467402,0.0022503605541910913,-0.0025460128041659355,0.008239479499107406,0.9945691425479656
2013-05-02,1,0.0023737766296086952,0.002585324231527348,-0.0031844578134326202,0.008118786153514005,0.9934050132603086
2013-05-06,1,0.0026476693710277698,0.002875441539817796,-0.004229225615994986,0.007588624464451108,0.9928720006151704
2013-05-08,1,0.0028238217573155785,0.0030560742805082496,-0.005247969211921086,0.007588624464451108,0.9920339606080927
2013-05-10,1,0.00247870958549766,0.0026157269596252634,-0.005247969211921086,0.008174660698805073,0.9916400143723817
2013-05-14,1,0.0028217594692531186,0.003008658645395012,-0.007092021943697889,0.00305586943325054,0.99164583438844
2013-05-16,1,0.0033564431871954702,0.0036175059390564945,-0.007092021943697889,0.00305586943325054,0.9908113318469541
2013-05-20,1,0.002670107286887816,0.002788578130320342,-0.007092021943697889,0.008891374301771837,0.9908100816715076
2013-05-22,1,0.0016910759653924862,0.0017068722927250338,-0.007895823767257878,0.008891374301771837,0.9887234950154397
2013-05-24,1,0.001128710600989559,0.001218161862241509,-0.008549339088073229,0.009844210183574342,0.9883934526866387
2013-05-29,1,0.001325969697263278,0.0013824757605897164,-0.008549339088073229,0.009844210183574342,0.9886536354297303
2013-05-31,1,0.0006880944609909429,0.0008007635235373696,-0.007177038344478468,0.01129828952904144,0.9893518218650403
2013-06-04,-1,-0.0002795320358439375,-3.619025159978025e-05,-0.004790385756282778,0.011732866663900242,0.989452046987817
2013-06-06,-1,-0.0002632707366991366,-1.933962922175765e-05,-0.003398630696187107,0.01129828952904144,0.989996820688161
2013-06-10,0,-0.0001672863363501992,8.185526187222284e-05,-0.003398630696187107,0.009844210183574342,0.9904597648784641
2013-06-12,0,0.0,0.0,-0.0030013582672614014,0.01129828952904144,0.9898278501981361
2013-06-14,0,0.0,0.0,-0.0033612320366975656,0.009844210183574342,0.9904432502812616
2013-06-18,0,0.0,0.0,-0.00399084276231794,0.006796178996689555,0.9907191179798478
2013-06-20,0,0.0,0.0,-0.003138889458274393,0.007646413742552997,0.993206129353715
2013-06-24,0,0.0,0.0,-0.003138889458274393,0.006796178996689555,0.9934925250001464
2013-06-26,0,0.0,0.0,-0.0033612320366975656,0.005768881624294823,0.9932733413678846
2013-06-28,-1,-0.00024357693353959297,-8.015219287956535e-05,-0.0033612320366975656,0.004606689062473027,0.9939558171420412
2013-07-02,0,0.0,0.0,-0.003336293480318004,0.004606689062473027,0.9938359417230958
2013-07-05,0,0.0,0.0,-0.003336293480318004,0.005789494188087895,0.9934879159949586
2013-07-09,-1,-0.0011635501276341955,-0.0010813390724296824,-0.004998429867792614,0.005205491869202351,0.9929856486970754
2013-07-11,1,0.0012838872149897572,0.0013272526386347617,-0.005326528757984387,0.003437366083899515,0.9935174561065043
2013-07-15,1,0.0006352782460790816,0.0007120276792327615,-0.00603108180869036,0.002668099466769398,0.9934750130450936
2013-07-17,0,-8.235889636311724e-05,7.494635230578415e-05,-0.005792679381913506,0.0042308363302573536,0.9934145419292846
2013-07-19,0,-0.00012752064368394273,5.702536128786458e-05,-0.006547608989534584,0.002668099466769398,0.9925844853194405
2013-07-23,-1,-0.0004927693734184713,-0.0002638232121758262,-0.005792679381913506,0.0037864548927755695,0.9927211087280485
2013-07-25,-1,-0.0012357891934850387,-0.0009096391135931176,-0.005792679381913506,0.0037864548927755695,0.9930187529344282
2013-07-29,0,0.0,0.0,-0.006547608989534584,0.0075026369092348905,0.9920187144604895
2013-07-31,0,0.0,0.0,-0.007993608471369821,0.0023947126148870152,0.9918880640323731
2013-08-02,0,0.0,0.0,-0.010885497150424195,0.0005144748304743514,0.9914487191215793
2013-08-06,0,0.0,0.0,-0.008693120545910173,0.0029572794370079153,0.9905536608599969
2013-08-08,-1,-0.0010304027087678315,-0.000767620886617169,-0.008693120545910173,0.005379902696572383,0.9906958905229233
2013-08-12,-1,-0.001224589270367,-0.0009595364699269215,-0.007977913265579612,0.007701960503399975,0.9897654768738441
2013-08-14,-1,-0.0009227387499030141,-0.0006976914416902526,-0.007887730527298005,0.007166078204462287,0.9904006513923248
2013-08-16,-1,-0.0017646514986418343,-0.001448497694781171,-0.007360342193265532,0.007667548176598661,0.9905227686836185
2013-08-20,-1,-0.0011480964870456997,-0.0009274461865732719,-0.007360342193265532,0.007638226073771922,0.9904147299970353
2013-08-22,-1,-0.0016414042080811946,-0.0013617888966679574,-0.006601421382315833,0.007638226073771922,0.9904680097404893
2013-08-26,-1,-0.0020380078909528563,-0.0016999530592831337,-0.006601421382315833,0.007832795475196662,0.9904926158627951
2013-08-28,-1,-0.002541002523184092,-0.00215574464769937,-0.002708153252020874,0.007832795475196662,0.9909520334477504
2013-08-30,-1,-0.002834084291116223,-0.0024185840471962336,-0.005022192717660723,0.007230934671603867,0.9918013669608988
2013-09-04,-1,-0.0012499816023747012,-0.0010481839536846645,-0.005022192717660723,0.007230934671603867,0.9931193202396781
2013-09-06,-1,-0.0011724542625608395,-0.0009714720995786372,-0.006006171876189396,0.007230934671603867,0.9927611701123675
2013-09-10,-1,-0.000532541170340936,-0.0003934365661481339,-0.006424286024496007,0.006255046207706138,0.9938624609323741
2013-09-12,-1,-0.0005199945005954329,-0.000391910511219653,-0.006424286024496007,0.006898147048368849,0.9931890444213067
2013-09-16,-1,-0.0006195962127050205,-0.00048105615091202143,-0.006006171876189396,0.007832795475196662,0.9930735699892601
2013-09-18,-1,-9.936459607376411e-05,-2.409170281266482e-05,-0.006030342197818583,0.008203482526867142,0.9929076137312153
2013-09-20,-1,-0.0002915059540820027,-0.00019823333227913056,-0.0058917030651901466,0.009809546504517,0.9923060243289852
2013-09-24,-1,-7.751205876903994e-05,-3.364204471221584e-05,-0.00299530444323855,0.011165128069970744,0.9924971525665097
2013-09-26,1,0.0001298879515300356,0.00013819753407975707,-0.002727484835467508,0.011165128069970744,0.9924351694794669
2013-09-30,-1,-5.378346234410504e-05,-5.0526000106617945e-05,-0.0010569736166596282,0.011165128069970744,0.9926354670060189
2013-10-02,1,0.0003830687965231432,0.00044297003356405583,-0.0010569736166596282,0.009809546504517,0.9934349765101598
2013-10-04,1,0.0005655547896791216,0.0006854629120975496,-0.0012083193920111321,0.009809546504517,0.9940345052166379
2013-10-08,1,0.0005265301445718984,0.0006558418141768868,-0.0012083193920111321,0.009809546504517,0.9941124755215485
2013-10-10,1,0.0010839280489757484,0.001278452237997473,-0.0023669745416922882,0.008352563243599183,0.9942190780773524
2013-10-14,1,0.001482697450957037,0.001708428305906663,-0.0023669745416922882,0.006444691444932691,0.9943699704817973
2013-10-16,1,0.001576816040669262,0.0018021146649517012,-0.0017823276039932697,0.005335726945580764,0.9949952609988473
2013-10-18,1,0.0022337532648663274,0.0025434691803240686,-0.002084717460503107,0.004602131137555801,0.995225599053392
2013-10-22,1,0.0023327819646056912,0.002620486214127712,-0.004543003302587523,0.0031538988965464387,0.994863343867924
2013-10-24,1,0.0019489542056182825,0.002150799701276514,-0.004543003302587523,0.003964114828770916,0.9950555280468767
2013-10-28,1,0.0017529196158515303,0.0019351440389085853,-0.004543003302587523,0.004602131137555801,0.9949626398149063
2013-10-30,1,0.001954951898497349,0.002183775941887534,-0.005417369817403868,0.004602131137555801,0.9944384789878296
2013-11-01,1,0.0015995574821024462,0.0017681268925716022,-0.007184527800862842,0.004602131137555801,0.9939327562713913
2013-11-05,1,0.0017339852030887524,0.0019550447655097463,-0.0077028755199670075,0.004602131137555801,0.9934228723043302
2013-11-07,1,0.001959235517416627,0.0022515545673168803,-0.007184527800862842,0.005165762570281769,0.9933347874690835
2013-11-11,1,0.0013899523754107464,0.0014901099041984606,-0.007184527800862842,0.004602954507234697,0.9934830369745109
2013-11-13,1,0.0014161074023721029,0.0015113764882345726,-0.0077028755199670075,0.004141377426709064,0.9927742809290439
2013-11-15,1,0.0017420864969177729,0.0018996517172815636,-0.0077028755199670075,0.0031904669205803002,0.9930295091331882
2013-11-19,1,0.0013125035049862963,0.001432853359280124,-0.007361179700625592,0.004141377426709064,0.9933330550343622
2013-11-21,1,0.001555248189253865,0.0017238580945500499,-0.007361179700625592,0.003900913264524224,0.9932676150877758
2013-11-25,1,0.0014892014577996258,0.001655138373308999,-0.006527554680162995,0.00311031219985202,0.993834811902206
2013-11-27,1,0.0013005037289323543,0.0014466012709339316,-0.0051758643657265554,0.00370018616268233,0.9942152304474111
2013-12-02,1,0.0010603093813179231,0.0012107693340350232,-0.0017949140181446213,0.005243825883872427,0.9947141114212451
2013-12-04,1,0.0006163557537790723,0.0007085025585515201,-0.0017949140181446213,0.005243825883872427,0.9944880162827886
2013-12-06,1,0.0010479417469069067,0.0011619080208808336,-0.0017949140181446213,0.004532560995523459,0.9942576838096058
2013-12-10,1,0.001120203706586518,0.0012598396455533983,-0.0017949140181446213,0.004641644578346747,0.9937936481259654
2013-12-12,1,0.0004195518051721554,0.00045164898244523386,-0.001303232537864484,0.004641644578346747,0.994175626216848
2013-12-16,1,7.09801011623094e-05,0.00010895553711661628,-0.0005426041154247868,0.006609344562955271,0.9933042476245353
2013-12-18,-1,-0.0001664526263304323,-8.639417006214931e-05,-0.0005426041154247868,0.0057957284574943445,0.9936606568043477
2013-12-20,1,0.0002194233309218245,0.00022777195734015825,-0.0005413957992172711,0.007678956352440263,0.9930542971121219
2013-12-24,1,0.0006282473519253679,0.0007043933603029134,-0.0037596540116033635,0.007678956352440263,0.9911471723989185
2013-12-27,1,0.0004542962497246271,0.0004769962705473073,-0.00618002937284769,0.008391944692147364,0.9894796310436451
2013-12-31,1,0.00039251929101222547,0.0004129327338422736,-0.009349754713203135,0.008391944692147364,0.9890603193584154
2014-01-03,-1,-0.00023083155146256954,-0.0001582392500380236,-0.009349754713203135,0.008391944692147364,0.9876561203274651
2014-01-07,1,0.0007048262684047986,0.0007597403318873217,-0.009349754713203135,0.007678956352440263,0.9885773295467873
2014-01-09,1,0.000612014113030657,0.0006141904752302262,-0.009349754713203135,0.007678956352440263,0.9885266392115861
2014-01-13,1,0.0004274217712347993,0.00042939998226143887,-0.009349754713203135,0.008246087951191493,0.9884539393078103
2014-01-15,1,0.000691111405706843,0.0006942234436697832,-0.00945206359588291,0.007738246823709109,0.9886098491215404
2014-01-17,1,0.00018411127771267467,0.00025412832975152004,-0.00945206359588291,0.007738246823709109,0.9888595493021258
2014-01-22,1,0.0003760339047489714,0.00044593750272373014,-0.00945206359588291,0.006317315999747836,0.989029220748323
2014-01-24,-1,-0.0010899383996624125,-0.0008302499754921738,-0.00837374173381704,0.006317315999747836,0.9908077214964446
2014-01-28,-1,-0.0001043090207380317,-1.6585200626007782e-05,-0.007174085184251564,0.00410102373075652,0.9922791527081921
2014-01-30,-1,-0.0008100389738983506,-0.0006390610715069176,-0.003930530120721238,0.006081715334428952,0.9925126990970206
2014-02-03,-1,-0.0016468866413600267,-0.001403354004966173,-0.002334975463648442,0.007026346519248657,0.9935664707005747
2014-02-05,-1,-0.001318591774394235,-0.001107607539889938,-0.002334975463648442,0.007828048122512692,0.9936803171927917
2014-02-07,-1,-0.001086106099371346,-0.0008973207832487625,-0.002334975463648442,0.007026346519248657,0.9942903120877693
2014-02-11,-1,-0.0006238583615470576,-0.0005153496923362587,-0.0035747897629303436,0.00561416301778486,0.994540107810161
2014-02-13,-1,-0.0008678245328592063,-0.0007120853507503783,-0.0035747897629303436,0.0048131038193992785,0.9947564454247261
2014-02-18,-1,-0.0008430770422943974,-0.0006941414066227102,-0.0035747897629303436,0.00561416301778486,0.9941222581434652
2014-02-20,-1,-0.0007773066299727546,-0.0006257661991189429,-0.004107332009119832,0.005306841910094946,0.9940342181793175
2014-02-24,-1,-0.0015001957386609722,-0.0012527332077745296,-0.002099489713070348,0.005306841910094946,0.994285693542828
2014-02-26,-1,-0.00106987765540215,-0.0008940631501000868,-0.002099489713070348,0.005306841910094946,0.9945615760463908
2014-02-28,-1,-0.0008792425343404473,-0.0007095330719554659,-0.002868332511196061,0.004731534285107527,0.9947333507151721
2014-03-04,-1,-0.0006353698415438095,-0.0004802931332789022,-0.002868332511196061,0.005062133307219692,0.9946067388154971
2014-03-06,-1,-0.00020712962491279045,-0.0001314442539066902,-0.0039479438025404046,0.005062133307219692,0.9945941019349046
2014-03-10,1,8.046637707355813e-05,9.696216351719628e-05,-0.006038943275082403,0.005062133307219692,0.9915705190616446
2014-03-12,-1,-0.00019493197518759536,-0.00014650044356278422,-0.007698486635721471,0.005799918822021852,0.9899646261862415
2014-03-14,-1,-9.95618624971815e-05,-9.53549660914532e-05,-0.007698486635721471,0.006556961576224346,0.9890919791067384
2014-03-18,1,0.0006953870216929088,0.0008251068995409614,-0.007698486635721471,0.006556961576224346,0.9893857804107712
2014-03-20,1,0.0005593630537397804,0.0006622476632395071,-0.00502113183022124,0.006556961576224346,0.9897267698122074
2014-03-24,1,0.0004165991202889648,0.0004903422616673287,-0.00502113183022124,0.006556961576224346,0.9895605108577643
2014-03-26,1,0.0005860119671222393,0.0007104950393742961,-0.006426089769739983,0.006556961576224346,0.9892373310806244
2014-03-28,1,0.0002686239754694598,0.00031834949910494617,-0.0048242431559570595,0.006556961576224346,0.9893673918382428
2014-04-01,1,0.0009213213424057514,0.0010476525981997116,-0.0048242431559570595,0.006364258993881333,0.9897117057622129
2014-04-03,1,0.0006870998600005683,0.0007698827188912527,-0.007056551929138323,0.005729404155676497,0.989748460822269
2014-04-07,-1,-0.0010035167622616042,-0.0009146700483415438,-0.004747337790611091,0.005729404155676497,0.9927681326799085
2014-04-09,-1,-0.0006710325475691197,-0.0006295495345650773,-0.003552796752942941,0.006128490931445577,0.9939321916809
2014-04-11,-1,-0.0005233592275648686,-0.0005073959005492743,-0.00248658118285971,0.006721709584740129,0.9944924826814637
2014-04-15,-1,-0.0004768717594694573,-0.0004365556457722598,-0.004389346379449974,0.005686116385451792,0.9945824226152657
2014-04-17,-1,-0.0005211546452094383,-0.0004870573341519754,-0.00487061107618657,0.006673123317262073,0.9942932686055217
2014-04-22,-1,-0.0006776721893266437,-0.0006232176932265917,-0.00487061107618657,0.006673123317262073,0.9943479872006231
2014-04-24,-1,-0.0009139081260225324,-0.0008288705137724444,-0.004389346379449974,0.00844112814307402,0.9940405850276058
2014-04-28,-1,-0.0010963394990006314,-0.0009657517397028631,-0.0025433615752618443,0.00844112814307402,0.9940701652208874
2014-04-30,-1,-0.0008197281330415063,-0.0007075287948704581,-0.0048452126502121695,0.006673123317262073,0.9944231056882744
2014-05-02,-1,-0.0009049233226902334,-0.0008152219161281509,-0.0033206740064337763,0.007509581024454902,0.9944167732865451
2014-05-06,-1,-0.001209661683774346,-0.0010754291485173021,-0.0026568444011238045,0.007509581024454902,0.9945332720995393
2014-05-08,-1,-0.0008493032382738649,-0.0007322691895789421,-0.0033206740064337763,0.004732357780104191,0.9950956017065472
2014-05-12,-1,-0.0003328114324473178,-0.00027495209206017553,-0.0048452126502121695,0.0024717590563562266,0.9958354260031266
2014-05-14,-1,-0.0008684996488228651,-0.0007525166525416939,-0.003264901874125724,0.003425688569854497,0.9959966597455752
2014-05-16,-1,-0.000576175656313608,-0.0004965967583783859,-0.003264901874125724,0.002796771190842413,0.9962803135822758
2014-05-20,-1,-0.000564168616136573,-0.0004930560271098636,-0.003264901874125724,0.004356105841924559,0.9954769237400978
2014-05-22,-1,-0.0002179187630530424,-0.00019128212783363547,-0.003264901874125724,0.003425688569854497,0.9957958546343942
2014-05-27,1,0.00017705615513188364,0.0002212335434677315,-0.003264901874125724,0.00395417530021803,0.9957834750762178
2014-05-29,-1,-0.00019588540806803073,-0.0001647874857513074,-0.003264901874125724,0.00395417530021803,0.9955851735538325
2014-06-02,1,0.0005378244695967044,0.0006568746491682586,-0.0030932594169482703,0.00395417530021803,0.9960058579263699
2014-06-04,1,0.0008674850866960723,0.0010562213681169046,-0.004683877066100139,0.004143382367249657,0.9951317270060801
2014-06-06,1,0.0003966304909766043,0.000502305202178772,-0.004683877066100139,0.004143382367249657,0.9949548979759973
2014-06-10,1,0.000630527264798027,0.0008131537778874576,-0.003884325347710732,0.004656577274255506,0.9948720698389725
2014-06-12,1,0.0006143120706565113,0.000779900560147224,-0.0028541321666113568,0.004297786673523846,0.99503582900979
2014-06-16,1,0.0009793555814196363,0.0012366617051010219,-0.0028490341084540455,0.004297786673523846,0.995225672132097
2014-06-18,1,0.0008468261734708134,0.0010000128500133529,-0.003875428137491788,0.003758021063464829,0.9953566263578603
2014-06-20,1,0.0011239053277809488,0.0013451921943105631,-0.0043645644904061216,0.004139218286691394,0.9950171492557554
2014-06-24,1,0.0011080626146600236,0.0012865643655194357,-0.0043645644904061216,0.004297786673523846,0.9948485276346276
2014-06-26,-1,-0.000317806196851288,-0.00020402811834126255,-0.0043645644904061216,0.004297786673523846,0.9942963937726924
2014-06-30,1,0.00010304877221142041,0.0001489649762480935,-0.004740245252616022,0.004140599661646206,0.993498669660491
2014-07-02,1,0.0003560654947203784,0.00036883088748080895,-0.004740245252616022,0.004140599661646206,0.9929838002087626
2014-07-07,1,0.00041400614868891694,0.0004528771136732908,-0.004800857784452903,0.004140599661646206,0.99303128632735
2014-07-09,1,0.0005090410563322752,0.0005556267233895668,-0.005801933869105313,0.004140599661646206,0.9925506265237096
2014-07-11,1,0.0006229786854025448,0.0006907060831016915,-0.005801933869105313,0.003980334697877937,0.9927762266243043
2014-07-15,1,0.0005154855089677369,0.0005838966741981842,-0.005801933869105313,0.003980334697877937,0.9929292251448423
2014-07-17,-1,-0.0002630087910840583,-0.00020201519613901407,-0.004841041167599418,0.004478197267133721,0.9926098706883317
2014-07-21,1,8.153501360062693e-06,2.8810007127652096e-05,-0.004721830599966827,0.004478197267133721,0.9923490372242156
2014-07-23,1,0.0006296726282960384,0.0007180661951208061,-0.004721830599966827,0.004054191682792748,0.9928080377721169
2014-07-25,1,0.00010364648399669747,0.00016128189602369487,-0.0016848678060448871,0.005122638559200844,0.9933512036425689
2014-07-29,-1,-0.00020786084590141562,-0.00017598912193278503,0.00028472319460672696,0.005684167898005561,0.9937717568076284
2014-07-31,-1,-0.0002275878755586333,-0.00019547971160193618,-5.298184365437253e-05,0.004572196403800564,0.9954491855804937
2014-08-04,-1,-0.0005658775462102787,-0.0005383425679813152,-5.298184365437253e-05,0.004572196403800564,0.9953603846102949
2014-08-06,-1,-0.0006532196789353413,-0.000597540901171063,-0.000852539460576814,0.003931447856807043,0.9957677509549696
2014-08-08,-1,-0.00010770578173569344,-5.6458369864596883e-05,-0.001494881536637693,0.004572196403800564,0.9956969079688245
2014-08-12,1,3.315940691526274e-05,9.492350541066781e-05,-0.0034017104510490085,0.004572196403800564,0.9952676012402826
2014-08-14,1,0.0006452549339660604,0.0007927677625742624,-0.004120025252857036,0.003098194672553624,0.9954121277216362
2014-08-18,1,0.0010819365995327116,0.0012841112915884102,-0.003651802307387738,0.0028181199924382236,0.995892627649893
2014-08-20,1,0.0009660423839872697,0.0011424833621137519,-0.003651802307387738,0.0028181199924382236,0.9959027901312778
2014-08-22,1,0.0017620112657539828,0.002095710933599385,-0.004964543178835898,0.0020123023095776804,0.9950670025042263
2014-08-26,1,0.002080974007810674,0.0024597932721432403,-0.004964543178835898,0.0005994288965607006,0.9942979040344285
2014-08-28,1,0.000599384083087244,0.0006298562867749867,-0.00591882570487711,0.002063934777553012,0.9936234210166963
2014-09-02,1,0.00039406771921694756,0.00039530258302962,-0.006959483962537934,0.0021891120537424176,0.9932812629408919
2014-09-04,-1,-0.00011433810152776771,-5.1894755052306406e-05,-0.006978319005340902,0.0021891120537424176,0.9934844770376005
2014-09-08,1,0.00023280602103564898,0.0002330407336873206,-0.006978319005340902,0.004144426263897168,0.9927055820015132
2014-09-10,0,-2.1886023434779996e-05,6.176556142750087e-06,-0.006978319005340902,0.006226008084130661,0.9922017201579542
2014-09-12,-1,-0.0004627546025677763,-0.00037755666101740274,-0.008538342815916753,0.006226008084130661,0.992273559328312
2014-09-16,-1,-0.0008151335805954695,-0.0006767209660509194,-0.009615813183033388,0.006226008084130661,0.9917359596980512
2014-09-18,-1,-0.0008668209447962986,-0.000719735871386752,-0.009615813183033388,0.006226008084130661,0.9915022460410997
2014-09-22,-1,-0.0011332091452029716,-0.0009696877334478375,-0.009083363067719091,0.006939307063924662,0.9909526368578272
2014-09-24,-1,-0.0008672506303127062,-0.0007210128024018707,-0.009083363067719091,0.006939307063924662,0.9912446579245522
2014-09-26,-1,-0.001006336436960185,-0.0008335437771589785,-0.00633806267691038,0.006939307063924662,0.9921258963092667
2014-09-30,-1,-0.0008040211916656596,-0.0006764430826457323,-0.004124750347031002,0.0067308594682021225,0.9923083672819799
2014-10-02,-1,-0.0008638219042646196,-0.0007583824626598477,-0.004124750347031002,0.008457136355365637,0.9912481616455789
2014-10-06,-1,-0.0004281834256864951,-0.00035107876576197705,-0.004124750347031002,0.008457136355365637,0.9915893366758055
2014-10-08,-1,-0.0007113563966319315,-0.0006048637649327597,-0.0012158972474440727,0.0066849170561886695,0.9924569020700623
2014-10-10,-1,-0.0010158704413857208,-0.0008776401568440721,-0.000831843140060341,0.0066849170561886695,0.9927475773266186
2014-10-14,-1,-0.001139178363011455,-0.001004949621422529,-0.0007273751758304006,0.0066849170561886695,0.9932878069766398
2014-10-16,-1,-0.001352262644667194,-0.0012010588306674286,0.0002076064713347221,0.0066849170561886695,0.9932091892718632
2014-10-20,-1,-0.0006327232209448216,-0.0005615011442163128,-0.0007273751758304006,0.005749407732751903,0.9943857281257122
2014-10-22,-1,-0.00020122711623698337,-0.00018730047277764624,-0.001773875852191399,0.005025239010910573,0.9948467219793737
2014-10-24,1,0.00014795626676255956,0.0001804822532542567,-0.001773875852191399,0.004033210424897183,0.995348369357539
2014-10-28,1,0.00036140384295134815,0.0004122347815659855,-0.001773875852191399,0.003437387564584831,0.9956701617089682
2014-10-30,1,0.0007733045570058443,0.0008665572771464256,-0.0017233567532749729,0.002712520917707628,0.9971152579364817
2014-11-03,1,0.0013054661457168205,0.001468871878042535,-0.0019239610404797754,0.0020341054233799305,0.9971144143395207
2014-11-05,1,0.001352053034882505,0.001513466095220135,-0.0019239610404797754,0.002712520917707628,0.996855150087102
2014-11-07,1,0.0015399826120642735,0.0017562624639464518,-0.0017233567532749729,0.0033805962830057153,0.9968539308056732
2014-11-11,1,0.001610312214056689,0.0018364546721093748,-0.002660616115026819,0.0027667169410917117,0.9956578481507125
2014-11-13,1,0.0014977788010201746,0.001718354916978266,-0.002660616115026819,0.0035999756347370815,0.9951124016884008
2014-11-17,1,0.0012906839450693135,0.0014705266244927338,-0.006338806407660238,0.0027667169410917117,0.9945651623780061
2014-11-19,1,0.001236666153384535,0.0014176022919932126,-0.006338806407660238,0.004072622786786766,0.9938179453981215
2014-11-21,1,0.0012574412031353976,0.0014406106017349142,-0.006338806407660238,0.004072622786786766,0.9936731313748122
2014-11-25,1,0.0013125088482763636,0.0014985807595023128,-0.006338806407660238,0.004072622786786766,0.9934643852775624
2014-11-28,1,0.0012891265440110114,0.0014767655895849803,-0.006338806407660238,0.004072622786786766,0.9936450273463768
2014-12-02,1,0.001303605117434907,0.0014955206766515006,-0.006564337357810394,0.004072622786786766,0.9932091365191422
2014-12-04,1,0.0016371141708462498,0.0018635819568441235,-0.006564337357810394,0.0036864527431354583,0.9930859380653182
2014-12-08,1,0.0015287827415471258,0.001721376201809404,-0.006564337357810394,0.0036864527431354583,0.9927827802007757
2014-12-10,1,0.0008596092942760189,0.0009689969923758229,-0.006026768930300747,0.004729533238941489,0.9928408459001851
2014-12-12,1,0.0005880501872022128,0.0006756040651723567,-0.003871913557024158,0.005400455003583512,0.993518171837957
2014-12-16,-1,-0.00025838756415605716,-0.00020457657530978813,-0.003871913557024158,0.005400455003583512,0.9937291927814971
2014-12-18,1,0.00023494762622168445,0.00024884148673744313,-0.00621379478454114,0.001370420850720719,0.9936434799144197
2014-12-22,1,0.0002634007589802364,0.0002789914436767473,-0.00621379478454114,0.0016954869739942888,0.9926603233689569
2014-12-24,1,2.5280943917543332e-05,7.913245764527171e-05,-0.008015209315070975,0.0043525432353416936,0.9919851352149429
2014-12-29,1,2.6900001078643363e-05,7.904804904644694e-05,-0.009237822406181996,0.0043525432353416936,0.991200762410339
2014-12-31,-1,-0.00025107447525575305,-0.0001688757090453587,-0.009237822406181996,0.0037145588156580374,0.9915448979294494
2015-01-05,-1,-0.00046681932415282366,-0.0003641065523801028,-0.009237822406181996,0.006077617976943684,0.9906382420088524
2015-01-07,1,6.159834143054698e-06,3.3774389936961876e-05,-0.009237822406181996,0.0062658355954700725,0.9902067111059234
2015-01-09,1,0.0002698870662768386,0.00029049333049070036,-0.008387705973347787,0.0043525432353416936,0.9911947079589177
2015-01-13,1,0.00031319304417377875,0.0003406987707762223,-0.008387705973347787,0.006514937664159781,0.9907452283852408
2015-01-15,1,7.339532430683155e-05,8.355782341377812e-05,-0.008387705973347787,0.0091695705266276,0.9907006531825522
2015-01-20,-1,-0.0005279801217881279,-0.0004793511547025059,-0.005676242023523414,0.010437179406145743,0.9908822042077078
2015-01-22,-1,-9.345356073052165e-05,-9.114642230973213e-05,-0.003826162509120353,0.0091695705266276,0.9919176110217143
2015-01-26,-1,-0.00040142032940143537,-0.00036784674869081563,-0.005957328157506452,0.0091695705266276,0.9917973576130635
2015-01-28,-1,-0.0011725633100764694,-0.001029629245876696,-0.003509119786921062,0.0091695705266276,0.9919839503091951
2015-01-30,-1,-0.001467367919432013,-0.0012943183650675327,-0.003509119786921062,0.0091695705266276,0.9924813474097768
2015-02-03,-1,-0.0007136919684422695,-0.0006178196326223412,-0.005672216051712791,0.006058370551636614,0.9937422737141258
2015-02-05,-1,-0.00033906695280420257,-0.00026993853110921634,-0.006006676645666824,0.005342249652425568,0.9939339165459544
2015-02-09,-1,-0.0008057329812706401,-0.0006712500990650144,-0.006006676645666824,0.005761016284247055,0.9936549521759779
2015-02-11,-1,-0.00023146785487212297,-0.0001644651888350115,-0.006006676645666824,0.006191273710079043,0.9931217440315019
2015-02-13,-1,-9.304105078067337e-05,-1.7887044004632363e-05,-0.006785450550048386,0.006191273710079043,0.9924070047508707
2015-02-18,1,0.0006602476553749753,0.0006985498602446295,-0.006785450550048386,0.0038514225770733624,0.9928719177696949
2015-02-20,1,0.0007333531122626017,0.0007775906247080391,-0.006785450550048386,0.0021569773759235423,0.9927996107451568
2015-02-24,1,1.895169620674925e-05,6.882142230958365e-05,-0.006785450550048386,0.0021569773759235423,0.9933094042117865
2015-02-26,-1,-0.0005103210124470011,-0.0003744349667879291,-0.007023564862627769,0.005580506062291978,0.9926948935436072
2015-03-02,-1,-0.0003774628477044142,-0.0002915443143774556,-0.006119255617905928,0.006147926546683759,0.9921486115736707
2015-03-04,-1,-0.0008892176119160329,-0.0007284034802823191,-0.007617591070102964,0.006147926546683759,0.9918735803548865
2015-03-06,-1,-0.0016867421115401948,-0.0014132055425883404,-0.005571553641269164,0.006147926546683759,0.9918946232906546
2015-03-10,-1,-0.0021318170684788366,-0.0017842860770207847,-0.005369642959571919,0.007905065536281867,0.9917198786824708
2015-03-12,-1,-0.0014357576137699738,-0.001150300802006256,-0.005369642959571919,0.005799132356336122,0.9929363845124521
2015-03-16,-1,-0.0006402513685623682,-0.0004824086938709807,-0.0036159729918277695,0.005547489572548521,0.9941710754693112
2015-03-18,-1,-0.00027751003603356493,-0.00017616310042685028,-0.0037625612453604388,0.005056050459325678,0.9942280086946232
2015-03-20,-1,-0.0001757976982673301,-0.00010374305516994698,-0.005369642959571919,0.005374580043197033,0.9938490678275722
2015-03-24,-1,-0.0004441452536881354,-0.0003562767430582857,-0.003807655925647627,0.005374580043197033,0.9940568013868775
2015-03-26,-1,-0.0003821598679300188,-0.0003320735265162648,-0.0011552384906666866,0.005374580043197033,0.9937473411917572
2015-03-30,1,0.0005433857840141103,0.0006465981312285698,-0.003807655925647627,0.0049269593124861375,0.9942396045647982
2015-04-01,1,0.00017764618524209163,0.00024393288979616167,-0.003807655925647627,0.0049269593124861375,0.9939626226283839
2015-04-06,1,0.0004521008602062293,0.0005518925827731492,-0.004591243006364771,0.004344596617791128,0.9941304393123007
2015-04-08,1,0.0006515457176256534,0.000781832381377906,-0.004591243006364771,0.004344596617791128,0.9941714272841287
2015-04-10,1,0.000790267192657077,0.0009287249026358704,-0.004591243006364771,0.004344596617791128,0.9941594213606861
2015-04-14,1,0.0009886901679016782,0.0011531932378948267,-0.004591243006364771,0.003210067733775782,0.994226256721033
2015-04-16,1,0.0009484306595235485,0.0010995130953561703,-0.004591243006364771,0.003426767488662106,0.9941106684592469
2015-04-20,1,0.0009393002573547699,0.001094106761868204,-0.004591243006364771,0.003426767488662106,0.9940136557973897
2015-04-22,1,0.0008835766549993569,0.001040252804346302,-0.002944743247232831,0.006644937068783191,0.9932428453472321
2015-04-24,1,0.0017846353173254451,0.0020553213488197944,-0.00490287375126054,0.005431804606282194,0.9941761433671191
2015-04-28,1,0.0015050189953661525,0.0017391661478366506,-0.0030764895242915515,0.005431804606282194,0.9945768908665088
2015-04-30,1,0.001161497321487666,0.0013782294968058112,-0.004763597535760913,0.005431804606282194,0.9948320622195771
2015-05-04,1,0.0011679503346418941,0.0013944537292456514,-0.004411981125508985,0.005431804606282194,0.9948501544262677
2015-05-06,1,0.000599368536878145,0.0006999734054880144,-0.004411981125508985,0.0031483614449296636,0.9951191979843205
2015-05-08,1,0.0006359943976897149,0.0007149937487109575,-0.004452431402654114,0.001603164841187825,0.9951776449788448
2015-05-12,1,0.0002462478978196689,0.00025286102696374596,-0.00462154989302635,0.003265987780197009,0.9945180990338884
2015-05-14,1,0.0010853821295301633,0.001240066166295187,-0.00462154989302635,0.003265987780197009,0.9941704915242328
2015-05-18,1,0.0011271406594061423,0.001293746693772213,-0.004023769554502679,0.0033576966489909286,0.9943896940211884
2015-05-20,1,0.001864083644895847,0.002120497480941823,-0.004023769554502679,0.0015982933698981427,0.9947281376558669
2015-05-22,1,0.0016448562388793886,0.0018732358900799759,-0.003926946447233471,0.0015982933698981427,0.994938928283578
2015-05-27,1,0.0013359478270156362,0.0015030813542068699,-0.004023769554502679,0.0015982933698981427,0.9948405090487585
2015-05-29,1,0.0006913891540229974,0.0007546086456155038,-0.004023769554502679,0.0015982933698981427,0.9952139876107692
2015-06-02,1,0.0007062072861282666,0.0007863331539834544,-0.004377447381502351,0.0009955693000874496,0.9945311892673218
2015-06-04,1,0.0004040056091926638,0.0004514528807464659,-0.004295280100169024,0.0023557364647982604,0.9944303542519934
2015-06-08,1,0.00031398764157876895,0.00035219075607796873,-0.004295280100169024,0.0023557364647982604,0.994456790192782
2015-06-10,1,0.00032328531038398715,0.0003362128919709493,-0.004684623547384683,0.0022500401344010537,0.9946078601245282
2015-06-12,1,8.01786964232578e-05,0.00014201840306591435,-0.004684623547384683,0.004776635350151335,0.9948019869860701
2015-06-16,1,0.0006950394499648266,0.0007290916214162215,-0.004684623547384683,0.004776635350151335,0.9948534004547676
2015-06-18,1,0.000517942947246998,0.0005292816186271279,-0.004684623547384683,0.004754496548188293,0.9950152952290666
2015-06-22,0,-9.324452021919344e-05,2.3265644097353593e-05,-0.00504049836210187,0.004754496548188293,0.9948926196253903
2015-06-24,-1,-0.0007384471710679099,-0.0005223457698955863,-0.004684623547384683,0.004754496548188293,0.9952228270390563
2015-06-26,-1,-0.0006057698551911114,-0.00045276616772981485,-0.003644895588788736,0.004754496548188293,0.995357481518653
2015-06-30,-1,-0.0009337498497595474,-0.0007725855512748508,-0.0033390537111258954,0.005059769019005398,0.99545884196953
2015-07-02,-1,-0.0009636821192238114,-0.0007803040935515054,-0.00374077661151796,0.004754496548188293,0.9958202784803071
2015-07-07,-1,-0.0006540532272915018,-0.0005384876681069313,-0.00374077661151796,0.005059769019005398,0.9953662009934232
2015-07-09,-1,-0.00047403864403102705,-0.0004052687896183802,-0.00374077661151796,0.005059769019005398,0.9955255824547621
2015-07-13,1,0.00028583531287176714,0.0003442822599067829,-0.00374077661151796,0.0034636720613292274,0.9954554028162144
2015-07-15,1,0.00042725145630187077,0.0005130693103407952,-0.004871998458606513,0.001204402157503634,0.9950271761805172
2015-07-17,1,0.00025363708296737724,0.0002766927847421876,-0.004871998458606513,0.0010510122519660626,0.994886982506539
2015-07-21,-1,-0.00014817568969897318,-0.000110499457537195,-0.004336629429633073,0.0036476363417017655,0.994937585109853
2015-07-23,-1,-0.0004907811193850917,-0.00039842968596435997,-0.005016497057263195,0.0036476363417017655,0.9938541254777425
2015-07-27,-1,-0.0011942534620584125,-0.0009907645921964484,-0.00914971368651096,0.0036476363417017655,0.9909036130684701
2015-07-29,-1,-0.0008065495152095582,-0.0006403087601620794,-0.011061980914474592,0.0036476363417017655,0.9903830984439661
2015-07-31,-1,-0.0011965982076778776,-0.0009812096129796963,-0.011061980914474592,0.005986440411205376,0.9893997815371421
2015-08-04,-1,-0.0004256439681131269,-0.00034197401590999423,-0.011528631879763824,0.0036476363417017655,0.9880982695770387
2015-08-06,-1,-0.00045459675590572726,-0.0003852587936687016,-0.011528631879763824,0.0036476363417017655,0.9884106874505546
2015-08-10,-1,-5.920501803962942e-05,-4.515091630904381e-05,-0.012844640220199773,0.0028526558000488223,0.9870052254153466
2015-08-12,-1,-0.0005507365901977129,-0.0004762419852282209,-0.012844640220199773,0.0028526558000488223,0.9875378467360592
2015-08-14,-1,-0.0006734038441944211,-0.0005679690644821538,-0.012844640220199773,0.0006510078680512519,0.9878810152902466
2015-08-18,-1,-0.0006050543773567587,-0.0004957552016463644,-0.012844640220199773,0.0027188736177579846,0.9877308297525675
2015-08-20,-1,-0.0011365639821562339,-0.0009870827073157242,-0.011830224649595442,0.0027188736177579846,0.9884296341450948
2015-08-24,-1,-0.0031118952969157775,-0.0027161945230454905,-0.006330129824097157,0.005392164217848644,0.9910728054435596
2015-08-26,-1,-0.0027579115852941222,-0.002416482313436636,-0.005509488070948159,0.0027188736177579846,0.99224168664778
2015-08-28,-1,-0.0022285885798573398,-0.001956479615556209,-0.005509488070948159,0.0020740408763829025,0.9925831053205784
2015-09-01,-1,-0.00303459036139332,-0.002678364254622787,-0.005509488070948159,0.003271399301692339,0.9929795729977847
2015-09-03,-1,-0.002800414824121635,-0.002481927973824443,-0.005509488070948159,0.005392164217848644,0.9924620489257646
2015-09-08,-1,-0.0027898124341534055,-0.0024774376688766362,-0.004381046470808256,0.005392164217848644,0.9935991353248504
2015-09-10,-1,-0.002947290276627364,-0.0026178046637718895,-0.002786638173468624,0.0062570478270503275,0.9929146091731083
2015-09-14,-1,-0.0029825977440529235,-0.002646789188967669,-0.0018911431677273419,0.0062570478270503275,0.9926337986527726
2015-09-16,-1,-0.0019490594281425498,-0.0017707377511847454,-0.004381046470808256,0.0051658510314525,0.9930666208106961
2015-09-18,-1,-0.0023269375594764507,-0.002097899981460172,-0.0018911431677273419,0.007499600328569066,0.9929648021018412
2015-09-22,-1,-0.002221229723098165,-0.0019866754578958482,-0.0034555904136575524,0.007499600328569066,0.992730849220598
2015-09-24,-1,-0.0025008258592092154,-0.002234624376351212,-0.0015434908022388557,0.008487590133553099,0.9919628263845688
2015-09-28,-1,-0.002936384413238573,-0.0026169653043600985,-0.0005864329594199657,0.008487590133553099,0.9924581594020218
2015-09-30,-1,-0.0025763339548710135,-0.0023120058970234484,-0.0005864329594199657,0.008487590133553099,0.9930405089365562
2015-10-02,-1,-0.002109701448639221,-0.0019009382538157545,-0.0007444751658894957,0.007499600328569066,0.9935936042938212
2015-10-06,-1,-0.0016320375244206343,-0.001497608296773176,-0.0012577945148083678,0.006238968921094124,0.9939928195055246
2015-10-08,-1,-0.001261132548488387,-0.0011726809242997595,-0.0012577945148083678,0.004745640562294186,0.9944519306598717
2015-10-12,-1,-0.0007025624858836795,-0.0006927097372236924,-0.002017617421647446,0.004745640562294186,0.9944399165842974
2015-10-14,-1,-0.0008161833089127342,-0.000809520946537106,-0.0012577945148083678,0.006238968921094124,0.9943889486729842
2015-10-16,-1,-0.0005331767566169121,-0.0005015699962325954,-0.004125928846049838,0.004951517629408794,0.9936669365816099
2015-10-20,-1,-0.00028536906059997995,-0.00023401312284853615,-0.00680657340790795,0.004951517629408794,0.993705060915749
2015-10-22,-1,-0.00015624982364019892,-8.654569186175261e-05,-0.002876349193396759,0.004951517629408794,0.9938739341327731
2015-10-26,-1,-0.00014370703041455954,-8.428876123359497e-05,-0.003033270667675264,0.005944410355179828,0.9936238427244123
2015-10-28,1,6.251793714726512e-05,0.00014664823809632644,-0.004734679592654214,0.004951517629408794,0.9939659196853872
2015-10-30,1,4.693538324681e-05,0.00014348500167980744,-0.004479603097784316,0.004951517629408794,0.9942166545349144
2015-11-03,1,0.00034428104190177203,0.0004956359388119162,-0.00593689467668808,0.003078359246208311,0.994030076069724
2015-11-05,1,0.000659918336859553,0.0008723803331353479,-0.00680657340790795,0.005401471434846036,0.9925101060531243
2015-11-09,1,0.0005438023795075286,0.0007504359214042078,-0.00680657340790795,0.005401471434846036,0.9921914188658272
2015-11-11,1,0.0009116969167339945,0.0011660791341872485,-0.00680657340790795,0.0033324839825925002,0.9923321061475637
2015-11-13,1,0.00018922953640016426,0.0003395020610200828,-0.006041343923298255,0.0033324839825925002,0.9929876568174079
2015-11-17,1,0.0002769164028159454,0.00042527091054732477,-0.0065413540622216125,0.0033324839825925002,0.9919282502042088
2015-11-19,1,0.0005115924144428266,0.000675579143865796,-0.012199223916276668,0.0023362643457263883,0.9896547273233286
2015-11-23,1,0.0008261413783107053,0.0010464371019321586,-0.012199223916276668,0.0031260927805673968,0.989599701456807
2015-11-25,1,0.0007651395511165272,0.000977704762948243,-0.012199223916276668,0.005155731912720066,0.9891896998086236
2015-11-30,1,0.0006497703579089792,0.0008446584626153798,-0.012199223916276668,0.005750642686717557,0.9890882291612916
2015-12-02,1,0.0007085405796905913,0.0009344742197751118,-0.012199223916276668,0.005750642686717557,0.9888575694060179
2015-12-04,1,0.0011337693884217017,0.0014226366933729501,-0.014630464627560461,0.005155731912720066,0.9895279474171733
2015-12-08,1,0.0009371263406197731,0.0012167406550938522,-0.01839391058113124,0.005155731912720066,0.9883336848664835
2015-12-10,1,0.0009656289680418799,0.0012354244442578438,-0.01839391058113124,0.00433875495710804,0.9873115311655977
2015-12-14,1,0.0005546890545473799,0.0007671768226490744,-0.019698508640870055,0.005155731912720066,0.986760997239055
2015-12-16,1,0.00036818741309076284,0.0005471875099328879,-0.01839391058113124,0.005155731912720066,0.987754767929334
2015-12-18,-1,-0.001027729815594682,-0.0010055821261354084,-0.012553013277942442,0.005155731912720066,0.9896310757668906
2015-12-22,-1,-0.0007151932518078878,-0.0006657051015491138,-0.012553013277942442,0.004558830510093378,0.9889253505480393
2015-12-24,1,6.760287865693925e-07,0.00016135602049745273,-0.017051420491732187,0.004558830510093378,0.98796563954689
2015-12-29,1,0.00028038022455228486,0.000466621368180399,-0.01839391058113124,-0.0005384384378600234,0.9868433132122625
2015-12-31,1,0.0001223467473532578,0.00031322719036182517,-0.01839391058113124,0.00524635839246441,0.9855940232422806
2016-01-05,-1,-0.0004088530716929161,-0.0003117060494162391,-0.017370150599194466,0.007567321754506895,0.9849332870168834
2016-01-07,-1,-0.0013523096479137948,-0.0013365557601467482,-0.010735504863090465,0.007567321754506895,0.9863710627030996
2016-01-11,-1,-0.00185730453312108,-0.0018009755466978964,-0.009626209007402674,0.007567321754506895,0.9871591648400333
2016-01-13,-1,-0.0026371860458774985,-0.0024501308321466663,-0.009337622467541063,0.00697190580829608,0.9882359274334598
2016-01-15,-1,-0.003365877138393831,-0.002995347486406774,-0.009337622467541063,0.012870510669033677,0.9876257901313709
2016-01-20,-1,-0.0038482043971882138,-0.0034334875299487718,-0.007869360576521342,0.012870510669033677,0.9870672603016147
2016-01-22,-1,-0.002734328970200511,-0.002475879561705959,-0.007869360576521342,0.012696515907870957,0.9875998451758299
2016-01-26,-1,-0.0036373054339458874,-0.0032238977215152797,-0.007869360576521342,0.010670163231593446,0.9886306079608416
2016-01-28,-1,-0.004502398578382435,-0.003995067705218565,-0.005377920247010267,0.010670163231593446,0.988626377713588
2016-02-01,-1,-0.002933845457649439,-0.0026165782683616294,-0.00575693938420112,0.010670163231593446,0.9902744329234439
2016-02-03,-1,-0.002242300356160966,-0.0019945037150755915,-0.00575693938420112,0.009570150648494487,0.991359528322455
2016-02-05,-1,-0.0023963532948747925,-0.0021297252882635353,-0.0048631898486017205,0.009570150648494487,0.9911569273859322
2016-02-09,-1,-0.002499013689771682,-0.0022411075829885485,-0.0048631898486017205,0.009570150648494487,0.9909116159556971
2016-02-11,-1,-0.0027654123227345527,-0.002456524895399384,-0.00037322931738978816,0.010836240326612801,0.9892464083396301
2016-02-16,-1,-0.0014123573697229189,-0.0012813100169609373,-0.003951357115363017,0.009570150648494487,0.9910266262781318
2016-02-18,-1,-0.0009117608016364128,-0.0008255631728072701,-0.003951357115363017,0.009625509680167605,0.9909065533644015
2016-02-22,-1,-0.001029328015373556,-0.0009016137609818566,-0.0013950037035918624,0.009473990218118376,0.9913286286880607
2016-02-24,-1,-0.0011688484477931946,-0.0010314986430131575,-0.00096823892373464,0.009473990218118376,0.9917690989293285
2016-02-26,-1,-0.0005035606910718702,-0.00046535440831746905,-0.0013061508082285703,0.009473990218118376,0.9925209756283881
2016-03-01,1,0.00010270962289577276,0.00015515794171900866,-0.000965739762821836,0.008161410030148931,0.9933547158286721
2016-03-03,1,0.00035423334126209077,0.00045917504312374647,-0.0007419100795111274,0.00764885741413337,0.9940144240152118
2016-03-07,1,0.0007960899534675096,0.0009668530806174072,-0.0013061508082285703,0.007207976692196463,0.9936130379127185
2016-03-09,1,0.0006593963141609618,0.0008022516683338626,-0.0013061508082285703,0.007207976692196463,0.9932528709732728
2016-03-11,1,0.0018691520952736382,0.002188201558468287,-0.0013061508082285703,0.005430445299609691,0.9948541699285764
2016-03-15,1,0.002105334769591745,0.002479177236999748,-0.000965739762821836,0.006723462325042007,0.9944358744039727
2016-03-17,1,0.002839541933621718,0.003315485166483474,-0.0013061508082285703,0.0057391350122567835,0.9950066292480141
2016-03-21,1,0.0031460151526102676,0.0036680709744672316,-0.0013061508082285703,0.0057391350122567835,0.9951324037824006
2016-03-23,1,0.0032369420424597254,0.0037852524813856386,-0.0014664900005952072,0.0057391350122567835,0.994582111136948
2016-03-28,1,0.0030292608120388526,0.003535981179537363,-0.00250774471280434,0.00619493520458367,0.9945928208910091
2016-03-30,1,0.0033626797378870027,0.003920287865485756,-0.00250774471280434,0.0057391350122567835,0.9947346900858668
2016-04-01,1,0.0034276721500023184,0.003995119036000007,-0.003062969989703156,0.00619493520458367,0.9922463637484565
2016-04-05,1,0.0025801729073215416,0.003013656104235593,-0.00250774471280434,0.006347973367453758,0.9920204222448162
2016-04-07,1,0.0026291588562791512,0.0030921858671069287,-0.0002950933845740055,0.006968442871529754,0.9922934083139788
2016-04-11,1,0.002416232876049326,0.0028036841427183743,-0.002478755920349422,0.006968442871529754,0.9919567347826317
2016-04-13,1,0.003020729996168474,0.003495269809779848,-0.002577900048080138,0.006695390654992978,0.9912393645106965
2016-04-15,1,0.003245834852394392,0.003771475409772828,-0.0038937887832227046,0.007571229475063079,0.9908656099278874
2016-04-19,1,0.003514811818517723,0.004083473059375154,-0.005375436708463026,0.0065489022352982,0.9906416187972804
2016-04-21,1,0.003114019037797097,0.003623094496990416,-0.003158749067191666,0.007581699885475008,0.9913571543217082
2016-04-25,1,0.003116621712627394,0.003617864503513582,-0.003985554089692094,0.007581699885475008,0.9914329679518376
2016-04-27,1,0.003137241429063146,0.003629917927277941,-0.003985554089692094,0.008823059440376075,0.9909874475708114
2016-04-29,1,0.0037263762269295563,0.004311219828610795,-0.002967177697283476,0.007581699885475008,0.9931165818865726
2016-05-03,1,0.0036699211560944555,0.004224025845739223,-0.002967177697283476,0.0063119263992847075,0.9938661226958162
2016-05-05,1,0.004012199566342241,0.004613060350038726,-0.003985554089692094,0.006282455451578929,0.9936743464637138
2016-05-09,1,0.003641936223973314,0.004167578075183975,-0.003985554089692094,0.006282455451578929,0.9940017965722858
2016-05-11,1,0.0035032975837805333,0.003997730942219896,-0.002967177697283476,0.006282455451578929,0.9951305873126458
2016-05-13,1,0.0024400845230668497,0.00270662844405567,-0.003985554089692094,0.004453416927185913,0.9949650896955922
2016-05-17,1,0.0025022515664736155,0.00278688297739939,-0.007138616563777548,0.00350933721499868,0.9939333237658716
2016-05-19,1,0.0028322126419104802,0.0031777356516919366,-0.007138616563777548,0.00350933721499868,0.9938650654699284
2016-05-23,1,0.0028196869114416267,0.0031738846080181012,-0.007138616563777548,0.004095016221300463,0.9939909421710108
2016-05-25,1,0.0027211096977361442,0.0030374314136195736,-0.007138616563777548,0.004095016221300463,0.9937689996056793
2016-05-27,1,0.0023051391078644677,0.0025442209568675,-0.009067210642558233,0.0031496845040571717,0.990290358519366
2016-06-01,1,0.0015813634406948278,0.0016674148207973306,-0.00845649884672077,0.006033868762575674,0.9887440264491523
2016-06-03,1,0.001115076931344148,0.0011347759507248046,-0.00751222650586749,0.006502659758516971,0.9881973005354179
2016-06-07,1,0.0006456366222193947,0.0007386961349232799,-0.00751222650586749,0.007342819191550967,0.9877816705106774
2016-06-09,1,0.0009663045267387278,0.0010162207490817942,-0.00751222650586749,0.008693151186449692,0.9874044179162297
2016-06-13,1,4.0465136524634317e-05,0.0002278106180207413,-0.0016293581153392555,0.008693151186449692,0.9878150116653842
2016-06-15,-1,-0.00045462386964651217,-0.00022910906766184067,-0.00026750508560096785,0.008693151186449692,0.9883070114554952
2016-06-17,-1,-0.0006196721833772263,-0.00036048571592921827,-0.0014677609159848785,0.008693151186449692,0.988088416515605
2016-06-21,-1,-0.001122491748423993,-0.0007670513567482231,-0.0011472676486161963,0.008693151186449692,0.9879627126947911
2016-06-23,-1,-0.00026390980823819924,-6.168293125663688e-05,-0.0036137693311321284,0.007771963106575562,0.9884317815914869
2016-06-27,-1,-0.0019290432287404988,-0.0015462010813458423,0.0007696034438844559,0.008216928694183702,0.9908824661242135
2016-06-29,-1,-0.0008957111408559391,-0.0006255702735129249,-0.0013632907638075115,0.005994534082674314,0.9938894717232787
2016-07-01,-1,-0.0005211608480470551,-0.0002737717910988386,-0.0021323846520772275,0.005994534082674314,0.9950197877003486
2016-07-06,-1,-0.0006924871150572167,-0.0004112676854046778,-0.0021323846520772275,0.00434669512854061,0.9949923441319737
2016-07-08,1,3.6337787564892643e-06,0.0001685831680525032,-0.002299334866111705,0.00434669512854061,0.9954730840605881
2016-07-12,1,0.0003265212229708371,0.00043852764430416766,-0.002299334866111705,0.0035031793555190534,0.9957014224453606
2016-07-14,1,0.0001313729561337177,0.00026800216786246176,-0.001873834972110293,0.003129185204528636,0.996110213645158
2016-07-18,-1,-0.00029562190726329545,-9.892316373000698e-05,-0.001873834972110293,0.003129185204528636,0.9960616148614888
2016-07-20,-1,-0.00023076674085436373,-4.911151593825155e-05,-0.0031776854487164615,0.003129185204528636,0.9955439573145982
2016-07-22,1,2.2083923452784074e-07,0.00014999158247407118,-0.0024020364088156577,0.00242977910237524,0.9961181245193602
2016-07-26,1,1.9807974847078382e-05,0.0001709772202493879,-0.0037274837303724016,0.00242977910237524,0.9959410784651668
2016-07-28,1,1.7050155971399378e-05,0.00016007936839593153,-0.0037274837303724016,0.003129185204528636,0.9956463163547471
2016-08-01,0,-9.876435585687488e-05,6.595182453509311e-05,-0.0024020364088156577,0.003129185204528636,0.9955384446870954
2016-08-03,1,3.095339052222503e-05,0.00013983238737957075,-0.0021866297944972577,0.003129185204528636,0.9959543371563695
2016-08-05,1,9.318035512007522e-05,0.00019592454830413987,-0.0018905782331153375,0.003129185204528636,0.9958946033910636
2016-08-09,1,0.00048076588148092517,0.0005101356992233238,-0.0018905782331153375,0.0036081184996900077,0.9957067831432692
2016-08-11,1,0.0006105921599982881,0.00061939460239369,-0.003250037880839619,0.003505372028721868,0.9944934946357391
2016-08-15,1,0.00025740003117962526,0.00031580431328952273,-0.003250037880839619,0.0054573059240615104,0.9934619065935334
2016-08-17,-1,-0.0002532803408045784,-0.00012970178469554517,-0.0027609861685435532,0.0063180895069665155,0.9933399366048115
2016-08-19,-1,-0.0002082696124620056,-0.00010196254448082711,-0.00338625242957213,0.0063180895069665155,0.9928269551251415
2016-08-23,-1,-0.00023347917382932835,-0.0001294156106812346,-0.0027609861685435532,0.00879900259372026,0.9926487871167443
2016-08-25,-1,-0.00040596723551107106,-0.0002531674924921821,-0.00338625242957213,0.00931896833362364,0.9922578396601229
2016-08-29,-1,-0.00025236742976565425,-0.00010292685731003447,-0.004305553955717125,0.008165360514227156,0.9923655730016527
2016-08-31,-1,-0.0003199811314180503,-0.00016968145247593604,-0.005696958196212248,0.008165360514227156,0.9916996957030428
2016-09-02,1,0.00025497150988770123,0.00030948279225991585,-0.007562704157215305,0.008165360514227156,0.9913722820624442
2016-09-07,1,0.00044814721823350487,0.0004791280446712294,-0.007562704157215305,0.007823866498806857,0.9914722566887021
2016-09-09,-1,-0.0001814257093518407,-8.551621941438824e-05,-0.005696958196212248,0.007823866498806857,0.9922279035391333
2016-09-13,-1,-0.00021771917321799199,-9.946985231126912e-05,-0.005696958196212248,0.00694169762356911,0.9931034849353372
2016-09-15,0,-3.709154860533683e-05,5.88744295230817e-05,-0.007529147406276082,0.00694169762356911,0.9928552296714026
2016-09-19,-1,-0.00010798954976899315,-8.597642788018883e-06,-0.006907763257938082,0.00694169762356911,0.9929786887255223
2016-09-21,1,0.0005620015103217196,0.0005669471793146881,-0.006907763257938082,0.004232304490177335,0.9935144300451851
2016-09-23,1,0.000634999847838828,0.000645567086958424,-0.006907763257938082,0.0033586934166324363,0.9932412954635759
2016-09-27,1,0.0008252885324119039,0.000883545550935922,-0.007959087089837313,0.0029249203834842397,0.9931559004248128
2016-09-29,1,0.0004694552940435089,0.0004719975753066253,-0.007959087089837313,0.002811882298498337,0.9934776252868255
2016-10-03,1,0.0005527598233798305,0.0005727290942180807,-0.006907763257938082,0.002811882298498337,0.9940580071410461
2016-10-05,1,0.0004873489081730751,0.0004951040528039327,-0.008057113439590428,0.0023765703953042405,0.9934335858467274
2016-10-07,1,0.0005213867377012295,0.0005337886493405432,-0.008057113439590428,0.0023765703953042405,0.9934085559818607
2016-10-11,1,0.00018794264421544441,0.0002036173472814013,-0.006907763257938082,0.0037419084006028143,0.9928147878870205
2016-10-13,1,0.0002928677905368511,0.00030081580162698204,-0.006364105518840276,0.005275875420787509,0.9915945398567775
2016-10-17,1,0.00034105521070439354,0.00035526689562266655,-0.00477650024430783,0.00692163196269411,0.9912372666406919
2016-10-19,1,0.00037435229810959235,0.00039420276981981604,-0.006834944313185949,0.00692163196269411,0.990120133231844
2016-10-21,-1,-0.0003777806729570903,-0.0002973678551614222,-0.004657981798884669,0.0083723356722059,0.9903751492236091
2016-10-25,-1,-0.0007839752227711131,-0.0006543763137446667,-0.00409224085438113,0.0083723356722059,0.9906884884349224
2016-10-27,-1,-0.0009640344193109395,-0.0008134629678834934,-0.004010694804966842,0.009699467821517403,0.9905275857324872
2016-10-31,-1,-0.0007117279948194114,-0.0006048708175042292,-0.00409224085438113,0.009699467821517403,0.9902298825125082
2016-11-02,-1,-0.0015764292974122592,-0.0013444667388150028,-0.00409224085438113,0.009699467821517403,0.9896490622991143
2016-11-04,-1,-0.001966903471430726,-0.0016514166982269929,-0.005949460972383793,0.009699467821517403,0.9894630252870555
2016-11-08,-1,-0.0009823984189991316,-0.0007885090490090526,-0.005949460972383793,0.010416745556505291,0.9898727563449067
2016-11-10,1,0.0004265777524986315,0.00045324536359393416,-0.007177482984081138,0.009420597429120667,0.9912461843235714
2016-11-14,1,0.0011866406969230777,0.001276124867526225,-0.007177482984081138,0.007621879765243053,0.9915549218454255
2016-11-16,-1,-0.0012482495998625668,-0.0009026011841000282,-0.007177482984081138,0.009420597429120667,0.9916993448311743
2016-11-18,1,0.00018172938081640287,0.00027308046594065204,-0.007177482984081138,0.009420597429120667,0.9916180341096442
2016-11-22,1,0.0005064868632656046,0.0005095388082696239,-0.007177482984081138,0.009420597429120667,0.9916426745291712
2016-11-25,1,0.000855457927570693,0.0008987060776384046,-0.007177482984081138,0.007860972343572348,0.9920539388337857
2016-11-29,1,0.0007074617911652291,0.0007617525556905313,-0.005900085170502438,0.007860972343572348,0.9922688094638865
2016-12-01,-1,-0.0001213059579248655,-8.742165224930814e-05,-0.001709035389729122,0.007860972343572348,0.993317070688011
2016-12-05,-1,-0.0005241971409667657,-0.0004349810602681372,-0.0012099412110029234,0.010539899295462313,0.9930185673139564
2016-12-07,1,0.0001174251431666399,0.0001434848129070222,-0.0012099412110029234,0.005817109136372038,0.9941228732910747
2016-12-09,1,0.00035956076611880954,0.0003665702085582001,-0.0012099412110029234,0.0049717918960269355,0.9943847464966894
2016-12-13,1,0.0006266444471778256,0.0006822877036554314,-2.182863851807673e-06,0.0044046497072633035,0.9948220703902197
2016-12-15,1,0.0005638326289654299,0.000621938103115497,-2.182863851807673e-06,0.004290022777837552,0.9957399733740206
2016-12-19,1,0.0010177338121080733,0.0011323966380079322,-0.0015399439541818806,0.004290022777837552,0.9960518160049668
2016-12-21,1,0.0010529873835526918,0.001175696248360301,-0.0013383022480421645,0.004290022777837552,0.9961355594875605
2016-12-23,1,0.0009782860850978505,0.0010679337817738055,-0.0013383022480421645,0.00462791110774968,0.9954287822655452
2016-12-28,1,0.0007959837121912505,0.0008706355609400444,0.000286211485936653,0.0057536139082556125,0.9950526235315184
2016-12-30,1,0.0010408339099909191,0.0011567594656318918,-0.0010299750779666438,0.0057536139082556125,0.9945747745033031
2017-01-04,1,0.001612144555824145,0.001807798161589435,-0.002555513968998078,0.004992714413084891,0.9945755847701075
2017-01-06,1,0.0015507456238760397,0.001717731724628329,-0.002555513968998078,0.004992714413084891,0.9945221691995257
2017-01-10,1,0.0008081400307578285,0.0008464998149110836,-0.0017226585150211782,0.004992714413084891,0.9951089214858627
2017-01-12,1,0.0008087093552009463,0.0008410946740586426,-0.0017226585150211782,0.008628669530879486,0.994245757963001
2017-01-17,1,0.000687474672181318,0.0006989708288943254,-0.0009733689847379936,0.008628669530879486,0.994331277313841
2017-01-19,1,0.0008074594426515331,0.000848353988274069,-0.00018561862642995386,0.009353978367874098,0.9942153489378558
2017-01-23,1,0.0010014455740636934,0.0010918468163226844,-0.00018561862642995386,0.009353978367874098,0.9934399225591609
2017-01-25,1,0.0014948693393570219,0.0016411721367701054,-0.00018561862642995386,0.00834420611147,0.9941942659486009
2017-01-27,1,0.002099252788590979,0.00234408239655596,-5.05762812295813e-05,0.00726047254958225,0.9947714233455058
2017-01-31,1,0.0017153653419777896,0.001924143384212058,0.00018390695724376894,0.00834420611147,0.994885981017478
2017-02-02,1,0.0012965659817243524,0.0013982911136613905,0.00018390695724376894,0.00726047254958225,0.9946604428932919
2017-02-06,1,0.0013977078110449645,0.0015281156847421502,-0.0007494773663877792,0.00726047254958225,0.9941600497230763
2017-02-08,1,0.0014762098566099627,0.001628886014955273,-0.0007494773663877792,0.00726047254958225,0.9941534599214821
2017-02-10,1,0.0019979868357165005,0.0022109217035497395,-0.0007494773663877792,0.006892443443544655,0.9945430136583953
2017-02-14,1,0.002341121547991385,0.002624938604893818,-0.001678010978184996,0.006094762955060315,0.994560956440308
2017-02-16,1,0.0027996487947137233,0.0031407949103883937,-0.00259707896526037,0.00479117372377518,0.9946267633422502
2017-02-21,1,0.002555633218082839,0.0028646488013607746,-0.00259707896526037,0.004014094848132437,0.9947073086367656
2017-02-23,1,0.002563892479489263,0.0028499310156836024,-0.00259707896526037,0.0031057367436615564,0.9948129796932415
2017-02-27,1,0.002819171347238676,0.0031393505853316503,-0.00259707896526037,0.0028449518836101972,0.9948448812103166
2017-03-01,1,0.003151389394868185,0.0035080958836491687,-0.003183743956439898,0.0028449518836101972,0.9947765042926067
2017-03-03,1,0.002558888988486116,0.002838483243787742,-0.003183743956439898,0.0028449518836101972,0.9956770326707576
2017-03-07,1,0.0018546253939927982,0.0020063995028070554,-0.003183743956439898,0.0031057367436615564,0.9958204195867123
2017-03-09,1,0.0018250979044764286,0.001976372919028839,-0.0037244883689904374,0.00435845258877425,0.9953995899560626
2017-03-13,1,0.0021006479888218206,0.0022758030098712608,-0.0037244883689904374,0.0028449518836101972,0.9955197130634916
2017-03-15,1,0.002052504258107429,0.002220103037828646,-0.003907051922626086,0.0021836908673605196,0.995146970620693
2017-03-17,1,0.001413256957925852,0.0014475959834734506,-0.004293287388563953,0.0028449518836101972,0.9946892566922234
2017-03-21,1,0.0003466751270246364,0.0004646733207305513,-0.004104659255792455,0.0028449518836101972,0.9953292171143651
2017-03-23,1,0.00022407813814003544,0.0003729699136529034,-0.004452982592171804,0.0037387659680264357,0.9946262936899652
2017-03-27,1,0.0002580548899502926,0.0003986856949989252,-0.004452982592171804,0.007004267863378559,0.9941065133869029
2017-03-29,0,-0.00017888107717411908,4.732185624336778e-05,-0.004452982592171804,0.00679720518579727,0.9944352377224716
2017-03-31,-1,-0.0004750511050039519,-0.00021651981746639067,-0.005449149626139558,0.00679720518579727,0.9937777551703365
2017-04-04,0,-0.00011777154265150036,5.889109070738078e-05,-0.005449149626139558,0.00679720518579727,0.9936542551614895
2017-04-06,1,0.0007133274159329098,0.0007133636121189655,-0.004452982592171804,0.006457787545375123,0.9934961625957636
2017-04-10,1,0.0009087891215564793,0.0009635773199316005,-0.004769474187398623,0.006457787545375123,0.9930971024147983
2017-04-12,0,-2.0366599513429963e-06,0.00010183964468576094,-0.004769474187398623,0.006457787545375123,0.9932413808089694
2017-04-17,1,0.0004984461129575292,0.000524285396306202,-0.005091895494071026,0.006457787545375123,0.9933150606316222
2017-04-19,0,-3.7724208061927e-05,6.549818511121898e-05,-0.0063134168754481945,0.006457787545375123,0.9933904377670204
2017-04-21,1,1.1115197735458586e-05,8.826500531260428e-05,-0.005091895494071026,0.006773097894849754,0.9936073064774564
2017-04-25,1,0.00019628933026431553,0.00027619071048902313,-0.005091895494071026,0.006773097894849754,0.9935412485431047
2017-04-27,-1,-0.00038698181850261573,-0.00018561030066776164,-0.005091895494071026,0.007012219941416464,0.9931853011837071
2017-05-01,-1,-0.001229802430290844,-0.0009082806431042938,-0.005091895494071026,0.007012219941416464,0.993615116257099
2017-05-03,-1,-0.001449900319702792,-0.0011406624652569614,-0.004331165504204933,0.007508474549951908,0.9934351191949936
2017-05-05,-1,-0.0009529614843275195,-0.0007115974083213013,-0.005091895494071026,0.007508474549951908,0.9938149826391658
2017-05-09,-1,-0.0012542544271240568,-0.0009835920888758166,-0.0063134168754481945,0.00783268823991073,0.992984592414791
2017-05-11,-1,-0.0014813153416397885,-0.0011759058788804039,-0.0047415824035121745,0.008438185624244313,0.9925700381745874
2017-05-15,-1,-0.0011690032270835,-0.0009260084681675324,-0.0030227010295080883,0.008194587224218942,0.99304394870752
2017-05-17,-1,-0.001367201082614866,-0.00110048126432385,-0.0026576199808209305,0.008690171641827069,0.9925692974271584
2017-05-19,-1,-0.0008415921651634888,-0.0006407687361921111,-0.0026576199808209305,0.008690171641827069,0.993231269278578
2017-05-23,-1,-0.0004978141509647516,-0.0003223375848739844,-0.004642372794133384,0.008194587224218942,0.9932931816234861
2017-05-25,1,6.770943129503278e-05,0.00017190723605857818,-0.006990526335371418,0.004222830241710112,0.9930134433280676
2017-05-30,0,-1.7836328984692593e-05,6.827495383208092e-05,-0.006324160342744841,0.004222830241710112,0.9930803731436547
2017-06-01,1,0.0003092294282817404,0.0003524831316656366,-0.0065428512808606695,0.004222830241710112,0.9928146620939343
2017-06-05,-1,-0.0004359136119070357,-0.0002787616959829282,-0.006228406741266674,0.00568812683936562,0.992832675072283
2017-06-07,-1,-0.00044042841554170156,-0.0002858576880820019,-0.005987256750036083,0.004247950344356858,0.9937194554114926
2017-06-09,1,5.899473747670236e-05,0.00015872607941439914,-0.005987256750036083,0.003211225765128738,0.9938591726021863
2017-06-13,1,0.00014481664512090107,0.00023463160858156157,-0.006228406741266674,0.0030488833981358434,0.9933508150176117
2017-06-15,1,0.0004843370943990655,0.000535691956659235,-0.006228406741266674,0.0030488833981358434,0.9935593157622605
2017-06-19,1,0.0008819965072645839,0.0009115481380881703,-0.006228406741266674,0.0029922134074571076,0.9934780906119928
2017-06-21,1,0.00046068308255765145,0.00046133424031468177,-0.005843997740787026,0.004247950344356858,0.9939251505949684
2017-06-23,-1,-0.0006798693222298922,-0.0005194271054819152,-0.002515052208958867,0.00529845236244612,0.9943237659176066
2017-06-27,-1,-0.0008032487980765735,-0.0006327187179566804,-0.002515052208958867,0.00529845236244612,0.9941335210436935
2017-06-29,-1,-0.0005105011868065327,-0.00037517233869647793,-0.002515052208958867,0.00529845236244612,0.9935811271616831
2017-07-03,-1,-0.00024753155481851887,-0.00014249119136047766,-0.004684043790531614,0.006591998043473341,0.9932518472833999
2017-07-06,-1,-0.00010539605973276429,-5.044456690453232e-05,-0.004816264487678205,0.006591998043473341,0.9931165350080003
2017-07-10,1,0.00017820685266244592,0.0001898992882336539,-0.0037213177269203434,0.00636179010210007,0.9934318738592651
2017-07-12,1,0.0001246289336126416,0.00013402394555117868,-0.0021500699553729133,0.00636179010210007,0.9939577016955105
2017-07-14,1,0.00041036957828579864,0.00044673468512313515,-0.0036622606126239902,0.005019226469538316,0.994185315945017
2017-07-18,1,0.0004519518758687597,0.000503420163243166,-0.0036622606126239902,0.00636179010210007,0.993849453979098
2017-07-20,1,0.0009349687048399531,0.001065998641286392,-0.005259971850067303,0.005019226469538316,0.9933511793298136
2017-07-24,1,0.001457432328802065,0.0016823483345832244,-0.005259971850067303,0.003606831949497197,0.9935632873024575
2017-07-26,1,0.0010562877764278623,0.0011976939019548401,-0.005259971850067303,0.00403662046794105,0.9934030956078421
2017-07-28,1,0.0012600377791828238,0.0014095545580854031,-0.0036622606126239902,0.0032465776802939753,0.9950756918510465
2017-08-01,1,0.0010762469069403246,0.0011970740752006734,-0.003546272558436189,0.0020973857650525523,0.995526727825379
2017-08-03,1,0.0009796765776703751,0.0011104193137869292,-0.003378984500857111,0.0020973857650525523,0.9958418594199231
2017-08-07,1,0.001098041828211513,0.0012456519450103711,-0.0036668837592040856,0.0015963020340256022,0.9959762722496986
2017-08-09,1,0.0010084459259149948,0.0011384693822677479,-0.003957798347599912,0.0020973857650525523,0.9953072982993928
2017-08-11,1,0.0004972134710870785,0.0005279510308114255,-0.0036668837592040856,0.0039253892688557975,0.9938033987184668
2017-08-15,1,0.0006902832242555899,0.0007536741346216142,-0.003957798347599912,0.003625356768132971,0.9938052546154482
2017-08-17,1,0.0002764969599183774,0.00029230926950696247,-0.0036668837592040856,0.004963569726360387,0.9944620483713114
2017-08-21,1,0.0004757456145802118,0.0005254240738262754,-0.0036668837592040856,0.004963569726360387,0.9946611319703542
2017-08-23,1,0.00041741904753465734,0.00044991229352636837,-0.0019341914625967123,0.004947057818229683,0.9950878004962109
2017-08-25,1,0.00041974994809614155,0.0004462171189552055,-0.002259106964564974,0.00540527500588346,0.9948357678579812
2017-08-29,1,0.00021573348941567326,0.00021725741643961228,-0.0010685226935818065,0.005814131504136753,0.9945431635930478
2017-08-31,1,7.636397609844624e-05,9.692438690231037e-05,-0.0010685226935818065,0.005814131504136753,0.9946410919812991
2017-09-05,-1,-0.0002747001242477965,-0.0001959724429579966,-0.000578424295414104,0.005814131504136753,0.9943823528250018
2017-09-07,-1,-0.00015445202339925025,-0.00010297433912466553,-0.000578424295414104,0.00540527500588346,0.9947608025003509
2017-09-11,1,0.0009670107661086818,0.001038843238904765,-0.0010685226935818065,0.004753939919520006,0.9967482053102065
2017-09-13,1,0.0008315703051647689,0.0008724971950306514,-0.0010685226935818065,0.004543630317480911,0.9969372016538182
2017-09-15,1,0.0012666822876118726,0.0013910774605814602,-0.0010685226935818065,0.004543630317480911,0.9969409426197031
2017-09-19,1,0.0012956259171506305,0.0014310101359295464,-0.001839475289463225,0.004543630317480911,0.9968155393867293
2017-09-21,1,0.0011629681409992497,0.001247030051900781,-0.001839475289463225,0.004543630317480911,0.9966284416263865
2017-09-25,1,0.0008808388262489847,0.0008868451530981512,-0.0009722350637634957,0.004404835263330227,0.9967172535281716
2017-09-27,1,0.001433681126309219,0.001535312981191663,-0.002154669938084495,0.004125839230544636,0.9968103832192671
2017-09-29,1,0.0010945061239025374,0.001129298265994649,-0.0024659688334542212,0.004404835263330227,0.996526149351132
2017-10-03,1,0.0011863069523460118,0.0012261657742820152,-0.0024659688334542212,0.004404835263330227,0.9962655971044847
2017-10-05,1,0.0009804910533119284,0.0009895095916846364,-0.002154669938084495,0.004419409407366576,0.9963984637243426
2017-10-09,1,0.00062563891146365,0.0006712859569029991,-0.002154669938084495,0.0045171381497782475,0.9961100975303827
2017-10-11,1,0.0009007623588417508,0.0009098080844758026,-0.002862571493726071,0.0045171381497782475,0.9959180298980468
2017-10-13,1,0.0012776496281057027,0.0013676811934942438,-0.002862571493726071,0.0045171381497782475,0.9959754656227455
2017-10-17,1,0.0013965396495058842,0.0015307036206525116,-0.0023449409815112687,0.005182911894266274,0.9952894368984231
2017-10-19,1,0.00156410791973683,0.0016938466633399304,-0.0023449409815112687,0.005182911894266274,0.9953725959149728
2017-10-23,1,0.0018145452238319715,0.001991409983531146,-0.0023449409815112687,0.005182911894266274,0.9955651448926912
2017-10-25,1,0.0012722021475008011,0.0013529320111323197,-0.0023449409815112687,0.006833146260109629,0.9948946190979758
2017-10-27,1,0.0012044494447886029,0.001270424027858972,-0.0023449409815112687,0.006833146260109629,0.994169953707142
2017-10-31,1,0.001901634356322637,0.0020923622189276073,-0.002862571493726071,0.006833146260109629,0.9940292328901161
2017-11-02,1,0.002193391887275096,0.0024283056580270026,-0.0030187037345380113,0.007212477011564495,0.9932709634867671
2017-11-06,1,0.0024578407636944876,0.002749989956089194,-0.0036331908026100354,0.006980137753658296,0.9929497093918638
2017-11-08,1,0.002070070271338415,0.0023151551341191582,-0.0036331908026100354,0.006980137753658296,0.9930652826542535
