JNU-Tangyin/eata/results/Batch4_SP500/Batch4_SP500-HOLX.csv
Date,Action,Predicted_Q25,Predicted_Q75,Actual_Q25,Actual_Q75,RL_Reward
2010-12-14,1,0.0,0.0007630337459095146,-0.002495792012894485,0.011172076644029902,0.9927703248922688
2010-12-16,1,0.004882366984769322,0.005345602090425634,-0.003830394202708345,0.00996807329573945,0.9924017062273324
2010-12-20,1,0.0034202579887878384,0.003488748459918827,-0.005021744296926187,0.00996807329573945,0.9915846559192819
2010-12-22,1,0.004963709718118325,0.005333005234410706,-0.007445451354411657,0.006371197677300436,0.9911410586844851
2010-12-27,1,0.00640367387981939,0.007185884002422446,-0.0050988067224725245,0.00996807329573945,0.9912116997925968
2010-12-29,1,0.00648760780228129,0.00730291114037078,-0.0050988067224725245,0.011410073100328568,0.9911903646391359
2010-12-31,1,0.005292715497670259,0.005849066982836552,-0.0050988067224725245,0.011410073100328568,0.9907331836748163
2011-01-04,1,0.004653604256225481,0.005008411997685697,-0.00798962272485826,0.010031216845501664,0.9902519782169593
2011-01-06,1,0.0033098643351284884,0.0034143610798719965,-0.006132666199393767,0.010031216845501664,0.9906089028828917
2011-01-10,1,0.0035158447859646416,0.003724205275994842,-0.006132666199393767,0.010031216845501664,0.9907273713112298
2011-01-12,1,0.0034185774576069843,0.0035266147786178334,-0.006132666199393767,0.009053490664256902,0.9910737594538839
2011-01-14,1,0.001888776123626715,0.0020868968073736887,-0.005611562618885531,0.009053490664256902,0.991243080761052
2011-01-19,1,0.0020099812456409313,0.0022044933331838174,-0.005118918641394349,0.008729647376151771,0.9921018760324668
2011-01-21,1,0.0011567313462995286,0.0014593513518219817,-0.002359398633146645,0.009053490664256902,0.9918399220537426
2011-01-25,1,0.0026526705360260575,0.0027182692909246144,-0.005611562618885531,0.008157834596893008,0.9905414134485462
2011-01-27,0,0.0,0.0,-0.005611562618885531,0.007862975487243863,0.9897681247416467
2011-01-31,0,0.0,0.0,-0.006443440912960304,0.007862975487243863,0.9890335701689857
2011-02-02,0,0.0,0.0,-0.005611562618885531,0.008157834596893008,0.9874789290107164
2011-02-04,0,0.0,0.0,-0.00598599330211267,0.008157834596893008,0.9873426730301598
2011-02-08,1,0.0029235546032247988,0.003151424050097551,-0.005495498025717911,0.009487256221860045,0.9865887472797115
2011-02-10,1,0.003238728594754613,0.0035134939473044895,-0.00753080017797997,0.00925670257472724,0.9862470539321982
2011-02-14,1,0.0016066704305658912,0.0016182633598930928,-0.008811939131331565,0.008080983381182074,0.9867792871090493
2011-02-16,0,0.0,0.0,-0.008811939131331565,0.00925670257472724,0.9855974503185825
2011-02-18,1,0.001471096100483586,0.0016071334101048931,-0.008811939131331565,0.0096350487036539,0.9854707405877747
2011-02-23,0,0.0,0.0,-0.007068058932249227,0.0096350487036539,0.9873049972861179
2011-02-25,0,0.0,0.0,-0.007068058932249227,0.005883785460761744,0.9888450610467283
2011-03-01,1,0.0009125194830766027,0.0010224216070163908,-0.004356307825989035,0.0096350487036539,0.9891401080319896
2011-03-03,1,0.0027557013271122715,0.0029221772492263863,-0.004356307825989035,0.005883785460761744,0.9913208543624803
2011-03-07,1,0.001992770705623,0.002030008987301506,-0.004969090996962425,0.005883785460761744,0.9914159853843513
2011-03-09,1,0.0030180671927948783,0.0032061620932158194,-0.004969090996962425,0.0023062748905491462,0.9919236921662766
2011-03-11,1,0.0030575709282013425,0.0032945421182359836,-0.00434219910700909,-0.0002296123876924357,0.9920197972618422
2011-03-15,0,0.0,0.0,-0.00379564162449233,0.0018361914150437295,0.9939858500360798
2011-03-17,1,0.001042270601651613,0.0010631965053565682,-0.003319826889181287,0.002418276611439627,0.9950750874011741
2011-03-21,0,0.0,0.0,-0.003319826889181287,0.0021855485551310304,0.99495946252628
2011-03-23,0,0.0,0.0,-0.0028650284175874585,0.00425029998948348,0.9941954431221455
2011-03-25,0,0.0,0.0,-0.003319826889181287,0.003432070143047458,0.9942875831908045
2011-03-29,0,0.0,0.0,-0.003319826889181287,0.0021855485551310304,0.995169776345809
2011-03-31,0,0.0,0.0,-0.003319826889181287,0.003432070143047458,0.9949399946416163
2011-04-04,0,0.0,0.0,-0.0027395001048230953,0.004972969446496096,0.9940270138141288
2011-04-06,1,0.0014056284172096049,0.0014744090033458083,-0.0029856003931882915,0.004972969446496096,0.9934834910918992
2011-04-08,1,0.0001890218108825043,0.0004431439544772991,-0.001607214605916832,0.00633914536379169,0.9932879544527141
2011-04-12,0,-5.0754597404664226e-05,0.00025930921643443395,-0.0019396831903964505,0.00633914536379169,0.9925116249126443
2011-04-14,-1,-0.0005333961089333259,-0.00012232314063373635,-0.005764807880214388,0.00633914536379169,0.9921631728086486
2011-04-18,-1,-0.0010250349530020982,-0.0005832429099997436,-0.005764807880214388,0.00633914536379169,0.9922404620814682
2011-04-20,0,0.0,0.0,-0.006184547038914854,0.003479087865202056,0.9919487449666194
2011-04-25,0,0.0,0.0,-0.012340694739277729,0.003479087865202056,0.9906209986644863
2011-04-27,0,0.0,0.0,-0.012340694739277729,0.003479087865202056,0.990019576900734
2011-04-29,0,0.0,0.0,-0.012340694739277729,0.003479087865202056,0.9886999241338409
2011-05-03,0,0.0,0.0,-0.015275868467241147,0.0012436229678534877,0.9875395553777091
2011-05-05,0,0.0,0.0,-0.015275868467241147,0.0012436229678534877,0.987642808827549
2011-05-09,0,0.0,0.0,-0.015275868467241147,-0.00079148596509662,0.9874822949450782
2011-05-11,-1,-0.0008224871364246648,-0.00042498592065496254,-0.014513953379723875,-0.00014376321335131636,0.987651170633102
2011-05-13,-1,-0.0015975344898187204,-0.0011344095025131117,-0.012753343390090027,-0.00124870613003466,0.988426347249629
2011-05-17,-1,-0.0024014620493647515,-0.0018770848341405498,-0.012753343390090027,0.0025082960820190583,0.9883838402811931
2011-05-19,-1,-0.0008554815695040433,-0.0005877314779801856,-0.012753343390090027,-0.00124870613003466,0.9885232016370409
2011-05-23,0,0.0,0.0,-0.008966724932527807,0.011651569847259626,0.987682649873171
2011-05-25,0,0.0,0.0,-0.009106680289788782,0.011651569847259626,0.9878187620891682
2011-05-27,0,0.0,0.0,-0.010752655092807525,0.004348448684931457,0.9886675822046641
2011-06-01,0,0.0,0.0,-0.009106680289788782,0.0023489467667664387,0.9908691577556692
2011-06-03,-1,-0.0030377802090953525,-0.0025002009823244754,-0.008149083790656821,0.0069695929236408445,0.9911078351905238
2011-06-07,-1,-0.003080823017447926,-0.0025704370830317742,-0.006021423672620738,0.008399511367873676,0.9907751465916504
2011-06-09,-1,-0.0029263756876340852,-0.002439992759903813,-0.00552001338333603,0.005930313746928057,0.9918363475000641
2011-06-13,-1,-0.0034056111571255454,-0.002872006373639248,-0.00552001338333603,0.007516180132673526,0.9904750945038859
2011-06-15,-1,-0.004007687353792986,-0.00337931695768274,-0.004800666144235292,0.007500370199918032,0.9911912832859013
2011-06-17,-1,-0.0036570028161874483,-0.0031221332409148003,-0.005611037401517133,0.007500370199918032,0.9909409465077466
2011-06-21,-1,-0.001393608860990736,-0.0011703193257759606,-0.005611037401517133,0.005930313746928057,0.9922094360405961
2011-06-23,-1,-0.0020970342999451063,-0.0017615290695152282,-0.005611037401517133,0.007500370199918032,0.991379967111963
2011-06-27,-1,-0.003365490298768225,-0.0028462834468159937,-0.006114526825484192,0.007500370199918032,0.9887804964947882
2011-06-29,-1,-0.003835108718785821,-0.003241548515736394,-0.01177646363731577,0.007500370199918032,0.9874206022447881
2011-07-01,-1,-0.0030437112226086274,-0.0025401244855265716,-0.016647965819421344,0.005538226344214762,0.9872385229483768
2011-07-06,-1,-0.0023818270990997575,-0.001976141369823388,-0.023951007406026917,0.005227641144521585,0.9860682578826525
2011-07-08,-1,-0.002278735955848256,-0.001897121028516588,-0.026219950961412067,0.006705308432815489,0.9823585452482438
2011-07-12,-1,-0.002396124904210723,-0.0020348087458576638,-0.027995913750289328,0.006705308432815489,0.9765781158112652
2011-07-14,-1,-0.001927979957717071,-0.0016516927683074443,-0.029173381953218683,0.01001849500758065,0.9723566294717602
2011-07-18,-1,-0.0036172895441703573,-0.003066126917697567,-0.029173381953218683,0.021805645485263956,0.9702201877533272
2011-07-20,-1,-0.0019310459504428713,-0.0016467095954526604,-0.029173381953218683,0.021528466541811096,0.970834785150734
2011-07-22,-1,-0.0019485004992134407,-0.0016145755410989877,-0.035185202129821375,0.01001849500758065,0.9694470936106407
2011-07-26,0,0.0,0.0,-0.029173381953218683,0.022359285936308176,0.9697946100183561
2011-07-28,0,0.0,0.0,-0.03181205443730363,0.022359285936308176,0.970072349181896
2011-08-01,0,0.0,0.0,-0.03181205443730363,0.02744727969134738,0.9686019155762016
2011-08-03,0,0.0,0.0,-0.014138130921601717,0.02744727969134738,0.970293093755225
2011-08-05,0,0.0,0.0,-0.014138130921601717,0.02744727969134738,0.9719251877651459
2011-08-09,0,0.0,0.0,-0.007906867493513887,0.02744727969134738,0.9763623222595282
2011-08-11,-1,-0.008941595641984993,-0.007994585068962595,-0.00969085763482396,0.022752278642203225,0.9770339985705481
2011-08-15,-1,-0.006154057454439706,-0.005532572047513127,-0.00969085763482396,0.0072254211881715566,0.9801118165902071
2011-08-17,-1,-0.006305628194657214,-0.005682970552331737,-0.00969085763482396,0.015920530467952772,0.9782607720760335
2011-08-19,-1,-0.008024702624859572,-0.0072492785646838375,-0.00969085763482396,0.015920530467952772,0.9794683138332689
2011-08-23,-1,-0.006436899208815202,-0.00585459082001402,-0.014230734668189207,0.01039208170706861,0.9806694972042308
2011-08-25,-1,-0.007441557029357695,-0.006734204142685288,-0.014230734668189207,0.015920530467952772,0.9789754283886027
2011-08-29,-1,-0.004839381586526225,-0.004437035447362674,-0.014230734668189207,0.01039208170706861,0.9803929326726284
2011-08-31,-1,-0.004595591865618692,-0.004223139324111989,-0.020549823949556442,0.01039208170706861,0.9788645322350537
2011-09-02,0,0.0,0.0,-0.027971512648673164,0.01039208170706861,0.9762076458806499
2011-09-07,0,0.0,0.0,-0.027971512648673164,0.016274534899316843,0.976294676722613
2011-09-09,0,0.0,0.0,-0.01820288704257279,0.016274534899316843,0.9778615374820812
2011-09-13,0,0.0,0.0,-0.01820288704257279,0.021288746089784892,0.9771606233658774
2011-09-15,-1,-0.007776254425573295,-0.007130323428755116,-0.01820288704257279,0.014483825290801184,0.9785285081137926
2011-09-19,-1,-0.007675927243525381,-0.007055468527969699,-0.027971512648673164,0.01943241369204546,0.9762053214383724
2011-09-21,-1,-0.0018663532652556528,-0.001848373859428863,-0.025876230741250422,0.01943241369204546,0.9755206848830345
2011-09-23,0,0.0,0.0,-0.01725428330805767,0.01943241369204546,0.9755878888128627
2011-09-27,0,0.0,0.0,-0.025876230741250422,0.01943241369204546,0.9749998874589813
2011-09-29,0,0.0,0.0,-0.01725428330805767,0.01943241369204546,0.9761492344337034
2011-10-03,-1,-0.0032565272038526947,-0.003127868685932177,-0.011403190308765465,0.021288746089784892,0.9759161079321095
2011-10-05,0,0.0,0.0,-0.01750593830761858,0.018660745217092246,0.9766513883594352
2011-10-07,0,0.0,0.0,-0.014444942786203657,0.01943241369204546,0.9749398239956895
2011-10-11,-1,-0.0011246447417647212,-0.0009522922110040457,-0.014444942786203657,0.023939718713462822,0.971319584265347
2011-10-13,-1,-0.0015363848953825559,-0.001498188650455349,-0.02793133661635718,0.023939718713462822,0.9697738971294988
2011-10-17,-1,-0.002919288874399347,-0.0027734959922547818,-0.012617505380515662,0.03897961852250058,0.9704267040114418
2011-10-19,-1,-0.002132111896421387,-0.0021285485701774084,-0.008231140884297494,0.03897961852250058,0.9722390591122598
2011-10-21,-1,-0.0004521034204586343,-0.00025590130104995027,-0.013834384362759685,0.023584072989372953,0.9739293231543854
2011-10-25,-1,-0.0002345892699250194,-1.4404548095574006e-05,-0.013498806658235376,0.017456094077788184,0.9753205168114087
2011-10-27,1,0.0001918921525310833,0.0004572591329532285,-0.026806222616771146,0.013555728686563706,0.9744955764555195
2011-10-31,1,0.0008276881890060518,0.0011745155315859796,-0.016400686084069756,0.013555728686563706,0.9759596825706167
2011-11-02,0,-9.183578234739679e-05,0.0001222791540950878,-0.010053030897005278,0.022508058030211126,0.9757942391499879
2011-11-04,1,0.0014904815198950934,0.0019026963684784183,-0.015271729844731194,0.01821100008215826,0.9760501765316731
2011-11-08,1,0.003725918966706413,0.004424513106280423,-0.015271729844731194,0.0042735149723964255,0.9794428714133856
2011-11-10,1,0.0037545169122133026,0.0045268672446893594,-0.015271729844731194,0.01821100008215826,0.9787394780349609
2011-11-14,1,0.004580540362184181,0.005450361146211037,-0.01994507802127588,0.002998056624826457,0.9788654184784004
2011-11-16,1,0.003894580599603829,0.004648608900113096,-0.01994507802127588,0.0025474357098753345,0.9787162160338512
2011-11-18,1,0.0030619344459367447,0.0037049415374016655,-0.0181973945252843,0.01821100008215826,0.9791404283900136
2011-11-22,1,0.0031621814315982884,0.003860176233901585,-0.014183144148482908,0.022272670265722543,0.9800162972312333
2011-11-25,1,0.002575299198619748,0.003218746526744803,-0.009589335716604695,0.022272670265722543,0.981915193828941
2011-11-29,1,0.0034182897736745824,0.004182008658373702,-0.013061678004600313,0.017095677838560322,0.9823019766763164
2011-12-01,1,0.004778466345728374,0.00569597874891701,-0.013061678004600313,0.01678063430520973,0.984300252888323
2011-12-05,1,0.005241587578236822,0.0062291573000910466,-0.009589335716604695,0.0164168148979269,0.9856874218502559
2011-12-07,1,0.004764834239464874,0.005662223210404452,-0.009589335716604695,0.019210188304625102,0.9854568606819654
2011-12-09,1,0.005001204746893102,0.0059723356274367055,-0.008465600469760429,0.0164168148979269,0.9879814197748633
2011-12-13,1,0.0044770237481077295,0.005410413619750135,-0.0031563638968046754,0.01698069988112731,0.98885917339424
2011-12-15,1,0.0029144699394240336,0.0035096987944383566,-0.0006731184421408813,0.01698069988112731,0.9886689213141668
2011-12-19,1,0.002498826496559456,0.0029842478120991204,0.002942812257238035,0.01693714046516568,0.9893504866133532
2011-12-21,1,0.003106536942378617,0.003621909801222818,-0.0031563638968046754,0.01579492522585525,0.9894671748672274
2011-12-23,1,0.0032634313440135067,0.0037682858122015522,-0.0031563638968046754,0.01579492522585525,0.9891122791880824
2011-12-28,1,0.0022828530355524677,0.002586546412650934,-0.0031563638968046754,0.013403938643707064,0.9895312115441264
2011-12-30,1,0.00208782371182196,0.002292198534294,-0.004226002188750049,0.013403938643707064,0.9871672931556953
2012-01-04,1,0.0023461040364852266,0.0025689124982939326,-0.008941901443816798,0.013237724374952763,0.9868667837601306
2012-01-06,1,0.003951170245511554,0.004479741952821102,-0.009291467862845088,0.013237724374952763,0.986449745857808
2012-01-10,1,0.003703430441894578,0.004163019419238849,-0.009391034781323514,0.012921905393093545,0.9862742585488702
2012-01-12,1,0.003395414045521758,0.003722442578164265,-0.009871891595214071,0.012921905393093545,0.9858918509254394
2012-01-17,1,0.0032773653322290403,0.003652150505830387,-0.009871891595214071,0.01406837121745767,0.9857697625913544
2012-01-19,1,0.003299039979054081,0.0036053087338493157,-0.009871891595214071,0.01406837121745767,0.985292581984172
2012-01-23,1,0.0035395031734554777,0.003984115735777035,-0.009871891595214071,0.01406837121745767,0.985654584334619
2012-01-25,1,0.0037903453518221483,0.004238267571887234,-0.009871891595214071,0.01406837121745767,0.9860740328997543
2012-01-27,1,0.0026867602458283597,0.0029196062117861606,-0.009380161474803243,0.01406837121745767,0.9867144922465314
2012-01-31,1,0.00442261323207681,0.0049740787122124494,-0.009871891595214071,0.012636500662482167,0.9879137019214904
2012-02-02,1,0.0035230918654680834,0.0038494383416740547,-0.010887644734748896,0.011044481028661318,0.9876361529217905
2012-02-06,1,0.003843493071425466,0.00423682034323579,-0.010887644734748896,0.006872613258719519,0.9883685860724883
2012-02-08,1,0.0038119873170473894,0.004234607997299295,-0.0069188166019187305,0.011044481028661318,0.9873251619582963
2012-02-10,1,0.00380940811690944,0.004207057603221063,-0.008817427330303863,0.00975688354159819,0.9871188227090398
2012-02-14,1,0.003069400125918809,0.003297354839866255,-0.01288032615414375,0.00975688354159819,0.9853301226811918
2012-02-16,1,0.0035074358978721305,0.003800861141631561,-0.01288032615414375,0.00975688354159819,0.9859440123138822
2012-02-21,1,0.0030602983350572588,0.0033396034740872287,-0.01263507758856975,0.00975688354159819,0.9861653558769581
2012-02-23,1,0.0023925916122205567,0.0025209316255940407,-0.01263507758856975,0.010484257409643781,0.9855646490561272
2012-02-27,1,0.0009068758785505516,0.0010647881716832075,-0.01263507758856975,0.010484257409643781,0.9853059044937834
2012-02-29,1,0.0008155082063012469,0.0008949584400925797,-0.009829808051235112,0.011119618659186689,0.9861297647082023
2012-03-02,1,0.00020366981525804376,0.0003714249412905859,-0.008903285593776962,0.010991178260763295,0.9871993909933754
2012-03-06,0,0.0,0.0,-0.007837292208638184,0.01116478640735048,0.9871929035720829
2012-03-08,0,0.0,0.0,-0.007837292208638184,0.010499313325698378,0.9894940785607068
2012-03-12,0,0.0,0.0,-0.008903285593776962,0.010499313325698378,0.9875739533468577
2012-03-14,0,0.0,0.0,-0.007837292208638184,0.01116478640735048,0.9890073650273599
2012-03-16,1,0.001484776044082199,0.0015744045302329584,-0.010279900842132213,0.010499313325698378,0.988337211647977
2012-03-20,1,0.0002718863827918993,0.0004154122882961362,-0.008903285593776962,0.01116478640735048,0.9880616057242345
2012-03-22,1,0.0007280877452676183,0.0007946239728330732,-0.01014969749581263,0.01116478640735048,0.9879889566605625
2012-03-26,1,0.0006244215837894775,0.000700014691908676,-0.010385690665865218,0.009949818439126346,0.9883883585325257
2012-03-28,1,0.00039235576294840307,0.0005462168928692791,-0.010385690665865218,0.00783350632541719,0.9875906790344349
2012-03-30,1,0.000576875269640271,0.0006364002497008257,-0.012546641849220363,0.00783350632541719,0.9832278362972598
2012-04-03,0,0.0,0.0,-0.01516143922459363,0.004146159189406216,0.9815589209575275
2012-04-05,0,0.0,0.0,-0.027660122872680874,0.004146159189406216,0.9789326148897162
2012-04-10,0,0.0,0.0,-0.01516143922459363,0.006053621586510989,0.9816095703248546
2012-04-12,0,0.0,0.0,-0.01516143922459363,0.003943934945017765,0.9818960409356132
2012-04-16,0,0.0,0.0,-0.013496450060844972,0.0072887964638470365,0.9822238739967608
2012-04-18,0,-0.00012613715306747071,6.635927734116066e-05,-0.013496450060844972,0.006053621586510989,0.9830141418668624
2012-04-20,0,0.0,0.0,-0.018312753986138526,0.006053621586510989,0.9819643193330835
2012-04-24,0,0.0,0.0,-0.018312753986138526,0.0072887964638470365,0.9805126997706912
2012-04-26,0,0.0,0.0,-0.018312753986138526,0.004086732744143999,0.9816271005403784
2012-04-30,0,0.0,0.0,-0.01464314721005796,0.004565672673677055,0.9862553805762337
2012-05-02,0,0.0,0.0,-0.011096330794012618,0.004565672673677055,0.9882238608249656
2012-05-04,-1,-0.0063681153824051515,-0.004450718730457361,-0.00968077698591767,0.004565672673677055,0.9914616566693449
2012-05-08,0,0.0,0.0,-0.00968077698591767,0.009780970292842209,0.9882137197896418
2012-05-10,0,0.0,0.0,-0.00928672647537096,0.006747274383395863,0.9888648473771394
2012-05-14,-1,-0.009232094418208638,-0.007589574063098443,-0.010305886163668183,0.0037337105138854285,0.9897230212620981
2012-05-16,0,0.0,0.0,-0.010305886163668183,0.004622627938516735,0.9884876694840941
2012-05-18,0,0.0,0.0,-0.005856896764551155,0.010200608276882173,0.9892250667313905
2012-05-22,0,0.0,0.0,-0.004301447968847261,0.010200608276882173,0.989674126684209
2012-05-24,0,0.0,0.0,-0.004301447968847261,0.011765432657083713,0.9875097485542531
2012-05-29,0,0.0,0.0,-0.005900419753584011,0.011765432657083713,0.9869183880963344
2012-05-31,0,0.0,0.0,-0.004812989916446563,0.015170010318376868,0.9863540556893078
2012-06-04,0,0.0,0.0,-0.00031944749915638554,0.020312431406112795,0.9855941356394026
2012-06-06,-1,-0.011334721979498079,-0.010123073334838438,-0.004420021201029725,0.018865200386439435,0.9812675031923558
2012-06-08,-1,-0.00809161560681758,-0.007050618705142488,-0.005167554356717696,0.018865200386439435,0.9840613095013748
2012-06-12,-1,-0.0042307265416524084,-0.0037299576492913025,-0.005167554356717696,0.018865200386439435,0.9859390780964267
2012-06-14,-1,-0.004000496936320575,-0.0034858757173024564,-0.005167554356717696,0.02103909088339448,0.9842430186025883
2012-06-18,-1,-0.0029094571534242107,-0.0025638692624095592,-0.006268636381812529,0.02103909088339448,0.9847086053566502
2012-06-20,-1,-0.002314143626180961,-0.002017871608609223,-0.006268636381812529,0.020312431406112795,0.9860959011392701
2012-06-22,-1,-0.0019320651690612149,-0.0017659438493598306,-0.008687462636586613,0.010523210858505879,0.9879065697616284
2012-06-26,-1,-0.0023190850860871273,-0.0021187463850379385,-0.008687462636586613,0.010523210858505879,0.9881264830472747
2012-06-28,-1,-0.0014457496450846026,-0.0013755798827498867,-0.00989245805589508,0.010732231320490953,0.9866229039593883
2012-07-02,-1,-0.00016422193461861813,-8.842983992769817e-05,-0.013454985634887076,0.0071925059077317735,0.987153604146417
2012-07-05,0,-1.4750934064669747e-05,9.586119514288919e-05,-0.013454985634887076,0.008602103486288332,0.9867903316794792
2012-07-09,-1,-0.00019191140716019332,-8.893834811871045e-05,-0.013454985634887076,0.012873932499203735,0.985342913898227
2012-07-11,0,0.0,0.0,-0.013454985634887076,0.012873932499203735,0.9857204722359874
2012-07-13,0,0.0,0.0,-0.013454985634887076,0.006972189376737788,0.9882321496087586
2012-07-17,1,0.0016788115395824992,0.00205652388730327,-0.007407301842153707,0.006794325632642838,0.9893497478487067
2012-07-19,1,0.00220171492854715,0.0026844423815132554,-0.007496347324657185,0.006262211392323428,0.9892745638220233
2012-07-23,1,0.0010020283688191352,0.0012662580571859649,-0.0032413078672169876,0.006262211392323428,0.9904284200138785
2012-07-25,1,0.0002457087522774615,0.0003903641365170252,-0.0017588743265409441,0.006262211392323428,0.9908130207845959
2012-07-27,0,0.0,0.0,-0.0017588743265409441,0.005702774530131581,0.9923733754722674
2012-07-31,0,0.0,0.0,-0.001135062842922992,0.005201824244767351,0.9936984056104858
2012-08-02,1,0.0016571242139526703,0.0020063493969775126,-0.001135062842922992,0.005201824244767351,0.9944799105697707
2012-08-06,1,0.0036426636777921522,0.004328053460629381,-0.0017588743265409441,0.003929192124448202,0.9949595154695878
2012-08-08,0,0.0,0.0,-0.0017588743265409441,0.003929192124448202,0.9951862722682132
2012-08-10,0,0.0,0.0,-0.0029010016270550635,0.00319256101149123,0.9950950842137332
2012-08-14,0,0.0,0.0,-0.0044288377592938575,0.0036708735212494605,0.994303100365423
2012-08-16,0,0.0,0.0,-0.0029010016270550635,0.005563795420456802,0.9920002038999756
2012-08-20,0,0.0,0.0,-0.004778520166781442,0.005563795420456802,0.9917084133071835
2012-08-22,0,0.0,0.0,-0.0042317676457474755,0.007168796893048434,0.991256999309221
2012-08-24,0,0.0,0.003989425853286304,-0.0042317676457474755,0.007340480552422903,0.9930809776550212
2012-08-28,1,0.004084873145085682,0.00489505951376327,-0.007589792556418448,0.007340480552422903,0.9904677442448031
2012-08-30,1,0.0033338701649802834,0.003936689026829718,-0.007589792556418448,0.0070606991846775095,0.9903602313156197
2012-09-04,0,0.0,0.0,-0.007589792556418448,0.00764981026964099,0.9900934037863846
2012-09-06,0,0.0,0.0,-0.007589792556418448,0.01383297421892039,0.9887131203491307
2012-09-10,0,0.0,0.0,-0.00717783792901157,0.01383297421892039,0.9889923228243762
2012-09-12,0,0.0,0.0,-0.006871619457556441,0.01383297421892039,0.989354489710195
2012-09-14,0,0.0,0.0,-0.006871619457556441,0.00764981026964099,0.9916099500286417
2012-09-18,0,0.0,0.0,-0.005159955819995918,0.00764981026964099,0.9919013158562525
2012-09-20,0,0.0,0.0,-0.006871619457556441,0.0070528374311195074,0.991868035338066
2012-09-24,1,0.0023550518606505998,0.0027991985280149652,-0.006871619457556441,0.0048689183939831125,0.9905403183896508
2012-09-26,1,0.0008447868103984317,0.0009557034691808748,-0.003424231471504863,0.0048689183939831125,0.9916627322044865
2012-09-28,0,0.0,0.0,-0.0029532738180220383,0.007470264856708518,0.9911811389023887
2012-10-02,0,0.0,0.0,-0.0029532738180220383,0.0048689183939831125,0.9912938644136798
2012-10-04,0,0.0,0.0,-0.003424231471504863,0.003286655410628732,0.9927507310249886
2012-10-08,1,0.002478461812809599,0.0026876994464206543,-0.004355402713778536,0.0029554360594460697,0.9912006253705054
2012-10-10,0,0.0,0.0,-0.004355402713778536,0.0035950268118413557,0.9908927974761284
2012-10-12,0,0.0,0.0,-0.006930183130143681,0.0034160198246106933,0.9908676207628896
2012-10-16,0,0.0,0.0,-0.014093707066911928,0.0027006851794984118,0.9891347483393281
2012-10-18,0,0.0,0.0,-0.008660456564537783,0.0034160198246106933,0.9896855663345102
2012-10-22,0,0.0,0.0,-0.008660456564537783,0.003484315319954719,0.9908952804509099
2012-10-24,0,0.0,0.0,-0.008660456564537783,0.004529688591790579,0.9905762040099164
2012-10-26,0,0.0,0.0,-0.013685204556508287,0.004529688591790579,0.9892740244879895
2012-11-01,0,0.0,0.0,-0.013685204556508287,0.0038868315293932036,0.9902022355125472
2012-11-05,0,0.0,0.0,-0.01600311389845322,0.005382201647580995,0.9890497776335211
2012-11-07,0,0.0,0.0,-0.013685204556508287,0.007475635696252386,0.9893798153554159
2012-11-09,0,0.0,0.0,-0.0088789963723447,0.0082817950858207,0.9896808218087334
2012-11-13,0,0.0,0.0,-0.013067084977483111,0.00937477847053611,0.9884535576430461
2012-11-15,-1,-0.00392835626362593,-0.0033578131474307493,-0.0038212809210565126,0.00937477847053611,0.9891230183098914
2012-11-19,-1,-0.0034144508057966467,-0.0027965937791827053,-0.003053612071854448,0.009930027192253017,0.9875528428659891
2012-11-21,-1,-0.003419360431055005,-0.0028187178652908803,-0.0023953266953848046,0.009930027192253017,0.9883812328303008
2012-11-26,-1,-0.0024008595249336052,-0.001988111039012922,-0.004079580486758227,0.009455214284281395,0.9885217502678577
2012-11-28,-1,-0.0032942346289456257,-0.00277061631580892,-0.005591662990867403,0.009455214284281395,0.9898338818695094
2012-11-30,0,0.0,0.0,-0.006624161769390867,0.009455214284281395,0.9899565577581445
2012-12-04,0,0.0,0.0,-0.005591662990867403,0.01279611883080399,0.9897573718072004
2012-12-06,0,0.0,0.0,-0.0058571999791421124,0.00996562938489792,0.9903172224762687
2012-12-10,0,0.0,0.0,-0.0058571999791421124,0.011402699773087187,0.9874939680814032
2012-12-12,0,0.0,0.0,-0.0058571999791421124,0.011402699773087187,0.9874801975504081
2012-12-14,0,0.0,0.0,-0.005525917445192388,0.011402699773087187,0.9869747283964095
2012-12-18,0,0.0,0.0,-0.005525917445192388,0.011402699773087187,0.9879876978673681
2012-12-20,-1,-0.0005459657990712547,-0.0004204992564269579,-0.005525917445192388,0.011402699773087187,0.9872977229162253
2012-12-24,0,0.0,0.0,-0.005525917445192388,0.011402699773087187,0.9871454522449428
2012-12-27,0,0.0,0.0,-0.0040086694218360655,0.012691751798087908,0.9866935532238347
2012-12-31,-1,-0.0011497705822152418,-0.0009606163697033861,-0.00214943473385116,0.012691751798087908,0.9869930764544979
2013-01-03,0,0.0,0.0,-0.003898078828150667,0.010731433457455801,0.9882776687445082
2013-01-07,0,0.0,0.0,-0.005144182811191136,0.010731433457455801,0.98668745085221
2013-01-09,0,0.0,0.0,-0.012254621870267495,0.010407675346981483,0.9888031960090008
2013-01-11,0,0.0,0.0,-0.007102266292821393,0.010407675346981483,0.9890326610337141
2013-01-15,0,0.0,0.0,-0.012120704982340403,0.010407675346981483,0.9889211408777049
2013-01-17,0,0.0,0.0,-0.012120704982340403,0.007974864038011231,0.9893193406819412
2013-01-22,0,0.0,0.0,-0.01267313263365797,0.003492832267186619,0.989139921630098
2013-01-24,0,0.0,0.0,-0.01267313263365797,0.003492832267186619,0.9889291436475839
2013-01-28,0,0.0,0.0,-0.01267313263365797,0.003492832267186619,0.988834142760085
2013-01-30,0,0.0,0.0,-0.01267313263365797,0.004864489731303082,0.9882265172161601
2013-02-01,0,0.0,0.0,-0.01267313263365797,0.004864489731303082,0.9880453666148865
2013-02-05,1,0.0014025175117522112,0.0016231489221531152,-0.011294361175612083,0.007805759191220633,0.987728054486268
2013-02-07,-1,-0.0003775541748670048,-0.00034373615183352023,-0.008341796020319762,0.007805759191220633,0.9895644614503786
2013-02-11,1,0.0025076188767358364,0.002856015618451029,-0.008341796020319762,0.005501796879524282,0.9898763918546399
2013-02-13,1,0.0013838682484681245,0.0015456345352440936,-0.008341796020319762,0.009761274366510793,0.9900674397391143
2013-02-15,1,0.0013223505052963633,0.0014936970199269433,-0.009666907439653356,0.009761274366510793,0.9894136666281934
2013-02-20,1,0.0006447665735548462,0.0007217561846199199,-0.008341796020319762,0.010575024259464147,0.9896637633534464
2013-02-22,1,0.0006450531000682748,0.0006633833620087301,-0.007777564766905695,0.009761274366510793,0.9902366552424513
2013-02-26,1,0.0008608148860677844,0.0008946027364878016,-0.007777564766905695,0.007839694455995284,0.9910093498255798
2013-02-28,1,0.0007485605298973306,0.00081751135808271,-0.007474231932923365,0.009125874389287206,0.9909019969106945
2013-03-04,1,0.0016270249932189775,0.0018850617437819275,-0.007474231932923365,0.009130074912186521,0.990963562971279
2013-03-06,0,0.0,0.0,-0.007474231932923365,0.00764242570712961,0.9917264688453427
2013-03-08,0,0.0,0.0,-0.008756908937706366,0.00764242570712961,0.9911246027495858
2013-03-12,1,0.0024631894927847064,0.0028732445399204795,-0.008756908937706366,0.00764242570712961,0.990647910896843
2013-03-14,1,0.00259511632088851,0.003036291415571664,-0.007474231932923365,0.00614451136677934,0.9910010067751296
2013-03-18,1,0.001506440154386696,0.001767624437757805,-0.007474231932923365,0.00614451136677934,0.991362592142605
2013-03-20,0,0.0,0.0,-0.009375589948428787,0.00614451136677934,0.9904047308133794
2013-03-22,0,0.0,0.0,-0.013417155036980906,0.005475641145408043,0.9898877926622476
2013-03-26,0,0.0,0.0,-0.01706801261982345,0.004366775735295767,0.9887016876101664
2013-03-28,0,0.0,0.0,-0.01706801261982345,0.0041608992478819945,0.9884502080060726
2013-04-02,0,0.0,0.0,-0.01706801261982345,0.0041608992478819945,0.9887765978188354
2013-04-04,0,0.0,0.0,-0.01701017208687313,0.0041608992478819945,0.9887811003978845
2013-04-08,0,0.0,0.0,-0.0159027667762539,0.007082074201143785,0.9878388751463408
2013-04-10,1,0.0003899022758034892,0.00039912426694842885,-0.017152588374674635,0.007082074201143785,0.9866301638937178
2013-04-12,-1,-0.0006025719421936149,-0.00039506404342445987,-0.017152588374674635,0.009365565164703209,0.9850357035049315
2013-04-16,-1,-0.0011283760408736694,-0.0008473872565608687,-0.0159027667762539,0.009365565164703209,0.9855577617117224
2013-04-18,-1,-0.0017337101053909064,-0.0013694366048387925,-0.013382788183652123,0.007864257528987102,0.9865249274887296
2013-04-22,-1,-0.002343521535040052,-0.0019116781027005336,-0.010983706238735706,0.008903792776397839,0.9866892554276366
2013-04-24,-1,-0.0036498356882505864,-0.003024026947729132,-0.010983706238735706,0.008903792776397839,0.9862490574369562
2013-04-26,-1,-0.004566879116717087,-0.0038712052725691564,-0.010643592892306375,0.008903792776397839,0.9867358252867694
2013-04-30,-1,-0.004476753433386124,-0.003784986232656938,-0.010643592892306375,0.007669822774960072,0.9869420639979599
2013-05-02,-1,-0.005022803797396111,-0.004303503995239748,-0.007777707528259941,0.008903792776397839,0.9855877942323856
2013-05-06,-1,-0.0031265471260615916,-0.0026567565783941825,-0.007777707528259941,0.007669822774960072,0.987782835865922
2013-05-08,-1,-0.0038990663136944095,-0.0033477834788640036,-0.007777707528259941,0.007669822774960072,0.9871236414356483
2013-05-10,-1,-0.002596070571791304,-0.0021427143086383024,-0.007777707528259941,0.008215696425564814,0.9867393952620597
2013-05-14,-1,-0.001469631668356806,-0.0012122251776602918,-0.010643592892306375,0.008215696425564814,0.9864848309330656
2013-05-16,-1,-0.0024062109590605955,-0.002049758334168866,-0.011398532495985818,0.008215696425564814,0.985944229623786
2013-05-20,-1,-0.0017638894949185344,-0.0014910332342090464,-0.012974508976430236,0.0071467548512672684,0.9857047342025356
2013-05-22,-1,-0.00348759499396139,-0.0029947014913794387,-0.016679494694626863,0.0071467548512672684,0.9849029137770907
2013-05-24,-1,-0.004289134012571032,-0.003706895356550733,-0.016679494694626863,0.0071467548512672684,0.9844163958420127
2013-05-29,-1,-0.0036321059711216484,-0.0031759250024484455,-0.016679494694626863,0.007470608715007713,0.9840804102423804
2013-05-31,-1,-0.002831231571126137,-0.0024807282758905515,-0.017157623465425816,0.007470608715007713,0.9840833120120122
2013-06-04,-1,-0.0012762992447183745,-0.0011796031226943594,-0.01837567731551027,0.00996574792810676,0.9826705089777782
2013-06-06,-1,-0.0007104686104146562,-0.0006777956680132956,-0.017157623465425816,0.00996574792810676,0.983761866236157
2013-06-10,1,0.001251059924144254,0.0015094159920304774,-0.01837567731551027,0.006908586368392106,0.9841107784059188
2013-06-12,1,0.0013632363310908811,0.0016555240277271027,-0.01837567731551027,0.00976217430464068,0.982963197456291
2013-06-14,1,0.0006770792263915142,0.0009139589037841164,-0.01837567731551027,0.0124221335840278,0.9839385448784607
2013-06-18,1,0.00036628716726507546,0.0005603462386674492,-0.016113291790902796,0.0124221335840278,0.9840664735484578
2013-06-20,-1,-0.0010320280002263024,-0.0010044919705664195,-0.011234709635409075,0.013738945424381716,0.9818009400910912
2013-06-24,-1,-0.0018267431309688092,-0.001745143261439797,-0.01079678661053227,0.021927033509268324,0.979705089545081
2013-06-26,-1,-0.0010333096286424686,-0.0010069524047706124,-0.010824195035547372,0.021927033509268324,0.9796269716305469
2013-06-28,-1,-0.0023354961313961538,-0.002169319045300163,-0.010575550365404428,0.021927033509268324,0.980754138501367
2013-07-02,-1,-0.003412134740794831,-0.0030637466586626687,-0.009966906990362677,0.021927033509268324,0.9808805437260639
2013-07-05,-1,-0.002230104688812519,-0.002069431758890407,-0.010510862449472321,0.019563761567610197,0.9816174962614109
2013-07-09,-1,-0.004020135330140169,-0.003624046669120359,-0.007416876065819279,0.019563761567610197,0.9823504791009245
2013-07-11,-1,-0.0021789169946289347,-0.001977719632601891,-0.007416876065819279,0.01381033661616152,0.9847311863356039
2013-07-15,-1,-0.0018544141835062484,-0.0016575120233037215,-0.007416876065819279,0.009884811145253743,0.9857424501858386
2013-07-17,-1,-0.002233953068132457,-0.002014097702699444,-0.004300394389035464,0.009884811145253743,0.9860711741374539
2013-07-19,0,0.0,0.0,-0.004300394389035464,0.006211152793343269,0.9916768766661631
2013-07-23,0,0.0,0.0,-0.004300394389035464,0.005535053569772006,0.9936977417934942
2013-07-25,0,0.0,0.0,-0.004300394389035464,0.0054190376519783244,0.9937869782792672
2013-07-29,1,0.0019099029183161109,0.0022120282587940326,-0.002864257523367195,0.0054190376519783244,0.9936187194732621
2013-07-31,1,0.002296402054266079,0.002654035369872472,-0.004303341823403727,0.004999004357668207,0.992213758373694
2013-08-02,1,0.002624546705546728,0.003098245868258285,-0.0061509660525034485,0.0048534455202772905,0.9918996214802949
2013-08-06,1,0.00256014905577723,0.0030280490240650977,-0.006133229618861879,0.001209861554849155,0.9918711895016857
2013-08-08,1,0.0023431320783587374,0.002735072266755922,-0.006133229618861879,0.0019173574167123683,0.9920121345859717
2013-08-12,1,0.002241525166734536,0.0026166165146020697,-0.007586050093513314,0.004957006455026195,0.9892874205843935
2013-08-14,1,0.0025680131104446353,0.002989113885663878,-0.010337470112922537,0.0019173574167123683,0.9886579793780649
2013-08-16,1,0.002696781943103333,0.0031633242084810583,-0.010337470112922537,0.0050663569450896005,0.9884582213509506
2013-08-20,1,0.0033079965846976476,0.0038592955152567587,-0.011630259868785476,0.0030382100373909262,0.9879699531385979
2013-08-22,1,0.002950618744418846,0.0034479204333207687,-0.010337470112922537,0.0017272098479904604,0.988787456743492
2013-08-26,1,0.0026773080416518697,0.0030919093711835907,-0.010337470112922537,0.0017272098479904604,0.9880080909139773
2013-08-28,1,0.0005899210338587725,0.0006904570830598225,-0.006751365980227989,0.002812115378831492,0.9909310047947155
2013-08-30,1,0.00033451841193804846,0.0004453175298168422,-0.006751365980227989,0.00495412917372879,0.9900304649575772
2013-09-04,1,1.3211926802466321e-05,7.152657208009785e-05,-0.005179270059503604,0.008308734093410777,0.9895406038632893
2013-09-06,1,0.0001294752062700499,0.00017558150724210868,-0.006831028273544366,0.008058400494899927,0.9893691628918511
2013-09-10,-1,-0.0021399692172997453,-0.001893451434751624,-0.006831028273544366,0.0052024635334562514,0.9920185724238165
2013-09-12,-1,-0.002879358630293915,-0.002517393176372541,-0.0056216189091938176,0.008058400494899927,0.9902381519646725
2013-09-16,-1,-0.0028242330896658834,-0.002439035880514201,-0.0056216189091938176,0.008058400494899927,0.9889579971348325
2013-09-18,-1,-0.0036557361867700596,-0.0031535615935966185,-0.0050362313178684255,0.008058400494899927,0.9893411822417773
2013-09-20,-1,-0.0034456202244088877,-0.0029911122288517294,-0.0056216189091938176,0.009852610397385903,0.9885399295607994
2013-09-24,-1,-0.003188230822248,-0.0027237021023418396,-0.0056216189091938176,0.008058400494899927,0.9889660999850524
2013-09-26,-1,-0.002299398623887179,-0.0020331664251734007,-0.0050362313178684255,0.008058400494899927,0.9895710524886888
2013-09-30,-1,-0.0018854709269583458,-0.0016361528243773855,-0.0050362313178684255,0.007014479707748797,0.9908453406641665
2013-10-02,0,-2.1375101488569682e-05,4.3696936452160414e-05,-0.0050362313178684255,0.006747723888829067,0.9912003004533801
2013-10-04,-1,-0.00033615075261670383,-0.0002935571539345092,-0.0027148933084616,0.006747723888829067,0.9915590289227625
2013-10-08,-1,-0.0011742882032891428,-0.0010577141324017653,-0.0027148933084616,0.006747723888829067,0.9914905724200774
2013-10-10,1,0.0011899377971238188,0.001418881056247045,-0.0027919614599721896,0.004692487067821658,0.9938465730645774
2013-10-14,1,0.0019261797163411423,0.0021539014491386496,-0.0046085888825277066,0.004692487067821658,0.9932119125847669
2013-10-16,1,0.0010186504269402625,0.0011478449177934763,-0.004723063628310486,0.003928521927675052,0.988720483263738
2013-10-18,1,0.0006047767989818106,0.0006654528503262937,-0.0027919614599721896,0.003928521927675052,0.9884357604082936
2013-10-22,1,0.0009438392778081453,0.0010369841363463007,-0.0027919614599721896,0.005068907265113229,0.9859573567018503
2013-10-24,1,0.0008602505226985835,0.0009369650712026953,-0.004723063628310486,0.009856810368364019,0.9848303220371462
2013-10-28,1,0.0007254890732170827,0.0008044820148574159,-0.005602500352348247,0.009856810368364019,0.9847251789371515
2013-10-30,1,0.0013770152741886563,0.0015987066668416063,-0.005602500352348247,0.009450393473807337,0.9849415257192707
2013-11-01,1,0.001288911532311293,0.001484509739352579,-0.006395756301158196,0.009450393473807337,0.9841785353956679
2013-11-05,1,0.0007353252665761587,0.0008208869545875597,-0.006395756301158196,0.009450393473807337,0.9839542221404927
2013-11-07,1,0.000515266671926526,0.0005584980564208696,-0.007319439665918615,0.010501727612621182,0.9833700146752999
2013-11-11,1,0.0005964503616032292,0.0006084764022269449,-0.007722708630428152,0.008382586899523798,0.984946144005284
2013-11-13,-1,-0.00163105912715221,-0.0013464004568891218,-0.007722708630428152,0.008382586899523798,0.9888538802793161
2013-11-15,-1,-0.0013598334918575533,-0.001100658004235618,-0.007722708630428152,0.008382586899523798,0.9890674039358959
2013-11-19,1,8.974737206841942e-05,0.00017867267898424068,-0.007722708630428152,0.006689274775095517,0.9915217031936585
2013-11-21,-1,-0.000259766352923889,-0.00011737541707919347,-0.007223472592756271,0.006296632725611653,0.992826823964541
2013-11-25,-1,-0.00043321162871860406,-0.00028305756195497065,-0.006040843750941563,0.006296632725611653,0.9930810210475529
2013-11-27,-1,-0.000733770683740693,-0.0005146328285290496,-0.0072352770020983805,0.005583118829783065,0.9932799136360506
2013-12-02,-1,-0.00057279772734153,-0.0004142655729091355,-0.005910355565885753,0.005583118829783065,0.99380869647703
2013-12-04,-1,-0.0005630544794487592,-0.00041865748735122216,-0.005910355565885753,0.005604480360933638,0.9930614734586023
2013-12-06,-1,-0.0008146091637992111,-0.000620449830594646,-0.005910355565885753,0.005604480360933638,0.9921560771199563
2013-12-10,1,0.00028144341823320245,0.00031525573695755365,-0.003039525020369701,0.006595353760912678,0.9923679585728826
2013-12-12,1,0.0002148570159092331,0.000283442227588665,-0.0018955363239900763,0.006595353760912678,0.9928276501992235
2013-12-16,1,0.0003521155832346976,0.00042341853975459383,-0.0018955363239900763,0.007393184100643434,0.9928426814172802
2013-12-18,1,0.00047187994900734317,0.0005521466682352229,-0.0018955363239900763,0.007735854484336743,0.9928027173198156
2013-12-20,1,0.0005743167596173929,0.000676795479360497,-0.008650106649032917,0.007735854484336743,0.9911380844183009
2013-12-24,1,0.0006338058004946041,0.0007386124437875599,-0.013581199607306116,0.00811809318416658,0.9894518103241691
2013-12-27,1,0.0005844367792080725,0.0006872711163984055,-0.013581199607306116,0.00811809318416658,0.9892428006060252
2013-12-31,1,0.0005489623318294469,0.0006465051710877603,-0.013581199607306116,0.009065688089196923,0.9886473376551174
2014-01-03,1,0.0004356625006962578,0.0005162393580194519,-0.013581199607306116,0.009065688089196923,0.9872555186836083
2014-01-07,1,0.0003972568367742479,0.0004763188302515937,-0.013581199607306116,0.009065688089196923,0.986769197068893
2014-01-09,1,0.00046754802139610665,0.0005553116065202565,-0.013581199607306116,0.009254047488427569,0.9865602060422922
2014-01-13,1,0.00048521721969995574,0.0005979433025324044,-0.012502314177620814,0.012295544771589385,0.985850005142266
2014-01-15,1,0.0007143055337305112,0.0008421191820162094,-0.012502314177620814,0.010142437581062855,0.9861392995024709
2014-01-17,1,0.0008463540325524754,0.0009930936648770942,-0.012502314177620814,0.010981284929731295,0.9856284777212037
2014-01-22,1,3.4930944123802154e-05,3.846848848386996e-05,-0.010859503849600919,0.010981284929731295,0.9866380743321168
2014-01-24,-1,-0.0005720896217942729,-0.000486850639994183,-0.007311087253587617,0.015097806389659255,0.9876653821695875
2014-01-28,-1,-0.0007871367689528542,-0.000672986730495944,-0.005349623214378568,0.015097806389659255,0.9878025206736053
2014-01-30,-1,-0.0005773036421407058,-0.0004972611922232585,-0.004418837027631575,0.015097806389659255,0.9883414109035256
2014-02-03,-1,-0.0007627175655978354,-0.0006558935692003475,-0.00414582849300981,0.010981284929731295,0.9910650934449889
2014-02-05,-1,-0.000963592331871111,-0.0008095337888489979,-0.00414582849300981,0.010981284929731295,0.9921536247476933
2014-02-07,-1,-0.0005084731673992821,-0.0004308853034717388,-0.004418837027631575,0.015097806389659255,0.990891522669202
2014-02-11,-1,-0.00048307835735738415,-0.00039791528796826006,-0.004978926915735288,0.00431253979812142,0.9922160537815016
2014-02-13,-1,-0.0007221756392829367,-0.0006035747616610005,-0.004978926915735288,0.00431253979812142,0.991562860246879
2014-02-18,-1,-0.0003561150636973905,-0.00029063841947370313,-0.004978926915735288,0.00431253979812142,0.9920392846778039
2014-02-20,-1,-0.0005548969267774016,-0.00046069216711496104,-0.004978926915735288,0.0032508327251852738,0.9923122912470586
2014-02-24,-1,-0.0003609826786528988,-0.00029539257289195795,-0.005077969950193297,0.0020779692650731187,0.9929269128774116
2014-02-26,-1,-0.00030723855838299364,-0.0002546480037943947,-0.006438234656352523,0.0018125284601995825,0.9924217942222513
2014-02-28,-1,-0.0003660688708596951,-0.00029992903437060114,-0.006506642366219357,0.0020505291903840568,0.9917061525060025
2014-03-04,-1,-0.0004622706617151311,-0.000382900756640083,-0.006506642366219357,0.009275109272156157,0.9900277489151676
2014-03-06,-1,-6.882195477428445e-05,-5.122727140692272e-05,-0.006506642366219357,0.005187349378031464,0.9908283368758595
2014-03-10,1,0.0001472981728308092,0.00017323551081875442,-0.006506642366219357,0.004698097176619268,0.9918204209239393
2014-03-12,1,0.00013626213013409784,0.00016080684633437866,-0.006749622086131754,0.006884926066221528,0.991312364889608
2014-03-14,-1,-5.694668520086435e-05,-5.680564788531979e-05,-0.007286869581814043,0.006884926066221528,0.9903516540892267
2014-03-18,1,7.834611564406008e-05,0.00010117865951757593,-0.007286869581814043,0.00719025430697168,0.990142609033243
2014-03-20,-1,-3.299862288445813e-05,-2.6504166553736957e-05,-0.009284207472817158,0.00719025430697168,0.9899902003231205
2014-03-24,-1,-0.00012990133553138434,-0.00011874229915062176,-0.009284207472817158,0.00719025430697168,0.9901665409646444
2014-03-26,-1,-0.0002936206484315229,-0.00026876253162528,-0.00814769354621318,0.009729144942567183,0.9899494977020395
2014-03-28,-1,-0.00015052934419672965,-0.00014401927100533997,-0.011926550809672098,0.009729144942567183,0.9888668353577951
2014-04-01,1,0.0001062226061329494,0.00012776716842995348,-0.011926550809672098,0.00719025430697168,0.9898741050976363
2014-04-03,1,0.00010031594808491168,0.00011618788874981093,-0.011926550809672098,0.009729144942567183,0.9860614479599382
2014-04-07,1,0.00044015692971701196,0.0005517924161318528,-0.00814769354621318,0.013029362028765869,0.9853251733647408
2014-04-09,-1,-0.0009897280619543254,-0.0007833950556594705,-0.011926550809672098,0.016259887026957458,0.9834327608292042
2014-04-11,-1,-0.0019287141906128083,-0.0016544164598855326,-0.0026198368097628206,0.018599584301070293,0.9838471593666
2014-04-15,-1,-0.00022953645182987356,-0.000209491710308989,-0.010648664844277263,0.018599584301070293,0.983743451095225
2014-04-17,-1,-0.000572787249295267,-0.0005570958041935846,-0.010693086893417695,0.018599584301070293,0.9836882017346892
2014-04-22,-1,-0.0007623973119445637,-0.0007081263226776304,-0.012147875089702366,0.018599584301070293,0.9831753292753372
2014-04-24,-1,-0.00046748510820160996,-0.00046618780430492964,-0.010781145026026666,0.018599584301070293,0.9838863765784785
2014-04-28,-1,-0.0006795799667401819,-0.000635493446991723,-0.003188586579348908,0.016259887026957458,0.9855305576699017
2014-04-30,-1,-0.0002942011806051911,-0.0002917810049791164,-0.003188586579348908,0.013398594791550068,0.9858251196699205
2014-05-02,1,0.0017483228833816344,0.002017139004297125,-0.003188586579348908,0.009744124264050141,0.9899112303827616
2014-05-06,1,0.00263675741134964,0.0030179726932353674,-0.003188586579348908,0.008099929478648024,0.9911708567987181
2014-05-08,1,0.002604286866907019,0.0029375799373052066,-0.0005166173368245931,0.008099929478648024,0.9933158818046934
2014-05-12,1,0.0034998875607267915,0.00398060673283254,-0.0017287752949094774,0.0052110224967467575,0.9938439581029648
2014-05-14,1,0.0028452518781426567,0.0032560811093655315,-0.0017287752949094774,0.0052110224967467575,0.9945891171656943
2014-05-16,1,0.0025473444599560507,0.0029144455747887738,-0.0005166173368245931,0.006256743870229914,0.9949254085131327
2014-05-20,1,0.0023547904595689773,0.0027041401051479076,-0.00010229366472292445,0.008099929478648024,0.9951157781357042
2014-05-22,1,0.0024198672307113047,0.0027623750293362,-0.0005166173368245931,0.008411802173681303,0.994799007317604
2014-05-27,1,0.0024512143495302842,0.002795871315225307,-0.0025800016363994108,0.008411802173681303,0.9939510001804911
2014-05-29,1,0.0025088707981326362,0.002847880780723791,-0.003736289448000035,0.008411802173681303,0.9933914421327389
2014-06-02,1,0.0024801152446782245,0.002798492104194167,-0.004403103466369438,0.00683347247452494,0.993204754516184
2014-06-04,1,0.0025860325272122333,0.002924929135316597,-0.00487571248323099,0.010771044848039028,0.9922331391792143
2014-06-06,1,0.0026281860357636527,0.002948951634887744,-0.006722370369517649,0.012954575254933147,0.9907357755916173
2014-06-10,1,0.0027204218834348,0.003084103915702064,-0.006722370369517649,0.012954575254933147,0.9905489231358268
2014-06-12,1,0.0023289508291979904,0.002649028210809052,-0.005684977680437115,0.012954575254933147,0.9911541713030888
2014-06-16,1,0.002233603324939473,0.002504561496660585,-0.005684977680437115,0.009640257095621517,0.991013329004958
2014-06-18,1,0.0020457478961522363,0.0022472103049894407,-0.006722370369517649,0.007488225435865838,0.9906412034150199
2014-06-20,1,0.00212120594211589,0.0023143284905341103,-0.008267436546516354,0.007488225435865838,0.9901656421757968
2014-06-24,1,0.0015378441825994768,0.0016546447689477816,-0.0064553519641993495,0.010042891276382415,0.9906962942740382
2014-06-26,1,0.0016165057930398361,0.0016940457183432101,-0.008267436546516354,0.007488225435865838,0.9909395588152685
2014-06-30,1,0.0014549232196453,0.001555568888720766,-0.008267436546516354,0.010042891276382415,0.9897001881935394
2014-07-02,1,0.0015204612383045212,0.0016221223309338566,-0.006583288871855175,0.010042891276382415,0.9900766075809926
2014-07-07,1,0.0015650556846085505,0.0017039772271128508,-0.006583288871855175,0.007488225435865838,0.9913857038382377
2014-07-09,1,0.0013126272577393182,0.001393399410789278,-0.007963297844604195,0.00533655159303156,0.9913929161855456
2014-07-11,1,0.0016476637081295849,0.001792679400173652,-0.00869234059671976,0.0061388922361036964,0.9906954699592615
2014-07-15,1,0.0011820910630901409,0.0012484254964048838,-0.00908207123954129,0.0061388922361036964,0.990789393529715
2014-07-17,1,0.0008323758068906319,0.0008623459081151605,-0.00869234059671976,0.012449913205598826,0.9900555346624801
2014-07-21,1,0.001012801301615515,0.0010542237667360275,-0.009151772363593148,0.010746388648069611,0.9895169349652486
2014-07-23,1,0.0013808780851999752,0.0014700222552835023,-0.009151772363593148,0.005773143933583039,0.9900724341788937
2014-07-25,1,0.0008657777500628922,0.0008753704614208029,-0.010253789197978452,0.005773143933583039,0.9895681123593264
2014-07-29,1,0.0011000717882311177,0.0011556783706805455,-0.009151772363593148,0.0028738856648981995,0.991091656702939
2014-07-31,1,0.0015963865014610007,0.0017234116727163275,-0.010253789197978452,0.0023716775103599687,0.9911105113866713
2014-08-04,1,0.001231574028088155,0.0013016958348593193,-0.010253789197978452,0.005239036855254817,0.9906927726886603
2014-08-06,1,0.0005483318987806083,0.0005978168917649307,-0.010603021586185996,0.005239036855254817,0.9904660978260569
2014-08-08,1,0.0007495662915941915,0.0007677491024648742,-0.010603021586185996,0.005837396492944779,0.9903299943286743
2014-08-12,0,-1.3083758800975555e-05,0.00011243404361625759,-0.010046466985235104,0.005837396492944779,0.9903484236917333
2014-08-14,1,0.0007631365283150895,0.000805928149345513,-0.011082700819959563,0.003021304788827797,0.9908421712868054
2014-08-18,-1,-0.0006448157689748806,-0.0004007829266726834,-0.010046466985235104,0.005026441504542779,0.9918418523174176
2014-08-20,-1,-0.0004373792244009993,-0.00022805207978086374,-0.010046466985235104,0.005026441504542779,0.9916211132947514
2014-08-22,-1,-0.000756839313468443,-0.0005504873759824902,-0.007779862866675705,0.005837396492944779,0.9906591376450753
2014-08-26,-1,-0.0008535618278933095,-0.0006355216164212027,-0.010046466985235104,0.007196634620380428,0.9894554100270662
2014-08-28,-1,-0.0011494506364580453,-0.000882966528984885,-0.010419710981238473,0.007196634620380428,0.9890756838904182
2014-09-02,-1,-0.00040643570895744475,-0.00023656516814778736,-0.010419710981238473,0.005767563388183982,0.9895693844096152
2014-09-04,-1,-0.0019185908436691464,-0.001498557367812318,-0.011421467066620509,0.005767563388183982,0.9895316042648874
2014-09-08,-1,-0.001093738159743555,-0.0007845166329288259,-0.011421467066620509,0.0061202632672920304,0.988858514672563
2014-09-10,-1,-0.0018579913831807896,-0.001431561664540073,-0.016606756859529923,0.0069871353060980395,0.9874306815424383
2014-09-12,-1,-0.0026293348195052645,-0.0021053420231479316,-0.017663900340481205,0.0069871353060980395,0.987226584704388
2014-09-16,-1,-0.002569951663879578,-0.0020432179547756188,-0.018176434766995694,0.007933655187154977,0.9857893602212754
2014-09-18,-1,-0.0032180485998424976,-0.00260401561449868,-0.01872108863188479,0.007933655187154977,0.9847124736332161
2014-09-22,-1,-0.0026432073491515417,-0.0021237296066165647,-0.01872108863188479,0.008001759672254007,0.984792679393357
2014-09-24,-1,-0.0022314926117966275,-0.00181296099778691,-0.01872108863188479,0.008864365650154613,0.9838992523327542
2014-09-26,-1,-0.001865107853335855,-0.0015569543297174627,-0.018665813160328667,0.01717869456932445,0.983638496634308
2014-09-30,-1,-0.0016211250780302213,-0.0013705555761811478,-0.018665813160328667,0.01717869456932445,0.9828228467562456
2014-10-02,-1,-0.0016867195345782078,-0.0014763866050536366,-0.011285952589209548,0.01717869456932445,0.9830520739537714
2014-10-06,-1,-0.001016066125972537,-0.0008338280222128336,-0.011285952589209548,0.01717869456932445,0.9831415656566035
2014-10-08,-1,-0.0015834894229958601,-0.0013175800361333047,-0.011285952589209548,0.016035643728290992,0.9838849979677337
2014-10-10,-1,-0.0024168266799281576,-0.0020358356802655433,-0.010222394287052818,0.016035643728290992,0.9839693748662957
2014-10-14,-1,-0.002449184971292379,-0.002078608560316308,-0.0005524879661788951,0.0134974723559919,0.9851758820761142
2014-10-16,-1,-0.003468119225612964,-0.0029860121969409567,0.001412479707031141,0.0134974723559919,0.98580270961576
2014-10-20,-1,-0.0019286933925046698,-0.0016475486370635204,-0.0014111339153694087,0.01136248157969837,0.988161002335813
2014-10-22,-1,-0.001329010947732299,-0.0011301484217649455,-0.0014111339153694087,0.010518994223216442,0.989675389502159
2014-10-24,-1,-0.0003452091681179475,-0.000269967723504814,-0.0014111339153694087,0.01028331048890024,0.9908572991476866
2014-10-28,1,0.0007173187726329756,0.000796466396293757,-0.002535728287003805,0.006144492055951878,0.992071901404028
2014-10-30,1,0.00105397751567295,0.0011755102519287962,-0.00282198861186964,0.006237546775861195,0.9919991322293396
2014-11-03,1,0.0019062500643952935,0.002106899170612286,-0.004607706094921539,0.004636351196367761,0.992836290747964
2014-11-05,1,0.0015176114286593592,0.001695480730041618,-0.0035664459152616908,0.0050939932026007615,0.9935062699933501
2014-11-07,1,0.0014445577874500131,0.0016417635767068013,-0.00282198861186964,0.0050939932026007615,0.9943658945891956
2014-11-11,1,0.002049513538445575,0.0023459015386601287,-0.0035664459152616908,0.0050939932026007615,0.9933990008698311
2014-11-13,1,0.0016410265952919636,0.0018457627009555205,-0.0051718912900426215,0.0050939932026007615,0.99239718463726
2014-11-17,1,0.0018047161079616035,0.0020592130029832775,-0.005515768268094022,0.0050939932026007615,0.9923716623966263
2014-11-19,1,0.0016193263662511606,0.0018349228028421748,-0.0035664459152616908,0.00567270599238472,0.9911919514263675
2014-11-21,1,0.0019220239664920432,0.002194436043063834,-0.0035664459152616908,0.00567270599238472,0.9911543801354448
2014-11-25,1,0.0019459305002770466,0.002212410811708837,-0.005500915374066196,0.00567270599238472,0.9909006954350492
2014-11-28,1,0.002264529622068942,0.0025741410254700374,-0.005500915374066196,0.004758127552126443,0.9914430599325785
2014-12-02,1,0.0019416009557660346,0.0022227114218853826,-0.00476959577581868,0.003913498587269803,0.9920786952267036
2014-12-04,1,0.0017948234709157164,0.002033709803675069,-0.009626621059144289,0.0029098178014536702,0.9912464829256727
2014-12-08,1,0.0015850471281426358,0.001759525169839743,-0.009717356847283538,0.003913498587269803,0.9894362409313866
2014-12-10,1,0.0013578540383360799,0.0015136366719848463,-0.009717356847283538,0.003913498587269803,0.9891695186856073
2014-12-12,1,0.0008289635030518664,0.0009467541382115961,-0.009626621059144289,0.008935428609650492,0.986865492921804
2014-12-16,1,0.0003272503602389119,0.000348884362265567,-0.008353257944665203,0.011065987015727996,0.9866216395230577
2014-12-18,1,0.002203072341356499,0.00249144538388001,-0.008353257944665203,0.007625471571367579,0.9882107974552957
2014-12-22,1,0.002559002797291355,0.00293713759951313,-0.008353257944665203,0.007625471571367579,0.9883401208846202
2014-12-24,1,0.0021170569353066502,0.002417452212163223,-0.006998305963556825,0.008758669045986186,0.9882851648925449
2014-12-29,1,0.0019622411868335378,0.0022207035582661504,-0.006998305963556825,0.008758669045986186,0.9881918681446725
2014-12-31,1,0.001655026540760541,0.0018765948808917013,-0.008414287944748801,0.00924651423084533,0.9850663196086287
2015-01-05,1,0.0006781373752744967,0.0007440999470323037,-0.004318942835041169,0.009603020146081073,0.9853972084652579
2015-01-07,1,0.0017269625297425496,0.002002848730430516,-0.004318942835041169,0.00924651423084533,0.9863038986248549
2015-01-09,1,0.0014191386853253636,0.0015884365876188307,-0.004318942835041169,0.009049844955628463,0.9875498964410442
2015-01-13,1,0.0037125186891771504,0.004189659643589217,-0.004318942835041169,0.008708839349146787,0.9909139682912127
2015-01-15,1,0.0031325858537269227,0.0034778230153328154,-0.0014866712774397315,0.008708839349146787,0.9913445512591069
2015-01-20,1,0.0034969740627995597,0.0038809075811661155,-0.0014866712774397315,0.0074565926859201485,0.991449028175078
2015-01-22,1,0.0034241168917098098,0.003783530577393948,-0.0014866712774397315,0.009049844955628463,0.9902421123552517
2015-01-26,1,0.003826687447034202,0.004280621200020192,-0.0006388831027679248,0.0074565926859201485,0.9906786177549384
2015-01-28,1,0.0032675618061416387,0.0036066565959501184,-0.0006388831027679248,0.0074565926859201485,0.9908951653912169
2015-01-30,1,0.004334910301047417,0.004857025494374038,0.000843824525429554,0.0074565926859201485,0.9943771502525424
2015-02-03,1,0.004230639189812282,0.0047127818242415805,-0.0006388831027679248,0.006727229324671227,0.994113390561935
2015-02-05,1,0.003232905858373255,0.0035345623770935792,-0.0006388831027679248,0.0066089781414268595,0.9947845619967616
2015-02-09,1,0.0029624628540937093,0.003233360964524788,-0.0006388831027679248,0.0066089781414268595,0.994774035827093
2015-02-11,1,0.002534140720833824,0.002717667657050846,0.0007822927803453413,0.006727229324671227,0.9944996790631159
2015-02-13,1,0.0030547956857534734,0.003315764567373161,0.0007727203120762793,0.006725811716767803,0.9946811056581447
2015-02-18,1,0.003123395439388901,0.0033807540794186124,-0.0009338657755239337,0.006725811716767803,0.9945988780347849
2015-02-20,1,0.0035682135717347973,0.0038462586561751207,-0.0009338657755239337,0.007174804668444162,0.9954314396410358
2015-02-24,1,0.0033429233832203325,0.00357560373340997,-0.004213173729435008,0.007174804668444162,0.9942745966101337
2015-02-26,1,0.0031211111263521685,0.003292786316028683,-0.007095479516686884,0.007174804668444162,0.993175364132721
2015-03-02,1,0.003906828710815432,0.004228482951436579,-0.007095479516686884,0.007620301984504036,0.9919114473926577
2015-03-04,1,0.003115577440551974,0.0033070677378168128,-0.008246139601196082,0.007620301984504036,0.991641548682521
2015-03-06,1,0.0022721180326956665,0.0023063746118862573,-0.0051949370706406255,0.008523988127378066,0.9915369659999794
2015-03-10,1,0.0019088674441092959,0.0019310299978125352,-0.004520513262937413,0.008523988127378066,0.991718337327231
2015-03-12,1,0.001098959146460502,0.0012837390675757173,-0.004520513262937413,0.008040508581269446,0.9917973952595938
2015-03-16,1,0.001726957120699672,0.001786820975008934,-0.004520513262937413,0.008040508581269446,0.9916775330507416
2015-03-18,1,0.0018902865537809015,0.0019278994156773583,-0.006094487346938311,0.007470485831552727,0.9913939190247651
2015-03-20,1,0.0023505494809134835,0.0024307428201482337,-0.0087543647613838,0.006741131484261292,0.9904632179665793
2015-03-24,1,0.0019347595274550092,0.001998428216232781,-0.004520513262937413,0.007640750181488267,0.9912519682808113
2015-03-26,1,0.0015825038099060483,0.0016118111083815957,-0.003983117844369484,0.00875717609755966,0.9914925681991551
2015-03-30,1,0.003062393426003596,0.003342190818250241,-0.004520513262937413,0.006657817401984669,0.9915674437309039
2015-04-01,1,0.0018025082471223787,0.001874585876364503,-0.004282967936468712,0.007640750181488267,0.9905424730571323
2015-04-06,1,0.0019227157224361376,0.002004774399951976,-0.004282967936468712,0.007668644869569224,0.990536723492488
2015-04-08,1,0.0022465334542386313,0.002392530845436543,-0.00623428480807595,0.007668644869569224,0.9895886131986183
2015-04-10,1,0.0015125091044163451,0.0015446411444933533,-0.00623428480807595,0.008602790596901432,0.989382023824892
2015-04-14,1,0.0012972892585236969,0.001301503180403825,-0.010873447717293604,0.008602790596901432,0.9887255713226405
2015-04-16,1,0.000683617667267176,0.0007751062460354711,-0.00623428480807595,0.008602790596901432,0.9889041849458573
2015-04-20,1,0.0010552704948333627,0.0010961007502490142,-0.003678114518519923,0.007737511941104358,0.9900372504446365
2015-04-22,1,0.0007856292987070802,0.0008641304220381493,-0.006443549789978206,0.008602790596901432,0.9888682950578279
2015-04-24,1,0.0016603137574886856,0.001700083363859242,-0.006443549789978206,0.007737511941104358,0.9899473950022305
2015-04-28,1,0.0002843849597035569,0.00043909801666678223,-0.006443549789978206,0.008602790596901432,0.9892133005582563
2015-04-30,1,0.0007042751064280895,0.0008158674952815389,-0.00457445910562649,0.008602790596901432,0.990646967299397
2015-05-04,1,0.001149489221313471,0.0012073700206492839,-0.00457445910562649,0.008322902540895884,0.9911137049679878
2015-05-06,0,-0.00014374158025023422,8.516189570428867e-05,0.00037637392690538203,0.008322902540895884,0.991532813606132
2015-05-08,0,-0.0002385035096908912,4.101568389489041e-05,-0.003602893685506341,0.007008401140017904,0.9919910574484472
2015-05-12,-1,-0.0006540601763414793,-0.0003266941196230143,0.0006798742824997654,0.00879283916172195,0.9915977694031922
2015-05-14,1,0.00041749681572718274,0.0005520295679810742,-0.0028302417430069206,0.00879283916172195,0.99208358697217
2015-05-18,1,0.000448824505293593,0.0005878862394442983,-0.003602893685506341,0.010589577910080576,0.9916633774007032
2015-05-20,1,6.272185389593883e-05,0.0002682608893280537,-0.0033412187848688643,0.010589577910080576,0.9923555393009011
2015-05-22,1,9.581021996063585e-05,0.0003058059491815062,-0.0035801423617952965,0.010589577910080576,0.9918794010313657
2015-05-27,1,0.00034825740047839115,0.0005491160732288033,-0.004068711686544201,0.010309738444759653,0.993074054078258
2015-05-29,0,-5.99648829043291e-06,0.00026207860008800436,-0.0035801423617952965,0.010309738444759653,0.9931674098852371
2015-06-02,1,0.00033442313608251194,0.0005179699285277812,-0.004106997518225216,0.010555482775032168,0.9924154682127312
2015-06-04,0,-0.00011144099694945645,0.00014471745431610626,-0.0035801423617952965,0.010555482775032168,0.9924595116064229
2015-06-08,1,0.0007142546958635017,0.0007730107827699246,-0.0035801423617952965,0.011351873342896309,0.9921358510788411
2015-06-10,1,0.0012980796180382306,0.0013082109869432539,-0.004121157424429466,0.010555482775032168,0.9917649598618188
2015-06-12,1,0.0012835407372838766,0.0013062272825714637,-0.004121157424429466,0.011569767871529421,0.9907827221148319
2015-06-16,1,0.001406710713851692,0.0014565406406966297,-0.004121157424429466,0.011569767871529421,0.9904014653238492
2015-06-18,1,0.0015148383364217755,0.0015866364014738158,-0.005107339443180886,0.010580545217030357,0.9906760751319834
2015-06-22,1,0.0012093073084161704,0.00122440802256788,-0.005107339443180886,0.00836421543184545,0.9910831885834276
2015-06-24,1,0.0012005071352935433,0.0012296407496920096,-0.003735374486373421,0.00836421543184545,0.9912355255582671
2015-06-26,1,0.001680960812892627,0.0017851500256347538,-0.006343510021947728,0.00743462280423672,0.9912091066126915
2015-06-30,1,0.0012438666345857218,0.0012672281782220934,-0.003954738408489758,0.00743462280423672,0.9917748469801476
2015-07-02,1,0.0009169748214499249,0.0009335283019214322,-0.003954738408489758,0.012261588738642444,0.9876568064086289
2015-07-07,1,0.0009185002384179928,0.0009216557275341965,-0.004812495974615319,0.009044689247900618,0.9879182758478345
2015-07-09,1,0.00035915491266257375,0.0004028823581471183,-0.004812495974615319,0.013212419863468853,0.9863142713977517
2015-07-13,1,0.0015119914785823104,0.0016188256946197896,-0.004812495974615319,0.009200891644234389,0.9864374545192761
2015-07-15,1,0.0008428885228867074,0.0008822861612334739,-0.004812495974615319,0.013790483731442052,0.9866480913963651
2015-07-17,1,0.000688767410494964,0.0007002677438546237,-0.004125508092888256,0.016316357458998215,0.9861006489478317
2015-07-21,1,0.0007084603772754385,0.0007347996494702269,-0.004873633846791001,0.016316357458998215,0.9854186490511384
2015-07-23,1,0.0005631541375650785,0.0005848230177234287,-0.00652692363847477,0.016316357458998215,0.9839508414417402
2015-07-27,1,0.0006126758176017285,0.0006365850925292106,-0.007880522495519815,0.016316357458998215,0.9811702640845485
2015-07-29,1,0.0006758240547627067,0.000687322553165741,-0.007880522495519815,0.01766541789484266,0.9809902550554128
2015-07-31,1,0.0022962567256911044,0.00251024506237592,-0.007880522495519815,0.015429173918916728,0.9841683357599297
2015-08-04,1,0.0020229097567925304,0.002197919974074313,-0.024832107200214653,0.015429173918916728,0.9813581701173824
2015-08-06,1,0.0009446002668461737,0.0009761238544581427,-0.01283950778719754,0.015429173918916728,0.9830934075652227
2015-08-10,1,0.0018090389547247975,0.0019715020575641834,-0.01283950778719754,0.015429173918916728,0.9829004465375138
2015-08-12,1,0.002306951838050504,0.002543614277556715,-0.019774674316498892,0.014699037809924653,0.9825784195027014
2015-08-14,1,0.001937201984426653,0.0020849567239636414,-0.019774674316498892,0.014699037809924653,0.9824518213702625
2015-08-18,1,0.001538921620179233,0.0016362994516327246,-0.019774674316498892,0.015629887727658553,0.982174717597578
2015-08-20,1,0.0007800528834305898,0.0008049676647015561,-0.011387800194363997,0.015629887727658553,0.9830528922468867
2015-08-24,1,0.0009409967244322413,0.0009600775532372929,-0.0028066461343921227,0.015629887727658553,0.9860088980027286
2015-08-26,1,0.0005543027146437,0.0005548768966756349,-0.008907545734332148,0.014699037809924653,0.9859510955052537
2015-08-28,1,0.0011302099765386458,0.0012231422494106325,-0.013100079947008042,0.012297073983658884,0.9836832301261246
2015-09-01,-1,-0.0014569391268983724,-0.0011730603579352679,-0.008907545734332148,0.015091318771382369,0.9846603743278657
2015-09-03,-1,-0.0007557314381804694,-0.0005549309943830157,-0.008907545734332148,0.011378971442245775,0.985838946843603
2015-09-08,1,0.00015545993945275093,0.00026233687523782514,-0.012798827081282908,0.010324192492815522,0.985056767553325
2015-09-10,0,-0.00010748427581312996,2.0790093996785855e-05,-0.009700674920010732,0.009425658559032586,0.9861469744028789
2015-09-14,1,0.00010347811318782657,0.00022317488111001863,-0.009700674920010732,0.009149326712164868,0.9869082301493818
2015-09-16,1,0.0011244965207428143,0.0011699164002360318,-0.012233665044569846,0.0028874862650961116,0.9866159180404457
2015-09-18,1,0.0003130527998683152,0.0004115339895359925,-0.012233665044569846,0.003898222339655665,0.9863665558370404
2015-09-22,1,0.0003534412828296097,0.0004445736831133495,-0.014539912656383725,0.005863803916657884,0.9847400899152396
2015-09-24,1,5.0135394883766453e-05,0.0001605554891147513,-0.016536651632248052,0.005863803916657884,0.9844094579982671
2015-09-28,-1,-0.0019350853024034632,-0.0015498016844932693,-0.011667528545127287,0.010160339329634793,0.9864523019142085
2015-09-30,-1,-0.0008036277904257829,-0.0005711043747795848,-0.011667528545127287,0.01255582684184948,0.9859044869850425
2015-10-02,-1,-0.0007335952492114471,-0.0004970269169778433,-0.014539912656383725,0.01255582684184948,0.9852157016759333
2015-10-06,-1,-0.0022381423902479054,-0.001843584615705927,-0.008327577531817195,0.01836878278317715,0.9861020309637964
2015-10-08,-1,-0.002224568747098878,-0.0018418357836371955,-0.007126986029818805,0.01836878278317715,0.9856889992974938
2015-10-12,-1,-0.001970335819897746,-0.0016120944472150748,-0.011667528545127287,0.01836878278317715,0.9853661312656438
2015-10-14,-1,-0.002819187840661498,-0.002369801822711036,-0.008252341089099054,0.018862306412941517,0.9837781426796809
2015-10-16,-1,-0.0016697937042096218,-0.0013853479491641486,-0.01545234137078475,0.01836878278317715,0.984949135418896
2015-10-20,-1,-0.001704090127272362,-0.0014228092347115854,-0.008252341089099054,0.013046519108684422,0.9865263662267862
2015-10-22,-1,-0.0023090320737685533,-0.0019615194987645896,-0.007626418024563275,0.014808719726111495,0.985814029194051
2015-10-26,-1,-0.001546770508243624,-0.0012778638885760064,-0.007626418024563275,0.01172096856644772,0.987385068190909
2015-10-28,1,7.379319307882355e-05,0.00015992945300417343,-0.007626418024563275,0.007644206287363464,0.9900006229102835
2015-10-30,-1,-0.0005283814936090175,-0.0004123475282812475,-0.002570982736513113,0.007644206287363464,0.9907033946755266
2015-11-03,0,-4.536682226894022e-05,2.1667263996373408e-05,-0.005899219097787584,0.007644206287363464,0.9904042448509509
2015-11-05,1,0.0006700577098335413,0.0007016449606734274,-0.010218277977073427,0.007644206287363464,0.9886671363749201
2015-11-09,-1,-0.00015077939079618762,-8.965449174489054e-05,-0.010270744590457676,0.007442891349074119,0.9888514478384752
2015-11-11,1,4.290732990104874e-05,8.746007482739347e-05,-0.010456514425428578,0.007296457855345175,0.9892433662871134
2015-11-13,-1,-0.0005324397513514453,-0.00040624502247139775,-0.010499980792644432,0.007615058907466879,0.9887538530653687
2015-11-17,1,0.00027293438188624253,0.0002786587816398815,-0.010499980792644432,0.009502913975414277,0.9873782433917634
2015-11-19,-1,-0.0003322655843608127,-0.00024327727305498443,-0.010151331390757301,0.007918112361065916,0.9879127918336102
2015-11-23,1,0.00036649868376418567,0.0003741150301787506,-0.010151331390757301,0.009120656860438447,0.9875494375046371
2015-11-25,1,2.833050588738959e-05,4.7501097160337885e-05,-0.010151331390757301,0.009120656860438447,0.9872714026436878
2015-11-30,-1,-0.000227959758892704,-0.0001343263443500104,-0.010151331390757301,0.009120656860438447,0.9871601805853062
2015-12-02,1,0.0006811635657038334,0.0007666503429756984,-0.015479731810867096,0.007869473580195446,0.9876841828861131
2015-12-04,-1,-0.0004908466888782577,-0.00037505580752004064,-0.015479731810867096,0.006638148812467012,0.9888708649393049
2015-12-08,-1,-0.0010926592617918067,-0.000899187706723905,-0.015479731810867096,0.007869473580195446,0.9877338856124698
2015-12-10,-1,-0.00185137526415431,-0.0015666603136449322,-0.015479731810867096,0.007038996978924523,0.9881610925904015
2015-12-14,-1,-0.002369055250235876,-0.0020082919997732743,-0.015479731810867096,0.007038996978924523,0.9870702116823565
2015-12-16,-1,-0.0009234892967482008,-0.000737689882361806,-0.015479731810867096,0.005766868488952346,0.9885079214627763
2015-12-18,-1,-0.0011716727579048894,-0.0009799097890430832,-0.01442813878851751,0.0062247607409684404,0.9883931893993751
2015-12-22,1,0.00045733716906363043,0.0006055655881101215,-0.017877678324010698,0.0062247607409684404,0.9857318479156789
2015-12-24,1,0.0005613461484472186,0.0007108850947199709,-0.017877678324010698,0.010039483065431799,0.9844037077483099
2015-12-29,1,0.00033469386483368346,0.00040024443054837794,-0.022014016418795784,0.010039483065431799,0.980362903992899
2015-12-31,1,0.0003127894968651744,0.00043614234511637763,-0.022014016418795784,0.014173912818389884,0.9782152165078
2016-01-05,1,0.00020746586192243625,0.00034544232454083903,-0.01927543609001961,0.014173912818389884,0.9782945476475013
2016-01-07,0,-8.591180643813896e-05,3.080463881890386e-05,-0.01927543609001961,0.014173912818389884,0.9774659453613225
2016-01-11,-1,-0.0008951669237607824,-0.0008801872719972411,-0.01631886723250623,0.014173912818389884,0.9781248552483103
2016-01-13,-1,-0.0022700184245796513,-0.0020572310760693796,-0.015566540418374082,0.010151188934942629,0.9800448145659388
2016-01-15,-1,-0.0036728507464427185,-0.0032148852213740612,-0.015566540418374082,0.01547793122378688,0.9782002967875185
2016-01-20,-1,-0.0033947965178024024,-0.0029890797705804054,-0.015566540418374082,0.0194421483410153,0.9781866942876445
2016-01-22,-1,-0.0023466900873489937,-0.0021124518518021995,-0.012349379581453027,0.014953883828924703,0.9810067929785383
2016-01-26,-1,-0.002787912292021447,-0.0023798405146560966,-0.012349379581453027,0.006735893374302136,0.9824516584049682
2016-01-28,-1,-0.005614069448734412,-0.0049359142659990505,-0.00307739948666434,0.009714494202772234,0.9843953680102109
2016-02-01,-1,-0.0019167219794254805,-0.00173822888442676,-0.005212320484981272,0.006735893374302136,0.9874659409670683
2016-02-03,-1,-0.002457737557122659,-0.002203734510595695,-0.00307739948666434,0.007603779965825933,0.9878495259237431
2016-02-05,-1,-0.003839761447678859,-0.003477072536013548,-0.00307739948666434,0.007603779965825933,0.9883985907026482
2016-02-09,-1,-0.0032755291594235344,-0.0030343242765011238,-0.00307739948666434,0.007603779965825933,0.9894871001929226
2016-02-11,-1,-0.0036719061296806364,-0.0033949268752397183,-0.002523400223162169,0.012318153977343628,0.9885357626871875
2016-02-16,-1,-0.0016925387562369799,-0.0016443270131611804,-0.0027485402214378,0.007603779965825933,0.9899675676751402
2016-02-18,-1,-0.0014553811812792138,-0.0014103696218081062,-0.0034692245000081437,0.006081363275778042,0.9900475531803034
2016-02-22,-1,-0.002745565794893783,-0.002425187503060006,-0.0034692245000081437,0.007603779965825933,0.9893917350807422
2016-02-24,-1,-0.0016586990409759473,-0.001534446258786475,-0.006440681450973644,0.012318153977343628,0.987798098862585
2016-02-26,-1,-0.0009293985134444206,-0.0009091672832836825,-0.006440681450973644,0.010526401466836949,0.9877141390605656
2016-03-01,-1,-0.0012072462791907022,-0.0010604022975225051,-0.0030293412329948565,0.007377038508134816,0.9897112159396755
2016-03-03,-1,-0.0011651252525814136,-0.0010125518481064184,-0.0030293412329948565,0.006083225689404165,0.9901397457219521
2016-03-07,-1,-0.001961930737176109,-0.0017392323358556374,-0.0030293412329948565,0.007377038508134816,0.990209277648405
2016-03-09,-1,-0.00285109282432997,-0.0024772687481336266,-0.005004546507494666,0.011639283919947556,0.988033691333349
2016-03-11,-1,-0.001400625254084389,-0.0012549329936438038,-0.010474623708009896,0.007377038508134816,0.9888015380131746
2016-03-15,-1,-0.002396435542693679,-0.002122460434847277,-0.003992488371640503,0.011639283919947556,0.98864922323639
2016-03-17,-1,-0.003285272669850786,-0.002865765577693793,-0.002070387954254814,0.011639283919947556,0.9887153058835039
2016-03-21,-1,-0.0016219564518607393,-0.0014322011485946062,-0.002810428967240413,0.011639283919947556,0.9892801595111378
2016-03-23,-1,-0.0007429959609074368,-0.000724059911556832,-0.002070387954254814,0.012005893102387963,0.990342090581401
2016-03-28,-1,-0.0003963884482394861,-0.000374636001739767,-0.002070387954254814,0.01129660258180384,0.9908006426162295
2016-03-30,1,3.837395550376711e-06,0.0001346846361796673,-0.002250606900008429,0.01129660258180384,0.9907956839192624
2016-04-01,1,0.00011709180292490912,0.00030334386677889266,-0.0058978349161837,0.01129660258180384,0.9856166706311169
2016-04-05,1,0.00013134012330224008,0.0002942212527990367,-0.002941408476532941,0.010062766329727968,0.986108717842963
2016-04-07,1,0.001028937399343211,0.0013489721133297856,-0.004253464291491339,0.008072345111183012,0.9875773375694596
2016-04-11,1,0.0005560708824974964,0.0007818330833988054,-0.002818938347620423,0.008072345111183012,0.98785261443298
2016-04-13,1,0.001967135128114473,0.002408418013599858,-0.004253464291491339,0.008072345111183012,0.9881546969028604
2016-04-15,1,0.0020052653774825626,0.0024409381863102157,-0.005209347374052821,0.008072345111183012,0.9877791647978184
2016-04-19,1,0.0026150590900126417,0.003148740072058423,-0.007663253003655483,0.008072345111183012,0.9875337443548647
2016-04-21,1,0.0033725620054992694,0.003997176895834311,-0.008911198526896829,0.005470467702736292,0.9874576249801134
2016-04-25,1,0.003972786761492734,0.004702863616874847,-0.008911198526896829,0.0037724665393645794,0.9870318670754119
2016-04-27,1,0.0042852600497203935,0.005084801472119948,-0.008911198526896829,0.005499192807326304,0.9869894369281209
2016-04-29,1,0.0008063046756686294,0.0010855807255580351,-0.007180671579221312,0.008401928280433539,0.9922219063079828
2016-05-03,1,0.0012254929788922645,0.0015244729209840148,-0.007180671579221312,0.007171833646531443,0.9927150759104164
2016-05-05,1,0.00020974396478275014,0.0003231428633514601,-0.007180671579221312,0.007171833646531443,0.992500286133304
2016-05-09,1,0.0003279923600078219,0.00044258307557343203,-0.007180671579221312,0.007171833646531443,0.992234594317983
2016-05-11,1,0.0013919505244447431,0.0017363220430271992,-0.0065162013309337154,0.007171833646531443,0.9926602646781404
2016-05-13,1,0.0008524298576879934,0.0011036077768438472,-0.008008465655695176,0.007171833646531443,0.9909679677766103
2016-05-17,1,0.000900913032237348,0.0011737467978279411,-0.008008465655695176,0.005680153483580818,0.9917569262229251
2016-05-19,1,0.0008608348080453428,0.0011477824834665415,-0.0065162013309337154,0.007171833646531443,0.9913649405807357
2016-05-23,1,0.0009929467735502828,0.0013269592014114489,-0.006470516605482011,0.007889089119333448,0.9910510337342506
2016-05-25,1,0.0012403284646507662,0.001564643916487379,-0.006470516605482011,0.007889089119333448,0.9893869133840378
2016-05-27,1,0.0016993302033427432,0.002039531400959047,-0.010914817734704561,0.006907821585219564,0.9865266904929407
2016-06-01,1,0.001790910264082859,0.0021156789195031084,-0.010914817734704561,0.010508843041671226,0.9854054163088095
2016-06-03,1,0.0007841694672449429,0.0009078263210587716,-0.008106228667114468,0.013488988514643592,0.9850943375254904
2016-06-07,1,0.0003896625781575482,0.00043139023989651544,-0.01012464668746856,0.013488988514643592,0.9845284519736239
2016-06-09,1,0.0008614992513475938,0.000934744622280108,-0.01012464668746856,0.013529275947378206,0.9839252183193065
2016-06-13,-1,-0.0009482729172601576,-0.0007821547500083896,-0.007938287758727774,0.013529275947378206,0.9849573822044511
2016-06-15,-1,-0.0010108877203068379,-0.0008595681378136573,-1.3682677215196785e-05,0.01619195176321108,0.9842385807056147
2016-06-17,1,0.00047323793756535255,0.0005708238988262314,-0.005599511810269896,0.013529275947378206,0.9855122807223597
2016-06-21,-1,-0.0014286838918957467,-0.0011425705838495842,3.0686563688132017e-06,0.013529275947378206,0.9850912230614466
2016-06-23,1,0.0016312970437645188,0.001850162544388721,-0.005922148538493052,0.01227308139923302,0.9882805311411287
2016-06-27,-1,-0.001138967166141443,-0.0009981999452174147,0.0015772079839328804,0.01227308139923302,0.9902769385646665
2016-06-29,-1,-0.0009107991351656967,-0.0007087746550291066,0.0015772079839328804,0.010562767555208538,0.9902157692346958
2016-07-01,-1,-0.0004118212358883655,-0.0002504856122579189,0.0015772079839328804,0.010562767555208538,0.9907097122895265
2016-07-06,-1,-0.0009687714679783545,-0.0007100717848355894,0.0013474913110625864,0.010562767555208538,0.9912657477698552
2016-07-08,1,0.0010700658482609136,0.0011281632933877904,0.0007698650790203164,0.007814857452703765,0.9932220695573778
2016-07-12,1,0.001122988484585659,0.001218352398422544,0.0007698650790203164,0.007814857452703765,0.9927815172244573
2016-07-14,1,0.0018469196693802164,0.002040975183992509,-0.0014810787987970702,0.0075685991036367195,0.9934488070195482
2016-07-18,1,0.0017242618841206204,0.0019050606793248872,-0.0014810787987970702,0.00790481148584381,0.993171777299239
2016-07-20,1,0.002213815452578876,0.002485246859215282,-0.005333098157231317,0.0075685991036367195,0.9921788601655065
2016-07-22,1,0.0021507620866283205,0.002440206795957559,-0.0038078071742607277,0.007806093859445594,0.9923819534131881
2016-07-26,1,0.002539152627319819,0.0028974229953328055,-0.0038078071742607277,0.007976848472912357,0.9923894491520845
2016-07-28,1,0.0030556569051875364,0.0034164643247264702,-0.005333098157231317,0.0075685991036367195,0.9932186788111061
2016-08-01,1,0.003429655950963949,0.003823756762090746,-0.005333098157231317,0.0075685991036367195,0.9931378047004193
2016-08-03,1,0.003609031759409061,0.004049729311847994,-0.007279794056198685,0.0075685991036367195,0.9926796130483274
2016-08-05,1,0.003067937280495556,0.003386916827253666,-0.005024656049261487,0.007412822785805245,0.993359996070309
2016-08-09,1,0.0024680273968924237,0.002680271493556682,-0.0038078071742607277,0.005257173024397488,0.9943889538590021
2016-08-11,1,0.0027025988774850703,0.0029709859803900246,-0.005039932187888456,0.003255695831962199,0.9926664779661828
2016-08-15,1,0.0024636428693785026,0.002671266951829925,-0.007151596916467134,0.003255695831962199,0.9922838892881449
2016-08-17,1,0.0018527319198189032,0.002007803034313859,-0.0027028408766948384,0.005281185353420337,0.9931804902081649
2016-08-19,1,0.0019124127012491222,0.002066542581355087,-0.004277836315749453,0.005439876195431429,0.9929794375117607
2016-08-23,1,0.002198374621289476,0.002389648585583641,-0.004277836315749453,0.007815927948930969,0.9927123244535765
2016-08-25,1,0.001904037053588276,0.002059681400977304,-0.004277836315749453,0.007815927948930969,0.9927043909898021
2016-08-29,1,0.0022909917209031423,0.0025165223439299464,-0.005039932187888456,0.007815927948930969,0.9915803196512766
2016-08-31,1,0.001763628347601535,0.0018985815846497567,-0.005220177156126736,0.007815927948930969,0.9912549316891779
2016-09-02,1,0.0021724661931909147,0.00241770353264539,-0.005220177156126736,0.008560889550281487,0.990507810905002
2016-09-07,1,0.0022733237882557812,0.0025364912900867464,-0.005220177156126736,0.008955203530204745,0.9901561723626247
2016-09-09,1,0.0011725097296965796,0.0013154513884020506,-0.004823115120140146,0.010092379324257252,0.9912225607833
2016-09-13,1,0.0017666458343529722,0.00203543177523986,-0.004823115120140146,0.008955203530204745,0.9903991015757773
2016-09-15,1,0.0021542072589423866,0.002488550569774421,-0.007060303143303158,0.008560889550281487,0.9903591771270386
2016-09-19,1,0.0022655943336199217,0.0026154852563788997,-0.007060303143303158,0.008026701001226539,0.9909189879758914
2016-09-21,1,0.0017099857137349219,0.001758243544711862,-0.00870590157064245,0.00715850272452163,0.9906008632380897
2016-09-23,1,0.0018595096891034337,0.0019694890080684765,-0.009505790324062298,0.00715850272452163,0.9907607361446265
2016-09-27,1,0.001581034686140189,0.0016072344933193662,-0.009505790324062298,0.004847337406092169,0.9915620368417161
2016-09-29,1,0.00040519580211635675,0.0004776409617260701,-0.010759728816807843,0.004847337406092169,0.9900957991044346
2016-10-03,1,0.0014782342015905354,0.0014957851502042255,-0.010759728816807843,0.003581458648638427,0.9908242859498635
2016-10-05,1,0.001734543381908943,0.0017468889698312793,-0.010759728816807843,0.0031064629106598747,0.9904207579208678
2016-10-07,1,0.0008242674529275808,0.0008338377662959153,-0.010759728816807843,0.0031888093904631804,0.9878978517032503
2016-10-11,-1,-0.00015004393182223183,-1.282145985735542e-05,-0.009824048701470465,0.0031888093904631804,0.9891115372122984
2016-10-13,-1,-0.0005808557237193549,-0.000375785810819052,-0.009824048701470465,0.003581458648638427,0.9872694768213912
2016-10-17,-1,-0.000337619647685497,-0.0001816587733024328,-0.0108781384441464,0.0029917713311922323,0.9861358375637687
2016-10-19,-1,-0.00016548499949147426,-6.109829962926811e-05,-0.0108781384441464,0.004914859866096784,0.9850610671830908
2016-10-21,-1,-0.00033004282566381776,-0.00020937306097545196,-0.010564433642283096,0.012819554427207232,0.9840158626724488
2016-10-25,-1,-0.0008510476420367145,-0.0006527902394716236,-0.00852916028174213,0.012819554427207232,0.9842716046905023
2016-10-27,-1,-0.002018485308634552,-0.0016744852569909965,-0.006055814508734676,0.013686920585741155,0.9854041782365432
2016-10-31,-1,-0.0016731186278702702,-0.0013991880930028019,-0.00795309336862827,0.013686920585741155,0.9847388762723116
2016-11-02,-1,-0.0028938407411297864,-0.0024197459807132967,-0.008352159053055405,0.013686920585741155,0.983916263412158
2016-11-04,-1,-0.0011615004548712424,-0.0008766886272644052,-0.008352159053055405,0.012129774058111524,0.9865220944563828
2016-11-08,-1,-0.00048541954528215077,-0.000309748206334764,-0.008352159053055405,0.010360859275226062,0.9867894444210223
2016-11-10,-1,-0.0014200072115433523,-0.0011257789934748309,-0.006055814508734676,0.008283843587861701,0.9892151394959492
2016-11-14,-1,-0.0013567922667071027,-0.001144665223953641,-0.0035578926956492812,0.01363762428878558,0.9885635780268264
2016-11-16,-1,-0.0021875566116401875,-0.001754611692684068,-0.0030030248780772866,0.010649981328070704,0.9896307262884436
2016-11-18,-1,-0.0009746782040771224,-0.0007326687131117014,-0.0030030248780772866,0.008283843587861701,0.9909733754115367
2016-11-22,-1,-0.00035123274907973486,-0.00021887423439493974,-0.0015485951377982065,0.008283843587861701,0.9915977990517338
2016-11-25,-1,-0.0005591439417574096,-0.0003806319783810839,-0.0015485951377982065,0.007518128471757205,0.991919653704856
2016-11-29,0,-7.86267172614235e-05,3.5476919887721765e-07,-0.0015485951377982065,0.00685725611998228,0.9922626999900878
2016-12-01,-1,-0.001177539847050418,-0.0009594030200597424,-0.0010792102493640313,0.00685725611998228,0.9934293398442138
2016-12-05,0,-2.362381835028268e-05,3.0339419692451333e-05,-0.0012417808901860786,0.0051945444062986585,0.9946271258796652
2016-12-07,1,0.00014817775907685613,0.00019315286989496664,-0.0015485951377982065,0.0028871989186036746,0.9948420013248899
2016-12-09,1,6.67279630526055e-05,0.00010548354777662254,-0.0015485951377982065,0.0051945444062986585,0.9942815397527769
2016-12-13,1,0.0009704291250236497,0.0010300486103909216,-0.0025859430764306537,0.004387846701931524,0.9952035079323744
2016-12-15,1,0.000981350741984612,0.001052567599223963,-0.0037405077906295537,0.00276209455348791,0.9952590212286286
2016-12-19,1,0.0009939740096305512,0.001123135811780021,-0.0037405077906295537,0.00276209455348791,0.9956078312518755
2016-12-21,1,0.0010737426710461298,0.0012315874222151098,-0.006052087879237859,0.00276209455348791,0.9952786790602228
2016-12-23,1,0.001246561138332638,0.0014211274017149177,-0.006052087879237859,0.0033581477284817043,0.9943832753882232
2016-12-28,1,0.000915992980972037,0.0010464158628235186,-0.0037405077906295537,0.004387846701931524,0.9944799938491361
2016-12-30,1,0.0010004903141440213,0.0011356165171640862,-0.006052087879237859,0.004742556310535179,0.9936354483407132
2017-01-04,1,0.001050225691831676,0.00119703393298715,-0.006244783600294729,0.006610343384244531,0.9918001232845516
2017-01-06,1,0.0008459767969649619,0.000969114597451953,-0.006244783600294729,0.006610343384244531,0.9917800653986937
2017-01-10,1,0.0008802497569646303,0.000970249316933444,-0.006244783600294729,0.003837961702201124,0.9920391430225507
2017-01-12,1,0.0007853498881966116,0.0008702756893928059,-0.006103283221473419,0.004266306854752216,0.9915594601466694
2017-01-17,1,0.0007058069687930003,0.000795426285686753,-0.00612606587350543,0.004266306854752216,0.9906281692234706
2017-01-19,1,0.0002680096138979167,0.0002849145144778081,-0.0050677465504395895,0.008291523614860699,0.9905180513862764
2017-01-23,1,0.0001695766339262585,0.00018018482853265392,-0.004425777458183382,0.009538963191085624,0.9902772110537104
2017-01-25,1,0.0008825979625357792,0.000979954514318895,-0.004425777458183382,0.008291523614860699,0.9914545213680989
2017-01-27,1,0.0008657325692086355,0.0009615606246444985,-0.004425777458183382,0.008291523614860699,0.9912970664540945
2017-01-31,1,0.000981706786295704,0.001101852097499642,-0.003291895096646449,0.008291523614860699,0.9914488219163136
2017-02-02,-1,-0.00020997916762414612,-0.00012837766345282203,-0.0032430752439542377,0.006392439841458118,0.9928027157073351
2017-02-06,-1,-0.0002576186916625466,-0.00018128250355713745,-0.0032430752439542377,0.006392439841458118,0.9929141625953023
2017-02-08,-1,-0.0002272162178873324,-0.0001697288160789236,-0.0029418761218701363,0.01008240226777317,0.9916077660347594
2017-02-10,1,0.0002460280198479175,0.00025125037327714634,-0.0020080269804573212,0.007379578096711109,0.9929346522847554
2017-02-14,1,0.00036595553645176826,0.0003980138818269421,-0.0018036358131364636,0.009827354365894412,0.9936896505056637
2017-02-16,0,-2.1600228210114553e-05,5.1209494602761664e-06,-0.0023265357773586833,0.007726974528856141,0.9937382252915814
2017-02-21,1,0.0004741796727707892,0.0005402988453611155,-0.0032091809552845015,0.005692313229112028,0.9937545060000235
2017-02-23,1,0.0002303979153607056,0.00023066196487686903,-0.0032091809552845015,0.005692313229112028,0.9936109561420166
2017-02-27,1,0.0005865247232746632,0.0006559452195383616,-0.0032091809552845015,0.005692313229112028,0.9939554756741613
2017-03-01,1,0.0011558203721297351,0.0013206458981236554,-0.004025488161257416,0.00453760178115748,0.9946282679165414
2017-03-03,1,0.0011637470890911979,0.0013338205547718859,-0.0038075423017078606,0.0037480258065128265,0.9948233670753854
2017-03-07,1,0.0005542786902678549,0.0006031026206891693,-0.0038075423017078606,0.004866647866241811,0.9938144003927325
2017-03-09,-1,-0.0004059015949595567,-0.00030798574424124625,-0.003990188679496132,0.0037480258065128265,0.994667983275586
2017-03-13,-1,-0.00029603261182726664,-0.00017974697382137445,-0.004105601045692024,0.003802200077387235,0.9942753354615089
2017-03-15,1,0.0015102882861882207,0.0016675929931692262,-0.004105601045692024,0.0033887870300244698,0.9948479673397402
2017-03-17,1,0.0008693599609265633,0.0009342568612461973,-0.003990188679496132,0.003802200077387235,0.9948270105976886
2017-03-21,1,0.0003369704553066975,0.0003531660818525671,-0.003807073904010678,0.004655873285139731,0.9945234164725528
2017-03-23,1,2.3265553168783635e-05,0.00010700111677657573,-0.003807073904010678,0.005715812026596994,0.9941372728848288
2017-03-27,1,0.00043414539726110784,0.0004705437077585854,-0.003807073904010678,0.005715812026596994,0.993478473396499
2017-03-29,-1,-0.00021151950281451362,-6.479966790049526e-05,-0.0025214297054755664,0.005715812026596994,0.9935415077670842
2017-03-31,1,0.0008456661044030138,0.0008833959072510434,-0.0019400909389305498,0.008201523964760381,0.993186477756724
2017-04-04,1,0.0008974024453603116,0.0009615422454791371,-0.0019400909389305498,0.005715812026596994,0.9941015650499454
2017-04-06,1,0.00032190322190039233,0.0003844457613024121,-0.0016344156856060998,0.005715812026596994,0.9943057219667752
2017-04-10,-1,-0.0003274591068159929,-0.00014107736886455054,-0.0013800250783796175,0.005802328168309388,0.9943518585455795
2017-04-12,1,7.081274497281858e-05,0.00016425446992649248,-0.0013800250783796175,0.006635573253146955,0.9917348261836129
2017-04-17,1,0.00031795064465585046,0.00032925735460745934,-0.0013800250783796175,0.009141863689824618,0.9902771782493638
2017-04-19,1,0.0005016196863904431,0.0005258697223965751,-0.0013800250783796175,0.006635573253146955,0.990445018663388
2017-04-21,1,0.0005779736935444132,0.0006077223160713108,-0.001628079838955924,0.005802328168309388,0.9907630731611351
2017-04-25,1,0.0008515421325173138,0.0009192752696834279,-0.0024965464671155737,0.005284317258867887,0.9914661615281979
2017-04-27,1,0.0004301365664798723,0.00044884256220057453,-0.0024965464671155737,0.005802328168309388,0.9909966486121988
2017-05-01,1,0.001120372107435173,0.0012260031554740616,-0.004695341739394329,0.005284317258867887,0.991297895214179
2017-05-03,1,0.0009531502608064383,0.0010478409111333578,-0.003970303978841272,0.005802328168309388,0.9903808795125578
2017-05-05,1,0.000778924448390679,0.000825077210093778,-0.003970303978841272,0.006635573253146955,0.9896521264037638
2017-05-09,1,0.0015441146823524533,0.0017401997408643408,-0.005831235674793851,0.009325663252747727,0.9889372652487634
2017-05-11,1,0.0007581197183770513,0.0008419415954886785,-0.005831235674793851,0.0067567414006870705,0.9911348593463757
2017-05-15,1,0.0004947460146745716,0.0005211429290572158,-0.005831235674793851,0.00633338746985441,0.9920022006301801
2017-05-17,1,2.0682804733076972e-05,5.658277753305328e-05,-0.003970303978841272,0.00633338746985441,0.9928130729649687
2017-05-19,1,0.00013764999014166126,0.00014814184742957222,-0.005831235674793851,0.010357845184246206,0.9919363482136022
2017-05-23,-1,-0.0001162769658343139,-5.9468151594149825e-05,-0.003970303978841272,0.010357845184246206,0.9916264350986266
2017-05-25,1,0.0003884433686268215,0.0003981083633181553,-0.006088115727959621,0.011272667680852944,0.9912081286824596
2017-05-30,1,8.208191895729207e-05,0.00010603666313202604,-0.00793440189541517,0.011272667680852944,0.9909502660807843
2017-06-01,1,0.0007263892588776019,0.0007677670925383296,-0.00793440189541517,0.008926343791448455,0.9916748115247106
2017-06-05,1,0.0006605808125224417,0.0007130296011499994,-0.008616219459693094,0.008478111157999756,0.991641208962898
2017-06-07,1,0.0008490415350145812,0.0009181893207616327,-0.008616219459693094,0.008478111157999756,0.9918742506962226
2017-06-09,1,0.00036296171060690673,0.000370255290829035,-0.00793440189541517,0.008846031449682224,0.9916998420184427
2017-06-13,1,0.00026636667439633053,0.00029974887361324106,-0.00745925457091139,0.008846031449682224,0.9915222027815143
2017-06-15,1,0.0001325049600767496,0.0001900024144641169,-0.00745925457091139,0.008846031449682224,0.9908710559565744
2017-06-19,1,0.0007140332705937801,0.0007675962191128261,-0.00745925457091139,0.008478111157999756,0.991049016851741
2017-06-21,1,0.0007694172776470132,0.0008239009517175956,-0.00745925457091139,0.0074249953422624105,0.9913789628500868
2017-06-23,1,0.0007727992950279606,0.0008312808802340506,-0.007725517687968003,0.007345948763535096,0.9919486894967566
2017-06-27,1,0.00010246372572598764,0.0001564871183073751,-0.007155549560089021,0.007345948763535096,0.9926102965332079
2017-06-29,1,0.00013205178863755798,0.00019453882398594565,-0.007725517687968003,0.007345948763535096,0.9921167176568213
2017-07-03,-1,-0.0005261694679200246,-0.00037725477306354524,-0.0072416521255533614,0.007345948763535096,0.9926571569547527
2017-07-06,-1,-0.00034654771694122747,-0.0002120959520243776,-0.007398361568768847,0.0039886478737410445,0.9891727027904481
2017-07-10,-1,-0.00043078710265581817,-0.0002915677907607031,-0.007827197734078417,0.002717363595438084,0.9889637406775681
2017-07-12,-1,-0.00024313168926870618,-0.00013175654513844617,-0.009705888440211155,0.0021964548669336044,0.9891607768167225
2017-07-14,-1,-0.00017992697085195803,-8.322451174240303e-05,-0.013174998539508832,0.0021964548669336044,0.9875871212546523
2017-07-18,-1,-0.0002508240721033998,-0.00014591655894485617,-0.010483331493903026,0.0021964548669336044,0.987963362002317
2017-07-20,1,0.0005580922146611223,0.0006989475652294831,-0.010483331493903026,0.0006700010812886244,0.9877956739353881
2017-07-24,1,0.00031766401073173424,0.00047279943390550466,-0.014351191279673213,0.0006700010812886244,0.9875143785322819
2017-07-26,1,0.00014609178514532332,0.00032392240245785137,-0.014351191279673213,-0.0004670515423687851,0.9870824463127048
2017-07-28,-1,-0.0012597672389519502,-0.0008979432915516181,-0.011669641895782292,0.0029329335248630506,0.9877626682608459
2017-08-01,-1,-0.0009036587828600885,-0.0006311357758095644,-0.011800570184302184,0.005779704085187979,0.9870748571636656
2017-08-03,-1,-0.0014758121296563973,-0.0011432745360794544,-0.01094789446631542,0.006579156202444236,0.9904760187025549
2017-08-07,-1,-0.002321731446066156,-0.0019063128182528139,-0.007829406182140852,0.007954267539348052,0.9907209739600272
2017-08-09,-1,-0.0028902507429902644,-0.002520977313765344,-0.006578846122673696,0.007954267539348052,0.9908637270999368
2017-08-11,-1,-0.002833466833471493,-0.002457723056445603,-0.00469810415066711,0.007954267539348052,0.9925012910705157
2017-08-15,-1,-0.0035796963463775536,-0.0029796436717364734,-0.007829406182140852,0.007954267539348052,0.9912438235581152
2017-08-17,-1,-0.003635497685959171,-0.0030527568092184893,-0.005798256508563851,0.007954267539348052,0.9910176675325769
2017-08-21,-1,-0.004089174021023803,-0.0034483894330620797,-0.007003234511305572,0.007954267539348052,0.9914599764994624
2017-08-23,-1,-0.004670263841705055,-0.003957876784478732,-0.004611269723479369,0.007954267539348052,0.9907974712477472
2017-08-25,-1,-0.003832720248483681,-0.0032125017228395543,-0.005731232505805324,0.0052775300950063525,0.992111786378808
2017-08-29,-1,-0.004041238902370209,-0.0033968793431382012,-0.005731232505805324,0.004207669863843248,0.9925703385357862
2017-08-31,-1,-0.0030467245928920404,-0.002528219157424068,-0.006287458327705425,0.0037010985386762103,0.9934111585141819
2017-09-05,-1,-0.0028390491793279233,-0.0023331800725170547,-0.006287458327705425,0.004207669863843248,0.9925055448706526
2017-09-07,-1,-0.002825154424521931,-0.002325925977308501,-0.006287458327705425,0.004207669863843248,0.9924990490183475
2017-09-11,-1,-0.0026164925424604856,-0.002137000363091634,-0.007396695805009265,0.002594667378180835,0.9922420661564413
2017-09-13,-1,-0.00360299255843528,-0.003047812596214546,-0.005731232505805324,0.002594667378180835,0.993625496183903
2017-09-15,-1,-0.0029022893766672436,-0.0024660849268137537,-0.006287458327705425,0.0017349385711474688,0.9940026359653675
2017-09-19,-1,-0.0035854146927628465,-0.003077275416602406,-0.005862386270373221,0.002594667378180835,0.9925762885899828
2017-09-21,-1,-0.0025066650317679263,-0.0021659862739672187,-0.005862386270373221,0.0021347895659859398,0.9929050788973448
2017-09-25,-1,-0.0029011621904222818,-0.0025006568707929434,-0.005739697342161396,0.0029134048313971496,0.9927677628733425
2017-09-27,-1,-0.0031756997202087734,-0.002740578954433176,-0.004582292454688776,0.0029134048313971496,0.9928911762696825
2017-09-29,-1,-0.0034379214338046155,-0.0030023769626763147,-0.003121063075286732,0.003505388696774233,0.9929144723374401
2017-10-03,-1,-0.0020431513849973964,-0.001824838644439105,-0.003121063075286732,0.002766076326629067,0.9938752044767946
2017-10-05,-1,-0.001992421867968439,-0.0017644302273748225,-0.003121063075286732,0.005137988761445724,0.9932733472026726
2017-10-09,-1,-0.003253141840987017,-0.0028625853960003982,-0.003121063075286732,0.00530265872696437,0.9917271866786985
2017-10-11,-1,-0.003354855392414994,-0.002963444871444198,-0.0020978602892551645,0.0066310928584357495,0.9909683779252161
2017-10-13,-1,-0.003655348993367501,-0.0032269613309136454,-0.0010762174324740997,0.0066310928584357495,0.9900786811048732
2017-10-17,-1,-0.001549309569467589,-0.0014420928638127807,-0.0010762174324740997,0.0066310928584357495,0.9895100596372276
2017-10-19,-1,-0.0017140355704324875,-0.001574430264021242,-0.002491196290419915,0.009751487785371337,0.9889327902731712
2017-10-23,-1,-0.0009472731505664318,-0.0009442950358399402,-0.0016795090285944556,0.009751487785371337,0.9888207676351701
2017-10-25,-1,-0.0008277166466351799,-0.0008011983971291214,0.0005580973013502501,0.010467325765069951,0.9881745135183205
2017-10-27,-1,-0.00041763823677143613,-0.0003179454489686559,-0.001215927561410218,0.010467325765069951,0.9886328834389476
2017-10-31,1,2.371439924582204e-06,0.00013866207472188017,-0.003797284141965677,0.010467325765069951,0.9870940636625898
2017-11-02,1,0.00040333293513751967,0.0006026086891180241,-0.010163775554988985,0.010467325765069951,0.9862420065327991
2017-11-06,1,0.00086677363320794,0.0011372743882662783,-0.008221348481311359,0.010467325765069951,0.9872413464869882
2017-11-08,1,0.001981896130129372,0.002404036745143852,-0.009689628082763795,0.007722846712169774,0.9870154761390427
2017-11-10,1,0.0018818491841679082,0.002334000360095674,-0.008221348481311359,0.015038966353692635,0.9857367495049387
2017-11-14,1,0.00226218646447916,0.002778748796915096,-0.0062410933609914595,0.010644792766599822,0.9887199730669393
2017-11-16,1,0.0022429658094078606,0.0027251882438838466,-0.0062410933609914595,0.01096819181907765,0.9882866565613139
2017-11-20,1,0.0022926852703086175,0.0027958107591813204,-0.0062410933609914595,0.01096819181907765,0.9882917868560285
2017-11-22,1,0.002643124126001344,0.0031631935472177736,-0.0062410933609914595,0.007660697266137327,0.988232677974254
