JNU-Tangyin/eata/results/Batch4_SP500/Batch4_SP500-DRE.csv
Date,Action,Predicted_Q25,Predicted_Q75,Actual_Q25,Actual_Q75,RL_Reward
2010-12-13,0,-0.003368889330486592,0.0,-0.0030087623778855535,0.014661241857946442,0.9891672557801101
2010-12-15,0,0.0,0.0,0.0005751665401317343,0.016345671174500365,0.9884714500741026
2010-12-17,0,0.0,0.0,0.0014102134518325913,0.016820012432094283,0.9881840341725155
2010-12-21,0,0.0,0.0,0.0005751665401317343,0.014781500584594662,0.9907956326991582
2010-12-23,0,0.0,0.0,-0.00018952379692249258,0.009794427300585691,0.9916261598448004
2010-12-28,0,0.0,0.0,-0.004677121542196906,0.009794427300585691,0.9910992136038997
2010-12-30,0,0.0,0.0,-0.0071096347617125985,0.014781500584594662,0.9874851661929079
2011-01-03,0,0.0,0.0,-0.0071096347617125985,0.009794427300585691,0.9885792036920414
2011-01-05,1,0.0016786425685473417,0.001798259747207119,-0.008047210590220455,0.006663142922531481,0.9888004967882803
2011-01-07,0,0.0,0.0,-0.010012152638206677,0.006663142922531481,0.9883076249480357
2011-01-11,0,0.0,0.0,-0.010012152638206677,0.010142583419326915,0.9878541609492911
2011-01-13,1,0.0017203826689081725,0.001789025548788073,-0.010012152638206677,0.006663142922531481,0.9881650748457442
2011-01-18,1,0.0022646151850666523,0.002435588075232451,-0.010012152638206677,0.005930833777456304,0.988239957731446
2011-01-20,1,0.0020099576973825342,0.0021649404863515326,-0.008954060391547499,0.006491770307838206,0.9885491666207289
2011-01-24,1,0.0019910818580722916,0.0021294581735035846,-0.010012152638206677,0.005854388024795586,0.9879627382997955
2011-01-26,1,0.002165724867441597,0.0024162603055304967,-0.00982152575970389,0.005854388024795586,0.9881131353391674
2011-01-28,0,0.0,0.0,-0.008954060391547499,0.006810909718991452,0.9896135629329681
2011-02-01,0,0.0,0.0,-0.00982152575970389,0.006791588171228492,0.9883026954205575
2011-02-03,0,0.0,0.0,-0.0091601933968623,0.006814146591232051,0.9885213575996576
2011-02-07,0,0.0,0.0,-0.008276442674767275,0.006814146591232051,0.9884317322068213
2011-02-09,0,0.0,0.0,-0.008744796783955094,0.00585546698220912,0.9884073009648835
2011-02-11,1,0.0033077792604490593,0.0037306119502596062,-0.008744796783955094,0.006814146591232051,0.9867111288988185
2011-02-15,1,0.0020910028911284326,0.002273507383706947,-0.01056916241168438,0.006814146591232051,0.9859092768524745
2011-02-17,1,0.0021632918447808485,0.002353343169986384,-0.01056916241168438,0.00865205298152609,0.9858268541874972
2011-02-22,1,0.0013943105624114153,0.001467179090490994,-0.009193734936926679,0.016983551760918973,0.9861277983437126
2011-02-24,1,0.0013038375508438154,0.0013937392298987035,-0.009322972572962766,0.016983551760918973,0.9858122313421231
2011-02-28,1,0.003180723432621097,0.00352446054775905,-0.009322972572962766,0.0058812717054794895,0.9880015511997021
2011-03-02,1,0.0020292229378585215,0.0022253130699870106,-0.008287623188122067,0.008661791891326522,0.9887487037224298
2011-03-04,1,0.0019703996038556884,0.002174347711743464,-0.008017931889838468,0.012273491964113085,0.9891223280573175
2011-03-08,1,0.0025021866422764412,0.0027705504842095107,-0.008609403959640157,0.00709491063954211,0.98965512497521
2011-03-10,1,0.0016029669671617731,0.0017293765133021435,-0.008710019163977746,0.008068477762555364,0.989342864923725
2011-03-14,1,0.0019031700321665375,0.002054156064435757,-0.008854960165638755,0.006215532989617674,0.989683991928905
2011-03-16,1,0.0010175595920178782,0.001086636188771222,-0.00598159462728119,0.008068477762555364,0.9909269709374579
2011-03-18,1,0.0018675736642025853,0.0020716348842410286,-0.00598159462728119,0.010769194279723258,0.9901065062377113
2011-03-22,1,0.001838220196293529,0.001976428767611524,-0.00784364949483489,0.010769194279723258,0.9900066834867319
2011-03-24,1,0.0019621859593535987,0.002184956445240436,-0.005745113623943803,0.011179382460729699,0.9899330642781639
2011-03-28,1,0.001969674765189193,0.0022060788539169534,-0.0008295731401606258,0.011179382460729699,0.9900612255716609
2011-03-30,1,0.0031145376273152563,0.0035209058095509466,-0.0008295731401606258,0.010769194279723258,0.99143647829989
2011-04-01,1,0.003409553750937708,0.003865691218573085,-0.004841067986960278,0.011179382460729699,0.9909497309180539
2011-04-05,1,0.0018931699108035074,0.002062362236589602,-0.004841067986960278,0.011179382460729699,0.989368351321503
2011-04-07,1,0.0005775445383012197,0.0006584688155150833,-0.007498789666224827,0.011179382460729699,0.9892261483525564
2011-04-11,-1,-0.0005846101569826549,-0.00029157256674593917,-0.004804941711869387,0.013147320007026788,0.9882143204438169
2011-04-13,0,-0.00014396214836398535,8.883263485386192e-05,-0.007498789666224827,0.013147320007026788,0.9878680596800764
2011-04-15,1,0.0010193650846509411,0.0011316437475558665,-0.008555813626063,0.009638660487518418,0.9887827224851629
2011-04-19,1,0.0011425330942050555,0.001224647455655085,-0.008447434800790327,0.009638660487518418,0.9887951960853602
2011-04-21,1,0.001907917739062569,0.0019103363682499543,-0.0123492062686048,0.006933669561271142,0.988792438760453
2011-04-26,1,0.0022265245300489285,0.0022723030061393436,-0.0123492062686048,0.006696528744382725,0.9886273732435419
2011-04-28,1,0.002166209790558785,0.0021746351515044373,-0.0123492062686048,0.008348615303699208,0.9877121748104548
2011-05-02,1,0.001627474382773842,0.0017486301416987635,-0.0123492062686048,0.008348615303699208,0.9877935215239603
2011-05-04,-1,-0.0006231910986923661,-0.00020524020576623845,-0.01007191303237414,0.008348615303699208,0.987962903484332
2011-05-06,-1,-0.0010272308614019269,-0.0005980575409585585,-0.011537548511279735,0.008348615303699208,0.987568522458456
2011-05-10,-1,-0.0006626980179480204,-0.00022206695098505084,-0.011537548511279735,0.007556054463139106,0.9878895433483952
2011-05-12,-1,-0.001381636016381526,-0.000872700973463384,-0.019988764984639102,0.007556054463139106,0.9868534401911668
2011-05-16,-1,-0.0010678585612854078,-0.000723808132278555,-0.012186026822278309,0.008938852948250873,0.9869314681645477
2011-05-18,-1,-0.00031910929941850283,-0.00010054634329750877,-0.017676390439871157,0.007556054463139106,0.9866760759269999
2011-05-20,-1,-0.0011114873165621944,-0.0008122733279491152,-0.011458755572443302,0.00933546246261384,0.9867025591840911
2011-05-24,-1,-0.0008447568392874931,-0.0005819501684988593,-0.011458755572443302,0.012816059244106923,0.9864220740730444
2011-05-26,1,0.0005154474457125175,0.0005713809715156204,-0.017676390439871157,0.008716253390303467,0.9859414613684618
2011-05-31,1,0.0011202595631005989,0.0011387857391024145,-0.017676390439871157,0.007562932840036576,0.9861599190779496
2011-06-02,-1,-0.00040504989684846674,-0.0002504033684376306,-0.01198637618230923,0.012416475682177883,0.9872922504848162
2011-06-06,-1,-0.0016393373895278985,-0.0013176642923891043,-0.008388784576293568,0.013001516784931184,0.9871335380397003
2011-06-08,-1,-0.0009731292781486926,-0.0007487258527892705,-0.005931216716193909,0.013001516784931184,0.9868814090672386
2011-06-10,-1,-0.002143249718815743,-0.001826184752354145,-0.004346521954769563,0.013001516784931184,0.9873874363943599
2011-06-14,-1,-0.0017087105900586018,-0.0014230187339249836,-0.005813492553727233,0.012416475682177883,0.9875509277579531
2011-06-16,-1,-0.002062604477883901,-0.0017377125513138446,-0.004831886606351952,0.012416475682177883,0.9877508241190031
2011-06-20,-1,-0.001391862254967533,-0.0011098726392146452,-0.005327456737996979,0.012416475682177883,0.988412406366978
2011-06-22,-1,-0.0010929974260483644,-0.0009033137774416093,-0.005327456737996979,0.01301778020853176,0.9878678999211897
2011-06-24,-1,-0.0020365791769866633,-0.0017511553024533548,-0.0038498087081432395,0.01301778020853176,0.9883744112567122
2011-06-28,-1,-0.0016245659684424566,-0.0013468095337098537,-0.005327456737996979,0.012463752335891252,0.9878969072166882
2011-06-30,-1,-0.0006704617003323119,-0.0005286259918743719,-0.005327456737996979,0.009950054165127812,0.9890756551091774
2011-07-05,1,0.0002701665220220261,0.000283797833139496,-0.0075402540670337775,0.006973651142329971,0.9877070062064726
2011-07-07,1,0.0012140286906431822,0.0013236001990975968,-0.015166450429279109,0.0015965710355737971,0.9850059373917482
2011-07-11,-1,-0.0002543721712153096,-0.00014939206062065794,-0.01967736193986476,0.0015965710355737971,0.9791609333464246
2011-07-13,-1,-0.0007631090519781831,-0.0005976888960676183,-0.03617132959660054,0.002618396535651677,0.9734755316709067
2011-07-15,-1,-0.0011583008340680244,-0.0009140556947083844,-0.03617132959660054,0.00719185717406319,0.9712730895199339
2011-07-19,-1,-0.001259075030380434,-0.0009698372811687833,-0.03617132959660054,0.00719185717406319,0.9686330686173427
2011-07-21,1,0.0010630722799578876,0.0011819248361595056,-0.04457300287071782,0.00719185717406319,0.9667430711066134
2011-07-25,1,9.549046330409647e-05,0.000166615666086951,-0.04457300287071782,0.0036161618830189562,0.9670534275686437
2011-07-27,-1,-0.0012683034470667319,-0.0010273566491220522,-0.04457300287071782,0.0072046528990487085,0.968136636773722
2011-07-29,-1,-0.000948810978125151,-0.0007749495977776482,-0.04457300287071782,0.012958003055239668,0.9654729674602066
2011-08-02,-1,-0.0034231066786220253,-0.0029319302536980675,-0.03960731517454957,0.021317620331397648,0.9651541550622917
2011-08-04,-1,-0.006241288622615451,-0.005445635264485658,-0.025360167546726976,0.021317620331397648,0.9669869257568742
2011-08-08,-1,-0.013487813756930006,-0.011782876123291663,-0.011879156699699652,0.021317620331397648,0.9695155086755874
2011-08-10,-1,-0.01032405195609053,-0.00903932057867773,-0.009197758694544877,0.021317620331397648,0.9749591742039618
2011-08-12,-1,-0.007288881935310145,-0.006405776703594528,-0.01301730576636359,0.009977502738123348,0.977996002128659
2011-08-16,-1,-0.004697500680885964,-0.004087983251272088,-0.01301730576636359,0.008286452242876129,0.9808250741170743
2011-08-18,-1,-0.005519883367431375,-0.0048180928883985955,-0.009197758694544877,0.009152029878276976,0.9818976786605692
2011-08-22,-1,-0.0050865465690817045,-0.004493693174692821,-0.01301730576636359,0.009152029878276976,0.9810550817027383
2011-08-24,-1,-0.004689364130129251,-0.004173471587589196,-0.029785105510002,0.009152029878276976,0.9785378818862036
2011-08-26,-1,-0.005486724262953324,-0.00484849579985378,-0.02289595114781881,0.009152029878276976,0.979970801404357
2011-08-30,-1,-0.0029143289952524173,-0.0025502356773668268,-0.029785105510002,0.009152029878276976,0.9809782080891049
2011-09-01,-1,-0.0035527301349799183,-0.0031151629734357065,-0.033347482104532714,0.009576121798355073,0.9788798266164674
2011-09-06,-1,-0.004616026788981221,-0.0040812282153508215,-0.033347482104532714,0.012322920944184823,0.9745574296704289
2011-09-08,-1,-0.00241445117188312,-0.0022183617164491165,-0.033347482104532714,0.012322920944184823,0.9740423986426143
2011-09-12,-1,-0.0033155933646542724,-0.0030310039424679045,-0.033609556414096645,0.022394840909330336,0.9706471802019381
2011-09-14,-1,-0.0018845487035232871,-0.0018289592631162712,-0.033609556414096645,0.022394840909330336,0.9696417797675981
2011-09-16,-1,-0.00031448518218997197,-0.00013696264544548538,-0.033609556414096645,0.029614918072694424,0.9689854589509859
2011-09-20,-1,-0.0011237789399250837,-0.0010362206971225919,-0.03507210140933161,0.033989353392833856,0.9649735551391768
2011-09-22,-1,-0.0033632226052290777,-0.0032202841303509717,-0.029527517232079904,0.033989353392833856,0.9667006569416877
2011-09-26,-1,-0.003408716571194711,-0.003205411649670186,-0.029527517232079904,0.04108091043207261,0.9630578372200721
2011-09-28,-1,-0.0038277304149362265,-0.003544651565169048,-0.02764812817894085,0.04108091043207261,0.9646134917890203
2011-09-30,-1,-0.0027196982845801364,-0.0026310593227778347,-0.02479531535212247,0.0465859380884479,0.9644435771852812
2011-10-04,-1,-0.00361162023905334,-0.0033868544006633292,-0.02479531535212247,0.04108091043207261,0.9671062615934679
2011-10-06,-1,-0.0033301590039159896,-0.003088887043837683,-0.02386531020779603,0.04108091043207261,0.967475010969291
2011-10-10,-1,-0.002763357272045714,-0.00261055680903313,-0.016192017694840265,0.03314940598127193,0.9724401065400645
2011-10-12,-1,-0.003509610803644812,-0.0032486410675607665,-0.016192017694840265,0.03314940598127193,0.9706154805552397
2011-10-14,-1,-0.0015409108952213475,-0.0015241644901234626,-0.016192017694840265,0.03171366641584886,0.9714279553816232
2011-10-18,1,0.0001865007201034321,0.00045204028372555164,-0.016192017694840265,0.020457754807948706,0.9752523497323017
2011-10-20,1,0.00032893477522118945,0.0006723445320114473,-0.013949953219485837,0.020457754807948706,0.975382091929823
2011-10-24,1,0.002613478838553023,0.003177837120773852,-0.016534587828283463,0.01583132054972192,0.9778074256073711
2011-10-26,1,0.002356294725066227,0.0028384891169070813,-0.021353657367161806,0.012194501611526087,0.9769934492247054
2011-10-28,1,0.00466734128654334,0.005476707249469453,-0.021353657367161806,0.010049798115464002,0.9777762836277876
2011-11-01,0,0.0,0.0,-0.015600146609687565,0.012194501611526087,0.9792973815502202
2011-11-03,0,0.0,0.0,-0.015600146609687565,0.009030771695825082,0.980707855721729
2011-11-07,0,0.0,0.0,-0.015600146609687565,0.010049798115464002,0.9801542053582647
2011-11-09,1,0.0013925608507504453,0.0017204987821598417,-0.015600146609687565,0.009539149702693626,0.9818087655584505
2011-11-11,1,0.0025965549705406652,0.0030989729742863454,-0.020212823529889283,0.009539149702693626,0.9804734334113452
2011-11-15,1,0.001366465177445095,0.0016470508781078826,-0.02009287925498551,0.009539149702693626,0.9814458202083144
2011-11-17,1,0.0009009292365785352,0.0011555569086146823,-0.02009287925498551,0.013534879433404708,0.9815412183429219
2011-11-21,1,0.0007230957384964122,0.0010020914096893169,-0.013427003686532726,0.015561606169120328,0.9808336916400269
2011-11-23,1,9.633279406179025e-05,0.0003375266123727182,-0.007158469872116366,0.01693368814975897,0.9816221737878369
2011-11-28,1,0.0017273752699642547,0.0022405478930316754,-0.007158469872116366,0.015561606169120328,0.9832665396599777
2011-11-30,1,0.0033023908227566515,0.003971604234289668,-0.009289640299379434,0.015561606169120328,0.9844421771977965
2011-12-02,1,0.0030201665428401304,0.003632707190025751,-0.007722778994300118,0.015561606169120328,0.984211280490269
2011-12-06,1,0.0034037346179816683,0.004075959151668845,-0.010780618045828291,0.01693368814975897,0.9833200963044325
2011-12-08,1,0.0028396203840881885,0.003456126928158949,-0.009549130491884366,0.01693368814975897,0.9842142723568024
2011-12-12,1,0.0035593781093631247,0.004309959509887511,-0.007722778994300118,0.01693368814975897,0.9857394916074601
2011-12-14,1,0.0030047667899147723,0.003680705107212833,-0.006849212298134208,0.01693368814975897,0.9861163746474311
2011-12-16,1,0.003488869035446234,0.0041713361983469355,-0.006849212298134208,0.017602685060776304,0.9859969694317195
2011-12-20,1,0.004800064196472279,0.0056681861907757515,-0.006004160348959025,0.016825385390899127,0.9878937979155823
2011-12-22,1,0.0041601899022185584,0.004838488387029051,-0.006936220400123367,0.01619207116771771,0.9872865800824621
2011-12-27,1,0.0028910385861967256,0.0032546093639132154,-0.00862135776993789,0.016825385390899127,0.9854523927889057
2011-12-29,0,-0.00015212682481445668,0.00011494932393233456,-0.00862135776993789,0.01619207116771771,0.9858030167380318
2012-01-03,1,0.0006094108481778395,0.0007171087178426982,-0.008144056749743299,0.01619207116771771,0.9861022097178438
2012-01-05,1,0.0018729857960243757,0.002026058643624902,-0.0060331630496220775,0.01619207116771771,0.9865851874191021
2012-01-09,1,0.0020963337594465037,0.0023836296499183474,-0.0052432006482542514,0.01619207116771771,0.9869169911837145
2012-01-11,1,0.0027146418609954046,0.0030401722181600957,-0.006010822779487197,0.015425992844189797,0.9882760271141932
2012-01-13,1,0.0027694034360754476,0.003078248905966164,-0.006010822779487197,0.015070670815962814,0.9890038334311866
2012-01-18,1,0.0035094189764366453,0.003914737169826358,-0.007810105836503362,0.013766726793942492,0.9892264030070792
2012-01-20,1,0.003943418610247672,0.004375901841634276,-0.007810105836503362,0.012918430078386918,0.9893072342336147
2012-01-24,1,0.00397760089605311,0.0045153079927176334,-0.011228393765387664,0.012918430078386918,0.9891768372196995
2012-01-26,1,0.0037165088901084577,0.00418178067665114,-0.007065656471903106,0.012918430078386918,0.9901635787975278
2012-01-30,1,0.0032780694522869533,0.0036364524702217705,-0.005762672991287111,0.006171809902985196,0.9907269855708652
2012-02-01,0,0.0,0.0,-0.005762672991287111,0.0030683358554553326,0.9915707291666181
2012-02-03,0,0.0,0.0,-0.005762672991287111,0.002878219801034393,0.9926598078576124
2012-02-07,0,0.0,0.0,-0.005762672991287111,0.0030683358554553326,0.9921311806690647
2012-02-09,0,0.0,0.0,-0.005206858806664372,0.0030605554513053745,0.9924504351574922
2012-02-13,1,0.003562911814995798,0.003911828306732186,-0.005206858806664372,0.00433958515418183,0.9910330796920449
2012-02-15,1,0.0015828927050445267,0.001626511468371552,-0.002697448089955122,0.007354247249517511,0.9918623837198075
2012-02-17,1,0.002433582119652257,0.002518099564635367,-0.002697448089955122,0.010492219899090438,0.9918566065337512
2012-02-22,1,0.0012420701550340696,0.0013338602157902902,-0.002697448089955122,0.010492219899090438,0.9921863878992732
2012-02-24,1,0.0023327441187590598,0.0024069765920109124,-0.004493339591428605,0.007354247249517511,0.9919736984290626
2012-02-28,1,0.0013444305650673518,0.001427315544167993,-0.0015954875023072412,0.007759122355832408,0.992380431967599
2012-03-01,1,0.0005769907387492634,0.0007851320390232306,-0.0015954875023072412,0.007759122355832408,0.9923781983094466
2012-03-05,1,0.0006507322738060877,0.0008566480921124626,-0.0015954875023072412,0.006647270566694122,0.992679466003926
2012-03-07,1,0.00026024159426518625,0.0005219654665161244,-0.0015954875023072412,0.006479975426349596,0.9933532194827429
2012-03-09,0,0.0,0.0,-0.003628752089123998,0.006479975426349596,0.9923893817385487
2012-03-13,0,0.0,0.0,-0.008412874864017083,0.006479975426349596,0.991965244151528
2012-03-15,0,0.0,0.0,-0.008412874864017083,0.00594713280187131,0.9915918835923158
2012-03-19,0,0.0,0.0,-0.008412874864017083,0.00594713280187131,0.9918133790238622
2012-03-21,0,0.0,0.0,-0.003978586546711631,0.00594713280187131,0.9922402181975937
2012-03-23,0,0.0,0.0,-0.003978586546711631,0.007838278009134428,0.9924067423551403
2012-03-27,0,0.0,0.0,-0.003978586546711631,0.01025893690016022,0.9910925872798185
2012-03-29,1,0.0018401894435651602,0.0020151820304358647,-0.007753303058501273,0.01025893690016022,0.9905404315208065
2012-04-02,1,0.0018205868362339839,0.0019813619444543954,-0.007753303058501273,0.010445722548108919,0.9900831363791407
2012-04-04,1,0.0009146561783838914,0.000956397898234913,-0.004937872780479756,0.010445722548108919,0.9900820711540561
2012-04-09,1,0.0007448566256727813,0.0007764112087693629,-0.004937872780479756,0.010445722548108919,0.9899165223517346
2012-04-11,0,-2.426693599204315e-05,0.00013054732335863057,-0.004026227345737535,0.010445722548108919,0.9909892389884857
2012-04-13,0,0.0,0.0,-0.005960291855656063,0.009199274189335048,0.991406754445893
2012-04-17,0,0.0,0.0,-0.007701892529053054,0.007585028787105209,0.9909593955261857
2012-04-19,0,0.0,0.0,-0.008546891846650306,0.007585028787105209,0.9891023096183219
2012-04-23,-1,-0.0008556820154570291,-0.0005276387836651202,-0.009431362991654929,0.007585028787105209,0.9886797756936734
2012-04-25,1,0.0004142644210083019,0.0005554885184625052,-0.009431362991654929,0.0030365384549338043,0.9900590783963753
2012-04-27,0,-2.099807406574371e-05,0.00018109355149689883,-0.008446907344998523,0.003162657382350356,0.9905227461952686
2012-05-01,1,0.0002598277329442823,0.0004255011531111118,-0.010533589195395057,0.0020540941882942207,0.9886362826784949
2012-05-03,0,-3.287682729926993e-05,0.000146951892007091,-0.014003390927479034,0.0020540941882942207,0.9869376047328106
2012-05-07,-1,-0.00022712093548027303,-1.9278873059319027e-05,-0.012845845359409167,0.0020540941882942207,0.9868930732141981
2012-05-09,-1,-0.0007628077722479692,-0.00044667912619473344,-0.012845845359409167,0.004845131121389609,0.9850697454423494
2012-05-11,-1,-0.0007711473862874345,-0.000460353782877566,-0.015974529855508905,0.01196908714079272,0.9838432079030176
2012-05-15,-1,-0.0014123187008242284,-0.0010605298276404906,-0.012845845359409167,0.014041674228568673,0.984153515883182
2012-05-17,-1,-0.003172012689088873,-0.0026518299151480204,-0.01025974685672753,0.017512184780649538,0.9844833207573523
2012-05-21,-1,-0.002144262694956054,-0.0017103136682222176,-0.006871258679776029,0.017512184780649538,0.9850072650593793
2012-05-23,-1,-0.002083331558098694,-0.0016532571333988577,-0.012361784121386863,0.017512184780649538,0.9842313080284508
2012-05-25,0,0.0,0.0,-0.013769193948315505,0.017512184780649538,0.9834850385293936
2012-05-30,0,0.0,0.0,-0.012361784121386863,0.017512184780649538,0.9846555148946499
2012-06-01,0,0.0,0.0,-0.00902518433657571,0.018285604646107703,0.9848955394425979
2012-06-05,-1,-0.001346769107782993,-0.000954138287750237,-0.004164071403659987,0.018285604646107703,0.9856242075185695
2012-06-07,-1,-0.0008777372503513134,-0.0005473666631087263,-0.0035265925868741615,0.017205597183908697,0.9876436873837766
2012-06-11,-1,-0.0015638533353290079,-0.0011964343878396683,-0.005407273550064179,0.017205597183908697,0.9885657478315553
2012-06-13,0,0.0,0.0,-0.005407273550064179,0.014472758381672866,0.9892661259453647
2012-06-15,0,0.0,0.0,-0.005407273550064179,0.01252908685654203,0.9897014321134439
2012-06-19,1,0.0011031825470366068,0.0011664978399784137,-0.005407273550064179,0.009774796084641508,0.9900730076674136
2012-06-21,-1,-0.0011936800403808674,-0.0009625819229386511,-0.006063088218202715,0.009774796084641508,0.9902183798371142
2012-06-25,-1,-0.0012789929080082626,-0.0010653244226308087,-0.007768396611611647,0.009774796084641508,0.9901574720987285
2012-06-27,-1,-7.84411396488954e-05,-5.8926040862655834e-05,-0.006003213458229556,0.009774796084641508,0.9901855924566734
2012-06-29,1,0.0008711825123568686,0.0009416508909443383,-0.006003213458229556,0.008948618241393234,0.9911627906446984
2012-07-03,0,0.0,0.0,-0.00800894644495447,0.008875373995005742,0.9912889596115475
2012-07-06,1,0.0009644718476671882,0.0010338179941928793,-0.00800894644495447,0.008948618241393234,0.9906825555402826
2012-07-10,-1,-0.00025810297330970927,-0.0001441954581467726,-0.00800894644495447,0.008948618241393234,0.9911886386553946
2012-07-12,1,0.00015345184795807906,0.00017441967320655621,-0.009567918527513975,0.008948618241393234,0.9902575432032137
2012-07-16,1,0.0003340143696862295,0.0003826868970624324,-0.011818081884168708,0.005325953311830139,0.9906490245808294
2012-07-18,1,0.0010068014822092763,0.0010933201474344638,-0.011818081884168708,0.0015757189326088973,0.9905027808554207
2012-07-20,-1,-0.0004705340414661383,-0.00035590698829487965,-0.008633242810497838,0.004188102681126748,0.992333755936828
2012-07-24,-1,-0.0011771304797756395,-0.0009864650921878049,-0.0052864617653076195,0.008572292136276555,0.9919376530606426
2012-07-26,0,0.0,0.0,-0.008633242810497838,0.0053363800678566725,0.9925628122865187
2012-07-30,0,0.0,0.0,-0.008633242810497838,0.004188102681126748,0.9931753892810599
2012-08-01,0,0.0,0.0,-0.0052864617653076195,0.004639574440339664,0.9933708270902917
2012-08-03,1,0.0008883904027297863,0.0009842434719864535,-0.0052864617653076195,0.004639574440339664,0.9937527409746849
2012-08-07,1,0.000634917664325779,0.0007191276986354789,-0.0036636611553321147,0.00614533708095852,0.9936424439476537
2012-08-09,1,0.000443404636457715,0.0005458401186794431,-0.0011987610526573117,0.007833968360756373,0.9936677911312998
2012-08-13,-1,-0.00019017869395229607,-0.00016907512801544555,-0.000173598532507085,0.008410751993668473,0.9934426963548441
2012-08-15,-1,-0.0007366710044055249,-0.0006259252164871121,0.0,0.010198657636613161,0.992320828810838
2012-08-17,-1,-0.0004435504716136427,-0.000378296343084921,-0.000173598532507085,0.010198657636613161,0.991943463392856
2012-08-21,1,0.00039828448874949324,0.00044282773199035664,-0.0029049798045318147,0.009037273409971801,0.9925651627715895
2012-08-23,-1,-2.720687508921188e-05,-2.259034909039955e-05,-0.0011987610526573117,0.009037273409971801,0.9921735514748021
2012-08-27,1,0.00014103760600367205,0.00014300624241849727,-0.003777723365384706,0.009037273409971801,0.9912775803237479
2012-08-29,-1,-0.00010892407153591138,-4.6906120655669335e-05,-0.0047926287624907,0.009037273409971801,0.9914251133387139
2012-08-31,1,0.00016643982813260752,0.00020356133388279055,-0.006845838688390671,0.009037273409971801,0.9913700999185332
2012-09-05,0,0.0,0.0,-0.006845838688390671,0.007376245677393282,0.9918948277898334
2012-09-07,0,0.0,0.0,-0.007166963025076092,0.007376245677393282,0.9917848276325238
2012-09-11,1,0.0008028658939184259,0.0009081665960909215,-0.007166963025076092,0.0032429175651987976,0.9919192187896296
2012-09-13,1,0.0031980119702822406,0.003617270917510745,-0.007166963025076092,0.0020407981877852226,0.9916383441347074
2012-09-17,0,0.0,0.0,-0.007037493713560619,0.0020407981877852226,0.9930958501393874
2012-09-19,0,0.0,0.0,-0.004757080079820076,0.00354656075408719,0.9932470823860194
2012-09-21,0,0.0,0.0,-0.004757080079820076,0.006319835388424547,0.9932597420450953
2012-09-25,1,0.002414659543538657,0.002644193313492734,-0.004891543835040835,0.006319835388424547,0.9931753521312067
2012-09-27,1,0.002175225990210513,0.002358756299324486,-0.006972754173184702,0.006319835388424547,0.9922530316147403
2012-10-01,1,0.0016843895503651572,0.001792335073773476,-0.007872312875145029,0.007364511829305247,0.991715216970733
2012-10-03,1,0.0012438207180560429,0.0014410053952933315,-0.0094345338114747,0.00683507152029027,0.9910461651350091
2012-10-05,1,0.000603131293268696,0.0006505880215049956,-0.009419236173259958,0.00420293886945236,0.991663200579487
2012-10-09,-1,-0.0008123005796340813,-0.000601263613186587,-0.01079769889967408,0.00420293886945236,0.9911819446156733
2012-10-11,-1,-0.00023850260459956922,-0.00011656884049371981,-0.011909609205940053,0.0028997552820981248,0.9902412676400718
2012-10-15,-1,-0.00024337478389974175,-0.00012033552645457639,-0.01373615877928979,0.0006702406442441005,0.988950048514624
2012-10-17,0,0.0,0.0,-0.01373615877928979,-0.002105261150159334,0.9886017711201623
2012-10-19,0,0.0,0.0,-0.01373615877928979,0.0008890333493658236,0.9878995447990511
2012-10-23,0,0.0,0.0,-0.011909609205940053,0.005016353792370571,0.9884440514876215
2012-10-25,1,1.0009337521332773,1.0011599891843947,-0.011125191707997844,0.009513620706090116,0.49890227738958826
2012-10-31,-1,-0.0009258526465606935,-0.0007612880979635495,-0.011125191707997844,0.005016353792370571,0.9898983430483038
2012-11-02,0,0.0,0.0,-0.010680381550695903,0.007382819382526578,0.9902456977476767
2012-11-06,0,0.0,0.0,-0.010321532784162698,0.007382819382526578,0.9902817130375776
2012-11-08,0,0.0,0.0,-0.0074184750512469215,0.009513620706090116,0.9908448050705225
2012-11-12,0,0.0,0.0,-0.0031719770088838766,0.009513620706090116,0.9917734638156956
2012-11-14,0,0.0,0.0,-0.0031632495940732475,0.009513620706090116,0.9932481690669881
2012-11-16,0,0.0,0.0,-0.0022326236456970258,0.010003672732306372,0.993402218593907
2012-11-20,0,0.0,0.0,-0.0022326236456970258,0.007639659950747402,0.9942405715653418
2012-11-23,0,0.0,0.0,-0.00238545635873092,0.007019118953190849,0.9943760995296281
2012-11-27,-1,-0.0022536508267122293,-0.0020746053839082275,-0.003046987005734484,0.006677863689856194,0.9948176616859341
2012-11-29,-1,-0.002265451657698419,-0.0020776581861158107,-0.0035952048913848603,0.006677863689856194,0.9947879675283134
2012-12-03,-1,-0.002436293261063211,-0.002179814890375956,-0.0035952048913848603,0.008322018689471295,0.9940384776039403
2012-12-05,-1,-0.002902034580433018,-0.0026090945194020857,-0.00238545635873092,0.009573081580560538,0.9932036376464596
2012-12-07,-1,-0.0018877459152653988,-0.0017550173728162527,-0.00238545635873092,0.008322018689471295,0.9937568002998912
2012-12-11,-1,-0.001373810231697842,-0.0013168939557400218,-0.00238545635873092,0.010033385467107591,0.9930353955406311
2012-12-13,-1,-0.002370577327316742,-0.0021749958003163404,-0.00238545635873092,0.010033385467107591,0.9927451323728743
2012-12-17,-1,-0.0021985344324283347,-0.0019280717945062856,-0.002740621302263774,0.010033385467107591,0.9929069717164748
2012-12-19,-1,-0.0012230858678126393,-0.0011020639235406757,-0.003046987005734484,0.010033385467107591,0.9929266622223958
2012-12-21,-1,-0.0005491825255532243,-0.0005397627136763339,-0.002922281535525079,0.010871276950003188,0.9927189615998462
2012-12-26,-1,-0.000830824564949325,-0.000782830700853608,-0.001054244060887841,0.010871276950003188,0.9926205380348289
2012-12-28,-1,-0.0008531394448319507,-0.0008170545447793058,-0.0009839412677785575,0.010871276950003188,0.992719336349721
2013-01-02,0,0.0,0.0,-0.0019840916396671386,0.011053854332948344,0.9928225348674362
2013-01-04,0,0.0,0.0,-0.0019840916396671386,0.011053854332948344,0.9927036237820902
2013-01-08,0,0.0,0.0,-0.0019840916396671386,0.011053854332948344,0.9929037366053229
2013-01-10,1,0.0007005169049350984,0.0007861664784172817,-0.0019840916396671386,0.009748847875966629,0.993379220583455
2013-01-14,1,0.0004649846033230604,0.0005251411643606102,-0.0009839412677785575,0.009748847875966629,0.9929355969533746
2013-01-16,1,0.0011814756662565558,0.0013859167686097612,-0.0009839412677785575,0.009225343477504182,0.9937325905906689
2013-01-18,1,0.0013267718519228387,0.001521887515988443,-0.0009839412677785575,0.00890424968706275,0.9941331557794854
2013-01-23,1,0.0019316016072327053,0.002222335106964882,-0.003606702855371527,0.007910801804768742,0.9933071767990448
2013-01-25,0,0.0,0.0,-0.005738420751871502,0.00890424968706275,0.9916134511543394
2013-01-29,0,0.0,0.0,-0.005738420751871502,0.009748847875966629,0.9897227471099229
2013-01-31,1,0.003805835374567545,0.004371508054896168,-0.003606702855371527,0.009225343477504182,0.9916251047636281
2013-02-04,0,0.0,0.0,-0.003606702855371527,0.009147131336749121,0.9904784141048516
2013-02-06,0,0.0,0.0,-0.004450486468675229,0.009147131336749121,0.9904908712872335
2013-02-08,1,0.005202781719891738,0.0060547179016295465,-0.004450486468675229,0.009549377726439661,0.9903360557145671
2013-02-12,1,0.004919468322165,0.005737344549804038,-0.004450486468675229,0.01022453984113123,0.9903883153302008
2013-02-14,1,0.00455246024221614,0.005284675931006888,-0.004450486468675229,0.01260022265732165,0.9900871246387423
2013-02-19,1,0.004355561809959822,0.0050306966181617035,-0.009250234556964878,0.01260022265732165,0.9892468869259939
2013-02-21,1,0.0027488954071376204,0.0031556903223583905,-0.0033180436749104,0.01260022265732165,0.9902944689193705
2013-02-25,1,0.002564069020591646,0.0029402134978609067,-0.0033180436749104,0.011872314032664,0.991217395063825
2013-02-27,1,0.00359191770180098,0.004083839681542848,-0.0033180436749104,0.009634604648573006,0.9926762618210999
2013-03-01,1,0.00379448517212342,0.004326663536762862,-0.004365748492173881,0.009634604648573006,0.9925973957940747
2013-03-05,1,0.0043797182927631535,0.004981556574208893,-0.004365748492173881,0.009634604648573006,0.9926088277724249
2013-03-07,1,0.004050411267763737,0.004587083188660485,-0.0047004264344606495,0.009794989275918252,0.991172207357628
2013-03-11,0,0.0,0.0,-0.0047004264344606495,0.009794989275918252,0.9908618145558428
2013-03-13,0,0.0,0.0,-0.0037794928612345314,0.010070719776590839,0.9910517168150783
2013-03-15,0,0.0,0.0,-0.0047004264344606495,0.007939254641053491,0.990654370916536
2013-03-19,0,0.0,0.0,-0.0037794928612345314,0.009685388889857547,0.9890603141584606
2013-03-21,0,0.0,0.0,-0.004644550634110818,0.010070719776590839,0.9885105184918768
2013-03-25,0,0.0,0.0,-0.004580106795524903,0.010070719776590839,0.9886722630863953
2013-03-27,0,0.0,0.0,-0.005086638955233073,0.010070719776590839,0.9881622551114358
2013-04-01,0,0.0,0.0,-0.007049477890854149,0.011286857610817658,0.9874722466035645
2013-04-03,0,0.0,0.0,-0.007049477890854149,0.014355665345386393,0.9866314599562426
2013-04-05,0,0.0,0.003003169417806732,-0.005396180603764203,0.014355665345386393,0.9322979692343096
2013-04-09,0,0.0,0.0,-0.005396180603764203,0.014355665345386393,0.9870846915234275
2013-04-11,0,0.0,0.0,-0.005396180603764203,0.012961413753813147,0.9876847914608463
2013-04-15,0,0.0,0.0,-0.0047477311836211945,0.012961413753813147,0.9888618257355535
2013-04-17,1,0.001170162298131317,0.0013246863558987931,-0.004580106795524903,0.012772540310256672,0.9908196432683696
2013-04-19,1,0.001850589553444587,0.0018644298002429413,-0.003946874187161966,0.010051271291580042,0.9916376714434713
2013-04-23,0,0.0,0.0,-0.004081486418604201,0.010051271291580042,0.9912848813785952
2013-04-25,0,0.0,0.0,-0.004081486418604201,0.010051271291580042,0.9902002127635123
2013-04-29,0,0.0,0.0,-0.005836867371160286,0.0072902198342089325,0.9902435862749397
2013-05-01,0,0.0,0.0,-0.009210349256658682,0.006134250254806357,0.9900900602547023
2013-05-03,0,0.0,0.0,-0.009210349256658682,0.0043396454089924584,0.9910346587103523
2013-05-07,0,0.0,0.0,-0.013303618460920714,0.0010122428182864564,0.9897908799682761
2013-05-09,0,0.0,0.0,-0.013303618460920714,0.002892792454617173,0.9886324522104518
2013-05-13,1,0.0020881484161967543,0.0021731910936337367,-0.016606477298029925,-0.0022996030934762813,0.9863626379338937
2013-05-15,1,0.0024570131330088132,0.0024751256673033128,-0.018549545453700744,-0.002671850762029809,0.9850261066496465
2013-05-17,1,0.0019838415583336502,0.002046021223171393,-0.018549545453700744,-0.0013220296184401426,0.9849461686589439
2013-05-21,1,0.001988258848491385,0.002095165429957378,-0.022804397734251265,-0.0013220296184401426,0.9827790916756752
2013-05-23,0,0.0,0.0,-0.022804397734251265,0.0038513567844094157,0.9829778697425857
2013-05-28,-1,-0.0019570212135509545,-0.0014096616663134263,-0.022804397734251265,0.009179064533750197,0.9830895988165113
2013-05-30,-1,-0.0032335839458845217,-0.0025573418859310033,-0.018549545453700744,0.019540489722521034,0.9817297622740554
2013-06-03,-1,-0.0033408998408039304,-0.0026717977436268832,-0.018549545453700744,0.019540489722521034,0.981647804664856
2013-06-05,-1,-0.004530657413805794,-0.003764305352339015,-0.013078977678294083,0.019540489722521034,0.982410544938954
2013-06-07,-1,-0.004276233978766644,-0.003520021676048957,-0.013078977678294083,0.013911524545209922,0.9832458537354466
2013-06-11,-1,-0.00544669026186831,-0.00456921828349569,-0.006858750022841937,0.01522451973234714,0.9827172785207059
2013-06-13,-1,-0.005199153425616528,-0.004381121361674478,-0.0032084161452780855,0.015798367036519635,0.9827817620032726
2013-06-17,-1,-0.00455973825115653,-0.003841261827356827,-0.0022346708213089083,0.015798367036519635,0.9830125487106317
2013-06-19,-1,-0.004878405694583088,-0.004130673916468238,-0.0007703623029960188,0.015210986985048844,0.9836962277158608
2013-06-21,-1,-0.006784801169019774,-0.005810231780618456,-0.0007703623029960188,0.015210986985048844,0.9846223961358423
2013-06-25,-1,-0.00630116806975667,-0.00540378192080637,-0.0007703623029960188,0.012919825124890993,0.9849797794766193
2013-06-27,-1,-0.0036020066668579287,-0.0030539690144445004,-0.0018341435077499455,0.011770605673830632,0.9892251438844312
2013-07-01,-1,-0.004114468207847021,-0.00351746303664356,-0.001397441420681441,0.011770605673830632,0.9888659378932227
2013-07-03,-1,-0.003260026867360235,-0.002795420628429214,-0.004387159007493074,0.00955819179130487,0.9887106741050636
2013-07-08,-1,-0.0034253577448551675,-0.002922081122749043,-0.008301371537312625,0.00955819179130487,0.9885665970269881
2013-07-10,-1,-0.002708860646883752,-0.0022880097594324854,-0.008301371537312625,0.007605177733439852,0.9895559812326296
2013-07-12,-1,-0.0014277206462857033,-0.0011612745388612203,-0.008301371537312625,0.007605177733439852,0.9903996100558065
2013-07-16,-1,-0.0018819008168337167,-0.0014966842738697427,-0.01395106799124365,0.006591279715885622,0.9890344327921202
2013-07-18,-1,-0.000763727972253553,-0.0005023752995914997,-0.015288341461724083,0.0014523436608173958,0.9893743421696475
2013-07-22,1,0.00026972739317481214,0.0003387761780452164,-0.01902726523434871,0.0001575335373968032,0.9866364819215327
2013-07-24,-1,-0.00044574410167490263,-0.0002985245365186186,-0.016904606512492593,0.0001575335373968032,0.9868022264644963
2013-07-26,1,1.2265517716564354e-05,6.685720131746747e-05,-0.016904606512492593,0.0014523436608173958,0.9859305797338871
2013-07-30,-1,-0.000693841522206485,-0.0005450717122084711,-0.016904606512492593,0.005367352153035287,0.9861262816055217
2013-08-01,-1,-0.0019122007334506264,-0.0016464230137145197,-0.01395106799124365,0.005367352153035287,0.9870684698674146
2013-08-05,-1,-0.002698382718702266,-0.002340852262598909,-0.014021663943342831,0.005367352153035287,0.9868354943164133
2013-08-07,-1,-0.0020092772570973515,-0.0017851426767732865,-0.015288341461724083,0.005962456932796978,0.9851449182854067
2013-08-09,-1,-0.0019942118027040834,-0.001734312507877142,-0.015288341461724083,0.00918413462110606,0.9840274983365411
2013-08-13,-1,-0.0035951501330162864,-0.00316343797557329,-0.012065216618606097,0.01538957809218228,0.9851176841470989
2013-08-15,-1,-0.003954577290604972,-0.003489394338495652,-0.011419261345332892,0.01538957809218228,0.9853419666891724
2013-08-19,-1,-0.005971400445923092,-0.005302615900367055,-0.007267084918458967,0.017748453929163854,0.9861424865782638
2013-08-21,-1,-0.004620230116305583,-0.004118691639433328,-0.007267084918458967,0.017748453929163854,0.9858989042554238
2013-08-23,-1,-0.0033541938921473717,-0.0030186496007607783,-0.011290330953294772,0.015390575662850904,0.9871364778900394
2013-08-27,-1,-0.002636998777169611,-0.002396704394717488,-0.011419261345332892,0.015390575662850904,0.9875392037366763
2013-08-29,-1,-0.003160410893126473,-0.002882635997172721,-0.008087767224011421,0.015390575662850904,0.9875419891623818
2013-09-03,-1,-0.0037063015591857814,-0.0033940388993511667,-0.006188634917455319,0.017830597993461456,0.986329352314491
2013-09-05,-1,-0.004007378232912907,-0.003629075847478003,-0.007426350015359439,0.015390575662850904,0.9870808924266747
2013-09-09,-1,-0.0021609851919753027,-0.0020113757907405418,-0.007426350015359439,0.009010415336913947,0.9888141075989194
2013-09-11,-1,-0.0010145455701547343,-0.0009932807084079523,-0.010100082961696663,0.007115270263102987,0.988686892882869
2013-09-13,-1,-0.000744397608601479,-0.0006838355302580891,-0.010100082961696663,0.00908714069774148,0.9877607579707198
2013-09-17,-1,-0.0003132845543426194,-0.00024740455736743867,-0.010100082961696663,0.00908714069774148,0.9875973953001475
2013-09-19,1,0.0015299732516046742,0.0018560372914653053,-0.010100082961696663,0.0117921011737037,0.9875222572061884
2013-09-23,1,0.001396840067864409,0.0017570073895580307,-0.009040596035134293,0.0117921011737037,0.98790850516941
2013-09-25,1,0.0014853083785000372,0.0019279246615838096,-0.008285199263111002,0.014534150578637621,0.9882361852789173
2013-09-27,1,0.002031417580222259,0.002589123485595047,-0.008285199263111002,0.014534150578637621,0.9882475646191835
2013-10-01,1,0.0022831535089921262,0.002874952516249967,-0.009040596035134293,0.012236536882200215,0.9886190413176585
2013-10-03,1,0.0016412125230579686,0.00217973471003223,-0.006074031364615354,0.012236536882200215,0.989515224028992
2013-10-07,1,0.0023442285862592584,0.0030108114385391967,-0.006074031364615354,0.012841331331225274,0.9892028748752516
2013-10-09,1,0.0020179865223491945,0.00263961609538089,-0.008202650644013142,0.012841331331225274,0.9885928140867823
2013-10-11,1,0.003375660560650874,0.004176677536746429,-0.009999019073021028,0.012099323866125,0.9877558977887498
2013-10-15,1,0.002872127527175284,0.0034978021110239153,-0.01200776235224664,0.011589634251355686,0.9877538424256057
2013-10-17,1,0.004182570264633034,0.004928754120942153,-0.01200776235224664,0.011589634251355686,0.9884584289838471
2013-10-21,1,0.0033020869983338263,0.003855999376527807,-0.014306005339860851,0.011589634251355686,0.9881518129291337
2013-10-23,1,0.0036533862791790894,0.004242010703429879,-0.01431762514866058,0.01080825555951965,0.9871447864227471
2013-10-25,1,0.0035635667040187723,0.004043940481723442,-0.01431762514866058,0.0016276104118637584,0.9873819742984159
2013-10-29,1,0.0027148736368969345,0.003114364176996991,-0.012254831268757083,0.0016276104118637584,0.9883560806779411
2013-10-31,1,0.001758285701417912,0.0019547117086981193,-0.012254831268757083,0.0066992059744095545,0.9887577868146779
2013-11-04,1,0.0019541472115675064,0.0021653479559349924,-0.012254831268757083,0.0016276104118637584,0.9890837592573412
2013-11-06,1,0.000996235181427724,0.0010995208488205571,-0.011437551073279068,0.0016276104118637584,0.9902984627755883
2013-11-08,-1,-0.0006704295994128858,-0.0005456630034587431,-0.00951262007165465,0.0066992059744095545,0.9918274780244374
2013-11-12,-1,-0.0020680084902679973,-0.001687696631715045,-0.00951262007165465,0.0016276104118637584,0.9916783571383287
2013-11-14,-1,-0.0010116836313303398,-0.0007581596205431312,-0.010652183927173165,-0.0009881648894063625,0.9917197602750308
2013-11-18,-1,-0.000308287825935981,-0.000252024445847385,-0.00951262007165465,0.004217952999149564,0.9912252294278184
2013-11-20,-1,-0.0017689999746048077,-0.0015074063123610513,-0.006320701262865562,0.004801065876484823,0.9914899093608964
2013-11-22,-1,-0.0013270837757141528,-0.0011417245910549476,-0.006320701262865562,0.004989830203439344,0.9908654831126049
2013-11-26,-1,-0.001985010253166099,-0.001728812191268991,-0.005008225654347905,0.004989830203439344,0.9914531001575431
2013-11-29,-1,-0.0013450725191398684,-0.0012034233008753996,-0.005008225654347905,0.00552087908560543,0.9912411674877571
2013-12-03,-1,-0.0006120502814584125,-0.0005987121968530542,-0.005008225654347905,0.00552087908560543,0.9911728363265774
2013-12-05,-1,-0.0008257190392884899,-0.0008122889496404847,-0.005008225654347905,0.00782913401715588,0.9907065715248132
2013-12-09,1,0.00023154200991035222,0.00046213078533122545,-0.005380470082636879,0.00782913401715588,0.9908661373720519
2013-12-11,-1,-0.0011189332078408464,-0.00104934172288486,-0.0041676891948930995,0.00782913401715588,0.9921883398049787
2013-12-13,-1,-0.0017191715035614283,-0.0016770622951734573,-0.0041676891948930995,0.00782913401715588,0.99227026021231
2013-12-17,-1,-0.0007703564086241404,-0.0006803539974260253,-0.0041676891948930995,0.007480376014580059,0.9931544628266621
2013-12-19,-1,-0.00044027092497982026,-0.00033259033508809894,-0.0041676891948930995,0.007480376014580059,0.9935475011178323
2013-12-23,-1,-0.0006890955467775281,-0.000680125657388789,-0.0046584390817560935,0.006351373132219488,0.99381514363306
2013-12-26,-1,-0.0010168781093293896,-0.000936522033632771,-0.007923402235786418,0.006351373132219488,0.9924030688545872
2013-12-30,-1,-0.0003790408874620179,-0.00037617211287465356,-0.007923402235786418,0.006351373132219488,0.992214778261847
2014-01-02,-1,-0.00012035771219317265,-7.022777564698963e-05,-0.007923402235786418,0.008174282943968254,0.9886984045036603
2014-01-06,-1,-0.001203763573680739,-0.001041168957437002,-0.007923402235786418,0.009631904179575818,0.9869203790729659
2014-01-08,-1,-0.0011672319274464106,-0.00099170903624165,-0.006976174798484113,0.009631904179575818,0.9869997702719852
2014-01-10,-1,-0.002447895655149021,-0.0020220109376604795,-0.006976174798484113,0.011080724049406167,0.9865513953191816
2014-01-14,-1,-0.0019133536480624475,-0.001596415383968484,-0.008406951262659598,0.011080724049406167,0.9863632179293358
2014-01-16,-1,-0.0013155412356739278,-0.0011027653321055817,-0.008406951262659598,0.011080724049406167,0.986245569471263
2014-01-21,-1,-0.0011955805037529577,-0.0010152553869966579,-0.006061667711494235,0.011080724049406167,0.9864561048102052
2014-01-23,-1,-0.001712601679228847,-0.0014376198946213004,-0.002794599801473137,0.011080724049406167,0.9866379725746762
2014-01-27,-1,-0.003186422947448113,-0.0027018868798799806,-0.0009328831232782199,0.011080724049406167,0.9870958734200354
2014-01-29,-1,-0.0030523144687607125,-0.002580176586147126,-0.0009328831232782199,0.008702168100713593,0.9876060057992254
2014-01-31,-1,-8.253296896637425e-05,-1.4055291202455256e-05,-0.0013711197348002058,0.008054589407147808,0.9914703414629803
2014-02-04,1,0.00011442247513721075,0.00013827889322730964,-0.0007521533481943551,0.007545251308849452,0.9941161873827241
2014-02-06,1,0.0005718263419098269,0.00060982967888107,-0.0014959138262825658,0.006877453149563549,0.9942283938644061
2014-02-10,1,0.00122099421314774,0.0013786165299636867,-0.0025651249770055886,0.006877453149563549,0.994196746702501
2014-02-12,1,0.001699010975152562,0.001989837522461823,-0.0025651249770055886,0.005700514383913089,0.9946975816558885
2014-02-14,1,0.0016726714669286586,0.0019317741552115852,-0.0025651249770055886,0.004979449630961171,0.994900880612948
2014-02-19,1,0.0017708306614074402,0.0020163612800130504,-0.003600195188698732,0.003038738008078539,0.9939165266396215
2014-02-21,1,0.0019046945504767182,0.0021695583863987934,-0.003600195188698732,0.0031667670922564035,0.9934111017440468
2014-02-25,1,0.001830696665594436,0.002089042476929693,-0.004514716776331518,0.005678262219528269,0.993071118064859
2014-02-27,1,0.0013067421225375552,0.0014511850288856467,-0.004514716776331518,0.007249233049055968,0.9919513692620935
2014-03-03,1,0.0018404857951118206,0.0020635821154734663,-0.004514716776331518,0.008642158514051878,0.992002304577508
2014-03-05,1,0.0017332315992626553,0.001919664685180228,-0.004514716776331518,0.008642158514051878,0.9918840077802142
2014-03-07,1,0.0016186149347780004,0.0018396771123917164,-0.0029786925282266116,0.008642158514051878,0.9928632639830726
2014-03-11,1,0.0018747815297662659,0.002143964743756179,-0.0025770045242433383,0.008642158514051878,0.992998517001752
2014-03-13,1,0.00228633308652335,0.0026789748617275806,-0.0025770045242433383,0.008642158514051878,0.9928866656768768
2014-03-17,1,0.0022387198991035166,0.002615662937551528,-0.0032835330574375408,0.009018913884810796,0.9917345348205066
2014-03-19,1,0.0020458482113523543,0.00241778230871288,-0.0025770045242433383,0.011484531237421929,0.9917948551435433
2014-03-21,1,0.002018825119122449,0.0023913069050339394,-0.0032835330574375408,0.009652891378250577,0.9919243142567131
2014-03-25,1,0.0017743887250211093,0.0020771934276618206,-0.003800679876954806,0.009542187749723863,0.9919231587811688
2014-03-27,1,0.0016616208492651234,0.0019416930351260943,-0.003800679876954806,0.008605257304542972,0.9930763410931995
2014-03-31,1,0.0021934980969780457,0.0025586925802365363,-0.003800679876954806,0.005598470658307146,0.9938121770828556
2014-04-02,1,0.0017722817489031631,0.002044411803703095,-0.0015777482562478525,0.006922195010710739,0.9938341005149025
2014-04-04,1,0.0014150194995340083,0.0015992481341764462,-0.005423908790453299,0.006922195010710739,0.9933799874614293
2014-04-08,1,0.001578302095083894,0.0017774917007391164,-0.006460372480826824,0.006922195010710739,0.9927028556686811
2014-04-10,1,0.001497610122455707,0.0017113185228405893,-0.005423908790453299,0.006922195010710739,0.9927547912263823
2014-04-14,1,0.001228970996762035,0.0013866545759245355,-0.005423908790453299,0.005500818765660122,0.9932090331216846
2014-04-16,1,0.0014365682141427973,0.0015904699455722036,-0.006460372480826824,0.004725099162234946,0.9937691409919479
2014-04-21,1,0.0013790368376631473,0.0015337481481304915,-0.006447542472077821,0.005500818765660122,0.993341619805669
2014-04-23,1,0.0010932002035642825,0.001183900881690057,-0.00556045823753971,0.004725099162234946,0.9935930354074493
2014-04-25,1,0.001022648262984476,0.0011072429275402655,-0.004687271441127604,0.005935021535342912,0.993665329157199
2014-04-29,1,0.0010560567155647503,0.0011393956398101745,-0.004687271441127604,0.008224803319759107,0.9933110733555379
2014-05-01,1,0.0010457704467039754,0.0011091914526151592,-0.004687271441127604,0.005442720547555213,0.9935594719445086
2014-05-05,1,0.000853997886219369,0.0008966512067724253,-0.0037272977806896866,0.005442720547555213,0.9937796498751682
2014-05-07,1,0.0003831038252082752,0.00044740917756645585,-0.003399263747606742,0.005442720547555213,0.9938440692505769
2014-05-09,1,0.00018898707096746536,0.0002827174290306378,-0.003399263747606742,0.0045657587658591734,0.9936777372184352
2014-05-13,1,1.6623831598033443e-05,0.00011344338796259908,-0.003399263747606742,0.0045657587658591734,0.9941398615808544
2014-05-15,1,3.086846549397922e-05,0.00011500927021344305,-0.003399263747606742,0.0029726236819020025,0.9945357476765734
2014-05-19,1,0.0001398075592057103,0.0002045913319608491,-0.0029745834575037305,0.0029726236819020025,0.9952056343567975
2014-05-21,0,-3.7089686742693985e-05,5.3416453552467696e-05,-0.002409514790871155,0.005299203147560818,0.9944037952459097
2014-05-23,1,0.0003127384273499195,0.0003482401004369649,-0.0029745834575037305,0.0035403661720927668,0.9944983775300005
2014-05-28,1,0.00026101966617254484,0.0003067595156505287,-0.0036487734426611435,0.0035403661720927668,0.9946046804603464
2014-05-30,1,0.00018318463393072603,0.00025804933909207505,-0.0036487734426611435,0.004615502180330598,0.9939682509023706
2014-06-03,1,0.00018931294676369968,0.00026117262797176866,-0.00324310529777711,0.004615502180330598,0.9940008845060333
2014-06-05,1,0.0005519450051755886,0.0005865791567630079,-0.004743913195644904,0.004108303705593142,0.9943236007777357
2014-06-09,1,1.5408422824274195e-05,0.0001158664425412685,-0.004458071616618583,0.004108303705593142,0.9949305901457038
2014-06-11,1,3.3367560188110764e-05,0.00012696970925582648,-0.004439603047187112,0.004108303705593142,0.9948259595709996
2014-06-13,-1,-0.00029413636482510347,-0.00015341487317305382,-0.0032381933256790535,0.004615502180330598,0.9948111910044856
2014-06-17,-1,-0.0004307482475139772,-0.000269627808053276,-0.004403562708151882,0.005296233007189238,0.9946165478000745
2014-06-19,-1,-0.0005723533526945546,-0.0003534861715911643,-0.004439603047187112,0.004615502180330598,0.9949162563886798
2014-06-23,-1,-0.0007445953917319041,-0.0005122683928673768,-0.004403562708151882,0.004615502180330598,0.9950637885810043
2014-06-25,1,2.2129498809684005e-05,9.836802469129089e-05,-0.004403562708151882,0.004150757108748157,0.9951817302973681
2014-06-27,1,0.00043043990134045596,0.0005435102998671199,-0.004827118363412316,0.00346927759890957,0.9953975248783652
2014-07-01,1,0.0007640467729778159,0.0007994558556040513,-0.004827118363412316,0.003314525294706412,0.9955562869053342
2014-07-03,1,0.00038891074452750043,0.0004488963768735792,-0.004403562708151882,0.003314525294706412,0.9957930275192973
2014-07-08,1,0.0003585324239992955,0.00042974238545335206,-0.004827118363412316,0.004022456836284446,0.9946378387879032
2014-07-10,1,0.00038610829136939966,0.00043747208568446945,-0.004847443713443431,0.003996148258516448,0.9947361906272708
2014-07-14,1,0.000864782739030297,0.0008890922674198343,-0.004847443713443431,0.006073204893853792,0.9942951741594602
2014-07-16,1,0.0008728034512098066,0.0009097642283535082,-0.006010983994366182,0.006789117987689684,0.993447126749345
2014-07-18,1,0.0008925088548639892,0.0009226759972833021,-0.004847443713443431,0.003575224383281006,0.9940032628431321
2014-07-22,1,0.0005568544642728344,0.0005790259427773639,-0.004847443713443431,0.008903852754026475,0.9932426073479786
2014-07-24,1,0.0007725775880317465,0.0008057430036240688,-0.004548268815122922,0.008903852754026475,0.9931555548992204
2014-07-28,1,0.0007667580645101904,0.0008047986473674843,-0.004548268815122922,0.008903852754026475,0.9931766012247776
2014-07-30,1,0.0002709746697520504,0.00033480256143927385,-0.004548268815122922,0.008903852754026475,0.9930489486072781
2014-08-01,1,2.0807745474013214e-06,8.585524330768593e-05,-0.003987504759494911,0.009361578827060677,0.9929072983777792
2014-08-05,-1,-0.00040586696259131797,-0.00026191032935687626,-0.003947324643740854,0.008903852754026475,0.9939228944200984
2014-08-07,-1,-0.0005871486748140145,-0.0004223029071062399,-0.003947324643740854,0.009437133689421881,0.993027620340962
2014-08-11,-1,-0.00038099944308230764,-0.00020848318992476773,-0.0044277284678607524,0.006742316486144416,0.9936469499857705
2014-08-13,0,-3.347031946836671e-05,8.071946602822543e-05,-0.0044277284678607524,0.0017531401891948285,0.9943860695154438
2014-08-15,-1,-0.00020146941647314267,-7.087088983526066e-05,-0.005893333245773199,0.0017515733318529,0.9928674907945974
2014-08-19,1,0.0004224689497893662,0.0004913115172695351,-0.005893333245773199,0.0017515733318529,0.9928813789725137
2014-08-21,1,0.0007257409211464533,0.0007275086782247093,-0.008680569060199967,0.0005419511374714269,0.9919710663401763
2014-08-25,1,0.00013358214862925827,0.0002146491893692529,-0.009252549649098128,0.0005419511374714269,0.9919620915078865
2014-08-27,1,3.5197808479770214e-05,0.00012253302766772168,-0.009252549649098128,0.0012856240287235162,0.9916574515183698
2014-08-29,1,0.0007061310686829847,0.0007183451402604291,-0.009252549649098128,0.0021750287926694226,0.9912222084987776
2014-09-03,1,0.00023312598741195785,0.000295082497420257,-0.010629759096368381,0.002622845670809952,0.9910896817574829
2014-09-05,0,-2.642044719647856e-05,8.454309616339264e-05,-0.008991471361902599,0.002324257956921163,0.9920520550804364
2014-09-09,1,0.0004075829834897729,0.00041081147548395605,-0.008991471361902599,0.002622845670809952,0.9913620967733918
2014-09-11,-1,-0.0001861336882583083,-0.00010067465892928007,-0.007746272313748,0.004747486826917174,0.9905014884372114
2014-09-15,-1,-0.0015774902758843854,-0.001328921090857934,-0.007391973017868704,0.004747486826917174,0.992086599972196
2014-09-17,-1,-0.0009684093876483594,-0.0007858710192289611,-0.007746272313748,0.002622845670809952,0.9905402131889319
2014-09-19,-1,-0.001705076573694948,-0.0014488423307290465,-0.0070820425120456795,0.004609646752381714,0.9911820331530498
2014-09-23,-1,-0.0021726775156263047,-0.0018802308339488827,-0.005181701690922613,0.00840981926490614,0.9906291864113247
2014-09-25,-1,-0.002452012354955504,-0.002109607297391922,-0.003751979644113007,0.00840981926490614,0.9906707860491635
2014-09-29,-1,-0.0015589232030262313,-0.0013373458915151815,-0.003751979644113007,0.006057948462966736,0.9912421261827039
2014-10-01,-1,-0.0018950901428939086,-0.0016335146085899811,-0.003751979644113007,0.006057948462966736,0.9913937121257103
2014-10-03,-1,-0.0023770214064201354,-0.002030938485364843,-0.003711905250246895,0.010078023615022413,0.98998497262544
2014-10-07,-1,-0.002354051777767944,-0.0020067333539649564,-0.0012673405377955228,0.012334080289020548,0.9895074299535868
2014-10-09,-1,-0.001617828155797643,-0.001368904505623915,-0.0012673405377955228,0.008604117952413342,0.9905301402416137
2014-10-13,-1,-0.0019949874727879322,-0.0016931848406938708,0.0017904190924678287,0.008841240401851944,0.989791060238304
2014-10-15,-1,-0.0011226059983429093,-0.0009439899663096577,0.0017904190924678287,0.007997558193849317,0.991269310409936
2014-10-17,-1,-0.0005806763078957942,-0.0004770781022342532,0.001512909071276606,0.007860689137121533,0.9913022764664807
2014-10-21,1,0.0003702449472576483,0.0003885139124922667,-0.0014687264424727688,0.006012325444057475,0.9922879638521263
2014-10-23,1,0.0004348411751514394,0.00045911698594500194,-0.003433059724076996,0.006012325444057475,0.9923011966180366
2014-10-27,1,0.0012054208679056942,0.00137963091220482,-0.003433059724076996,0.008265872714888987,0.9922516216824669
2014-10-29,1,0.0007738228790949267,0.0008596931043311306,-1.4772869333730572e-05,0.008265872714888987,0.9921440887584106
2014-10-31,1,0.0016168741355678366,0.0018052577903277026,-0.003433059724076996,0.00659242407112082,0.9932669156364294
2014-11-04,1,0.002074714546017916,0.00230037920212765,-0.003433059724076996,0.00634236947177892,0.9938245050228918
2014-11-06,1,0.0018287030370102248,0.0020184665004213823,-0.002722042052018596,0.005533712788629251,0.9944538232561044
2014-11-10,1,0.0025862580068789385,0.00291718773065128,-0.002722042052018596,0.004421344649816141,0.9947187342441478
2014-11-12,1,0.0014033714707231493,0.0015567047331258282,-0.0021802701499304303,0.004792067316481436,0.9958477412155803
2014-11-14,1,0.0010697904359151286,0.0011768451305896976,-0.002722042052018596,0.004792067316481436,0.9949829964795306
2014-11-18,1,0.001456339102211561,0.0016499673696772441,-0.0021802701499304303,0.00634236947177892,0.9931601483779909
2014-11-20,1,0.0015291018735071565,0.0017333747301424745,-0.0008989135897279071,0.007141717410696902,0.9928474076444629
2014-11-24,1,0.0018341651379497016,0.0020468985565767813,-0.0008989135897279071,0.006264162182265418,0.9933069041067943
2014-11-26,1,0.002133501316944014,0.0023912677220654793,-0.0008989135897279071,0.005070842795259206,0.9934242202655457
2014-12-01,1,0.0016901237756719646,0.0018828877853922185,-0.0008989135897279071,0.005070842795259206,0.9934410272140104
2014-12-03,1,0.0020000936955192733,0.0022539214109974642,-0.0008989135897279071,0.005070842795259206,0.9925956576925985
2014-12-05,1,0.002006834654760037,0.0022610216410832392,-0.0012461787588045462,0.007787527394554461,0.9920761137892429
2014-12-09,1,0.0022900841581358286,0.0025882832679292567,-0.0012461787588045462,0.01206110067106636,0.9907034441557933
2014-12-11,1,0.0022397302184830182,0.002520699012283464,-0.001824495435238106,0.01206110067106636,0.9903861258133493
2014-12-15,1,0.0009450175720857946,0.0010451586866717982,-0.00024462398778251785,0.012394084710041529,0.9903947546917469
2014-12-17,1,0.0027116717043745445,0.0030385056804289236,-0.00024462398778251785,0.0123371902397219,0.9926501354696666
2014-12-19,1,0.0031795975605854706,0.0035646230792639425,-0.001824495435238106,0.012216470608465374,0.9925164808338404
2014-12-23,1,0.003206313945016954,0.0035672125942046847,-0.004620779286172203,0.013799117105606712,0.9914949842807473
2014-12-26,1,0.0031194484380353046,0.003450952168565142,-0.004620779286172203,0.014054116024564712,0.9909760719447951
2014-12-30,1,0.002883465718090842,0.0031693854098892287,-0.005682998159459149,0.014054116024564712,0.990505821163418
2015-01-02,1,0.003012423334967421,0.00335044327350322,-0.005682998159459149,0.014054116024564712,0.9902277634126199
2015-01-06,1,0.003459292574846443,0.003862482199622247,-0.006621921344565387,0.014054116024564712,0.9903514408405465
2015-01-08,1,0.004525626192274649,0.005055098227473675,-0.007119727560114227,0.008742946831778111,0.9893722837750691
2015-01-12,1,0.004719507155486083,0.005318935761471034,-0.007978938427842442,0.008742946831778111,0.9888352928358788
2015-01-14,1,0.004913662205062666,0.005532395818667735,-0.007978938427842442,0.008742946831778111,0.9886150800814258
2015-01-16,1,0.005285520800507054,0.0059169931539445825,-0.011161386024447455,0.005918212264115218,0.9881958061215069
2015-01-21,1,0.00470175010071393,0.005240419734194252,-0.011345026174053762,0.0074561492812274845,0.9882067118108373
2015-01-23,1,0.005290806809690537,0.005931457310569537,-0.011345026174053762,0.008900817135870619,0.9887342097365388
2015-01-27,1,0.005702381838532469,0.006374631745681984,-0.01216987161290837,0.006237883094511493,0.987702237022365
2015-01-29,1,0.005172105731049973,0.005766297990586394,-0.011345026174053762,0.008120782137631498,0.9880052425390541
2015-02-02,1,0.003781337393214556,0.004172574360893836,-0.010133703695294613,0.008120782137631498,0.989811039643767
2015-02-04,1,0.003287789459214472,0.00358015988120129,-0.011345026174053762,0.008120782137631498,0.9896792754105741
2015-02-06,1,0.0017091071480978169,0.0017150047174065177,-0.011345026174053762,0.005698440268163511,0.9900173937374867
2015-02-10,1,0.0014889821117188978,0.0014953433914619981,-0.010133703695294613,0.005698440268163511,0.9906535222521659
2015-02-12,1,0.0013694653775098457,0.001426500458313813,-0.010133703695294613,0.005698440268163511,0.9911737563502526
2015-02-17,1,0.0002429495845431434,0.00047186227945694085,-0.004268334339200266,0.008120782137631498,0.9905741028130916
2015-02-19,-1,-0.00033808636082947527,-2.589195890966619e-05,-0.002073487023217733,0.00860643750108581,0.9904324149401378
2015-02-23,1,0.0007021448631110494,0.0008698268862404034,-0.002704357250085876,0.005917492118506497,0.9895442042941889
2015-02-25,-1,-0.00036765634368370135,-5.1272905896786614e-05,-0.005121110238079167,0.005917492118506497,0.988757418410675
2015-02-27,-1,-0.0007373742966254606,-0.0003646800587441645,-0.0038199279487496577,0.004996719110097934,0.9892068723704865
2015-03-03,-1,-0.0008931718153288163,-0.0005015238596252814,-0.0066133736555280586,0.007222280229229985,0.9877251482993181
2015-03-05,-1,-0.0010867899722219207,-0.0006967832303091607,-0.0038199279487496577,0.012961210868055763,0.9878738810194342
2015-03-09,-1,-0.0029084497425501546,-0.002287314486496091,-0.0038199279487496577,0.012961210868055763,0.9878898692698188
2015-03-11,-1,-0.0027795436527056306,-0.0021946175057114435,-0.014166331088478305,0.012961210868055763,0.9864242575845014
2015-03-13,-1,-0.0023809927027144888,-0.0018492547816131813,-0.014166331088478305,0.00934209170513607,0.9869948607981739
2015-03-17,-1,-0.0009190209648655114,-0.000596388429022942,-0.014166331088478305,0.007537627701306805,0.9878768493993151
2015-03-19,0,-6.241706309829595e-05,0.00015790553485982327,-0.014166331088478305,0.0065695466536465665,0.9880517280743724
2015-03-23,1,0.001177679809043728,0.0012405093243053676,-0.014166331088478305,0.005051428327277545,0.9892323467518176
2015-03-25,-1,-0.00034477605008441554,-9.142979748917373e-05,-0.006771541453323792,0.005051428327277545,0.9913803784870567
2015-03-27,1,8.401666612920368e-05,0.00023912645973721963,-0.006771541453323792,0.0030512580769807693,0.991389751179526
2015-03-31,1,0.0005884640813099854,0.0006477746606166686,-0.007936183964822926,0.0004906883853600598,0.9918922260065206
2015-04-02,1,0.0008768783437601436,0.0009085903224867718,-0.0091578154924375,0.0004906883853600598,0.991462161772733
2015-04-07,1,7.308674943788272e-05,0.0001812792548672296,-0.0091578154924375,0.0004906883853600598,0.9923010184336906
2015-04-09,-1,-0.0021784207378079353,-0.0017568028951991843,-0.005715027973645059,0.0028456753020314083,0.9944878421560936
2015-04-13,-1,-0.0027709008787565118,-0.002264858724155747,-0.00728688099434905,0.00565458353741719,0.9927448739835787
2015-04-15,-1,-0.002642982060795362,-0.0021511045518105795,-0.00868553568240002,0.0028456753020314083,0.9926873311874217
2015-04-17,-1,-0.002951655808541461,-0.0024199139487005162,-0.00746518312942669,0.00565458353741719,0.9918746448996756
2015-04-21,-1,-0.002759625781620533,-0.0022828148740472952,-0.00746518312942669,0.0060428028767781595,0.9913092524153896
2015-04-23,-1,-0.002694607124594796,-0.0022359790373152237,-0.00746518312942669,0.0060428028767781595,0.9913352808418296
2015-04-27,-1,-0.003028137642856449,-0.0025132682624000903,-0.00868553568240002,0.0060428028767781595,0.9904547733841236
2015-04-29,-1,-0.003683731700156204,-0.0030985595471769195,-0.00851384893852284,0.00675315899861387,0.9897867662498067
2015-05-01,-1,-0.0036272190711013367,-0.0030483693001721653,-0.008701544932077662,0.0060428028767781595,0.9900144019437914
2015-05-05,-1,-0.004322648372957053,-0.0036730721018234797,-0.009442827868516086,0.0060428028767781595,0.9905680355393492
2015-05-07,-1,-0.004197794056718464,-0.003564752406567501,-0.009442827868516086,0.0049539427827890396,0.9907145353901883
2015-05-11,-1,-0.004905383119669541,-0.0041337101315728295,-0.009021751938742502,0.0026562954780766225,0.992417103557134
2015-05-13,-1,-0.004304573727671459,-0.0036965053045862383,-0.008636593857088763,0.006660949477138014,0.9914124256030571
2015-05-15,-1,-0.0028578156602175374,-0.002446578834853253,-0.009247974643549388,0.0026562954780766225,0.9926623839309682
2015-05-19,-1,-0.0022941051888981105,-0.0019686907438830263,-0.009247974643549388,0.004336710377639833,0.9925183503826887
2015-05-21,-1,-0.002285243354744534,-0.001968271559961768,-0.01026286611633001,0.0046407748592645955,0.9913984599821779
2015-05-26,-1,-0.0029728243176366078,-0.002576685336203741,-0.009247974643549388,0.004888116501083254,0.9920859311346634
2015-05-28,-1,-0.0027903376718738737,-0.0024087840354330313,-0.01026286611633001,0.0046407748592645955,0.9921753912228172
2015-06-01,-1,-0.002687249279479762,-0.0023401552338373635,-0.010736862530648109,0.004888116501083254,0.9914864412805537
2015-06-03,-1,-0.00268790428317563,-0.002407330177691969,-0.007710850545569781,0.006191377898990281,0.9912343384214736
2015-06-05,-1,-0.002834799768456163,-0.0025350748252637133,-0.006956214355609565,0.0089821608304604,0.9907473692965135
2015-06-09,-1,-0.0029442779189454444,-0.002650825720148663,-0.007438644282936915,0.009483655518847367,0.9897337275497347
2015-06-11,-1,-0.0016424954757624324,-0.0015378438050879788,-0.007438644282936915,0.007781168081454755,0.9906769995533106
2015-06-15,-1,-0.002333251556044397,-0.0021377062847776785,-0.0027503754567531407,0.007781168081454755,0.9907697493213244
2015-06-17,-1,-0.0015581265709074914,-0.001481036923162711,-0.0027503754567531407,0.009604746245988272,0.9906023252234014
2015-06-19,-1,-0.0008609658561061775,-0.000811031752644126,-0.0027047414078339308,0.007781168081454755,0.9918186289366349
2015-06-23,-1,-0.0008711956181426906,-0.00083153270360889,-1.2345874940256725e-05,0.00912843241408422,0.9918132523826345
2015-06-25,-1,-0.0019965405043122107,-0.0018567759236197746,-1.2345874940256725e-05,0.00912843241408422,0.9915864096331286
2015-06-29,-1,-0.002227212458756953,-0.0020638818440426162,-1.2345874940256725e-05,0.007808954161671285,0.9925524260582327
2015-07-01,-1,-0.0015583955282640987,-0.0014577747116481935,-1.2345874940256725e-05,0.007808954161671285,0.993115794859861
2015-07-06,-1,-0.0012088470423187842,-0.0011318783637553028,-1.2345874940256725e-05,0.007379128564677199,0.9934343727423638
2015-07-08,-1,-0.0007521924883715944,-0.0007435732214564842,-0.00181256967507854,0.006817491994314422,0.9940689384438075
2015-07-10,-1,-0.0006357707262519254,-0.0006254385314218468,-0.0010127557490090524,0.0054447898335336494,0.994269247017412
2015-07-14,-1,-0.0005201896238532331,-0.0005026541447673383,-0.003430300792285205,0.0058023080609636065,0.9939203728554618
2015-07-16,1,0.0004975301803060112,0.000693188695845846,-0.006577114513222797,0.005164600744972565,0.9946397382744208
2015-07-20,1,0.00017062413289762235,0.0002989296727847656,-0.0039005993149566235,0.005659026370251042,0.9944441272619082
2015-07-22,1,0.000501066323001662,0.000673784387475475,-0.0039005993149566235,0.005649895449962861,0.9945543542968849
2015-07-24,1,0.0005496412791633271,0.0007325875122298858,-0.008092887903001585,0.005164600744972565,0.9932155838682641
2015-07-28,1,0.00033599363164827674,0.0004556756850213273,-0.008736988934114344,0.005164600744972565,0.9890771863704455
2015-07-30,1,0.0003719921025949288,0.00044371318718336813,-0.008736988934114344,0.005649895449962861,0.9872221036144742
2015-08-03,1,0.0005970378815928403,0.000699235658416082,-0.00991476904339617,0.005164600744972565,0.9863328242418995
2015-08-05,1,0.00010931724451948089,0.00016378213588055194,-0.01049389142214395,0.005649895449962861,0.9857950464111368
2015-08-07,1,0.0007813198025105365,0.0009703649874670719,-0.016307852970121987,0.006042355802932055,0.9842735285840808
2015-08-11,1,0.0010376781413303437,0.0012890827948777359,-0.016307852970121987,0.0067573810589496635,0.9836058633750804
2015-08-13,1,0.0010351266869184047,0.001318849775919464,-0.016307852970121987,0.012649038846660434,0.9828950680614646
2015-08-17,1,0.0010573800769798462,0.0012939803959142447,-0.016307852970121987,0.012649038846660434,0.9827248267445318
2015-08-19,1,0.0012659226940326697,0.001552024983922691,-0.016307852970121987,0.014324166389677456,0.9820176780017018
2015-08-21,1,0.00012070602561028813,0.0002441691034688804,-0.012889703687804208,0.014324166389677456,0.983209526475479
2015-08-25,-1,-0.0018043895155318939,-0.0017117522399651393,-0.005162803301729062,0.014324166389677456,0.9853607803737294
2015-08-27,-1,-0.00011979706691602954,-4.398446636868188e-05,-0.005162803301729062,0.01133599685916135,0.9880003658182298
2015-08-31,-1,-0.001362888964613772,-0.0012393106057968168,-0.005162803301729062,0.012294807206597806,0.9875310345587166
2015-09-02,-1,-0.000681380582875136,-0.0006474591960018909,-0.0028889469697603626,0.01133599685916135,0.9886664769934659
2015-09-04,-1,-0.0013065225302379309,-0.0012104206240506478,-0.001447792202301586,0.01384717939754407,0.988376897515857
2015-09-09,-1,-0.0015222705413959025,-0.001397435349520594,-0.0014168024774311794,0.01384717939754407,0.9883540373610247
2015-09-11,-1,-0.0003236617864553082,-0.0003121270298162,-0.0014168024774311794,0.011832995030798312,0.9894949049454925
2015-09-15,1,5.3002712502893564e-05,0.00012768027222660852,-0.0025385696180491423,0.01384717939754407,0.9889691454438184
2015-09-17,1,0.0001855546231483567,0.00027091208855110346,-0.0028889469697603626,0.011832995030798312,0.9889907040622666
2015-09-21,1,0.0003820932213980054,0.00047242448815152456,-0.0027959777951491425,0.013848558910555454,0.9885800545263015
2015-09-23,1,0.0004169739698630453,0.0005225149954927281,-0.0027959777951491425,0.013848558910555454,0.9896297349741409
2015-09-25,1,6.3293995662048365e-06,1.1657633793269752e-05,-0.0038147640871951565,0.013848558910555454,0.9893486761081374
2015-09-29,1,0.0003366875692081921,0.00041315458269138114,-0.0038147640871951565,0.010872935430579014,0.9905318340148827
2015-10-01,1,0.00028240195513584026,0.0003276867939637872,-0.004631145165393881,0.011426649260871318,0.9902775852946646
2015-10-05,1,0.000830628658939606,0.0009259742902601067,-0.005704751376100439,0.01000287502497087,0.9905425119389709
2015-10-07,1,0.001711678983360679,0.0019771454641285815,-0.006077865745313143,0.009081909899176451,0.9911269434677701
2015-10-09,1,0.0019193662639899588,0.0022178792655801957,-0.007480701649674358,0.00892313333723051,0.9895552692668933
2015-10-13,1,0.0018283150535597465,0.002116539643158115,-0.007480701649674358,0.007906060296159046,0.9892636225598335
2015-10-15,1,0.0014485577327220242,0.0016399402039077074,-0.007480701649674358,0.007598501031230481,0.988733850222221
2015-10-19,1,0.002133315605275005,0.002438998309386102,-0.008720037889479355,0.007598501031230481,0.9881195395215507
2015-10-21,1,0.0016282176987260076,0.0018613425078489718,-0.008720037889479355,0.007906060296159046,0.9885466598417468
2015-10-23,1,0.0013197092003061608,0.0014657294759732064,-0.008720037889479355,0.007930480939023377,0.9884979611534619
2015-10-27,1,0.0012461739324875485,0.0013876779908410983,-0.008720037889479355,0.007930480939023377,0.9884471987923968
2015-10-29,1,0.0011919224776575327,0.0013074959759775571,-0.008720037889479355,0.007930480939023377,0.9886703936604466
2015-11-02,1,0.0017388793285642726,0.0019565498380192652,-0.005349026904761472,0.007930480939023377,0.989083182120471
2015-11-04,1,0.0009926662583836516,0.0010814104328059058,-0.010415063925718383,0.007930480939023377,0.9880542172438341
2015-11-06,1,0.00036024365816719024,0.00038416405049970684,-0.00421377096943085,0.009145998314520246,0.9888200309978522
2015-11-10,1,0.00045020405513825133,0.0004811136774151408,-0.007980220181177018,0.009145998314520246,0.9895804086802772
2015-11-12,-1,-0.0005084951825438652,-0.00042402809827125757,-0.0038054715431776374,0.009145998314520246,0.9907805756901316
2015-11-16,-1,-0.0004422989778100636,-0.00033102916465889507,-0.0034588050303058977,0.009145998314520246,0.9912135690278395
2015-11-18,-1,-0.00045004881503343314,-0.0003201251048356384,-0.0034588050303058977,0.011122988966144599,0.990659842846187
2015-11-20,1,0.0004119516601863052,0.0004330072748105479,-0.006682001075013299,0.007867313733661967,0.9907960523009519
2015-11-24,1,0.00045426585041279924,0.0004888811071779751,-0.006682001075013299,0.007388320551079143,0.9908749487161137
2015-11-27,1,0.0005663011429643085,0.0005964818653228492,-0.006682001075013299,0.006933142288647571,0.9909840179293127
2015-12-01,1,0.0011011951249331534,0.0012149436557071227,-0.006682001075013299,0.006933142288647571,0.9916019357351015
2015-12-03,1,0.00011121369103317729,0.00012086907928328236,-0.005508688824503789,0.006933142288647571,0.9924363035770719
2015-12-07,1,0.0011030004429820942,0.0012501242432455457,-0.006682001075013299,0.006933142288647571,0.9922503239155634
2015-12-09,1,0.0006411662417128562,0.0007172244477160494,-0.007107755187186547,0.006933142288647571,0.9906681740247546
2015-12-11,1,0.0008337550177398248,0.0009397384687599235,-0.010313897843780652,0.00818824986728981,0.9899206560735592
2015-12-15,1,0.0009681877432992894,0.0010927108236400275,-0.012349830250419608,0.006689311766989134,0.9900157294067766
2015-12-17,1,0.0012820190928833257,0.001432851609078305,-0.012349830250419608,0.0037190693403995573,0.9906904715380882
2015-12-21,1,0.0012478362010930268,0.0014267562058680446,-0.012349830250419608,0.0047383899710425744,0.9899039639665723
2015-12-23,1,0.001517588278363732,0.0017389760130829745,-0.012349830250419608,0.005192730112700839,0.9884098171497636
2015-12-28,1,0.0012460164944429837,0.0013881551742518565,-0.013120566256115896,0.005192730112700839,0.986965332755464
2015-12-30,1,0.0012192569388210896,0.00137554076420053,-0.013120566256115896,0.005192730112700839,0.9863840317900007
2016-01-04,1,0.0010878660716995146,0.0012261694554637835,-0.013694902137443187,0.005192730112700839,0.9860300079620122
2016-01-06,1,0.0005382927346556485,0.0005784091100681768,-0.013120566256115896,0.005192730112700839,0.986598031088554
2016-01-08,-1,-0.0004506608814625599,-0.0003967620645561274,-0.013120566256115896,0.005192730112700839,0.9877575380628968
2016-01-12,-1,-0.0005252183361146513,-0.00045394981832338,-0.0139092276384587,0.007628050472337991,0.9869772950925375
2016-01-14,-1,-0.0009083141369281655,-0.0007476897633898268,-0.01570737586874242,0.017960194378610975,0.9853332434556136
2016-01-19,-1,-0.0028824832675375103,-0.0023571880203724707,-0.01570737586874242,0.019308703032343534,0.9832976488438353
2016-01-21,-1,-0.00222646483777919,-0.0018813967163420237,-0.0139092276384587,0.019308703032343534,0.9840043653049043
2016-01-25,-1,-0.0022842333045164564,-0.001887437039220656,-0.0139092276384587,0.01876620769033008,0.9843819717544608
2016-01-27,-1,-0.0017468237500906964,-0.001428158004481695,-0.012160160123344583,0.01876620769033008,0.9845316098851863
2016-01-29,-1,-0.0015663714686226708,-0.0012228632353152823,-0.012160160123344583,0.017960194378610975,0.9855498574312389
2016-02-02,-1,-0.0026249655344300865,-0.0021491817174915336,-0.010041479665170378,0.01876620769033008,0.9847034796957808
2016-02-04,-1,-0.0014740057133408352,-0.0011857650919134635,-0.010041479665170378,0.01876620769033008,0.9848140305250979
2016-02-08,-1,-0.002283124086274662,-0.0019132491230013004,-0.006739998406932153,0.01876620769033008,0.9852426938375742
2016-02-10,-1,-0.0020750316534832135,-0.0017455002384000867,-0.005977042615443785,0.014779706431042967,0.9868351317428341
2016-02-12,-1,-0.0020451905612557703,-0.0017333244304420072,-0.004917748399754749,0.014779706431042967,0.987878448621841
2016-02-17,-1,-0.0010722092053847775,-0.000863177899896646,-0.004917748399754749,0.011894715943606618,0.989119560638354
2016-02-19,-1,-0.0006588743314850161,-0.0004986523205043024,-0.005977042615443785,0.016940499008329113,0.9886510035938622
2016-02-23,-1,-0.00048253147803947456,-0.0003413722393648408,-0.005977042615443785,0.01097987531551584,0.9893471201323926
2016-02-25,1,0.00014912318019728686,0.0002112499278538142,-0.004917748399754749,0.007237895335121715,0.9908832441211426
2016-02-29,1,0.0002971060838924185,0.0003066187392465285,-0.004592563507484402,0.01097987531551584,0.9893322070701821
2016-03-02,1,0.0015771850024596935,0.0017869158694721868,-0.005125611386049477,0.008024086926361187,0.9900674558128681
2016-03-04,1,0.0020894379048516445,0.002385929157611546,-0.006978417583896292,0.007720258994349846,0.9896271186567894
2016-03-08,1,0.0012553974958278828,0.0014378778745053047,-0.0056590944800619745,0.007720258994349846,0.9904830407536493
2016-03-10,1,0.0010478644436106755,0.0011965817547600261,-0.004811765687960812,0.008857146794456388,0.990288321964649
2016-03-14,1,0.001942968531578105,0.0022467652116906003,-0.004770391205488568,0.007720258994349846,0.9912762085923813
2016-03-16,1,0.0021928085639162723,0.002508986729405577,-0.0060368804896302995,0.007074646575762268,0.9916206089265472
2016-03-18,1,0.0023174429163144473,0.00265582563177634,-0.004770391205488568,0.006095200207497435,0.9925344289503417
2016-03-22,1,0.002054413871699882,0.002348689610460636,-0.004770391205488568,0.006095200207497435,0.9919148204105128
2016-03-24,1,0.002009557024212353,0.002305443288490212,-0.006235103814254745,0.007074646575762268,0.9913070903756526
2016-03-29,1,0.003224066684183846,0.0036970679275585656,-0.006235103814254745,0.006270140246484428,0.992473625540411
2016-03-31,1,0.0026247264038902094,0.0029883067506660914,-0.004321721864611676,0.004833628150154725,0.9931585760069543
2016-04-04,1,0.0019404926397255141,0.0021625216849374502,-0.004321721864611676,0.004833628150154725,0.9925664809688566
2016-04-06,1,0.0018086666109727954,0.0020049039733774712,-0.004219707323533326,0.006789617779402737,0.9920900199305221
2016-04-08,1,0.0014378720763526432,0.0015181652552613263,-0.004219707323533326,0.00942248984722227,0.991727247065089
2016-04-12,1,0.0014126982438565508,0.001502095271810856,-0.0031499894336935704,0.010224717130991982,0.991140529943315
2016-04-14,1,0.0011616104661048682,0.0012296407071124022,-0.0031499894336935704,0.011725287690063549,0.9905549827924898
2016-04-18,1,0.0015943833637755917,0.0017425840113406456,-0.004985480981800804,0.012015642305530115,0.9901394219432625
2016-04-20,1,0.0007382253514646544,0.0007740515372149214,-0.006108736177573248,0.012015642305530115,0.9899886839129161
2016-04-22,1,0.00107561464450295,0.0011772421573930311,-0.005151554125634407,0.012015642305530115,0.9902346331602617
2016-04-26,1,0.0016197258280686102,0.001828640951008879,-0.005151554125634407,0.01295524277643664,0.989712435436043
2016-04-28,1,0.0009149505754409927,0.0009647335047289953,-0.006172342331805984,0.01295524277643664,0.988867945781346
2016-05-02,1,0.0015673857870096377,0.0017495651223064473,-0.005151554125634407,0.012082305859676172,0.9899559176430472
2016-05-04,1,0.0015161898698361613,0.001661007681709612,-0.005151554125634407,0.011747508874778902,0.9906073296613939
2016-05-06,1,0.002128198129601124,0.002362345059539546,-0.005151554125634407,0.01143854605086474,0.9910161729324762
2016-05-10,1,0.0024951083441520235,0.0027848002484249968,-0.005151554125634407,0.011319584725306317,0.9915127187395296
2016-05-12,1,0.002729823010291303,0.003083390667616875,-0.0034564916188642714,0.01087119967064601,0.9921954666872197
2016-05-16,1,0.0026603313769438712,0.0029812025198872097,-0.003387485064891358,0.010640711217771258,0.9925814073805838
2016-05-18,1,0.002026672994811471,0.002271934295867389,-0.0013532752489407785,0.011319584725306317,0.9926281073964184
2016-05-20,1,0.0023180867790894583,0.0026100081189713185,-0.0009644259342919477,0.01087119967064601,0.9932965776474728
2016-05-24,1,0.0028147951326122703,0.003170983487367868,-0.0013532752489407785,0.010640711217771258,0.9937346014669165
2016-05-26,1,0.0022330361712493813,0.0024898512921732677,-0.0013532752489407785,0.010640711217771258,0.9942957278939528
2016-05-31,1,0.0023813385997737153,0.0026451319187761964,0.0005107104539929649,0.010640711217771258,0.9937401478275957
2016-06-02,1,0.0017977028015902499,0.0018835281433768056,0.0005107104539929649,0.01087119967064601,0.9929292507715737
2016-06-06,1,0.0017351313190248738,0.0017995195319962555,0.0005107104539929649,0.010640711217771258,0.9929792486907076
2016-06-08,1,0.0018717955151162577,0.0019366074429257086,-0.00170302282192385,0.00797222169027295,0.9930016496186067
2016-06-10,1,0.0018876779413482428,0.0019350774211162151,0.0004232334784981031,0.01145312202057364,0.9924121048577624
2016-06-14,1,0.0011460549847270693,0.0012400627672087242,0.002248496330483858,0.01145312202057364,0.9919382565319589
2016-06-16,1,0.0022038579096543007,0.0022676034543237565,-0.000766700137704037,0.007615263992730697,0.9931432496202447
2016-06-20,1,0.002390339263391747,0.0024962562609676855,-0.000766700137704037,0.006152182781792516,0.9933104649321475
2016-06-22,1,0.002324399187772897,0.002453574415047554,-0.0005482513639625238,0.006152182781792516,0.9938809086523103
2016-06-24,1,0.0017888021425971343,0.0017940092959354977,0.0009975186719398375,0.006152182781792516,0.9938665308072929
2016-06-28,1,0.0028345792400318935,0.0029904706574515327,-0.00081679948439926,0.0049701966322132475,0.9949205625899491
2016-06-30,1,0.0025617241316059705,0.0026068529265034094,-0.00081679948439926,0.006152182781792516,0.9935015986420417
2016-07-05,1,0.0023051646641309045,0.002316383655746873,-0.0016351459705962732,0.006152182781792516,0.9932428494042506
2016-07-07,1,0.0015137815779275644,0.0016494433881395312,-0.0031990392774681083,0.006152182781792516,0.9935064264204946
2016-07-11,1,0.0030702153215867232,0.0031924720225089257,-0.00331756629487531,0.0037733839096681394,0.9936139266028121
2016-07-13,1,0.0034136288522973093,0.0036019454723416862,-0.00331756629487531,0.0029503532958056623,0.9934794725837531
2016-07-15,1,0.0029759510055540495,0.0031093456526693807,-0.0031990392774681083,0.0029503532958056623,0.9941001804365495
2016-07-19,1,0.0033984062477968235,0.0036097485389561786,-0.00331756629487531,0.002573903240214944,0.9934435913064957
2016-07-21,1,0.0028852588777182695,0.002988381767669682,-0.003651287046754835,0.002573903240214944,0.9933743306540243
2016-07-25,1,0.0034614996928296017,0.0037080851553198506,-0.003651287046754835,0.002573903240214944,0.9928451982360771
2016-07-27,1,0.0033708017226973686,0.0036263074414912217,-0.003969987989515957,0.0032913865903095446,0.9929286233269087
2016-07-29,1,0.004082339420423158,0.004353952285174577,-0.004282258191753588,0.0006212255469882478,0.9937562559230486
2016-08-02,1,0.003142855550779759,0.003270390362502266,-0.003969987989515957,0.002573903240214944,0.9947942339091235
2016-08-04,1,0.0031573185611953845,0.003322061500405399,-0.004002999165277945,0.002573903240214944,0.9949068656370839
2016-08-08,1,0.003212664983930522,0.00341005104974095,-0.0036622907720088305,0.002573903240214944,0.9951367177133644
2016-08-10,1,0.002980644199668287,0.0031435493857279277,-0.004002999165277945,0.0011546150336043106,0.9946608244647489
2016-08-12,1,0.002513777889463918,0.002596647660831229,-0.004282258191753588,0.003024383433523686,0.9924656690769383
2016-08-16,1,0.002125686981399657,0.00213973225892429,-0.004282258191753588,0.003999476129641229,0.9916100854391033
2016-08-18,1,0.002298133322127188,0.0024168987092652696,-0.004008745091576452,0.003999476129641229,0.9921100036212862
2016-08-22,1,0.00226617762225882,0.0023620448673809255,-0.004008745091576452,0.003999476129641229,0.992232774527528
2016-08-24,1,0.0018656788451851879,0.0018816372764293944,-0.0023191383285113883,0.005480337869690691,0.9920348263904643
2016-08-26,1,0.0012773174080691293,0.001337423151930662,8.735360173596832e-05,0.007288774840298306,0.9920402207879849
2016-08-30,1,0.0018059285589549106,0.0018097439083488856,-0.0015109674500504854,0.007288774840298306,0.9915534972100052
2016-09-01,1,0.0011632616653641456,0.0012532260900619367,-0.0071607570894017866,0.007288774840298306,0.9909766997831202
2016-09-06,1,0.0009837193340752892,0.0011221682011023641,-0.010942716621782674,0.005458963184336607,0.9895494908487681
2016-09-08,1,0.0005359024752889706,0.0007158229037061741,-0.012591131390203463,0.005458963184336607,0.9886673477275818
2016-09-12,-1,-0.001570235138194212,-0.0010809886016600564,-0.008653691777867714,0.0044987322654942595,0.9910849435245845
2016-09-14,-1,-0.0025411796920128517,-0.0019399590656212237,-0.008292734521069815,0.005458963184336607,0.9916598994384693
2016-09-16,-1,-0.0023216245576753772,-0.001747205346165999,-0.008292734521069815,0.0065153575272822555,0.9917496342423819
2016-09-20,-1,-0.0023610621032007953,-0.0017637619412475265,-0.008292734521069815,0.0065153575272822555,0.9917239065302444
2016-09-22,-1,-0.0018075411384018913,-0.0012699458862364648,-0.008292734521069815,0.005905875426700878,0.9923702255628285
2016-09-26,-1,-0.0012656037633955808,-0.0008165800523234883,-0.008292734521069815,0.004641752304809462,0.9924300292671999
2016-09-28,-1,-0.0008317119652559524,-0.000483648415127733,-0.008292734521069815,0.0034162639368753777,0.9923683320209178
2016-09-30,-1,-0.0013196546789578595,-0.0009539894412172749,-0.00781913143316959,0.0034162639368753777,0.9929100384729046
2016-10-04,-1,-0.002754316969513149,-0.0022227566264814373,-0.0044533316974447795,0.004641752304809462,0.9915248801133152
2016-10-06,-1,-0.0036987657875688076,-0.0030609481441520067,-0.007781846826298597,0.004641752304809462,0.9913736441639925
2016-10-10,-1,-0.004289002126676607,-0.0035419750113728585,-0.007781846826298597,0.005905875426700878,0.990416117877848
2016-10-12,-1,-0.004015734530453787,-0.0033206708962313976,-0.007781846826298597,0.005905875426700878,0.9889990036833637
2016-10-14,-1,-0.0035501597694912166,-0.0029455182737315993,-0.013093500522806181,0.004641752304809462,0.9874115187381888
2016-10-18,-1,-0.003600563822671623,-0.002967681839034628,-0.013093500522806181,0.0066726247871373694,0.9868195069344828
2016-10-20,-1,-0.0032327527485885247,-0.002660941538536378,-0.013093500522806181,0.005781774661443369,0.9866852916410083
2016-10-24,-1,-0.0033288188959403643,-0.0027581185938284356,-0.013093500522806181,0.009863870985453643,0.9855608182643544
2016-10-26,-1,-0.003865176485844032,-0.0032392391166838758,-0.010673143502339529,0.009953849866203558,0.9855585580055379
2016-10-28,-1,-0.003633930677016616,-0.0030630206569702417,-0.010673143502339529,0.012608626047550829,0.9841540774096476
2016-11-01,-1,-0.003638874180251054,-0.0030804371158020165,-0.010673143502339529,0.012608626047550829,0.9854889422175819
2016-11-03,-1,-0.004423711820779341,-0.0037710512948254888,-0.01057167705837596,0.015818225773951214,0.9849181812141707
2016-11-07,-1,-0.0030996137896339877,-0.0026502525013275095,-0.01057167705837596,0.012637403335589319,0.9852403836599588
2016-11-09,-1,-0.0035166975030222185,-0.003029478294085594,-0.001196585760843994,0.012637403335589319,0.9858480546506673
2016-11-11,-1,-0.0054658932931652,-0.0047348220584491636,0.0027289516704248483,0.012637403335589319,0.9865925076511433
2016-11-15,-1,-0.004565731063679656,-0.00394722620477127,0.0005654737873851941,0.01155802390085154,0.9868235305073569
2016-11-17,-1,-0.003974826149873163,-0.003479040288421073,0.0005654737873851941,0.01593161704620763,0.9865370617346768
2016-11-21,-1,-0.002504570305654187,-0.0022093964766407154,-0.0017037334608814567,0.01155802390085154,0.9886369317735162
2016-11-23,-1,-0.002032799841732103,-0.0017912908336979892,-0.004062472625931297,0.01155802390085154,0.9894475710739957
2016-11-28,-1,-0.0015088436388462473,-0.0013134595241349883,-0.004062472625931297,0.008650793659292876,0.9909103170090249
2016-11-30,-1,-0.0008899723483940654,-0.0008131886292128597,-0.004062472625931297,0.008650793659292876,0.9911915660016674
2016-12-02,-1,-0.00047902531171642383,-0.0004714861373131096,-0.00257769980439381,0.008650793659292876,0.9914917880724005
2016-12-06,-1,-7.470199342167344e-05,-4.5490961944540475e-05,-0.0035431120184308573,0.006820621113835833,0.9911460844954258
2016-12-08,1,0.0007480183264655834,0.0008984443011320728,-0.004418185471329189,0.0031036300815059942,0.9918117988661899
2016-12-12,1,0.0008300947279461523,0.0009963151169837439,-0.005714892618946021,0.002538911967316462,0.9913504204885777
2016-12-14,-1,-0.0003079753696269488,-0.00028732720474344934,-0.00555717018948873,0.002448463002170417,0.9932968623513898
2016-12-16,1,0.000362991822149293,0.00046917841805171114,-0.004418185471329189,0.002448463002170417,0.9939994825808159
2016-12-20,1,0.001015132277590098,0.001280087747829712,-0.00555717018948873,0.002448463002170417,0.9933935562095862
2016-12-22,1,0.0007800901504337308,0.0009940173036319853,-0.00555717018948873,0.002448463002170417,0.9933877261736711
2016-12-27,1,0.0006575219412545288,0.0008494933427195428,-0.007001345507631417,0.002448463002170417,0.9914909917239888
2016-12-29,1,0.0010134981009264066,0.001258755759133539,-0.00788766064262616,0.0008471579607139316,0.9902023276690654
2017-01-03,1,0.0015868081691929365,0.001911286986017673,-0.00788766064262616,9.412866230154795e-05,0.9899044241155581
2017-01-05,1,0.0021191646756293647,0.0025135484033171644,-0.00788766064262616,0.0010365330676471978,0.989638280251762
2017-01-09,1,0.001883064526425511,0.002246127029381046,-0.00788766064262616,0.0030634016537811437,0.9898760562376233
2017-01-11,1,0.0013701767684370686,0.0016507843886519617,-0.007384604089435594,0.004566971796177571,0.9902445848619711
2017-01-13,1,0.0016198948168786827,0.001947746339955146,-0.007384604089435594,0.006644365797007666,0.990127723081499
2017-01-18,1,0.0018007403070436044,0.0021447497498845295,-0.007921907811314778,0.0038963063131572905,0.9897037819409624
2017-01-20,1,0.001445143844970155,0.0017305045243360142,-0.007921907811314778,0.006804442013624763,0.9897376103022312
2017-01-24,1,0.001415746697104669,0.001729224340782357,-0.007921907811314778,0.009787124076344505,0.9893114759562426
2017-01-26,0,-2.1526009282415992e-05,9.44914760344852e-05,-0.005978030844201229,0.011347364652958396,0.99048622339692
2017-01-30,-1,-0.0007906116684160487,-0.0007571556432671286,-0.004784774152344799,0.011347364652958396,0.9915056296832039
2017-02-01,-1,-0.0005802844004519491,-0.0005339733835176272,-0.0028784744000507527,0.011347364652958396,0.9916440121060731
2017-02-03,0,-4.6098254627754514e-05,2.308271538659624e-05,-0.005978030844201229,0.00950844033538615,0.99222132553035
2017-02-07,-1,-0.0006078410449771709,-0.0005726947942418193,-0.006157132084827624,0.00950844033538615,0.9918216873522613
2017-02-09,0,-1.4092473418646841e-05,4.0130168527366904e-05,-0.0081787438602481,0.00829132395822272,0.9918477006405207
2017-02-13,1,0.00035045446782521383,0.00046646801577388106,-0.0081787438602481,0.00829132395822272,0.9916442010809807
2017-02-15,1,0.0002483943611155743,0.00037971102754934374,-0.007895846606126668,0.009597310020577215,0.9912214224826367
2017-02-17,1,0.0007963685638524132,0.001027082562653592,-0.007895846606126668,0.00829132395822272,0.9915081814607515
2017-02-22,1,0.0009176958991916984,0.0011707963991845112,-0.005771830782918711,0.0070004881644286955,0.9922114502393587
2017-02-24,1,0.001305672307826531,0.0015769863872908394,-0.005771830782918711,0.007505021220137848,0.9923710185221015
2017-02-28,1,0.0004680367816085272,0.0005653255568616106,-0.005771830782918711,0.006801035913573037,0.9919000944751641
2017-03-02,1,0.0005637829747406194,0.0006327633658744447,-0.005771830782918711,0.006341403215133268,0.9922870964107906
2017-03-06,1,0.0002670317695387188,0.00029249619852043636,-0.0050789116502755575,0.006801035913573037,0.9920976682080115
2017-03-08,-1,-2.49603235891571e-05,-1.5857898609889896e-05,-0.001554917277932299,0.00791407513308674,0.9919119614265295
2017-03-10,-1,-0.00031156730550377636,-0.00027125883343588327,0.0007266665542842445,0.00791407513308674,0.9921235185010117
2017-03-14,-1,-0.00043759873007313967,-0.00039663481173372433,0.002174762704587864,0.00791407513308674,0.9921272733868632
2017-03-16,1,0.0003019439557234279,0.00036407373425361957,0.002174762704587864,0.007088593043912071,0.9934071956772454
2017-03-20,1,0.0005765618792073714,0.0006668775712179949,0.001727874000167271,0.00791407513308674,0.9932516401297132
2017-03-22,1,0.00024128161189208679,0.0002544930838988128,0.0006446270827038037,0.00791407513308674,0.9926957948914817
2017-03-24,1,0.0006738854585498548,0.0007392913309112637,-0.000992267415572357,0.0069220956369082706,0.9930208273611735
2017-03-28,1,0.00021887523767275753,0.0002206365040443757,-0.0008134716248367996,0.0069220956369082706,0.9940520861093778
2017-03-30,-1,-0.00014093264264567433,-5.576308039151949e-05,-0.0012712495524633903,0.00824563381423982,0.9929242522107548
2017-04-03,1,0.0009688130376971932,0.0010514770506567749,-0.0012712495524633903,0.005550800955895276,0.9942133862260002
2017-04-05,1,0.0012139128582284407,0.0012870326484540453,-0.0024225914528553886,0.004571488899738051,0.9943939948682726
2017-04-07,1,0.0001668306805525307,0.00032439446409238305,-0.0024225914528553886,0.005550800955895276,0.993928715957848
2017-04-11,1,0.0008996239878667993,0.0009372362479769283,-0.005257096551372862,0.005220051456224686,0.9935232693935577
2017-04-13,1,0.0007248932388563517,0.0008026883374419979,-0.00823936322725002,0.004425379231630663,0.9933121003862236
2017-04-18,1,0.0014599995690747695,0.0015268808920101454,-0.00823936322725002,0.004425379231630663,0.9933360754519968
2017-04-20,1,0.001187065936155734,0.0012373447141654484,-0.007058274374333184,0.005577490934579243,0.9932493064402774
2017-04-24,1,0.0012489515674306059,0.0013554814433087486,-0.0024865966883021572,0.008626157727937633,0.99336345752735
2017-04-26,1,0.0012735069755911593,0.001382327312852447,-0.0016672563670062828,0.008626157727937633,0.9932498081784646
2017-04-28,1,0.001638296996622191,0.0018008479133271547,-0.004256101978619567,0.006018018449219807,0.9940171356059037
2017-05-02,1,0.0019203422411880429,0.0021540861588709315,-0.005592577877706176,0.006289376944873461,0.9936385777479698
2017-05-04,1,0.0022782844607128006,0.002610393924094519,-0.0038972861151799158,0.008626157727937633,0.9936608972186883
2017-05-08,1,0.002857261236328533,0.003263756793753442,-0.006082078421214216,0.005760772177234648,0.9933502099425504
2017-05-10,1,0.0019310067045556051,0.0021384162592937416,-0.006082078421214216,0.005760772177234648,0.9931108458833737
2017-05-12,1,0.001869839036569414,0.0021018650833088508,-0.005396928862102537,0.00650051491823103,0.9934930712911907
2017-05-16,1,0.002344098970069147,0.0026329961699955284,-0.005396928862102537,0.00650051491823103,0.9938890999343662
2017-05-18,1,0.002260594939367067,0.0025199835284798067,-0.005396928862102537,0.006300474913005913,0.994091989296217
2017-05-22,1,0.0026416620722821364,0.0029416885501746693,-0.0062333272994165205,0.005760772177234648,0.9936989226465737
2017-05-24,1,0.00298906962916882,0.0033481690817469597,-0.0073853342738230635,0.005760772177234648,0.9931688140531992
2017-05-26,1,0.0028108523723780372,0.0031848267663050814,-0.006344640592405233,0.005760772177234648,0.9933534697983907
2017-05-31,1,0.003179876045629103,0.003640019695253665,-0.0077681165442478484,0.004728593329555436,0.9929463577932702
2017-06-02,1,0.0035645084541006487,0.004053443955913491,-0.0077681165442478484,0.003498424774144221,0.9925465163001331
2017-06-06,1,0.002632294174180122,0.0029647867912793247,-0.0077681165442478484,0.00442909720325785,0.9929675913074124
2017-06-08,1,0.0021208316152599525,0.002389230270215624,-0.0077681165442478484,0.005401986534113156,0.9927966726333536
2017-06-12,1,0.002627232376018049,0.002976194045323706,-0.008282555187168795,0.003691699896337136,0.9923549421815036
2017-06-14,1,0.0025855522293399573,0.002905502317827719,-0.009067002597614593,0.003691699896337136,0.9915847491243958
2017-06-16,1,0.0022414946799797853,0.0024903542367122034,-0.009067002597614593,0.005384181146718546,0.991772138260382
2017-06-20,1,0.0007890713088562885,0.0008219609441665926,-0.008029599014396448,0.00830754092460721,0.9916490350453716
2017-06-22,-1,-0.0006753077369519093,-0.000380105547253148,-0.009067002597614593,0.00830754092460721,0.9904036051444874
2017-06-26,-1,-0.0010237247868501065,-0.0006955514946445498,-0.009067002597614593,0.00830754092460721,0.9901708004831723
2017-06-28,-1,-0.000853635311435637,-0.0005952395368696911,-0.007869139680406485,0.011526663692396995,0.98910905934789
2017-06-30,-1,-0.0008270827427634282,-0.0005598393567071283,-0.009067002597614593,0.011526663692396995,0.9891654738128353
2017-07-05,-1,-0.0012221180510186263,-0.0009248155770103291,-0.007869139680406485,0.011526663692396995,0.9895267438123759
2017-07-07,-1,-0.0010031939255025068,-0.0007419926161043994,-0.006807141865996616,0.010744457545296232,0.990458781844475
2017-07-11,-1,-0.0017790593075396118,-0.0013948534375462997,-0.006807141865996616,0.011319342163435655,0.9898425950927406
2017-07-13,-1,-0.0014558702868456947,-0.0011236083480490268,-0.007542699439148734,0.010684780897876568,0.9903888314979747
2017-07-17,-1,-0.0007384386170518943,-0.0004928876947383384,-0.007542699439148734,0.010684780897876568,0.9903853076163034
2017-07-19,1,0.0005015201476786441,0.000568741697889692,-0.007542699439148734,0.006404330322957681,0.9913103075148835
2017-07-21,-1,-0.0012423001152267364,-0.0009557995980391778,-0.006844512931009433,0.010684780897876568,0.9916932441225084
2017-07-25,-1,-0.001077918592274321,-0.000835318550186417,-0.007864792769962622,0.011347633750138001,0.9908913701092471
2017-07-27,1,0.000145201402938056,0.00026406424842984814,-0.007864792769962622,0.010684780897876568,0.9918900486209967
2017-07-31,-1,-0.0005209953053897594,-0.0002960811201123168,-0.007245481729453378,0.010684780897876568,0.9923684549942325
2017-08-02,-1,-0.0004590383950921668,-0.0002153720433931475,-0.007245481729453378,0.00563063173435868,0.9926335830815939
2017-08-04,-1,-0.0012725792963292123,-0.0009029605435418519,-0.007245481729453378,0.009177318970409331,0.9921369336493056
2017-08-08,-1,-0.0007998884431772929,-0.0005241738410672004,-0.006571975988104105,0.0049365162191564605,0.9931116805988257
2017-08-10,-1,-0.0013915327145775384,-0.001065856244961722,-0.002720855036571842,0.0049365162191564605,0.9936987208924444
2017-08-14,-1,-0.000674731568365601,-0.00042895360891881493,-0.003640442514254215,0.0049365162191564605,0.9923905885585159
2017-08-16,-1,-0.0003396950460416557,-0.00016266608979028426,-0.005410496124951198,0.00925749919835175,0.9916953157831332
2017-08-18,-1,-0.0008053351338520083,-0.0005424096299927696,-0.004553607605591805,0.0049365162191564605,0.9927830046705421
2017-08-22,-1,-0.00043392297030081734,-0.00022091177275992285,-0.004381563429234205,0.0024686499792785765,0.9938327687197185
2017-08-24,1,0.00023662609249992247,0.0003249579941520694,-0.004381563429234205,0.001788560940034037,0.9940022076469435
2017-08-28,1,0.0005302289720938109,0.0005547242599751133,-0.004566877208876097,0.0024686499792785765,0.9931201855034687
2017-08-30,1,0.0008660534969958219,0.0008963380428648036,-0.005410496124951198,0.0024786304497017636,0.9922080350255288
2017-09-01,1,0.000985344918259926,0.0010514561720085568,-0.004638655664778054,0.0022330795754528744,0.992441758087479
2017-09-06,1,0.0009322561602853456,0.000999914889624094,-0.004638655664778054,0.0035412169330392316,0.9925699704249685
2017-09-08,1,0.0009015417838104785,0.0009819427489195585,-0.004638655664778054,0.0035412169330392316,0.9926130124453187
2017-09-12,1,0.0007175041037369141,0.0007426827594057836,-0.004418759184485817,0.002070515112752213,0.9947628070318115
2017-09-14,1,0.000837737376180511,0.0008579185240008338,-0.004381563429234205,0.002070515112752213,0.9953781651502593
2017-09-18,1,0.0006000079600725108,0.0006107229931768337,-0.004200039340327056,0.002070515112752213,0.9954338737340489
2017-09-20,1,0.000642190601931025,0.0006556621770657929,-0.0036111064129359747,0.003363764380904076,0.9954036131062773
2017-09-22,1,2.3056280024183506e-05,8.23128177820809e-05,-0.0036111064129359747,0.003363764380904076,0.9956048795445015
2017-09-26,-1,-0.00045865443159832003,-0.0003336870237613922,-0.0035628248314941422,0.002070515112752213,0.9962736357096084
2017-09-28,1,0.00012958137985091757,0.000151184500034409,-0.0035628248314941422,0.002070515112752213,0.9966692668506323
2017-10-02,-1,-5.908251912192534e-05,-4.9418130051505935e-06,-0.0035628248314941422,0.0012102042697222635,0.9967167222331038
2017-10-04,-1,-0.00013684346692887647,-4.8615974840182706e-05,-0.0035628248314941422,0.0016594699727164246,0.9963983407704814
2017-10-06,1,0.00010757318258989827,0.00013512947436565442,-0.0035628248314941422,0.003600576041825281,0.9963641491544095
2017-10-10,-1,-0.0001341366145798433,-8.645815077533431e-05,-0.0031950558398693716,0.003600576041825281,0.9962989241594415
2017-10-12,1,0.000533800271276559,0.0006023248792924684,-0.0034534151744878925,0.0034832748574754814,0.9962882868381905
