JNU-Tangyin/eata/results/Batch4_SP500/Batch4_SP500-LNT.csv
Date,Action,Predicted_Q25,Predicted_Q75,Actual_Q25,Actual_Q75,RL_Reward
2010-12-14,0,0.0,0.0,-0.0045921658979054154,0.003671102168950822,0.9943222492841552
2010-12-16,0,0.0,0.0,-0.004571819186217395,0.003671102168950822,0.995442993017344
2010-12-20,0,0.0,0.0,-0.0035690768702247686,0.004371225557675497,0.9952672450937432
2010-12-22,0,0.0,0.0,-0.0035690768702247686,0.003022797917533282,0.9958522443666884
2010-12-27,0,-4.050000727478197e-05,4.0093013671961076e-05,-0.002497583008797739,0.004230785034114769,0.9960246942383706
2010-12-29,0,0.0,0.0,-0.00306196024915234,0.004230785034114769,0.9957410152954599
2010-12-31,0,0.0,0.0,-0.004523347759846318,0.004950710806394753,0.9952076044189793
2011-01-04,1,6.528126323842172e-05,0.000116897743588213,-0.005671218715818116,0.004950710806394753,0.9950876904760821
2011-01-06,0,0.0,0.0,-0.005671218715818116,0.005517933519962196,0.9946576255126125
2011-01-10,0,0.0,0.0,-0.004523347759846318,0.006270097037954882,0.9946875684047403
2011-01-12,0,0.0,0.0,-0.00306196024915234,0.006270097037954882,0.9943665143239513
2011-01-14,0,0.0,0.0,-0.00306196024915234,0.006270097037954882,0.9943665711121523
2011-01-19,0,0.0,0.0,-0.00306196024915234,0.00633040428933484,0.9940760463577066
2011-01-21,0,0.0,0.0,-0.0026049624367553694,0.00633040428933484,0.9941227421418384
2011-01-25,1,0.000806448193334597,0.0008501304264316915,-0.006810446776940149,0.00633040428933484,0.9937249548414303
2011-01-27,1,0.0003607356399166784,0.00038934318094342556,-0.003561060641455551,0.006358195907641597,0.9938819969406028
2011-01-31,1,0.00024284783480388553,0.00028652309736028813,-0.0030243017536930195,0.007878436582268696,0.9933082146465476
2011-02-02,1,0.0001431875631006074,0.00019896090307656685,-0.0021268541184517914,0.007943169968445669,0.9932544866783591
2011-02-04,1,0.0006885135842458013,0.0007189683408468152,-0.0030243017536930195,0.00684067350566713,0.9931392270008401
2011-02-08,1,0.0006699503049373361,0.0006751072144457163,-0.0030243017536930195,0.007681079783448728,0.9924288458464229
2011-02-10,1,0.0015461005612505006,0.001667829428035142,-0.0056154982863093625,0.006153518305702155,0.9924237762166267
2011-02-14,1,0.0010808324293801845,0.0011715076226601342,-0.007864223992161221,0.006153518305702155,0.9909306319581506
2011-02-16,1,0.0012304531537311008,0.0013110184455763117,-0.00732153249901004,0.006153518305702155,0.9911102560049339
2011-02-18,1,0.001415374974126425,0.001536719025348131,-0.00732153249901004,0.0071395002250339646,0.990674567243117
2011-02-23,1,0.0008266348614232892,0.0008644193368205348,-0.0056305402181358695,0.0071395002250339646,0.9911352004634495
2011-02-25,1,0.0010782624088587819,0.0011595994214398456,-0.0056305402181358695,0.0071395002250339646,0.9913838738237467
2011-03-01,1,0.0014596418222015302,0.0015733998438794282,-0.00529639517203468,0.0059298496638241355,0.9922384306995252
2011-03-03,0,0.0,0.0,-0.0077827698675278995,0.005100134884240668,0.9917498557330745
2011-03-07,0,0.0,0.0,-0.00529639517203468,0.006433353985130412,0.9917123799108949
2011-03-09,0,0.0,0.0,-0.005809892042561488,0.006364207234186276,0.9921100057692741
2011-03-11,-1,-0.0007647448407249887,-0.0006407063208147506,-0.0048043782939208475,0.006364207234186276,0.9930581680728315
2011-03-15,0,0.0,0.0,-0.0048043782939208475,0.006364207234186276,0.9929104646781917
2011-03-17,0,0.0,0.0,-0.0034731709007299826,0.005077085967259289,0.9935803464685948
2011-03-21,0,0.0,0.0,-0.0048043782939208475,0.005077085967259289,0.9927132833629779
2011-03-23,1,0.0006902025306723951,0.0007212060925577203,-0.0036443365242389185,0.006385111013255589,0.9925220075141966
2011-03-25,1,0.00028619464879089636,0.0002879526456263655,-0.0036443365242389185,0.006647683975945827,0.992222170622705
2011-03-29,1,0.0003350973831552238,0.0003582855018743801,-0.0030964874584624297,0.008911810080837768,0.9920090088531555
2011-03-31,1,0.0015579418185498245,0.0017410124183119746,-0.00210182802020356,0.006647683975945827,0.9932547904352601
2011-04-04,1,0.0017728897968063368,0.0019446542930643715,-0.00210182802020356,0.005486551700614602,0.9934852583949126
2011-04-06,1,0.0015774788568884198,0.0016872196204631754,-0.001832037460722186,0.004647054857778006,0.9939779249558263
2011-04-08,0,0.0,0.0,-0.0015789052841063955,0.005486551700614602,0.9931239229536111
2011-04-12,0,0.0,0.0,-0.0007602570185269061,0.006825865751553545,0.9943959293426293
2011-04-14,-1,-0.0006886311679425646,-0.0004972208477870907,-0.0009492361025758855,0.006825865751553545,0.993871276000707
2011-04-18,0,0.0,0.0,-0.0009492361025758855,0.005486551700614602,0.995116226207536
2011-04-20,0,0.0,0.0,-0.0007602570185269061,0.0051950605822971745,0.9954685836562194
2011-04-25,0,0.0,0.0,-0.0015789052841063955,0.004332323160718812,0.9950419769190608
2011-04-27,0,0.0,0.0,-0.0015789052841063955,0.004332323160718812,0.995181856382455
2011-04-29,0,0.0,0.0,-0.0010130514648238529,0.0039779299928282994,0.9952507925095537
2011-05-03,0,0.0,0.0,-0.0007435014309419533,0.005685722603531527,0.9942454849519484
2011-05-05,-1,-0.0006028450160344386,-0.000520632210854144,-0.003001537159918791,0.005685722603531527,0.992891583345246
2011-05-09,1,0.001079738252448178,0.0011503061542906905,-0.006169782821449161,0.0042503737312785264,0.9936442889658234
2011-05-11,0,0.0,0.0,-0.006169782821449161,0.003055852402050209,0.99385013092154
2011-05-13,0,0.0,0.0,-0.006541307939601277,0.0027375739609118988,0.9939842160049647
2011-05-17,1,0.0010758665984377802,0.0011517756030471602,-0.007254007426878003,0.003055852402050209,0.9930986309395615
2011-05-19,1,0.0008687494860643177,0.0008915370167842561,-0.007254007426878003,0.0037150087106509423,0.9929749811861474
2011-05-23,1,0.00011031460048339088,0.00018807980752062327,-0.0038173295913787046,0.006763910884542759,0.9931625755239266
2011-05-25,1,0.0005919549381594497,0.0006212795060418696,-0.007254007426878003,0.0037150087106509423,0.9928808804262484
2011-05-27,1,0.0007100608942163565,0.0007213964617658251,-0.007254007426878003,0.006167182872760764,0.9927813543303544
2011-06-01,1,0.0012110747524921328,0.001275164450934031,-0.007254007426878003,0.003609131271331346,0.9935670163548884
2011-06-03,1,0.0001660864894208552,0.00023578159837244207,-0.0036722324034342856,0.006167182872760764,0.9937830612285878
2011-06-07,0,-0.00010162864722419187,1.2925010933987225e-06,-0.002847140000132115,0.00679869982943938,0.9933587049334007
2011-06-09,0,-6.386729788014135e-06,7.466364027936941e-05,-0.0019207312895630226,0.00679869982943938,0.9935743253387784
2011-06-13,-1,-0.0004026595865332376,-0.00026623020386445435,-0.0015018335603976271,0.00679869982943938,0.9930112065877474
2011-06-15,-1,-0.0005712272446639314,-0.00041392736454465116,-0.0033242874310625637,0.006167182872760764,0.9933974499250479
2011-06-17,-1,-0.000318195471417381,-0.0001988306974630855,-0.0045209262481673155,0.005572785321408638,0.992825685399588
2011-06-21,0,-4.5734717205767885e-05,5.9265723448577326e-05,-0.0045209262481673155,0.006371786812498046,0.9928312461006028
2011-06-23,-1,-0.000540114354866787,-0.00037173082592420714,-0.0033242874310625637,0.007412511648651226,0.9925917319794418
2011-06-27,-1,-0.00047922545202196414,-0.00031382938435845154,-0.004607756371515651,0.007412511648651226,0.9925458988609366
2011-06-29,-1,-0.00013542282033171646,-2.742303760191957e-05,-0.007046598493077651,0.007412511648651226,0.991811087844422
2011-07-01,1,0.0008762069242897242,0.0008989739969148792,-0.007046598493077651,0.005842185457262532,0.9921938223593053
2011-07-06,1,0.0015119984172953021,0.0016740236316506757,-0.008793385212501434,0.0028137994359775523,0.9920926686586522
2011-07-08,1,0.0012651619042993185,0.0013917255671434606,-0.011791077248560699,0.0028137994359775523,0.9891821053321118
2011-07-12,1,0.0008916247978271879,0.0009427816233466116,-0.011791077248560699,0.005842185457262532,0.9838676327186174
2011-07-14,0,0.0,0.0,-0.011888195704867245,0.00717998722005973,0.9822624124036006
2011-07-18,0,0.0,0.0,-0.008825758031270281,0.007984446515571534,0.9810734803472689
2011-07-20,0,0.0,0.0,-0.009093024098918658,0.008085232089935633,0.9809329978950742
2011-07-22,0,0.0,0.0,-0.011888195704867245,0.002158755433020581,0.9801529584467454
2011-07-26,0,0.0,0.0,-0.011888195704867245,0.008294038482073315,0.9784659787780772
2011-07-28,0,0.0,0.0,-0.011888195704867245,0.01603004988755709,0.9774966438886666
2011-08-01,-1,-0.0004159504441315243,-0.0003750534002128702,-0.011888195704867245,0.023665177355889196,0.9770700876412404
2011-08-03,-1,-0.0010051766685982679,-0.0008728629267278215,-0.010077065763688517,0.023665177355889196,0.9774083178266952
2011-08-05,-1,-0.0030285752255061384,-0.0026188201868708356,-0.011945861316673427,0.023665177355889196,0.9788564819770655
2011-08-09,-1,-0.0023503857412268524,-0.0020224610879492695,-0.010077065763688517,0.015472128505308668,0.9843205102480753
2011-08-11,-1,-0.0005846508978849044,-0.0004838790347021431,-0.010203237895342946,0.012216935043791283,0.9854191540592769
2011-08-15,1,0.0003607892551455524,0.0003639733596911478,-0.010203237895342946,0.012216935043791283,0.9867711023563889
2011-08-17,1,0.0004647848768931898,0.00048297188352488163,-0.010203237895342946,0.010374409156289746,0.9870190549530068
2011-08-19,-1,-0.0005974237308966459,-0.0004899075358936749,-0.004665853217549842,0.010374409156289746,0.9881338735918341
2011-08-23,1,6.540692123048127e-05,9.39055982087239e-05,-0.005372899822981099,0.008395101647280067,0.989129297850092
2011-08-25,1,0.0007681634086261722,0.0008579138843189423,-0.005372899822981099,0.007004336157437043,0.9902048517756019
2011-08-29,1,0.0013922696881433863,0.0015688600819054968,-0.005372899822981099,0.007004336157437043,0.9908285222153381
2011-08-31,1,0.0012783247283326344,0.0014025212214771958,-0.012827521338017144,0.008395101647280067,0.9897715065224544
2011-09-02,-1,-0.0016183937887595417,-0.0013267812767772656,-0.007250278032357303,0.008395101647280067,0.9899001783837114
2011-09-07,-1,-0.001232025456474004,-0.000988868861264288,-0.008127289177058215,0.00757896742894269,0.9900873874320418
2011-09-09,-1,-0.0013724301590850403,-0.0011219314293726042,-0.005180390352323901,0.008395101647280067,0.9901601558380754
2011-09-13,-1,-0.0007340032348485355,-0.0005659008839225738,-0.005688346316568617,0.008395101647280067,0.9902399276727779
2011-09-15,1,4.2540070567755614e-05,9.916273162184847e-05,-0.005688346316568617,0.007929082797413807,0.9904238431545422
2011-09-19,1,0.0005126183699988851,0.0005362488568505753,-0.006762537048322926,0.008317069246306246,0.9896700997639818
2011-09-21,-1,-0.0005276314289685067,-0.0004307460299318791,-0.005688346316568617,0.009925175581750517,0.9900504814186201
2011-09-23,-1,-0.0010979848764038616,-0.000928477219923675,-0.005057371958838503,0.011449068802618262,0.9900963910174179
2011-09-27,0,0.0,0.0,-0.005688346316568617,0.010504627658777018,0.9889657660911012
2011-09-29,1,6.785775065595005e-06,8.706150389538048e-06,-0.005057371958838503,0.0103478412657765,0.9893448122329942
2011-10-03,-1,-0.0005690319018780367,-0.0005146775831788728,-0.0037857523678912373,0.0103478412657765,0.9899810605237681
2011-10-05,-1,-0.0012750001896142684,-0.0011478017791611496,-0.0037857523678912373,0.013678448676373415,0.9877360098963063
2011-10-07,1,0.00048742462715567004,0.0005493890312531996,-0.00587883389061477,0.013678448676373415,0.987832487158709
2011-10-11,1,0.0007752258700267087,0.0008806198466943503,-0.004099258335422789,0.013617356639687904,0.9878529091635367
2011-10-13,1,0.0008854010233364346,0.0009697299901551075,-0.007333999770461385,0.013617356639687904,0.98785252065041
2011-10-17,1,0.0011997837463512987,0.001343730691457826,-0.007501704803427859,0.013617356639687904,0.9871038357401424
2011-10-19,1,0.0015280520383815091,0.0017236094513607323,-0.008792895537152874,0.015279714239249467,0.9867477149157355
2011-10-21,1,0.0024154299818775673,0.002768044768776931,-0.008792895537152874,0.010777772871766645,0.9872471982952035
2011-10-25,1,0.001280850589590126,0.0014289929792426922,-0.008882664354829612,0.010777772871766645,0.9882479718150875
2011-10-27,1,0.0015815078631595638,0.0017516415934688183,-0.009408303375891271,0.01022812342183975,0.9880119841147633
2011-10-31,1,0.0012796742751423418,0.0014073044217790796,-0.009408303375891271,0.010543345618707595,0.9878805868012206
2011-11-02,1,0.0009721421171336341,0.0010389503529015078,-0.008882664354829612,0.010543345618707595,0.9891988827237457
2011-11-04,1,0.0011623784029282788,0.001243716139125291,-0.008882664354829612,0.010302145809154962,0.9893942354602472
2011-11-08,1,0.0018768162260856854,0.0020649366795779983,-0.008882664354829612,0.008214245208637637,0.9899230598854974
2011-11-10,1,0.00168426751983931,0.0018740171816253165,-0.008882664354829612,0.009459532602312333,0.9896283335535258
2011-11-14,1,0.0013916083775507822,0.001513629300373427,-0.008600176046254987,0.008214245208637637,0.9910693713936067
2011-11-16,1,0.0016308397084070871,0.001794698927863471,-0.008871482416466282,0.008214245208637637,0.9910508161342093
2011-11-18,1,0.0015717708421727654,0.001737773071084896,-0.008871482416466282,0.008214245208637637,0.9908134221901963
2011-11-22,1,0.0013965434026249526,0.00158186443609619,-0.005861432257533531,0.01095852405240567,0.99010977874282
2011-11-25,0,0.0,0.0,-0.004279118340751271,0.0122044059449063,0.9899615904167093
2011-11-29,0,0.0,0.0,-0.0054153910911213885,0.0122044059449063,0.990005235137014
2011-12-01,0,0.0,0.0,-0.0054153910911213885,0.01095852405240567,0.9907543642351178
2011-12-05,0,0.0,0.0,-0.006691480607904925,0.00965231820443313,0.9911531076897244
2011-12-07,1,0.0017294644676474297,0.0018564643469869441,-0.006691480607904925,0.010103077376281976,0.9907128532286883
2011-12-09,1,0.0017698991207233082,0.0019214924021649267,-0.005445129891434601,0.009496044199168026,0.9916049974781003
2011-12-13,1,0.001676680472557026,0.0018299289417458232,-0.00576605139880589,0.009496044199168026,0.9914892981150606
2011-12-15,1,0.0016400809475255358,0.0017671671002320386,-0.005218652809770093,0.008134540488860859,0.9924002452565419
2011-12-19,1,0.0008150659706507048,0.0008420648539122721,-0.00576605139880589,0.008134540488860859,0.9921718253093401
2011-12-21,1,0.0018840886951401892,0.001980271325915688,-0.006009200115360294,0.006131467414656052,0.9928693757111396
2011-12-23,1,0.001987125183089114,0.0020783513703002436,-0.006691480607904925,0.006131467414656052,0.9920675895165578
2011-12-28,1,0.0008288592003821101,0.0009810886973709507,-0.006912770258245113,0.004536212300490513,0.992142518303144
2011-12-30,1,0.0007991095746556003,0.0009460516034543675,-0.008156353544857562,0.004536212300490513,0.9919462788550173
2012-01-04,1,0.00029944737247791016,0.00047290734946207137,-0.00625834646558643,0.005920865607181269,0.9925025926470502
2012-01-06,1,0.0010240343477909111,0.001058754532169999,-0.00625834646558643,0.005259260487604365,0.9928511927271664
2012-01-10,1,0.0007817028536596978,0.0008846026792164385,-0.00625834646558643,0.005920865607181269,0.9927131826415334
2012-01-12,0,0.0,0.0,-0.006758204576230666,0.005920865607181269,0.9927631424513144
2012-01-17,0,0.0,0.0,-0.00777627509881199,0.005581766298972938,0.9926960698629388
2012-01-19,1,0.0003840200974438434,0.0004486410679294302,-0.006758204576230666,0.007140277885612455,0.9931879564093318
2012-01-23,1,0.0008822614684229655,0.000911442246536642,-0.00658207660345759,0.005581766298972938,0.993702092414752
2012-01-25,1,0.0013038651069200977,0.0013952499735109419,-0.002840441334105184,0.00513895113644483,0.9949237160652016
2012-01-27,-1,-0.0005732661067509165,-0.0003825685234341245,-0.0016175222861560404,0.00513895113644483,0.9955544617344846
2012-01-31,0,0.0,0.0,-0.0022188275044872237,0.003891946590040311,0.9957244461010337
2012-02-02,0,0.0,0.0,-0.004382814924523593,0.002440137731702401,0.9959368845032086
2012-02-06,0,0.0,0.0,-0.004382814924523593,0.0021560573390473647,0.9961443363191028
2012-02-08,0,0.0,0.0,-0.004382814924523593,0.002633602926178223,0.9960012393082915
2012-02-10,0,0.0,0.0,-0.0016857867932533522,0.003886865006716192,0.9958162839272948
2012-02-14,0,0.0,0.0,-0.0016857867932533522,0.003886865006716192,0.9951410713030878
2012-02-16,0,0.0,0.0,-0.0016857867932533522,0.0034809100873052874,0.9953384323317445
2012-02-21,0,0.0,0.0,-0.0019220098553307283,0.0034809100873052874,0.9954983907162427
2012-02-23,0,0.0,0.0,-0.0036206875811159033,0.0033225320963434237,0.9953576730539189
2012-02-27,0,0.0,0.0,-0.0036206875811159033,0.0033263553036961923,0.9943470133886512
2012-02-29,0,0.0,0.0,-0.002290403289795486,0.0033263553036961923,0.9949322817427316
2012-03-02,0,0.0,0.0,-0.002290403289795486,0.003886865006716192,0.9944925498164733
2012-03-06,0,0.0,0.0,-0.002290403289795486,0.003886865006716192,0.9944954600692549
2012-03-08,-1,-0.0008801874786193964,-0.0006624196421027702,-0.002968977068475053,0.0027213173137276706,0.9946401084632236
2012-03-12,1,0.00036235640701030186,0.00041903504106615124,-0.004233414971633332,0.001449280290903017,0.9942730358839477
2012-03-14,-1,-0.0002392132759082549,-0.00012638398142702628,-0.002968977068475053,0.0016825192218106945,0.9948722475775039
2012-03-16,-1,-0.0002492208514659337,-0.0001627978918065857,-0.002968977068475053,0.00134352210391005,0.9946833355614322
2012-03-20,-1,-0.0006024367722769923,-0.0004270348470184667,-0.0031101796481251285,0.003889082084801912,0.9942236143391867
2012-03-22,-1,-0.0013783989661688997,-0.0011448918701141384,-0.002283177715096971,0.008446711762859443,0.9936854165485752
2012-03-26,-1,-0.0006933786784927679,-0.0005204901239180457,-0.002807105911802479,0.008446711762859443,0.9941808790549063
2012-03-28,-1,-0.0003247192821748617,-0.00024498997720358626,-0.0029520697651852336,0.008446711762859443,0.9936837165783972
2012-03-30,0,0.0,0.0,-0.002807105911802479,0.008133862641117862,0.9939502497695905
2012-04-03,0,0.0,0.0,-0.002807105911802479,0.008133862641117862,0.9939020871870983
2012-04-05,0,0.0,0.0,-0.0029520697651852336,0.008133862641117862,0.9929645915211812
2012-04-10,0,0.0,0.0,-0.0029520697651852336,0.009370845328791778,0.9924679257352663
2012-04-12,0,0.0,0.0,-0.00336797679263427,0.009151508527079556,0.9923449255217802
2012-04-16,0,0.0,0.0,-0.00336797679263427,0.009151508527079556,0.9923163425842964
2012-04-18,0,0.0,0.0,-0.004623537765167569,0.0075488336784625045,0.992603520934438
2012-04-20,0,0.0,0.0,-0.006250887319967063,0.006186332256139185,0.9924161971627166
2012-04-24,0,0.0,0.0,-0.006250887319967063,0.006186332256139185,0.9925311787143452
2012-04-26,1,0.0007593785154085608,0.0008982509333163858,-0.008270257459699474,0.005941863870072892,0.9923675886829715
2012-04-30,1,0.0009830607025379991,0.0011423105087187261,-0.008270257459699474,0.004225796349660228,0.9926930302394896
2012-05-02,1,0.0009273350345965165,0.001072710272971681,-0.01052141384842684,0.004225796349660228,0.9922440370632499
2012-05-04,0,0.0,0.0,-0.00669012144794868,0.004225796349660228,0.9932550527404452
2012-05-08,0,0.0,0.0,-0.005969527329971453,0.005941863870072892,0.9934266435098734
2012-05-10,0,0.0,0.0,-0.005969527329971453,0.005684446607739257,0.993635973773959
2012-05-14,0,0.0,0.0,-0.005969527329971453,0.005266307039159873,0.9938714848445832
2012-05-16,0,0.0,0.0,-0.0017691258376756147,0.005266307039159873,0.9942806774337598
2012-05-18,0,0.0,0.0,0.00016633264804113174,0.006341424817575516,0.9945460251075607
2012-05-22,0,0.0,0.0,-0.0017691258376756147,0.0057652122371477516,0.994536200968394
2012-05-24,0,0.0,0.0,-0.0017691258376756147,0.005922476296424891,0.9944768111829863
2012-05-29,1,0.0005931993189686503,0.000674420306886269,-0.006716646831982592,0.005922476296424891,0.9943253813843704
2012-05-31,1,0.00024064304208102114,0.0002815327185936725,-0.001770248215886911,0.007115917538469198,0.9942082472908415
2012-06-04,1,0.00014706316335129496,0.0001863698015889939,-0.00022295475698689556,0.007827245145458957,0.9935609157650467
2012-06-06,1,0.0007651370170808375,0.0008495788279473779,-0.006138618608702056,0.006847177677918016,0.9940227267607168
2012-06-08,1,0.0010556688701654864,0.0011808132525903809,-0.006138618608702056,0.006847177677918016,0.9941250249396205
2012-06-12,1,0.0007697485088816784,0.000826327939452165,-0.006138618608702056,0.006847177677918016,0.9940259109918671
2012-06-14,1,0.0009749769517940657,0.0010745930248546958,-0.006138618608702056,0.007115917538469198,0.9931385768771479
2012-06-18,1,0.001979532022224977,0.0022503799120459113,-0.006138618608702056,0.006207471261015028,0.9934330652557211
2012-06-20,0,0.0,0.0,-0.002246153480034928,0.007115917538469198,0.9938471440501297
2012-06-22,0,0.0,0.0,-0.002246153480034928,0.006207471261015028,0.9938836839364313
2012-06-26,0,0.0,0.0,-0.003156631545903114,0.006207471261015028,0.9934878155460685
2012-06-28,0,0.0,0.0,-0.003156631545903114,0.005950365593597695,0.9933621757645469
2012-07-02,0,0.0,0.0,-0.005507097995841938,0.005774302029257003,0.9935027896389307
2012-07-05,1,0.0021074761155418014,0.002325474609534481,-0.0031488522111362644,0.005774302029257003,0.9935960999118428
2012-07-09,1,0.0016161076758057795,0.001750288573930706,-0.004053729867311334,0.006111348065238895,0.9934688630271343
2012-07-11,1,0.0018297452833161503,0.0019985385992564884,-0.005359952421901527,0.005938587671766621,0.9929925883573163
2012-07-13,1,0.0021016068683380757,0.002292544732964216,-0.005359952421901527,0.0054519206560606145,0.9934478857628225
2012-07-17,1,0.0023271298877241904,0.0025624471571135724,-0.005359952421901527,0.005511477931615711,0.9932839847544109
2012-07-19,1,0.0025505681829577557,0.002818762563290424,-0.005359952421901527,0.0033193996154836656,0.9932481364760053
2012-07-23,1,0.0018963573412648213,0.0020315470315112735,-0.005073419095458417,0.0022672065909550058,0.9938351928990358
2012-07-25,1,0.001222049494312927,0.0012542540820399883,-0.004832881515162917,0.0022672065909550058,0.9943455076463504
2012-07-27,1,0.00143728278114733,0.0015033915125251159,-0.005073419095458417,0.00199978380251178,0.9942585630467156
2012-07-31,1,0.0013536118340283123,0.0014280738270760242,-0.004832881515162917,0.0013274538777917392,0.9949117220255458
2012-08-02,1,0.0014261570641839404,0.001534481487382166,-0.004761964000703056,0.00044819835397982307,0.9948098608518134
2012-08-06,1,0.0012863248984438737,0.0013497026250351943,-0.004761964000703056,0.00044819835397982307,0.9949243736036087
2012-08-08,1,0.0009103538754621505,0.0009319520744496435,-0.004070006648656456,0.0013274538777917392,0.994695039729125
2012-08-10,1,0.0005932035836431074,0.0006258236817191936,-0.004070006648656456,0.00044819835397982307,0.9945143890731216
2012-08-14,1,0.0002855502196548002,0.00037786566533691714,-0.004761964000703056,-0.0006136175384079936,0.9945028876613378
2012-08-16,1,0.0002772046750995742,0.000354779466320946,-0.005013185682673385,-0.0006136175384079936,0.9939160728113705
2012-08-20,-1,-0.00018086327875942322,-4.085689520263612e-05,-0.006404430537848703,-0.0006136175384079936,0.9939055022150679
2012-08-22,-1,-0.0004977259716548305,-0.00033212502831860393,-0.00500946710902073,0.00022535552885051487,0.9943507681767098
2012-08-24,-1,-0.0008624815500277295,-0.0006580389090409181,-0.00500946710902073,0.00045177705595716766,0.9941483001971707
2012-08-28,-1,-0.001342953623873445,-0.001057466441408056,-0.00500946710902073,0.001259645172508321,0.9942418126213488
2012-08-30,-1,-0.0019020325735588704,-0.001531507123871114,-0.008647369176296452,0.00368966233054685,0.9936752474683652
2012-09-04,-1,-0.001440814285010173,-0.0011522882330983614,-0.008647369176296452,0.00368966233054685,0.9935933572771265
2012-09-06,-1,-0.0006656041173729148,-0.0004779666315371415,-0.008647369176296452,0.0049420795074547755,0.9933063596381959
2012-09-10,-1,-0.0010649489546807724,-0.0008409851196592191,-0.008361277792511296,0.006094978385521222,0.9932294927263239
2012-09-12,-1,-0.0011465187631132133,-0.000939916736360446,-0.007137353925547805,0.006094978385521222,0.9932803559688379
2012-09-14,-1,-0.0010145853636896389,-0.0008429840192599555,-0.006585211300373007,0.005377666920321009,0.9936040240593694
2012-09-18,0,0.0,0.0,-0.004917031149225325,0.006094978385521222,0.9935265178533896
2012-09-20,0,0.0,0.0,-0.004917031149225325,0.007015733631950455,0.9929001906491053
2012-09-24,-1,-0.0010893915553585759,-0.0010538926892046862,-0.004667804945934575,0.006094978385521222,0.99344144119514
2012-09-26,-1,-0.001812125720425176,-0.00162468341140323,-0.0061408463645344176,0.006094978385521222,0.9932505990672948
2012-09-28,0,0.0,0.0,-0.00565363812967205,0.006094978385521222,0.9940036145280072
2012-10-02,0,0.0,0.0,-0.00565363812967205,0.005377666920321009,0.9941747433868691
2012-10-04,0,0.0,0.0,-0.006585211300373007,0.0038870030249690776,0.993862253754746
2012-10-08,0,0.0,0.0,-0.006585211300373007,0.0038870030249690776,0.993017719952062
2012-10-10,0,0.0,0.0,-0.0061408463645344176,0.004841913406632472,0.9923223098096926
2012-10-12,0,0.0,0.0,-0.00565363812967205,0.0038870030249690776,0.9926295926544945
2012-10-16,0,0.0,0.0,-0.0075968212225859515,0.003083548523034065,0.9919455600391525
2012-10-18,0,0.0,0.0,-0.0075968212225859515,0.003083548523034065,0.9914518351165718
2012-10-22,-1,-0.0003230055886440138,-0.00020826853859108347,-0.0075968212225859515,0.0038870030249690776,0.9914190594691654
2012-10-24,-1,-0.0012299461307490405,-0.0010089549798780332,-0.004286901243998689,0.004798096429688034,0.9917151390224547
2012-10-26,-1,-0.0005435736523713854,-0.00045420927365087666,-0.004286901243998689,0.004798096429688034,0.9916192790528056
2012-11-01,-1,-4.103396395591536e-05,-2.034266829263172e-05,-0.004286901243998689,0.005670534111518851,0.9912552816132264
2012-11-05,-1,-0.001210665590237946,-0.0010586278945303707,-0.002964292242439266,0.005670534111518851,0.9921832012809526
2012-11-07,-1,-0.0016157978193424524,-0.0014298050076422897,-0.0029594682608977806,0.00602976757048292,0.9930455515387913
2012-11-09,-1,-0.00013793449561936346,-0.000117097730219275,-0.0029594682608977806,0.004821323441175654,0.994103228014567
2012-11-13,-1,-0.0007416552090572914,-0.0006566563327653359,-0.0035818382683632283,0.004821323441175654,0.9940463056801928
2012-11-15,-1,-0.0019355622621329215,-0.0017071821414830102,-0.0035818382683632283,0.004821323441175654,0.9943215797397924
2012-11-19,-1,-0.0012691530198857977,-0.0010973464548024612,-0.0035818382683632283,0.004821323441175654,0.9943329172029727
2012-11-21,-1,-0.0003030615280158402,-0.00028805772035615633,-0.0036539986207542465,0.003912570591720312,0.9945187096589329
2012-11-26,1,0.00029502204949616713,0.00038824008925165493,-0.004158110587818774,0.003256196782982652,0.9944079502189068
2012-11-28,1,0.00034277584996036633,0.00041339892390786996,-0.005529360115724172,0.0021294763472398523,0.9940104050036708
2012-11-30,1,0.0006945483118517403,0.0008133108982601761,-0.006836831020689972,0.0007850485457127844,0.993734410067172
2012-12-04,1,0.0006447058293432314,0.0007700109457333857,-0.005529360115724172,0.0021294763472398523,0.9930160773984545
2012-12-06,1,0.000978111455608992,0.0011812837364199736,-0.006814135608201665,0.0021294763472398523,0.992882345586998
2012-12-10,1,0.0013432395475518502,0.001612996357941474,-0.006814135608201665,0.003567971258238106,0.9926134883151301
2012-12-12,1,0.0012700128347838064,0.001544036840501702,-0.006814135608201665,0.005099433961876042,0.9926642092129129
2012-12-14,1,0.000598741718213109,0.0007760113917962917,-0.0033501541515525276,0.005099433961876042,0.993492644266623
2012-12-18,1,0.0012787576254178275,0.0015160502671650923,-0.006798692773224029,0.004023501622784009,0.9942406828590457
2012-12-20,1,0.0017244994340918376,0.002048850704660499,-0.0034851589192197653,0.005099433961876042,0.9942855815703906
2012-12-24,1,0.0012865213231571136,0.0015429154264211178,-0.002450614229174729,0.005099433961876042,0.9947073679984659
2012-12-27,1,0.0005063430142189036,0.0006820613832216301,-0.0018003149427406656,0.005099433961876042,0.9951198169685226
2012-12-31,1,0.0008791733947252759,0.001106768066631218,-0.0014209448722022713,0.004023501622784009,0.9957708887717247
2013-01-03,1,0.0021893935757460368,0.002520185746449574,-0.0014209448722022713,0.0043415933549660534,0.9963157436309514
2013-01-07,1,0.0018213376524506236,0.0021282700976273834,-0.0014209448722022713,0.003843981002936584,0.996439663892842
2013-01-09,1,0.0020578852922200994,0.0024031459031012533,-0.0014209448722022713,0.003833600664494199,0.9965097429015602
2013-01-11,1,0.002396467331022663,0.0027781240322055094,-0.0014209448722022713,0.003554000419346203,0.9967660969259404
2013-01-15,1,0.0023062366249356463,0.002659695573224724,-0.0014209448722022713,0.003554000419346203,0.9967889538278821
2013-01-17,1,0.001975868265448554,0.0022592017142609015,-0.0012855602127170914,0.0036496506582978333,0.9968534330949287
2013-01-22,1,0.0019457106808257242,0.002190077011531589,-0.0014209448722022713,0.0036496506582978333,0.9955578193369988
2013-01-24,1,0.001710514739405609,0.0019143311170358958,-0.0012855602127170914,0.004130931719791474,0.9955083485813365
2013-01-28,1,0.0015191146766937674,0.0016615454078737536,-0.0008015551424339058,0.004130931719791474,0.9950357765704543
2013-01-30,1,0.0013291546118679176,0.0014783368657311769,-0.0008015551424339058,0.005213377038688516,0.994661085140282
2013-02-01,1,0.002199305813626298,0.002509208663379619,-0.0008015551424339058,0.004348020343139728,0.9950930378772469
2013-02-05,1,0.0016679528669624722,0.001877218949531813,-0.0007928364722504508,0.005701907626793841,0.9952059561565868
2013-02-07,1,0.0016640452112516022,0.0018443116722827557,-0.0012504689530884164,0.007879084103579868,0.9942990643999408
2013-02-11,1,0.0016888321483529874,0.001869588131503357,-0.0016371062642644122,0.007879084103579868,0.9939843188084547
2013-02-13,1,0.0014251933732822145,0.0015394703506684058,-0.0016371062642644122,0.007879084103579868,0.9938064875304348
2013-02-15,1,0.001557759406266256,0.0016820163923157749,-0.002371260608775821,0.005809468024619509,0.9940307762571872
2013-02-20,1,0.002086559809403318,0.0022851051799382995,-0.0014951870679255526,0.005809468024619509,0.9952252604734908
2013-02-22,1,0.0023614902785018678,0.0025901741494907976,-0.002371260608775821,0.005312453104287116,0.9951221185908563
2013-02-26,1,0.001761301060108112,0.0018610576383115277,-0.002371260608775821,0.005312453104287116,0.9954541123358454
2013-02-28,1,0.0016467541805618045,0.0017529029658657407,-0.0014951870679255526,0.005312453104287116,0.9952137151203809
2013-03-04,1,0.002228120753164373,0.0024632181754087193,-0.002413865082786134,0.005312453104287116,0.9950948201466974
2013-03-06,1,0.0023227964694055026,0.002552208231134524,-0.0030821059578171345,0.005312453104287116,0.9947681557201615
2013-03-08,1,0.00205290549813722,0.002228823897869028,-0.002413865082786134,0.005430894278826448,0.995307355015404
2013-03-12,1,0.0020098429878668677,0.002170740659639371,-0.0021843901288941957,0.006454056893044627,0.9949911313647284
2013-03-14,1,0.002444591311755958,0.0026867675789193014,-0.0021843901288941957,0.006454056893044627,0.9952370273266027
2013-03-18,1,0.002463116450356728,0.002754843562683555,-0.0025358956843275805,0.008765265239356697,0.9940627679524155
2013-03-20,1,0.0025235653043300535,0.0027915010849323043,-0.003107957213813978,0.006587961981155407,0.9940802660348554
2013-03-22,1,0.002208955761472611,0.0024045826723241423,-0.0023513748740252847,0.00944218804049776,0.9938338444953445
2013-03-26,1,0.0021917176748943888,0.002381714240591867,-0.0012625650645410615,0.00944218804049776,0.9939751416966653
2013-03-28,1,0.0028867878963369587,0.003187824986880427,-0.0023513748740252847,0.006919584853912133,0.9939977680491758
2013-04-02,1,0.0020092449927928543,0.0021125026382371424,-0.0012625650645410615,0.010555197750818115,0.9932580147503218
2013-04-04,1,0.00176581306635411,0.0018090993906537869,-0.0012625650645410615,0.009729575140391945,0.9929197890175546
2013-04-08,1,0.00262325080528684,0.0027938747283587383,-0.0023513748740252847,0.007482179490615042,0.9925851520611648
2013-04-10,1,0.0025068772856924816,0.002643151802402031,-0.004169969868614736,0.007388683269984158,0.9923159749193103
2013-04-12,1,0.002082916719184397,0.0021116861972643353,-0.007983705811751389,0.008417380912232975,0.991018185439327
2013-04-16,1,0.002109934707915649,0.0021955521413667203,-0.007879501866652594,0.006963897513582669,0.9918826797867153
2013-04-18,1,0.0019091265315594485,0.001970591916056426,-0.007983705811751389,0.008417380912232975,0.9910390885719066
2013-04-22,1,0.0023432864704778164,0.002467308376214674,-0.008380390424736536,0.007997906260361558,0.9909211082224018
2013-04-24,1,0.002443106040607767,0.002587399847875468,-0.009139075342536069,0.007997906260361558,0.9901108079353542
2013-04-26,1,0.002198585093300245,0.0023356391173111114,-0.009139075342536069,0.007997906260361558,0.989869068756691
2013-04-30,1,0.002937501017953981,0.0031392319762101406,-0.010719552766528858,0.005943681595521004,0.9892968432297415
2013-05-02,1,0.00238755002857272,0.0025312542829675423,-0.010244711838595247,0.006963897513582669,0.9893271920036699
2013-05-06,1,0.0019311520366996216,0.002014082372059643,-0.009139075342536069,0.006963897513582669,0.9898469195616586
2013-05-08,1,0.0018238902715250992,0.0018879616597061515,-0.010034790087468506,0.006963897513582669,0.9897751613275922
2013-05-10,1,0.0008299473335159964,0.000937154453125375,-0.009139075342536069,0.0072199412168373975,0.9907009762855427
2013-05-14,1,0.001287373565197008,0.001290904724239312,-0.010034790087468506,0.004292986288448693,0.9903929463535641
2013-05-16,1,0.0013223193311980648,0.00134508187035569,-0.010034790087468506,0.00700477355693804,0.9905273417858982
2013-05-20,1,0.0010378717258018528,0.0011213248138095652,-0.008628817132321064,0.006876107510774464,0.9911650848265348
2013-05-22,0,-0.0002562006758589483,1.6658958187912602e-05,-0.01059927523864212,0.006876107510774464,0.9898093327629991
2013-05-24,-1,-0.0007795958902484554,-0.00045572817038519117,-0.01059927523864212,0.008180226501513111,0.9897253405833485
2013-05-29,-1,-0.0010409847488046346,-0.0007348469533305011,-0.007811764286672964,0.010258682222230434,0.9896336255789138
2013-05-31,-1,-0.002066596134310485,-0.0016573112743140344,-0.0055231225296138225,0.010442255298051945,0.9893013260503415
2013-06-04,-1,-0.0016763072375336951,-0.0013036747881191673,-0.006452292846936875,0.010442255298051945,0.9891316483228273
2013-06-06,-1,-0.0015273156621945564,-0.0011799852719475775,-0.003390838982085221,0.009625219509008028,0.9897617544752307
2013-06-10,-1,-0.001373423222668466,-0.0010482930693677412,-0.0012674913457587816,0.011433195191498513,0.9891597797216237
2013-06-12,-1,-0.002223885404252713,-0.0017821280645836958,0.0005034054623866604,0.011519997314479655,0.9878804399276676
2013-06-14,-1,-0.001275822754038247,-0.0009470524656187203,0.00015102883932743358,0.011519997314479655,0.9886112137730295
2013-06-18,-1,-0.0010829811822913441,-0.0007686731771425251,-0.00042752885820316494,0.011519997314479655,0.9890718440200817
2013-06-20,-1,-0.0032024918562455224,-0.0026236912069089085,0.00045306251594418257,0.012009170319367464,0.9893967603738126
2013-06-24,-1,-0.003251952890688881,-0.0026734659099569235,-4.7002519205994125e-05,0.011903734932611766,0.9901157221619192
2013-06-26,-1,-0.001918280287205464,-0.0015164902402248907,-0.00042752885820316494,0.01072526304782806,0.9916079819277395
2013-06-28,-1,-0.001269583214047684,-0.0009397754859472701,-0.0017958970348291863,0.008649621371656969,0.992293240239116
2013-07-02,-1,-0.0017166024920990423,-0.001342747723718703,-0.00042752885820316494,0.008649621371656969,0.9925128766647789
2013-07-05,-1,-0.0014881703973677702,-0.0011492660592544986,-0.0017899730787782936,0.01072526304782806,0.9921436953837965
2013-07-09,-1,-0.0006540164871172085,-0.00040664151619312385,-0.003967694274846153,0.00680275819058753,0.9930837989768055
2013-07-11,1,0.0003746136062940655,0.0004926933735178343,-0.003967694274846153,0.0028365871280468897,0.9942038752786425
2013-07-15,1,0.0013451248303804875,0.0013760298220555178,-0.003967694274846153,0.00225007429263687,0.9948645613154944
2013-07-17,1,0.0012918016209910262,0.001333941608130787,-0.00565813351655259,0.00225007429263687,0.994459622784627
2013-07-19,1,0.001419349687605744,0.0014456607116759834,-0.006171839454262499,0.001631285628564854,0.9934883580957442
2013-07-23,1,0.0013328948027964216,0.0013547449264496388,-0.006739173183671477,0.00225007429263687,0.9929456564700282
2013-07-25,1,0.0010561682244201991,0.0010592115135048558,-0.006739173183671477,0.001261329730760921,0.9931156766212967
2013-07-29,1,0.0005456842157907386,0.0005957663230986867,-0.006739173183671477,0.0014564701011108559,0.9934547737970721
2013-07-31,1,0.0006433558327108311,0.00070164454313105,-0.006739173183671477,0.0014564701011108559,0.9932348721014211
2013-08-02,1,0.0008544432086110711,0.0008859243483275424,-0.00776236369381299,0.00010749917694576573,0.993095020989802
2013-08-06,1,0.00048468770829113335,0.0005313043284596014,-0.008337478586207496,0.0014564701011108559,0.9928578640371749
2013-08-08,1,0.00045316470703286307,0.0005063453368464906,-0.009435051419215095,0.00010749917694576573,0.9923142696773252
2013-08-12,1,0.0005600532307052274,0.000597736154678981,-0.009435051419215095,0.0045106870995381895,0.9918973419036434
2013-08-14,0,-2.0000667979662304e-05,7.497171682737725e-05,-0.009435051419215095,0.0045106870995381895,0.9923908867702907
2013-08-16,-1,-0.0012419659099385336,-0.0009972542415874705,-0.00776236369381299,0.004569054807984866,0.993473237827172
2013-08-20,-1,-0.0007649775856801021,-0.0006215143195238307,-0.00776236369381299,0.004569054807984866,0.9930621463884857
2013-08-22,-1,-0.0014044393352331441,-0.0011780447388300371,-0.00776236369381299,0.004569054807984866,0.9931226442104301
2013-08-26,-1,-0.0011392661222637507,-0.0009537932430762965,-0.00535824478130578,0.004569054807984866,0.9928379633028086
2013-08-28,-1,-0.0006541085430866355,-0.0005682626668575697,-0.00535824478130578,0.0045106870995381895,0.9928946813629653
2013-08-30,-1,-0.0010923804770665707,-0.0009730055320302784,-0.004369946536382201,0.0045106870995381895,0.9931766081226372
2013-09-04,-1,-0.0013582990590893284,-0.0012118917146578792,-0.003495353675204067,0.004569054807984866,0.993468651824758
2013-09-06,-1,-0.0022874072212974578,-0.002015765894061469,-0.0031951022474122365,0.004569054807984866,0.9934613304476172
2013-09-10,-1,-0.0018232691308669798,-0.0016064121273892476,-0.0035398813079262053,0.003945396283557829,0.9934797245234336
2013-09-12,-1,-0.0015917784572123572,-0.0014243072704385328,-0.0031951022474122365,0.0056926804125637396,0.992155526253022
2013-09-16,-1,-0.0009122158920170904,-0.0008515045914886382,-0.004340200644679167,0.005551213146369783,0.9919807321329052
2013-09-18,-1,-7.611235311204588e-05,-5.319603697557623e-05,-0.0077931483192926875,0.004965062518851806,0.9919937114894477
2013-09-20,1,6.450106771507184e-05,0.00016306461463804628,-0.004340200644679167,0.006823525956190214,0.9916876781834948
2013-09-24,1,0.0007262191582127148,0.0008547568945934069,-0.004340200644679167,0.006823525956190214,0.9920848672860497
2013-09-26,1,0.00042548485629822163,0.0005324161015576958,-0.004340200644679167,0.006823525956190214,0.9921085041852317
2013-09-30,-1,-0.00011540806414175967,-6.445717394636439e-05,-0.0019617520693580312,0.009506664068554575,0.991886795062611
2013-10-02,1,7.579149003922577e-05,0.0001310309183819551,-0.0038933738755421833,0.006823525956190214,0.9922326597520654
2013-10-04,-1,-0.0004397240147667478,-0.0004274384692226233,-0.0016232427483103208,0.006823525956190214,0.9924795925407647
2013-10-08,-1,-0.00022423838786163168,-0.00019483929560264532,-0.0016232427483103208,0.006155279594479363,0.9928618015815209
2013-10-10,1,0.0007549642968637676,0.0009136942381715234,-0.0038933738755421833,0.006155279594479363,0.9935276855861934
2013-10-14,1,0.00034242530233790725,0.00041191227896857844,-0.0016232427483103208,0.0066976417839917255,0.9933254769417494
2013-10-16,-1,-0.00024160273306762542,-0.00020917086796647577,-0.0016232427483103208,0.00661554604979885,0.9936303187836331
2013-10-18,1,2.796950346703979e-06,5.727139534849235e-05,-0.0016232427483103208,0.00661554604979885,0.9939632781563102
2013-10-22,1,0.0005956535249761345,0.0005986021132415563,-0.0038391640295679067,0.0045359708139819516,0.9941442550907367
2013-10-24,1,0.00047033240012326087,0.0004929307791002977,-0.005955715269812983,0.0045359708139819516,0.9937312674523713
2013-10-28,1,0.0009106516264549083,0.0009387388411742652,-0.006521121666278782,0.003106516881781509,0.9939545358634517
2013-10-30,1,0.0005769497700370561,0.0005811405754265159,-0.006813948501453622,0.003106516881781509,0.9938837585694613
2013-11-01,1,0.0003560684508506262,0.0004195639722054537,-0.006813948501453622,0.003106516881781509,0.9939087689048898
2013-11-05,1,0.00036016761532039836,0.00037285605689345183,-0.006008036637302717,0.003751214394650474,0.9942297310297074
2013-11-07,1,0.0005319579903347289,0.0005554852099174389,-0.004186009736520957,0.003751214394650474,0.9940879166714599
2013-11-11,-1,-0.0004507014260963063,-0.00025761667742005355,-0.006229707149598789,0.003021814023756178,0.9938581565784913
2013-11-13,-1,-0.0004863981160804858,-0.0003165647706908279,-0.006229707149598789,0.003021814023756178,0.9932125430811946
2013-11-15,1,0.0007377609171693204,0.0007625046165945085,-0.006229707149598789,0.002485972724228531,0.993368721377721
2013-11-19,1,0.00080884628224216,0.0008896799513480042,-0.006229707149598789,0.003963475885478566,0.9934806554376023
2013-11-21,1,7.127195576246746e-05,0.0001162170399783087,-0.006229707149598789,0.0052091138880660404,0.9930894029917081
2013-11-25,-1,-0.00018918341441953216,-0.00012097972478920029,-0.004227313802818431,0.0052091138880660404,0.9931797344852797
2013-11-27,-1,-0.00024326860973643573,-0.00021422908224130174,-0.00420181115453738,0.0052091138880660404,0.9932835004576214
2013-12-02,1,0.0005540795659933151,0.0006751691707022482,-0.00420181115453738,0.004318220841505771,0.9936796745314309
2013-12-04,1,0.0011772582869553363,0.0014276371441801735,-0.005822589354765049,0.004046444571317545,0.992860861061098
2013-12-06,1,0.0014882618687076846,0.001773280733681063,-0.005822589354765049,0.004046444571317545,0.9930247615210386
2013-12-10,1,0.0008940182237458074,0.001134455511978951,-0.0037389123012567245,0.006746612609562248,0.9937561512587275
2013-12-12,1,0.0007240579781097086,0.0009375615154185805,-0.0037389123012567245,0.006746612609562248,0.9940154372938371
2013-12-16,1,0.0008906254015410199,0.0011170672995524868,-0.004075621102236183,0.004519708424732137,0.9939983557374718
2013-12-18,1,0.001057194675298444,0.001279116795681583,-0.004075621102236183,0.0033070432484180964,0.9940527362480654
2013-12-20,1,0.0010795151987623435,0.0013134762897755816,-0.0037389123012567245,0.0033070432484180964,0.994376445728756
2013-12-24,1,0.001443084378645412,0.0017500312705341244,-0.004075621102236183,0.0033070432484180964,0.9935185391848844
2013-12-27,1,0.0011354497332677178,0.0013733606833366818,-0.0036349940838592844,0.0036340126530059547,0.9937782182162582
2013-12-31,1,0.0011898729721962478,0.0014381408039374553,-0.004075621102236183,0.005775713926790152,0.9926057595099247
2014-01-03,1,0.0004347607459914933,0.0005804938580363365,-0.004075621102236183,0.005775713926790152,0.9923960754001963
2014-01-07,1,0.00042668146757499477,0.0005441248638378637,-0.005206795564188184,0.004176467663472254,0.9925516065270179
2014-01-09,1,0.00012231124232335323,0.00013392535147892636,-0.005206795564188184,0.004831818904019293,0.992508382898805
2014-01-13,1,0.00018665278775539825,0.00021222747934144962,-0.0033034833163050822,0.006004410776301339,0.9923692860122999
2014-01-15,-1,-0.0002604464620971979,-0.0002060524731648411,-0.002606843012478904,0.00708296443012702,0.9920951942133298
2014-01-17,-1,-0.00025388963360815036,-0.0001982151355317602,-0.0020741389517733855,0.00826971044020523,0.9917154282679256
2014-01-22,1,0.0002419041222527988,0.00026182325743327864,-0.0033054768022775863,0.00819729711234834,0.9915687530003511
2014-01-24,-1,-0.0011135118067259532,-0.0009371426600399602,-0.0004179735197435827,0.00819729711234834,0.9917491099665832
2014-01-28,-1,-0.0010920388635026466,-0.000883255014371696,-0.0013951554965458178,0.00819729711234834,0.9919280779755976
2014-01-30,-1,-0.001003455237230637,-0.000775573277814469,-0.0007903090580028442,0.00819729711234834,0.9926670309296728
2014-02-03,-1,-0.0013839414098380817,-0.001135549367124864,-0.0007903090580028442,0.00928124036972364,0.9922690955017388
2014-02-05,-1,-0.00186402410066794,-0.0015504446636171651,-0.0026506081907300906,0.00928124036972364,0.9919296723363238
2014-02-07,-1,-0.0011395483043741385,-0.0009250988812480505,-0.0026506081907300906,0.00928124036972364,0.9925536986425074
2014-02-11,1,0.0003883251580616214,0.0003991812608502624,-0.005069465835482989,0.00928124036972364,0.992862800407857
2014-02-13,1,0.0003331519320815545,0.00036406538720580453,-0.005069465835482989,0.009352635658496668,0.9928953921093636
2014-02-18,1,0.001042451822796442,0.0011373058505649931,-0.005069465835482989,0.008883553225842871,0.9930835073611574
2014-02-20,1,0.0008901847486107872,0.000968467276721372,-0.006282842501400654,0.006969959666945312,0.9928547429538618
2014-02-24,1,0.00041645482360788634,0.00043179169111713455,-0.006282842501400654,0.008313994363232418,0.9926520157520247
2014-02-26,1,0.0007486770661220533,0.0007886507891226357,-0.006282842501400654,0.009027361842472787,0.991964127665401
2014-02-28,1,0.0006669700488572403,0.000670400593356148,-0.006282842501400654,0.008313994363232418,0.9924219710213811
2014-03-04,1,0.0006239553585929095,0.0006271705036724265,-0.004821220953883913,0.008313994363232418,0.9927846900927945
2014-03-06,1,0.0004571045516350633,0.00048683764669351075,-0.001315095892022988,0.008313994363232418,0.9933816480606026
2014-03-10,1,0.0005073260550721216,0.0005283691904900441,-0.0029516756582786694,0.008313994363232418,0.9932376450008927
2014-03-12,1,0.0006086261999392104,0.0006191477820610407,-0.0023407149628896238,0.007131799156468229,0.9941579624557323
2014-03-14,1,0.0012330459637225524,0.001383928682775967,-0.0023407149628896238,0.005444549749028808,0.9946132405402378
2014-03-18,1,0.0018186677882573747,0.0020768052609654005,-0.0023407149628896238,0.0063227733018032806,0.9942937535589644
2014-03-20,1,0.000864536569227786,0.0010013176025297811,-3.5611941965332295e-05,0.006991549729212327,0.9944235319070769
2014-03-24,1,0.0015026384600146307,0.0017478046021274945,-0.0023407149628896238,0.0063227733018032806,0.9947314354763656
2014-03-26,1,0.0020404082437408965,0.0023345035394834726,-0.0023407149628896238,0.004375752649390971,0.995541350361133
2014-03-28,1,0.0021343296684830605,0.002459096117120899,-0.0029516756582786694,0.005289150440548766,0.994626659730897
2014-04-01,1,0.002298651503248534,0.0026203846505311232,-0.002793948800795221,0.005209295917782111,0.9951635532910693
2014-04-03,1,0.002288122880336512,0.0026094517063227855,-0.003996532706905315,0.0053094484413070174,0.9942623110667618
2014-04-07,1,0.0020003119494780954,0.002327693496374705,-0.003996532706905315,0.005927810425023271,0.9939527860741026
2014-04-09,1,0.0019242404570953993,0.0022391377786456054,-0.005167286142946581,0.006525351803772201,0.9930151572313102
2014-04-11,1,0.0022749397239794924,0.002669110790716134,-0.006861304284495004,0.006525351803772201,0.9919807233192339
2014-04-15,1,0.0027424714244753405,0.003177305547004336,-0.006861304284495004,0.0053094484413070174,0.9925976205939168
2014-04-17,1,0.0023756369252721527,0.002740955756909127,-0.0057030680442055805,0.004409136823899273,0.9931453577254173
2014-04-22,1,0.002061074642128423,0.00236429939129122,-0.006861304284495004,0.004409136823899273,0.9923645741164961
2014-04-24,1,0.0019312389777632363,0.002181318644263538,-0.006861304284495004,0.0053094484413070174,0.9922287003058257
2014-04-28,1,0.002205936554258555,0.0024922334814014725,-0.005926084845322926,0.0051611713078286965,0.993122306572893
2014-04-30,1,0.002290086299502796,0.002596060274913728,-0.005926084845322926,0.0051611713078286965,0.9929631441925096
2014-05-02,1,0.0019428422912180737,0.0022214679657610297,-0.004344178376905666,0.005753049303983847,0.9935897677036333
2014-05-06,1,0.0015453296263129306,0.0017096413356915057,-0.0037775279162968575,0.004190798501500472,0.9943432694342326
2014-05-08,1,0.0015287254824851045,0.0016669618209468016,-0.0033856716859665494,0.004190798501500472,0.9950162503051619
2014-05-12,1,0.0007684153803829341,0.0008158328744641789,-0.0033856716859665494,0.004190798501500472,0.9953494110610398
2014-05-14,1,0.0011136945887556138,0.001223316966693522,-0.0037775279162968575,0.004456191986745976,0.994734329039318
2014-05-16,1,0.0009722449801644661,0.0010555759325842201,-0.0033856716859665494,0.005753049303983847,0.994469775191002
2014-05-20,1,0.00020855444007190034,0.00023022063992815276,-0.0016302364845433765,0.007626848689540054,0.9944041851707612
2014-05-22,1,0.0003969570762666618,0.0004213093572548363,-0.0022142642659304756,0.006132242882618506,0.9944578816730042
2014-05-27,1,0.000535026479918691,0.0005450091542232852,-0.002943054365357527,0.0057312133164589656,0.9944485891793904
2014-05-29,1,0.00021999518205544896,0.00030810182875318915,-0.0021326502200802134,0.005306288313148217,0.9947025529217365
2014-06-02,1,0.00044170659520320426,0.0004930336212888356,-0.0021326502200802134,0.005306288313148217,0.9945802002804156
2014-06-04,1,0.0004624148430676479,0.0005049944248608007,-0.003498429310291277,0.005306288313148217,0.9929264531934078
2014-06-06,1,0.0006998483687220673,0.0007244120067711103,-0.003498429310291277,0.004322515464692795,0.9931952836102567
2014-06-10,1,0.00011156682607664834,0.00021138559565642097,-0.002121010082791859,0.005306288313148217,0.9932128299231596
2014-06-12,-1,-0.000470238166861937,-0.0002986530384473687,-0.002121010082791859,0.007300596947124511,0.9932698089042723
2014-06-16,1,0.0002059010705547142,0.00028463386624532705,-0.002943054365357527,0.006761904744984523,0.9932312874100077
2014-06-18,1,0.00020957733555122354,0.00033315639531596164,-0.004154138894083961,0.005205346757409379,0.9935656162115193
2014-06-20,1,0.00023377200279830096,0.0003467257861560413,-0.003926410098166182,0.006761904744984523,0.9933494437781926
2014-06-24,1,0.0003755238060770329,0.00046319557528708415,-0.003926410098166182,0.006761904744984523,0.9933336739831388
2014-06-26,1,0.00020219402784065317,0.0003455761838322679,-0.007416585045456624,0.005485264939357531,0.9932373463882715
2014-06-30,1,0.00044414474114008414,0.0005781599907938229,-0.008833038095008135,0.005485264939357531,0.992002375391579
2014-07-02,-1,-0.001225996202519309,-0.0009345869390341579,-0.008833038095008135,0.005485264939357531,0.9922162655377555
2014-07-07,-1,-0.0007877235772689042,-0.000601950722389803,-0.008833038095008135,0.006311238241396736,0.9917557650916807
2014-07-09,-1,-0.00044996808303452573,-0.00031625707468763094,-0.009861920544908379,0.005368689956741215,0.9912056895842033
2014-07-11,-1,-0.00019628308158433304,-0.0001094042191681822,-0.009861920544908379,0.005368689956741215,0.9909915365554001
2014-07-15,-1,-0.0005152748318294321,-0.00038188170404181485,-0.009861920544908379,0.0029203143507814475,0.9917413508914577
2014-07-17,-1,-0.0011509954433107257,-0.0009335254034511466,-0.009861920544908379,0.005368689956741215,0.9914944481650374
2014-07-21,-1,-0.0007346222245944012,-0.0005714944775279388,-0.009861920544908379,0.004862500364990703,0.991889353586171
2014-07-23,-1,-0.00030555510786621303,-0.0002061935388142245,-0.009861920544908379,0.005137824799003772,0.9915637902685777
2014-07-25,-1,-0.0007062086942126349,-0.000542641306349884,-0.00681284215267191,0.005137824799003772,0.9917759162504363
2014-07-29,-1,-0.0013782809652429266,-0.001100614090449311,-0.00681284215267191,0.005137824799003772,0.9926102073949588
2014-07-31,-1,-0.0030650312429490543,-0.0025978322259183812,-0.004068245762031187,0.007034390878061632,0.9928921897201207
2014-08-04,-1,-0.0029008642513263148,-0.002472387454998978,-0.004068245762031187,0.006139698855892916,0.9930175561892829
2014-08-06,-1,-0.003578571992074892,-0.0030838821771841107,-0.0008427214146153532,0.007034761613768925,0.9927871623787796
2014-08-08,-1,-0.0028774232959679477,-0.002482460656988191,-0.0008427214146153532,0.007034761613768925,0.993218849429751
2014-08-12,-1,-0.0035633825876052825,-0.0030312466859407014,-0.004060710410492038,0.007034761613768925,0.9926213240106126
2014-08-14,-1,-0.002728467818806973,-0.0023171128426974835,-0.004326642201524828,0.006937957517799463,0.9923517867212753
2014-08-18,-1,-0.002016921118584512,-0.001722667508538527,-0.004326642201524828,0.008189836523984436,0.9921379166180573
2014-08-20,-1,-0.0013431044062921123,-0.0011349065803013896,-0.004917555183129325,0.006612450575118469,0.9926538849780953
2014-08-22,-1,-0.0011205475466281314,-0.0009625994315478974,-0.006529430103323191,0.006612450575118469,0.9923946717871318
2014-08-26,-1,-0.0012299170666705758,-0.0010594270454104416,-0.006701542519555787,0.00562560922396459,0.9926654152619341
2014-08-28,-1,-0.0008645938853588091,-0.0007168817026171849,-0.00728012053891091,0.004190601419988739,0.9927166137437112
2014-09-02,-1,-0.0009037520747604006,-0.0007653136636462368,-0.00728012053891091,0.0030667837135059123,0.9930607866983545
2014-09-04,-1,-0.00045707252135569895,-0.0003789728986239422,-0.00728012053891091,0.0030667837135059123,0.9929698159927366
2014-09-08,1,0.0002705213492765471,0.00032539112125663095,-0.00728012053891091,0.0030667837135059123,0.9931373939979341
2014-09-10,-1,-0.0005939100631211676,-0.0005345505169055807,-0.006701542519555787,0.005836427260417184,0.9930335389750147
2014-09-12,-1,-0.0012000605242859013,-0.0010649412324784356,-0.006701542519555787,0.005836427260417184,0.9930186486154581
2014-09-16,-1,-0.0006065993621409946,-0.0005525793782900683,-0.006701542519555787,0.005836427260417184,0.992384254556243
2014-09-18,-1,-0.0008861220750998458,-0.0008223138834758492,-0.006701542519555787,0.005836427260417184,0.9920383262788373
2014-09-22,-1,-0.0008589954690389591,-0.0008083618142354255,-0.0033254933313318857,0.00798752841089934,0.9912588881101627
2014-09-24,-1,-0.0018632515953959173,-0.0016577582298709155,9.328385132328302e-05,0.008277417569632593,0.9908918110949672
2014-09-26,-1,-0.002100433299271587,-0.0018739469130488325,0.0004935317461908465,0.008277417569632593,0.9909701140044468
2014-09-30,-1,-0.0017866940249589305,-0.001611105280560493,0.0015098863544239852,0.008277417569632593,0.9907031938346074
2014-10-02,-1,-0.0019290544841668014,-0.0017003087836549682,0.0011979367737823094,0.01090239864265452,0.9894789397782391
2014-10-06,-1,-0.0013408956100832768,-0.0011921434474027027,0.0013754661285980377,0.00852359317657907,0.9899089445837717
2014-10-08,-1,-0.0004923553409321695,-0.0004421835349508942,0.0013754661285980377,0.00852359317657907,0.9899488972404219
2014-10-10,-1,-0.0013116204028451018,-0.00113016719803103,0.0013754661285980377,0.00969900693769379,0.9892402121975226
2014-10-14,-1,-3.734287863903227e-05,-1.7516166633720026e-05,0.0003548751408700277,0.0084045345682919,0.9905417757282304
2014-10-16,-1,-0.000260070653793364,-0.00022405289475938117,-0.00228401867446881,0.0084045345682919,0.9899303305692507
2014-10-20,1,0.0008466421823844744,0.0009673272453728148,-0.002405396811375074,0.007507007132827018,0.9913512219936136
2014-10-22,1,0.001409860869653788,0.0016223957236810441,-0.002405396811375074,0.007737259055739557,0.9915784338683099
2014-10-24,1,0.0016098685059041603,0.0018470718948918287,-0.004327966823695508,0.007737259055739557,0.9913155902662962
2014-10-28,1,0.0021495745119695184,0.0024763025803767394,-0.006503579186507765,0.007737259055739557,0.9910477976755078
2014-10-30,1,0.0024460612988970298,0.0027867179158250046,-0.0034504683199063496,0.007737259055739557,0.9921117093253476
2014-11-03,1,0.0023652828404267033,0.0026711789647142054,-0.0034504683199063496,0.008105317120233489,0.9920767337193696
2014-11-05,1,0.0030143579542602607,0.0034340824667347045,-0.0027196634240687764,0.006787375300180897,0.9934622821364907
2014-11-07,1,0.0030363299567133083,0.003495062184657223,-0.0027196634240687764,0.006787375300180897,0.9943329738709342
2014-11-11,1,0.00331244834945091,0.003810560935810908,-0.0034504683199063496,0.0053821089052032275,0.9939371329331781
2014-11-13,1,0.002270860521549491,0.0026297688689320203,-0.0027196634240687764,0.006787375300180897,0.9943875886913909
2014-11-17,1,0.002464005477148914,0.0028780840269399446,-0.0034504683199063496,0.006787375300180897,0.9939082228969786
2014-11-19,1,0.0031073726756913832,0.003633119660591947,-0.0034504683199063496,0.008775918345647463,0.9925291099574907
2014-11-21,1,0.0019814631848452256,0.0022781565331314456,-0.0021339858920544743,0.009324732707268411,0.9924038599470857
2014-11-25,1,0.0017049641079523881,0.001964775063345159,0.0012733281005265307,0.009909933029309898,0.9920242918138091
2014-11-28,1,0.0024636415070735584,0.0028315352458801084,0.0012733281005265307,0.01109593386961061,0.991836577812824
2014-12-02,1,0.0028682044492034774,0.003289329258527548,-0.008522884069351878,0.01109593386961061,0.9899953606731258
2014-12-04,1,0.0029612329481126924,0.0033891894876736566,-0.011799066466395456,0.01109593386961061,0.9892259054798187
2014-12-08,1,0.0028105432258856014,0.003190605113604982,-0.011799066466395456,0.012356549714840437,0.9891875304137773
2014-12-10,1,0.002559123358393916,0.0029242826358828293,-0.011799066466395456,0.015954839217446663,0.9885541154657004
2014-12-12,1,0.00243743250011095,0.0027992720593071844,-0.005315602288277913,0.015954839217446663,0.9891956106531888
2014-12-16,1,0.0017694894803245596,0.0020208310842925047,-0.002824714653438842,0.016517332940002703,0.9889834627124471
2014-12-18,1,0.0031804443057609115,0.0036076812642250027,-0.002824714653438842,0.015954839217446663,0.990052646945997
2014-12-22,1,0.0027180335555059536,0.0029813563602026413,-0.002824714653438842,0.015954839217446663,0.9900819736194555
2014-12-24,1,0.0033154195608609675,0.003644907199315004,-0.002824714653438842,0.01217699731036998,0.9904799645367552
2014-12-29,1,0.0036826238466580734,0.004005376702321553,-0.005325348651028403,0.006987052474427942,0.9903323303577153
2014-12-31,1,0.0020550187937067393,0.0021762561195554277,-0.002824714653438842,0.009334076146897567,0.9912024484966974
2015-01-05,1,0.0014053767946082267,0.0014338117710700395,-0.002278435524184404,0.009334076146897567,0.9916842909032254
2015-01-07,1,0.0020307291026865773,0.002166880159780371,-0.002278435524184404,0.007959616292021346,0.9915576461184961
2015-01-09,1,0.0017541166961905078,0.0018637450453411648,-0.004953243747945384,0.006987052474427942,0.9897982701424912
2015-01-13,1,0.0020243364428776103,0.0021937399953249675,-0.012400623420916827,0.007959616292021346,0.9881592042365589
2015-01-15,1,0.0025247531157369806,0.002751876367617802,-0.013972673590962128,0.005294780470915209,0.9877906483955978
2015-01-20,1,0.0029110143030233564,0.0031780251440083067,-0.013972673590962128,0.005294780470915209,0.9872233797306406
2015-01-22,1,0.003263078546280734,0.0036000298297793193,-0.013972673590962128,0.003124521607003609,0.9867951215893405
2015-01-26,1,0.003081239522798974,0.0033805401908254653,-0.013972673590962128,0.006696801231350234,0.9867727898340721
2015-01-28,1,0.002515154607832972,0.0027464292354779504,-0.015184886068590753,0.006696801231350234,0.9862444594378105
2015-01-30,1,0.002196974949364991,0.002398910711235434,-0.015184886068590753,0.005111202372591491,0.9870504226393386
2015-02-03,1,0.0018254177849319389,0.0019306379874187922,-0.015184886068590753,0.004377148019955497,0.9866885774759416
2015-02-05,1,0.0012313369249894912,0.0012376375445445843,-0.017348343347243216,0.002250048627787164,0.9864889747359374
2015-02-09,-1,-0.0013501466711937759,-0.0010524044865348496,-0.011141710711038965,0.004377148019955497,0.9898018372856637
2015-02-11,-1,-0.0017194216773623009,-0.0013530409535705992,-0.009148559972850561,0.004377148019955497,0.9910422208365369
2015-02-13,-1,-0.002594006387847729,-0.0021203655155023734,-0.009148559972850561,0.006696801231350234,0.9901714248049497
2015-02-18,-1,-0.0022594944442304614,-0.0017886527871178554,-0.009148559972850561,0.006696801231350234,0.9903944050338372
2015-02-20,-1,-0.0029555886632298715,-0.0023723528432582535,-0.009148559972850561,0.0074390663307399366,0.9898340175658858
2015-02-24,-1,-0.0025557576700665306,-0.0020185696678387995,-0.010265597994220246,0.004631197719797696,0.9902215756442482
2015-02-26,-1,-0.003620340396131357,-0.0029675299248896007,-0.009160877961666111,0.004631197719797696,0.9905653901897261
2015-03-02,-1,-0.004396871871569361,-0.0036638682177631654,-0.008431094343130224,0.009029605287803989,0.9899406653733397
2015-03-04,-1,-0.004242329362585049,-0.003562087184386032,-0.006528936901501534,0.009029605287803989,0.9899383259588241
2015-03-06,-1,-0.005785981396259566,-0.004906014749795899,-0.005053707855609811,0.012250082919204881,0.9899535021440367
2015-03-10,-1,-0.00500594185769845,-0.004256901206081276,-0.006528936901501534,0.012250082919204881,0.9903378451070409
2015-03-12,-1,-0.004907937562489152,-0.004152078027749865,-0.005648957489611711,0.010499519238336755,0.9903887896687192
2015-03-16,-1,-0.003970652145876944,-0.0033766330224110274,-0.005154059063157907,0.007553136159067713,0.991681500070791
2015-03-18,-1,-0.002998950967246789,-0.0025424655895678,-0.006502642237518116,0.005837716398007953,0.9930320406945369
2015-03-20,-1,-0.002571343869558789,-0.0021781140937167385,-0.006502642237518116,0.005837716398007953,0.9930776865487442
2015-03-24,-1,-0.003024820865837893,-0.002599029387210407,-0.006502642237518116,0.005837716398007953,0.9930898456449818
2015-03-26,-1,-0.003539851518554815,-0.0030868813176391664,-0.0032623620833765327,0.006822660095463078,0.9928105497961857
2015-03-30,-1,-0.0025497821012394734,-0.002221010619107486,-0.004229244522419844,0.004905410762578133,0.9937121579685054
2015-04-01,-1,-0.0020683084055618003,-0.0018165348333016099,-0.007102261401076832,0.002872998184919034,0.9930190457687876
2015-04-06,-1,-0.0016656133589591973,-0.001449649898422028,-0.007102261401076832,0.0050166909178620996,0.9925305755803374
2015-04-08,-1,-0.002164789896351463,-0.001915801617295345,-0.007102261401076832,0.0050166909178620996,0.9921098577087543
2015-04-10,-1,-0.002393663315759153,-0.0020667944788411584,-0.007102261401076832,0.002872998184919034,0.9925812776390143
2015-04-14,-1,-0.0023422271120894403,-0.002031677527953811,-0.007102261401076832,0.002152845268789061,0.9930161937878444
2015-04-16,-1,-0.0025596275058040064,-0.00223629945070313,-0.007232268881059814,0.0035862680660699933,0.9922940133533666
2015-04-20,-1,-0.002200977997766641,-0.001911751474017051,-0.007232268881059814,0.004616988364545894,0.992200791792689
2015-04-22,-1,-0.0025319170901338776,-0.002191499076730634,-0.0048969092268514,0.004616988364545894,0.9923151091643413
2015-04-24,-1,-0.00173073286261423,-0.0015163325961884736,-0.0048969092268514,0.0026566662287750478,0.9929755683377798
2015-04-28,-1,-0.002088369595017343,-0.0018605476830004545,-0.0048969092268514,0.005060363182581655,0.992767330384534
2015-04-30,-1,-0.003004860427532521,-0.0026880455288019072,-0.002906283896548097,0.005060363182581655,0.9934031151123884
2015-05-04,-1,-0.0019321502410790251,-0.0017513851825935716,-0.003405509101277946,0.0025302415644966876,0.9942321506629047
2015-05-06,-1,-0.00322907729164177,-0.0028793049957552535,-0.004166084680207608,0.0025302415644966876,0.9941378322991212
2015-05-08,-1,-0.003213989657189867,-0.0028534737574774332,-0.007548650993413789,0.0025302415644966876,0.9939798384794266
2015-05-12,-1,-0.0036172283762112853,-0.0031828945631043794,-0.007548650993413789,0.0033912103061211193,0.993569008686938
2015-05-14,-1,-0.0022592238710412017,-0.002069894624083682,-0.008800678795103094,0.0033912103061211193,0.9934683551154531
2015-05-18,-1,-0.0013043700390400587,-0.0012508488550370725,-0.008800678795103094,0.0025302415644966876,0.993767108793611
2015-05-20,-1,-0.0006798524291325258,-0.0006127074454928218,-0.008800678795103094,0.004313699960970171,0.9928292959697594
2015-05-22,0,-0.00014082611890279856,5.9967401759840745e-05,-0.008800678795103094,0.004313699960970171,0.9926135888274948
2015-05-27,-1,-0.0007911718000337782,-0.0007673865510600026,-0.009769102590758158,0.0034432248341005937,0.9924958535244724
2015-05-29,-1,-0.0008768081704426632,-0.0008684486839153672,-0.009769102590758158,0.004313699960970171,0.9921371044044497
2015-06-02,-1,-0.000990212378717794,-0.000982944117984079,-0.007984546893004062,0.004313699960970171,0.9925309033801996
2015-06-04,-1,-0.0018054028723948532,-0.0017240753897577845,-0.005233657507975902,0.007089445705141713,0.9925275492581267
2015-06-08,-1,-0.0022390264359093024,-0.0021205033535763194,-0.004956456525979191,0.007375554857295411,0.9914941365183807
2015-06-10,-1,-0.0015338110994677703,-0.0015238116103257165,-0.005552755587338608,0.007375554857295411,0.9911427105802105
2015-06-12,-1,-0.0009496516822147952,-0.000815070111348411,-0.005233657507975902,0.007375554857295411,0.9917560858544991
2015-06-16,-1,-0.0005198179454567724,-0.00030324460695391805,-0.005233657507975902,0.007375554857295411,0.9922547549409709
2015-06-18,1,0.00036975678421905607,0.0007142347901377649,-0.005552755587338608,0.007375554857295411,0.9919589375349454
2015-06-22,1,8.317987704855668e-05,0.00036908325808165856,-0.006458263559188626,0.007375554857295411,0.9915302544758197
2015-06-24,-1,-0.0006806097602944758,-0.0005038045444239374,-0.005552755587338608,0.007582223870653249,0.9913800884821932
2015-06-26,-1,-0.00025507141975355315,-1.855148859325191e-06,-0.005411909425917019,0.007631777133928093,0.991261021453168
2015-06-30,0,-0.00020768288233043977,5.89089674065483e-05,-0.004250518685240515,0.007631777133928093,0.991357917852854
2015-07-02,-1,-0.000445107191847662,-0.0003837315673494039,-0.004250518685240515,0.008507193940179587,0.9913714793491375
2015-07-07,1,0.0006613681094865714,0.0008855615272712039,-0.007138243181741867,0.007631777133928093,0.9924833828701168
2015-07-09,-1,-0.0002705245197936661,-0.00021237770833182226,-0.0045704906757904895,0.007631777133928093,0.9925778679387441
2015-07-13,1,0.0006408666397052608,0.0008608310183365667,-0.0045704906757904895,0.005454673151310476,0.9932729628951145
2015-07-15,1,0.0006743757921128643,0.0008856638658890989,-0.0045704906757904895,0.007748301520160953,0.9928001923168489
2015-07-17,1,0.001035567915403749,0.0013264475200526786,-0.0023962013697958733,0.005454673151310476,0.9941232195044991
2015-07-21,1,0.00014879350058795968,0.00026481653140038617,-0.0016072134147053537,0.007748301520160953,0.9931258831459822
2015-07-23,-1,-0.0003193285127653211,-0.0003156518234535677,-0.0016072134147053537,0.005824161677549547,0.9933332934131659
2015-07-27,1,9.582286982492001e-05,0.00016786302060729585,-0.007869781657513024,0.004657302710989014,0.9913512991946596
2015-07-29,1,0.00016196497333652687,0.00021431715176040413,-0.009633118641191166,0.005668171184765221,0.98955677229895
2015-07-31,1,0.000993034349988424,0.0010618008524763082,-0.009633118641191166,0.0038333959482269365,0.9895573731008592
2015-08-04,1,0.0007119132519312552,0.000757771179304974,-0.012288655564696166,0.0038333959482269365,0.9878436274520316
2015-08-06,1,0.0009709297550514902,0.0010681190625150684,-0.012288655564696166,0.0038157534758372293,0.9882419169874438
2015-08-10,1,0.0013223165307634111,0.0015101670454601666,-0.01572793388518629,0.005896601852603099,0.9867430280254877
2015-08-12,1,0.0019059772053770508,0.002193903465007175,-0.01572793388518629,0.0038157534758372293,0.9863829021141606
2015-08-14,1,0.0018963494031458777,0.0021503412406561023,-0.01572793388518629,0.005270124960925963,0.9862082832209887
2015-08-18,1,0.001869315444842641,0.002078662266308419,-0.01572793388518629,0.005270124960925963,0.9870682505094454
2015-08-20,1,0.0019026827632771244,0.0021617832459712646,-0.01572793388518629,0.008102768763874762,0.9866841128360125
2015-08-24,1,0.0004183305899441074,0.0004923479602544345,-0.008558400122421267,0.008102768763874762,0.989023368237917
2015-08-26,1,0.00016052813351292834,0.00023042357627807612,-0.006304550763439207,0.008160943118325908,0.9905702663577561
2015-08-28,1,0.0006535435730322953,0.000753566815619478,-0.006304550763439207,0.008160943118325908,0.9910905350932719
2015-09-01,-1,-0.0006023287287350332,-0.0005635572465188197,-0.0036099444742815857,0.01036339947868863,0.992085324151549
2015-09-03,-1,-0.0003855072066909627,-0.00037043039078063267,-0.00532197472944018,0.010849489083522162,0.9910029765577902
2015-09-08,-1,-0.0002740297845038622,-0.000258858258473998,-0.00532197472944018,0.01036339947868863,0.9918132322853213
2015-09-10,-1,-0.0004825011372776308,-0.00046626028716838035,-0.004498981597754239,0.010849489083522162,0.9915605457891495
2015-09-14,-1,-0.0001272546012960636,-0.00010890912718727674,-0.004498981597754239,0.010995786495215572,0.9914872013595623
2015-09-16,1,0.0005904709205767256,0.0007252309449646856,-0.004498981597754239,0.010874041278515835,0.9923443761930115
2015-09-18,1,0.0006367162943530159,0.0007453122274589563,-0.0038683483444821236,0.010874041278515835,0.9924682241934207
2015-09-22,1,0.00011598954660014823,0.00012770791336660052,-0.0005541293190968518,0.010874041278515835,0.9925739584909614
2015-09-24,1,0.0009921550194346696,0.0011423414205108478,-0.0038683483444821236,0.011261640121376756,0.9926291434081941
2015-09-28,1,0.0009443169074891823,0.0010346492104286826,-0.004498981597754239,0.011261640121376756,0.9919343653575935
2015-09-30,1,0.001184583566324962,0.0013096179551104902,-0.004759064562565372,0.010348311987082684,0.991724432148433
2015-10-02,1,0.0007887587630547888,0.0008633658018664511,-0.004759064562565372,0.007001190740993325,0.9922643874311048
2015-10-06,1,0.0009468601620572,0.0010538628167368312,-0.0038683483444821236,0.0066768520957236795,0.9927193765758495
2015-10-08,1,0.0015022086897857599,0.0017144268001592425,-0.003532568889478001,0.006106823301700355,0.9933246501974466
2015-10-12,1,0.0018284316812926726,0.002085703486262155,-0.004151719437659036,0.0048263881582979295,0.9913070034665394
2015-10-14,1,0.0019248772998576799,0.002182575038777677,-0.004151719437659036,0.007100493992896155,0.9898658102452615
2015-10-16,1,0.0024755248907556635,0.0028151607095075566,-0.006356695228625143,0.006106823301700355,0.9902049958574175
2015-10-20,1,0.002500555607831221,0.002850192126671771,-0.0077554494022628985,0.007100493992896155,0.9882703675462647
2015-10-22,1,0.002384964530018627,0.0026963113756287814,-0.0077554494022628985,0.007100493992896155,0.988183128335693
2015-10-26,1,0.0014369895405427831,0.0015754220517004034,-0.0077554494022628985,0.009213398722763022,0.9880442017194618
2015-10-28,1,0.0005419566761822433,0.0005555809400148716,-0.006442718442826054,0.009213398722763022,0.9885375292994173
2015-10-30,1,0.0003073153420890683,0.0003512396368250311,-0.00394980691471251,0.009213398722763022,0.9889817189282541
2015-11-03,1,0.00068756926758005,0.000687660012818054,-0.006442718442826054,0.010739865334642383,0.9879383377955019
2015-11-05,1,0.0008261093861831626,0.0008467133380927045,-0.008275364604213173,0.012811505575369156,0.986569808497949
2015-11-09,-1,-0.0002507072374521781,-0.00017924541019495065,-0.006442718442826054,0.012811505575369156,0.9887879182508567
2015-11-11,1,0.0008882534365038015,0.0009445246438054172,-0.008275364604213173,0.007080808850888915,0.9890260261371513
2015-11-13,1,8.713419853808411e-05,0.00016587432358079935,-0.008242637052781046,0.007080808850888915,0.9890704489062592
2015-11-17,1,0.0003634341992220677,0.0004084264574080578,-0.006431809259015345,0.009239250433362553,0.9895238698786772
2015-11-19,1,0.0011086708459050276,0.0011477040558062913,-0.008242637052781046,0.009239250433362553,0.9873654730030369
2015-11-23,1,0.0013421223547126653,0.0014518544336951057,-0.007188083618432213,0.006686607739958534,0.9878754276756908
2015-11-25,1,0.0015227110447399877,0.0017134748569471747,-0.007188083618432213,0.009001743902709396,0.9879025115670758
2015-11-30,1,0.0014048848448338558,0.001542856595183504,-0.007188083618432213,0.009001743902709396,0.9877170848501048
2015-12-02,1,0.0017830261376819852,0.0019921683912254673,-0.007188083618432213,0.008671633929227974,0.9884965397029224
2015-12-04,1,0.00166599582248133,0.001862590454267032,-0.004494571068571207,0.006628802608890468,0.989920524989967
2015-12-08,1,0.001798763330271081,0.002015725333578401,-0.007188083618432213,0.0065132255901935564,0.989598125161166
2015-12-10,1,0.00058986946483576,0.0006209859722947521,-0.003201470722192576,0.0065132255901935564,0.9909275763120645
2015-12-14,1,0.00042359606892961466,0.0004298626875727578,-0.004277189971252415,0.0065132255901935564,0.9908046552580094
2015-12-16,1,0.0016954610027459707,0.0018998566751935592,-0.004525743470711284,0.004825156413000283,0.9914940497827387
2015-12-18,1,0.0026152305665463537,0.0029464089946211183,-0.004525743470711284,0.004825156413000283,0.9931202175417385
2015-12-22,1,0.002746882467802552,0.003130472152211087,-0.003145570023553749,0.005525357482322401,0.992410713326565
2015-12-24,1,0.002733039275372347,0.0030894575970988975,-0.004525743470711284,0.005525357482322401,0.9920020511158083
2015-12-29,1,0.0029199329549073417,0.0032935070125379995,-0.008497058339128045,0.0055367531942723935,0.9907080590710212
2015-12-31,1,0.0023310707460980308,0.002632648239334703,-0.004525743470711284,0.009760050953948602,0.990294376324346
2016-01-05,1,0.00252751471976584,0.0028711938689010928,-0.004525743470711284,0.011698429404314538,0.9895551895440384
2016-01-07,1,0.002276989081930509,0.0025993019543652978,-0.0037316248110334706,0.011698429404314538,0.9897785741954706
2016-01-11,1,0.002471443071258964,0.002838412724625144,-0.0037316248110334706,0.011698429404314538,0.989832495175197
2016-01-13,1,0.0020846579585264403,0.0023842851857007455,-0.0037316248110334706,0.011698429404314538,0.989240122783332
2016-01-15,1,0.0011796333676695136,0.001302971671031437,-0.003672922594480314,0.009760050953948602,0.9895877837316243
2016-01-20,1,0.0005795974300091828,0.0006087093878926924,-0.003672922594480314,0.010805313412805764,0.9898941937015612
2016-01-22,1,0.0015216761887836628,0.0016472192417266965,-0.004332534205136573,0.009649430826926039,0.9907254018651325
2016-01-26,1,0.0004358703860132351,0.0005273090256534276,-0.003494672854595075,0.011138153919633152,0.9906739297062048
2016-01-28,1,0.0007870511918817717,0.0008351797843353452,-0.003494672854595075,0.010706620672342404,0.9903091567828026
2016-02-01,1,0.0018092615864969575,0.0018948876157977416,-0.003494672854595075,0.008218042023802935,0.9918406593181669
2016-02-03,1,0.0022337187415345425,0.002342891442681918,-0.003494672854595075,0.006495591421082603,0.9926907947204471
2016-02-05,1,0.002189454676444923,0.0023035811983379063,-0.002580596710783385,0.008545922757721515,0.9927431411943624
2016-02-09,1,0.0024793396919288975,0.0026524536832847737,-0.002580596710783385,0.00995852402249616,0.9923299054153932
2016-02-11,1,0.001964905654531373,0.002078905458564571,-0.0017520658378121423,0.00995852402249616,0.9931041619639351
2016-02-16,1,0.001697559890773271,0.0017671004964753133,-0.0011292546117148093,0.00995852402249616,0.9928698453986454
2016-02-18,1,0.0019312202669049027,0.002047342221883709,-0.0002469996341982529,0.00925681899074404,0.9934430084400435
2016-02-22,1,0.0021657465190219856,0.0023289823648718214,-0.0011292546117148093,0.008876368795944105,0.9935866343101873
2016-02-24,1,0.0027633093727139246,0.0030133698053901197,-0.0011292546117148093,0.008876368795944105,0.993941497285776
2016-02-26,1,0.0020822141135565233,0.002231746647002257,-0.0011292546117148093,0.008346811754866654,0.9954339927636509
2016-03-01,1,0.001909035680678802,0.0020312345557060357,-0.0011292546117148093,0.008876368795944105,0.9946330911881583
2016-03-03,1,0.002191230635168737,0.0023620288165987157,-0.0011292546117148093,0.009110216849177566,0.9944878849973382
2016-03-07,1,0.002576792317718027,0.0028041758425045357,-0.0017817366923307027,0.008876368795944105,0.9937001271894893
2016-03-09,1,0.0030222031131794443,0.003307268596298673,-0.0017817366923307027,0.008346811754866654,0.9939366337727609
2016-03-11,1,0.0031990284946126794,0.0035395162058399635,-0.0025039586663613816,0.008346811754866654,0.9935907737902319
2016-03-15,1,0.003430874038854721,0.003810887262231979,-0.0031480970614721476,0.007276895079948775,0.9932480308870533
2016-03-17,1,0.003910950334743624,0.004357786562697259,-0.0036583347456091305,0.005772158873135913,0.9929843935259807
2016-03-21,1,0.003177490908408202,0.0034910108253343335,-0.0030217914148043794,0.005772158873135913,0.9934509872526748
2016-03-23,1,0.002926161853653756,0.003156175805115211,-0.005220531248965033,0.0053015540594863455,0.9906372417410001
2016-03-28,1,0.0027516419001361848,0.002939591831591114,-0.005220531248965033,0.004894831553751189,0.9907252181253349
2016-03-30,1,0.0032218647789359375,0.0034858667034924733,-0.005220531248965033,0.004681151376500771,0.9915597126912747
2016-04-01,1,0.003580726430237399,0.003893637232410601,-0.005220531248965033,0.003987108488360214,0.9912910919170302
2016-04-05,1,0.0014663636962879202,0.00147715559475772,-0.003173691489070637,0.004681151376500771,0.9925269796228948
2016-04-07,1,0.0017982228244642162,0.0018877079626442223,-0.003173691489070637,0.005381477173690197,0.9921019947126479
2016-04-11,1,0.0013651660347684935,0.0013784133172695355,-0.0022345912275946777,0.006990046097001283,0.9923106527959304
2016-04-13,1,0.0013555342012331133,0.0013604740191801728,-0.0012306448780231279,0.005398565375060846,0.9929603885970398
2016-04-15,1,0.0018019770298202415,0.0019169114843359033,-0.0012306448780231279,0.005398565375060846,0.9930619999019635
2016-04-19,1,0.0014905647925791438,0.0015458745168225765,-0.0012306448780231279,0.005398565375060846,0.9917551193844313
2016-04-21,-1,-0.0016831415502889275,-0.001342994213889716,7.426546894902627e-05,0.007665168767286805,0.992179262471028
2016-04-25,-1,-0.00148678661225417,-0.0011808259131199962,7.426546894902627e-05,0.007665168767286805,0.9921491045978742
2016-04-27,-1,-0.0012321576137195559,-0.0009601311608178502,7.426546894902627e-05,0.009846836054504999,0.9915928838297657
2016-04-29,-1,-0.000807337565672492,-0.0005685618698185448,7.426546894902627e-05,0.008560398365953108,0.992113224576527
2016-05-03,-1,-0.00042873933448852057,-0.00024118956327526492,0.000583042933210915,0.007339720567335331,0.9922055334444363
2016-05-05,-1,-0.0007276881839175055,-0.0004229093400908131,0.000583042933210915,0.007339720567335331,0.9916220933479009
2016-05-09,-1,-0.0007691596858900137,-0.00046736688039321567,0.0006286329315110504,0.007119466390651008,0.9916457500068485
2016-05-11,1,2.2321712403584805e-05,0.00016469716071935015,0.0006286329315110504,0.009393543336338761,0.9911022989166833
2016-05-13,1,0.000605174989066625,0.0006416500395688982,-0.0016774005339792375,0.008512665156130184,0.9911991955265519
2016-05-17,-1,-0.0006808346437355662,-0.0004821722316581469,-0.0016774005339792375,0.008512665156130184,0.9913438209908711
2016-05-19,-1,-0.0009864448665751141,-0.0007555690435017833,0.0006286329315110504,0.0076615373445747675,0.992250886823676
2016-05-23,-1,-0.0008731089279118253,-0.0006720203588661425,0.0006959165790299801,0.0076615373445747675,0.9924858731734211
2016-05-25,-1,-0.0006447872699655691,-0.0004346945631212213,-0.0005813020963008589,0.006928328783508719,0.9929191031781746
2016-05-27,-1,-0.00029868969421612587,-0.00012363614748386707,-0.0005813020963008589,0.007939252334703318,0.99227459118098
2016-06-01,0,-0.00013366904030414153,6.580287686250655e-05,-0.0008382876295923109,0.007939252334703318,0.9929170551090757
2016-06-03,1,0.0007509847648505808,0.0008445293402904635,-0.0015061521073770048,0.007939252334703318,0.9933107878596729
2016-06-07,1,0.00054893608247954,0.0006888978800651962,-0.0024049645740134226,0.009980387240156863,0.9929701397320337
2016-06-09,1,0.001559098484233474,0.001568458934113559,-0.0033501864229253404,0.008573829448344342,0.9919981950496908
2016-06-13,1,0.0003191521455665516,0.0005176975934109763,-0.0024179980001954515,0.008573829448344342,0.9913765859469458
2016-06-15,1,0.00044098120343170406,0.0005844950169603097,-0.0024179980001954515,0.010024898426084401,0.9913354599371299
2016-06-17,1,0.0003656228579471606,0.0005346729529474266,-0.0024179980001954515,0.010024898426084401,0.9913535130232347
2016-06-21,1,0.0005217268555535254,0.0006498541830435952,-0.0024179980001954515,0.010024898426084401,0.9914356667853034
2016-06-23,1,0.0009708492516211203,0.001022677480090268,-0.0022064524993722,0.012005869552270985,0.9912228333803519
2016-06-27,1,0.0023716658673642523,0.00254992182313687,-0.0024179980001954515,0.005764696205135995,0.9917358696167153
2016-06-29,1,0.002199445567885537,0.0023375216455580345,-0.004178475925406711,0.010024898426084401,0.9906178324298464
2016-07-01,1,0.0027396521843023143,0.002958463262400346,-0.0035829397014830447,0.007794249844572943,0.9912132171146447
2016-07-06,1,0.002727873711860327,0.0028717542541175757,-0.007484862565284824,0.005227726695187234,0.9913301075020889
2016-07-08,1,0.002191669595030248,0.0022588556787981858,-0.007484862565284824,0.004182711770545033,0.9922753031676615
2016-07-12,1,0.0008818126344126919,0.0009697242604525113,-0.003949964303011707,0.004182711770545033,0.9938366255854268
2016-07-14,1,0.0008379879875868578,0.0009313364871024799,-0.001834253355863691,0.0038085701065584533,0.9946137446968023
2016-07-18,1,0.0013148678691533736,0.0013249799118769017,-0.003949964303011707,0.0036057392519878427,0.9937640238848751
2016-07-20,1,0.0007388360498511292,0.0008344495732706464,-0.007484862565284824,0.0039314024548350816,0.992157857549386
2016-07-22,1,0.0013394572596373065,0.0013790023874967335,-0.009548616862781897,0.0036057392519878427,0.9913374824570456
2016-07-26,1,0.0010796604960007072,0.0011306576590324419,-0.013389341767128329,0.004338410224754996,0.9909117337757383
2016-07-28,1,0.0010479100247337279,0.0010791844702537237,-0.008765104200066967,0.004338410224754996,0.9920661851432272
2016-08-01,1,0.00159447236655364,0.0016663836556651682,-0.013389341767128329,0.004338410224754996,0.9907000098644697
2016-08-03,1,0.0013457410050986395,0.0013746688422407703,-0.013389341767128329,0.0042193491420877026,0.9906100863919244
2016-08-05,1,0.0006209617086850658,0.0006687199510634933,-0.011237779586454602,0.006189625957961067,0.9905881463368412
2016-08-09,1,0.0007011962976953318,0.0007033666900586266,-0.011237779586454602,0.0068412331982856435,0.9899044892420052
2016-08-11,1,0.0005248505862366951,0.0005693055401030796,-0.013389341767128329,0.0068412331982856435,0.987689968602291
2016-08-15,1,0.00014983829671587372,0.0002280262493148839,-0.011237779586454602,0.01011069516511497,0.9873847673461537
2016-08-17,1,0.00011565238642507263,0.00019211096804240375,-0.00963895570154617,0.009189326748829224,0.9884736563758307
2016-08-19,1,0.0003589485157297192,0.00038244922112635197,-0.007853387370323992,0.009297835470887226,0.9890577770223298
2016-08-23,1,0.00039528547470433063,0.00040621609050442594,-0.004153405153209906,0.011082546106638525,0.9888565155814181
2016-08-25,1,4.706595123157948e-05,0.00011360217595939332,-0.004153405153209906,0.011082546106638525,0.9886185955644883
2016-08-29,-1,-0.0007309618090457426,-0.0005679213833427667,-0.004153405153209906,0.011082546106638525,0.9891081159012971
2016-08-31,-1,-0.0012444990527833975,-0.0010128742165027506,-0.007325917399337,0.011082546106638525,0.9887200065648433
2016-09-02,-1,-0.0010572772470512296,-0.000841090624290077,-0.010287344722173065,0.009297835470887226,0.988582612160969
2016-09-07,-1,-0.0001307718183436948,-3.1899753634715886e-05,-0.013348169979066783,0.0075014640435785524,0.9883704999850308
2016-09-09,-1,-0.0023497476127465173,-0.0019879040244925113,-0.010287344722173065,0.0075014640435785524,0.9904907305867628
2016-09-13,-1,-0.0037411933190789034,-0.0030820576945541616,-0.013348169979066783,0.0075014640435785524,0.9906192340409331
2016-09-15,-1,-0.003100623143625284,-0.0025189648768390452,-0.013348169979066783,0.008509242655230563,0.9902568297028119
2016-09-19,-1,-0.002218828424322334,-0.0017486000584516633,-0.013348169979066783,0.006631985513276975,0.9908104626458705
2016-09-21,-1,-0.0009110346089925822,-0.0006273041402357597,-0.013348169979066783,0.0050494613371278325,0.9915002076650842
2016-09-23,-1,-0.00040626893519649034,-0.00020252185290944706,-0.013348169979066783,0.00394692343570729,0.9915314424041584
2016-09-27,-1,-0.0005866432887398429,-0.00039350882538576764,-0.008809494654281054,0.0050494613371278325,0.9920065353975599
2016-09-29,-1,-0.0014801625537348775,-0.0011958081934566604,-0.008305974800263722,0.0050494613371278325,0.9923909989916782
2016-10-03,-1,-0.0025346458011540826,-0.0021392540864006793,-0.0047408891739100095,0.006554768527209008,0.9920747341753573
2016-10-05,-1,-0.0035681344289354945,-0.0030621499798965304,-0.006770008388236408,0.006554768527209008,0.991778618496797
2016-10-07,-1,-0.004393371004569547,-0.003742726902223153,-0.006990160387570053,0.006554768527209008,0.9912145836143804
2016-10-11,-1,-0.0047781532058634646,-0.004067924036828658,-0.006770008388236408,0.0071571410873920785,0.9896112940915106
2016-10-13,-1,-0.004115923944620409,-0.0035276767839535145,-0.008197043297550728,0.005877361467291228,0.9878284383778914
2016-10-17,-1,-0.0035097479621835105,-0.0030174018227783553,-0.008197043297550728,0.004844684469403139,0.9881619839807623
2016-10-19,-1,-0.0031190522281095085,-0.002686673695040539,-0.008197043297550728,0.005940437924034928,0.9875723032985411
2016-10-21,-1,-0.003049886138046377,-0.002648776445742184,-0.008197043297550728,0.005940437924034928,0.9876551443641021
2016-10-25,-1,-0.002032904435083564,-0.001791432646815589,-0.008197043297550728,0.006347650993139877,0.9874174999673725
2016-10-27,-1,-0.0022269988380923403,-0.001978808543244324,-0.007886849007544038,0.009870190716405667,0.9867874724029023
2016-10-31,-1,-0.0005601060833490567,-0.0005511331239497002,-0.007886849007544038,0.009870190716405667,0.9869641416356275
2016-11-02,-1,-0.001978238607499332,-0.0017783832584061365,-0.007886849007544038,0.009870190716405667,0.9860172722081414
2016-11-04,-1,-0.0020875610386418427,-0.001872335713126714,-0.007626659818275875,0.013728613765160092,0.9855398159207006
2016-11-08,-1,-0.00033147090849934373,-0.0003308233547342123,-0.007626659818275875,0.008981961423743228,0.9874001742216765
2016-11-10,-1,-0.0035149373221865215,-0.0031553739812618343,-0.003934108316577258,0.010729283570588544,0.9897305500561591
2016-11-14,-1,-0.0034776714575253994,-0.0031132227061846695,-0.001803831886128032,0.010729283570588544,0.9888961650290738
2016-11-16,-1,-0.0026956277158190402,-0.002481628590679798,-0.001803831886128032,0.010663079549845232,0.9885309878291914
2016-11-18,-1,-0.0025362233423466348,-0.0023335727764578896,2.307194068388533e-06,0.010729283570588544,0.9876261072565586
2016-11-22,-1,-0.0015251011421070029,-0.0014728260393594593,-0.0013445160379607097,0.010729283570588544,0.9887626050899231
2016-11-25,-1,-0.0009478342020585419,-0.0009039207767323083,2.307194068388533e-06,0.010663079549845232,0.9900624716556753
2016-11-29,-1,-0.00014647168703555644,-4.286704281763706e-06,-0.0013445160379607097,0.010400675970423615,0.990979436922199
2016-12-01,-1,-0.0024853628509580892,-0.0022852634480562614,2.307194068388533e-06,0.010663079549845232,0.9907665853632143
2016-12-05,-1,-0.0016982985675809427,-0.001592771139770268,2.307194068388533e-06,0.010400675970423615,0.9915948266724577
2016-12-07,-1,-0.0010002864379462042,-0.000992203520057435,-0.0017102066904798137,0.008626146574341912,0.9922234773465757
2016-12-09,-1,-0.0005637480476768421,-0.000510243229979912,-0.004146411799090011,0.006563424348390209,0.9922895237693624
2016-12-13,1,0.0005410161497351127,0.0007887835835688531,-0.004146411799090011,0.004706585098067368,0.9926616181479688
2016-12-15,1,1.5107293959329524e-05,0.00018647460033130068,-0.003244967779156179,0.004706585098067368,0.9937105607873279
2016-12-19,1,0.0006305575746522453,0.0008836298424902044,-0.005151107789592187,0.0033124105280206684,0.9940627665025038
2016-12-21,1,0.0008028975754550472,0.0010983887197674636,-0.007925175848250863,0.0033124105280206684,0.9937064586623486
2016-12-23,1,0.0007685941751901528,0.0010625471784887078,-0.007925175848250863,0.002533933436200973,0.9935517689996455
2016-12-28,1,0.00023712838187589015,0.00042410774829937576,-0.005151107789592187,0.0017563636993190974,0.9942945449916485
2016-12-30,1,0.0005866503774303797,0.0008150953774539861,-0.0030491405938270475,0.0017563636993190974,0.9943489342097058
2017-01-04,1,0.0009417219221961803,0.0012319896154096132,-0.005220843788449367,0.0017563636993190974,0.9929114559585225
2017-01-06,1,0.0005334317429310472,0.0007394206131851386,-0.004235337320716567,0.003343263358453076,0.9929722112944203
2017-01-10,1,2.5663242746125543e-05,0.000164773484246149,-0.003044365110846451,0.007267478173148156,0.9932166684073844
2017-01-12,1,0.00043585628775621066,0.0006276612318572314,-0.004235337320716567,0.005917032933596719,0.9930852917484093
2017-01-17,1,0.0004756624495642224,0.0006619538893147551,-0.005278761700644384,0.004182508120391967,0.9930456549202787
2017-01-19,1,0.0002482925261975693,0.00042077913463248217,-0.0036458524265864803,0.006249373472901054,0.9930277656695442
2017-01-23,-1,-0.00020212330995782564,-0.0001247695443310248,-0.002483005057894225,0.008496158832867964,0.9928550664572487
2017-01-25,-1,-0.00038650532223664995,-0.00035077020352889754,-0.0020806271475285612,0.00920818196794022,0.9920576888261625
2017-01-27,-1,-0.00019890926654469253,-0.00011934326148079838,-0.0036458524265864803,0.009541715491392612,0.9911997985468334
2017-01-31,1,0.0009182781884885335,0.00118555856047927,-0.005278761700644384,0.009541715491392612,0.9916994853931118
2017-02-02,-1,-5.8375882329786825e-05,-2.7082673572477616e-05,-0.0036458524265864803,0.00920818196794022,0.9925568500572417
2017-02-06,1,0.00018178894961653287,0.0002592129754316781,-0.0020092603789005205,0.00920818196794022,0.993133948700892
2017-02-08,1,0.0009209732723556292,0.0011281382420410629,-0.004694052289494894,0.006591328465686013,0.9926468458770977
2017-02-10,1,0.0010071489079760258,0.0012760420205255164,-0.0026210107142592047,0.00836830708617009,0.9931417091714944
2017-02-14,1,0.001289439246994018,0.0016456989796540973,-0.001732614187141372,0.009490577462437068,0.9929163170674801
2017-02-16,1,0.0017128631826910216,0.002137054056588966,-0.001732614187141372,0.009514164043720385,0.9926638218469038
2017-02-21,1,0.0020115453592343285,0.0024565854048773507,-0.004291186992556045,0.010609690847030229,0.9918757967029376
2017-02-23,1,0.0022533586181451713,0.002691248617747472,-0.004291186992556045,0.008691335171602102,0.9924824764902411
2017-02-27,1,0.0017081775245641204,0.0020135916880841074,-0.001732614187141372,0.006918054395729665,0.9931289485841653
2017-03-01,1,0.001219828334591957,0.0014056011907060033,-0.001732614187141372,0.004894018655057323,0.9937883836186727
2017-03-03,1,0.001162938124823445,0.001328046707537357,-0.0026306524632586604,0.004351006386042943,0.9934782662455125
2017-03-07,1,0.0011312382227240479,0.0012818787047525551,-0.0026306524632586604,0.0066626622450936665,0.9932316453485005
2017-03-09,1,0.0006877481648397606,0.0008232104909777235,-0.0014359232268419272,0.0066626622450936665,0.9941854073261571
2017-03-13,1,0.0010496269197901743,0.0012312973430411009,-0.0029359223107104566,0.003954075537584428,0.9944727054591307
2017-03-15,1,0.0017461631811670625,0.002023477150778877,-0.0029359223107104566,0.0032657013987457345,0.9950551761354846
2017-03-17,1,0.0016174547403083755,0.0018656729993146428,-0.0029359223107104566,0.0032657013987457345,0.9955310755605264
2017-03-21,1,0.0018710589147453648,0.002167410417218124,-0.0029359223107104566,0.0032657013987457345,0.9960418970527047
2017-03-23,1,0.0017695987924446293,0.0020291290864014044,-0.0029359223107104566,0.005099955168291221,0.9956847191536353
2017-03-27,1,0.002383739197896949,0.002777656383753783,-0.0029359223107104566,0.0032657013987457345,0.9957073223180231
2017-03-29,1,0.0017365185506603995,0.001983738315073936,-0.0031294961707261032,0.005099955168291221,0.9951846799768974
2017-03-31,1,0.0013311455596702695,0.0015161634549399265,-0.004596645813594004,0.005099955168291221,0.9949220914193542
2017-04-04,1,0.0020813228187165963,0.002356536195112743,-0.004596645813594004,0.005099955168291221,0.994616605518942
2017-04-06,1,0.0005570740480531418,0.0006590072725375058,-0.004596645813594004,0.0060514490635481385,0.994217283692796
2017-04-10,1,0.0002608272629105467,0.0003873228679452504,-0.005881336398352295,0.0060514490635481385,0.9938500504381087
2017-04-12,1,0.0004805474850197582,0.0005613012339412457,-0.005881336398352295,0.0060514490635481385,0.9937907868215456
2017-04-17,1,0.00023899094018704092,0.0003587493890030501,-0.0055455804783266175,0.005508004872714391,0.9940687425727154
2017-04-19,1,0.00032012919531686923,0.00041575451761402733,-0.0055455804783266175,0.005508004872714391,0.9940044797866165
2017-04-21,1,0.0004960647646136342,0.0005606007790845074,-0.0055455804783266175,0.005118462676732996,0.9940465891446918
2017-04-25,1,0.0009823619022286797,0.0009989194217635237,-0.0055455804783266175,0.006082904901133713,0.9928540775833046
2017-04-27,-1,-0.00038789318449319974,-0.0001661898324536729,-0.0038555761198019022,0.006616841271575367,0.9931042322564664
2017-05-01,-1,-0.000745122994492691,-0.0004973428556780049,-0.003101744849602827,0.006616841271575367,0.9934227177866022
2017-05-03,-1,-0.00039048029010236695,-0.00020120331283360923,-0.0020775297566062744,0.00552104679235512,0.9937999881475009
2017-05-05,1,0.0006267981252929618,0.0006791857735696542,-0.0034128708292656845,0.005182379125266989,0.9943926736229516
2017-05-09,1,0.0004605669224240122,0.0004928939505210596,-0.0020775297566062744,0.005182379125266989,0.9946255885857347
2017-05-11,1,3.628354290781329e-05,0.00015781153875198394,-0.0023991207011791918,0.005182379125266989,0.9943743062243672
2017-05-15,1,0.0007433046580915929,0.0007596929372936567,-0.0027166633692175,0.005069280453346231,0.994666545856097
2017-05-17,1,0.00042172182036918937,0.0004444665771798518,-0.0018637505032927332,0.005069280453346231,0.9949770540472364
2017-05-19,1,0.0005633265053296507,0.0005644038572370934,-0.0027166633692175,0.0057892897662539175,0.9943480432695628
2017-05-23,1,0.0013578623002856536,0.0014411011702830162,-0.0027166633692175,0.004094716702238416,0.9956425066581781
2017-05-25,1,0.0019874252715510066,0.002169513571994469,-0.004377643662984437,0.0028991873621072592,0.9956289843706022
2017-05-30,1,0.001927929730727502,0.0021134061116457456,-0.004377643662984437,0.003678038158505606,0.995053820842774
2017-06-01,1,0.0018179420592087363,0.0019623041164918923,-0.005287867899301339,0.0027086536670969147,0.9942625833113791
2017-06-05,1,0.0015776091468872994,0.0016428650838740547,-0.006934229017500776,0.0020587913589382,0.9939220019640049
2017-06-07,1,0.0015985013549623475,0.001686130731553955,-0.006934229017500776,0.0006675894289522616,0.9938722018715863
2017-06-09,1,0.0012864458326617607,0.0013319060890962004,-0.006290372541025175,0.001242058080070271,0.9942990524635189
2017-06-13,1,0.0009002466143538541,0.0009281179476051814,-0.006290372541025175,0.0013576423801596514,0.9943587133886889
2017-06-15,1,0.0009524388743807402,0.0009859095716135743,-0.006290372541025175,0.0008208185954703863,0.9942598725217238
2017-06-19,1,0.0008425375466224258,0.0008960693876787623,-0.005287867899301339,0.0016907050269781266,0.995003385387581
2017-06-21,1,0.000612498305055008,0.0006976899235388857,-0.005287867899301339,0.004367698258300062,0.9944058424830995
2017-06-23,1,0.0005971667443924722,0.0006547853155537492,-0.006290372541025175,0.005543862803290759,0.9937806409609926
2017-06-27,1,6.484349198074453e-05,0.0001951041443547967,-0.006290372541025175,0.005606552960496598,0.9940391956411099
2017-06-29,-1,-0.000551110745524389,-0.00036571614076748413,-0.004428861364950003,0.005606552960496598,0.9943914657288142
2017-07-03,-1,-0.0008651880615358253,-0.000662551617210034,-0.003509440974893345,0.006361889459049783,0.9944927657264941
2017-07-06,-1,-0.0013009773267045027,-0.001032705366664191,-0.003509440974893345,0.006361889459049783,0.9941571051901819
2017-07-10,-1,-0.0015400921240892808,-0.001227504006661348,-0.0008563701572500951,0.006361889459049783,0.9939473314956638
2017-07-12,-1,-0.0012133102203910184,-0.0009610589570356942,-0.0019389063684270387,0.0062869172081109845,0.9941705529991629
2017-07-14,-1,-0.0008988462056384276,-0.0007058353036746035,-0.0019389063684270387,0.005852652619348491,0.9942901903117298
2017-07-18,-1,-0.000370766999013886,-0.0002858402236556862,-0.0019389063684270387,0.00708181547912186,0.9941699008462956
2017-07-20,1,0.00025373226329992755,0.00027733756997769444,-0.0041304972694893236,0.006075988873612714,0.9946547968586703
2017-07-24,1,6.877194108437907e-05,0.00011659316338902734,-0.0019389063684270387,0.006075988873612714,0.9949885906970428
2017-07-26,1,0.00011340772757182353,0.0001520607409516138,-0.0003608454037256479,0.006847545137170053,0.9950403893381093
2017-07-28,-1,-0.00033400828175054293,-0.0002552128341493464,0.00017495896040867638,0.006847545137170053,0.9951235657328481
2017-08-01,-1,-0.0006878183897677036,-0.0005226193955311146,-0.00011606578988846705,0.006016765191113844,0.9951881836864781
2017-08-03,-1,-0.00022851564956742442,-0.00013637895477580355,-0.0008868936672713684,0.006016765191113844,0.9953828669515843
2017-08-07,1,0.00039026297168614284,0.000408783668938785,-0.0019544131992919574,0.006847545137170053,0.9951020704053873
2017-08-09,1,0.0005390887322301832,0.0005736422320416119,-0.0036100271796371203,0.006904144431625248,0.9947807901372674
2017-08-11,1,0.0005018337467643443,0.0005234044482917991,-0.0013979252516607339,0.007325500607408997,0.994526102755628
2017-08-15,1,0.0009863001475900164,0.0010767163488682137,-0.0046668910743393735,0.0069780316765468,0.9937938108075703
2017-08-17,1,0.000922815257558568,0.0010145240250753586,-0.0036100271796371203,0.007657083966081047,0.9937888343797695
2017-08-21,1,0.0013637697458582483,0.0015068884708912648,-0.0046668910743393735,0.0069780316765468,0.9938463072644248
2017-08-23,1,0.0016294388208890741,0.0017837008947360798,-0.006805488788667452,0.005070909407907383,0.9936128601788167
2017-08-25,1,0.0015683043637019375,0.0017247825891315482,-0.007069258320096258,0.006187594505836225,0.9929644212040444
2017-08-29,1,0.0016513922286369117,0.0018154084292087702,-0.007379835845193561,0.006187594505836225,0.9922485419273229
2017-08-31,1,0.001200868906771341,0.0012927582173266798,-0.007379835845193561,0.006187594505836225,0.9926055217966288
2017-09-05,1,0.0013549714363065856,0.0014738254874273244,-0.007379835845193561,0.003561443568499031,0.9927895094421316
2017-09-07,1,0.0013006193153170696,0.001408496849254851,-0.007224638924241413,0.003561443568499031,0.9928316715806572
2017-09-11,1,0.0017273892657673883,0.0018844089589999291,-0.007224638924241413,0.0011234800604159518,0.9931520131017296
2017-09-13,1,0.0007515212957104097,0.0007849787293936605,-0.0036602485085325542,0.004053947220083643,0.9943012226522834
2017-09-15,1,0.0010875642480143175,0.0011644172532436219,-0.0036602485085325542,0.004053947220083643,0.9944426743654046
2017-09-19,1,0.0005160258961933597,0.0005264936740418824,-0.0023808090327680125,0.00745532195561636,0.9946126307013392
2017-09-21,-1,-0.0004506471650626423,-0.0002929935223327048,-0.0012391975063768155,0.007719486051027797,0.9943736735911829
2017-09-25,-1,-0.0002211311972034401,-9.713573288872571e-05,-0.0012391975063768155,0.00745532195561636,0.9953126831248111
2017-09-27,-1,-0.0005264296330767834,-0.000404304973192108,-0.001605726313762351,0.00745532195561636,0.9954363764600532
2017-09-29,-1,-0.0008805191658368608,-0.0006883526375242566,-0.0012391975063768155,0.007719486051027797,0.9950161425595003
2017-10-03,-1,-0.0011764068226505324,-0.0009352035657302529,-0.0012391975063768155,0.007719486051027797,0.9944912660453114
2017-10-05,-1,-0.0004886662886949147,-0.00034436277642999915,-0.001605726313762351,0.00745532195561636,0.9952367634031802
2017-10-09,-1,-0.0005868154866630792,-0.0004197217137986807,-0.0028075746171489268,0.007719486051027797,0.9942189089123963
