JNU-Tangyin/eata/results/Batch4_SP500/Batch4_SP500-ICE.csv
Date,Action,Predicted_Q25,Predicted_Q75,Actual_Q25,Actual_Q75,RL_Reward
2010-12-14,0,0.0,0.0015695258716876838,-0.0038065292131671314,0.004102616589739542,0.9930501105607735
2010-12-16,1,0.0033472056869977766,0.0038363869451561346,-0.0038065292131671314,0.004102616589739542,0.9914751127055734
2010-12-20,0,0.0,0.0,-0.005184821965067664,0.0033645183035127396,0.9927976500141948
2010-12-22,0,0.0,0.0,-0.005184821965067664,0.0015140211105259468,0.9929239006140683
2010-12-27,0,0.0,0.0,-0.008989549723557672,0.0009321683243030357,0.9927733242830038
2010-12-29,0,0.0,0.0,-0.005489467256413998,0.0024687520384977747,0.9918004885932563
2010-12-31,0,0.0,0.0,-0.00845804347542628,0.005218797515007596,0.9901923974427574
2011-01-04,0,0.0,0.0,-0.008227172415839402,0.00759792797183677,0.9898756563588557
2011-01-06,0,0.0,0.0,-0.008122845416537478,0.008424304251052402,0.9904493451690637
2011-01-10,-1,-0.0007574290016763947,-0.00019079971937172816,-0.008667020361343383,0.008424304251052402,0.9900966419056499
2011-01-12,-1,-0.0028722724504834916,-0.0020095420593045244,-0.008122845416537478,0.009098151629681498,0.9874261914886988
2011-01-14,-1,-0.0010762336828944433,-0.00043157433083111565,-0.008122845416537478,0.01030482569805278,0.987424399200816
2011-01-19,-1,-0.0009498550805373998,-0.0003684280845336037,-0.008122845416537478,0.01030482569805278,0.9863017564027039
2011-01-21,-1,-0.0015585005041274082,-0.0008226878971893639,-0.008667020361343383,0.01030482569805278,0.9857501339914443
2011-01-25,-1,-0.0026259913463184165,-0.0020089213874568902,-0.008667020361343383,0.01030482569805278,0.9841108293198182
2011-01-27,-1,-0.0009726079642296331,-0.0006096238841171268,-0.008667020361343383,0.01030482569805278,0.9839500053058373
2011-01-31,1,0.00040557089393554273,0.0005744491277972098,-0.008680237818112954,0.00958462919265473,0.9851030966572211
2011-02-02,1,0.00048374135832068615,0.0006187021091116603,-0.00856709918096465,0.010884857307392236,0.9850363566321237
2011-02-04,1,0.0005835902067633864,0.0006921466534057013,-0.002518927727234664,0.013646518331133855,0.9840259174600338
2011-02-08,0,0.0,0.0,-0.007886315533036798,0.013646518331133855,0.9832324852964102
2011-02-10,0,0.0,0.0,-0.012270756578946662,0.009287278642746801,0.98552495493746
2011-02-14,0,0.0,0.0,-0.012270756578946662,0.00823088908697843,0.985222101597375
2011-02-16,0,0.0,0.0,-0.011753015559792478,0.00852334980672756,0.9862548413798916
2011-02-18,0,0.0,0.0,-0.010539744384636375,0.00810218687609495,0.9868877615395606
2011-02-23,1,0.00040330746262801846,0.0006150107524015065,-0.008973514939952095,0.010168232407477594,0.988447188662885
2011-02-25,1,0.0020212797025689305,0.002036975825995538,-0.008973514939952095,0.007001294057012986,0.9899391298068574
2011-03-01,1,0.0025262441480659887,0.002674815847960999,-0.010539744384636375,0.005493040877811151,0.9900269886686581
2011-03-03,0,0.0,0.0,-0.011269581332026199,0.0043895582971638794,0.9894084558904735
2011-03-07,0,0.0,0.0,-0.011753015559792478,0.0036174593977448813,0.9895303021937966
2011-03-09,0,0.0,0.0,-0.011269581332026199,0.0043895582971638794,0.989445522444839
2011-03-11,0,0.0,0.0,-0.010396388829068997,0.0043895582971638794,0.9905019523512328
2011-03-15,0,0.0,0.0,-0.0076824661404235805,0.0043895582971638794,0.9915465488794544
2011-03-17,0,0.0,0.0,-0.0076824661404235805,0.0043895582971638794,0.9918327837042966
2011-03-21,1,0.0010846972870225734,0.0010957153443683285,-0.009858175764064381,0.0054796068483623965,0.9907000393174673
2011-03-23,1,0.0018510989569601112,0.0019668787961813405,-0.009858175764064381,0.0054796068483623965,0.9904277224604573
2011-03-25,1,0.0019548797538093275,0.00207120057443668,-0.009858175764064381,0.006333190953279199,0.9898835211476017
2011-03-29,1,0.0007263521444907804,0.0008088769544803919,-0.0076824661404235805,0.006333190953279199,0.9908052614254464
2011-03-31,1,0.0008024197131581486,0.0008288319798751412,-0.005329358319993956,0.006333190953279199,0.9911528160526653
2011-04-04,-1,-0.0016462064352794448,-0.0013357579761971313,-0.006818630665929689,0.006333190953279199,0.9917653789021401
2011-04-06,-1,-0.00037335712839327404,-0.00019993743195527956,-0.013226377757214504,0.001694112159100793,0.9921798303913467
2011-04-08,-1,-0.0016093116894828772,-0.001261083570548075,-0.00842267504045572,0.007206225372397477,0.990949075279964
2011-04-12,-1,-0.0021975923155673313,-0.0017426420950310355,-0.00842267504045572,0.011110621259002716,0.9903554902802008
2011-04-14,-1,-0.0014583121545655151,-0.0011503031069851255,-0.013226377757214504,0.011110621259002716,0.9901559203584537
2011-04-18,-1,-0.0026498405496813236,-0.0021382430175230158,-0.013226377757214504,0.011110621259002716,0.9893852670228989
2011-04-20,-1,-0.0020875583694966557,-0.0016651791706806334,-0.013226377757214504,0.011151591225723297,0.9889609537417174
2011-04-25,-1,-0.001777349635264315,-0.0013793735800890722,-0.013690556433580869,0.005777914733503253,0.988850985479757
2011-04-27,0,-2.9653657776085453e-05,1.1403383920863768e-05,-0.013690556433580869,0.008691980553466226,0.9884255516858214
2011-04-29,-1,-0.0012272514724774959,-0.0009989902691595835,-0.013690556433580869,0.008691980553466226,0.9886311785057397
2011-05-03,-1,-0.0028253681248902782,-0.002412087148858076,-0.010895468719813473,0.011151591225723297,0.9879975002392432
2011-05-05,-1,-0.003927318633875842,-0.0033762493069362572,-0.010895468719813473,0.011151591225723297,0.9875749097795935
2011-05-09,-1,-0.0021529775692672127,-0.0017853973536250088,-0.01381473996376885,0.00679617239739271,0.9892174712284245
2011-05-11,0,0.0,0.0,-0.01381473996376885,0.00679617239739271,0.9876411217372095
2011-05-13,-1,-0.0008187492263467945,-0.000690938736434618,-0.010895468719813473,0.00679617239739271,0.9881321842755575
2011-05-17,1,3.637405674481193e-05,4.947656709429835e-05,-0.010895468719813473,0.00679617239739271,0.9883572971465139
2011-05-19,-1,-0.00020601300500264823,-0.00015260119878278002,-0.010895468719813473,0.00679617239739271,0.9886970442959292
2011-05-23,-1,-0.0006425876877190738,-0.0005308865955187094,-0.00840434228596085,0.009509001790169006,0.987924050891085
2011-05-25,-1,-0.0005809324906369805,-0.00046450285756526944,-0.011162188259387433,0.009509001790169006,0.987393990018381
2011-05-27,-1,-0.0014336795149083757,-0.0011995527419318276,-0.010331291644840718,0.012713243547399958,0.9868870579504145
2011-06-01,-1,-0.0029112254188696906,-0.002450656891729298,-0.00812737674777861,0.01458139427044466,0.9873595061097395
2011-06-03,-1,-0.0033299981400180707,-0.002813531124210409,-0.00618675865406284,0.015894471967084534,0.9868784525813593
2011-06-07,-1,-0.0036847152427490534,-0.0031466491944951366,-0.005373914206002734,0.015894471967084534,0.9867439215298166
2011-06-09,-1,-0.0025229717152741673,-0.0021356819686584746,-0.005939229872532625,0.01458139427044466,0.9878064276886415
2011-06-13,-1,-0.002877766498029867,-0.002438950447412669,-0.00613037237939403,0.01458139427044466,0.9872049924242299
2011-06-15,-1,-0.002534363282655736,-0.002149934970940716,-0.0032614906041916365,0.013750127379039447,0.9887181987972258
2011-06-17,-1,-0.0022828805751488805,-0.0019090836298249704,-0.00613037237939403,0.013750127379039447,0.9885019793467562
2011-06-21,-1,-0.0005902237523902718,-0.0004503606099974347,-0.008700804268362825,0.013430746995861267,0.989240918047622
2011-06-23,-1,-0.000907324214532465,-0.0007694577339660152,-0.00613037237939403,0.014099387168217693,0.9891894876749125
2011-06-27,-1,-0.0006667628734879016,-0.0005543545594826674,-0.007405768252250452,0.013430746995861267,0.9896135499453128
2011-06-29,1,0.00036157556317989215,0.0003705176707720575,-0.009109835425026627,0.011760219001424184,0.9896330292177336
2011-07-01,0,0.0,0.0,-0.009801996136692161,0.007703774707629309,0.9901534212876085
2011-07-06,0,0.0,0.0,-0.012153926195540357,0.004764605687081987,0.9889366218297483
2011-07-08,1,0.0055285627261652155,0.005896403147145943,-0.013874862511326282,0.004098348992918785,0.984720534071286
2011-07-12,1,0.0015563627659240932,0.0018258502170483137,-0.013874862511326282,0.004764605687081987,0.9809419038805143
2011-07-14,1,0.0016036533085887852,0.0018694791314273046,-0.019239309659407417,0.0060846523377063476,0.9768341779135759
2011-07-18,1,0.0009069773618966737,0.0010180165430863902,-0.019239309659407417,0.006541752844651599,0.9766996495188837
2011-07-20,1,0.0013684248391579146,0.001580314907617689,-0.02496313920456856,0.004098348992918785,0.9754554506233574
2011-07-22,1,0.0019894988351240738,0.00230828612316756,-0.02614293365697558,-0.002000182940279014,0.973091584175108
2011-07-26,0,0.0,0.0,-0.02614293365697558,0.006000646064663115,0.9723223185516833
2011-07-28,0,0.0,0.0,-0.0256883749795939,0.011461142553363453,0.9721680354240764
2011-08-01,0,0.0,0.0,-0.0256883749795939,0.014314617212615594,0.9701082122122981
2011-08-03,0,0.0,0.0,-0.022864194376315927,0.015425036054355233,0.9712935578120956
2011-08-05,0,0.0,0.0,-0.02323810710858687,0.015425036054355233,0.9718813947794803
2011-08-09,0,0.0,0.0,-0.021592083220975906,0.015425036054355233,0.9768213143269631
2011-08-11,0,0.0,0.0,-0.0195288713138856,0.013862456301196613,0.9801888657917263
2011-08-15,0,0.0,0.0,-0.0195288713138856,0.015425036054355233,0.9797167676953117
2011-08-17,0,0.0,0.0,-0.009579382603074189,0.01920495081434799,0.9800764044065461
2011-08-19,0,0.0,0.0,-0.00657103050229554,0.01920495081434799,0.98141315590761
2011-08-23,0,0.0,0.0,-0.006825198021991153,0.015425036054355233,0.9839205398338242
2011-08-25,0,0.0,0.0,-0.004332668115979174,0.015425036054355233,0.9851566438868044
2011-08-29,0,0.0,0.0,-0.004332668115979174,0.013178769890160915,0.9870675820115067
2011-08-31,0,0.0,0.0,-0.00932510156947245,0.011770944741524944,0.9865637523965652
2011-09-02,0,0.0,0.0,-0.005259624070596475,0.011770944741524944,0.9870347127565599
2011-09-07,0,0.0,0.0,-0.005259624070596475,0.013290889112594071,0.9867658229025578
2011-09-09,0,0.0,0.0,-0.005259624070596475,0.015599583828970306,0.985397761723314
2011-09-13,0,0.0,0.0,-0.00932510156947245,0.015599583828970306,0.9845068639199449
2011-09-15,1,0.0021196271453568574,0.0026548071106734057,-0.013336084782081266,0.015599583828970306,0.9848630939765164
2011-09-19,1,0.0016251157839843652,0.0020860201291652038,-0.013494592614094521,0.015599583828970306,0.9852116407073928
2011-09-21,1,0.001125169804958306,0.001275801970054077,-0.014539883938536355,0.016639475518846578,0.9839164122479517
2011-09-23,1,0.0007178757105103339,0.0007623330702869084,-0.014539883938536355,0.018448587794628817,0.982825337198733
2011-09-27,1,0.0007073913765250796,0.0007401106588920906,-0.018358098192741597,0.018448587794628817,0.9814002372242726
2011-09-29,1,0.0009915787882599494,0.0012788286260077266,-0.014539883938536355,0.019594338827440168,0.9798859310069856
2011-10-03,-1,-0.0007475469533624931,-0.0006941869164607692,-0.014539883938536355,0.019594338827440168,0.9801735683153563
2011-10-05,1,0.0007483265242029724,0.0008575828457164938,-0.017909928521488375,0.018448587794628817,0.9799079706526247
2011-10-07,1,0.0005841778632245493,0.0006811350349790043,-0.014539883938536355,0.018713768708841345,0.9801655494574115
2011-10-11,1,0.0010774161019495273,0.0012697520257360477,-0.014539883938536355,0.018286401003951045,0.9810899252006366
2011-10-13,1,1.9713465849867883e-05,0.00021808319910588477,-0.017909928521488375,0.014794892224741622,0.981096958339379
2011-10-17,1,0.00046879135873454037,0.0005664334426964425,-0.01501308984446332,0.018286401003951045,0.9805944058680206
2011-10-19,1,0.0003296048782734187,0.0003793688794203536,-0.019909349491241752,0.014926228806930123,0.980233315524159
2011-10-21,1,0.0003466560408755833,0.0003906077069910063,-0.021962217922253998,0.013147212712411415,0.9795692834750948
2011-10-25,-1,-0.0006582923572663785,-0.0005726410071005735,-0.021962217922253998,0.013583073476118345,0.9798898634076675
2011-10-27,1,0.0023686824777855225,0.0024862770409896768,-0.02254899962828249,0.005507233538292366,0.981163650239486
2011-10-31,1,0.0005890812286313966,0.0006635691906522283,-0.02254899962828249,0.0110434801774183,0.9808672472849048
2011-11-02,-1,-0.000910175923914621,-0.0007994433534477733,-0.021844353149168678,0.019096456792249958,0.9807529725894264
2011-11-04,-1,-0.0003064954825222855,-0.0002600053666930646,-0.021844353149168678,0.016233811098050915,0.981947559188726
2011-11-08,-1,-0.00027546232914571955,-0.00024292542453820977,-0.013306275493578077,0.0110434801774183,0.9833530777705398
2011-11-10,-1,-5.827232132473592e-05,-6.53035092464059e-06,-0.012557011740558599,0.01633192181835986,0.9830498975983545
2011-11-14,1,0.0001577466428446443,0.0002052981910426557,-0.02018334359613873,0.010297371947899484,0.9822472851702485
2011-11-16,-1,-0.0004578658723119549,-0.0004463563989209344,-0.018598741289161766,0.010297371947899484,0.9841732543359347
2011-11-18,-1,-0.001722229843831072,-0.0016152695952559308,-0.014076115071328587,0.010297371947899484,0.985514221102095
2011-11-22,-1,-0.00150653765326253,-0.001466794823081795,-0.011609898690909299,0.011211015885696972,0.985412952857906
2011-11-25,-1,-0.0022492918933051777,-0.002069465835262406,-0.010513342310615077,0.011211015885696972,0.9858598182177277
2011-11-29,-1,-0.0018886691683177403,-0.0017520260207881918,-0.010513342310615077,0.008410840046221753,0.9869792896950447
2011-12-01,0,-6.268790873044117e-05,9.468502273285976e-05,-0.010513342310615077,0.005726671156170702,0.9888997100562396
2011-12-05,-1,-0.00023982578120729692,-0.00012853499782200018,-0.012764167340104795,0.005726671156170702,0.9884473534384779
2011-12-07,-1,-0.0005046928032291253,-0.0003794481538316643,-0.013910557089733502,0.0047990248889371555,0.9882123999845845
2011-12-09,1,0.0003611163355824987,0.0005917778553770548,-0.013910557089733502,0.0047990248889371555,0.9882959348628624
2011-12-13,-1,-0.0004168573147823636,-0.00024323905734621753,-0.011724743779452882,0.005726671156170702,0.9891154194180302
2011-12-15,-1,-0.0003484317332353498,-0.00020740690122303092,-0.012764167340104795,0.0092166815668457,0.9867034996328248
2011-12-19,-1,-0.0008413323396489535,-0.00079318293036547,-0.011827522725955983,0.013919144579567963,0.9849084853259488
2011-12-21,-1,-0.00031743855739433806,-0.00022138125490970482,-0.011827522725955983,0.012188147470745604,0.9863653474157847
2011-12-23,-1,-0.0005585014237164341,-0.0005483484402861111,-0.012096810593358409,0.012188147470745604,0.9862535384601806
2011-12-28,-1,-0.001991525959080252,-0.0017273327207608475,-0.012096810593358409,0.012188147470745604,0.9866488484315973
2011-12-30,-1,-0.000891493974088457,-0.0008438558009142163,-0.012096810593358409,0.010107827197377333,0.9868624402247119
2012-01-04,-1,-0.00167805840306617,-0.0015793117478309885,-0.009422490267052643,0.012188147470745604,0.9858873495500182
2012-01-06,-1,-0.0017328464429532792,-0.0016341602422170563,-0.00857544557718825,0.015156198215912629,0.9852844384275573
2012-01-10,-1,-0.0026137468585936048,-0.002331030783959955,-0.008301142541313927,0.02109698625786792,0.9836818169912156
2012-01-12,-1,-0.0035105575314318795,-0.0029973222485537897,-0.005997223440327734,0.02206478883293011,0.9830306908735672
2012-01-17,-1,-0.003852056560542164,-0.003416949819626974,-0.005960761066635565,0.02206478883293011,0.9849202138876332
2012-01-19,-1,-0.0022351727608833877,-0.001958693808052311,-0.006621593586726227,0.010709878789672061,0.9875282278759632
2012-01-23,-1,-0.0014725630111166322,-0.0013856069999417732,-0.00810826173179608,0.009031189420858357,0.987724352764969
2012-01-25,-1,-0.0014747248086538363,-0.0013930217116586443,-0.006621593586726227,0.01616181959743699,0.9861429801172799
2012-01-27,-1,-0.0034670048217408274,-0.003108096574343436,-0.002770686106743206,0.01616181959743699,0.985474930780016
2012-01-31,-1,-0.002070252745899114,-0.0018662172385269483,-0.0010027574016209114,0.01616181959743699,0.9859391104263622
2012-02-02,-1,-0.0008609499873991056,-0.0007583285176842715,-0.0020776625901922675,0.013558394502457258,0.987972878406417
2012-02-06,-1,-0.0012746766350413574,-0.0011565279214904552,-0.004682239054450135,0.008809995669893038,0.9887126263470165
2012-02-08,1,0.0013741213089730735,0.0016884329226001405,-0.004682239054450135,0.008809995669893038,0.9910973954629866
2012-02-10,1,0.0019915698134944926,0.002371746174729931,-0.006621593586726227,0.005411825317456558,0.9907580794363775
2012-02-14,1,0.0014093556798102018,0.0017122838470656648,-0.00664558567546939,0.008809995669893038,0.9895468386316104
2012-02-16,1,0.0014112192501850025,0.0017920988389222273,-0.008252454638131986,0.009356944803011644,0.9888684035258376
2012-02-21,1,0.0015005220765639303,0.0019002704846112217,-0.005266006468741944,0.01024078919392879,0.9889114880565926
2012-02-23,1,0.002663662203068998,0.0031461582900882924,-0.005266006468741944,0.008324807617157261,0.9906953198126687
2012-02-27,1,0.0019083754609297314,0.0022252445372437507,-0.005266006468741944,0.008324807617157261,0.9906888931547845
2012-02-29,1,0.0016259080244274719,0.0019368961969659518,-0.007749778110933739,0.008324807617157261,0.9902852817750459
2012-03-02,1,0.0020888036543917623,0.002568918304667666,-0.007749778110933739,0.008324807617157261,0.9898373179622352
2012-03-06,1,0.0019037454568469085,0.0023646319822260555,-0.007233920769411034,0.008851474010128441,0.9899739395365772
2012-03-08,1,0.0022891441218292506,0.002827880610617371,-0.008529898019182693,0.008851474010128441,0.987857274086902
2012-03-12,1,0.0017994962646873847,0.0022474793998293846,-0.012320837762115554,0.008205748284508606,0.9873099050099843
2012-03-14,1,0.002392229904146851,0.0029151653068811584,-0.0092611515898512,0.008205748284508606,0.9885385160674854
2012-03-16,1,0.0023202055249741606,0.00289540787461892,-0.009251993076342096,0.005778885926998223,0.98865355830444
2012-03-20,1,0.002402429701195772,0.002956533981702886,-0.01300256417381691,0.005442137582858195,0.9881910930881643
2012-03-22,1,0.003369490902535418,0.0041046264266202505,-0.01300256417381691,0.005442137582858195,0.9871299675413803
2012-03-26,1,0.0029120806940744954,0.0035527960995530763,-0.01300256417381691,0.007722169645059703,0.9867990534317425
2012-03-28,1,0.002023414997241346,0.002437716809307236,-0.012374583963473747,0.00902698465467954,0.9868474666485538
2012-03-30,1,0.0026559553406914687,0.0031895086566423097,-0.012374583963473747,0.00902698465467954,0.9874226119310822
2012-04-03,1,0.0027206001116741613,0.003267610211546334,-0.013716637608977277,0.008016739622259456,0.9859660198674923
2012-04-05,1,0.0019710464088353334,0.0024262555797240565,-0.013716637608977277,0.008016739622259456,0.9874073765262071
2012-04-10,1,0.0005523464804225685,0.000797786121626008,-0.012879891100103031,0.008016739622259456,0.9891206003588727
2012-04-12,1,0.0010060971806771142,0.0010980073266409938,-0.012879891100103031,0.003937994461832279,0.9893852621049097
2012-04-16,-1,-0.0007856918982686474,-0.000752949955744931,-0.012402128071496455,0.003937994461832279,0.9901701776334108
2012-04-18,-1,-0.0007819788368426278,-0.00072497634366409,-0.009753502832225227,0.0014777419042222403,0.9907121538108822
2012-04-20,-1,-0.0017648140463694154,-0.001575748432059119,-0.009753502832225227,0.004848772411713232,0.9907089426939325
2012-04-24,-1,-0.0008047776384331254,-0.0007031684897119498,-0.009753502832225227,0.004848772411713232,0.9906413791251256
2012-04-26,-1,-0.0003303156257463499,-0.00024321684207397515,-0.008650677492460093,0.0014777419042222403,0.9916854659621201
2012-04-30,1,0.00037553844990310015,0.0004187004807401201,-0.008650677492460093,-0.001544484785364473,0.9913566206855822
2012-05-02,-1,-0.0006483964812167952,-0.000523801022017307,-0.007220594034810681,0.0011485596246093997,0.9925717743224239
2012-05-04,-1,-0.0011721661487585234,-0.0010502556967945252,-0.007220594034810681,0.0011485596246093997,0.9921296982092358
2012-05-08,-1,-0.0018547624285020485,-0.0014874753417051772,-0.0042866307133690345,0.008225391885148408,0.989248774480196
2012-05-10,-1,-0.002348250471404493,-0.0018851557011895607,-0.005667060830170264,0.008225391885148408,0.9892390869387819
2012-05-14,0,0.0,0.0,-0.00391723201414234,0.009424291573328662,0.9884973577512591
2012-05-16,0,0.0,0.0,-0.00391723201414234,0.01220873241878314,0.9872471060375173
2012-05-18,0,0.0,0.0,-0.00391723201414234,0.01220873241878314,0.9855191965741326
2012-05-22,0,0.0,0.0,-0.005086578468375678,0.011117950189261875,0.9857818468129269
2012-05-24,0,0.0,0.0,-0.006182174582930956,0.012859198694126406,0.9840989834809256
2012-05-29,-1,-0.0028108419850514134,-0.002330712990013749,-0.010174616436025284,0.014564568405982418,0.9833942615153769
2012-05-31,-1,-0.003597635270628485,-0.0030030508685607504,-0.006182174582930956,0.014564568405982418,0.983877605748995
2012-06-04,-1,-0.00489259120643093,-0.004121439825179506,-0.005086578468375678,0.014564568405982418,0.9846323608679635
2012-06-06,-1,-0.0021830709847006336,-0.0017603617218934335,-0.0056666645250241935,0.0114411260964042,0.9885972410583176
2012-06-08,-1,-0.0034458714703061184,-0.0027903619096085125,-0.007289181765172828,0.0114411260964042,0.9885492417656987
2012-06-12,-1,-0.0021304058082480684,-0.0017406687222952357,-0.007583837329600074,0.013828726415553383,0.9879317721654123
2012-06-14,-1,-0.0017122242238086136,-0.0013808079209502195,-0.005455580862456302,0.013828726415553383,0.9882898252237663
2012-06-18,-1,-0.0003949049546092682,-0.00019221231493114028,-0.007583837329600074,0.013828726415553383,0.9890705097388981
2012-06-20,-1,-0.0013153903253479704,-0.0009906004986268832,-0.010182564022291552,0.013828726415553383,0.9889310726019307
2012-06-22,-1,-0.0017792429212142237,-0.0013614482702061152,-0.010182564022291552,0.010825901305004961,0.9899659934389833
2012-06-26,-1,-0.0008118942358344972,-0.0005864037456494834,-0.010182564022291552,0.009931533487694544,0.990054606888034
2012-06-28,-1,-0.0004411901786222028,-0.0002955979098249539,-0.010182564022291552,0.012018142323991319,0.989253589705304
2012-07-02,-1,-0.0010787409673763877,-0.0009449524174387507,-0.011506014079551985,0.010467619767374075,0.9890260283048361
2012-07-05,1,0.0006478442281992719,0.0007587066294853069,-0.013892961004364148,0.010467619767374075,0.9881181893906203
2012-07-09,1,0.00015738416652570712,0.0001924452340953297,-0.013892961004364148,0.012568992041310048,0.9874801416069039
2012-07-11,1,0.0006731885164371115,0.0007880603978629604,-0.013892961004364148,0.010467619767374075,0.9887403218002851
2012-07-13,1,0.001428393145991443,0.0016498996975033635,-0.013892961004364148,0.006504622431477775,0.9895077284617723
2012-07-17,1,0.0014835255257089294,0.0017546899174856324,-0.00991701199486119,0.003968446566446533,0.990849987224101
2012-07-19,1,0.0006097703583306804,0.0007581709750470015,-0.008553320924834197,0.006504622431477775,0.990875214262222
2012-07-23,0,0.0,0.0,-0.0061336765554301014,0.006504622431477775,0.9914938830411606
2012-07-25,0,0.0,0.0,-0.0061336765554301014,0.0068326998011311885,0.9916439350868979
2012-07-27,1,0.0032719707576255464,0.0034896815712123904,-0.0061336765554301014,0.003968446566446533,0.9919428719231764
2012-07-31,0,0.0,0.0,-0.002023524248669768,0.005136695916610612,0.9930591305069745
2012-08-02,1,0.00037027505429649817,0.0005173353673199322,-0.002023524248669768,0.005136695916610612,0.9934844446196449
2012-08-06,1,0.0016124107647069483,0.001962303381808487,-0.002023524248669768,0.00438932078352354,0.9950991546412042
2012-08-08,1,0.0013704520837785634,0.0016515115819103455,-0.003261021654912929,0.005136695916610612,0.9942182900954751
2012-08-10,1,0.0017859207187866833,0.002138964767829295,-0.006875941588775178,0.00438932078352354,0.9939044674589711
2012-08-14,1,0.0015939127873986552,0.0019227157835798017,-0.003261021654912929,0.00438932078352354,0.9943870988586196
2012-08-16,1,0.0023822854927989384,0.0028044951815143406,-0.003261021654912929,0.005468473307401694,0.9939335152663474
2012-08-20,1,0.001864084276036608,0.0021749802528666005,-0.0031464253402460184,0.005468473307401694,0.9940928744651598
2012-08-22,1,0.0022834722097931246,0.0026740831002064532,-0.0038823262788999623,0.00438932078352354,0.9939287342350235
2012-08-24,1,0.0025025882041140295,0.0029201945185264823,-0.003947164658359068,0.002964574320944321,0.993924596475552
2012-08-28,1,0.00291447952245357,0.0034133251855587307,-0.006875941588775178,0.0017035199483465074,0.9926076969044217
2012-08-30,1,0.0015954607426776344,0.0018156792178806427,-0.004898982991583444,0.0023013827737804957,0.9935307579988769
2012-09-04,1,0.0019500385116251787,0.0022492216299899595,-0.010003067290964562,0.0017035199483465074,0.9922641258353
2012-09-06,1,0.0015462731671860084,0.0017450667738055279,-0.010003067290964562,0.0025321566232130977,0.992926564274662
2012-09-10,1,0.0010791706708910647,0.0012018525865459065,-0.008467119576303384,0.0025321566232130977,0.9928826312855131
2012-09-12,1,0.0007700141307848034,0.000815960441674922,-0.00851241642791001,0.0025321566232130977,0.9922894192422581
2012-09-14,1,0.0022004933810371285,0.0024732616330329113,-0.00851241642791001,0.0025321566232130977,0.9928422455242376
2012-09-18,1,0.002073942431276235,0.0023287834906833916,-0.00851241642791001,0.0035111862231220524,0.9918354129137011
2012-09-20,1,0.0018014137510499585,0.0020514253715966653,-0.0076660216472181335,0.0035111862231220524,0.9924885993868673
2012-09-24,1,0.0009471996265319194,0.0010036152649557913,-0.0076660216472181335,0.0036506348339145735,0.9924933220120767
2012-09-26,1,5.221385093768076e-05,0.00012396336966967206,-0.0076660216472181335,0.0036506348339145735,0.993191423086712
2012-09-28,-1,-0.0007650873041456,-0.0005677631087757207,-0.006339694866752473,0.004070317557621032,0.9938720677522014
2012-10-02,-1,-0.0018054513101246428,-0.001477884327051875,-0.005059078053723428,0.004070317557621032,0.9947837166912463
2012-10-04,-1,-0.0017859759387851234,-0.0014276604546813788,-0.005695630510443891,0.003842580028626474,0.9936973497319154
2012-10-08,-1,-0.0027119738333888843,-0.0022177369979539674,-0.005695630510443891,0.003842580028626474,0.9932797996803205
2012-10-10,-1,-0.0029453479918583204,-0.002454091134917789,-0.005059078053723428,0.003842580028626474,0.9931803516618088
2012-10-12,-1,-0.0024025680118047645,-0.001990645234442103,-0.006462299230591056,0.0018536740775417866,0.9930453859729105
2012-10-16,0,0.0,0.0,-0.0089881143244344,0.0014146440677152332,0.9934485102179549
2012-10-18,0,0.0,0.0,-0.0089881143244344,0.002760863656636387,0.9925320365798576
2012-10-22,0,0.0,0.0,-0.0089881143244344,0.0026902630472558225,0.9928414311966973
2012-10-24,0,0.0,0.0,-0.004598682715824572,0.005037065060271345,0.9929217581334284
2012-10-26,0,0.0,0.0,-0.00707732308749706,0.005037065060271345,0.9924867164962482
2012-11-01,-1,-0.0016798577302715536,-0.0013946517592433646,-0.00707732308749706,0.005546402081622623,0.9922365193027977
2012-11-05,-1,-0.0010868348492178608,-0.0008700357489978774,-0.006994205115704688,0.005037065060271345,0.9937430610367974
2012-11-07,-1,-0.001422059095998694,-0.001181605727992925,-0.005445690453891742,0.005546402081622623,0.9938684902746852
2012-11-09,0,0.0,0.0,-0.003682156264899766,0.005546402081622623,0.993879599524576
2012-11-13,0,0.0,0.0,-0.003682156264899766,0.005546402081622623,0.9938797940429415
2012-11-15,0,0.0,0.0,-0.004055754576243028,0.005546402081622623,0.9938096702225693
2012-11-19,0,0.0,0.0,-0.004055754576243028,0.004620235107858892,0.994986174974422
2012-11-21,0,0.0,0.0,-0.004055754576243028,0.00465232765299822,0.9945001313058526
2012-11-26,0,0.0,0.0,-0.006994205115704688,0.00272953224268049,0.9929622510996782
2012-11-28,0,0.0,0.0,-0.006858030119491755,0.0021170736968364086,0.9933462711666633
2012-11-30,0,0.0,0.0,-0.006858030119491755,0.0017004998997409413,0.9935421432800986
2012-12-04,0,0.0,0.0,-0.005400298788487431,0.00272953224268049,0.9927960192302971
2012-12-06,-1,-0.0003904295363509354,-0.0003283644123808356,-0.007076049464763981,0.00272953224268049,0.9914139100574803
2012-12-10,-1,-0.0004131064397661483,-0.0003625546489285144,-0.007076049464763981,0.003658730117591845,0.9913615296493908
2012-12-12,-1,-0.0010751404192815282,-0.0010183944062632576,-0.00494108470340628,0.0047770716357120446,0.9913916026868986
2012-12-14,-1,-0.0019165588176892822,-0.001726435482248015,-0.00494108470340628,0.0047770716357120446,0.99131027792887
2012-12-18,-1,-0.002161001929709867,-0.001952871215470311,-0.00494108470340628,0.009380260235367636,0.9900949085658286
2012-12-20,-1,-0.001372399338185662,-0.0012933966171067746,-0.00494108470340628,0.009380260235367636,0.9899556882020496
2012-12-24,-1,-0.0034778276534861755,-0.0031151402634178728,-0.0039998884276449195,0.009380260235367636,0.990630420017248
2012-12-27,-1,-0.0038718050142498286,-0.0033966129216137677,-8.181948383446632e-05,0.009380260235367636,0.9901194185915488
2012-12-31,0,0.0,0.0,0.001904854810451505,0.012322946427945073,0.9906686350835275
2013-01-03,0,0.0,0.0,0.0006576472766719096,0.012158212599186275,0.9910880943842085
2013-01-07,1,0.00033383097366653457,0.00038405052874806577,0.001904854810451505,0.012158212599186275,0.9924497022556981
2013-01-09,1,0.0003193424185546291,0.0003520726877373168,0.002478745356661956,0.015422814813733423,0.9908626543229614
2013-01-11,0,0.0,0.0,0.0010115385414237888,0.015422814813733423,0.9910357825385233
2013-01-15,0,0.0,0.0,0.0031188381349394013,0.015422814813733423,0.9908023335320502
2013-01-17,0,0.0,0.0,0.0038146334462463606,0.015422814813733423,0.99070031476469
2013-01-22,0,0.0,0.0,0.002253441430030122,0.012615895667730968,0.9912333721828582
2013-01-24,1,0.0016474325556641533,0.0019629659185673486,0.002253441430030122,0.015422814813733423,0.9912582390919308
2013-01-28,1,0.0013886902336944973,0.001640797854499109,-1.8264503223593045e-05,0.015422814813733423,0.9888257697208208
2013-01-30,1,0.002214091830524065,0.002563578560612563,-0.0012451763982861271,0.015347938828770223,0.9895066854213236
2013-02-01,1,0.00261436785524794,0.0030320652194169204,-0.002440144882196112,0.015419380846367663,0.989394400269165
2013-02-05,1,0.0030234693603268833,0.003470391128665474,-0.002440144882196112,0.0149274447448816,0.9892796236595409
2013-02-07,1,0.004008377870179644,0.004593791722302513,-0.004727560697937701,0.013085692193970287,0.9901321433193624
2013-02-11,1,0.00442879505382979,0.005114300840153489,-0.004809407346286481,0.013085692193970287,0.9899917846750573
2013-02-13,1,0.004785967044523883,0.005523542802031267,-0.004809407346286481,0.0149274447448816,0.9894823387329664
2013-02-15,1,0.005320678023965138,0.006087715301859363,-0.00671473171238999,0.013085692193970287,0.9890872734751108
2013-02-20,1,0.004782050924457093,0.0054704589453241454,-0.0057272655092339975,0.013085692193970287,0.989552104766731
2013-02-22,1,0.004767678455862844,0.005420716180319939,-0.004809407346286481,0.01248048190438501,0.9907048250367939
2013-02-26,1,0.0038103662892992776,0.004307230768557589,-0.0031525541145237587,0.011727328624035117,0.9925710037637414
2013-02-28,1,0.0035905360198542928,0.004007458974475503,-0.004809407346286481,0.011727328624035117,0.9918388864839012
2013-03-04,1,0.004163367351081953,0.004686753355119125,-0.0052401523437616785,0.009382080648979085,0.9915409269979271
2013-03-06,1,0.004430512263443938,0.004966418086065821,-0.007358990379156708,0.0054771580676247645,0.9903863986964575
2013-03-08,1,0.003501199320267329,0.0038744741204257455,-0.007358990379156708,0.005773157832406415,0.9906742493716444
2013-03-12,1,0.003614640198872881,0.004021314036100699,-0.007358990379156708,0.006572202001961174,0.9899447217038756
2013-03-14,1,0.004444386864227352,0.0049741876567548,-0.007358990379156708,0.005509016147264358,0.990193989489867
2013-03-18,1,0.0036300152230684876,0.004031782259738882,-0.0071472003679236475,0.006572202001961174,0.9899467474627495
2013-03-20,1,0.003871234109219676,0.004308026797609259,-0.010322161791575576,0.005509016147264358,0.9891739645699026
2013-03-22,1,0.00370354494153818,0.0041028707458642165,-0.010322161791575576,0.006572202001961174,0.9890247385810012
2013-03-26,1,0.0032914783196088594,0.0036360810065962194,-0.010322161791575576,0.008701230900419016,0.9890579609842127
2013-03-28,1,0.0037100741903561916,0.004106627397772826,-0.009960106037389484,0.007852824524950133,0.9901843382222834
2013-04-02,1,0.0034111548892682836,0.003785108968916217,-0.006899642308185381,0.007871443631500044,0.990833472735927
2013-04-04,1,0.0021156142027985007,0.002278831296327415,-0.0020431155775088076,0.013107630608889278,0.9897785696722827
2013-04-08,1,0.0019541656213463163,0.002077136672777638,-0.001062607272368353,0.013107630608889278,0.9904020950941288
2013-04-10,1,0.0018788958945116115,0.001947439487016832,-0.001062607272368353,0.00979922400570482,0.9911787368189423
2013-04-12,1,0.001410527973476643,0.0014299751760574618,-0.0021377694492645686,0.00979922400570482,0.9908379571470782
2013-04-16,1,0.001295462059179814,0.0013071470567024902,-0.0008700705303842938,0.013107630608889278,0.9914886603532541
2013-04-18,1,0.00038455041455888234,0.00048414354185089117,-0.0008700705303842938,0.013107630608889278,0.9916773694141788
2013-04-22,1,0.0010004331699535395,0.0010270387971508719,-0.0021377694492645686,0.01397037860538998,0.9913543563432213
2013-04-24,1,0.001526998983420962,0.0015608904542897973,-0.0035762061411252137,0.009412328921084347,0.9903019141621471
2013-04-26,1,0.0017270399890027524,0.0017838584668125026,-0.004952695336337602,0.008548248186193638,0.9899981224334634
2013-04-30,1,0.0019811207400345114,0.0020405915961843424,-0.004952695336337602,0.010280234319721918,0.9899882462175377
2013-05-02,1,0.0034843659871641054,0.003742497854837307,-0.006503776417713353,0.006405895803477973,0.9884837290516421
2013-05-06,1,0.003340101076120606,0.0035681205823794304,-0.008642043580429748,0.006405895803477973,0.9866464145624828
2013-05-08,1,0.0028587957263211668,0.002980268402148619,-0.008642043580429748,0.010280234319721918,0.9858393287610514
2013-05-10,1,0.00254678838219021,0.0025700379846615353,-0.008642043580429748,0.013145765138975687,0.9848060820403413
2013-05-14,1,0.0028885634618587364,0.002961001237769473,-0.01245430902779392,0.010280234319721918,0.984353010191734
2013-05-16,1,0.0024223523987998968,0.0024241231829928212,-0.01322793524312539,0.013114083997630664,0.9836668367458717
2013-05-20,1,0.001745533963476494,0.0019194938735115448,-0.01322793524312539,0.020385480277176356,0.982590598745771
2013-05-22,0,-0.00035281053011874497,9.100881511195499e-05,-0.015204598643298367,0.020385480277176356,0.9819108508702387
2013-05-24,-1,-0.001294330732739755,-0.0007248959715111206,-0.015204598643298367,0.020385480277176356,0.9819933920861743
2013-05-29,0,-0.0001768838672291668,0.00022607417570957313,-0.015204598643298367,0.024223044704403632,0.9808186436014277
2013-05-31,-1,-0.0006444375226057272,-0.00017202288290639987,-0.011997856143351655,0.020385480277176356,0.9837283272632659
2013-06-04,-1,-0.002365140195160194,-0.0016958356332457028,-0.011124541729041426,0.020385480277176356,0.9843617378169994
2013-06-06,-1,-0.0011732578546962667,-0.0006598799742769247,-0.011124541729041426,0.01870950033864418,0.9850730859601675
2013-06-10,0,-0.0004035610641686686,4.4413068037465076e-05,-0.011776180956612252,0.013757452403593417,0.9861639280057481
2013-06-12,-1,-0.0010082811855453503,-0.0005126507153046583,-0.010792774595017802,0.01870950033864418,0.986391353510532
2013-06-14,-1,-0.0005778963746779235,-0.0001654230323532744,-0.0065782710780863006,0.013757452403593417,0.9871967363010802
2013-06-18,1,0.0014283521243750566,0.0016195356602828601,-0.0065782710780863006,0.006948583270001968,0.9895179993714176
2013-06-20,-1,-0.001016168955468381,-0.0005437626694524819,-0.00400618697103792,0.006948583270001968,0.9915798612427417
2013-06-24,-1,-0.000991928705078322,-0.0005652749156553893,-0.004758773589377624,0.007553809810998496,0.9910475748169377
2013-06-26,1,0.0009998895017645686,0.0011794344985997414,-0.009713407140966586,0.006788413585018952,0.9923200660450285
2013-06-28,1,0.0005320096944262971,0.0007380863237009214,-0.008146545040548646,0.006788413585018952,0.9923346976651921
2013-07-02,1,0.00046901351552402663,0.0006109694753017535,-0.0041478471335362425,0.007941209490556234,0.9922349046019651
2013-07-05,1,0.0009717083002968717,0.0010557546191442178,-0.0041478471335362425,0.008670273033168061,0.9914090970377163
2013-07-09,1,0.0006731274003555863,0.0007702499312155651,-0.0041478471335362425,0.008670273033168061,0.9909753537428925
2013-07-11,1,0.0019971214176391344,0.0021245750699249643,-0.008146545040548646,0.008670273033168061,0.9913025649198579
2013-07-15,1,0.002114136942137658,0.0022222099559834653,-0.009668258212846548,0.008577163657776752,0.9905455123254624
2013-07-17,1,0.001907244662206549,0.0020019719258573144,-0.009668258212846548,0.008577163657776752,0.9904866924138227
2013-07-19,1,0.0008494529673387547,0.0009375953669504267,-0.009614012127378835,0.008632931789103335,0.9904125362214029
2013-07-23,1,0.0008461938136915096,0.0009161456218285196,-0.009587852111735596,0.009374142913993843,0.9907867253964909
2013-07-25,1,0.0010332337687829775,0.0010600547665830325,-0.009072278236150793,0.009675693929001833,0.9902774138191316
2013-07-29,1,0.0012420760320360584,0.0012841457323200904,-0.009614012127378835,0.009675693929001833,0.9902393637135123
2013-07-31,1,0.0017594087956610638,0.0018391372735095596,-0.009668258212846548,0.00823160091549141,0.9900779006924045
2013-08-02,1,0.0027889893021683684,0.0029952466137325596,-0.009668258212846548,0.003006332000150309,0.9907799729881854
2013-08-06,1,0.0027331038594921144,0.002986193827245977,-0.009614012127378835,0.007280450107314945,0.9912779923250985
2013-08-08,1,0.00230814679295821,0.002459449022674904,-0.009614012127378835,0.003178673498701136,0.9912790693325241
2013-08-12,1,0.001558144922120797,0.0016274973464566165,-0.008893536013968775,0.007280450107314945,0.9921581566818184
2013-08-14,1,0.0012625225683786075,0.0012959824671756111,-0.008893536013968775,0.007280450107314945,0.9920705485845654
2013-08-16,1,0.0009946582134063436,0.0010081019030504712,-0.008626477004314454,0.004040457279629655,0.9927883141935131
2013-08-20,1,0.0013813142223087042,0.001435907182024384,-0.008626477004314454,0.0030031027189775816,0.9931351864141454
2013-08-22,1,0.0014834918775893824,0.0015180804542227863,-0.005577658024958206,0.0030031027189775816,0.9940347297354741
2013-08-26,1,4.4235336900207926e-05,0.0002408988893652375,-0.004802156510309323,0.0030031027189775816,0.9943814648341337
2013-08-28,-1,-0.0010795146462196543,-0.000731806763938565,-0.004802156510309323,0.003704412108617566,0.994526006089511
2013-08-30,-1,-0.001017665508766408,-0.0006947798915871104,-0.004802156510309323,0.005995860501853487,0.9942525419450277
2013-09-04,-1,-0.00036255544000669934,-0.00011487355865951409,-0.004802156510309323,0.003704412108617566,0.9944811159918969
2013-09-06,-1,-0.0018494527929295615,-0.0013851798908215702,-0.0023985824363600542,0.007048759883102073,0.9924081568820745
2013-09-10,-1,-0.0022805663935997296,-0.0017177640107348532,-0.003665199201398505,0.005995860501853487,0.9921772124958389
2013-09-12,-1,-0.002220869298483563,-0.0016995799361432724,-0.0034401488460980615,0.007048759883102073,0.9914637579975717
2013-09-16,-1,-0.0016727242103541067,-0.0012511262185354226,-0.0034401488460980615,0.007636459306752043,0.991221384233458
2013-09-18,-1,-0.0015157796922179423,-0.0011211857317077437,-0.003915849484714343,0.007636459306752043,0.9908286901438418
2013-09-20,-1,-0.0010831770930670316,-0.000775118161550158,-0.0034401488460980615,0.008126806956513098,0.9906478251029643
2013-09-24,-1,-0.00018712854076498173,-8.973603875180752e-05,-0.0034401488460980615,0.008126806956513098,0.9908583144115802
2013-09-26,-1,-0.00045699470408002666,-0.0003215874461301767,-0.0034401488460980615,0.008126806956513098,0.9910970652261268
2013-09-30,-1,-0.0001693926618145638,-6.602939371192141e-05,-0.00399148901013945,0.008126806956513098,0.9910297368477006
2013-10-02,1,0.00041219964337720343,0.00044646101787883653,-0.005652006038041898,0.007337673451964109,0.9909305703874849
2013-10-04,1,0.0026493699167578757,0.002951801543759287,-0.005652006038041898,0.007337673451964109,0.9920507023020935
2013-10-08,1,0.0014802373318911022,0.001597916834913435,-0.005647421545904703,0.008126806956513098,0.9919483969815088
2013-10-10,1,0.0022437442125974676,0.002485536094802363,-0.005647421545904703,0.008126806956513098,0.9928553674453635
2013-10-14,1,0.0017778986203115478,0.0018794304775920237,-0.00736829060573101,0.008985781138674938,0.9919292550378012
2013-10-16,1,0.0013704388258590303,0.001388110947944578,-0.00736829060573101,0.009511161199997186,0.9909695262872315
2013-10-18,1,0.0021380784883158663,0.0022937528127374724,-0.00736829060573101,0.010528856805433836,0.9904606656867256
2013-10-22,1,0.001865506700048084,0.0019765518658982463,-0.00736829060573101,0.011780001946772013,0.9900801033383994
2013-10-24,1,0.000636541086958301,0.0007553114203674722,-0.005526962311874001,0.014194699755628083,0.9883495421863291
2013-10-28,1,0.0006464134476965611,0.0007102051352292659,-0.0049683881244944345,0.014194699755628083,0.9883493158621592
2013-10-30,1,0.0005937826542418396,0.000612334817319181,-0.003805383579953895,0.014194699755628083,0.9882286749177936
2013-11-01,1,0.001066571679333549,0.0010697796390583935,-0.005077646598779581,0.013291842441252255,0.9888858322161564
2013-11-05,1,0.0015274497243567917,0.001592268030443735,-0.005077646598779581,0.010832604257996717,0.9897382296866566
2013-11-07,1,0.002886620869875681,0.003251018829294654,-0.005077646598779581,0.013291842441252255,0.9892724840588036
2013-11-11,1,0.0021202832667544633,0.002264103428562573,-0.004106277248567307,0.010832604257996717,0.9898394850403219
2013-11-13,1,0.0013246064356863647,0.0013406447331630838,-0.00350296445541565,0.009083191432977703,0.9908966890264371
2013-11-15,1,0.0024585405527034654,0.002716645935491443,-0.0032507162788937877,0.008981069830187953,0.9913616860147113
2013-11-19,1,0.0027728062842446036,0.003037594121292561,-0.0032507162788937877,0.008981069830187953,0.9915312185136559
2013-11-21,1,0.003760330944084062,0.004110140583667999,-0.004106277248567307,0.007905922500146025,0.9924257646192141
2013-11-25,1,0.0038788970718889575,0.004266581349256193,-0.0032507162788937877,0.007621343475441774,0.992704801346447
2013-11-27,1,0.0031183345252222393,0.003381551403685453,-0.0032507162788937877,0.007621343475441774,0.9930765591627967
2013-12-02,1,0.0033641477403471365,0.003698947948654727,-0.0032507162788937877,0.007341429118970919,0.9931099135890172
2013-12-04,1,0.0030371710776413495,0.0033513358275578074,-0.0028367684155536257,0.007341429118970919,0.9937306046892984
2013-12-06,1,0.003748763170057853,0.004138252299341207,-0.0028367684155536257,0.006545254291066853,0.9947338992910622
2013-12-10,1,0.003073377343669667,0.0033456046851219317,-0.00183367981238124,0.006545254291066853,0.9950083316744076
2013-12-12,1,0.0029728855408847244,0.003219837073610505,-0.0039386234160441675,0.006285336540166837,0.9937071123291765
2013-12-16,1,0.0033721568106403897,0.0036657220233086932,-0.005173337318935301,0.005775639560726561,0.9916802919830981
2013-12-18,1,0.0038881806565152542,0.004221379686690548,-0.007929826651127207,0.003350578177866175,0.9906982662741447
2013-12-20,1,0.003888435730315511,0.0042657837937332185,-0.0059089497109331875,0.005521496146393022,0.9913399706938413
2013-12-24,1,0.00450458523431588,0.005023661262889479,-0.01018971651119872,0.0032913994724781273,0.9896790649037687
2013-12-27,1,0.0038319126930278094,0.004238729510764133,-0.01018971651119872,0.005521496146393022,0.9894929284225241
2013-12-31,1,0.0035180667408972665,0.003883777291629608,-0.010622816103518673,0.005521496146393022,0.9885971245934903
2014-01-03,1,0.003183901488700085,0.003453567893530912,-0.011871005117249329,0.0032913994724781273,0.9873489233006305
2014-01-07,1,0.0031936346325238145,0.003441562739766226,-0.011871005117249329,0.0030835668482594226,0.9859065485989682
2014-01-09,1,0.0029100004865205004,0.0031051495651796095,-0.011871005117249329,0.010584200197396969,0.9848502993980892
2014-01-13,1,0.0018242906062132744,0.0018816846387165961,-0.011871005117249329,0.014936626204840046,0.9850411070398338
2014-01-15,1,0.00023848814740290105,0.00035694429140644795,-0.010622816103518673,0.014936626204840046,0.987213428488946
2014-01-17,-1,-0.0008414136785541588,-0.0005750549446612898,-0.009684370802120541,0.014936626204840046,0.9873106750022272
2014-01-22,-1,-0.0008952322146132234,-0.0005838847526050862,-0.010742028201027815,0.014936626204840046,0.9866885417366396
2014-01-24,-1,-0.0020748136591277706,-0.0016176625826302181,-0.007792603875222919,0.014936626204840046,0.9867703769019158
2014-01-28,-1,-0.0014652798895797808,-0.0011008780322563885,-0.009684370802120541,0.012933509276381237,0.9865680797123775
2014-01-30,-1,-0.001676547323368075,-0.0012537831307362548,-0.007792603875222919,0.011652385303514284,0.9880616412741456
2014-02-03,-1,-0.002482954716019528,-0.0019818143789523085,-0.006509951294400007,0.012933509276381237,0.9876021992129413
2014-02-05,-1,-0.0020434975380955508,-0.0015798824148388064,-0.00560276690619439,0.011652385303514284,0.9888031742120167
2014-02-07,-1,-0.0007769813683572603,-0.0004622231276746647,-0.009832426332263835,0.006537540699451892,0.9898265442854736
2014-02-11,-1,-0.0007170982882619152,-0.0004079579077144507,-0.008901281173326355,0.005116427616165399,0.9910176348769906
2014-02-13,-1,-0.0007399466408326567,-0.00042420745092576245,-0.009832426332263835,0.005116427616165399,0.9899410916785233
2014-02-18,-1,-0.0011513188578269082,-0.0007659864319695486,-0.01090367775297795,0.005116427616165399,0.9891926299584441
2014-02-20,-1,-0.0026191633507093746,-0.0020478038397983888,-0.01090367775297795,0.005116427616165399,0.9900301408331335
2014-02-24,-1,-0.0017577808007922802,-0.0012981401494292237,-0.01090367775297795,0.0035607776452777316,0.9911412715948795
2014-02-26,-1,-0.002767046582787587,-0.002204985351183403,-0.01090367775297795,0.0035607776452777316,0.9915314765713766
2014-02-28,-1,-0.001755333897100157,-0.001402253448751106,-0.01131024017251172,0.0035607776452777316,0.9908730065298677
2014-03-04,-1,-0.001231497075685414,-0.0009021768872999321,-0.012807664889386379,0.0024499017515970008,0.9908074387919421
2014-03-06,-1,-0.0010081324927064777,-0.0007247895707687868,-0.012807664889386379,0.0035607776452777316,0.988882598822172
2014-03-10,-1,-0.0016454623271699507,-0.0013135903866204127,-0.01687277383159811,0.0035607776452777316,0.9875557220540672
2014-03-12,-1,-0.0019550232082424855,-0.0015794812154784315,-0.01687277383159811,0.0041263441426784234,0.9878770771758405
2014-03-14,-1,-0.0025044708055956353,-0.0020885743572920147,-0.015620503876213753,0.0026384239173972315,0.9885659227105013
2014-03-18,-1,-0.002484207979831123,-0.0020616855489173514,-0.013033231975475427,0.005163701762219487,0.9888940437668448
2014-03-20,-1,-0.003161217282348825,-0.002644789817996795,-0.012597907568071522,0.008705642917660251,0.9879950956668337
2014-03-24,-1,-0.0034455850996644244,-0.0028720874076622466,-0.012597907568071522,0.011817380213777654,0.9866756065508887
2014-03-26,-1,-0.004752561299541668,-0.003991688625367541,-0.008274006828317424,0.011817380213777654,0.9862745843746461
2014-03-28,-1,-0.004833488387644592,-0.004110032850709414,-0.008274006828317424,0.011817380213777654,0.986422077219152
2014-04-01,-1,-0.005302069480895155,-0.004544252573507469,-0.004996923017112662,0.011817380213777654,0.9866267937097358
2014-04-03,-1,-0.0031635892998112414,-0.0026767114949273743,-0.008274006828317424,0.009473203249352356,0.9889582505406781
2014-04-07,-1,-0.004912448292706026,-0.004244457530673466,-0.004996923017112662,0.009473203249352356,0.9894739678185058
2014-04-09,-1,-0.005031828334686233,-0.004326307071674395,-0.008274006828317424,0.011817380213777654,0.9868408431676061
2014-04-11,-1,-0.0052391381547524036,-0.00453905404833754,-0.007054987379133567,0.01228357234464332,0.9853560263584231
2014-04-15,-1,-0.0037477973594873537,-0.003260365108809952,-0.007054987379133567,0.009473203249352356,0.9869838894091889
2014-04-17,-1,-0.0017571498050264638,-0.0015867342035099418,-0.01465984149440611,0.007616040155113132,0.9880534992660314
2014-04-22,-1,-0.0005389593732092576,-0.0005188831892538426,-0.015640613391433016,0.005831341408271751,0.9877725478609946
2014-04-24,-1,-0.000321814467893013,-0.0003122248451995298,-0.015640613391433016,0.008660610483575186,0.9866913724076735
2014-04-28,-1,-0.001011839693342675,-0.000927522481500958,-0.01465984149440611,0.010592777235114457,0.986138494978289
2014-04-30,-1,-0.0006862153676518219,-0.0006187397011259937,-0.01465984149440611,0.010522861190563655,0.9863825806341501
2014-05-02,-1,-0.0004348889606413986,-0.00041717609715593825,-0.012036309839839873,0.010522861190563655,0.9864389983918415
2014-05-06,-1,-0.0012876501615281296,-0.0011943351667084354,-0.010359289321457323,0.010522861190563655,0.9868838346375473
2014-05-08,-1,-0.002257535277967231,-0.0020638933493631285,-0.010359289321457323,0.007543918193403321,0.9897051879819649
2014-05-12,-1,-0.00180345906925849,-0.0017029840112044892,-0.008556743959691193,0.006598674426394783,0.9908023621929316
2014-05-14,-1,-0.0011819214981276995,-0.0011751153486061617,-0.009537250878024674,0.007543918193403321,0.989624157796335
2014-05-16,-1,-0.001748854767259214,-0.0016896001175994472,-0.008381974914350544,0.007543918193403321,0.9899345172596211
2014-05-20,-1,-0.0015046175478848284,-0.0014937461047487659,-0.006579171552966742,0.009256895140322125,0.9900447845246105
2014-05-22,-1,-0.00032576984362676394,-0.00018213639974595694,-0.008381974914350544,0.006638131005220899,0.9908841536300012
2014-05-27,1,0.0005092847196256967,0.0007689111127999054,-0.009537250878024674,0.006638131005220899,0.9894468461681524
2014-05-29,1,0.00028599666055583155,0.0005260910125667292,-0.010211672846228342,0.007062781863224449,0.9891976971244074
2014-06-02,1,0.00045301933282815233,0.0007397498413030352,-0.009537250878024674,0.006599239666493304,0.989510961893597
2014-06-04,1,0.0003454880849961075,0.0006231550050101457,-0.009687365710206392,0.007146398328614974,0.9891273163272665
2014-06-06,-1,-0.0005995869462044954,-0.0005076223438987014,-0.007571795153171445,0.008414357594505435,0.9888935611672625
2014-06-10,-1,-0.0013319160399770519,-0.0012460454760260594,-0.009687365710206392,0.008928132705824982,0.9880589591260002
2014-06-12,-1,-0.0012599393330578116,-0.0011497366917102238,-0.010954242337475174,0.007685180111409182,0.9883259180997164
2014-06-16,-1,-0.0007329949026594382,-0.0007148983978737928,-0.010954242337475174,0.008928132705824982,0.9878791814607777
2014-06-18,-1,-0.00015523154373031187,-0.000154041188508666,-0.010954242337475174,0.007685180111409182,0.988400551496854
2014-06-20,-1,-0.000513227667749436,-0.00049912840416091,-0.008188904025395492,0.010848318129908191,0.9877728668979298
2014-06-24,-1,-0.0011292292287481743,-0.0010683248508023238,-0.007065528690190179,0.010848318129908191,0.9894381836832784
2014-06-26,-1,-0.001898118291699896,-0.0016954881949567406,-0.007065528690190179,0.010848318129908191,0.9896411662788193
2014-06-30,-1,-0.0013585467551541766,-0.0012618827797356415,-0.0053027186088145575,0.010848318129908191,0.9901231952533104
2014-07-02,-1,-0.0006199342825889975,-0.0005439539300675714,-0.0053027186088145575,0.010848318129908191,0.9901604431263479
2014-07-07,0,-8.047630242570932e-05,8.30624947110684e-05,-0.004693413784956892,0.009570157944278958,0.9907546699248343
2014-07-09,-1,-0.00031005422197200445,-0.00018081409755368096,-0.004693413784956892,0.009570157944278958,0.9911482586213077
2014-07-11,-1,-0.0006276537849482315,-0.000530291616862365,-0.004693413784956892,0.010848318129908191,0.9904278437460569
2014-07-15,-1,-0.0005101432942468016,-0.00045891644785172085,-0.007917106058476925,0.009570157944278958,0.990462072392729
2014-07-17,1,0.000795346149192026,0.0010778007854125523,-0.007917106058476925,0.00865509183834123,0.9910246200905867
2014-07-21,1,0.0012528232115073816,0.0015333823460056562,-0.008239145507195293,0.006276376131706819,0.991095223262792
2014-07-23,1,0.0014007925226541757,0.001701110444832629,-0.009387606591562084,0.005801374297102935,0.9906354001801813
2014-07-25,1,0.0019089040177205337,0.002347273402243528,-0.009387606591562084,0.007045077713572247,0.990815389845792
2014-07-29,1,0.0016794028670372857,0.0020852022415165997,-0.009387606591562084,0.007045077713572247,0.991178654798476
2014-07-31,1,0.0007972564935517024,0.0010447094226407963,-0.008239145507195293,0.007045077713572247,0.9917804731085372
2014-08-04,1,0.0011929290864743066,0.0014883804186329734,-0.008239145507195293,0.005801374297102935,0.9920056198481566
2014-08-06,1,0.0005547111442889604,0.0007244930741485214,-0.008239145507195293,0.003750469418126296,0.9920733887328949
2014-08-08,1,0.0006341952171929036,0.0008262605949531358,-0.006824940725522882,0.004507854618618032,0.9934509429122158
2014-08-12,-1,-0.00024919962447444175,-0.0001941744219603098,-0.0020462755692560266,0.005885038930522351,0.9932846836194023
2014-08-14,1,0.00013103780990059323,0.0002426604294349113,-0.0020462755692560266,0.005885038930522351,0.9927105889484785
2014-08-18,-1,-9.39006431940865e-05,-5.672050913002487e-05,-0.0010856507655143874,0.00584049502675135,0.9931271158198653
2014-08-20,-1,-0.001010643858737868,-0.0009075150260792231,0.00011742715737740275,0.007014250038029573,0.9923439585072467
2014-08-22,-1,-0.000874511907427093,-0.0007592434402134343,-0.001292399702598724,0.00584049502675135,0.9923768490420389
2014-08-26,1,0.000287906085110091,0.0004213061343343609,-0.0026551407372171626,0.00584049502675135,0.9924490765165884
2014-08-28,-1,-0.0009143868726583947,-0.0007939440975459754,-0.0026551407372171626,0.00584049502675135,0.9916009526337997
2014-09-02,-1,-0.0009363336480345086,-0.0008176276798487275,-0.003285803789843386,0.00584049502675135,0.9915784491477466
2014-09-04,-1,-0.001948537511031322,-0.001675716274162838,-0.0029724669566610082,0.007543765606429666,0.9910434908061138
2014-09-08,-1,-0.0009241360445739256,-0.0008195856386906946,-0.0029724669566610082,0.007543765606429666,0.9913913291506842
2014-09-10,1,0.00020129933363013364,0.00028406039720506597,-0.0052863293425484195,0.007543765606429666,0.9904644732012311
2014-09-12,1,0.0015773480592165576,0.0019037141466908805,-0.0052863293425484195,0.006867529678391979,0.9913289193442328
2014-09-16,1,0.0022512866955587216,0.002691706057439625,-0.006285763757097042,0.008970653849952527,0.9899682935527804
2014-09-18,1,0.0032458164598333237,0.00377405794896145,-0.008288510930275087,0.005293955460711292,0.9896486373335233
2014-09-22,1,0.002958316341167739,0.003479436980903682,-0.006285763757097042,0.00847127040543081,0.9897791763632635
2014-09-24,1,0.0024709414178981128,0.002908621049436711,-0.0056756135213589624,0.00847127040543081,0.9899052186903157
2014-09-26,1,0.0015650641131727244,0.0018374007232129213,-0.005082945930635726,0.013256500520280528,0.989118703652832
2014-09-30,1,0.0007512400439767804,0.0008472940808242023,-0.0045832316528130485,0.013256500520280528,0.9890147220488988
2014-10-02,1,0.0011025141183377174,0.0012324951428918803,-0.004693185074082733,0.009784205113656397,0.9895850609958905
2014-10-06,1,0.001417697521244,0.0015930262653089588,-0.004693185074082733,0.013256500520280528,0.9885325177821785
2014-10-08,1,0.0013848705328930154,0.0015148997864037784,-0.004008123658009367,0.013256500520280528,0.9885928345190859
2014-10-10,1,0.0016480211837482214,0.00180433834777613,-0.004693185074082733,0.013256500520280528,0.9881443425339099
2014-10-14,1,0.0017432202027854939,0.0019799521499971615,-0.004008123658009367,0.012781859275537221,0.9895434019708426
2014-10-16,1,0.0014640105934735892,0.0017031629781724038,-0.002390791397828963,0.012781859275537221,0.990760789247327
2014-10-20,1,0.0016183015296643796,0.0018499786858602284,-0.002153858083683371,0.009689662244961652,0.991462866475783
2014-10-22,1,0.0012861550706785266,0.0014635696843825156,-0.0019411952211793218,0.009689662244961652,0.9911824969697582
2014-10-24,1,0.002503646252765014,0.002824311039916354,-0.003169406022395249,0.007578194103410775,0.9926722968041688
2014-10-28,1,0.001923410682872242,0.00213181055954571,-0.002892927842268798,0.007578194103410775,0.9927159266087164
2014-10-30,1,0.0015354395233780952,0.0016898019754165226,-0.0019348396691583687,0.008802934174998035,0.9920887488388445
2014-11-03,1,0.002645560337845236,0.002965128142566609,-0.002892927842268798,0.007045719988968125,0.9927192804064453
2014-11-05,1,0.003849589810229384,0.004328738573629498,-0.002892927842268798,0.006648547471373926,0.9941767139730067
2014-11-07,1,0.004256527228363412,0.004845997153945922,-0.002892927842268798,0.005193206634580509,0.994182140202238
2014-11-11,1,0.004176141019318661,0.004715530259426712,-0.004472781239316836,0.0042394214434306925,0.993384116555264
2014-11-13,1,0.0041211644835984496,0.00459702734700928,-0.006131157650088439,0.0042394214434306925,0.9919387293740406
2014-11-17,1,0.003642747054812894,0.004038853524268201,-0.007145075042203612,0.0042394214434306925,0.991458785100437
2014-11-19,1,0.0032340346624978315,0.003564518778311261,-0.006131157650088439,0.006648547471373926,0.9905732066216375
2014-11-21,1,0.0028836305435419726,0.0031470583471956415,-0.007145075042203612,0.008029713254685603,0.9897090051009108
2014-11-25,1,0.003028059904492335,0.00332226383271406,-0.00810704694076447,0.008029713254685603,0.9891341854475814
2014-11-28,1,0.003378697112492507,0.003683000741220099,-0.00810704694076447,0.005350240158212793,0.9900081369272263
2014-12-02,1,0.002732181807908742,0.0029120312055349504,-0.00821695502438797,0.005350240158212793,0.9898887424964695
2014-12-04,1,0.003233932860531465,0.0035069994679182885,-0.00821695502438797,0.004937258417068172,0.9892996684633029
2014-12-08,1,0.0032164121050510925,0.0035219982823487127,-0.008351689614126958,0.00679076803125174,0.9886471298717435
2014-12-10,1,0.0031599784537298353,0.0035102120623417593,-0.008351689614126958,0.010777632454421584,0.9890384326567784
2014-12-12,1,0.0024648850057362825,0.0027309448269252855,-0.01075358658151382,0.0068084915937432445,0.988144030662676
2014-12-16,1,0.001649246766103635,0.0017915027486557701,-0.010724048651142393,0.0068084915937432445,0.9884556288978334
2014-12-18,1,0.00296171793600326,0.0032544953497716696,-0.010724048651142393,0.002211968764546526,0.9884774157983015
2014-12-22,1,0.0026740904915354973,0.002884310086752723,-0.008494930642482773,0.002211968764546526,0.9877528131620271
2014-12-24,1,0.002136770784469416,0.0022879039529367655,-0.008431686211146741,0.007042091686073441,0.9883739787321997
2014-12-29,1,0.0018246917022136126,0.0019084332612652696,-0.01202977467337211,0.007042091686073441,0.9855637645854864
2014-12-31,1,0.0010380882325559371,0.0010717994009330945,-0.01194116088225783,0.007042091686073441,0.9861638423505789
2015-01-05,1,0.0002733344285212886,0.00043978970420602693,-0.01194116088225783,0.012685249761218839,0.9856885070815784
2015-01-07,1,0.00026045402323700533,0.0004197284501209912,-0.008158425765184229,0.013320761973086816,0.9838165462775638
2015-01-09,1,0.000712567557416675,0.0008215949640057879,-0.008158425765184229,0.013320761973086816,0.9837887558929103
2015-01-13,-1,-0.0023592897728149957,-0.0018523086278504197,-0.00679214935820206,0.013320761973086816,0.985378751700117
2015-01-15,-1,-0.003015498556913848,-0.002451654263840018,-0.0033713070435210453,0.013320761973086816,0.9850110855695023
2015-01-20,-1,-0.0026220066662867077,-0.0021030415126109805,-0.0008214612405342621,0.012787375530340886,0.9857915490097188
2015-01-22,-1,-0.0015375195545511225,-0.0011334593838093366,-0.0008214612405342621,0.012000797339656468,0.9879669661059128
2015-01-26,-1,-0.0010651379588899476,-0.0007059710113036337,-0.0026084211314362452,0.011555543063767687,0.988725591609986
2015-01-28,-1,-0.004132885341555474,-0.003380868020170456,-0.0007660726691498339,0.012787375530340886,0.9888035343280992
2015-01-30,-1,-0.003971608056218937,-0.003253955372504016,-0.0007660726691498339,0.013294049307215403,0.9880017350101851
2015-02-03,-1,-0.0025602033171043042,-0.0020326649381240763,-0.0028626115105385218,0.011555543063767687,0.9894276604255632
2015-02-05,1,0.0008342761690747047,0.0009205597524441323,-0.004037689963273873,0.0075910440025077994,0.9922716799215301
2015-02-09,1,0.0014781001465980865,0.0014856532729670933,-0.006693569409049614,0.0075910440025077994,0.9908309487197164
2015-02-11,1,0.002467510491279047,0.0026863725619260506,-0.006693569409049614,0.0074863409346952615,0.990935331995133
2015-02-13,1,0.002171663256690098,0.0023093560504069037,-0.00828242675691617,0.0074863409346952615,0.9905107890312991
2015-02-18,1,0.0020426449888110627,0.002137305608935591,-0.009374665840354183,0.006107812399724071,0.9902849327909641
2015-02-20,1,0.001632567712882881,0.0016339209559025735,-0.009374665840354183,0.01064336641626177,0.9895375534055947
2015-02-24,1,0.001294027028926164,0.0013555731982790643,-0.009374665840354183,0.01064336641626177,0.9892998345150023
2015-02-26,1,0.0018381902063947994,0.0018605922687419628,-0.01147920825826884,0.006107812399724071,0.9889081536813218
2015-03-02,1,0.0019495896378262795,0.0019929147766975168,-0.009374665840354183,0.009545937253029215,0.9893931740517106
2015-03-04,1,0.0008915653589777513,0.0009605980902564127,-0.007644023795617003,0.009545937253029215,0.989971008823508
2015-03-06,1,0.0005114598692972335,0.0006080165519018296,-0.007644023795617003,0.009545937253029215,0.9905041166599015
2015-03-10,-1,-0.0004462100292601353,-0.00020637695852975208,-0.007277882426979942,0.00462493631222706,0.9923591711588299
2015-03-12,-1,-0.0005473709541690211,-0.00024790013565794615,-0.007277882426979942,0.0033562200846350178,0.9926898293508056
2015-03-16,0,-5.914423338395942e-05,0.00016570869138466835,-0.007526876652426866,0.0025535560975756193,0.993224739909868
2015-03-18,-1,-0.0007215222440847599,-0.00040012571651442774,-0.006160209123995047,0.0032457721493324215,0.9935626352028164
2015-03-20,1,0.0010721713224735392,0.0011074037139903361,-0.007526876652426866,0.0032457721493324215,0.9927431361809628
2015-03-24,1,0.00027664925368444906,0.00042261425063188756,-0.007526876652426866,0.004086313075557051,0.9927359937020879
2015-03-26,-1,-0.000978295020923279,-0.0006627177202464904,-0.007456191230763828,0.004086313075557051,0.9931850178358587
2015-03-30,1,0.0006191941346408009,0.0006912678558097856,-0.007456191230763828,0.0032457721493324215,0.9937493737403679
2015-04-01,1,0.0006617201268119093,0.0006694763631827276,-0.005339174562350453,0.0032457721493324215,0.9944843293002326
2015-04-06,1,0.0004246521440441338,0.00043653929654346866,-0.0033561045050096664,0.004086313075557051,0.9946146818179789
2015-04-08,1,0.000803697924391456,0.0008673740009359237,-0.005339174562350453,0.004749594401582997,0.9925911490203698
2015-04-10,1,0.001171642521640448,0.0013016534163459716,-0.005339174562350453,0.006714582558057336,0.990578461241389
2015-04-14,1,0.0005211016084916708,0.0005531694448260188,-0.002112520255793011,0.007032110278397963,0.990848756320723
2015-04-16,1,0.000497825627620631,0.0005092098101863776,-0.002112520255793011,0.007032110278397963,0.9909435187314354
2015-04-20,-1,-0.0003561698058596179,-0.00026095785302678227,-0.0032900225984465134,0.006714582558057336,0.9920374055610892
2015-04-22,-1,-0.0003095693965908595,-0.00022611616632000006,-0.0032900225984465134,0.00603746418440772,0.9922371462047072
2015-04-24,-1,-0.00019961474923138416,-0.00017352364105349422,-0.002020552419556695,0.006572272195318556,0.9922815856819316
2015-04-28,-1,-0.00017056528493819312,-0.0001363485234260569,-0.0024455818955235785,0.005923676298907743,0.9919000190582369
2015-04-30,1,0.00011176956323434017,0.00013419198809414457,-0.0024455818955235785,0.0066907466218980305,0.9916738797106136
2015-05-04,1,0.00034308283609868983,0.00038330704328292265,-0.004733051157723334,0.0066907466218980305,0.9918359994528407
2015-05-06,1,0.00017436003157439387,0.00018560141488639385,-0.004733051157723334,0.004944542071985723,0.9934752348165731
2015-05-08,1,0.0016293698075344049,0.0017638568841946778,-0.004733051157723334,0.004319503192588694,0.9953051464457752
2015-05-12,1,0.0014011699068528004,0.0014546546073318282,-0.004733051157723334,0.004679385562011724,0.9948319884126781
2015-05-14,1,0.0022450563670032004,0.0025062114200309505,-0.0056868775419854165,0.005438644192861429,0.993798595741712
2015-05-18,1,0.0017818292071470954,0.001990465177873713,-0.0056868775419854165,0.005438644192861429,0.9935895811785314
2015-05-20,1,0.0010699513675130738,0.0011458869632393082,-0.005207729028622229,0.005438644192861429,0.9938661102714192
2015-05-22,1,0.001196996062949726,0.0012912344970510256,-0.0056868775419854165,0.005438644192861429,0.9930327374695528
2015-05-27,1,0.00047115450764611915,0.0005022097560350772,-0.0056868775419854165,0.005438644192861429,0.9932207793078195
2015-05-29,1,0.0006827840755027338,0.0006964466729356988,-0.006929869722420825,0.004679385562011724,0.9930846285943814
2015-06-02,1,0.0003879217996378304,0.0004389549651338284,-0.00723538833899924,0.005438644192861429,0.9923814781000436
2015-06-04,1,0.0005140808827044254,0.0005264638051748381,-0.007128362549033931,0.005803710665341541,0.9921957879666066
2015-06-08,-1,-0.0009288715006441954,-0.000638502370573923,-0.00881316280794377,0.006044274270127574,0.99181943940335
2015-06-10,-1,-0.0006938244874072254,-0.0003936060634540893,-0.011885652206127814,0.006044274270127574,0.9911369940370938
2015-06-12,-1,-0.0009258899101106322,-0.0006175035557834615,-0.00881316280794377,0.006099391946810988,0.9909949728118829
2015-06-16,-1,-0.0010555590711601602,-0.0007875326009052201,-0.007128362549033931,0.006099391946810988,0.99135866654434
2015-06-18,-1,-0.0008903846451700289,-0.0006691010827019217,-0.007128362549033931,0.007318625016958789,0.990563258412749
2015-06-22,-1,-0.00275310739146514,-0.0022074808306757534,-0.005069318388409191,0.006835011541737653,0.9917420536491569
2015-06-24,-1,-0.003311051543738953,-0.0027003032575510727,-0.005031403434723849,0.007528125251415297,0.990840521700909
2015-06-26,-1,-0.003158572534845232,-0.002610018530488634,-0.00604790395410468,0.007528125251415297,0.9907163318225951
2015-06-30,-1,-0.0019172617280748846,-0.0016411260881118354,-0.0038110301839555643,0.007528125251415297,0.9915103739893532
2015-07-02,-1,-0.0010906234830519316,-0.0009345088582423625,-0.004409750857650023,0.006221869663952469,0.9919489410424704
2015-07-07,-1,-0.0007814575642976156,-0.0006826091808252247,-0.0038107894387504233,0.006221869663952469,0.992502241669364
2015-07-09,-1,-0.0010816986056657882,-0.0009593160658755422,-0.002839770171013888,0.006221869663952469,0.9926240237547805
2015-07-13,-1,-0.00016523837679105523,-0.00016225414307490164,-0.002839770171013888,0.006221869663952469,0.9930943729593323
2015-07-15,-1,-0.00013320219709107026,-0.0001295614464982271,-0.0031822626632339356,0.006221869663952469,0.9926598797050363
2015-07-17,1,0.0003082431137701599,0.00037476553299525567,-0.0031822626632339356,0.006574163321443144,0.9926562710012599
2015-07-21,1,0.0005177644074339921,0.0006347822724926469,-0.0031822626632339356,0.007163944359348612,0.9921504659395358
2015-07-23,1,0.0003612793648051352,0.00046720859577324545,-0.002464762346690963,0.00687576861281762,0.9931029259800056
2015-07-27,-1,-0.0006698925652145101,-0.0005992292372607354,-0.002464762346690963,0.00687576861281762,0.9895891958076452
2015-07-29,-1,-0.0005510758041109403,-0.0004766249236416566,-0.003381836221132088,0.009143579627195648,0.9879305151078263
2015-07-31,-1,-0.0006952863210904507,-0.0005880589518285383,-0.002464762346690963,0.011692792833956966,0.9876921559107346
2015-08-04,-1,-9.331232113604093e-05,-7.513189917759537e-05,-0.011685820168906957,0.011692792833956966,0.9867569778543447
2015-08-06,1,0.0008691886623072088,0.0009922617700210432,-0.011685820168906957,0.01081365271765834,0.9876161265258835
2015-08-10,1,0.001154584008978194,0.0013029751507482794,-0.011685820168906957,0.01081365271765834,0.9861605579219225
2015-08-12,1,0.0009985730517142297,0.0011668770846634817,-0.011575109886813543,0.011692792833956966,0.9855980028392733
2015-08-14,1,0.0013837397946106075,0.001583925147336913,-0.012047948441862516,0.01081365271765834,0.9856661309114695
2015-08-18,1,0.0014275211030908906,0.0015964267403605931,-0.012047948441862516,0.009296403226480138,0.9860194433733334
2015-08-20,1,0.0017913566244126301,0.0020473158356331556,-0.013948810490681935,0.009296403226480138,0.9848434601584056
2015-08-24,-1,-0.0010144014236182699,-0.000884908610425157,-0.011978481971625425,0.01081365271765834,0.9872353051261696
2015-08-26,-1,-0.00047088894061785534,-0.0003948009131584366,-0.011978481971625425,0.01081365271765834,0.9881219904819468
2015-08-28,1,4.3501907494889865e-05,5.181322880114902e-05,-0.013948810490681935,0.011048819537157284,0.9854858810886346
2015-09-01,-1,-0.0009252041306465401,-0.0008131924433684407,-0.011276027104705875,0.013019162780295489,0.9855913084312244
2015-09-03,-1,-0.0005453912319930189,-0.00045800740411410033,-0.011276027104705875,0.013019162780295489,0.9859343162580717
2015-09-08,1,0.00030001873794444425,0.00032015066298417624,-0.011276027104705875,0.013019162780295489,0.9865293109932673
2015-09-10,1,3.388516188481476e-05,7.630531262966713e-05,-0.010717046196728941,0.006578722981732468,0.9875456978687379
2015-09-14,-1,-0.0002418118321603052,-0.00016496262209131035,-0.010717046196728941,0.013019162780295489,0.9863640646493135
2015-09-16,-1,-0.0004883262321598824,-0.00036660801628525823,-0.010717046196728941,0.013019162780295489,0.9856260756159524
2015-09-18,-1,-0.00119993509929921,-0.0009985151488232907,-0.00983256517476943,0.016053455244204883,0.9849144755350755
2015-09-22,-1,-0.0014579508139544181,-0.0012272258740284462,-0.009014873386104724,0.014221102264767138,0.9858441092498829
2015-09-24,-1,-0.0012655639433393519,-0.0010709448498418725,-0.009014873386104724,0.020662875993869304,0.9842204419374518
2015-09-28,-1,-0.0010347363642205032,-0.0008701539297815392,-0.008077731065495789,0.014253950126699295,0.9865765735897046
2015-09-30,1,0.0008726253724678074,0.0010284548378647258,-0.008077731065495789,0.014253950126699295,0.9862454294684947
2015-10-02,1,0.0005423346753072058,0.0006689049217462745,-0.008271872517795325,0.017052430884653618,0.9844459390276433
2015-10-06,1,0.0012879239882808728,0.0015201654500107882,-0.008271872517795325,0.017052430884653618,0.9840629345428867
2015-10-08,1,0.0008002065951220807,0.0009448999030004904,-0.006207883142142114,0.017052430884653618,0.9842250485253939
2015-10-12,1,0.0005840679851950928,0.0006848169633874017,-0.004333108480765091,0.013385002522377225,0.9858601084269667
2015-10-14,1,0.00011452652058375166,0.000163155082624179,-0.0015328540924649944,0.013385002522377225,0.9861112092232882
2015-10-16,1,0.0011436033341953359,0.0013094950980463258,-0.004333108480765091,0.010616539450538337,0.9871284528593762
2015-10-20,1,0.0017894383140886804,0.002057459143280164,-0.004333108480765091,0.012850167419089006,0.9871096984789083
2015-10-22,1,0.0022630012636105355,0.002584952661284848,-0.003411392622316594,0.009972984432070415,0.9894886951342975
2015-10-26,1,0.0023575504703392505,0.0026841866215347055,-0.0027194309615468457,0.00803537761513385,0.9901991239362072
2015-10-28,1,0.0036115586706082802,0.004102903330061669,-0.003411392622316594,0.005205859844013978,0.9906071677500223
2015-10-30,1,0.0032221849767422725,0.0036987838370497075,-0.0027194309615468457,0.0035526059937016183,0.9930262258521222
2015-11-03,1,0.004018318097791948,0.004581194423918347,-0.002878442061885955,0.0034198030037122153,0.9939510615870761
2015-11-05,1,0.0037510019023328112,0.004240271836491228,-0.004463913468233774,0.0034198030037122153,0.9914002305629281
2015-11-09,1,0.0035709617668650165,0.004026080157555918,-0.006463041051222524,0.0031488247237352485,0.9909701783066461
2015-11-11,1,0.003578579693793554,0.004004877254547718,-0.007821687756070858,0.0023765776580402607,0.9893254470709846
2015-11-13,1,0.002520752041492564,0.0027782627922931114,-0.007821687756070858,0.0031488247237352485,0.9892635454927596
2015-11-17,1,0.0026446147330011073,0.0028966530592254053,-0.009200930060077495,0.0031488247237352485,0.9885967664957003
2015-11-19,1,0.0024415922675865894,0.0026362842664812147,-0.01089760257199509,0.0026615836377349897,0.9882370339019323
2015-11-23,1,0.0025744991543505567,0.002810839701389864,-0.01089760257199509,0.0048743218888656565,0.9875605763118896
2015-11-25,1,0.0019854032497153163,0.002139209428080182,-0.009200930060077495,0.0048743218888656565,0.9884069679228642
2015-11-30,1,0.0016638762002917531,0.00174428698030663,-0.009200930060077495,0.010090514068337265,0.9876224713111644
2015-12-02,1,0.001779758062213763,0.001910292166219017,-0.009200930060077495,0.010090514068337265,0.9877654058200857
2015-12-04,1,0.0022325982047528667,0.0024205665425720514,-0.009200930060077495,0.010090514068337265,0.9886279776476925
2015-12-08,1,0.0019053335701544405,0.0020702479946502223,-0.008976941751511376,0.010090514068337265,0.9885157315886018
2015-12-10,1,0.0007734852390512591,0.0007848507601159708,-0.008976941751511376,0.010090514068337265,0.9889306948884854
2015-12-14,-1,-0.0003995679739146815,-0.0002571723622081612,-0.008976941751511376,0.010090514068337265,0.9892297539907486
2015-12-16,-1,-0.0004914215047224836,-0.0003123562605284501,-0.010511805412805235,0.010090514068337265,0.9889797608858446
2015-12-18,-1,-0.0008821957588146236,-0.0006686161822330088,-0.010532944632449102,0.010955661380435947,0.9879057275935246
2015-12-22,-1,-0.00021565024394992814,-8.103216787994018e-05,-0.010532944632449102,0.010685362994961794,0.9870307152539717
2015-12-24,1,0.00013148238642996245,0.00021220574110332433,-0.011327635605665898,0.01192481147850322,0.9862937220824113
2015-12-29,1,0.001186210677536208,0.0012809229521980406,-0.011327635605665898,0.009986492278306464,0.9867561367903669
2015-12-31,1,0.0011732194051560876,0.0012873857139085471,-0.011327635605665898,0.01242452489029418,0.9849386273778432
2016-01-05,1,0.0009910381113036584,0.0010480365234695633,-0.009380801629751228,0.011628282202121204,0.9862046739079733
2016-01-07,1,0.0008942233973077593,0.0009644348652315521,-0.016126733568814288,0.011628282202121204,0.9817801329013706
2016-01-11,1,0.0009181760885311142,0.0010151201245250142,-0.012110332015963655,0.01242452489029418,0.9817425956161099
2016-01-13,1,0.0001525246709290621,0.0001568964040383795,-0.014990428155291011,0.01242452489029418,0.9812892254378006
2016-01-15,-1,-0.00188050362441921,-0.0014912861636943045,-0.010948867134491473,0.012239998063256825,0.9819173246022425
2016-01-20,-1,-0.0019680246373521303,-0.0015993728939086818,-0.009924442480937181,0.012239998063256825,0.9816010987397297
2016-01-22,-1,-0.0004379879257184606,-0.00026776631699772734,-0.009924442480937181,0.012239998063256825,0.9825421945907218
2016-01-26,-1,-0.001297046773069786,-0.0009578559599213626,-0.010884474527379635,0.012239998063256825,0.9820623644612789
2016-01-28,-1,-0.0005607341128700745,-0.00033798358189947243,-0.01550933320485988,0.012239998063256825,0.9815283444417051
2016-02-01,1,0.0016432701793739238,0.001727219398444476,-0.02060608177721582,0.011302372664387791,0.9818715165983262
2016-02-03,1,0.0010133176641669178,0.001017907731526991,-0.02060608177721582,0.012172181692297352,0.9816995552662915
2016-02-05,-1,-0.003254589092100439,-0.002744980551999076,-0.015308962304777747,0.012172181692297352,0.9855063568471885
2016-02-09,-1,-0.0022439894472186936,-0.0018498482322881192,-0.015308962304777747,0.009303694454021051,0.9863919577475893
2016-02-11,-1,-0.004337881804007737,-0.0036571158324304274,-0.010710070280091017,0.011661977952507641,0.9866263672628253
2016-02-16,-1,-0.003824239606836982,-0.003186242096524735,-0.010710070280091017,0.009762270353916788,0.9875145461242185
2016-02-18,-1,-0.002917201995946611,-0.002382817329004118,-0.013441831872857144,0.009762270353916788,0.9884513944149456
2016-02-22,-1,-0.0024539785391677832,-0.0019804002269755514,-0.013441831872857144,0.008847016321618464,0.9891268007585252
2016-02-24,-1,-0.0022087894621352026,-0.0018188800046261837,-0.009324590855742195,0.0065888523674928505,0.989998925176061
2016-02-26,-1,-0.0033520267910168104,-0.002797818766766229,-0.008366856951211487,0.0065888523674928505,0.9904391764141001
2016-03-01,-1,-0.0042088496081993665,-0.0035932474460813927,-0.006711844970780506,0.0065888523674928505,0.991284059016093
2016-03-03,-1,-0.003595102680550237,-0.0030337362207271384,-0.006711844970780506,0.006484272258142496,0.9919377036696799
2016-03-07,-1,-0.004172753872849705,-0.0035364116716418933,-0.005567597702094742,0.005808740839790791,0.9924962061621458
2016-03-09,-1,-0.005363349977307825,-0.004553528255681149,-0.002829162431433913,0.005808740839790791,0.9916880468305047
2016-03-11,-1,-0.003420067491120895,-0.0029087003999672244,-0.0049061636631631406,0.0031001545253640356,0.9939773586559361
2016-03-15,-1,-0.002947854746286062,-0.002521680985889227,-0.0049061636631631406,0.0039912630493839215,0.9931156096787708
2016-03-17,-1,-0.002532197960041677,-0.0021894311079017573,-0.004279602034247767,0.0039912630493839215,0.9940127498665027
2016-03-21,-1,-0.0021769773717515055,-0.001889310013072981,-0.004279602034247767,0.004370197830014559,0.9935480973217085
2016-03-23,-1,-0.0012281699351324137,-0.0011291164326056682,-0.004279602034247767,0.0035204535002836645,0.9937811971716662
2016-03-28,-1,-0.001793985954359663,-0.0015954381797208053,-0.003360566713284802,0.003955093970881039,0.9939320185104449
2016-03-30,-1,-0.0012478301360353183,-0.0011727179889695616,-0.003215619689665432,0.004907699422865304,0.9932642125029238
2016-04-01,-1,-0.0006663529172440584,-0.0006632826698217374,-0.003786766957980747,0.003955093970881039,0.993345839356069
2016-04-05,-1,-0.0003792804749893044,-0.0003369357679608114,-0.004279602034247767,0.004907699422865304,0.9920472808671768
2016-04-07,-1,-0.00040340832317225324,-0.0003582064389087467,-0.004279602034247767,0.008235976684235438,0.9884672518796416
2016-04-11,-1,-0.0009275081515869601,-0.0008788071983363546,-0.0034949495524456997,0.012438037672868125,0.9874773443270579
2016-04-13,1,1.2965241944888368e-06,9.431485918200578e-05,-0.005097081633276249,0.009585941239394158,0.9881759894372201
2016-04-15,1,0.0002491097047865204,0.000384143083407977,-0.00851701408554542,0.01183485319729448,0.9876502476406536
2016-04-19,1,0.000750083026683814,0.0009561414466802324,-0.009611571717952069,0.010269381407099282,0.9873354633936948
2016-04-21,1,0.00037359575747487303,0.0005087301376412582,-0.00851701408554542,0.01417970542686675,0.9870011431128525
2016-04-25,1,0.0004747822530146712,0.0006273764903062455,-0.00851701408554542,0.01417970542686675,0.9867888817026975
2016-04-27,1,0.0008406091087944393,0.0010390818562950547,-0.00851701408554542,0.01417970542686675,0.9864697528989024
2016-04-29,1,0.0007821793373198962,0.001007873892562335,-0.007606009215998309,0.01417970542686675,0.9864943915741773
2016-05-03,1,0.0007877495286367359,0.0009970696485656475,-0.007436649422298413,0.010269381407099282,0.9876356074225975
2016-05-05,1,0.0018078045347560904,0.0020956603362831004,-0.006980445455135957,0.009057267774235411,0.9914476435153962
2016-05-09,1,0.002045818915816378,0.002317752553259062,-0.006980445455135957,0.006734793956490775,0.9921426312766185
2016-05-11,1,0.001914616249814009,0.002181956042207104,-0.006980445455135957,0.006734793956490775,0.9920062734336088
2016-05-13,1,0.0018431363843882888,0.002077676032033851,-0.006564724447708012,0.004381067990377031,0.9925205597484746
2016-05-17,1,0.0018664327218164837,0.002139484459381804,-0.006564724447708012,0.0034669115310692975,0.9926280418690154
2016-05-19,1,0.0022624811403357606,0.0025984983123629457,-0.006980445455135957,0.0030819689632934646,0.9926270908065
2016-05-23,1,0.0029074146961959473,0.0033655564169764395,-0.006980445455135957,-0.0012994668487406112,0.9917844355948192
2016-05-25,1,0.0033973894543152996,0.003908566804158008,-0.006980445455135957,0.000834394917146762,0.9921683168258478
2016-05-27,1,0.0034959260202308434,0.004028216453519586,-0.007814499828339807,-0.0012994668487406112,0.9897620918868903
2016-06-01,1,0.003136675638503902,0.003596709805401315,-0.007299868345429167,0.000834394917146762,0.9888867605062663
2016-06-03,1,0.0025963757351410866,0.0029722512277477204,-0.008950901303283545,0.0032760574399493627,0.9889086676564163
2016-06-07,1,0.00216215483485979,0.0024381982197993484,-0.008950901303283545,0.005214969464264774,0.9889767740635644
2016-06-09,1,0.0018367459081577962,0.0020584533718161686,-0.006768120363069836,0.009205010633706358,0.989060341411609
2016-06-13,1,0.0014454636690396736,0.0015927875496216707,-0.006768120363069836,0.01026973515569851,0.9891387766514916
2016-06-15,1,0.0014722474674224546,0.001685516877925624,-0.005126442426638693,0.011436568318016408,0.9893546928390774
2016-06-17,1,0.0011274836408271829,0.0012968045746237114,-0.003936354262975268,0.011436568318016408,0.9898764615364742
2016-06-21,1,0.000980908121881126,0.0011517843288566345,-0.003493768973410057,0.011436568318016408,0.98998027277167
2016-06-23,1,0.0024022326705316057,0.002851374340734958,-0.003493768973410057,0.010236184207648366,0.990915396616202
2016-06-27,1,0.0005609467004602661,0.0007421100707552611,-0.0016061108346157476,0.010236184207648366,0.9931114610451577
2016-06-29,1,7.075566399366754e-05,0.00012737176018394616,-0.0016061108346157476,0.0076582252525488614,0.9944751594309847
2016-07-01,1,0.0004379521440325034,0.00046423634372299536,-0.0016061108346157476,0.005444811348347763,0.9955007233031594
2016-07-06,0,-2.4973058306793794e-05,5.6362983089780494e-05,-0.0028476848316293856,0.005444811348347763,0.9930871317189978
2016-07-08,1,0.0004200122266530678,0.0004262325432237399,-0.0014036172722983304,0.004663500149713841,0.9937728523003619
2016-07-12,1,0.0009765086269605453,0.0010787928181202036,-0.0028476848316293856,0.003241315446663881,0.9942204716169448
2016-07-14,1,0.0011916494276548195,0.0013366266899408415,-0.0014036172722983304,0.003241315446663881,0.9945991389208709
2016-07-18,1,0.0009971579673183522,0.001103603485265512,-0.0014036172722983304,0.004663500149713841,0.9944984353039686
2016-07-20,1,0.0007065420914965384,0.000752647221062519,-0.0014036172722983304,0.004703537880759428,0.9940499991601287
2016-07-22,1,0.00030771922693554937,0.00035324169175177784,-0.0028990798208134187,0.004703537880759428,0.9939663980356946
2016-07-26,1,0.00038311836799714523,0.0003969183994385585,-0.0027330242826375463,0.004703537880759428,0.9939461835455811
2016-07-28,1,0.0004174928514679724,0.0004399533977473251,-0.003162578860790152,0.001270117921940629,0.9941540076542668
2016-08-01,1,4.490562745273043e-05,0.00013240376421335456,-0.0027330242826375463,0.0021451809587059475,0.9943197311370807
2016-08-03,1,0.0012580008232237932,0.0013456102610243496,-0.0023860118798352406,0.0036150315995015763,0.9962940658742808
2016-08-05,1,0.0012021659876196044,0.0012801193675958588,-0.0023860118798352406,0.004970939669535301,0.995960255546889
2016-08-09,1,0.0009872382867430801,0.001032608736663532,-0.0023860118798352406,0.004970939669535301,0.9958631044002081
2016-08-11,1,0.0010450023295750963,0.0010989493796249154,-0.003162578860790152,0.003928538974984656,0.9958514028595362
2016-08-15,1,0.0010394396195067147,0.0010840368068072465,-0.0037326868398083737,0.003946834132093476,0.9950253976670225
2016-08-17,1,0.0009742933745529248,0.0009980476170804576,-0.0037326868398083737,0.003946834132093476,0.9953097955522004
2016-08-19,1,0.0006716365719867171,0.0006966889341056364,-0.0032345202252807557,0.003946834132093476,0.9954773022590827
2016-08-23,1,0.0005679029302850107,0.0005973776387692574,-0.004023310898283284,0.005484891960673608,0.9950836917518618
2016-08-25,1,0.00040797983225856924,0.00045383640571183527,-0.004549767803474383,0.005484891960673608,0.9943114145313686
2016-08-29,1,0.00026293305498563,0.0003434671317871957,-0.005734075262363663,0.005484891960673608,0.9940511351189697
2016-08-31,1,0.00029174694657439586,0.00038304367115417966,-0.007294998445017203,0.0028950367707542353,0.993658381458851
2016-09-02,1,0.0006907511506500635,0.000716379750369798,-0.007294998445017203,8.035976991957667e-05,0.9935130954652144
2016-09-07,1,0.00047863323576596156,0.000528489827192734,-0.007294998445017203,0.002206648695909835,0.9938864786534453
2016-09-09,1,0.0004366796305571881,0.00047756237571019484,-0.007294998445017203,0.002206648695909835,0.9939606383919225
2016-09-13,1,0.00017590180695283236,0.0002586968081958826,-0.007294998445017203,0.002206648695909835,0.9943608488576807
2016-09-15,1,8.495067507154796e-05,0.00018127155289788014,-0.007294998445017203,0.002206648695909835,0.9945449446384188
2016-09-19,1,0.00018167718945600884,0.0002556210353333207,-0.007971698273502846,0.0024347613388192735,0.992820357182959
2016-09-21,0,-0.00010767211244536455,1.8138525144508616e-05,-0.007971698273502846,0.0024347613388192735,0.9932047936006277
2016-09-23,-1,-0.0007087386754429183,-0.0004996715697422882,-0.007523092712500895,0.0037019907166084922,0.9938181284915192
2016-09-27,-1,-0.0002570384939902836,-0.00014849897864705982,-0.006605929515791795,0.0037019907166084922,0.9939999835578909
2016-09-29,-1,-0.000414290718667892,-0.0003228778948516408,-0.0024620528449170818,0.0037019907166084922,0.9947688822030823
2016-10-03,-1,-0.0006602162638433213,-0.0005282785510212385,-0.0022339363964529665,0.005294686472412231,0.9944252927733068
2016-10-05,-1,-0.0005312072255125958,-0.0004205335690233078,-0.0024620528449170818,0.006502451617606628,0.9928442914020307
2016-10-07,-1,-0.0008391502534657409,-0.0006782654473876926,-0.0040605557575693575,0.0068298821324558,0.9917108636171357
2016-10-11,-1,-0.0008395943465030668,-0.0006967412728085463,-0.0024620528449170818,0.007658717421774601,0.9912324523015024
2016-10-13,-1,-0.0005760285869817257,-0.0004772910227561374,-0.0022339363964529665,0.008576572071387957,0.9892908613172487
2016-10-17,-1,-0.00021089642057315234,-0.00018986240179503117,-0.003642285972104618,0.007026758387385744,0.9897079043325929
2016-10-19,-1,-5.285020967355804e-05,-5.1681787681414175e-05,-0.008131648229899344,0.006909980883999526,0.9891439996619202
2016-10-21,-1,-0.00020508201301230067,-0.00018011205492269756,-0.004172679062871997,0.008253128816388698,0.9892925031664147
2016-10-25,-1,-0.0003860444276508976,-0.0003195246160151973,-0.010225453281816042,0.008253128816388698,0.988456611510303
2016-10-27,-1,-0.0005176075962823517,-0.00043390302512260584,-0.010225453281816042,0.008253128816388698,0.9881878542140038
2016-10-31,-1,-0.0002168143466760589,-0.0001516758127570738,-0.011298620792460459,0.008253128816388698,0.9877476925996246
2016-11-02,-1,-0.000995699843454365,-0.0008271648956018552,-0.01008055000574962,0.011171967817390558,0.9881535887335497
2016-11-04,-1,-0.0011405933838218143,-0.0009291827210410616,-0.004002678601182306,0.011171967817390558,0.9880736821216098
2016-11-08,-1,-0.0006712149039658223,-0.0004932929220591066,-0.004002678601182306,0.010989690142668219,0.9881930853828363
2016-11-10,1,0.0006221097827643881,0.0006694995183542166,-0.004002678601182306,0.009212729134166396,0.9903006744166086
2016-11-14,0,-0.00010596709250246158,2.5914483202653816e-06,-0.0015074608679933816,0.009212729134166396,0.9914637768194545
2016-11-16,-1,-0.0022237300242624464,-0.0017595143516427306,-0.0014604915346615303,0.009212729134166396,0.9909851350366992
2016-11-18,-1,-0.0011402633825573628,-0.0008760446985754415,-0.003387714980284285,0.009212729134166396,0.991447484925114
2016-11-22,-1,-0.001494312286837743,-0.001187429265330366,-0.003387714980284285,0.009212729134166396,0.9914116607674772
2016-11-25,-1,-0.0012107383219973583,-0.0009488190984638044,-0.005123949990857665,0.009212729134166396,0.9915111653790176
2016-11-29,-1,-0.001005803899441349,-0.0007801616900400375,-0.005123949990857665,0.008291740907636427,0.9918304422763637
2016-12-01,1,0.00020779661918245162,0.00026973258162087295,-0.005123949990857665,0.0066015939858786975,0.9928715134187466
2016-12-05,1,0.0011411253437312112,0.0012058648718189283,-0.005123949990857665,0.0066015939858786975,0.9927828827380021
2016-12-07,1,0.0017607575257250498,0.0019062738938844656,-0.005123949990857665,0.0041306914963427,0.9930073399222089
2016-12-09,1,0.0019189352546961059,0.002079775225607449,-0.005942814727359401,-0.0008254561695854036,0.9925294823053269
2016-12-13,1,0.0016889414121107724,0.0018176545023062141,-0.005942814727359401,-0.00020566535055179826,0.9928276715307185
2016-12-15,1,0.0009244902280250175,0.0009400973276144348,-0.00581322929225015,0.0014096206572987771,0.9938206142729752
2016-12-19,1,0.0006625236970048098,0.0006634373444860208,-0.005712349919959542,0.0030781782927317993,0.9935099407124323
2016-12-21,1,0.000303041523093407,0.00035126887180615826,-0.005712349919959542,0.0030781782927317993,0.9937489231690181
2016-12-23,1,0.0009350443374049173,0.0010593107244879205,-0.004683505133301849,0.007817502782040494,0.9932600863170286
2016-12-28,1,0.0008045268854153056,0.000910683384157429,-0.00453465435490659,0.006802161084648114,0.9937820657728565
2016-12-30,1,0.0005685612307851795,0.0006342145246789479,-0.00453465435490659,0.007367874940093834,0.9936968419205044
2017-01-04,1,0.001143847916179366,0.001296875119639429,-0.00453465435490659,0.006683198702328732,0.9947340136143652
2017-01-06,1,0.001288551210026058,0.0014702808476153295,-0.00453465435490659,0.004529607639828835,0.9950934300802067
2017-01-10,1,0.0009780631914902574,0.0011283809433667007,-0.002829712373067886,0.007367874940093834,0.9921449429246603
2017-01-12,1,0.0008754895157474373,0.0010032613196853217,-0.0016307203005795743,0.007968997983521886,0.9918524142648739
2017-01-17,1,0.0006017408318436409,0.0006817603913944572,-0.0016307203005795743,0.00889304339766852,0.9906866625162579
2017-01-19,1,0.0007597612991776588,0.0008467439570321513,-0.0016307203005795743,0.007968997983521886,0.9911663142463627
2017-01-23,1,0.0007466204394609935,0.0008407510509315344,-0.00444326535666495,0.0076121108365637385,0.9913707144607375
2017-01-25,1,0.0016018104589795704,0.001833265585693319,-0.00444326535666495,0.006249135651985219,0.9916884563896573
2017-01-27,1,0.0017355071410946582,0.0020078298886487995,-0.0047220825572967945,0.006249135651985219,0.9914349770302896
2017-01-31,1,0.0018664858026375976,0.0021424637304322336,-0.006184794661039177,0.006249135651985219,0.9896851039617787
2017-02-02,1,0.0017287623711257616,0.0019746465572094505,-0.006567369852464417,0.006249135651985219,0.9893354105085141
2017-02-06,1,0.0017152114138778757,0.001953722894582498,-0.006695290459004146,0.006249135651985219,0.9889276432576761
2017-02-08,1,0.0008860801181685915,0.0010135617636934375,-0.006479998516191077,0.007303552699115816,0.9913898733491441
2017-02-10,1,0.0012490151330997194,0.0014272279722036226,-0.006479998516191077,0.006249135651985219,0.9917012779748358
2017-02-14,1,0.0017678608175037518,0.0020127968368959144,-0.006227434863219087,0.00510957407606616,0.9929751902601586
2017-02-16,1,0.0013171877744944606,0.0014567702425331746,-0.004848910643800701,0.005220657105913751,0.99241631310286
2017-02-21,1,0.0007011983766800702,0.0007382633807530945,-0.006537991783186236,0.005220657105913751,0.9917754497085357
2017-02-23,1,0.00034494439237290497,0.0003901909037978453,-0.006537991783186236,0.0040112514683268785,0.9920179508335292
2017-02-27,0,-7.443936652526986e-05,2.7944550695566963e-05,-0.006537991783186236,0.0040112514683268785,0.9922925645154027
2017-03-01,1,0.0006851374604901117,0.0006974324506860207,-0.006537991783186236,0.0040112514683268785,0.9934923213554762
2017-03-03,1,0.00036670919105694934,0.00042602981258021283,-0.004502228225139227,0.005384826468216303,0.9933066084451285
2017-03-07,1,1.721602161466082e-05,0.00013403799500978793,-0.004502228225139227,0.004307229879217937,0.9933695705228179
2017-03-09,1,0.0008848467409764499,0.0008967803162362788,-0.004502228225139227,0.0036230289983157403,0.9938242720849054
2017-03-13,1,0.0009196810637251825,0.0009378676464557075,-0.006317679318165367,0.005186459548031606,0.9932637563376802
2017-03-15,1,0.0008677580642330512,0.0008892192130979807,-0.006765698551020146,0.005186459548031606,0.9930280886061479
2017-03-17,1,0.0012343018799958465,0.0012481252522087661,-0.007019294390253669,0.005186459548031606,0.9931022132907499
2017-03-21,1,0.00028613814833489603,0.00038547261633549695,-0.006402211264576542,0.005186459548031606,0.9940704503538499
2017-03-23,0,-3.237793195276278e-05,0.000113923099943203,-0.006402211264576542,0.007670320405438066,0.9936314051701759
2017-03-27,0,-0.0001103446081194005,2.024265296794649e-05,-0.005545079692834868,0.007670320405438066,0.993553839081888
2017-03-29,-1,-0.0007321609893234447,-0.0004918306262513554,-0.005545079692834868,0.007069342240354258,0.99352466278155
2017-03-31,-1,-0.0003794726219474258,-0.00018477993554709155,-0.005545079692834868,0.00498613349300367,0.9940865271062022
2017-04-04,-1,-0.00026975034897595406,-0.00012562184650862038,-0.004915247907968077,0.00498613349300367,0.9941905152097325
2017-04-06,1,0.001091958225947463,0.0012096983441205974,-0.005545079692834868,0.004341195292922606,0.9941155723696837
2017-04-10,1,0.0005841239927837972,0.0005931187919211317,-0.005665992755586096,0.0034022890923960402,0.9934828641563813
2017-04-12,-1,-0.00028966308820327217,-0.00013992258558984648,-0.004915247907968077,0.0034022890923960402,0.993917653914906
2017-04-17,0,-8.54633594584402e-05,3.208898064578755e-05,-0.004751051623619987,0.0034022890923960402,0.9941764125340271
2017-04-19,-1,-0.00043822294056236784,-0.0002644802829733159,-0.004810695983892901,0.0034022890923960402,0.9935715170308902
2017-04-21,-1,-0.00018064449816747124,-4.086407343779344e-05,-0.004810695983892901,0.004341195292922606,0.9932435030859098
2017-04-25,1,8.368725261209686e-05,0.00019123682109462096,-0.004810695983892901,0.004455603150270311,0.9932512468157488
2017-04-27,1,0.00010670405635408012,0.00016826692398866832,-0.004751051623619987,0.0072569608498776,0.993594876916911
2017-05-01,1,0.0006355886327022891,0.0006831527446111683,-0.004751051623619987,0.0072569608498776,0.993569867351707
2017-05-03,1,0.0009163201399809049,0.0010422232618395905,-0.003546238718099508,0.0072569608498776,0.9939594079758004
2017-05-05,1,0.0011235392033082823,0.0012943565360021714,-0.0030717241252069018,0.0072569608498776,0.9936275557768844
2017-05-09,1,0.00025928367002726416,0.00030790849196296263,-0.0017245977321464405,0.008382468307289039,0.992973412382591
2017-05-11,1,1.623251825392307e-05,3.2990251714576375e-05,-0.0017245977321464405,0.008382468307289039,0.9927447691605247
2017-05-15,-1,-0.00011955854991594253,-6.631324629390834e-05,-0.0006208676645191065,0.00747856100357055,0.9929915920660888
2017-05-17,-1,-0.001011755207439661,-0.0008439387884824634,0.0002663363239835595,0.00747856100357055,0.9933452370538212
2017-05-19,-1,-0.00046491337330628406,-0.0003442806256520436,-0.0004033753487658042,0.004167212469325754,0.9945721536873526
2017-05-23,-1,-0.0002472327574369747,-0.00014537249317362445,-0.0010680827859461605,0.0031374798483624995,0.9947950507926108
2017-05-25,0,-6.555593058641215e-05,2.439210503426501e-05,-0.0016612177477860494,0.002890664332825031,0.9950899879510164
2017-05-30,0,-1.3726666470873861e-05,4.8552157961269463e-05,-0.0006962724066351671,0.0031374798483624995,0.994463931239959
2017-06-01,1,7.863828920475201e-05,0.00012895655497074612,-0.0012402178958626788,0.0042410791872234035,0.9938241481435525
2017-06-05,1,0.0006173292076155699,0.0006250627317250539,-0.0012402178958626788,0.0042410791872234035,0.9944683236513511
2017-06-07,1,0.0015425688256407283,0.0016500111997410566,-0.0024265048704979093,0.0031374798483624995,0.9957240652774113
2017-06-09,1,0.0015250838648057496,0.0016155307654587116,-0.0032710427068215965,0.0031374798483624995,0.995321795211746
2017-06-13,1,0.0018115710000448809,0.001952665960946346,-0.0032710427068215965,0.0031374798483624995,0.9951850743794199
2017-06-15,1,0.0017081865615255528,0.0018272036413006381,-0.0036384930196590023,0.004042699947047857,0.9936741103983185
2017-06-19,1,0.0019773017275935985,0.0021674716899097923,-0.0036384930196590023,0.00480888143704491,0.9935112033714515
2017-06-21,1,0.0016026861116820628,0.001736333570423455,-0.0024265048704979093,0.00480888143704491,0.9940601098798708
2017-06-23,1,0.001636286302911792,0.0017864831578999082,-0.0019327414660009318,0.007968888470982635,0.9937578891099587
2017-06-27,1,0.0021063398103406475,0.0023149188465683692,-0.003513832503058778,0.00480888143704491,0.9939067832512106
2017-06-29,1,0.002257719534952781,0.0024851457195330753,-0.003167410595942685,0.0037517092321840244,0.9943308104372459
2017-07-03,1,0.0021723760782834836,0.0023335046369262345,-0.003167410595942685,0.0043698915623366676,0.9943957451081732
2017-07-06,1,0.0018962802613418349,0.002034477708193822,-0.003340242760661915,0.0043698915623366676,0.9933992027061425
2017-07-10,1,0.0015539512454844355,0.0016911390823614175,-0.004164674696644164,0.0043698915623366676,0.9932077734778108
2017-07-12,1,0.0016296206699605376,0.0017724249923630228,-0.004164674696644164,0.0043698915623366676,0.9927316399702406
2017-07-14,1,0.0011917572212144893,0.0012520370406808002,-0.004164674696644164,0.0037517092321840244,0.9937638933861133
2017-07-18,1,0.0011919085683948184,0.001252107417915984,-0.004164674696644164,0.005303358825136989,0.9935197590756257
2017-07-20,1,0.0010103338692933667,0.001031352375046351,-0.005184724623429823,0.005303358825136989,0.9927603580174779
2017-07-24,1,0.0016840574528510749,0.0018222127881372752,-0.005892897908984771,0.004002659063073039,0.9926982824666901
2017-07-26,1,0.0013333327459546462,0.001414766609008467,-0.00703876491460391,0.005303358825136989,0.9920983667136171
2017-07-28,1,0.0011983361111740972,0.001254903271420112,-0.00703876491460391,0.006180824628071507,0.9916524582102076
2017-08-01,1,0.0018507951101163554,0.0020336145820115505,-0.0073339066921373425,0.003738826717327121,0.991485139311323
2017-08-03,1,0.000923031277575361,0.0009896545236555202,-0.00703876491460391,0.003738826717327121,0.9931717058218671
2017-08-07,1,0.0005081484126401623,0.0005171448567093422,-0.005523242498915503,0.006046195777664414,0.9934773045895084
2017-08-09,1,0.0013101597230876349,0.0014529468811577924,-0.0073339066921373425,0.006046195777664414,0.992547399949007
2017-08-11,1,0.000591368336218702,0.0005961920370702876,-0.005523242498915503,0.006783775554454294,0.9922973013918541
2017-08-15,1,0.0008432161103782147,0.0008736274588522394,-0.005523242498915503,0.00753593238490762,0.9922203664882917
2017-08-17,1,0.000265486551006446,0.00032193053284955344,-0.005523242498915503,0.00753593238490762,0.992517008506902
2017-08-21,-1,-0.00016128567196108887,-4.95514224582504e-05,-0.003081426762557929,0.010198619025577782,0.9923677185678536
2017-08-23,1,0.00017902620391414695,0.00023930046159924203,-0.0024247410836224087,0.00753593238490762,0.9930642146702516
2017-08-25,1,0.00013138437884031102,0.00021175017172741096,-0.0023307044441087314,0.005909334051121617,0.993587864660428
2017-08-29,1,1.1081924648399458e-05,8.663666205469225e-05,-0.0023307044441087314,0.00753593238490762,0.9930018525228347
2017-08-31,-1,-8.678174213745096e-05,-3.207632357804627e-06,-0.0010290884371720968,0.00753593238490762,0.9926880010894087
2017-09-05,-1,-0.00020977104002129073,-9.480169627331064e-05,0.001599743783138706,0.009426855225848968,0.9922376527739212
2017-09-07,-1,-0.0005423009563531019,-0.0003914931447232162,0.0023835375891580624,0.008517571255721102,0.9930065714638231
2017-09-11,1,4.5061385296982085e-05,0.0001372017695721942,0.001599743783138706,0.008024747923897738,0.992742117831914
2017-09-13,1,0.0003692325253350152,0.00041528284995130487,0.0023835375891580624,0.007305420542747786,0.9930839155984288
2017-09-15,1,1.9914545652301526e-05,9.480845321831549e-05,0.0023835375891580624,0.007305420542747786,0.9930277879994416
2017-09-19,1,0.00017240133658705722,0.00025235892241639267,-0.0027666722739069197,0.006445941413980163,0.9929251820221308
2017-09-21,1,0.0003882396343911302,0.0004412357391415672,-0.003377379224643989,0.006445941413980163,0.9923356008059939
2017-09-25,1,0.0004533695144031684,0.0005051921651392626,-0.006737047588991116,0.006445941413980163,0.9916877592704069
