JNU-Tangyin/eata/results/Batch4_SP500/Batch4_SP500-LYB.csv
Date,Action,Predicted_Q25,Predicted_Q75,Actual_Q25,Actual_Q75,RL_Reward
2010-12-14,0,0.0,0.004744405453315352,0.0005398467090230378,0.012721304241967598,0.9913920577055308
2010-12-16,0,0.0,0.0,0.0028103022111402253,0.012721304241967598,0.9899788051570072
2010-12-20,1,0.0017646186024975951,0.001828783882735489,-0.0005819275967944852,0.011155968424245467,0.990758052484867
2010-12-22,0,0.0,0.0,-0.003936064382964598,0.009154559525022714,0.9905575720258231
2010-12-27,0,0.0,0.0,-0.003936064382964598,0.009976133326804148,0.9897241035313896
2010-12-29,0,0.0,0.0,-0.003936064382964598,0.009421963977044534,0.9896925464597256
2010-12-31,0,0.0,0.0,-0.0073612634265672735,0.008544963947682728,0.9878222326162542
2011-01-04,0,0.0,0.0,-0.008217483050285636,0.010582121834722857,0.9868818454181986
2011-01-06,0,0.0,0.0,-0.009442827894932386,0.010582121834722857,0.9864373472004233
2011-01-10,1,0.004724138772096421,0.004780406513244356,-0.009552178436037432,0.007653353087948133,0.9862405214722926
2011-01-12,1,0.005497002977386398,0.005519495847360626,-0.009552178436037432,0.00883914953974151,0.9864061197100528
2011-01-14,1,0.0047525283575925795,0.004843337888301723,-0.008515438920863476,0.00921323965852042,0.9869206164953148
2011-01-19,1,0.002832274648128793,0.003168616887344384,-0.007015683588175956,0.00921323965852042,0.9886726539791647
2011-01-21,1,0.0015824179218944564,0.002040239970666345,-0.0028125897179193636,0.011889551071652646,0.9876587407702989
2011-01-25,1,0.0025456049286214063,0.002807505073914899,-0.008845106028288358,0.013190285879759126,0.9845682152727503
2011-01-27,1,0.002837412162511903,0.003094278553992519,-0.008845106028288358,0.02300150030181535,0.9830936028311655
2011-01-31,0,0.0,0.0,-0.008845106028288358,0.013190285879759126,0.9844769031138239
2011-02-02,0,0.0,0.0,-0.004709511253789483,0.02308871055037332,0.9828572444212132
2011-02-04,0,0.0,0.0,-0.0014340581264197382,0.02308871055037332,0.9831632539222972
2011-02-08,0,0.0,0.0,0.0016284166820302772,0.023294636136647576,0.9827925505633487
2011-02-10,0,0.0,0.0,-0.005106697446937947,0.02239004905111403,0.9824352715288412
2011-02-14,0,0.0,0.0,-0.014161242319887135,0.02239004905111403,0.98212763688044
2011-02-16,1,0.001541843875327581,0.0020473489031704235,-0.014161242319887135,0.022854053190390355,0.9814180588330015
2011-02-18,1,0.00218898418313114,0.0025627012432005635,-0.013798116540582255,0.022854053190390355,0.9811395830389246
2011-02-23,1,0.0009301733736149839,0.0014307501202603466,-0.013798116540582255,0.022854053190390355,0.9831850247171269
2011-02-25,1,0.002225994294815817,0.002577615510022913,-0.013798116540582255,0.021398027798494923,0.9843092921685117
2011-03-01,1,0.0008291244367352748,0.0013571617885964227,-0.007060908557967087,0.021398027798494923,0.9855869096307391
2011-03-03,1,0.004109426383078798,0.004191282556279707,-0.011933265624683581,0.0068554998283544485,0.9868518235998119
2011-03-07,1,0.004509375109358891,0.004536548635238017,-0.011933265624683581,0.014333008508649138,0.9859144537471453
2011-03-09,1,0.005121905306144689,0.005254818502777203,-0.011933265624683581,0.014025333523584855,0.9860303281545665
2011-03-11,1,0.0033081784360153525,0.0034198534564410924,-0.004028289508506636,0.017281810306306822,0.9873990320991994
2011-03-15,1,0.0029032494544695866,0.003055840557954472,-0.004028289508506636,0.017281810306306822,0.9862016419570238
2011-03-17,1,0.0033313982991725597,0.0034060455741076754,-0.004079608056863508,0.014025333523584855,0.98705528418845
2011-03-21,1,0.0034443866686002453,0.003522141763224931,-0.004079608056863508,0.01343098437483853,0.9875434637625133
2011-03-23,1,0.0029330162467939972,0.003094402256874104,-0.0033863246256219948,0.015191087875003562,0.9874235093092317
2011-03-25,1,0.0019848260284887026,0.0023529567879025303,-0.0033863246256219948,0.01707583686138624,0.9870134813432797
2011-03-29,1,0.002130244027305167,0.0024228675841092588,-0.002801766582014333,0.01707583686138624,0.9867719292437441
2011-03-31,1,0.0020876303275080064,0.0023068512688236838,-0.002069868370707151,0.01707583686138624,0.986887463330872
2011-04-04,1,0.001132273472380113,0.0013201513650042073,-0.0022461563909851063,0.01707583686138624,0.9854592780913998
2011-04-06,1,0.0013273568759749632,0.0015044424311435605,-0.00963055058322496,0.01704542731868467,0.9831496437163665
2011-04-08,1,0.0011107994516104673,0.0013630743851683435,-0.016018150963565063,0.015180951360769706,0.9834057017213668
2011-04-12,-1,-0.0017111750099685426,-0.0010923635877650038,-0.007297865980808859,0.01704542731868467,0.9845335759680749
2011-04-14,-1,-0.000919976110401452,-0.0004451471624878783,-0.02156408252707031,0.01704542731868467,0.9821733867904461
2011-04-18,-1,-0.0009545244368183011,-0.00044440435693989563,-0.02156408252707031,0.017493547547909973,0.9810134177752274
2011-04-20,1,0.001088173945308297,0.0013603663925541628,-0.02156408252707031,0.01704542731868467,0.9807641855305409
2011-04-25,1,0.001350204429372118,0.0016156073373191704,-0.025167673390086104,0.01342206955182543,0.9793893581997863
2011-04-27,1,0.0023181405417004213,0.002406739185771046,-0.025167673390086104,0.018836239224675148,0.9767093768179188
2011-04-29,1,0.0030198775708552314,0.003035931957603099,-0.025167673390086104,0.021965587808491026,0.9762657180758336
2011-05-03,1,0.002074656669810564,0.002203347016017338,-0.027512668417139067,0.021965587808491026,0.9758454714146367
2011-05-05,-1,-0.0008633246907727842,-0.00040011284663966614,-0.025167673390086104,0.021965587808491026,0.9766515105871544
2011-05-09,0,-0.0002830401519123113,7.419728423587379e-05,-0.029355869278573744,0.021965587808491026,0.9749879277496363
2011-05-11,-1,-0.0006952181523250504,-0.00023887198588653266,-0.029355869278573744,0.021965587808491026,0.9745001969649175
2011-05-13,-1,-0.002775734886750239,-0.0021319638461722097,-0.02595896029938695,0.021965587808491026,0.9752622648194567
2011-05-17,-1,-0.0025633934921971335,-0.0019923706727017843,-0.02595896029938695,0.022255023315044278,0.9744238233675734
2011-05-19,-1,-0.0010634825709398552,-0.0006612100572663299,-0.029355869278573744,0.02037855036288863,0.9753004317573672
2011-05-23,-1,-0.0028699846533907225,-0.0022776554111787637,-0.02781486772493335,0.022255023315044278,0.9747043626040967
2011-05-25,0,-0.00012841903048839691,8.554953093336138e-05,-0.02781486772493335,0.017524233882750494,0.9768614283630457
2011-05-27,1,0.0009485343069287943,0.0010198405606489471,-0.02781486772493335,0.010742740983056715,0.9768105377720341
2011-06-01,1,0.00014578552470829987,0.000312619956672462,-0.019486337583824783,0.010742740983056715,0.978647584034141
2011-06-03,-1,-0.0015005133777958011,-0.0011519319344827329,-0.016778093470529783,0.011972213581485276,0.9807415122397587
2011-06-07,-1,-0.0017458448321282423,-0.001437918125677884,-0.013593102882002729,0.012760062486281507,0.9817871455233568
2011-06-09,-1,-0.0009376702533508736,-0.0007248623590514267,-0.013593102882002729,0.013191008099963653,0.9806155786262196
2011-06-13,-1,-0.003220562168636718,-0.002693885679821445,-0.011425637696134517,0.013191008099963653,0.9800379721523926
2011-06-15,-1,-0.0035017323371975126,-0.0029090808499680374,-0.011425637696134517,0.007101122751734661,0.983118371014094
2011-06-17,-1,-0.004396090061269725,-0.0037318959670495826,-0.011425637696134517,0.007101122751734661,0.9828265898356334
2011-06-21,-1,-0.002517755648058578,-0.0020976675472377674,-0.011425637696134517,0.007482066748177758,0.9847832023812652
2011-06-23,-1,-0.0031940417978912738,-0.002696434987569725,-0.009144020251286793,0.012139846634949509,0.9828382279010025
2011-06-27,-1,-0.00373208589227209,-0.0031863433257430848,-0.009124270363419104,0.014628910984051315,0.9810847987271052
2011-06-29,-1,-0.003165812536694327,-0.002670286832365839,-0.012455827397023538,0.012139846634949509,0.981456363350124
2011-07-01,-1,-0.003002553931402726,-0.002494233753923142,-0.012455827397023538,0.01784546847414199,0.9787803179468872
2011-07-06,-1,-0.002337620278762479,-0.00201969250789319,-0.016757617097490476,0.014628910984051315,0.9771158708269114
2011-07-08,-1,-0.001549685266765399,-0.0014062556556150903,-0.025881682442957566,0.012139846634949509,0.9744028268550228
2011-07-12,-1,-0.004140187500074345,-0.0037396564116735447,-0.025881682442957566,0.014628910984051315,0.9677070268630771
2011-07-14,-1,-0.004125810716610377,-0.003747858936336396,-0.025881682442957566,0.01784546847414199,0.9630823087534514
2011-07-18,-1,-0.005813473206125073,-0.005159041539364863,-0.022759186436203782,0.01784546847414199,0.9643942644804352
2011-07-20,-1,-0.0042663058117449176,-0.0038650951061335826,-0.025881682442957566,0.01784546847414199,0.9634389058479658
2011-07-22,-1,-0.0031346828472668745,-0.002791563397560425,-0.03734781650581501,0.0049960716212759364,0.9604070460371005
2011-07-26,-1,-0.002070574498314758,-0.0019373235330811514,-0.03734781650581501,0.023415703401137977,0.9589637348016724
2011-07-28,-1,-0.003086553761920042,-0.0028367996296871853,-0.03734781650581501,0.028512456470959114,0.9586442290129651
2011-08-01,-1,-0.0008788607481761421,-0.0007931186612343154,-0.03734781650581501,0.033183324277397945,0.9553048721347377
2011-08-03,-1,-0.004102042598936763,-0.0037033161525725387,-0.025932528747070954,0.033183324277397945,0.9574603428228196
2011-08-05,-1,-0.008826226475827365,-0.007846377124227623,-0.025932528747070954,0.033183324277397945,0.9594641481477972
2011-08-09,-1,-0.008539249975256138,-0.007633747942600075,-0.021899076884395272,0.033183324277397945,0.9652962084629717
2011-08-11,-1,-0.005619880165374365,-0.005090289041105605,-0.025532579613290102,0.028512456470959114,0.967411153279493
2011-08-15,-1,-0.004931363847912745,-0.004483467218643502,-0.025532579613290102,0.03229090944573613,0.9652972790725477
2011-08-17,-1,-0.006646538103657045,-0.006013036181426184,-0.018887560367118382,0.03229090944573613,0.9653446875763115
2011-08-19,-1,-0.010931468111266414,-0.00980164779090128,-0.017577911215587702,0.03229090944573613,0.9678221405676081
2011-08-23,-1,-0.00816167071633285,-0.00734258628722579,-0.023742127700167277,0.02586722520376827,0.9671008140698206
2011-08-25,-1,-0.004958250411392618,-0.004477331017037555,-0.0326327891570521,0.023797523648895563,0.9663969045223256
2011-08-29,-1,-0.0006315970536268045,-0.0005591653047775998,-0.0326327891570521,0.01904829196929284,0.9711459406739029
2011-08-31,-1,-0.00047616397547113484,-0.00031835803499571756,-0.03812021236877957,0.01904829196929284,0.9681251843882995
2011-09-02,-1,-0.0037659944020888483,-0.0034471319287822863,-0.03812021236877957,0.01904829196929284,0.9671567400279282
2011-09-07,-1,-0.0022486795297298515,-0.0021229254369022625,-0.03812021236877957,0.01904829196929284,0.9658957649880543
2011-09-09,-1,-0.005310387549346631,-0.004807529990187092,-0.03577345199288441,0.021191740961735234,0.9656326954689934
2011-09-13,-1,-0.002348222296241569,-0.0022818046916650457,-0.03577345199288441,0.023797523648895563,0.964986055030792
2011-09-15,-1,-0.0007285505462403261,-0.0005230608884215744,-0.03577345199288441,0.023312836741843437,0.9648294774995543
2011-09-19,-1,-0.0011645221008165134,-0.0009791539569686497,-0.03577345199288441,0.024680943336835928,0.9633075640386414
2011-09-21,-1,-0.00514666902257643,-0.00489420949614372,-0.03400335300694185,0.024680943336835928,0.9663981309351859
2011-09-23,-1,-0.0037964490011225477,-0.003632433051041852,-0.03204172062170055,0.027984225619774056,0.9635229358634704
2011-09-27,-1,-0.004842478205805006,-0.004487914140901319,-0.03474038965668584,0.032175146216880786,0.9614296068062655
2011-09-29,-1,-0.007925487942312959,-0.007222359169026949,-0.02466561687922414,0.04102817139271064,0.9603960390150393
2011-10-03,-1,-0.009827594938564116,-0.008939915479429577,-0.02466561687922414,0.04102817139271064,0.9601041837174548
2011-10-05,-1,-0.006077766494885421,-0.00547834530021711,-0.025058921125240437,0.03584971301394359,0.9630253131463369
2011-10-07,-1,-0.005692219030284559,-0.005141315319291792,-0.02243079758202003,0.035102711002376004,0.9638818310722006
2011-10-11,-1,-0.002258663241963247,-0.0021957542712427156,-0.02243079758202003,0.035102711002376004,0.9672377075206121
2011-10-13,-1,-0.0031309228234275978,-0.002891629935179479,-0.023414565266316426,0.035102711002376004,0.9666588729760563
2011-10-17,-1,-0.001453406306704555,-0.0013721514444113006,-0.017139015143370778,0.03321448307237192,0.9684158713745916
2011-10-19,-1,-0.00221477104926912,-0.002176505097602651,-0.015725141609450183,0.03321448307237192,0.969575609874634
2011-10-21,1,0.00020864579105494662,0.0005434737346935751,-0.017565286922779436,0.030456854869744344,0.9748291842809758
2011-10-25,-1,-0.0014659399697422976,-0.0014035343349201842,-0.017565286922779436,0.029013079219905365,0.9739890764228737
2011-10-27,1,0.0023481560658933642,0.0027949962403141892,-0.019772518917551028,0.018743232073230816,0.9758967635919665
2011-10-31,1,0.0018893808311124449,0.0023345984183569665,-0.017565286922779436,0.019170285410827374,0.9768387805501157
2011-11-02,1,0.0018087011907588,0.00216448243019578,-0.015725141609450183,0.019170285410827374,0.9754977245610486
2011-11-04,1,0.0035033699798922976,0.0040939283050749325,-0.015725141609450183,0.018296081147392947,0.9763444630540274
2011-11-08,1,0.002843879948763361,0.0032817562973326414,-0.017565286922779436,0.018296081147392947,0.9753765099561645
2011-11-10,1,0.0037370834558902053,0.004385445576178463,-0.015725141609450183,0.015575726902119669,0.9767175798204266
2011-11-14,1,0.0036802635376489935,0.004295484036805568,-0.017565286922779436,0.012786268452375106,0.9765491550299177
2011-11-16,1,0.0031207356464844132,0.003615094572480066,-0.019704491376155184,0.012786268452375106,0.9756680596758681
2011-11-18,1,0.002876710530358805,0.0033785358058091046,-0.02354424721294753,0.015575726902119669,0.9736465530239361
2011-11-22,1,0.0013850490285440872,0.001723055411923144,-0.014699322367209042,0.019887778881318756,0.976081840327883
2011-11-25,1,0.0007293471776376731,0.0010139728845238258,-0.01030640933826473,0.019887778881318756,0.978623829264631
2011-11-29,1,0.0030891573383197853,0.0037544401851710226,-0.014520842149846665,0.013316834363683708,0.9798418365791398
2011-12-01,1,0.0038097764350309227,0.004463498451795257,-0.014520842149846665,0.013316834363683708,0.9823013495725108
2011-12-05,1,0.004596697294979418,0.005328241764073739,-0.014520842149846665,0.017216664394018727,0.9806664224252191
2011-12-07,1,0.003445262241670903,0.003971787540220425,-0.0126594820209859,0.017216664394018727,0.9815637030763616
2011-12-09,1,0.004093765528033031,0.004749338207848759,-0.0126594820209859,0.02056406561805563,0.978846304871527
2011-12-13,1,0.0037698743957555857,0.004467660000526038,-0.005268490454668252,0.03210844363599891,0.9791564655472658
2011-12-15,1,0.002647024041269313,0.0031734180000106927,-0.00253623686256007,0.03210844363599891,0.9807682544922767
2011-12-19,1,0.0024270047488034923,0.0028610163543709094,-0.00253623686256007,0.031808366338397974,0.981411245924821
2011-12-21,1,0.005359339731538081,0.00626416278791884,-0.005268490454668252,0.02056406561805563,0.982928351507017
2011-12-23,1,0.004261526284768292,0.004871595705542506,-0.005268490454668252,0.02056406561805563,0.9826626986868967
2011-12-28,1,0.0016721180923238745,0.001692936262145674,-0.0028183753464917994,0.025038890401520686,0.9822851384311597
2011-12-30,1,0.0026517277665648203,0.0028398211520503022,-0.00023927836353521375,0.02918761220959202,0.9819806919569055
2012-01-04,1,0.005124334648231753,0.00576000269271961,-0.0028183753464917994,0.01785534092721875,0.9848598750792273
2012-01-06,1,0.004593643194769013,0.005143277605837684,-0.001462031276516247,0.024713723981915656,0.9839684977050275
2012-01-10,1,0.0054297359294651236,0.005973499959916196,-0.001462031276516247,0.01785534092721875,0.9874342094798196
2012-01-12,1,0.004878977674602183,0.005167994195538677,-0.002546106344114044,0.016018242056176826,0.9888520780561326
2012-01-17,1,0.005828401839953484,0.006355360061622475,-0.0029605754279518354,0.01785534092721875,0.9863376504894809
2012-01-19,1,0.00624829523836114,0.006840422866437171,-0.0029605754279518354,0.016018242056176826,0.9872066480248686
2012-01-23,1,0.007196621231442934,0.0080983569377924,-0.0029605754279518354,0.016018242056176826,0.9867312769052959
2012-01-25,1,0.007617160587655826,0.0085502633184379,-0.0029605754279518354,0.01270824194674352,0.9865478720067901
2012-01-27,1,0.00670854787524538,0.007370068043292816,-0.0029605754279518354,0.01270824194674352,0.9866858373391524
2012-01-31,1,0.00852289547712352,0.00949813256257563,-0.005788923566471726,0.009637362910596477,0.9856570284297987
2012-02-02,1,0.006606936736093691,0.007156876683019277,-0.004197759826325202,0.009163792385969202,0.9869182760162876
2012-02-06,1,0.008258152143218275,0.00913521616521316,-0.0198615940368145,0.005117982255713954,0.9821482945250855
2012-02-08,1,0.008079364195808443,0.008962809978362343,-0.0198615940368145,0.009637362910596477,0.9798871044170043
2012-02-10,1,0.007424903890035122,0.008166103379215695,-0.023848978647058056,0.009637362910596477,0.977575679894527
2012-02-14,1,0.004505733033291315,0.0045905545530932875,-0.0198615940368145,0.009637362910596477,0.9787140252429416
2012-02-16,1,0.004512217671667519,0.0046901396347471345,-0.01484170530016252,0.01163804238008964,0.9796995674868826
2012-02-21,1,0.0037347871654772455,0.0037995033694522397,-0.009687922115339826,0.01163804238008964,0.9806013151434663
2012-02-23,1,0.0016534971487334124,0.0019966550126921064,-0.01484170530016252,0.0178948996417917,0.9782506107075576
2012-02-27,1,0.0003261437562745548,0.0009873035339403049,-0.01484170530016252,0.018935259550894184,0.9768947225273182
2012-02-29,1,0.0005482313801396083,0.001059594557599662,-0.013936378611350955,0.018935259550894184,0.9766351585400064
2012-03-02,1,0.0005030060386199213,0.001014914188745453,-0.013936378611350955,0.018935259550894184,0.976092392889201
2012-03-06,-1,-0.00118994920302214,-0.0005641385865853346,-0.013309831608404654,0.021274962839046906,0.9790677319712299
2012-03-08,1,0.0011039576589051074,0.00149375503605769,-0.013936378611350955,0.0178948996417917,0.9823527604021725
2012-03-12,-1,-0.0010834496010415531,-0.0004196356440575857,-0.015117038779132456,0.0178948996417917,0.9819395448254629
2012-03-14,-1,-0.001274936115411504,-0.0005156060393396323,-0.015117038779132456,0.0178948996417917,0.981988289814761
2012-03-16,1,0.000652855271588041,0.00127415548608493,-0.015117038779132456,0.018737000876447828,0.9817302318327881
2012-03-20,0,-0.00031067417702871237,0.0004618212461399403,-0.015117038779132456,0.018737000876447828,0.9819796204543856
2012-03-22,1,9.948036737243314e-06,0.0005914252956024538,-0.013669388719722392,0.01431161364060269,0.9847339610394751
2012-03-26,1,0.001171424477182732,0.0016553120469957263,-0.013669388719722392,0.00870147323221979,0.9865484206050641
2012-03-28,1,0.0008728677681186467,0.0011908129249753145,-0.006739903161880022,0.011632843430052036,0.9864089809572714
2012-03-30,1,0.002454496133518362,0.002524247912655511,-0.010819063970099962,0.007752925607035262,0.9831322814631199
2012-04-03,1,0.0019741225589866413,0.0021270441611970278,-0.006739903161880022,0.007752925607035262,0.9835838268472933
2012-04-05,1,0.0015596946598395414,0.0017447796738104793,-0.012376803953868216,0.007752925607035262,0.9802152094546394
2012-04-10,0,-0.00032027533829260906,6.70526497936275e-05,-0.007070344393295698,0.007752925607035262,0.981968195962851
2012-04-12,1,0.0009327387149324505,0.0012131935390356215,-0.007070344393295698,0.008072966962382896,0.9823645643997259
2012-04-16,0,0.0,0.0,-0.00946556625981827,0.007752925607035262,0.9822794917486233
2012-04-18,0,0.0,0.0,-0.010536134787827767,0.008072966962382896,0.9815810594521531
2012-04-20,0,0.0,0.0,-0.014554329927633702,0.008072966962382896,0.979025502270124
2012-04-24,0,0.0,0.0,-0.014554329927633702,0.009403588131615383,0.9769916721751807
2012-04-26,1,0.8552971566064345,0.856098042181646,-0.014554329927633702,0.007244360639811425,0.5367807789082469
2012-04-30,-1,-0.001974397911228107,-0.0014534898485259158,-0.010536134787827767,0.012052780825026551,0.9802765954425369
2012-05-02,-1,-0.001358794585384852,-0.000875051306226935,-0.014554329927633702,0.009403588131615383,0.980037217398917
2012-05-04,-1,-0.0039040663227368506,-0.00316168876091997,-0.01316860208790523,0.009403588131615383,0.9810116488564071
2012-05-08,0,0.0,0.0,-0.01316860208790523,0.017293334429968412,0.9792349147308836
2012-05-10,0,0.0,0.0,-0.01316860208790523,0.012052780825026551,0.9803703032284702
2012-05-14,-1,-0.007237088384972269,-0.005886925566099542,-0.01316860208790523,0.017293334429968412,0.9786609686982851
2012-05-16,0,0.0,0.0,-0.011939585235279195,0.017293334429968412,0.9801133835752731
2012-05-18,0,0.0,0.0,-0.008592603281449805,0.02171289901714837,0.9793127786402346
2012-05-22,-1,-0.007577801105799016,-0.006519821706431105,-0.008592603281449805,0.021442709105211136,0.9794436024257406
2012-05-24,0,0.0,0.0,-0.011939585235279195,0.021442709105211136,0.9784157402046292
2012-05-29,0,0.0,0.0,-0.012819721194464607,0.020700311500930504,0.9796446103670563
2012-05-31,0,0.0,0.0,-0.012819721194464607,0.020700311500930504,0.9804765289566901
2012-06-04,0,0.0,0.0,-0.00826010105276533,0.021442709105211136,0.9810558417273071
2012-06-06,0,0.0,0.0,-0.00826010105276533,0.021442709105211136,0.9815223673832398
2012-06-08,-1,-0.0032542386465882964,-0.002706922773911049,-0.009351815698827391,0.021442709105211136,0.9806317303808069
2012-06-12,0,0.0,0.0,-0.009403443427889457,0.0166619106319554,0.9817801035022766
2012-06-14,0,0.0,0.0,-0.009403443427889457,0.024250333152931538,0.9805909838389406
2012-06-18,0,0.0,0.0,-0.009403443427889457,0.015412593339580076,0.9828792335429842
2012-06-20,0,0.0,0.0,-0.009403443427889457,0.011508977177088441,0.9834506921224406
2012-06-22,0,0.0,0.0,-0.009589683085237012,0.011508977177088441,0.9853420961809185
2012-06-26,-1,-0.6645656470607045,-0.664538830509041,-0.009860189824825257,0.011508977177088441,0.6003046848430658
2012-06-28,0,0.0,0.0,-0.00839337469456954,0.015412593339580076,0.982014715042145
2012-07-02,0,0.0,0.0,-0.00839337469456954,0.010877142436508627,0.9846463479119496
2012-07-05,1,0.031591353998914835,0.03377928854002344,-0.00839337469456954,0.007460981025839411,0.9658713569904642
2012-07-09,1,0.0010584316851389472,0.0013055766106427396,-0.007135584402024652,0.012157592496239045,0.9860229772381178
2012-07-11,0,0.0,0.0,-0.0027913107853411367,0.013832778139988212,0.9859368218016448
2012-07-13,0,0.0,0.0,-0.002765971977992633,0.012157592496239045,0.9872190193369504
2012-07-17,0,0.0,0.0,-0.002765971977992633,0.010997107841229524,0.9883548917917185
2012-07-19,0,0.0,0.0,-0.0012108222686976649,0.012157592496239045,0.9880001830630166
2012-07-23,0,0.0,0.0,0.0011177209230422733,0.013462960236128717,0.98774893358084
2012-07-25,1,0.0004486369819439662,0.0005053366787631153,0.0008991575045576319,0.013462960236128717,0.9874689757527584
2012-07-27,1,0.0006874298258311,0.0007601688174452899,-0.0012108222686976649,0.012694573109638868,0.991399405011007
2012-07-31,1,0.0016299148320190824,0.00184790559666326,-0.0027930132880451273,0.012694573109638868,0.9908393967832491
2012-08-02,1,0.0006953623199043744,0.0007190835694492349,-0.002109173730180548,0.013462960236128717,0.9892540425243479
2012-08-06,1,0.001837780961199532,0.002008477041442808,-0.005447224133858227,0.011176101379029465,0.9892830465718604
2012-08-08,1,0.003253230271033219,0.0036458923763198017,-0.005447224133858227,0.00871751816763074,0.9890431564170241
2012-08-10,1,0.0031555238038419786,0.003549785321270214,-0.005447224133858227,0.013153341887141495,0.9881601175961763
2012-08-14,1,0.0025277797359406864,0.0027680012923658797,-0.005447224133858227,0.013153341887141495,0.9879879457568291
2012-08-16,1,0.00444528607579907,0.005043309179051568,-0.005447224133858227,0.01628834395708225,0.9853959144813951
2012-08-20,1,0.004470247204471078,0.0049888252579308725,-0.011349173896415678,0.01072857044990809,0.9843962098950567
2012-08-22,1,0.003972444564488097,0.004475517730900855,-0.0029716623279563716,0.01324516744364049,0.9857622192426626
2012-08-24,1,0.003261294350071821,0.0036678319466744705,-0.0031424769072333166,0.01324516744364049,0.9861049089647881
2012-08-28,1,0.002889030305662088,0.0032214052043969313,-0.0031424769072333166,0.01324516744364049,0.9859416394241575
2012-08-30,1,0.002319652257700309,0.002473887227224578,-0.0032022075408059563,0.012599627024549488,0.9864449354485072
2012-09-04,1,0.002139296137887123,0.002369556082184996,-0.0026852692853745175,0.014714489733575925,0.9875417284268996
2012-09-06,1,0.0035867414465809598,0.004064042329164665,-0.004755753876770271,0.011486652120389733,0.9879662008820943
2012-09-10,1,0.0034006812984590275,0.003829702013615049,-0.0058463796782158035,0.011355505649457715,0.9882027194724757
2012-09-12,1,0.003772555117872366,0.004254008038099878,-0.00741006624128341,0.011355505649457715,0.9863114276923639
2012-09-14,1,0.0057792276314957945,0.006537209796879663,-0.00969480953478704,0.010535159040151586,0.9877725732847398
2012-09-18,1,0.005318627897509453,0.006069810544771218,-0.007257571766475757,0.011463043805633148,0.9871347110880846
2012-09-20,1,0.005202067529183783,0.0058058543853881355,-0.009247824740143743,0.012884582848853875,0.9859247931097613
2012-09-24,1,0.005062351581029432,0.005718621792768073,-0.00969480953478704,0.013208075416620117,0.9851405625084056
2012-09-26,1,0.002936542367296802,0.0030567210331914146,-0.00969480953478704,0.013972600718390429,0.9835327204558229
2012-09-28,1,0.00295716357933996,0.0030566632186881425,-0.00969480953478704,0.013208075416620117,0.9838972475646252
2012-10-02,1,0.003888210866841834,0.004186782665838115,-0.00969480953478704,0.013579161305594379,0.9829424117375225
2012-10-04,1,0.0023797820786356973,0.0025309162419665677,-0.00969480953478704,0.013579161305594379,0.9820291740926522
2012-10-08,1,0.0023187754709191235,0.002465222511572331,-0.0116880822879441,0.013386815208760155,0.981630187823059
2012-10-10,1,0.0004074157201700349,0.0007461111415636775,-0.016294409606834006,0.013386815208760155,0.9815058574270628
2012-10-12,1,0.0010604177853403732,0.0012420221837636117,-0.016294409606834006,0.012029391531150834,0.981641034021191
2012-10-16,1,0.0029073778043381135,0.0029091299086230504,-0.01756567443428643,0.006866323416814174,0.9795719021465835
2012-10-18,1,0.004365547908461241,0.004523148906736537,-0.01756567443428643,0.009528811281173527,0.9785904489333352
2012-10-22,1,0.0032564131185116693,0.0033888430708970086,-0.01756567443428643,0.008070713921785742,0.9796873292085082
2012-10-24,1,0.0011075601617261195,0.001317343021083518,-0.016465464464887156,0.008070713921785742,0.9817271038614906
2012-10-26,1,0.002197154548884135,0.0022017611014671368,-0.016465464464887156,0.009674068409596929,0.9811592854666785
2012-11-01,1,0.002129231424855282,0.0021509370010077693,-0.016465464464887156,0.011483819409639304,0.9815559273093762
2012-11-05,1,0.0003842492083416689,0.0006504054941779147,-0.016465464464887156,0.013330270046742816,0.9822039225864334
2012-11-07,-1,-0.00038724140671774496,-6.178255288293456e-06,-0.013637464859378457,0.014954340505088919,0.9815438377669483
2012-11-09,-1,-0.0003574963226355858,-0.00011283465367449791,-0.009943404738370127,0.018580366132601254,0.9809283391526319
2012-11-13,-1,-0.0007727870343161124,-0.0004839571593772057,-0.00937501589457194,0.018580366132601254,0.9812996956069207
2012-11-15,-1,-0.002794862269003895,-0.0022343346517338667,-0.006757948857458193,0.018580366132601254,0.9834953922860409
2012-11-19,-1,-0.001350938790910806,-0.0009422970122073184,-0.006757948857458193,0.01592840224804975,0.9856899048396002
2012-11-21,-1,-0.0020753382417947755,-0.0015366250059063375,-0.002154500075589297,0.01592840224804975,0.9856096445355153
2012-11-26,-1,-0.0012254856863163001,-0.0008459611502250588,-0.002154500075589297,0.01592840224804975,0.9861786611134029
2012-11-28,-1,-0.00031058352350461023,-9.277954712811503e-05,-0.0011256681017800673,0.01592840224804975,0.986790189058158
2012-11-30,1,0.0009689470685256896,0.0012378727529367831,-0.0027990972569925873,0.01592840224804975,0.9866072879701563
2012-12-04,-1,-0.001049305534458735,-0.000646559839965899,-0.0027990972569925873,0.01592840224804975,0.9849346922456182
2012-12-06,1,0.00022592630661587255,0.00043994050933039686,-0.0027990972569925873,0.013841293600637057,0.9859492178844006
2012-12-10,1,0.002244523134583798,0.0023133584983645867,-0.003229054811329451,0.013132966925838777,0.9877265052146649
2012-12-12,1,0.0012084378895770272,0.0012941692445247598,-0.0019135844679623122,0.013841293600637057,0.9871219241932594
2012-12-14,1,0.0009185759946653861,0.001060458857039625,-0.0011256681017800673,0.013132966925838777,0.9885042984848216
2012-12-18,1,0.0005898704779449417,0.0008136297444461705,-0.0019135844679623122,0.013132966925838777,0.9874208231847673
2012-12-20,1,0.0024899179412194773,0.002545714168650603,-0.003647514207784856,0.013132966925838777,0.9872947514530015
2012-12-24,1,0.001884119609344247,0.0019418223081755996,-0.0019135844679623122,0.012713085790589562,0.9874998865637931
2012-12-27,1,0.002165928576583977,0.0021914429045899837,-0.005099683305053398,0.012713085790589562,0.9868736024968165
2012-12-31,1,0.0027910161492937435,0.0028750632128368855,-0.002706114745215347,0.012713085790589562,0.9874589644395049
2013-01-03,1,0.0031359849141971625,0.0033051181796282685,-0.002706114745215347,0.010933142600221992,0.9887653469546328
2013-01-07,1,0.0037304406748021467,0.003958292167084444,-0.003985992186573265,0.008089225975848753,0.9893878164231142
2013-01-09,1,0.0033105571105503193,0.0034713740038498832,-0.003985992186573265,0.0068018456383731486,0.9894951600983644
2013-01-11,1,0.004044331919833582,0.004334606230939715,-0.006763879291630125,0.0068018456383731486,0.9884647497731223
2013-01-15,1,0.0042216712645671735,0.004572210047214437,-0.006763879291630125,0.00815575504847716,0.9871284304054831
2013-01-17,1,0.0038969689215147957,0.004177160147525309,-0.013914415325818729,0.0068018456383731486,0.9871805191886108
2013-01-22,1,0.002871995904262533,0.002971829557731297,-0.013200268109924319,0.007553784872195105,0.9871075465405359
2013-01-24,0,0.0,0.0,-0.01581273452485056,0.007568907696156125,0.9844512855956471
2013-01-28,0,0.0,0.0,-0.01581273452485056,0.007568907696156125,0.9837655353978851
2013-01-30,1,0.0033401626197050146,0.0033498287842298386,-0.01581273452485056,0.00822088891106484,0.9836489944452024
2013-02-01,1,0.0033191243221329042,0.00338244251438657,-0.013200268109924319,0.012652160964007751,0.9843797507884708
2013-02-05,1,0.002858321340530343,0.002867322300080016,-0.013200268109924319,0.014248702822674791,0.9833898181388959
2013-02-07,1,0.0029021431254227696,0.0029093988469663054,-0.013200268109924319,0.019604869645144806,0.9823835395558229
2013-02-11,1,0.0032495600405395906,0.003474055502610598,-0.007825449365171648,0.019604869645144806,0.9841353744253193
2013-02-13,1,0.003531584227519978,0.0037336062401781382,-0.012276197424924772,0.019495540313476528,0.9838928111837142
2013-02-15,1,0.0028774118128763087,0.003013882399330995,-0.0076119313197104905,0.019495540313476528,0.98451629896545
2013-02-20,1,0.002240317351546996,0.00225018553975419,-0.004605922436175799,0.022326486109440047,0.9846914082083498
2013-02-22,1,0.0019742246640420628,0.0020281057265728805,-0.004605922436175799,0.01919679964472548,0.9872474459072185
2013-02-26,1,0.0009413247258688902,0.0011069744157230176,-0.004605922436175799,0.01919679964472548,0.9882626332724539
2013-02-28,1,0.0018642003092659886,0.0018955575733985621,-0.004605922436175799,0.013986977038473144,0.9894969088326503
2013-03-04,1,0.002287579487582092,0.002308636448921244,-0.011843388584522293,0.0054679817797945824,0.9878218345394234
2013-03-06,1,0.0029949877519468036,0.0030814194562445497,-0.012988898638894894,0.0026819851468016373,0.9878449862051785
2013-03-08,1,0.0026889370658487025,0.00269687248584256,-0.012988898638894894,0.0025130016546539204,0.9891287510042277
2013-03-12,1,0.002491143374038649,0.002535298113093987,-0.012988898638894894,0.003571514405603418,0.9880203260961564
2013-03-14,1,0.00398158537571665,0.0042875245097654755,-0.01603633542392719,0.003571514405603418,0.987103580838495
2013-03-18,1,0.0033143234717935995,0.0035643647323460002,-0.0183436959251021,0.005342140034466109,0.9837374464254157
2013-03-20,1,0.003951763374638585,0.004312229145716306,-0.020278453879649723,0.0025130016546539204,0.9826562406498982
2013-03-22,1,0.0028493866247559195,0.0030239815845127032,-0.020278453879649723,0.00935933851634413,0.9820883854160903
2013-03-26,1,0.0024743625280163554,0.0025922482372496896,-0.020278453879649723,0.012323141633153525,0.9820758306976679
2013-03-28,1,0.0026069764406782287,0.0027367813227092415,-0.020278453879649723,0.012323141633153525,0.9813599714432684
2013-04-02,1,0.0003411782344452718,0.0005412573865662902,-0.012475218744900832,0.014281482628948907,0.9822726746295479
2013-04-04,-1,-0.0007137099680658602,-0.00037961745891188924,-0.012475218744900832,0.017999855539824756,0.9795693858648481
2013-04-08,0,0.0,0.0,-0.012475218744900832,0.023764229900393213,0.9768216780186189
2013-04-10,1,0.002069020803583064,0.002069139162387987,-0.012475218744900832,0.022370521459531167,0.9779944053996187
2013-04-12,-1,-0.005991600643840215,-0.004694127456957853,-0.012475218744900832,0.022370521459531167,0.97802539337371
2013-04-16,0,0.0,0.0,-0.008306336456371601,0.022370521459531167,0.9808439294764053
2013-04-18,-1,-0.006028553678237821,-0.0049556310022917886,-0.0012741810120406813,0.022490571587577217,0.978801224954836
2013-04-22,-1,-0.004443319357030661,-0.0035440480212698897,-0.005860434554595797,0.02198879802329434,0.9811476453845611
2013-04-24,0,0.0,0.0,-0.011975247988501811,0.02198879802329434,0.9823207649670878
2013-04-26,0,0.0,0.0,-0.008176172710406451,0.02198879802329434,0.982766409144562
2013-04-30,-1,-0.002988617644990993,-0.0023204820563505076,-0.008176172710406451,0.022135497408979243,0.9824051721491052
2013-05-02,-1,-0.0030694660916571457,-0.0024666057947136046,-0.005860434554595797,0.019254322988918573,0.9854455128460241
2013-05-06,0,-0.00011419180654848743,6.849951754788115e-05,-0.005860434554595797,0.011806125660714288,0.9882859642723719
2013-05-08,0,0.0,0.0,-0.007083405065305866,0.011806125660714288,0.9870539758363258
2013-05-10,0,0.0,0.0,-0.007083405065305866,0.011806125660714288,0.986959318629129
2013-05-14,1,0.0006711573791726231,0.000760942982139097,-0.011999188407263073,0.010167376827027166,0.9887614828670432
2013-05-16,1,0.0016013494462950018,0.0016288893965022188,-0.011999188407263073,0.011141635379628416,0.9873600844315145
2013-05-20,1,0.001818987528163689,0.0018677511019835743,-0.011999188407263073,0.010750071455114932,0.9877107754209121
2013-05-22,1,0.0009100723650195654,0.0009606865569296869,-0.0052952577497555695,0.010750071455114932,0.9877159486103892
2013-05-24,1,0.0011629975865716582,0.001173345056107725,-0.012695342413914817,0.010096647410737276,0.9868173916135407
2013-05-29,1,0.001463208464890081,0.0015204037280411738,-0.005913882688047144,0.010096647410737276,0.9872689030092853
2013-05-31,1,0.0019285794807294915,0.002091738132885019,-0.013938710356709625,0.010096647410737276,0.9865772501000262
2013-06-04,1,0.0023546273914736263,0.0025822574658879733,-0.014437128282134986,0.010044338462597717,0.9862507540067501
2013-06-06,1,0.002093601797591829,0.0023233153463222047,-0.01262764020991743,0.011125597070868838,0.9868179206295015
2013-06-10,1,0.001458793256509615,0.0016140880555554488,-0.005913882688047144,0.011125597070868838,0.9872457071512778
2013-06-12,1,0.0012151018025466779,0.0013616393694425885,-0.004302583467677094,0.012250456820822396,0.987114127676485
2013-06-14,1,0.002558133952505341,0.0028565750360402494,-0.004302583467677094,0.011054295288809562,0.9889049733998977
2013-06-18,1,0.0033603940795893434,0.0037936772636832858,-0.014437128282134986,0.01040201576198228,0.9874000619019623
2013-06-20,1,0.0020951583334264056,0.002317953285766888,-0.0077937425488072785,0.01231293552781676,0.987876930656483
2013-06-24,1,0.001617343030632655,0.0018301616335009126,-0.006557208901922697,0.01231293552781676,0.9889017359447025
2013-06-26,1,0.0021012682776452287,0.002325758390207692,-0.007346932427600001,0.01040201576198228,0.9893957466308217
2013-06-28,1,0.0015801237751013756,0.0017242221916148018,-0.007346932427600001,0.01040201576198228,0.9899338479437159
2013-07-02,1,0.0011549644489040598,0.0012468728596119138,-0.0062795451951878755,0.01231293552781676,0.9896350518082134
2013-07-05,1,0.0019331738007137913,0.0020940236587328313,-0.007346932427600001,0.01040201576198228,0.9900339862732777
2013-07-09,1,0.0030154346064318028,0.003372043910634218,-0.008522898196228288,0.010053149408490343,0.9897524156394202
2013-07-11,1,0.0025045541071193203,0.0027237845627369065,-0.008840317210050356,0.008954723977550288,0.9897766622029927
2013-07-15,1,0.0030159865342564585,0.003291941766241625,-0.008840317210050356,0.007862520638930509,0.9899701772526351
2013-07-17,1,0.0012165631622109924,0.0012195808623036257,-0.00739600814439941,0.008954723977550288,0.9909278193909399
2013-07-19,1,0.00030503902440407924,0.000500411884659651,-0.008285729885745155,0.008022777604646439,0.9907408814868086
2013-07-23,1,0.00048500579200212615,0.0006085791446981755,-0.007501814482340099,0.008022777604646439,0.9906368393581726
2013-07-25,1,0.001120703772991685,0.0011262960797562393,-0.00753616836984438,0.008022777604646439,0.9897064061475728
2013-07-29,1,0.0014824276855084143,0.0016034262208372203,-0.007146154305765819,0.008848829468413377,0.9899877299030855
2013-07-31,1,0.002158418752519929,0.002401330978805712,-0.00753616836984438,0.008848829468413377,0.9895046169534041
2013-08-02,1,0.0023558145946234697,0.0026355038401833786,-0.007146154305765819,0.008848829468413377,0.9900028169291397
2013-08-06,1,0.0022720748257275734,0.002561134932870848,-0.007146154305765819,0.008848829468413377,0.9900944617929223
2013-08-08,1,0.0018919534308282104,0.002093258269126632,-0.0061504215412677985,0.009198317883937872,0.9903535092179637
2013-08-12,1,0.0021734612658702145,0.0024647975182098608,-0.005595271035884241,0.009198317883937872,0.9905910045397956
2013-08-14,1,0.002465526218252606,0.002759842130864663,-0.005606722331719001,0.008046802058014793,0.9914400110941185
2013-08-16,1,0.001735444273673837,0.00189360868515506,-0.004335317148771556,0.009198317883937872,0.9920872894834746
2013-08-20,1,0.0012494953670944533,0.0013339383329645442,-0.002199730060223037,0.010407939848623593,0.9913968520431689
2013-08-22,1,0.0006541614361102465,0.0007569711549782105,-0.002199730060223037,0.009627919090586346,0.9921260789080727
2013-08-26,1,0.00029832066539568747,0.00048466092753158174,-0.0035378215646176317,0.009627919090586346,0.9920973370198323
2013-08-28,0,-0.00023507944365931633,2.0807519549498332e-05,-0.0025211267441110196,0.01000529588901376,0.9924211834460233
2013-08-30,1,0.000710672565670355,0.0007974158439854565,-0.0035378215646176317,0.007551553829332442,0.9926001280470147
2013-09-04,-1,-0.0003756541250496433,-0.00012119233858409869,-0.0025211267441110196,0.01000529588901376,0.9928793698868298
2013-09-06,-1,-0.0009762382453722908,-0.0005673034829004125,-0.0025211267441110196,0.01000529588901376,0.9925641896669505
2013-09-10,-1,-0.0016367901259194669,-0.0010853502310906836,-0.006016586508049265,0.01000529588901376,0.9917005768295064
2013-09-12,-1,-0.001082671347438507,-0.0006912289521295546,-0.005611247280355032,0.011659276406396706,0.9901762716999192
2013-09-16,1,5.613124570289115e-05,0.0002553714390239266,-0.005611247280355032,0.011793725578541138,0.990163450478046
2013-09-18,1,0.0008422058057648383,0.0009568827225060709,-0.0062270592970101925,0.011793725578541138,0.9901177934199695
2013-09-20,1,0.0005673878719477584,0.0007078531633054314,-0.005611247280355032,0.012509402199239308,0.9901316011874847
2013-09-24,-1,-0.0006015216155507014,-0.00027396591075610295,-0.004070154412206211,0.012509402199239308,0.9901236352784547
2013-09-26,1,0.001354674081610917,0.0013632144451399704,-0.0062270592970101925,0.011793725578541138,0.9904993240510626
2013-09-30,1,0.0008544147334407928,0.0009077068833579108,-0.007121441810080311,0.011793725578541138,0.9894793183427328
2013-10-02,1,0.0006371567421299049,0.0007558067063838457,-0.007121441810080311,0.0072617258181754026,0.9899594154706491
2013-10-04,1,0.0021596172828265607,0.002325061015267673,-0.009059958950429159,0.005272462450548944,0.9895337678822783
2013-10-08,1,0.0012756437761451797,0.0013611632796909341,-0.007121441810080311,0.006225566816714537,0.9908566668633315
2013-10-10,1,0.002231548730366151,0.002455754414073267,-0.007121441810080311,0.006225566816714537,0.9918032421231674
2013-10-14,1,0.001801385305777937,0.0019111349835582688,-0.007121441810080311,0.006225566816714537,0.9922400900079793
2013-10-16,1,0.002187518969497925,0.0023687857384709103,-0.005562104658127399,0.006225566816714537,0.9924646257829957
2013-10-18,1,0.002777581340619458,0.003039364976178836,-0.005562104658127399,0.006225566816714537,0.992033792469185
2013-10-22,1,0.0030678014799066797,0.0033723442556688023,-0.008156022300928094,0.004864517815026052,0.9913100366399186
2013-10-24,1,0.002802249712297682,0.0030950894374820025,-0.005837166852051948,0.004864517815026052,0.9919062038777586
2013-10-28,1,0.001305417261205592,0.001365462044874411,-0.004073520407572037,0.0076192745832901546,0.9911861346724227
2013-10-30,1,0.0005599678802754837,0.0006424304363095905,-0.004073520407572037,0.008742054317089543,0.9906106225625939
2013-11-01,-1,-0.0005521881891429165,-0.0003059429170496111,-0.0029612327683946928,0.00943804138156358,0.9909454436522642
2013-11-05,1,0.0006957733873769671,0.0006986081703537332,-0.004073520407572037,0.00943804138156358,0.9905434257809059
2013-11-07,1,0.0010329600877555585,0.0011030153988077736,-0.004691601647463422,0.010178547371485342,0.9895710374120763
2013-11-11,1,0.0008852442621555864,0.0008913062820676388,-0.004691601647463422,0.010178547371485342,0.9898625943070049
2013-11-13,1,0.0007879451636796421,0.0008549492241708161,-0.00779034644304539,0.009654339537810653,0.9893987311757251
2013-11-15,1,0.0018778083667033742,0.002003325440181355,-0.00779034644304539,0.00916855727762218,0.9897238619076891
2013-11-19,1,0.0009832932952702753,0.0010154560123395975,-0.004854561201269341,0.01048345430769905,0.9897208771996147
2013-11-21,1,0.0007077413410039859,0.0007907211717692033,-0.006404896560183154,0.01048345430769905,0.9892754512972145
2013-11-25,1,0.0006921788644830715,0.0007177691242156494,-0.006243460485027634,0.01048345430769905,0.990891430741402
2013-11-27,1,0.0013677290977363475,0.0014575484075885817,-0.006243460485027634,0.009119280693053443,0.9917634025584119
2013-12-02,1,0.0014497318173150942,0.001551747270919418,-0.006243460485027634,0.010437344629465196,0.9918730373702287
2013-12-04,1,0.001263221346506656,0.0013837541294652257,-0.004569034120863428,0.010437344629465196,0.9917382831946809
2013-12-06,1,0.0003144653402454478,0.0003943454492971008,-0.004569034120863428,0.010437344629465196,0.9923197077234345
2013-12-10,1,0.00047969794114362637,0.0005217307566324815,-0.004569034120863428,0.010437344629465196,0.9915800475514154
2013-12-12,0,-3.526908999354082e-05,9.253750259301756e-05,-0.004569034120863428,0.010114253429022039,0.9925647324738985
2013-12-16,1,8.889455565565474e-05,0.0001932775339165092,-0.0027413689360770237,0.010437344629465196,0.9915167534721359
2013-12-18,1,0.0008633158606203401,0.000875073093725457,-0.006452646016923611,0.010117420335356921,0.9915668339713349
2013-12-20,1,0.0007257536093804851,0.0007453642816039202,-0.006601028484358664,0.010117420335356921,0.9914877912943664
2013-12-24,1,0.0010544285574430668,0.0010738099521161077,-0.009113788334856848,0.009556963532670777,0.9896946965690734
2013-12-27,1,0.0006614358177724252,0.0007107896986046728,-0.009113788334856848,0.010117420335356921,0.9891457179898976
2013-12-31,1,0.0009894880432976304,0.0010062475291568779,-0.009113788334856848,0.010378226017730273,0.988625419239397
2014-01-03,1,8.216628012356437e-06,0.00015307304665753254,-0.009113788334856848,0.010378226017730273,0.988522485107737
2014-01-07,1,0.000435257323608434,0.0005057166606119124,-0.007201560072287455,0.010193190674500759,0.9886823367736947
2014-01-09,1,0.0007802584100051206,0.000819385873481474,-0.007201560072287455,0.011753293745399414,0.9875454233153065
2014-01-13,1,2.233389869704265e-05,0.00017204211026695124,-0.00705807927699245,0.011753293745399414,0.9876473319754624
2014-01-15,1,0.001554326094318069,0.0016271945425327668,-0.00705807927699245,0.010939533783357165,0.9883807412622226
2014-01-17,1,0.0008072266863718704,0.00084231950656614,-0.005514576955452585,0.01176700895064678,0.9881800016640006
2014-01-22,1,0.0002999234012283028,0.00040222499322419133,-0.003155690303593975,0.01270577201508764,0.9873817953742661
2014-01-24,-1,-0.0017251176295620847,-0.0013912538961447763,-0.0007304443887588223,0.01270577201508764,0.9890217663224647
2014-01-28,-1,-0.001512307292025352,-0.001183308301968278,0.001108417456143835,0.01303198900861157,0.9888795919794539
2014-01-30,-1,-0.0007092346823053593,-0.0004890135344060463,0.0021944826831947852,0.011875747948488091,0.9897891299680165
2014-02-03,-1,-0.001247241178091382,-0.0009715900656471443,0.0033995697709738744,0.01303198900861157,0.9898967479105694
2014-02-05,-1,-0.001177761376520357,-0.0008926662290293888,0.0038129601326271625,0.01303198900861157,0.9898717982713376
2014-02-07,1,0.00033628995208266973,0.00042062030051624906,0.0021944826831947852,0.010868202245671765,0.9927765269903773
2014-02-11,1,0.0010245723329335538,0.0010725244103893283,0.0006355172136020667,0.010868202245671765,0.9930741326693918
2014-02-13,1,0.0014580825738254959,0.001540855266904691,-0.0017504620329320732,0.01029955685221885,0.993352696572978
2014-02-18,1,0.0017959677331880915,0.001903957295139015,-0.0017504620329320732,0.006524416465652298,0.993529189907291
2014-02-20,1,0.002483935400860798,0.0027229329719194425,-0.0017504620329320732,0.0054214845634932,0.9942968665059174
2014-02-24,1,0.0019239530766659643,0.002065934784379824,-0.0026020528061430986,0.0054214845634932,0.9939028614637528
2014-02-26,1,0.0025981193942197617,0.002841987054201546,-0.003626950180913318,0.0054214845634932,0.9935524468867799
2014-02-28,1,0.0029850147345518263,0.0033107103187645093,-0.00553527173297693,0.00734602228165403,0.9916882826177709
2014-03-04,1,0.002789452325074451,0.0030116187957954918,-0.00553527173297693,0.006266401302927213,0.9918792084276806
2014-03-06,1,0.0037834648706783058,0.004183148633581951,-0.00553527173297693,0.006266401302927213,0.9912641107166098
2014-03-10,1,0.003871464129767648,0.004279665687973711,-0.008470172430744225,0.006266401302927213,0.9894203816897295
2014-03-12,1,0.003651580368909859,0.004050836422490557,-0.008470172430744225,0.00754336366033035,0.9894760828973559
2014-03-14,1,0.003210396536382723,0.0035775272034247636,-0.008470172430744225,0.00754336366033035,0.9894767313862499
2014-03-18,1,0.0038411306290033753,0.0043080695544577725,-0.008470172430744225,0.01129228573318996,0.9892435667343814
2014-03-20,1,0.0034457713723439433,0.0038284617957111255,-0.005819547746433271,0.01174157380556122,0.989102978239934
2014-03-24,1,0.0022017212984354437,0.0023534027143577016,-0.004222046129160682,0.01174157380556122,0.9892392283254561
2014-03-26,1,0.0020838127695087545,0.002205827564912285,-0.009263014027201517,0.01174157380556122,0.9889889778036167
2014-03-28,1,0.0012437334289719625,0.0012712207409500864,-0.005746380625388856,0.011359616410332448,0.9903544788506197
2014-04-01,1,0.0011719612892978186,0.0012048391787942933,-0.005746380625388856,0.01292471274421074,0.9899292099069731
2014-04-03,1,0.0017869913686138815,0.001833824721017667,-0.005746380625388856,0.011359616410332448,0.9904810404201745
2014-04-07,1,0.0005081076592103088,0.0006002002527538386,-0.003168630096491945,0.012363300296744224,0.9917322270936343
2014-04-09,1,0.0014461641339257273,0.0014934165909949986,-0.00372870569469597,0.012363300296744224,0.9911096824935707
2014-04-11,1,0.0011730609655121473,0.0012228252943063394,-0.0014998583813578222,0.012363300296744224,0.9911711976171219
2014-04-15,1,0.0017196436060423945,0.001810226126295526,-0.0031102381912964543,0.010732336911818088,0.9920757872642296
2014-04-17,1,0.0025085825041044683,0.0027060378679634443,-0.00372870569469597,0.009734273636729959,0.9922063246298304
2014-04-22,1,0.002444714297168157,0.002584872969290893,-0.00372870569469597,0.008884210535780517,0.9924288172194975
2014-04-24,1,0.0018233449486032888,0.001905293486443241,-0.0031102381912964543,0.009734273636729959,0.9926907105044714
2014-04-28,1,0.0015283783818326084,0.0015772080080470757,-0.001401677930030066,0.01070427632258959,0.9924646954194764
2014-04-30,1,0.0018306340419075673,0.0018785535927848596,-0.001401677930030066,0.01070427632258959,0.9925699043562297
2014-05-02,1,0.0013398521711755053,0.001370517318058408,-0.0030436089114369326,0.01070427632258959,0.9919057035467722
2014-05-06,1,0.0019004783240683344,0.0019331843165578805,-0.0031049066845686138,0.009734273636729959,0.9925459130687786
2014-05-08,1,0.001669648545810993,0.001685055656845234,-0.0031049066845686138,0.008884210535780517,0.9933263798401122
2014-05-12,1,0.002212585917809874,0.0022623778538745716,-0.0031049066845686138,0.007511226829305398,0.9936152669416283
2014-05-14,1,0.00267217064000163,0.0028359905940339987,-0.0035252705171844286,0.007511226829305398,0.99347093653718
2014-05-16,1,0.0023351437400000214,0.0024401182307051614,-0.0031049066845686138,0.006461641242101821,0.9942280890612895
2014-05-20,1,0.0024309181503486266,0.002556598488329849,-0.0031049066845686138,0.005542366375144244,0.9942425983360875
2014-05-22,1,0.0023730260842052633,0.002480101451475444,-0.003040244164621288,0.005542366375144244,0.9943234913836483
2014-05-27,1,0.0027257684998443377,0.0028985295901946566,-0.003040244164621288,0.0053834364368625315,0.9943156552280494
2014-05-29,1,0.0029440930994761878,0.003087484170903065,-0.0038592676544280556,0.002043273655076257,0.993760799056965
2014-06-02,1,0.002562127872861388,0.0026629409927542685,-0.0038592676544280556,0.002043273655076257,0.9934671834059015
2014-06-04,1,0.0026043960845092634,0.002737822863944847,-0.00380572371490507,0.0031738040529498764,0.9934242496733066
2014-06-06,1,0.0016445863236370225,0.0016680735277109834,-0.00380572371490507,0.00628159866942595,0.9933937953509097
2014-06-10,1,0.0027124330787387635,0.002905104655173798,-0.006294622054800034,0.00628159866942595,0.9927515871242233
2014-06-12,1,0.0017915796885712531,0.0018153535365518511,-0.004043494215009991,0.007115088996777157,0.9930299786252262
2014-06-16,1,0.001189825882648752,0.001262192268138652,-0.0054786931256283,0.007115088996777157,0.992962219673594
2014-06-18,-1,-0.0004111633635423039,-3.965609057162193e-05,-0.0054786931256283,0.008266341760845203,0.9928481376239158
2014-06-20,1,6.529543120568655e-05,0.0003577770133864058,-0.0054786931256283,0.008266341760845203,0.9927491081861595
2014-06-24,0,-1.1062769740492534e-05,0.0002631381022274047,-0.0038178231551262904,0.008978967651038235,0.9927016522882176
2014-06-26,-1,-0.0011050777777611065,-0.0006600045783581642,-0.0021207004141135027,0.009220042112713923,0.9907775801949177
2014-06-30,-1,-0.0013654983429525285,-0.0009167720643259377,-0.0021207004141135027,0.0094753844191558,0.9902902259272923
2014-07-02,-1,-0.00043339670005116,-0.000155419335277113,-0.0038178231551262904,0.0094753844191558,0.990206672443179
2014-07-07,-1,-0.0006315345648527114,-0.0003403636907534438,-0.0021207004141135027,0.010381858507699532,0.9901533515364207
2014-07-09,0,-0.00012145466525355212,7.365263471931899e-05,-0.0021207004141135027,0.011231877936129257,0.9897757955644205
2014-07-11,1,0.00028531226381561337,0.0004000185346710064,-0.0025991000509862725,0.011231877936129257,0.9896285563475716
2014-07-15,1,9.367653164604089e-06,0.0001436659309905562,-0.0008768426874562298,0.011231877936129257,0.9896148036429621
2014-07-17,1,0.00017452376348423752,0.00030733682128187645,-0.0008768426874562298,0.01065864109912923,0.9897105215331681
2014-07-21,1,0.0010250238608735798,0.0010301500533774683,-0.0008768426874562298,0.008909148766041366,0.9900224407977545
2014-07-23,1,0.0012285764073376394,0.0012504136474675923,-0.0008768426874562298,0.00895112683417151,0.9900976944347663
2014-07-25,1,0.0032499091138393876,0.003566450969338815,-0.0011180443424666417,0.0077373311566650005,0.9925269088457118
2014-07-29,1,0.003222547759407919,0.003556231457952001,-0.0011180443424666417,0.007261743876045578,0.9936310870642969
2014-07-31,1,0.002509941330878019,0.002746194762075415,-0.0008869673125598567,0.0077373311566650005,0.9943370960575728
2014-08-04,1,0.0031007531305312754,0.0033865500543760244,-0.0011420158616797954,0.007449900583240565,0.9947655528682053
2014-08-06,1,0.002640351577488262,0.002829578494909356,-0.0011420158616797954,0.007261743876045578,0.9956269299666649
2014-08-08,1,0.002546292378286102,0.002753407212091702,-0.0011420158616797954,0.007261743876045578,0.99574699094063
2014-08-12,1,0.0024578005896616754,0.0026458036945051842,-0.0014055806232585013,0.007261743876045578,0.9954613394536845
2014-08-14,1,0.0022719111817806723,0.002409112115306183,-0.0022290185691205165,0.006746918684509966,0.9949118241456372
2014-08-18,1,0.002499474486649114,0.00266353170198205,-0.0027861390306316573,0.004433907164677519,0.9949190014909277
2014-08-20,1,0.0022435670633295626,0.0023505293563314896,-0.0027861390306316573,0.004433907164677519,0.9945294146406899
2014-08-22,1,0.0021102965509432275,0.0021887998127637885,-0.0031775835532373876,0.004433907164677519,0.9940924449682855
2014-08-26,1,0.002269712921670403,0.002400358280910702,-0.0038478592008516646,0.004433907164677519,0.9928116802839586
2014-08-28,1,0.0016278370737451882,0.0016404348696491859,-0.0059887653213570825,0.004433907164677519,0.9912133195156371
2014-09-02,1,0.001805237725917872,0.001842653939238303,-0.009429831253854852,0.0025773045225470598,0.9894468565702819
2014-09-04,1,0.0014061590491904299,0.0014966034562398105,-0.014487366641699926,0.0025773045225470598,0.9871772840165784
2014-09-08,1,0.0017121822047788632,0.0017237792804061605,-0.014487366641699926,0.0018028778516420727,0.9869316782749828
2014-09-10,1,0.0018720776410559139,0.0019204724929777085,-0.017423803653172084,0.0018028778516420727,0.984642557003727
2014-09-12,1,0.001413877510152951,0.0014162878970643107,-0.021599653412688723,0.0018028778516420727,0.9819492587027866
2014-09-16,1,0.0007757890320295969,0.0009018219717673527,-0.027130052561495425,0.0018028778516420727,0.9773616410926815
2014-09-18,1,0.0011227173298005012,0.0012397886277572745,-0.027130052561495425,0.0032293357196339066,0.9760741295655276
2014-09-22,1,0.0009541942613927344,0.0010738739609093596,-0.027130052561495425,0.008459749027248283,0.9754784084051178
2014-09-24,1,0.00046912106751142025,0.0006629842255292665,-0.027130052561495425,0.011409245483082864,0.9747852201553654
2014-09-26,1,0.00121481167233823,0.0012912901158044438,-0.027130052561495425,0.007016161573060051,0.975368691179179
2014-09-30,-1,-0.0006902101898959531,-0.00040355071813895284,-0.027130052561495425,0.012668925182827641,0.9739035330865156
2014-10-02,-1,-0.002529612541331309,-0.0020629026780653354,-0.021705870202919166,0.01896145809284509,0.975281483360637
2014-10-06,-1,-0.003052492434373928,-0.0025280957206841193,-0.02541918014266414,0.01896145809284509,0.97435960849841
2014-10-08,-1,-0.0027799031239165916,-0.002277220107296438,-0.028012259573188453,0.014897664924132907,0.9737136581235227
2014-10-10,-1,-0.005910936986459704,-0.00505826714501045,-0.01861457713931781,0.014897664924132907,0.9748625991208218
2014-10-14,-1,-0.009930828670085854,-0.008626287026087625,-0.0026736246099224857,0.014897664924132907,0.9764194360488267
2014-10-16,-1,-0.0074785723288128755,-0.006480837528971753,-0.009993842428444187,0.013590059095613902,0.9799228095282674
2014-10-20,-1,-0.0056924059501935464,-0.004947435816729571,-0.009993842428444187,0.012597922693192685,0.9818913634255251
2014-10-22,-1,-0.005092075813948946,-0.004414637567179898,-0.0071835754724439834,0.012597922693192685,0.983165584046579
2014-10-24,-1,-0.005397736396918389,-0.004684515697261285,-0.0013596013331851385,0.012597922693192685,0.9829874447073536
2014-10-28,-1,-0.006719560909177981,-0.0058320780944029794,-0.0013308857466567152,0.012060718722844217,0.9859287215641641
2014-10-30,-1,-0.005878311722159678,-0.0051119867285463454,-0.0071835754724439834,0.009463641199699377,0.9829140301703168
2014-11-03,-1,-0.006849964864717133,-0.005958074343815853,-0.0071835754724439834,0.009463641199699377,0.9829142057637347
2014-11-05,-1,-0.008448047534342584,-0.007368322881982513,-0.00704625298854884,0.012060718722844217,0.9822872890810147
2014-11-07,-1,-0.007287679352955477,-0.006350254980382032,-0.0071835754724439834,0.007044545400908391,0.9833360318121893
2014-11-11,-1,-0.006250848750219381,-0.005461984109163383,-0.008564053105561699,0.009463641199699377,0.9816434861657432
2014-11-13,-1,-0.006477178130724565,-0.005660837556422503,-0.015682546725903884,0.00982847523083991,0.9785662890673118
2014-11-17,-1,-0.006315633886881428,-0.005500561732239732,-0.015682546725903884,0.012094608946406737,0.9779275548062267
2014-11-19,-1,-0.0059166714614694825,-0.005132178716779981,-0.015682546725903884,0.012524580160597659,0.973915662497099
2014-11-21,-1,-0.0046268666329678096,-0.004016141982416164,-0.015682546725903884,0.015040921986933298,0.9734137598030862
2014-11-25,-1,-0.004896663400019884,-0.004249587721063319,-0.015682546725903884,0.015563755285009695,0.9726275035984674
2014-11-28,-1,-0.008852987378283245,-0.007758710201942031,-0.010833845462100913,0.015563755285009695,0.9761581374942213
2014-12-02,-1,-0.009244984848102065,-0.00811871346205199,-0.010833845462100913,0.015563755285009695,0.9767651479775957
2014-12-04,-1,-0.006814967448298996,-0.005960868302064619,-0.011893337288254707,0.012524580160597659,0.9778700250782744
2014-12-08,-1,-0.008162264335236882,-0.007183253177473815,-0.011893337288254707,0.012524580160597659,0.9776445924766843
2014-12-10,-1,-0.009219734232991715,-0.008155975709493224,-0.010833845462100913,0.012698857926623125,0.9772284037661796
2014-12-12,-1,-0.01057222374463881,-0.009374938553581603,-0.010930778231606533,0.012698857926623125,0.9789564859393687
2014-12-16,-1,-0.008278233890423883,-0.007473824421377448,-0.01149247764766921,0.012537905339413645,0.9796075599765119
2014-12-18,-1,-0.0037388957405114958,-0.0034620976529503387,-0.013115672706445303,0.01091914884171947,0.9814668283698383
2014-12-22,-1,-0.0033524742524745155,-0.0030976232516679815,-0.013115672706445303,0.01091914884171947,0.9811880523632451
2014-12-24,-1,-0.0023558094502282145,-0.0022843127406514496,-0.015993227446062346,0.009907066423517684,0.9812285938025959
2014-12-29,-1,-0.002406095254345486,-0.002335653923401173,-0.01949506026817549,0.009907066423517684,0.9798621166185119
2014-12-31,-1,-0.002923959353584747,-0.002784423506268546,-0.01949506026817549,0.01342156226182352,0.9786772518984536
2015-01-05,-1,-0.004054123522754072,-0.0038088710724103886,-0.014096504279309703,0.022048225932185125,0.9765541218018821
2015-01-07,-1,-0.0037875351277860225,-0.0035867197370373837,-0.013821730885847995,0.029409317079768914,0.9759295815798712
2015-01-09,-1,-0.0013751144859543755,-0.001243874679864166,-0.013821730885847995,0.0198675606085588,0.9773328040584526
2015-01-13,-1,-0.0025337805682551905,-0.002526211536533746,-0.0118783581109965,0.0198675606085588,0.9787880985170335
2015-01-15,-1,-0.002148311686102415,-0.002078132386449505,-0.010021292944443594,0.027724122436253273,0.9782992702594867
2015-01-20,-1,-0.00043540645049994675,-0.00012089713744557957,-0.008044162014811715,0.0198675606085588,0.9824834305052627
2015-01-22,1,0.001344601726414313,0.001925934730533306,-0.008696808720651546,0.018019400622098034,0.9832556577488166
2015-01-26,1,0.000739802168731893,0.0012624697656635482,-0.007786597716503038,0.018019400622098034,0.9839664179647409
2015-01-28,0,-0.00019461248269354143,0.00021186247783040453,-0.008696808720651546,0.018019400622098034,0.9831825018807852
2015-01-30,1,0.0016733181720819468,0.0023396325330989963,-0.009522864937592766,0.018019400622098034,0.9841919337676023
2015-02-03,1,0.005227280170610452,0.0063745811278035185,-0.009522864937592766,0.00948806194286017,0.9871974930075661
2015-02-05,1,0.005011578750720632,0.006095988313782384,-0.008696808720651546,0.008529688774008162,0.9887167660960382
2015-02-09,1,0.005364339271629975,0.006497908132906018,-0.008750172042666732,0.005517809967313969,0.987593215620448
2015-02-11,1,0.005475428801349333,0.006678226054380537,-0.0070541320500419405,0.008656415167161919,0.9885317707107303
2015-02-13,1,0.006399826874901435,0.007698670067459218,-0.008750172042666732,0.008656415167161919,0.9874468386852308
2015-02-18,1,0.006527647296189387,0.007853364759637441,-0.011998318243856013,0.009176641924618449,0.9844931743633588
2015-02-20,1,0.007228426683020805,0.008684243484630018,-0.019363245047214147,0.008656415167161919,0.9842349422266717
2015-02-24,1,0.006784144669073259,0.00809124174488196,-0.019363245047214147,0.008656415167161919,0.98435793977623
2015-02-26,1,0.004413609853805879,0.005313701304982972,-0.007999533904068445,0.008988146135206643,0.9860157718040777
2015-03-02,1,0.004117088416151324,0.004949593520827115,-0.00927787053306117,0.01012651152953177,0.9854195165306382
2015-03-04,1,0.0049438943018081495,0.005930283303962673,-0.00927787053306117,0.01012651152953177,0.9852608019682945
2015-03-06,1,0.003389016698446322,0.003993511482053562,-0.00927787053306117,0.011513682394791492,0.9838050766140021
2015-03-10,1,0.0003978526334473826,0.00041050350092347257,-0.00735994181447778,0.011513682394791492,0.9844425421115621
2015-03-12,1,0.0020052998764411804,0.002349655411169442,-0.00735994181447778,0.010948195026556072,0.9848762300198737
2015-03-16,1,0.0023638489805473083,0.0027876076582592666,-0.006488786613677231,0.010948195026556072,0.985776567789607
2015-03-18,1,0.0033479530379635553,0.003910003870352006,-0.006235304104218714,0.010948195026556072,0.9877940562544204
2015-03-20,1,0.0021752486115982107,0.0025790369419674327,-0.00582531888787961,0.010948195026556072,0.9885226509773097
2015-03-24,1,0.001940133824020859,0.002260995719537085,-0.00582531888787961,0.010751458199533975,0.9889761173285647
2015-03-26,1,0.0030132788124913085,0.003500099410661359,-0.003968040955179672,0.010751458199533975,0.9892845146585196
2015-03-30,1,0.002297032719245897,0.002639854695409702,-0.0028810153311357427,0.01329410926589902,0.9891796511006863
2015-04-01,1,0.0020364481720579787,0.0022743330672368328,-0.003968040955179672,0.01329410926589902,0.9889310929220653
2015-04-06,1,0.003267249757124058,0.0037087348768010506,-0.003968040955179672,0.00951902682358927,0.9905032858756896
2015-04-08,1,0.0031269148332998143,0.0035748029819629634,-0.003968040955179672,0.007904548974692917,0.9906589308105108
2015-04-10,1,0.0029009075515260465,0.003293907765300294,-0.004050698322656016,0.012110419389547681,0.9895916698243574
2015-04-14,1,0.0033414708364635348,0.0037826531860755356,-0.004468768663234386,0.007855437701847223,0.9903311665009215
2015-04-16,1,0.004036191701890403,0.004595281100228003,-0.0030203721113285327,0.007855437701847223,0.9916766097702974
2015-04-20,1,0.0044851990352257325,0.005134419369336109,-0.003421773188778353,0.006785714066863071,0.9917404131168173
2015-04-22,1,0.0045935296332133115,0.005241121656214115,-0.004468768663234386,0.006785714066863071,0.9901290592527107
2015-04-24,1,0.003424535329005978,0.0037496800050424214,-0.005278176933470149,0.006785714066863071,0.9906145466843379
2015-04-28,1,0.003920112835409273,0.00427513626308313,-0.006687684253481075,0.006085994807251544,0.9902827028214287
2015-04-30,1,0.003932713447211936,0.00438018754383602,-0.005278176933470149,0.006085994807251544,0.9904835644512081
2015-05-04,1,0.0030682025656369816,0.0033199630505422193,-0.0042186003574279304,0.006085994807251544,0.9911647394556343
2015-05-06,1,0.002164584004755293,0.0022306762413578426,-0.0042186003574279304,0.006085994807251544,0.989976028369982
2015-05-08,1,0.0016236065807770474,0.0017356114435634353,-0.003648351186096444,0.005246771790022039,0.9915355336628175
2015-05-12,1,0.0013920040023563593,0.0015172337900920447,-0.003321624383916276,0.0075603079461012785,0.9898998372727698
2015-05-14,1,0.0029007506899112728,0.0031200408603186923,-0.003321624383916276,0.006085994807251544,0.9904557537481677
2015-05-18,1,0.002984382802097597,0.0032329916207519084,-0.0036440728578337363,0.007292151090627452,0.9902991783205235
2015-05-20,1,0.0022207227656379346,0.0023615608324368646,-0.0036440728578337363,0.007970047692187086,0.9910342319981393
2015-05-22,1,0.0021407933935483833,0.002251983309292626,-0.0036440728578337363,0.007970047692187086,0.9911482264488723
2015-05-27,1,0.0014403073566570902,0.0014523193494106919,-0.0036440728578337363,0.007970047692187086,0.9920741874033951
2015-05-29,1,0.00036883935401637897,0.0005657683187320311,-0.0041635167901308365,0.00903421902661978,0.9909179882997562
2015-06-02,1,0.0003350919890477616,0.0005511827552245484,-0.005743090278601584,0.010206383105586025,0.9891464676515561
2015-06-04,1,5.261638548752787e-05,0.00024379076699807976,-0.005743090278601584,0.010206383105586025,0.989447511869886
2015-06-08,-1,-0.0009619127437856831,-0.0005893968431619147,-0.010241082128398877,0.010206383105586025,0.9877300639526838
2015-06-10,1,0.00013087251059876485,0.00039989605630237493,-0.01211566014331911,0.0082297484601983,0.9874868985490163
2015-06-12,1,0.0005374177113310594,0.0007108742443184327,-0.01211566014331911,0.010906089612792665,0.9865401347984795
2015-06-16,1,0.0011328253429002126,0.001183511698512701,-0.01211566014331911,0.011093229958300142,0.9858320927809343
2015-06-18,1,0.00043506721546384883,0.0006049828485612359,-0.01654108653810918,0.010906089612792665,0.9851394689432936
2015-06-22,-1,-0.0003402060053438573,-1.5717903866284497e-05,-0.01654108653810918,0.010906089612792665,0.9853998848971237
2015-06-24,0,-9.677824490370761e-06,0.00022812673825566585,-0.020907936104251745,0.010906089612792665,0.9845720533428417
2015-06-26,1,0.0012985394568220095,0.0013243014664720263,-0.024353068637606255,0.007097664413878289,0.9833530426199207
2015-06-30,1,0.000975677562501234,0.0009835172425126145,-0.020907936104251745,0.010906089612792665,0.9837467153283928
2015-07-02,1,0.0004486748367726243,0.0005139253269164807,-0.014758223991135438,0.010906089612792665,0.9849393060719396
2015-07-07,-1,-0.0010266401278091466,-0.0007635248879164493,-0.014758223991135438,0.01176187966508417,0.9844135502376962
2015-07-09,-1,-0.0006847291905700334,-0.0005020641123279582,-0.013752179341570586,0.010906089612792665,0.9859390892667147
2015-07-13,-1,-0.0002181624699166928,-7.859278518723229e-05,-0.01693794222918854,0.0068799241764223125,0.9827651302170921
2015-07-15,1,0.00013300374389536742,0.0002171688050359526,-0.020600391195580162,0.00424128973613868,0.9827791708610609
2015-07-17,-1,-0.0006227335761382026,-0.0004613161077744366,-0.020600391195580162,0.0016952104384158648,0.9835509358065656
2015-07-21,-1,-0.0020214648837900066,-0.001623495871439664,-0.020600391195580162,0.002847938308455623,0.9837714287541237
2015-07-23,-1,-0.0029750126273487302,-0.0024507800826147454,-0.017582257246885606,0.002847938308455623,0.9837802296309278
2015-07-27,-1,-0.004728007603686902,-0.00398948864521044,-0.02297638603119201,0.002847938308455623,0.9820895769362411
2015-07-29,-1,-0.002067448072674511,-0.0016968590009092382,-0.02297638603119201,0.002847938308455623,0.981567241220156
2015-07-31,-1,-0.002875577258099212,-0.0023708830164847223,-0.02297638603119201,0.0033290904302818174,0.9791336349029794
2015-08-04,-1,-0.0030747479574421473,-0.0025690083547229335,-0.02297638603119201,0.0020980932389720874,0.9797261483476191
2015-08-06,-1,-0.003280769016951637,-0.002766584552978716,-0.02297638603119201,0.0033290904302818174,0.9795726605408256
2015-08-10,-1,-0.0015822776425197236,-0.0013119761992832473,-0.02297638603119201,0.0033290904302818174,0.9805820369865962
2015-08-12,-1,-0.003207580974630299,-0.002690982161999364,-0.016954777865112926,0.007540734838220524,0.9808200011477414
2015-08-14,-1,-0.0039244759393731975,-0.0033312319743258167,-0.014996805470582316,0.007540734838220524,0.9812133311200546
2015-08-18,-1,-0.0037927571869527206,-0.0032478735311370485,-0.014996805470582316,0.01534587645882957,0.9787681424394111
2015-08-20,-1,-0.004499804646766209,-0.003860623658756352,-0.013568635376812226,0.01534587645882957,0.9790411911686013
2015-08-24,-1,-0.004849717215753057,-0.0041924351268705605,-0.007587381993361275,0.01534587645882957,0.9807707099413284
2015-08-26,-1,-0.004207801949237724,-0.0036630996126559936,-0.013568635376812226,0.013074528324829384,0.9822533203771705
2015-08-28,-1,-0.0031606056138992287,-0.0027193101657928456,-0.017447673272872208,0.012054565412611538,0.9827735726303576
2015-09-01,-1,-0.004214365565934606,-0.003658904127685024,-0.013568635376812226,0.013074528324829384,0.982832924033562
2015-09-03,-1,-0.003435026506208745,-0.003000052319940374,-0.013568635376812226,0.01977696971117746,0.9807030885275742
2015-09-08,-1,-0.00303363649109366,-0.0026613865078642576,-0.007587381993361275,0.025104087209795414,0.9808407063604452
2015-09-10,-1,-0.0027699634773979704,-0.002436039187254009,-0.007587381993361275,0.025104087209795414,0.9794714427292252
2015-09-14,-1,-0.003176550237910045,-0.002813316184920357,-0.014542662849052899,0.025104087209795414,0.9779579470297853
2015-09-16,-1,-0.0005224721378920825,-0.0005218057481010241,-0.014542662849052899,0.021693538134033852,0.9801969201277752
2015-09-18,-1,-0.000807399642547635,-0.0007975015395693431,-0.01106694758818319,0.021693538134033852,0.9801861383393928
2015-09-22,-1,-0.0013618971996527751,-0.0012823328210087735,-0.008098560865879595,0.021693538134033852,0.9812848965493537
2015-09-24,-1,-0.0009515523016242417,-0.0009260777824188168,-0.008098560865879595,0.025104087209795414,0.9799312964929878
2015-09-28,-1,-0.0024074023827746946,-0.002213718808645852,-0.008098560865879595,0.025104087209795414,0.9813715597546157
2015-09-30,-1,-0.0011711919480632531,-0.001148504784171152,-0.011018503063587468,0.021693538134033852,0.9813169558238387
2015-10-02,1,0.0007430426666332846,0.00096383883571148,-0.011018503063587468,0.020052017163058218,0.9837620074246564
2015-10-06,1,0.0018378204715657279,0.002212956534547129,-0.011018503063587468,0.01829379432801165,0.9852915090568805
2015-10-08,1,0.002737978087257827,0.0032440648552223396,-0.011018503063587468,0.00857563681843402,0.9864873094427182
2015-10-12,1,0.0011151576876676944,0.001373927322993477,-0.008098560865879595,0.010550423232845624,0.9879825061940799
2015-10-14,1,0.0018611030463535018,0.002232441345156245,-0.010241235959513942,0.00857563681843402,0.9878540927533235
2015-10-16,1,0.0017080896715659516,0.0020479259314064562,-0.012488879851724592,0.010550423232845624,0.9864314116657322
2015-10-20,1,0.001283416279356418,0.0015565972139144895,-0.012488879851724592,0.013908655955989868,0.9854828856018192
2015-10-22,1,0.0019921030012125694,0.002382764875281381,-0.012488879851724592,0.0117498680032471,0.9866610165989599
2015-10-26,1,0.0008792262766138753,0.0010793111524404738,-0.010241235959513942,0.012216467928910808,0.9873862089507407
2015-10-28,1,0.0011857374296327817,0.0014284859918230067,-0.005929774576133107,0.012216467928910808,0.9882303511391932
2015-10-30,1,0.0019385146524437498,0.0023546825847913224,-0.008689221078733971,0.012216467928910808,0.9881077902928773
2015-11-03,1,0.0026160824839823547,0.0031207773774439666,-0.010241235959513942,0.012216467928910808,0.9874016489595904
2015-11-05,1,0.0025968665498463032,0.0031155960621953695,-0.010241235959513942,0.012273480351833378,0.987312785761696
2015-11-09,1,0.0025544251445285713,0.003077322137828727,-0.013223860922169664,0.012131741222423874,0.983879979893565
2015-11-11,1,0.002070896717424724,0.002530263781214354,-0.01635712220853372,0.012428984719094933,0.9836541891796764
2015-11-13,1,0.0022230151386955803,0.002705008499286075,-0.01635712220853372,0.012131741222423874,0.9846486673219123
2015-11-17,1,0.0026622155360873224,0.003196519230699917,-0.01635712220853372,0.012131741222423874,0.9846892619482788
2015-11-19,1,0.002366423050807671,0.0028610553052369108,-0.014200755161743671,0.012131741222423874,0.9852261264740246
2015-11-23,1,0.0025533544017584875,0.003041824849880543,-0.014200755161743671,0.010542905812680874,0.9851590716867702
2015-11-25,1,0.0025750430022489124,0.0030337486697995107,-0.01563044895565841,0.010542905812680874,0.9839711437074561
2015-11-30,1,0.00221877990539991,0.0025986117266541056,-0.01563044895565841,0.012428984719094933,0.9831291477614313
2015-12-02,1,0.0023366327906497427,0.002761863627793029,-0.014375978426408018,0.010542905812680874,0.9835149673079358
2015-12-04,1,0.0031419398689301542,0.0036893000780467127,-0.014375978426408018,0.006455894239847187,0.9836763773797014
2015-12-08,1,0.0004856452030855922,0.0006407456015507058,-0.014375978426408018,0.006455894239847187,0.9845361815733383
2015-12-10,1,0.0001708834967553357,0.00026904572821699315,-0.015033987849933905,0.003735667450733726,0.9837662938185177
2015-12-14,-1,-0.00015277948520796703,-0.00013825917126858024,-0.015033987849933905,0.006455894239847187,0.9817996436673264
2015-12-16,1,1.6246356889485094e-05,2.398812594596942e-05,-0.01775357181144835,0.003735667450733726,0.9817571210620526
2015-12-18,1,0.00018120365894133466,0.0002727171410959652,-0.019192703531983366,0.003735667450733726,0.9807857747574955
2015-12-22,-1,-0.00012118050983888165,-9.293977975709587e-05,-0.019192703531983366,0.01931606958500948,0.9772088034688498
2015-12-24,-1,-0.00012508328608876098,-0.000121631667278478,-0.025066756336994456,0.01931606958500948,0.9767663663412655
2015-12-29,-1,-7.94864848413426e-05,-5.9096213505985737e-05,-0.025066756336994456,0.011418903091471796,0.9774137587051005
2015-12-31,1,8.113365189945233e-05,0.00017135096532229884,-0.025066756336994456,0.011418903091471796,0.9775774453691699
2016-01-05,-1,-1.70927327691395e-05,-1.1938012640507137e-05,-0.02834351301706185,0.011418903091471796,0.9765111515538492
2016-01-07,-1,-0.0031907459693358052,-0.00277361062716189,-0.019192703531983366,0.020179089190072642,0.9782234253242792
2016-01-11,-1,-0.004657752130501656,-0.004052321253623743,-0.019192703531983366,0.020179089190072642,0.9777393760436611
2016-01-13,-1,-0.005693913342009313,-0.00493236536672094,-0.01894921675208835,0.011418903091471796,0.9798901092850767
2016-01-15,-1,-0.006479707526709362,-0.005556215120853284,-0.015301242006911995,0.020286953800731495,0.978277966385955
2016-01-20,-1,-0.006678749349151441,-0.005760276690113465,-0.009864441538902898,0.020286953800731495,0.9773447190227038
2016-01-22,-1,-0.0037805095117124403,-0.0032802876032048687,-0.014091447048324166,0.016066526342413446,0.9795555367549194
2016-01-26,-1,-0.005007351866474015,-0.004285513767272002,-0.014091447048324166,0.015318529114872694,0.9792957547965437
2016-01-28,-1,-0.005248015586259541,-0.004520695005686342,-0.012232059291827474,0.016981763461306983,0.978576112670623
2016-02-01,-1,-0.004870577625234247,-0.004206535519690521,-0.012232059291827474,0.016981763461306983,0.9785595659691306
2016-02-03,-1,-0.0048067091436801365,-0.0041678917111580725,-0.007253335754942127,0.016981763461306983,0.9798836170050166
2016-02-05,-1,-0.004009319048188049,-0.003427628892625496,-0.007253335754942127,0.020782829583840926,0.9802185685611753
2016-02-09,-1,-0.003992977791376407,-0.003531083621677657,-0.007253335754942127,0.02507157783090099,0.9792938136394674
2016-02-11,-1,-0.005560876915805707,-0.004874322670192126,-0.002092604541827461,0.026541387255536144,0.9765908239470118
2016-02-16,-1,-0.0038425250452031653,-0.003339249650655377,-0.006337646134017962,0.02566124816959899,0.9791276432739949
2016-02-18,-1,-0.0028470980246813843,-0.0024567191974381483,-0.006337646134017962,0.026285728495905915,0.9782715370495726
2016-02-22,-1,-0.0035978670330532865,-0.003036614150508876,-0.007707399362386809,0.02566124816959899,0.9798994041124769
2016-02-24,-1,-0.0036259133523518566,-0.003124539600569828,-0.007707399362386809,0.02566124816959899,0.98207882906717
2016-02-26,-1,-0.0016845184889169285,-0.0015273168667537134,-0.007707399362386809,0.025360787271619726,0.9830724425759433
2016-03-01,-1,-0.00024005931124449831,-0.00012831685280198757,-0.007707399362386809,0.025360787271619726,0.9830451951156275
2016-03-03,1,2.8366665965644223e-05,0.0002501939610506399,-0.007455479696505491,0.025360787271619726,0.9828209892614426
2016-03-07,1,0.0010930850920116849,0.0013568855494854519,-0.012038713746468047,0.017190683604895,0.9841735701945602
2016-03-09,1,0.0009103105380519204,0.0011909494233660499,-0.012038713746468047,0.014960790755938735,0.9857207214362954
2016-03-11,1,0.002589611908156989,0.0030919937727253845,-0.012038713746468047,0.009902279438181135,0.9869655357601299
2016-03-15,1,0.0014295843390443534,0.0017605043059184524,-0.008552379407399446,0.014889321815918531,0.987572685954127
2016-03-17,1,0.003321067929022991,0.003936055767214434,-0.008552379407399446,0.007927073567428203,0.9891542698256619
2016-03-21,1,0.0019436393832543298,0.002326804501787026,-0.004334400681616209,0.009902279438181135,0.9896199992964303
2016-03-23,1,0.0015241154976104489,0.0018620046401073807,-0.004334400681616209,0.009902279438181135,0.9901655208479055
2016-03-28,1,0.001857585120296669,0.0022553838059666113,-0.006432556469746345,0.009902279438181135,0.9892003017470816
2016-03-30,1,0.002626298817803071,0.0031765646831564964,-0.006432556469746345,0.014889321815918531,0.9885031000491994
2016-04-01,1,0.003208503317634397,0.003830276748049321,-0.009530193104018096,0.008372566169953684,0.9853411706699609
2016-04-05,1,0.0022367840984445827,0.0027195153488823514,-0.007968746814125637,0.014367720874762829,0.9857468157910808
2016-04-07,1,0.0017612210688986712,0.0021435664705648635,-0.007968746814125637,0.007915593466840147,0.9865122814058801
2016-04-11,1,0.0020775395178919045,0.002496823503233176,-0.010467916994912068,0.005889946389533982,0.9867208633215993
2016-04-13,1,0.0036142730766906446,0.004279463707598876,-0.010467916994912068,0.00427794440348379,0.9868252231942364
2016-04-15,1,0.0033522543720406113,0.00396504935763815,-0.010467916994912068,0.00427794440348379,0.9863969505737722
2016-04-19,1,0.0047594771736333705,0.005587171596144736,-0.010467916994912068,0.006272067244432,0.9856440423764625
2016-04-21,1,0.00478548286926404,0.005647424231171667,-0.013317666220398778,0.006272067244432,0.9840775749947591
2016-04-25,1,0.0039999373620592926,0.004757253777503179,-0.010467916994912068,0.006272067244432,0.9852287939724376
2016-04-27,1,0.004331278391752302,0.005122204946856305,-0.010467916994912068,0.006272067244432,0.9849810879015887
2016-04-29,1,0.002422357970981801,0.0029973330759259027,-0.009794448274709766,0.006272067244432,0.9883704166171967
2016-05-03,1,0.0010418159577234134,0.0012531891057140092,-0.008099513921685567,0.006272067244432,0.988978419882858
2016-05-05,1,0.00047103998928298287,0.0006069575296101277,-0.009803312944512444,0.006272067244432,0.9884260300127191
2016-05-09,1,0.00014514239480712914,0.0002110200967288745,-0.008099513921685567,0.010863965630159792,0.9877962653462602
2016-05-11,1,0.0009737648155315186,0.0012143679451964257,-0.009803312944512444,0.008037941548420798,0.98715679979765
2016-05-13,1,0.0002983807188954995,0.0004196687613730072,-0.011515598538427662,0.008037941548420798,0.9869379564297187
2016-05-17,1,0.0014636053488550245,0.0017302409964696985,-0.011515598538427662,0.006106993809022295,0.9878835707343411
2016-05-19,1,0.0005868943962187977,0.0007618003544832134,-0.007940416174362894,0.007615112728332939,0.9893713796536104
2016-05-23,1,0.0004650260223367772,0.0006427528575294129,-0.009138674704808716,0.007615112728332939,0.9891400641314144
2016-05-25,1,0.001257302504697349,0.001500139711889028,-0.009138674704808716,0.006106993809022295,0.9904024334233643
2016-05-27,1,0.0009600598257267153,0.0011891279163869601,-0.011515598538427662,0.006106993809022295,0.9863896066512298
2016-06-01,-1,-7.615345331875469e-05,-5.831363666142236e-06,-0.011515598538427662,0.007615112728332939,0.9854131726385158
2016-06-03,-1,-0.0023799086172421073,-0.001960801074521677,-0.0075945682862288665,0.007615112728332939,0.9861438894505371
2016-06-07,-1,-0.001670729121522372,-0.0013066816330304576,-0.010478054874025576,0.005616974867493357,0.9866441332743787
2016-06-09,-1,-0.0028554590856725093,-0.0023508245609358993,-0.0075945682862288665,0.00819597916941416,0.9853029929586872
2016-06-13,-1,-0.0038284036198492056,-0.0031596760698441827,-0.0075945682862288665,0.01267903991147013,0.9847562722204345
2016-06-15,-1,-0.002334111145968755,-0.001967003064376042,-0.008853840860362009,0.01267903991147013,0.9846644068974884
2016-06-17,-1,-0.002075497533794658,-0.0017238239649034833,-0.008853840860362009,0.011880514595244893,0.9847518939483046
2016-06-21,-1,-0.002888272919744925,-0.0024251572695258503,-0.0016889740508973477,0.011880514595244893,0.9841196617321656
2016-06-23,-1,-0.0027669786380253884,-0.002319700307133234,-0.009318706031064383,0.011880514595244893,0.9839764979606143
2016-06-27,-1,-0.0066005779723184235,-0.005678401422866923,-0.0014169727345048385,0.011880514595244893,0.9861497907122666
2016-06-29,-1,-0.004286626313158864,-0.003716526283893011,-0.005931344033617837,0.009816930506221157,0.9884793700306439
2016-07-01,-1,-0.004684831457387699,-0.003996640843248368,-0.009012541276191333,0.009816930506221157,0.9871733504434904
2016-07-06,-1,-0.006145571149577052,-0.005228650747929286,-0.009012541276191333,0.011120542352820454,0.9852178343067202
2016-07-08,-1,-0.00324455867942136,-0.0027648539084178863,-0.009012541276191333,0.00969945977681965,0.9874989097218291
2016-07-12,-1,-0.002364318749847309,-0.0020361864551513963,-0.009012541276191333,0.00969945977681965,0.9878751328715077
2016-07-14,-1,-0.0021761855052304636,-0.0018829406153542828,-0.005938351754547228,0.00969945977681965,0.9873029113144427
2016-07-18,-1,-0.0021971203090415522,-0.0018592494139029172,-0.009637154850495686,0.01076813016461594,0.9858657575213676
2016-07-20,-1,-0.0014266029438067824,-0.0012087544236160253,-0.009637154850495686,0.01076813016461594,0.9859357601742786
2016-07-22,-1,-0.0018797360920746447,-0.0016251625368429142,-0.008929337882590418,0.012026205837279438,0.984745648943757
2016-07-26,-1,-0.0018128572912505328,-0.0015434697960279473,-0.009637154850495686,0.012026205837279438,0.9841546691019593
2016-07-28,-1,-0.0005000390753745075,-0.00047733392500568227,-0.011241484719870427,0.012026205837279438,0.984060050112111
2016-08-01,-1,-0.0027260876091118333,-0.0024151305864313763,-0.009464114505715332,0.012026205837279438,0.9855254260841055
2016-08-03,-1,-0.001881301284786961,-0.0017677198648832961,-0.009464114505715332,0.011143370874539696,0.98788594353622
2016-08-05,-1,-0.0021491085568426226,-0.0019470091777858884,-0.009464114505715332,0.012026205837279438,0.9876561420355698
2016-08-09,-1,-0.0009153979163356628,-0.0008887473794254334,-0.00612387175170592,0.011143370874539696,0.9887968070930471
2016-08-11,-1,-0.00031750114746441723,-0.00025996786685258234,-0.011407968701807956,0.007885087875775739,0.9884716984685825
2016-08-15,-1,-0.00018747989881078445,-0.00013913159523681545,-0.011407968701807956,0.00700135251664914,0.9888987020251391
2016-08-17,-1,-0.00021187264947017658,-0.00015517685997031705,-0.011407968701807956,0.011143370874539696,0.9882294245283845
2016-08-19,1,0.001031767736748044,0.0012726447137352843,-0.011407968701807956,0.008602114327600302,0.9889733884102457
2016-08-23,1,0.000923347027685005,0.0011751906254378083,-0.011226089643843444,0.008602114327600302,0.9892478709262139
2016-08-25,1,0.000622652210169411,0.0007963313993612022,-0.010447112619536795,0.007763733304428503,0.9897149228786706
2016-08-29,1,0.0008701074523588775,0.001069803677396626,-0.011512675061623203,0.009204354295400768,0.988689805390846
2016-08-31,1,0.0007647160508738292,0.000969362254190334,-0.010447112619536795,0.013482222507053668,0.9879142676521246
2016-09-02,1,0.001752804101649892,0.0021585433814711548,-0.010447112619536795,0.009204354295400768,0.9890080802465113
2016-09-07,1,0.0016950867187278404,0.0020904448358532073,-0.011512675061623203,0.013482222507053668,0.9877943666688956
2016-09-09,1,0.001115088143173368,0.0015033355287593368,-0.010447112619536795,0.014751599373666829,0.9866519899186768
2016-09-13,1,0.0005020576700089164,0.0008012045114680936,-0.010447112619536795,0.014751599373666829,0.9865722792404596
2016-09-15,1,0.0010229941646590862,0.0013421213400354797,-0.010447112619536795,0.011767809199136432,0.9876085222979764
2016-09-19,1,0.0019683252210454735,0.002434295978270046,-0.010447112619536795,0.00832063101062729,0.9883406499382228
2016-09-21,1,0.0007788161818323878,0.0009595800528646741,-0.005811566767911103,0.011767809199136432,0.9880594625087261
2016-09-23,1,0.0006037769922751325,0.0007740941115473447,-0.003897135028242591,0.011767809199136432,0.9883494826694644
2016-09-27,1,0.0006764138556245838,0.0008230941325664963,-0.003897135028242591,0.00864696639504108,0.9885201564390239
2016-09-29,1,0.0014719490303049957,0.001720173983796237,-0.003897135028242591,0.005701332302351821,0.9897992540270569
2016-10-03,1,0.0017306109260442752,0.002025042701527483,-0.005558622512648149,0.005701332302351821,0.9892133517511951
2016-10-05,1,0.0017154237509215626,0.0019829448945804583,-0.009440987853565045,0.0040700676671924264,0.9891997359360639
2016-10-07,1,0.002360425825981154,0.0027837583664187845,-0.005558622512648149,0.0040700676671924264,0.9916985039894698
2016-10-11,1,0.0013705900907442325,0.0015978102051819152,-0.003897135028242591,0.0040700676671924264,0.9931128568278155
2016-10-13,1,0.001209517264781077,0.0013963917227456184,-0.0033853302229465538,0.008392385956392294,0.9909514790251249
2016-10-17,1,0.0015334217574532816,0.0018291744503152636,-0.004563496322114757,0.008392385956392294,0.9905673373662102
2016-10-19,1,0.002149513468704475,0.0024937138262953558,-0.004563496322114757,0.005920682475319538,0.9908689120939355
2016-10-21,1,0.0024306114346806804,0.002844522692671752,-0.004563496322114757,0.005920682475319538,0.9907304278758601
2016-10-25,1,0.0010808657514057918,0.0012500040709436328,-0.0026411888747771162,0.00975978166646338,0.9908348816190922
2016-10-27,1,0.0016819622407980089,0.0019867690591485456,-0.0026411888747771162,0.010579533713916971,0.9907349882899377
2016-10-31,1,0.0009196898562281418,0.0010671742230603859,-0.004610851997262681,0.010579533713916971,0.9893724611278041
2016-11-02,1,5.1985021120858715e-05,7.022567613692058e-05,-0.002372011666606345,0.012010512881972238,0.9862211779162079
2016-11-04,1,0.0004221518118857447,0.0004865209059961202,-0.0035041789470290287,0.010702229355922025,0.9855828721159217
2016-11-08,1,0.000836109702889087,0.0009798513760027017,-0.006857191517585976,0.013926251363964998,0.9848846352076429
2016-11-10,1,0.002200238154995928,0.0024945606391112507,-0.010085406136289492,0.010702229355922025,0.9856921537962847
2016-11-14,1,0.001827218634413747,0.0020760999606652805,-0.006857191517585976,0.012443543881085208,0.9858695488460988
2016-11-16,1,0.0003167646018578297,0.0004299073901327429,-0.010085406136289492,0.010767173429019831,0.9853543771288293
2016-11-18,1,0.0008226664051102038,0.0008258153266280065,-0.010085406136289492,0.010767173429019831,0.9850158422956691
2016-11-22,1,0.001774723625147293,0.0019050295740275414,-0.010085406136289492,0.009677140358693442,0.9859545849410316
2016-11-25,1,0.0016527209658571732,0.0017271393674593689,-0.010085406136289492,0.008680848500161535,0.9862212553928573
2016-11-29,1,0.0012336208064104132,0.0013360566554181856,-0.007197709643998154,0.008680848500161535,0.9872875131845654
2016-12-01,1,0.003742137882172562,0.004183691881503207,-0.007197709643998154,0.0007367403504985609,0.9896045385225075
2016-12-05,1,0.002809754598417119,0.003123087220552979,-0.0062773621284892105,0.00946001567279451,0.9904495685794471
2016-12-07,1,0.003253152674261214,0.0036442338630104784,-0.005835609261093831,0.0035567683167083723,0.9909597380079551
2016-12-09,1,0.0029111251853775988,0.0032744109139032623,-0.005835609261093831,0.0007367403504985609,0.9918519322313482
2016-12-13,1,0.002903883354952548,0.0032262141884871194,-0.005835609261093831,0.0035567683167083723,0.9912698404175667
2016-12-15,1,0.00280484493976137,0.003127080166208036,-0.0046502666466093035,0.0021252944753510834,0.9924533318304367
2016-12-19,1,0.0024201067638827236,0.00269523211936663,-0.004134496888452156,0.0021252944753510834,0.9929474810596546
2016-12-21,1,0.001344458792355347,0.0013674392360123906,-0.0034861679988522536,0.005375277058652985,0.9930979543605264
2016-12-23,1,0.0008858749111638578,0.000945235900128227,-0.0034861679988522536,0.012902591827397825,0.9907046258807997
2016-12-28,1,0.0003019852679317509,0.0004204792671410246,-0.002810720756407555,0.012902591827397825,0.9908737968964884
2016-12-30,0,-5.73379518567968e-05,0.00010697273025326762,-0.0038530921014461417,0.012902591827397825,0.9901549452023554
2017-01-04,1,0.001619973930495549,0.0017117125662901784,-0.006881233905515963,0.01272680029107972,0.9900745341652508
2017-01-06,1,0.0013735975172557771,0.0014481993627529807,-0.004983287052571138,0.01272680029107972,0.9901159341842707
2017-01-10,1,0.0006242284816063445,0.0006597525885407571,-0.00817159429512896,0.01272680029107972,0.9890284243227052
2017-01-12,1,0.002127018482492857,0.00234926757261026,-0.00817159429512896,0.007252425237585624,0.9900074224810111
2017-01-17,1,0.0017808985152715877,0.0019237128785250866,-0.00817159429512896,0.010041165413014955,0.9895718152421246
2017-01-19,1,0.0016069163812512653,0.0017235130745343486,-0.00817159429512896,0.010041165413014955,0.9894305406756609
2017-01-23,1,0.0020696787074204696,0.002255591463869976,-0.00817159429512896,0.010041165413014955,0.9892635253626696
2017-01-25,1,0.0035029074712037106,0.0038543714161991577,-0.009588523215537478,0.004521177705881461,0.9904237080477115
2017-01-27,1,0.0031086212654617778,0.0034174153481258862,-0.009643863300151989,0.004521177705881461,0.9901660691024476
2017-01-31,1,0.002178595670625362,0.0023527653598918842,-0.00748272520855887,0.007252425237585624,0.9902649093030021
2017-02-02,1,0.0013448866413472275,0.0013521591218574273,-0.00748272520855887,0.004521177705881461,0.9909025328302622
2017-02-06,1,0.0012084640519241063,0.0012694998388714717,-0.00748940781687479,0.002759890587284192,0.9907866607174466
2017-02-08,1,0.0004282684891020058,0.0005418070549799497,-0.00748940781687479,0.002759890587284192,0.9918791568023816
2017-02-10,1,0.0007325592897797499,0.0007807638526202837,-0.00748940781687479,0.003409928720575772,0.9919609092189505
2017-02-14,1,0.0009595533757030037,0.000988579324735019,-0.007977446318062858,0.0025901955597513668,0.9903265270081052
2017-02-16,1,0.00029888234935243396,0.00042875673264667057,-0.007977446318062858,0.0025901955597513668,0.9904140721391583
2017-02-21,1,0.0011362392800044934,0.0011504019459922469,-0.009995788883083072,0.00020421908331359198,0.9896246202745049
2017-02-23,1,0.0008386397017892016,0.0008517912578025234,-0.008612477166726275,0.0018868184120765892,0.9904936158838493
2017-02-27,1,0.00028038873987635854,0.0003550994073743452,-0.007705467931696529,0.0026417737004962266,0.9907087745900821
2017-03-01,1,0.0011493575432726575,0.0011825765049689359,-0.007705467931696529,0.0026417737004962266,0.9905588732228848
2017-03-03,1,0.0004427925897193719,0.0004997569139664011,-0.00632605073569078,0.0035160405823779334,0.9913505071870717
2017-03-07,-1,-0.0001897008490456515,-3.296606423086525e-05,-0.006551089049091119,0.004448600521763216,0.991300023343708
2017-03-09,-1,-0.000905615874965349,-0.0006594075928363619,-0.006551089049091119,0.005060926421809975,0.9905232100966186
2017-03-13,-1,-0.0010291160470856623,-0.0007476532581200502,-0.006551089049091119,0.005060926421809975,0.9907135758391998
2017-03-15,-1,-0.00015770099743986484,-2.2469711291564064e-05,-0.006551089049091119,0.0030227198612115358,0.9914989174601505
2017-03-17,-1,-0.0007662575247223668,-0.0005543953253191033,-0.008835059591353514,0.004459127607440903,0.9909983623906586
2017-03-21,-1,-0.0020447913411644958,-0.0016412008272259709,-0.006415733173605316,0.005060926421809975,0.9919099134140452
2017-03-23,-1,-0.0019241207125453835,-0.001537346435187517,-0.006415733173605316,0.005060926421809975,0.9920482178139008
2017-03-27,-1,-0.0018406850781199446,-0.0014468290412657245,-0.0048038143430107405,0.005735533267801707,0.9919838174214839
2017-03-29,-1,-0.001968352840654915,-0.0015240233006051538,-0.0048038143430107405,0.004988887284568095,0.992947960070997
2017-03-31,-1,-0.001676703310875611,-0.001285034053410661,-0.011483232045046685,0.004459127607440903,0.9912711139825756
2017-04-04,-1,-0.0018377082722661562,-0.0014298966008967186,-0.015643680069341574,0.004190689127913982,0.9909912989991433
2017-04-06,-1,-0.0012704685599925088,-0.0010178138654887872,-0.00815495218838655,0.004190689127913982,0.9906616117959252
2017-04-10,-1,-0.0017744386427291851,-0.0014507290797929825,-0.015643680069341574,0.004683996556104814,0.9882508423916169
2017-04-12,-1,-0.002391753075700751,-0.0020024272641773998,-0.008291051634372975,0.0058892644962828785,0.9886019778372667
2017-04-17,-1,-0.002752991881223793,-0.0023195066082032432,-0.007293091352410786,0.006603589361349461,0.9881271178900237
2017-04-19,-1,-0.0021597428398537942,-0.0018379362515513298,-0.012343578085135913,0.006495077033182458,0.9865525360850329
2017-04-21,-1,-0.0021395748044314373,-0.0018314062330608931,-0.012343578085135913,0.007181212336510803,0.9858071696204965
2017-04-25,-1,-0.0023209936242990893,-0.0019364632548814172,-0.012343578085135913,0.006495077033182458,0.9862880620798143
2017-04-27,-1,-0.0005216313006139715,-0.00047431371458844817,-0.01265464327716467,0.007181212336510803,0.9853425381283618
2017-05-01,-1,-0.0024118667798520006,-0.002105270000824171,-0.010234635992855902,0.007181212336510803,0.9873219549818679
2017-05-03,-1,-0.0027275118856293686,-0.0024019158959069347,-0.006922764082304846,0.007181212336510803,0.988035043200715
2017-05-05,-1,-0.0018941774560312231,-0.0016491783150401978,-0.010234635992855902,0.006495077033182458,0.98930031053752
2017-05-09,-1,-0.002440304417687803,-0.002155043829876248,-0.007214700243148124,0.005637733879319148,0.9914641015115653
2017-05-11,-1,-0.0025222966152455956,-0.002219400500959547,-0.007214700243148124,0.005637733879319148,0.9901974949409715
2017-05-15,-1,-0.002388389994947041,-0.0020887609496141905,-0.003162266692230686,0.005637733879319148,0.9908310269797036
2017-05-17,-1,-0.0034733211404661445,-0.0030401865772838647,-0.007189006457210294,0.0038658487447075264,0.9911838935427998
2017-05-19,-1,-0.0029087113768385504,-0.0025443480659456804,-0.007189006457210294,0.003819999377022543,0.9913393531349044
2017-05-23,-1,-0.003194454855218831,-0.002777118744463313,-0.007402918875959204,0.003569869614996091,0.9911685386699691
2017-05-25,-1,-0.0032010370677963114,-0.002775483997894461,-0.006402801556197149,0.003569869614996091,0.9917170753856859
2017-05-30,-1,-0.002596483926623117,-0.0022967321479815677,-0.006402801556197149,0.00639254746712797,0.9906506411854298
2017-06-01,-1,-0.002645916552469307,-0.0023286019721813975,-0.006402801556197149,0.009044151787683325,0.9896205030872111
2017-06-05,-1,-0.003591535855621634,-0.00314399082067474,-0.0005738739843020907,0.009798927499976871,0.9887031223569952
2017-06-07,-1,-0.002803808265978656,-0.002501002371578401,-0.004443263993292534,0.009798927499976871,0.9885020641655976
2017-06-09,-1,-0.0014258354445518188,-0.0012884390684706486,-0.004443263993292534,0.009574358901867286,0.9898872218178678
2017-06-13,-1,-0.0010609665909665548,-0.0009659863583495636,-0.004443263993292534,0.009574358901867286,0.9897624683809151
2017-06-15,-1,-0.0018798636413009514,-0.0017172569387326805,-0.0009685008635108227,0.009574358901867286,0.9906114270810467
2017-06-19,-1,-0.00031924042195707343,-0.00019080674599743127,-0.0030295364551778613,0.009384696496820336,0.9917637473411881
2017-06-21,-1,-0.0009859033229780221,-0.0009646656588193188,-0.0018452480131489878,0.010820561627387903,0.9912815162166237
2017-06-23,-1,-0.0009677859826863655,-0.0009608454407627885,-0.0019332603163867313,0.010820561627387903,0.9914449825783528
2017-06-27,0,-6.533949046591076e-05,6.094501713966644e-05,-0.002621466954723652,0.008666164001521764,0.9921790562232838
2017-06-29,1,0.0007889564059917238,0.0010556543973664965,-0.0030295364551778613,0.008666164001521764,0.9910308503996478
2017-07-03,1,0.0008628633738680938,0.0010811735811432736,-0.003956632255985577,0.005427569490183443,0.9912829215075687
2017-07-06,1,0.0001884501612028234,0.0003270504463513386,-0.0032673880450887456,0.005427569490183443,0.9918994153403705
2017-07-10,1,0.000958590822967297,0.0012296560745098828,-0.0032673880450887456,0.004421356402429869,0.9924514073623563
2017-07-12,1,0.0014446092535243334,0.001771060075659845,-0.0044496330807317205,0.004421356402429869,0.9927305349957971
2017-07-14,1,0.0018940245167281876,0.0023241835050728955,-0.0052441816008565855,0.004318633154107298,0.9917690580891064
2017-07-18,1,0.001450552005359011,0.001790731064745679,-0.0052441816008565855,0.0046049645198491035,0.9918223039554448
2017-07-20,1,0.0017902374082877878,0.0021441216743834065,-0.007505060907245942,0.004318633154107298,0.991812683810133
2017-07-24,1,0.0025484435731678912,0.0030665972133328777,-0.007505060907245942,0.005978393842441145,0.9911870721125426
2017-07-26,1,0.0023318389470135385,0.002789504006235504,-0.005813476373732534,0.0068860692849514495,0.9914990622386692
2017-07-28,1,0.0032087937080222478,0.003765171836708081,-0.004452166346723525,0.0068860692849514495,0.993497746943578
2017-08-01,1,0.002614327125952669,0.0030555521415278654,-0.004452166346723525,0.0068860692849514495,0.993487144126174
2017-08-03,1,0.002572762955439221,0.0030236329445363476,-0.003566967628052434,0.007740570012669018,0.9939346197064601
2017-08-07,1,0.002974995088805877,0.003502434383859862,-0.004452166346723525,0.007740570012669018,0.9931249547224898
2017-08-09,1,0.00285117266992985,0.0033417363636015314,-0.003984930046996453,0.008205257242928428,0.9923268851270957
2017-08-11,1,0.0017177825878750377,0.0020160109470491183,-0.0018055826713161715,0.008459626567750496,0.9925057049344559
2017-08-15,1,0.002034543793294352,0.002379196265992651,-0.0034112221948100763,0.008459626567750496,0.9923517544050786
2017-08-17,1,0.0014836206239585408,0.001764386920044608,-0.00032708990674038533,0.008459626567750496,0.9930643043341458
2017-08-21,1,0.002585846236520686,0.0030566656359710077,-0.00032708990674038533,0.008205257242928428,0.9937540912807867
2017-08-23,1,0.0031583986255893275,0.0037159790685799034,-0.0029684925656492784,0.008205257242928428,0.9934275335850581
2017-08-25,1,0.003339642949092651,0.003909806474482538,-0.0029684925656492784,0.009930343975768995,0.9930030004779975
2017-08-29,1,0.0028012770341183236,0.003267405372963594,-0.001658006128262572,0.010399665000717009,0.992753141177827
2017-08-31,1,0.003021892346841603,0.003500930524624102,-0.0029684925656492784,0.010399665000717009,0.9923352272356035
2017-09-05,1,0.0021189396739098067,0.0024288312054861526,-0.001658006128262572,0.010948086753974616,0.9920432177386722
2017-09-07,1,0.0026800587650967745,0.0030376961949675446,-0.0031139575170290304,0.010399665000717009,0.992667844417622
2017-09-11,1,0.0033064662962007316,0.003749268265868897,-0.00457165322515847,0.009930343975768995,0.9933174858564932
2017-09-13,1,0.003300108821870126,0.0037350191080155774,-0.006201765066127709,0.008440639031106865,0.9927687210077953
2017-09-15,1,0.0039017307774519483,0.004448483397113621,-0.006201765066127709,0.007114303831910414,0.9927250965228323
2017-09-19,1,0.0043372623337604495,0.004948756066678273,-0.006201765066127709,0.00543206834558267,0.9926146777878416
2017-09-21,1,0.003154197660684268,0.0035130605485410487,-0.006201765066127709,0.007260822685263751,0.9932146142614592
2017-09-25,1,0.003401696356084045,0.003750290255312077,-0.006201765066127709,0.0033870430466158125,0.9930815528894854
