JNU-Tangyin/eata/results/Batch4_SP500/Batch4_SP500-CMG.csv
Date,Action,Predicted_Q25,Predicted_Q75,Actual_Q25,Actual_Q75,RL_Reward
2010-12-14,1,0.0,0.003138537695344792,-0.013189863821850393,-0.000814258865905154,0.9852187110321478
2010-12-16,1,0.0025487625694340967,0.0025740770014953678,-0.013189863821850393,0.00693748922420805,0.9822856066084986
2010-12-20,1,0.0019333809041515598,0.0019809522716803594,-0.014218826089950141,-0.000814258865905154,0.9822458371681713
2010-12-22,0,0.0,0.0,-0.014582310572055644,0.0031428732155903156,0.9826078463329275
2010-12-27,1,0.0008255146172206182,0.0010188621372999845,-0.014142087721072994,0.00521166246067525,0.9833139588052163
2010-12-29,1,0.00011887752858830082,0.0004011660483607554,-0.014251929978815482,0.010920489247459413,0.981704871055643
2010-12-31,-1,-0.00303140284237126,-0.002102058053174969,-0.014142087721072994,0.010920489247459413,0.9832578962253885
2011-01-04,-1,-0.0021181189187137084,-0.001218168447356421,-0.014142087721072994,0.015924661995487796,0.983428339362412
2011-01-06,-1,-0.002089167949800132,-0.0011539412572411675,-0.014142087721072994,0.024555896779946816,0.9811871465498214
2011-01-10,-1,-0.002447233071819024,-0.0015225705159739923,-0.014142087721072994,0.024555896779946816,0.981251398023403
2011-01-12,-1,-0.004267072429797005,-0.003119346076069341,-0.010536440566381122,0.024555896779946816,0.9797633087643048
2011-01-14,-1,-0.001901977102204415,-0.0009463218698898533,-0.010536440566381122,0.023334026902856617,0.9812225919002528
2011-01-19,0,0.0,0.0,-0.007977424924527037,0.023334026902856617,0.9806423915474374
2011-01-21,-1,-0.001947685706242388,-0.0013730145769758546,-0.007977424924527037,0.023334026902856617,0.9807320844808828
2011-01-25,-1,-0.0037891161971925955,-0.0027743348030916572,-0.019433333208723973,0.023334026902856617,0.9787130908759565
2011-01-27,0,0.0,0.0,-0.009508205687205881,0.017545347952642027,0.9806727070086859
2011-01-31,-1,-0.004091050755040165,-0.0031116134920827015,-0.014075140917925433,0.017545347952642027,0.9802018082750215
2011-02-02,-1,-0.002326005849505155,-0.0015394916178957745,-0.014075140917925433,0.016386332815761576,0.9816354705021163
2011-02-04,1,0.0012406623209870221,0.001591321370626556,-0.014075140917925433,0.015856680321486558,0.9835831315730452
2011-02-08,1,0.000609484415849742,0.0010712338420837254,-0.014075140917925433,0.015856680321486558,0.9829933598716902
2011-02-10,1,0.002375101331579038,0.002605782151135237,-0.014075140917925433,0.008518166917315618,0.984176949886427
2011-02-14,0,0.0,0.0,-0.014075140917925433,0.00786235525362155,0.9861082489914904
2011-02-16,0,0.0,0.0,-0.014075140917925433,0.00786235525362155,0.9864319475955869
2011-02-18,0,0.0,0.0,-0.014075140917925433,0.00786235525362155,0.9866278515413401
2011-02-23,0,0.0,0.0,-0.01196430512463614,0.010081885980067505,0.9883374503519942
2011-02-25,0,0.0,0.0,-0.01196430512463614,0.011247721210278942,0.9872580088938995
2011-03-01,0,0.0,0.0,-0.0037546307582836513,0.01355113428920912,0.9869100905217664
2011-03-03,1,0.015215929113424714,0.01556848421115271,-0.0037546307582836513,0.01355113428920912,0.985057526266134
2011-03-07,-1,-0.0009716781135433307,-0.0005891189775601648,-0.0007004975082758204,0.011247721210278942,0.9884804798702901
2011-03-09,1,0.0003910038248718104,0.0009401814247674872,-0.0007004975082758204,0.013253442112825219,0.9889490147126592
2011-03-11,0,0.0,0.0,-0.004915144263393014,0.013253442112825219,0.9877336167977098
2011-03-15,0,0.0,0.0,-0.004915144263393014,0.015302567122946666,0.9875189462210374
2011-03-17,0,0.0,0.0,-0.0032730045811352653,0.01763272809179733,0.9872758760156771
2011-03-21,0,0.0,0.0,-0.0032730045811352653,0.01763272809179733,0.9876682596271092
2011-03-23,0,0.0,0.0,-0.0032730045811352653,0.022169711221067923,0.9869544027809743
2011-03-25,0,0.0,0.0,-0.006661702185657678,0.016739651562645626,0.9862190242330169
2011-03-29,0,0.0,0.0,-0.009202098779459565,0.009636485761400693,0.986257168158745
2011-03-31,0,0.0,0.0,-0.009202098779459565,0.008394786652552303,0.9867001491218156
2011-04-04,0,0.0,0.0,-0.013508617768692811,0.008394786652552303,0.9857397909684921
2011-04-06,0,0.0,0.0,-0.013508617768692811,0.008394786652552303,0.9858641874090831
2011-04-08,0,0.0,0.0,-0.008597287155072748,0.009084802352031402,0.9862847037946605
2011-04-12,1,0.0041850225547462785,0.004454323470814897,-0.008597287155072748,0.010756668183064875,0.9863598272207614
2011-04-14,0,0.0,0.0,-0.008597287155072748,0.010756668183064875,0.9865144881904755
2011-04-18,1,0.007285644791898398,0.008043014216431908,-0.013508617768692811,0.010756668183064875,0.9854325137015427
2011-04-20,1,0.009041306170550982,0.0101397196094336,-0.009684021611045078,0.010756668183064875,0.9866024222198695
2011-04-25,1,0.006858102064135636,0.007689357047993924,-0.00485737149350686,0.012445940618578493,0.989742985439364
2011-04-27,0,0.0,0.0,-0.0007482267999870968,0.012690929455798918,0.9888867995469118
2011-04-29,1,0.004154349962397844,0.004379232545536047,-0.0007482267999870968,0.013545744681274412,0.9895868190476084
2011-05-03,1,0.002569591196160063,0.0026025238049877217,-0.00485737149350686,0.013545744681274412,0.9889316448620421
2011-05-05,1,0.003341504315573325,0.003407619109825603,-0.00485737149350686,0.012690929455798918,0.9899748553224227
2011-05-09,1,0.001947675153554079,0.002169564255201735,-0.005716769312716788,0.012690929455798918,0.9893968706698485
2011-05-11,1,0.0034462991181057247,0.003452451973649344,-0.01034151900252396,0.009449278916367841,0.9896405714269106
2011-05-13,1,0.003992148639805009,0.004055466505913489,-0.012409535761890996,0.00743701842173722,0.9886759169723268
2011-05-17,1,0.0022811547144757616,0.0024784064255404937,-0.01034151900252396,0.009449278916367841,0.9898858314748372
2011-05-19,1,0.0019791853252615495,0.002287268869721046,-0.012409535761890996,0.003827458855931874,0.9892276547476168
2011-05-23,0,0.0,0.0,-0.012409535761890996,0.008465735648194979,0.98714932589992
2011-05-25,1,0.0002790483530224826,0.000551315548071189,-0.012409535761890996,0.010728585970319584,0.9871999467598574
2011-05-27,1,0.0029207875268587595,0.003107466062782993,-0.012409535761890996,0.01178792267339422,0.9866274305933151
2011-06-01,1,0.0017139918083779646,0.0020235254406279317,-0.005288030111332947,0.013527676993246909,0.9878344185940526
2011-06-03,1,0.0009274834578949453,0.0013751094065276453,-0.005288030111332947,0.02180576147092222,0.9862364258328987
2011-06-07,0,0.0,0.0,-0.002969119361156263,0.02180576147092222,0.9854588650633518
2011-06-09,0,0.0,0.0,-0.002969119361156263,0.02180576147092222,0.9853132949523679
2011-06-13,0,0.0,0.0,-0.0028411340275152535,0.02180576147092222,0.9856985438744945
2011-06-15,-1,-0.1731775230360897,-0.17298913801703186,-0.0028411340275152535,0.01916616097788812,0.8466660465046165
2011-06-17,-1,-0.0028736569762936393,-0.002198941658444138,-0.0010627891319012533,0.01916616097788812,0.9858634694242471
2011-06-21,-1,-0.001129023457584458,-0.0007041898711427224,-0.0019608826723878352,0.0171918347347762,0.9883269704358377
2011-06-23,-1,-0.0010200210705248495,-0.0005731356694367547,-0.002032486305786086,0.0171918347347762,0.9882511276229706
2011-06-27,0,0.0,0.0,-0.0037329955086779177,0.013465741338753468,0.9894593629254698
2011-06-29,1,0.003404783561260642,0.0034372787014067974,-0.00637790083088116,0.013465741338753468,0.9885535113478426
2011-07-01,1,0.004654819727303206,0.004773700714922982,-0.00637790083088116,0.010874031440066143,0.9895136749263835
2011-07-06,1,0.00637158584651769,0.006801355962289726,-0.009289579302069823,0.010563944430479005,0.9882824369074727
2011-07-08,1,0.007331879552067435,0.008207494830959526,-0.00962617994728154,0.009473611456615114,0.986257755809051
2011-07-12,1,0.005887866147152582,0.006431742957910042,-0.00962617994728154,0.011676429612520302,0.9833018464386958
2011-07-14,1,0.005651284332083142,0.00612226964182455,-0.009705120029510605,0.011676429612520302,0.9811492365096891
2011-07-18,1,0.004604585273329043,0.0048102187598803615,-0.009705120029510605,0.010706467233285574,0.981791166033894
2011-07-20,1,0.004797325693706746,0.005052175916383948,-0.01399628730977066,0.006961747341693798,0.9810857539682974
2011-07-22,1,0.004401829784940522,0.004573476737345451,-0.020580270439569125,0.004925359587705855,0.977379135964299
2011-07-26,0,0.0,0.0,-0.021320437668259,0.006961747341693798,0.9742567598998129
2011-07-28,0,0.0,0.0,-0.021320437668259,0.007125281228398259,0.974243809299207
2011-08-01,0,0.0,0.0,-0.021320437668259,0.016859468910325456,0.972150892320413
2011-08-03,0,0.0,0.0,-0.02083523977129567,0.019971934852267295,0.9726224712477691
2011-08-05,0,0.0,0.0,-0.018628373158699085,0.019971934852267295,0.973506132170317
2011-08-09,0,0.0,0.0,-0.014559884425325135,0.01698432955835092,0.9772693484241711
2011-08-11,0,0.0,0.0,-0.018478115740620405,0.010472847181329122,0.9789896989718858
2011-08-15,1,0.0010244329599106237,0.0012619980651233259,-0.018478115740620405,0.012953950395723467,0.978648409877921
2011-08-17,0,-0.00020122761082035437,0.00010868977141293074,-0.014559884425325135,0.014872166018614179,0.9794876428116395
2011-08-19,-1,-0.0026060098034968266,-0.0021021123298744556,-0.00717145650273055,0.01698432955835092,0.9803719987033365
2011-08-23,1,0.0003360154456434233,0.0004578460289718299,-0.0063978580649258895,0.014872166018614179,0.9856674007332957
2011-08-25,-1,-0.0003732561670305686,-0.00017055599600386095,-0.009549739564937687,0.014872166018614179,0.985112970075555
2011-08-29,1,0.001782097641483998,0.0018440149371408247,-0.0122535583331069,0.012532187212859727,0.9852180646006323
2011-08-31,1,0.002133865354006975,0.002163737326904019,-0.014224520458921554,0.009411678790835144,0.9849333357552201
2011-09-02,1,0.0010182433033977044,0.0010862287077594785,-0.01887021485919361,0.009411678790835144,0.9831742712326881
2011-09-07,1,0.0021232679020004325,0.002245242302106907,-0.01887021485919361,0.009411678790835144,0.9825994425473711
2011-09-09,1,0.0016683227010427643,0.00172302242246446,-0.017156259416163104,0.00931389034043983,0.9828677334182204
2011-09-13,1,0.0022176381378521647,0.0024190814965107076,-0.017156259416163104,0.008728743461610214,0.9812370477529553
2011-09-15,1,0.0014879486599794652,0.0015082499356424315,-0.017156259416163104,0.011172691061652166,0.9810578043232898
2011-09-19,1,0.00403463195076849,0.004266197559838864,-0.017156259416163104,0.010655714423159155,0.9825925591800531
2011-09-21,1,0.0038571243863817963,0.004087245452493187,-0.019399706961689654,0.010655714423159155,0.9816226051460347
2011-09-23,1,0.0010622299086206536,0.0012749136902019966,-0.015675756092041013,0.011515653835011547,0.9800375210085857
2011-09-27,1,0.0018975328149248467,0.0019026801660709605,-0.015675756092041013,0.011515653835011547,0.9799617883992567
2011-09-29,1,0.00021485688958204716,0.00042970599261670916,-0.009383721422930836,0.01654676700081061,0.9797935427551867
2011-10-03,-1,-0.001872624937025761,-0.0014761990373715803,-0.006530098819676259,0.01654676700081061,0.9819845144378236
2011-10-05,1,0.0003682728650863878,0.0005009260184687066,-0.009383721422930836,0.011515653835011547,0.9819731101639426
2011-10-07,-1,-0.001265285507943286,-0.0009020365860380576,-0.006530098819676259,0.01577652069584123,0.9815339011890076
2011-10-11,1,0.00033736328224101255,0.00046306575591172414,-0.006530098819676259,0.011515653835011547,0.9840610969164534
2011-10-13,1,0.0013357898221947888,0.0013438005071401285,-0.016770388544736843,0.006040551909763529,0.9828881045129321
2011-10-17,1,0.001553099977378949,0.0015996201978442344,-0.016770388544736843,0.008001193184204782,0.9819094594655828
2011-10-19,1,0.0018201206694397432,0.0019350166935286036,-0.016770388544736843,0.008001193184204782,0.9817944703866305
2011-10-21,1,0.002209615588175409,0.0022701814591601665,-0.016770388544736843,0.004363630249551576,0.9849877123748247
2011-10-25,1,0.0019660363675643674,0.0019927132445518025,-0.01600359839362594,0.004363630249551576,0.9862528663725875
2011-10-27,1,0.002420594578415519,0.002522881816287796,-0.018384005573662335,0.0026589263114497517,0.9864093669044275
2011-10-31,1,0.0015297792825737962,0.0015770384186194338,-0.018384005573662335,0.0055816235242937525,0.9861815250950748
2011-11-02,-1,-0.0007340711072709384,-0.0003810492556516891,-0.015676193499689205,0.009634307672817567,0.9860495965937962
2011-11-04,1,0.0006898351861022528,0.000852438490578391,-0.015676193499689205,0.01261316437653234,0.9856080250071882
2011-11-08,0,-0.00011371598841551916,0.00019887477017652068,-0.015676193499689205,0.01636566763351379,0.9842193816152841
2011-11-10,-1,-0.0007293520292666233,-0.00042996745747759786,-0.01080168366978955,0.01636566763351379,0.9852598388715579
2011-11-14,-1,-0.0005149708361408328,-0.00027240348043326267,-0.01080168366978955,0.012661458474670786,0.9851519129216098
2011-11-16,-1,-0.0012279860085259845,-0.0009589338507920212,-0.01080168366978955,0.012661458474670786,0.9851736318601617
2011-11-18,-1,-0.0018363817037875471,-0.00150158677681485,-0.009603645960805967,0.012661458474670786,0.985770049971713
2011-11-22,-1,-0.0011366111794412484,-0.0009552832460392462,-0.006493076653377063,0.01636566763351379,0.9845365264499035
2011-11-25,-1,-0.0017611990919651605,-0.0015431655141700368,-0.006493076653377063,0.01636566763351379,0.9846688158511159
2011-11-29,-1,-0.0003476200883499392,-0.00029378519926766353,-0.006493076653377063,0.013228030273591245,0.9862373327125358
2011-12-01,1,0.0004664316270006752,0.00048151147134548294,-0.008152234445164122,0.011720242764758786,0.9873644519338751
2011-12-05,1,0.0017681884240440288,0.0019812072624337766,-0.008152234445164122,0.011113773389258189,0.9879907846523042
2011-12-07,1,0.0018550188674678872,0.002093208132124048,-0.006493076653377063,0.010582509990918618,0.9890269485026221
2011-12-09,1,0.002393519580351143,0.002740491357620064,-0.008152234445164122,0.007903554120577447,0.9884496659396634
2011-12-13,1,0.0017923897066156689,0.002074527850375936,-0.0052905187494689965,0.010582509990918618,0.9892633614849994
2011-12-15,1,0.000627356871217565,0.0007322605271250266,-0.0023581622429987886,0.01130263065556501,0.9896074669415309
2011-12-19,-1,-0.0007043399706257667,-0.0005768024686831937,-0.0008310389568447233,0.01130263065556501,0.9886177974116973
2011-12-21,1,0.0017908661426584691,0.0019910592594619358,-0.0037138644177230145,0.011085929006392548,0.9912423132003677
2011-12-23,1,0.0019443912935818062,0.002155136043381446,-0.0008310389568447233,0.010582509990918618,0.9919705592879013
2011-12-28,1,0.0010728757109096311,0.0011184569161979963,-0.0008310389568447233,0.009913883484567381,0.9918409665211363
2011-12-30,1,0.000513050093163381,0.0005628706084303066,-0.00022883473835178385,0.009913883484567381,0.9920286296896786
2012-01-04,1,0.002157506496413929,0.0024224834812235515,-0.0016900605480872513,0.007638025768599433,0.9925956696139595
2012-01-06,1,0.0022174633640415593,0.0025079176050388286,-0.0011920425702299797,0.008804619917666894,0.9917365016195834
2012-01-10,1,0.0006554177735441031,0.0006995430116395856,-0.00027196408239857795,0.008804619917666894,0.9924645773423857
2012-01-12,-1,-0.001492942919024269,-0.0010313671651020306,-0.0003516037043951796,0.007638025768599433,0.9923907593460811
2012-01-17,1,0.00040074604388155995,0.0005018385103592551,-2.654654066553388e-05,0.007121001793229065,0.993933325149663
2012-01-19,1,0.0001583369604658347,0.0003334167882383891,-0.0003516037043951796,0.007121001793229065,0.9932781932160291
2012-01-23,1,0.0008795329562277265,0.0009222962418284146,-0.0003516037043951796,0.006982933218614663,0.9936707013050556
2012-01-25,1,0.0014661710753542567,0.001543717548903795,-0.0003516037043951796,0.006693604072375803,0.9938689406864522
2012-01-27,1,0.0013091780053525151,0.0013215261536976997,-0.0003516037043951796,0.006474295806848879,0.9940067602747775
2012-01-31,1,0.001250769500615359,0.001260464565366781,-0.0004557899450308474,0.006693604072375803,0.9935577131295713
2012-02-02,1,0.0004097185917472864,0.0005496993337288531,-2.654654066553388e-05,0.006693604072375803,0.9943359680800274
2012-02-06,1,0.0009580127338658299,0.0010189860015060253,-0.0008074961330609459,0.006474295806848879,0.9948438130304295
2012-02-08,1,0.0012010267221618347,0.001213988982824126,-0.0008074961330609459,0.00719552416420733,0.9939207914650143
2012-02-10,1,0.002773530076591258,0.003174921566861504,-0.0018581804916628542,0.00719552416420733,0.9944360895617512
2012-02-14,1,0.0028551426644217856,0.003260592221777045,-0.0018581804916628542,0.00719552416420733,0.994181236796601
2012-02-16,1,0.002061649040599794,0.0022862388878614444,-0.0004897842783949483,0.008272780509366615,0.9942097491181724
2012-02-21,1,0.0026049136467231203,0.0029617726778644595,-0.0004897842783949483,0.008272780509366615,0.994338721640237
2012-02-23,1,0.002259541201704485,0.0025105385501564014,-0.0004897842783949483,0.008272780509366615,0.9940311118870064
2012-02-27,1,0.001215732693408545,0.0012321453260554505,-0.0017645155372301368,0.009542164652927914,0.9925039438828819
2012-02-29,1,0.0013305773612757353,0.0013403721178070628,-0.002662001535908972,0.009542164652927914,0.9924516898895405
2012-03-02,1,0.0012034947101789194,0.0012312794861426804,-0.003172068225605731,0.008237740281982184,0.9925455701418469
2012-03-06,1,0.001506628672228357,0.0015761171501123663,-0.0017645155372301368,0.009271372701106933,0.993172636792733
2012-03-08,1,0.002453630336829567,0.0026671158292714096,-0.002662001535908972,0.008192027058527217,0.9928211763092623
2012-03-12,1,0.002367113391557708,0.0025717370185568697,-0.00383550276270515,0.008192027058527217,0.9918781842908175
2012-03-14,1,0.0018236441251707068,0.0018983532537381808,-0.00383550276270515,0.010680795382074159,0.990372949439418
2012-03-16,1,0.0034341317760815697,0.0037996860676695445,-0.006238162013678607,0.010543655711709253,0.989886104205897
2012-03-20,1,0.003599638407213997,0.00403401990724426,-0.006238162013678607,0.01347570398090459,0.9897764555089329
2012-03-22,1,0.004319818453130071,0.004869884951546,-0.008971165231432997,0.01347570398090459,0.9873351030646006
2012-03-26,1,0.004338520889454245,0.004858753831072777,-0.013454272788240917,0.010203008900717077,0.986322885604221
2012-03-28,1,0.003662080442226875,0.004093764542013557,-0.013454272788240917,0.01347570398090459,0.9864462414757209
2012-03-30,1,0.0037891460651783538,0.004242560499582773,-0.013588819785483267,0.01347570398090459,0.9859117511987303
2012-04-03,1,0.004185348121192119,0.0046993190413636456,-0.013588819785483267,0.014019233335535484,0.9857043427201982
2012-04-05,1,0.003586748781199387,0.003958525911041019,-0.017248467768328883,0.013316233621456043,0.9850819306981107
2012-04-10,1,0.002730679003215916,0.00302647636362402,-0.016588068170334452,0.013316233621456043,0.9855512738125175
2012-04-12,1,0.0032923275365093715,0.0035975131304886478,-0.016588068170334452,0.011728838684319284,0.986188366214465
2012-04-16,1,0.002673281316998173,0.0028583308548324688,-0.016588068170334452,0.008012766544546784,0.9868043777563518
2012-04-18,1,0.002844011999199737,0.0030378373551208852,-0.016588068170334452,0.00714187135265089,0.9870935083734278
2012-04-20,1,0.00046730778098435225,0.0006278241546369045,-0.013541199879339187,0.00714187135265089,0.9880406203622679
2012-04-24,-1,-0.0006569552947785547,-0.00037784703132470135,-0.00982357485431501,0.00714187135265089,0.9895976634338911
2012-04-26,1,0.00011577232304573219,0.0003175888901632913,-0.011153640825202133,0.00714187135265089,0.9892391512221954
2012-04-30,1,0.0002646394660109994,0.0003850949244817278,-0.009360971656808345,0.00714187135265089,0.9881029649415841
2012-05-02,0,-1.2135066131259517e-05,0.00014006373286109408,-0.011088446001331423,0.004208747415051601,0.9884721858404686
2012-05-04,1,2.7382248617924265e-05,0.000169436512780965,-0.009360971656808345,0.004208747415051601,0.9883128699154958
2012-05-08,-1,-0.0009661713043678279,-0.0006292968625640242,-0.007178453546063601,0.008822894774378486,0.9870851368914733
2012-05-10,-1,-0.0015539446198562738,-0.0010611546759354074,-0.011088446001331423,0.00786178964716575,0.9867141749467663
2012-05-14,-1,-0.002807132954067986,-0.0021529433832112293,-0.011088446001331423,0.00786178964716575,0.9863478465886995
2012-05-16,-1,-0.0013891426979682044,-0.0009788691541184381,-0.011297537195692067,0.006671920315460901,0.986326216933251
2012-05-18,-1,-0.0029790662112091438,-0.0023806635523920495,-0.01076073469248235,0.010900133466758522,0.9852649643803765
2012-05-22,-1,-0.002487621751123168,-0.001961384587229898,-0.01076073469248235,0.010900133466758522,0.9854323171499485
2012-05-24,-1,-0.002272742648953248,-0.0017554216232864577,-0.011297537195692067,0.010900133466758522,0.9857770134602449
2012-05-29,-1,-0.0002644316137091208,-2.0077063501292946e-05,-0.011297537195692067,0.0091194807798303,0.9875989206542286
2012-05-31,-1,-0.0007818574404199766,-0.00047883086058926117,-0.017495862503299237,0.0091194807798303,0.9836033850318434
2012-06-04,-1,-0.002879013312799417,-0.0022796949404160845,-0.01257429315547226,0.0095650445464257,0.9841341496520555
2012-06-06,-1,-0.001334066778854922,-0.0009562692575710368,-0.01257429315547226,0.008249181918698686,0.9855719657089678
2012-06-08,-1,-0.001511581663973315,-0.0011416838112736157,-0.009295127093929833,0.008438891602772065,0.9861471274330788
2012-06-12,-1,-0.0020539041417774614,-0.0016357516207351195,-0.009295127093929833,0.008438891602772065,0.9863856789704729
2012-06-14,-1,-0.0021744488654558292,-0.001749141574491418,-0.008227871652825623,0.008792438958179518,0.9854718447001254
2012-06-18,0,-3.48564518925093e-05,0.00013394179173697822,-0.008227871652825623,0.008438891602772065,0.9873010620094667
2012-06-20,1,0.00018555046192596112,0.00031322780151503627,-0.008227871652825623,0.008792438958179518,0.986884639300969
2012-06-22,-1,-0.0008496299680113096,-0.0006254458658979941,-0.010955306608527171,0.008438891602772065,0.9817026751892844
2012-06-26,-1,-0.0012670929208764186,-0.000955206839391883,-0.021859874045498936,0.008124645596911851,0.9803151815077973
2012-06-28,-1,-0.005330285605116601,-0.004594772775116321,-0.010446284098394012,0.008587412858303865,0.9814363764748518
2012-07-02,-1,-0.00468166065970942,-0.004024306007069623,-0.016941431026356223,0.008124645596911851,0.9819053036523648
2012-07-05,-1,-0.004676342904844234,-0.004024349484321042,-0.018790093426286927,0.00903914016516493,0.9801555109935713
2012-07-09,-1,-0.003658846825206288,-0.0031170410725828504,-0.02029744615351364,0.011180934665753713,0.9779156104186395
2012-07-11,-1,-0.0040967462513704115,-0.003512604904511294,-0.021251880432939796,0.012334411395164911,0.9757127505098869
2012-07-13,-1,-0.0029583252325537943,-0.002512372879934833,-0.021251880432939796,0.011180934665753713,0.9774370262016036
2012-07-17,-1,-0.0022233760575506045,-0.0018756174135623766,-0.021251880432939796,0.011750567277812485,0.9772760147046063
2012-07-19,-1,-0.001732620672832383,-0.0014496317072960042,-0.021251880432939796,0.008291145708491068,0.9773319847263716
2012-07-23,-1,-0.005355269852952153,-0.004658631895659028,-0.017443881935431792,0.008291145708491068,0.9832818771080081
2012-07-25,-1,-0.005982622610738214,-0.005233534688189314,-0.01083188558940794,0.007316896552707598,0.9850661554709786
2012-07-27,-1,-0.006737901172975981,-0.005870076192233099,-0.01083188558940794,0.007132820064956737,0.985752766702664
2012-07-31,-1,-0.006389634714149003,-0.005619344166299469,-0.007429262452862858,0.007132820064956737,0.9862841230730356
2012-08-02,-1,-0.007909979776551678,-0.006965125974073758,-0.007429262452862858,0.004424321608036088,0.9878437811248036
2012-08-06,-1,-0.006630565098504918,-0.005851701342898247,-0.007429262452862858,0.0038359593655361464,0.991447856225069
2012-08-08,-1,-0.0046697576211379545,-0.004182772231517288,-0.00682924797283428,0.004424321608036088,0.9915856760206005
2012-08-10,-1,-0.004630448223028176,-0.004102416436293825,-0.00682924797283428,0.009343167387073352,0.9864813997509003
2012-08-14,-1,-0.0038431481607087096,-0.003433549648437338,-0.00529173811851097,0.009343167387073352,0.9866329503857109
2012-08-16,-1,-0.0028802971167572545,-0.0026271696485486917,-0.00682924797283428,0.009343167387073352,0.9866307800259666
2012-08-20,-1,-0.0030406008275499553,-0.0027560861951144095,-0.007507101075299583,0.011776449181376216,0.9845278687969069
2012-08-22,-1,-0.0032913827822763854,-0.002972185209256538,-0.009622462128227725,0.011776449181376216,0.9839755957124208
2012-08-24,-1,-0.0031387921376942506,-0.002857921728786533,-0.009397697390756302,0.010811010567233839,0.9847514502736929
2012-08-28,-1,-0.0016978879136322921,-0.0016409715492122464,-0.011385494426436039,0.010811010567233839,0.9832528633585711
2012-08-30,-1,-0.0024350121567610016,-0.0022642443716223044,-0.01071120021402177,0.010811010567233839,0.9831698178421355
2012-09-04,-1,-0.0027494560243595647,-0.0026031008636730564,-0.012717555447258696,0.010811010567233839,0.9816071561776913
2012-09-06,1,0.00024289506892449667,0.0005065918700284692,-0.013174583281998154,0.005908079397924976,0.9827613833087989
2012-09-10,1,0.003975660778471033,0.004766190546781155,-0.01461072778124678,0.004780424821858281,0.9830695618064226
2012-09-12,1,0.003714217730205572,0.004377413857833034,-0.01461072778124678,0.0016473355479520056,0.9835591470479239
2012-09-14,1,0.003086188218987841,0.0035976431910946446,-0.01461072778124678,0.0016473355479520056,0.9841378633775583
2012-09-18,1,0.004243508000323845,0.00496238886242187,-0.013128125402530881,0.0016473355479520056,0.9844872977655554
2012-09-20,1,0.004026330249273469,0.00472375412101946,-0.014127454297864238,-0.00015683164694577453,0.9840139326053123
2012-09-24,0,0.0,0.0,-0.022271342468384754,-0.00015683164694577453,0.9811947281409538
2012-09-26,0,0.0,0.0,-0.016063516429041556,0.0016473355479520056,0.9816727190534341
2012-09-28,0,0.0,0.0,-0.016063516429041556,0.014202675957728703,0.9806054633333862
2012-10-02,0,0.0,0.0,-0.011742060097619078,0.014783824011899788,0.9805994087509744
2012-10-04,-1,-0.0005285824053685264,-0.0004700306613876745,-0.0076262709565051495,0.014783824011899788,0.9813522280205402
2012-10-08,-1,-0.0013264962288629663,-0.0012179073136090427,-0.0076262709565051495,0.014783824011899788,0.9805671160483976
2012-10-10,-1,-0.002001484583664238,-0.0017646635109180146,-0.011742060097619078,0.014783824011899788,0.9785285221678565
2012-10-12,-1,-0.0011870019417626328,-0.001062851363253962,-0.011742060097619078,0.015694785421817407,0.9782175867748181
2012-10-16,0,0.0,0.0,-0.015857201571093743,0.01488418543438709,0.9776213139940777
2012-10-18,0,0.0,0.0,-0.010611383809198507,0.017018876865469733,0.9767881237732468
2012-10-22,0,0.0,0.0,-0.005734341482549947,0.02254901501649084,0.981095725421422
2012-10-24,0,0.0,0.0,-0.006755261533417715,0.017018876865469733,0.9818526254310698
2012-10-26,0,0.0,0.0,-0.008624437892838786,0.01637745343012473,0.981042153508857
2012-11-01,0,0.0,0.0,-0.011833849396016826,0.01488418543438709,0.9826723062112085
2012-11-05,0,0.0,0.0,-0.011833849396016826,0.01637745343012473,0.9819474559334079
2012-11-07,1,0.001250462656997914,0.0014724567169504808,-0.011833849396016826,0.01488418543438709,0.9842734442291676
2012-11-09,1,0.0008642641668760263,0.0011251490571702945,-0.007825065367810396,0.01568684425916893,0.9857771537876675
2012-11-13,1,0.0014067749641260873,0.0017531719131131278,-0.007825065367810396,0.01500379512223757,0.9865436295568518
2012-11-15,1,0.0013822346541189393,0.0017233018627642405,-0.004714511515663484,0.011099457385678562,0.9878428918100377
2012-11-19,1,0.0027130975770279582,0.003230199051001416,-0.004714511515663484,0.016736282493676168,0.9871117260860963
2012-11-21,1,0.0016102098295627519,0.0017950915007468727,-0.005879256282923737,0.009921071370872465,0.9874738513339428
2012-11-26,1,0.0014380614200128164,0.0016469725917102951,-0.0006197904069746366,0.013698337090985283,0.9877435219962746
2012-11-28,1,0.0009606071732434769,0.0011018078297253264,-0.0006197904069746366,0.013698337090985283,0.9882561163311718
2012-11-30,1,0.0006801771054818227,0.0008007512252500983,-0.0006197904069746366,0.01747487410725963,0.9868124277780475
2012-12-04,1,0.0015566703257635206,0.0017641287135212295,-0.000634155452970826,0.013698337090985283,0.9879540468663119
2012-12-06,1,0.001353429652556618,0.0015958502176268835,-0.0015718493709306726,0.013698337090985283,0.9890178250937463
2012-12-10,1,0.0024822545840873424,0.002902897350575722,-0.003446047837858362,0.012305839238927084,0.9890848107810648
2012-12-12,1,0.00310805022399912,0.0036414851822776113,-0.003446047837858362,0.013411032712109982,0.9886169450829024
2012-12-14,1,0.0018160703792734446,0.001977064843495842,-0.007712953437851018,0.013411032712109982,0.9879963644064381
2012-12-18,1,0.003482475270813645,0.0037496869621836105,-0.012753510137132282,0.012305839238927084,0.986194040455983
2012-12-20,1,0.0028427857428382393,0.0030156657572037258,-0.007712953437851018,0.013411032712109982,0.9863571927007923
2012-12-24,1,0.0028777601190880502,0.0030170056721869807,-0.007712953437851018,0.01521085204926139,0.9858856698372209
2012-12-27,0,0.0,0.0,-0.0035353584661231906,0.01521085204926139,0.986052996311435
2012-12-31,0,0.0,0.0,-0.005339352470464206,0.013386392668294224,0.9874824133348787
2013-01-03,1,0.0017507866200569496,0.0019920850761832895,-0.005339352470464206,0.01521085204926139,0.9869120772781373
2013-01-07,0,0.0,0.0,-0.006595864927173002,0.01521085204926139,0.9859873772791369
2013-01-09,1,0.0011371912250302488,0.001270580431422877,-0.00605709787744641,0.01675705814427798,0.9835819131528794
2013-01-11,1,0.0024642563059943394,0.0027832459738913735,-0.00605709787744641,0.01675705814427798,0.9838816701010912
2013-01-15,0,0.0,0.0,-0.00605709787744641,0.01675705814427798,0.9836076987084101
2013-01-17,0,0.0,0.0,-0.00605709787744641,0.013700788910336452,0.9872572643704379
2013-01-22,-1,-0.0018921775115785034,-0.001499484791419032,-0.008821514238638528,0.009862058042202033,0.9879684589020363
2013-01-24,1,0.0022315180911993754,0.0022424960820060388,-0.008821514238638528,0.009862058042202033,0.9866889502772388
2013-01-28,1,0.0031460711202931273,0.0032400241487873837,-0.01117580033649431,0.00346179817404276,0.9871936655394863
2013-01-30,0,0.0,0.0,-0.01117580033649431,0.0075599482731591216,0.9880530172414761
2013-02-01,1,0.001949660734345644,0.002195288779608317,-0.01117580033649431,0.0075599482731591216,0.9884940382575923
2013-02-05,1,0.005263594247305594,0.005951655212412029,-0.006073311167549018,0.008969324615026041,0.9882787067268949
2013-02-07,0,0.0,0.0,-0.006197054837159016,0.0075599482731591216,0.9907892495728926
2013-02-11,0,0.0,0.0,-0.01117580033649431,0.003259161057204624,0.9908809445012904
2013-02-13,1,0.007974143274140946,0.009333875624964315,-0.006197054837159016,0.0070662969109522335,0.9889703498959064
2013-02-15,0,0.0,0.0,-0.0044355268471073265,0.0070662969109522335,0.9915021093345419
2013-02-20,1,0.006342918269671726,0.007419820240413611,-0.0044355268471073265,0.01006932927899838,0.9900047811566761
2013-02-22,1,0.005278652496777859,0.005859833661555308,-0.005699620750902363,0.0070662969109522335,0.9904358977614207
2013-02-26,0,0.0,0.0,-0.004566439282795806,0.0070662969109522335,0.9920107111980716
2013-02-28,0,0.0,0.0,-0.004566439282795806,0.007249524585859895,0.9916621618578365
2013-03-04,0,0.0,0.0,-0.005721127049137806,0.006382600944347774,0.9913940882619496
2013-03-06,0,0.0,0.0,-0.005721127049137806,0.005676758463037833,0.9923712126291482
2013-03-08,1,0.001911241639811908,0.003742045747534564,-0.004191981615595651,0.00800674928490967,0.9924492242681529
2013-03-12,1,0.002330858019129697,0.002379134566436583,-0.004191981615595651,0.013000024938227626,0.9897616684107251
2013-03-14,1,0.0024967717417830088,0.0025128251194268445,-0.005721127049137806,0.01532291136271409,0.986993913463674
2013-03-18,1,0.0014201508957282318,0.00160566586708455,-0.009166661920112843,0.01532291136271409,0.9862429155820308
2013-03-20,0,-0.0003215519503901292,0.0001915503375568481,-0.010444292152182427,0.014866257904995555,0.9855305035714299
2013-03-22,-1,-0.0007593595913622567,-0.0003106076403439563,-0.01046925762847347,0.015350224841491058,0.980789228095125
2013-03-26,0,0.0,0.0,-0.01046925762847347,0.015350224841491058,0.9806899600804928
2013-03-28,1,0.0010324841625173227,0.001150612025231415,-0.01046925762847347,0.014866257904995555,0.9816121021361277
2013-04-02,1,0.0005929228689720852,0.0007599471126152994,-0.007222425253243771,0.014866257904995555,0.9823922928209986
2013-04-04,0,0.0,0.0,-0.007222425253243771,0.014866257904995555,0.9820196419566228
2013-04-08,0,0.0,0.0,-0.007222425253243771,0.00996116552608261,0.9829852008232208
2013-04-10,1,0.0027292673958149443,0.002893869514465297,-0.007222425253243771,0.009881734702602235,0.9827176346684415
2013-04-12,1,0.0037484445619790693,0.0038118259252174426,-0.004853960768190318,0.007309807893005695,0.9856525616951237
2013-04-16,0,0.0,0.0,-0.004853960768190318,0.007309807893005695,0.9856642764761421
2013-04-18,0,0.0,0.0,-0.003389877981206873,0.007309807893005695,0.9871756083965285
2013-04-22,0,0.0,0.0,-0.002857370687339661,0.00729465453883756,0.9919002510889291
2013-04-24,0,0.0,0.0,-0.002857370687339661,0.00729465453883756,0.9914143233480119
2013-04-26,0,0.0,0.0,-0.003774848822971914,0.00729465453883756,0.9912058133813155
2013-04-30,1,0.003034762396701641,0.003126419963849017,-0.003774848822971914,0.00729465453883756,0.9912822655262673
2013-05-02,1,0.0025894937282458686,0.0025960969820902143,-0.006819199558218403,0.006507249828326484,0.9903656907525706
2013-05-06,1,0.0032328619451083888,0.0033347060614022993,-0.006819199558218403,0.005007030299082145,0.9904953457960051
2013-05-08,1,0.002516955786591114,0.0025262361367926526,-0.006819199558218403,0.005007030299082145,0.9915343671247268
2013-05-10,1,0.002547485935806705,0.0025565273918157264,-0.006819199558218403,0.005007030299082145,0.9906753630410803
2013-05-14,1,0.0035443693203925483,0.0037800598949960297,-0.006239311316278166,0.002253945903993745,0.991335263901752
2013-05-16,1,0.0027708613632952605,0.0028700918377397647,-0.006239311316278166,0.005007030299082145,0.99103077113333
2013-05-20,1,0.0030400685893279145,0.003192207146631128,-0.006239311316278166,0.002702943794540568,0.9905312259551314
2013-05-22,1,0.0024466355860833632,0.0025161203727871806,-0.007483181693250873,0.001958790174384723,0.9900013997536167
2013-05-24,1,0.00210017655939974,0.0021316644186216054,-0.009089338172553162,0.00320969425517615,0.9901644911845787
2013-05-29,1,0.0021581736938782736,0.0022043455308130783,-0.009089338172553162,0.004955528533767159,0.9900244041409955
2013-05-31,1,0.0012492115507109032,0.001328396342791256,-0.006715416681613396,0.004955528533767159,0.9915636387186341
2013-06-04,1,0.0005210826787845778,0.000716386705302311,-0.004749704360782037,0.013227079637943442,0.9910337783889998
2013-06-06,1,0.0006378383390813984,0.0008055917087660926,-0.0020963033818635936,0.013227079637943442,0.9907065983733393
2013-06-10,1,0.0006595952680210617,0.0008452140420268174,-0.0015700330622722568,0.0069086681025662565,0.9917310275295014
2013-06-12,-1,-0.0005506636047286853,-0.00023565531823890407,-0.0034835678580217694,0.0069086681025662565,0.9910229030380276
2013-06-14,0,-5.624268613320762e-05,0.00018304075639303857,-0.0026018933689135114,0.005677245458243196,0.9918225964529286
2013-06-18,1,0.0006240053332118733,0.0007566209491971745,-0.009052542750849851,0.0033689759035446048,0.9914552934099169
2013-06-20,1,2.2972037735944262e-05,0.00015905366340960816,-0.0026018933689135114,0.005677245458243196,0.9886687723433328
2013-06-24,-1,-0.0009543160771938609,-0.0007352245605046119,-0.0062542091813640194,0.005677245458243196,0.987695209653939
2013-06-26,-1,-0.0001528050641411963,-4.8636927000644445e-05,-0.0062542091813640194,0.007163251864028659,0.9877088948395496
2013-06-28,-1,-0.000792799958601042,-0.0005612916542993489,-0.0062542091813640194,0.007163251864028659,0.9874527330749799
2013-07-02,1,0.000605921108583173,0.0006085389938321107,-0.0062542091813640194,0.00750089000387736,0.9877070350828152
2013-07-05,1,0.0019155737662356846,0.0021145813259548928,-0.0062542091813640194,0.006931678504545616,0.9893178023894619
2013-07-09,1,0.0013984374165017667,0.0014779064552234123,-0.009378276566475389,0.006931678504545616,0.9885209499692099
2013-07-11,1,0.0007787958624944304,0.0008016429890082292,-0.0062542091813640194,0.00750089000387736,0.9885959073974265
2013-07-15,1,0.00036208299613124895,0.0004678694872798889,-0.007335863189174491,0.006931678504545616,0.9886600176489749
2013-07-17,-1,-0.00027579520943945353,-0.00012578159758043083,-0.0044615887842545604,0.007542710804497621,0.9891262184984704
2013-07-19,1,0.0013639518149457857,0.0013825826862607386,-0.005678319744308338,0.006931678504545616,0.9928589343465885
2013-07-23,1,0.0004083705149827647,0.00047952156227063403,-0.004163285816173607,0.007542710804497621,0.9937977692890816
2013-07-25,1,0.0012531051153638036,0.0013116586024339023,-0.0044615887842545604,0.007542710804497621,0.9935404821561954
2013-07-29,1,0.0014844606653170568,0.0016081007253823834,-0.005678319744308338,0.007542710804497621,0.9931628613515734
2013-07-31,1,0.0015795615255353574,0.0016628527273612346,-0.005678319744308338,0.004953363699217652,0.9933037696188987
2013-08-02,1,0.0012080896820938843,0.0012140287244545268,-0.005678319744308338,0.007658362269132704,0.9932724709019246
2013-08-06,1,0.0007801973837571901,0.0008057495808675261,-0.005678319744308338,0.008379764554595097,0.9931692900826833
2013-08-08,1,0.0006142722777415299,0.0006778797016288888,-0.005678319744308338,0.007658362269132704,0.9935677374692257
2013-08-12,1,0.00015176710464970196,0.00025969469532053605,-0.004387458929264844,0.008585785581579583,0.9930569738939787
2013-08-14,0,-0.0001407213694951684,2.9892064732101628e-05,-0.004508433241359876,0.009387564909991467,0.9928977992508055
2013-08-16,-1,-0.0005310737984823043,-0.00031244970006855403,-0.004363708180012726,0.009387564909991467,0.9926773916567887
2013-08-20,1,0.0002983669447326776,0.0003853200781606629,-0.004363708180012726,0.008895026704878534,0.9930489997128585
2013-08-22,0,-7.265137361965818e-05,7.529380576761684e-05,-0.004564729996220525,0.008031993892344567,0.992795370678538
2013-08-26,-1,-0.000678559833859846,-0.0004554371790159693,-0.004363708180012726,0.008551608123256081,0.9928691786073293
2013-08-28,1,0.00013771499025753322,0.00019877951377837835,-0.004363708180012726,0.008895026704878534,0.9926227401201997
2013-08-30,1,0.0007116882899193394,0.0007369222929367623,-0.004363708180012726,0.009438794590992883,0.9919256973303897
2013-09-04,1,0.0006376133446618664,0.0006507220139369346,-0.004363708180012726,0.008551608123256081,0.9923691739456194
2013-09-06,1,0.0004960317994216455,0.0005202370117012469,-0.004363708180012726,0.009438794590992883,0.9916149745543839
2013-09-10,1,0.00038934340750856606,0.00048359128801316324,-0.005139848882089151,0.008551608123256081,0.9920437666463671
2013-09-12,1,0.0011366065108334557,0.0012733179040085572,-0.005139848882089151,0.008551608123256081,0.9919561267948487
2013-09-16,1,0.001200969246168091,0.001340943394255993,-0.00451301112127676,0.009215187931709503,0.9915571752962405
2013-09-18,1,0.001296821437379003,0.001440364074127736,-0.007367035634626187,0.010571727251915394,0.9903054758475618
2013-09-20,1,0.00047569540486804235,0.0005144162344301509,-0.0032869704349533795,0.01277117392416658,0.9867231529827711
2013-09-24,1,0.0010494467638938034,0.0011210548476578706,-0.0032869704349533795,0.017036461752144617,0.9861171520637567
2013-09-26,1,0.0014356237162405014,0.0015976041174208763,-0.002040869527128676,0.017036461752144617,0.986997058604023
2013-09-30,1,0.0015647786325823088,0.0017039982211415347,-0.0015384116249296071,0.011913367159728828,0.9879054670630663
2013-10-02,1,0.001520986046698895,0.0016690610629440644,-0.0015384116249296071,0.011913367159728828,0.9879524231721729
2013-10-04,1,0.002117621021967758,0.002366935764674156,-0.0011355740333055574,0.009068038854210458,0.9887612874895357
2013-10-08,1,0.0014201800566930598,0.0015556400057904567,0.0005354932676067705,0.014451564249342599,0.9882884662765229
2013-10-10,1,0.002112414340905482,0.0023599955138877173,-0.0016169967400997498,0.011306088175708098,0.98736461987806
2013-10-14,1,0.0021235749854142047,0.00233896034943882,-0.00012662086551280835,0.011306088175708098,0.9875467701203934
2013-10-16,1,0.0016139267095526548,0.0017425774805049383,-0.00012662086551280835,0.010088335366149078,0.9885897505908493
2013-10-18,1,0.0035068737474469583,0.0038878021162441507,-0.00012662086551280835,0.009444973327290617,0.9929495226737232
2013-10-22,1,0.0035026742416234212,0.003829317799479149,-0.0003616722077210169,0.006371095316063522,0.9928532509678417
2013-10-24,1,0.003308953218887495,0.0035863181043612005,-0.0030005282803796975,0.009444973327290617,0.9916861138642172
2013-10-28,1,0.003371540227367867,0.0036496823007056453,-0.006418607111009039,0.00715394739233002,0.9910927633388001
2013-10-30,1,0.0031704802232045853,0.003440240209878177,-0.0071280312611450665,0.00715394739233002,0.9907801751303402
2013-11-01,1,0.003128922311276626,0.003382580026254331,-0.0071280312611450665,0.00715394739233002,0.9905957639048065
2013-11-05,1,0.0040111098065966026,0.004390558026116906,-0.00890542518269744,0.0027462244606176844,0.9903101992904481
2013-11-07,1,0.0028735942578255085,0.003117815144522013,-0.004826552403124379,0.005599840703059237,0.9924090496102411
2013-11-11,1,0.0028067700693721635,0.0029683128948342474,-0.00890542518269744,0.004425038638803985,0.9925532325453558
2013-11-13,1,0.0025234269507636775,0.002621042123530143,-0.00890542518269744,0.003553162327569067,0.9920426619262291
2013-11-15,1,0.0030867621552301775,0.003278546594934955,-0.00890542518269744,0.001634240924990105,0.9918858449393495
2013-11-19,1,0.0023423561186768594,0.002429620711659917,-0.007861711404789687,0.0033871521853823814,0.992639993383256
2013-11-21,1,0.0024882732989958945,0.0026255909202601104,-0.0058856062037550725,0.0033871521853823814,0.9918934528668808
2013-11-25,1,0.0024582530287913726,0.0026500558743822187,-0.005024246235750202,0.004170943333239859,0.9924213211076451
2013-11-27,1,0.0017861848602863226,0.0018827200983399092,-0.005024246235750202,0.004497195563011395,0.9928038803678622
2013-12-02,1,0.0014292329899935426,0.0014531942150111774,-0.005024246235750202,0.004497195563011395,0.9929832922636821
2013-12-04,1,0.0008379700719431192,0.000886906698791968,-0.005024246235750202,0.0050992838427155966,0.9920816780797481
2013-12-06,1,0.0006686214850819034,0.0007868211966148455,-0.005864765324026671,0.004497195563011395,0.9918565673415572
2013-12-10,1,0.0017382754015798248,0.0018153551967706088,-0.005024246235750202,0.005998022893429494,0.9919205175066703
2013-12-12,1,0.0004374865734520616,0.0005822100510892467,-0.004739304003492095,0.005998022893429494,0.9914594605016889
2013-12-16,1,0.0006544326658115406,0.0007482152441361405,-0.004739304003492095,0.005998022893429494,0.9917421940098333
2013-12-18,1,0.0005905428169708771,0.0006965052315866553,-0.004697176982889043,0.004572349936495555,0.9919147859532237
2013-12-20,1,0.0018827427519420657,0.0019668103757378283,-0.005738384262217514,0.004025583954067354,0.9925902037854367
2013-12-24,1,0.001696738616528153,0.0017468871396829305,-0.01062644332076277,0.0038741813166773514,0.9905675451139621
2013-12-27,1,0.0009916984069007896,0.0010646352198683871,-0.009703266014354896,0.0040941853060974635,0.9908186411458438
2013-12-31,1,0.0010225450987648974,0.001089637539775374,-0.015308692797901015,0.00523236190475589,0.989201165980729
2014-01-03,0,-0.00010671959972139886,7.014483830275746e-05,-0.015205401164046603,0.00523236190475589,0.9854226929405625
2014-01-07,1,4.8810074254797015e-08,0.00016012344014784729,-0.015205401164046603,0.0040941853060974635,0.9858901544515458
2014-01-09,1,0.00018863505277355792,0.0003468012882884441,-0.015205401164046603,0.0037264256402255707,0.9859639132872672
2014-01-13,-1,-0.0005855487862538099,-0.0003559467649996362,-0.008573533581113731,0.0037264256402255707,0.9867631001339383
2014-01-15,-1,-0.0006301120473835575,-0.0003836690909285611,-0.008573533581113731,0.004128573143903658,0.985863104413072
2014-01-17,-1,-0.0015391444512486466,-0.0011519645121787375,-0.008573533581113731,0.004128573143903658,0.9861017233530355
2014-01-22,-1,-0.002710616200391285,-0.0021845764243322774,-0.006370312350855879,0.004128573143903658,0.9870815226523817
2014-01-24,-1,-0.005102072435669373,-0.004320868997110178,-0.005076941800012974,0.006137054011264676,0.9877401539786977
2014-01-28,-1,-0.005120162833480876,-0.004346709095023948,-0.0037818387598671423,0.005033775013648998,0.987725080131458
2014-01-30,-1,-0.005270001587117821,-0.004471895727941046,-0.0025521125434236997,0.007652993492427938,0.9879247836045862
2014-02-03,-1,-0.0037431938464579984,-0.0031694138418641017,-0.0025521125434236997,0.007652993492427938,0.9908261248682629
2014-02-05,-1,-0.0037027360974637626,-0.003141252835558366,-0.0025521125434236997,0.008864291679534845,0.9899304263761378
2014-02-07,-1,-0.0030850060213380736,-0.0026033326196628266,-0.00405394754642328,0.007664625551462091,0.9906707887933232
2014-02-11,-1,-0.0032665648235296004,-0.0027769019482817934,-0.0041109970169541975,0.007911370630050173,0.9901068283472214
2014-02-13,-1,-0.0031847128139965005,-0.0026448408658183925,-0.0061600847954479294,0.007335353142599714,0.9908594484957715
2014-02-18,-1,-0.003398868152126598,-0.0028485032081680423,-0.006111873879748611,0.007911370630050173,0.989293678904268
2014-02-20,-1,-0.0036108884415817825,-0.003041212605247043,-0.006111873879748611,0.009385525234693102,0.9874447443003813
2014-02-24,-1,-0.002989972076298814,-0.0025208435590234543,-0.0061600847954479294,0.008397708008105974,0.9865095694592426
2014-02-26,-1,-0.002837061006708855,-0.00237314966882882,-0.009866990552835974,0.008397708008105974,0.9850876095624622
2014-02-28,-1,-0.0017898654745529248,-0.0014760082122916066,-0.009866990552835974,0.009258764346453915,0.9850465284238246
2014-03-04,-1,-0.0014932715923509626,-0.001180785575957168,-0.008547377419001318,0.009258764346453915,0.9874677340876646
2014-03-06,-1,-0.0005920397317500405,-0.0004183366759192955,-0.00919628284136911,0.006907872396163023,0.9881280746546718
2014-03-10,-1,-0.0008304046120309429,-0.0006532790331848441,-0.012843609799419314,0.006907872396163023,0.9856227688778376
2014-03-12,-1,-0.0009015747348424431,-0.0006861152243622142,-0.012843609799419314,0.011293820353537945,0.984376507969546
2014-03-14,-1,-0.0012298239520033426,-0.0010899288919003994,-0.015825076442741254,0.011293820353537945,0.9832515862897829
2014-03-18,1,0.00011442416886953897,0.00017332372327666948,-0.015825076442741254,0.01057745698023663,0.9840362179592042
2014-03-20,1,0.0013171398318841242,0.001548466466783971,-0.028251720071056696,0.01057745698023663,0.9814741267723952
2014-03-24,1,0.001008211581102879,0.001171403440860274,-0.025753462710508483,0.01159289662833689,0.9816360001305743
2014-03-26,-1,-0.0012805878564989444,-0.0011433751409015893,-0.018898803586576973,0.01159289662833689,0.9825772175995162
2014-03-28,-1,-0.0008623784647093986,-0.000789026012844433,-0.025753462710508483,0.01057745698023663,0.9807533781198964
2014-04-01,1,0.000644490843657112,0.0008246842142061457,-0.025753462710508483,0.01159289662833689,0.9794366243879712
2014-04-03,-1,-0.0006609455537768456,-0.0005954652327696445,-0.025753462710508483,0.01159289662833689,0.9797469663821543
2014-04-07,-1,-0.00319489856139112,-0.0028847170744409605,-0.01786225315933705,0.012600662092947985,0.9800824410573726
2014-04-09,-1,-0.0012673386546937062,-0.001190211456317639,-0.01786225315933705,0.01159289662833689,0.9824174387140939
2014-04-11,-1,-0.002380876434915972,-0.0022135422797403704,-0.01201968786644491,0.012600662092947985,0.9830818763402435
2014-04-15,-1,-0.0021731579480292946,-0.002001302029172483,-0.01309686052293946,0.012600662092947985,0.9832953607456456
2014-04-17,-1,-0.0028708275012508722,-0.002625981588740527,-0.013057398797963159,0.0099821448163274,0.9858224418882785
2014-04-22,-1,-0.004327474335487295,-0.0038912566402267384,-0.011402710820976656,0.007601151475716216,0.9867043556391343
2014-04-24,-1,-0.004966980681953284,-0.0044311459941377635,-0.010628956765087813,0.01423568346062623,0.9848551228932491
2014-04-28,-1,-0.007658253674533953,-0.006812546090813812,-0.0012567311100810394,0.015289719210527242,0.9840878577076634
2014-04-30,-1,-0.0056112895261761185,-0.004985279098269641,-0.0012567311100810394,0.013638983178340572,0.986540320212768
2014-05-02,-1,-0.00473846287483158,-0.004251773861493285,-0.0012567311100810394,0.013638983178340572,0.986735787551563
2014-05-06,-1,-0.004909296016011722,-0.004390570922980251,-0.0011584263240010436,0.013638983178340572,0.9876066693003178
2014-05-08,-1,-0.005187237079775878,-0.0046151084644916116,0.001233171047181863,0.01454413798977975,0.9864002201147342
2014-05-12,-1,-0.004083670058057312,-0.003647508924511522,-0.0013224908014122108,0.013603789787271253,0.9881707161664883
2014-05-14,-1,-0.004350790685732476,-0.003895540784960424,0.0008595486633465704,0.014627689849711937,0.9867219091556304
2014-05-16,-1,-0.00379311653383877,-0.003468190210193944,0.002681065718870087,0.014627689849711937,0.9868953257254469
2014-05-20,-1,-0.003989687688601989,-0.0036496405323116106,0.002881926339095603,0.014627689849711937,0.9868981375164796
2014-05-22,-1,-0.0019776358459081735,-0.0018699374030580387,-0.0006726723474662422,0.011588001056110154,0.9910212390229968
2014-05-27,-1,-0.0006264550999611778,-0.0005543196456656013,-0.0009129447893282238,0.011283951649224227,0.9924893051595552
2014-05-29,1,7.907618426047821e-05,0.00024210298561492974,-0.0009129447893282238,0.010164410979321154,0.9932255770876204
2014-06-02,1,0.0006805987538656123,0.0009355771677628085,-0.002206180745872179,0.010164410979321154,0.9932220466054824
2014-06-04,1,0.0015504369193749437,0.0019567416450973667,-0.004183998718118869,0.010164410979321154,0.9929659898656701
2014-06-06,1,0.0018788304885809684,0.0022817861556783366,-0.006199682425538039,0.009801025285515267,0.992515697875509
2014-06-10,1,0.0017356844221141342,0.0021324079483423727,-0.006199682425538039,0.010164410979321154,0.9910270769821846
2014-06-12,1,0.0026524347330045355,0.003152180602214207,-0.006199682425538039,0.00779967775583134,0.9914456426868432
2014-06-16,1,0.0029192785811871062,0.0033989568753482434,-0.006553699341091518,0.00667101502208703,0.9909197448023992
2014-06-18,1,0.0018533571065019717,0.0020677166122599466,-0.008142969418067962,0.00667101502208703,0.9898949651253461
2014-06-20,1,0.0015767462760042207,0.0017469805906766443,-0.008142969418067962,0.00804195366167989,0.9892535498750389
2014-06-24,1,0.0015224399435787139,0.0017394583229708,-0.008142969418067962,0.00804195366167989,0.9853760113248636
2014-06-26,1,0.0027978177663256125,0.0031989092032825243,-0.008142969418067962,0.012593558047031354,0.9843086871301557
2014-06-30,1,0.0022231973344700277,0.0025419666821675964,-0.007819152208496324,0.012593558047031354,0.9847415217140231
2014-07-02,1,0.0028025204537641896,0.003223489069065129,-0.011810297614566919,0.010827073888602462,0.9846651330900147
2014-07-07,1,0.0022377747253345638,0.0025633462462237608,-0.007340046870283202,0.01121100143640034,0.9853529959674032
2014-07-09,1,0.003159939928767506,0.003656152509876859,-0.007340046870283202,0.010827073888602462,0.9863399132795991
2014-07-11,1,0.002599612969598559,0.0030005247256045062,-0.006958341830133097,0.010827073888602462,0.9866309880797953
2014-07-15,1,0.002365320750837479,0.002722405590948138,-0.00562087866684907,0.01121100143640034,0.9866871988191501
2014-07-17,1,0.0014449488528395444,0.001696204470389625,-0.004498171431094784,0.01121100143640034,0.9873616911183664
2014-07-21,1,0.001985360097071491,0.0023104009728575235,-0.003734837253546102,0.01103203923314689,0.9879497131931367
2014-07-23,1,0.004729712342848939,0.005454297048507511,-0.005406530861376185,0.010108514329144691,0.9915593826926045
2014-07-25,1,0.005773008741306226,0.006693617859409008,-0.005619182917977602,0.00738401377375411,0.9916309673600168
2014-07-29,1,0.005967971088840191,0.006940404987088009,-0.005619182917977602,0.010108514329144691,0.9915560053845204
2014-07-31,1,0.005626268816129716,0.006531128621948433,-0.005619182917977602,0.0053956773599421436,0.9918175202608348
2014-08-04,1,0.00613931403544584,0.0071125678842995825,-0.005619182917977602,0.004506345616315966,0.9916125988251029
2014-08-06,1,0.005078475100690461,0.005860216299420151,-0.004444127168883992,0.004506345616315966,0.9927494981227505
2014-08-08,1,0.005395679556770979,0.006275061765386733,-0.004444127168883992,0.004506345616315966,0.992683919914762
2014-08-12,1,0.006138854642284397,0.0071786774759090306,-0.004444127168883992,0.0025586917392101064,0.9921260755578611
2014-08-14,1,0.005458501518359734,0.0063171183775364,-0.004444127168883992,0.0020566186689684072,0.9923424319465622
2014-08-18,1,0.004700988892805587,0.00534638628439279,-0.005619182917977602,0.0014074553827549223,0.9921425447490853
2014-08-20,1,0.004308206554106575,0.004906786730031654,-0.004587498708243194,0.0020566186689684072,0.9925171698112115
2014-08-22,1,0.004438210727978561,0.005093035937309093,-0.005582882144429459,0.0014074553827549223,0.9919185331204279
2014-08-26,1,0.00441537834991298,0.0050321449256992105,-0.005582882144429459,0.0014074553827549223,0.9916702069515592
2014-08-28,1,0.0025660174201947404,0.0027793537722329413,-0.0060183993699742325,0.0020566186689684072,0.992294872665505
2014-09-02,1,0.003439987218842895,0.0038488727883494063,-0.0060183993699742325,0.0023994512722379235,0.9919258710180221
2014-09-04,1,0.002342982891835154,0.0025158137830765008,-0.007848841179044833,0.0023994512722379235,0.9923642467463963
2014-09-08,1,0.0022679214084743186,0.0024461001087965123,-0.007848841179044833,0.003839469604425659,0.9916671757942688
2014-09-10,1,0.000994186816714125,0.0010367791206817353,-0.007848841179044833,0.006953097057349166,0.9913473031939835
2014-09-12,-1,-0.00044311286603423094,-0.0002672536196425372,-0.008718489794698069,0.006953097057349166,0.9910970643890602
2014-09-16,-1,-0.0014293369629617835,-0.0011160872238970818,-0.008718489794698069,0.011971393565162922,0.9898267648895744
2014-09-18,-1,-0.0023057639325107498,-0.0017804437997457935,-0.008718489794698069,0.006953097057349166,0.9906460038475993
2014-09-22,-1,-0.0019830550758106642,-0.0015713121854589733,-0.006849516772944224,0.011971393565162922,0.9899472987549645
2014-09-24,-1,-0.0009159242075146189,-0.0006435289593530959,-0.008806119702199222,0.006953097057349166,0.9871295418639144
2014-09-26,-1,-0.001215175355842417,-0.0009041438379282454,-0.006849516772944224,0.006498225042252147,0.9879129623246317
2014-09-30,-1,-0.0012290943260157142,-0.0009021145900651146,-0.006849516772944224,0.014906702677144744,0.985999220388282
2014-10-02,-1,-0.001246480653084985,-0.0009325664203192715,-0.00802924132589265,0.014906702677144744,0.9858982908203183
2014-10-06,-1,-0.0012765875007468527,-0.0009409123112971077,-0.00802924132589265,0.010606777519871862,0.9868602361812614
2014-10-08,-1,-0.0015705962261583879,-0.001183257304816086,-0.007675286798679107,0.010689026078755708,0.9870910135073291
2014-10-10,-1,-0.0024822558818442626,-0.0019713751315037797,-0.006013856017394399,0.010689026078755708,0.9874072617616297
2014-10-14,-1,-0.002048676237649971,-0.0016480776243865706,-0.0034247910809505396,0.010108026387334632,0.9887657164274877
2014-10-16,-1,-0.0019644145505733628,-0.001601122926385263,-0.0008675505067651747,0.011681828143012588,0.9877361858590946
2014-10-20,-1,-0.0015435638064090684,-0.0012467941614250182,-0.001718832840504654,0.010232569304075186,0.9883144294224517
2014-10-22,-1,-0.0033391964144370906,-0.0028423639939786196,-0.0006160941713470911,0.010232569304075186,0.9906597146942535
2014-10-24,-1,-0.002920424658154626,-0.002486220674536391,-0.001718832840504654,0.010232569304075186,0.9910657465259056
2014-10-28,-1,-0.0017133643938034922,-0.0014390305599438656,-0.003728510367222959,0.006625291534150353,0.9936641469658999
2014-10-30,-1,-0.002060053595210925,-0.0017359775952034842,-0.001718832840504654,0.007314185879270682,0.9931451822170667
2014-11-03,-1,-0.0017182180647360953,-0.0014645793606138527,-0.0020944709677230915,0.007314185879270682,0.9932985504102917
2014-11-05,-1,-0.0013045541555718643,-0.0011213303760756782,-0.0020944709677230915,0.007314185879270682,0.992923602109468
2014-11-07,-1,-0.0010773509817714477,-0.0009216162891395488,-0.00518023746901705,0.006889930933706326,0.9931546893341038
2014-11-11,-1,-0.0008849383646563107,-0.0007470195431159449,-0.005778015169659674,0.005494705105579914,0.9932903834297635
2014-11-13,-1,-0.0003721275749286509,-0.00029916390114007095,-0.005778015169659674,0.005050435290254888,0.993731418906423
2014-11-17,-1,-0.000724952107767393,-0.0006190355569066936,-0.007143351303448984,0.005050435290254888,0.9928385351420211
2014-11-19,-1,-0.0009638674613796438,-0.0008147117822053268,-0.007143351303448984,0.006535893025773934,0.9911760474532215
2014-11-21,-1,-0.0008347658088827066,-0.0007131251235957029,-0.006540655058468252,0.0070459903541414265,0.9903101182714242
2014-11-25,-1,-0.0010885663469808685,-0.0009242652151247932,-0.005613188103017404,0.0070459903541414265,0.9903251304498882
2014-11-28,-1,-0.0005824413062965011,-0.0004926258102591469,-0.005613188103017404,0.008358810681266007,0.9895423941961102
2014-12-02,-1,-0.0008930513976567861,-0.0007531112011792173,-0.007464170427732186,0.008358810681266007,0.9892004395972149
2014-12-04,-1,-0.0008000969510982483,-0.0006679946822050715,-0.009376853126716527,0.006977235007290002,0.9896831229131395
2014-12-08,-1,-0.001523776323712982,-0.0012714928530366684,-0.009376853126716527,0.008358810681266007,0.9876109044056074
2014-12-10,-1,-0.0018330064497232004,-0.0015413526771762653,-0.008189903549545205,0.01284606323174756,0.9859095987730547
2014-12-12,1,0.00044114485386355867,0.0004575134611313496,-0.008189903549545205,0.01284606323174756,0.986278908630472
2014-12-16,-1,-0.00025492138449823487,-0.00019096142802333053,-0.006767999544511906,0.01284606323174756,0.9871972769293367
2014-12-18,1,0.0008558129849672244,0.0009333881058185042,-0.007607575476379703,0.009559975558109302,0.9877198051684631
2014-12-22,1,0.0014671861345623264,0.001621281920504431,-0.007607575476379703,0.009266672817963222,0.9884304861172258
2014-12-24,1,0.001923724599844752,0.002166745976333961,-0.007607575476379703,0.013587424446827201,0.9879486556382426
2014-12-29,1,0.002674505350294224,0.002986362063851342,-0.008189903549545205,0.005878848271347989,0.987919246066719
2014-12-31,1,0.0021594962404915988,0.002390997085865686,-0.007607575476379703,0.006067501361032519,0.9884141402263855
2015-01-05,1,0.0016424184940428577,0.0018263679076285196,-0.006178381123314024,0.013587424446827201,0.9889526229085024
2015-01-07,1,0.0033070148565549034,0.003703446184555492,-0.007503853307197619,0.006255140731076553,0.987171254849003
2015-01-09,1,0.004917811948706844,0.005534241986466286,-0.008803290755387874,0.003630067204639981,0.986401490276498
2015-01-13,1,0.004649611918231126,0.0052091097203212575,-0.008803290755387874,0.008590857629315628,0.9859714633209612
2015-01-15,1,0.0040841765276601605,0.004562653757155201,-0.007503853307197619,0.008590857629315628,0.9872326094236026
2015-01-20,1,0.004224246001068677,0.004732722461028768,-0.006805225139009329,0.006880066001991439,0.9877347924739496
2015-01-22,1,0.004255609029787864,0.0047477177323559695,-0.006805225139009329,0.005784684318892562,0.9880149045668111
2015-01-26,1,0.0045747277358609804,0.0051140608508339555,-0.006805225139009329,0.00421961169743193,0.9876107823607883
2015-01-28,1,0.0038965002606600827,0.004331726515674375,-0.006805225139009329,0.005784684318892562,0.9881883731804522
2015-01-30,1,0.0035815238238141147,0.003963139756191336,-0.0075827803981893815,0.006880066001991439,0.9880071590102225
2015-02-03,1,0.0039716451018438495,0.004380860412325078,-0.0075827803981893815,0.005784684318892562,0.9877689758243432
2015-02-05,1,0.0026208359468551552,0.0028288778787409503,-0.006726660820746662,0.006880066001991439,0.9909746245369893
2015-02-09,1,0.0015450075273304134,0.001582102926245402,-0.005997774665409961,0.006880066001991439,0.9925436649788868
2015-02-11,1,0.002622896352526146,0.002825051743396794,-0.005997774665409961,0.007361458275028615,0.9928363841248073
2015-02-13,1,0.0024959814844215584,0.0026555234180722803,-0.005997774665409961,0.007073468606283986,0.9927863272919247
2015-02-18,1,0.002515478534568622,0.0026936826439263677,-0.006726660820746662,0.007073468606283986,0.9926795839199666
2015-02-20,1,0.0022286802339889903,0.0023532032570835817,-0.006726660820746662,0.008945625532628563,0.9922497426671105
2015-02-24,1,0.001929612888772173,0.0020222335177176283,-0.007790902345401069,0.008945625532628563,0.9922608031011516
2015-02-26,1,0.0017741562162170521,0.0018303238948411153,-0.008735509917183956,0.00880353315059326,0.9913955681079394
2015-03-02,1,0.0018553038558747023,0.0019409433760172604,-0.009658912810965927,0.007055458034986799,0.9913994664510454
2015-03-04,1,0.0015028262931136014,0.0015430220327330617,-0.009658912810965927,0.007055458034986799,0.9915056170839649
2015-03-06,1,0.0007292039129059096,0.0008250180124307565,-0.008735509917183956,0.007055458034986799,0.9921862292634848
2015-03-10,1,0.00026145383557035404,0.0004255283526955015,-0.007891169519053299,0.007055458034986799,0.9922363989672491
2015-03-12,1,0.0007084873019522161,0.0008395806126047021,-0.007891169519053299,0.006228944198008172,0.9907814878175264
2015-03-16,1,0.0007516615990779835,0.0008167666490271743,-0.008825028747995322,0.003774211770663812,0.9908165931370803
2015-03-18,-1,-0.0006132147457210662,-0.0003182153566509791,-0.007666034078034657,0.005851966804487323,0.9913096817900723
2015-03-20,1,2.5892961350069228e-05,0.00023690844685770305,-0.007666034078034657,0.0037303194742452548,0.9918263468699898
2015-03-24,1,0.0005994228016162899,0.0006552895687329303,-0.007666034078034657,0.004725115281920184,0.988185049797892
2015-03-26,-1,-0.0004507474886919485,-0.0002516991215633888,-0.006292299189532411,0.004725115281920184,0.9893196028664084
2015-03-30,-1,-0.0007639354634434139,-0.0005216597616395241,-0.006073023111331213,0.004725115281920184,0.9893203029084638
2015-04-01,-1,-0.0008545658075196389,-0.0006099044437048435,-0.007008205843431064,0.004725115281920184,0.9884840378020339
2015-04-06,-1,-0.00045892349421435615,-0.00026974240097353856,-0.007008205843431064,0.004725115281920184,0.9880594132946159
2015-04-08,-1,-0.0006027567553688248,-0.0004102485675092555,-0.008644922184705573,0.004725115281920184,0.9876871075254843
2015-04-10,1,0.001509409908259736,0.001603744750293438,-0.008644922184705573,0.004725115281920184,0.9897990016452541
2015-04-14,1,0.0009600480753806996,0.0009676910883889749,-0.007053234721159956,0.004725115281920184,0.9900668902779988
2015-04-16,1,0.0009491263484963526,0.000962361221964458,-0.007053234721159956,0.0037303194742452548,0.9902004582275409
2015-04-20,1,0.0009864876719155394,0.001000999465313407,-0.007053234721159956,0.0037166086525066994,0.9900338164917425
2015-04-22,0,-0.00015450268856676057,4.635401943950358e-06,-0.007053234721159956,0.002936413396378806,0.9935483092571207
2015-04-24,-1,-0.00019283092954832477,-4.302425440164863e-05,-0.007589689772513979,0.0036636820755619804,0.993187272303813
2015-04-28,-1,-0.00030427206268541487,-0.00013012963307712413,-0.011311637548190711,0.0026309414318775805,0.9929285245372028
2015-04-30,-1,-0.0010055981167595672,-0.000757519410984638,-0.007855686168645433,0.0036636820755619804,0.9918367583034203
2015-05-04,-1,-0.0007984899373800849,-0.0005581883210664259,-0.008012824451213627,0.0026309414318775805,0.992584806375425
2015-05-06,-1,-0.0013528330067758185,-0.0010292262962805982,-0.006884684644613861,0.0026309414318775805,0.9931393396433242
2015-05-08,-1,-0.0009944376703773868,-0.000723898816326212,-0.00759482141041704,0.001564531306486449,0.993138303888691
2015-05-12,-1,-0.0015419234496165792,-0.0011601863715681644,-0.00759482141041704,0.001746418717892416,0.9929940249222508
2015-05-14,-1,-0.0011092718116831332,-0.0008224357251714535,-0.00759482141041704,0.00392327337438322,0.992450583366892
2015-05-18,-1,-0.0008097056342090029,-0.0005849812475725283,-0.009189143132729533,0.001746418717892416,0.9921748027537269
2015-05-20,-1,-0.0010935971393687693,-0.0008422793979139694,-0.0075732635012862185,0.00392327337438322,0.9923878294298397
2015-05-22,-1,-0.0007378263748530936,-0.00057050593846475,-0.006884684644613861,0.005166418308961217,0.9921064869044552
2015-05-27,-1,-0.0015052857464399852,-0.0012327068284519564,-0.006423324830629789,0.005166418308961217,0.9925694386192109
2015-05-29,-1,-0.001557115444700255,-0.0012482525909863107,-0.005961146908739756,0.00392327337438322,0.9946147155849434
2015-06-02,-1,-0.0009419348438396845,-0.0007912742661582432,-0.005961146908739756,0.005166418308961217,0.9936967998693441
2015-06-04,-1,-0.0002876409487231551,-0.0002669117545323235,-0.005961146908739756,0.005297825634815906,0.9933379258813454
2015-06-08,-1,-0.00037854080524291935,-0.0003474119755098468,-0.005338570926586493,0.006411753078436401,0.9926987240009298
2015-06-10,-1,-0.0005586575831837888,-0.00048610417962477426,-0.005961146908739756,0.0068860412357140246,0.9913823070213739
2015-06-12,-1,-0.0004066881998798465,-0.00035625448587940634,-0.005961146908739756,0.011524018592527345,0.9894913333357391
2015-06-16,-1,-0.0005481743752532317,-0.0004935996716788636,-0.004230536587994481,0.011524018592527345,0.9895474697721599
2015-06-18,-1,-0.00013232287192753488,-0.00012040764031026275,-0.004386539977711249,0.01031344636520301,0.9897006688118752
2015-06-22,1,0.00017568818192189111,0.00020798042376853797,-0.005423908223155141,0.01144355584385012,0.9892609988172482
2015-06-24,-1,-0.0001663256956006993,-0.00015171517195078984,-0.003972886125656579,0.02017463187039915,0.9860448621997663
2015-06-26,1,8.800623378577512e-05,0.00017473096462437273,-0.003875332982232295,0.02017463187039915,0.9862225258665083
2015-06-30,-1,-0.0009729728219115084,-0.0008855978942520251,-0.0016417569435815348,0.02017463187039915,0.986402474221885
2015-07-02,-1,-0.0012196738343398846,-0.0010623319055932377,-0.002910176138047881,0.02017463187039915,0.9863071491839249
2015-07-07,-1,-0.00016753629168196626,-0.00015862156254852378,-0.0013250993303554738,0.012728003409263975,0.9874170340282653
2015-07-09,1,0.000216930154912019,0.00028948129531401404,-0.0013250993303554738,0.011075791487221022,0.9881890299397659
2015-07-13,1,0.0013748573456005874,0.0015998939358381216,-0.002910176138047881,0.008015486186010345,0.990331684982421
2015-07-15,1,0.0014723411579390885,0.001709165569046691,-0.0013250993303554738,0.00704068762598129,0.9908835380797396
2015-07-17,1,0.0013752549559033276,0.0015862813069814326,-0.0013250993303554738,0.00704068762598129,0.9908635410093761
2015-07-21,1,0.001815219110934431,0.002088526485298718,-0.0013250993303554738,0.006998227089505005,0.9915364300518609
2015-07-23,1,0.0038558873416390717,0.004397169702232346,-0.0027427490658481256,0.006479965463981339,0.9940849040377796
2015-07-27,1,0.003945171725566709,0.004490364710561204,-0.007574637846052734,0.006479965463981339,0.9915841107303593
2015-07-29,1,0.003826220287625564,0.00433156488327667,-0.010762124324170293,0.006479965463981339,0.9906959958920164
2015-07-31,1,0.0037870413780486684,0.004275455290260007,-0.010762124324170293,0.006479965463981339,0.9894603708426422
2015-08-04,1,0.004229014411887944,0.0048088172497028694,-0.011231454696102474,0.0030245887981294427,0.9881336629488249
2015-08-06,1,0.0042916524222711356,0.0048921940449867,-0.01121188571658886,0.0030245887981294427,0.9881542019789796
2015-08-10,1,0.00385261208671098,0.004377031335052607,-0.01121188571658886,0.006681722676411764,0.9878689851645278
2015-08-12,1,0.004060108318661536,0.004636959987967253,-0.012833607398297382,0.006681722676411764,0.9869492866268912
2015-08-14,1,0.003937376337899249,0.004482294937418371,-0.012833607398297382,0.007731826293942973,0.9868944742432204
2015-08-18,1,0.0033163499227282615,0.0037280269300739273,-0.012833607398297382,0.007477774124419701,0.9874361151140763
2015-08-20,1,0.002779256886368886,0.0031074144241325036,-0.009302586883682988,0.007477774124419701,0.9882361626120346
2015-08-24,1,0.001703134841246933,0.0018791079196684272,-0.006314830519572866,0.007477774124419701,0.9903647589754048
2015-08-26,1,0.00183542549993308,0.002041068100478148,-0.004928717731209106,0.006561954005876003,0.9914956414498294
2015-08-28,1,0.002107737824456036,0.0023341209212895796,-0.004928717731209106,0.006130964622477208,0.9914288725784671
2015-09-01,1,0.0022911909264301525,0.0026077971323350676,-0.0028956511874130325,0.006561954005876003,0.9918486666550334
2015-09-03,1,0.0027383495526166093,0.0031001324178982614,-0.0028956511874130325,0.006130964622477208,0.992565986158502
2015-09-08,1,0.0029610325488510832,0.0033567553025561775,-0.0028956511874130325,0.005868995533125522,0.9925365581636401
2015-09-10,1,0.002721668840767927,0.0030956700365124467,-0.0016197652699283813,0.006561954005876003,0.9926142513088263
2015-09-14,1,0.0019196506592089153,0.0021365235274805197,-0.0015389281943760727,0.006561954005876003,0.9921104156214048
2015-09-16,1,0.0018527572901287223,0.002044717181363791,-0.0015389281943760727,0.005934568828159649,0.9903447315115107
2015-09-18,1,0.0017924665077067756,0.001975723743168175,-0.0017762039089023543,0.006572333193169937,0.9901344994875018
2015-09-22,1,0.0010770202200452417,0.0011064538640568919,-0.0032826207452636806,0.006572333193169937,0.9891838882358152
2015-09-24,1,0.001771511037394368,0.001876899782810642,-0.01866990602274772,0.006179217513749998,0.985444625555792
2015-09-28,1,0.0007018988012548479,0.000751433278312567,-0.008739277294661799,0.007901711941672792,0.9864289050318491
2015-09-30,1,0.001184035959031132,0.0012005049493303865,-0.008739277294661799,0.006179217513749998,0.9866650726232341
2015-10-02,1,0.001220234307249198,0.0012398848022416094,-0.013747640742609807,0.0055845981322243665,0.9857253325833331
2015-10-06,1,0.0006469583735367981,0.0007064719766417992,-0.013747640742609807,0.004434124665731781,0.9857733135988865
2015-10-08,1,0.001357758277006679,0.0013818103601558856,-0.014370888598399408,-0.00014046271174083906,0.9859953830883723
2015-10-12,1,0.0014969289235082024,0.0015158616736131892,-0.014370888598399408,-0.0013740493217875727,0.9862615937201334
2015-10-14,1,0.00031854841931154186,0.00044624784671710874,-0.012503385798975065,-0.0013740493217875727,0.9870796884720562
2015-10-16,0,-8.862215807637242e-05,0.00012082038731162537,-0.014370888598399408,-0.0022420787123847916,0.985450565912361
2015-10-20,-1,-0.0007766182764569296,-0.0004907463939206883,-0.012503385798975065,-0.0022420787123847916,0.9862993025505874
2015-10-22,-1,-0.002828591043263066,-0.0022866602218800536,-0.01127441970317672,-9.498374226538943e-05,0.9886148678754823
2015-10-26,-1,-0.0032160664494156285,-0.0025980297368004327,-0.011709611886130558,-9.498374226538943e-05,0.9827255216163435
2015-10-28,-1,-0.004038773807349551,-0.0033064503482492587,-0.011709611886130558,0.00840994049956735,0.9809238786421685
2015-10-30,-1,-0.004948022084434459,-0.004107129885744959,-0.01127441970317672,0.00840994049956735,0.9812082393206442
2015-11-03,-1,-0.0058905476855857725,-0.0049394031871123545,-0.010650690406938517,0.00840994049956735,0.9818745482806661
2015-11-05,-1,-0.0067126479208876235,-0.005636052263853421,-0.010650690406938517,0.00840994049956735,0.9822024649839205
2015-11-09,-1,-0.006987132943326133,-0.005891890303883819,-0.012703314920933035,0.00840994049956735,0.9813315894117575
2015-11-11,-1,-0.005705058744947468,-0.0047957358380831695,-0.012703314920933035,0.012444629848200685,0.9796886152919755
2015-11-13,-1,-0.007151135015839871,-0.006075341386467671,-0.013147293829781881,0.012444629848200685,0.9807066774372222
2015-11-17,-1,-0.00772304913558845,-0.006576820270604845,-0.013147293829781881,0.01923528873118143,0.9793131536890662
2015-11-19,-1,-0.006495236404330152,-0.005472364094086484,-0.016938224684171575,0.006606391418493406,0.9805128102744644
2015-11-23,-1,-0.008851952541786882,-0.007564085298972475,-0.01745845435877147,0.005126366294428111,0.9841553345579346
2015-11-25,-1,-0.007166633154207935,-0.006110184729644189,-0.01745845435877147,0.0028103219642725335,0.9857053534328888
2015-11-30,-1,-0.007070353982748245,-0.006042339764488234,-0.01745845435877147,-0.0018801513552869544,0.9860772019863082
2015-12-02,-1,-0.006270768320027693,-0.005423092554906967,-0.01745845435877147,-0.0043859184673095295,0.9859633165086601
2015-12-04,-1,-0.006887959230170344,-0.0059780176892103715,-0.019291300934056524,-0.0022709347567589876,0.9835798397208617
2015-12-08,-1,-0.008078042622621687,-0.007037715270664654,-0.024917769862706697,-0.0022709347567589876,0.9818805433555275
2015-12-10,-1,-0.005177428991083699,-0.00450545365342527,-0.024917769862706697,-0.005170241729963488,0.9842787633559936
2015-12-14,-1,-0.0037673126439862464,-0.0033920830528900558,-0.024917769862706697,-0.0043859184673095295,0.9809145682323681
2015-12-16,-1,-0.0033448577924179725,-0.0030724653762073863,-0.024917769862706697,-0.0022709347567589876,0.976603457357662
2015-12-18,-1,-0.004752132167539745,-0.004342194420615002,-0.018730620727634192,-0.0022709347567589876,0.9784081121907767
2015-12-22,-1,-0.007434855550618518,-0.006731468230210579,-0.014355184355247016,-0.0022709347567589876,0.98179657885962
2015-12-24,-1,-0.006896049234323534,-0.0062852031789426294,-0.01724288269856169,-0.0022709347567589876,0.9808002892658921
2015-12-29,-1,-0.006806361564550971,-0.006223606142692406,-0.01724288269856169,0.00374868229996626,0.9792376160316772
2015-12-31,-1,-0.007312027526397114,-0.006670034689951129,-0.01724288269856169,0.016039547664711835,0.9769717339127871
2016-01-05,-1,-0.008850561974562542,-0.008043390566693322,-0.01724288269856169,0.016039547664711835,0.9784607709231382
2016-01-07,-1,-0.010712173766460551,-0.009705308856644567,-0.014355184355247016,0.020774932808863153,0.9788182625142685
2016-01-11,-1,-0.01069977802506122,-0.009709589381503902,-0.01724288269856169,0.020774932808863153,0.9781109787765189
2016-01-13,-1,-0.008660428159126852,-0.007898666003801912,-0.014959788687623755,0.020774932808863153,0.9788436910873128
2016-01-15,-1,-0.004794265945092879,-0.00442466674656825,-0.014959788687623755,0.020774932808863153,0.9806170556993536
2016-01-20,-1,-0.005123211104211982,-0.004733110992245824,-0.013985382207571185,0.02412433453002153,0.978501785806809
2016-01-22,-1,-0.005407182766468918,-0.005034352042975619,-0.009933299000535965,0.02630313882443243,0.9777109882704281
2016-01-26,-1,-0.005494951126508873,-0.005085357194827626,-0.009933299000535965,0.02630313882443243,0.97841350183412
2016-01-28,-1,-0.0040340606239447265,-0.003855931505306295,-0.011487033990571573,0.02630313882443243,0.9794618455650993
2016-02-01,-1,-0.0018351712800671143,-0.0017086898254095872,-0.011487033990571573,0.021313573370118733,0.9817653354501796
2016-02-03,-1,-0.0024472418868040613,-0.0024153822436527596,-0.008610062193153335,0.02630313882443243,0.9816373813757425
2016-02-05,-1,-0.0020919334165945677,-0.001990228137215424,-0.004105256775738497,0.02630313882443243,0.9827801931658896
2016-02-09,-1,-0.002974494922738324,-0.002960766056887379,-0.004105256775738497,0.02630313882443243,0.9819094227769423
2016-02-11,-1,-0.000872651145225867,-0.0005787103330480274,-0.006474957459035056,0.013172779111025289,0.984466890286179
2016-02-16,1,0.0017154852059078978,0.002356718586946473,-0.010539471801618697,0.008895246854834872,0.9861914572699383
2016-02-18,1,0.003673813386541626,0.004606488078075883,-0.017275262815967654,0.008425766918555226,0.9845027425616324
2016-02-22,1,0.003952471824606238,0.004871709671986855,-0.018739006907079858,0.008425766918555226,0.9837596417288794
2016-02-24,1,0.003800379461474541,0.0047446574077905455,-0.017275262815967654,0.008895246854834872,0.9844471168611528
2016-02-26,1,0.0035799896094231803,0.0045161330919685945,-0.009100425150232959,0.008895246854834872,0.9849732372296512
2016-03-01,1,0.0038055474503370045,0.0047422713248947285,-0.018818647097004225,0.010080103044797988,0.9829913059048287
2016-03-03,1,0.0055129809500529675,0.0067439504055173734,-0.018818647097004225,0.009322723846234938,0.983582360532686
2016-03-07,1,0.00662572535733559,0.008045801365007602,-0.018818647097004225,0.008853973427188798,0.9828031078721493
2016-03-09,1,0.004573837340050816,0.005658344818302474,-0.014217003897874161,0.008853973427188798,0.9843946020706367
2016-03-11,1,0.0049916511353533775,0.006151173503630283,-0.016108301309515446,0.008853973427188798,0.9837446244433279
2016-03-15,1,0.00444641262007398,0.005480852988758693,-0.013709829557714673,0.006382062512993398,0.9853693826685833
2016-03-17,1,0.00010684655803251046,0.0005424990303918289,-0.010930465246230732,0.011097414353189922,0.9872324695405469
2016-03-21,1,1.0787814196788065e-06,0.0004639911039251484,-0.011322100576608634,0.008853973427188798,0.9881794941088432
2016-03-23,1,0.0010527035130501303,0.0016527492037030243,-0.013709829557714673,0.0067361804895906385,0.9878488094728045
2016-03-28,1,0.0009846458231945923,0.0015399468741868509,-0.013709829557714673,0.002630722508641841,0.9878933099969837
2016-03-30,0,-0.00011971870593446496,0.0002677160622518687,-0.013709829557714673,0.002630722508641841,0.9869067980669831
2016-04-01,1,0.0002793141246671888,0.0006632079152682562,-0.012954377814891475,0.002630722508641841,0.9869939898951867
2016-04-05,1,0.00022509152723523937,0.0005857663152412848,-0.012954377814891475,0.007339528913499105,0.9852805738455287
2016-04-07,0,-3.2547170186824226e-05,0.0003469025460918298,-0.011070283329000901,0.007339528913499105,0.9859496467415215
2016-04-11,-1,-0.0010561477743879586,-0.0009008902044757997,-0.010647363168520847,0.011402060964306772,0.9841490398480123
2016-04-13,-1,-0.0009606053874529908,-0.0008270315361103316,-0.010647363168520847,0.011402060964306772,0.9838649681831034
2016-04-15,1,0.0019002593546865012,0.0025180167307823405,-0.010647363168520847,0.006430695592114189,0.9864687175142643
2016-04-19,1,0.00013272766726453715,0.00037891077304020475,-0.006958853800495581,0.006430695592114189,0.9860848795817898
2016-04-21,1,0.0004869271372613456,0.0008560802666146335,-0.004052288123087097,0.006430695592114189,0.9871352277800085
2016-04-25,1,0.00032783010793739154,0.0006801679230607751,-0.0029242213511982934,0.007538810778708705,0.98692345857032
2016-04-27,-1,-0.0013616618285373534,-0.0012384838939010628,-0.0018822071988935539,0.007538810778708705,0.9894385708131109
2016-04-29,-1,-0.0011914608197726652,-0.001086135119815112,-0.0029242213511982934,0.005911213745586485,0.9892561659605182
2016-05-03,-1,-0.00038048587167585824,-0.00020424437347664275,-0.008463701368523712,0.004728895908535938,0.9901455081906148
2016-05-05,1,0.0007619242588323572,0.0011877728820821655,-0.00908956136884356,0.0054229975494974195,0.9888211079805291
2016-05-09,1,0.001844255565266435,0.00236465836600032,-0.013502118131306107,0.0054229975494974195,0.9886453879071311
2016-05-11,1,0.002355397893641222,0.002987525795347788,-0.016284026947346816,0.0048117720059281475,0.9868115244144391
2016-05-13,1,0.0019619248726922426,0.00246782996690322,-0.02248160773341324,0.0036956032679916354,0.984262125428571
2016-05-17,-1,-0.00024142988405773293,-0.0002165177381010068,-0.021284181437125772,0.003548780292464057,0.9854814889249383
2016-05-19,1,0.0001499775255719312,0.0002292495695338535,-0.021284181437125772,0.00449275903578188,0.9850600952281092
2016-05-23,1,0.0004270375453856465,0.0005242047053071728,-0.021284181437125772,0.002268209206431542,0.9850963365801759
2016-05-25,1,0.00019858816223666532,0.00022319039986024383,-0.021284181437125772,0.00449275903578188,0.9832225792537471
2016-05-27,-1,-0.0021153147731013105,-0.0017872946841020361,-0.02248160773341324,0.00449275903578188,0.9828263805357028
2016-06-01,-1,-0.004672505339651347,-0.003919525260473693,-0.02248160773341324,0.008588907693446269,0.9815154996118901
2016-06-03,-1,-0.004904740054120088,-0.00410155564655168,-0.022811368941189795,0.00765042800012498,0.9823723268450306
2016-06-07,-1,-0.003841201498093465,-0.0032840224293499863,-0.020460706381720813,0.00765042800012498,0.9834943557718157
2016-06-09,-1,-0.0025433753595450193,-0.002174891945376502,-0.020460706381720813,0.008588907693446269,0.9828037022157101
2016-06-13,-1,-0.0044856043951685895,-0.0038537541622404164,-0.013520030153254814,0.010034712862575724,0.9834582011519648
2016-06-15,-1,-0.0052499643061794735,-0.004468882742045833,-0.013518260860508334,0.012035751125178377,0.9824546199677175
2016-06-17,-1,-0.004667806959154039,-0.003944179110650868,-0.017315391794044878,0.012035751125178377,0.9819457417441573
2016-06-21,-1,-0.004919161122306194,-0.004184149795541637,-0.017315391794044878,0.013517750808139588,0.9807182419965029
2016-06-23,-1,-0.002516385049080144,-0.002105825783866042,-0.017315391794044878,0.013517750808139588,0.9807588143225234
2016-06-27,-1,-0.004433483840621714,-0.0037466624350441275,-0.006985923637514938,0.013517750808139588,0.981235571795832
2016-06-29,-1,-0.002215139055594022,-0.0017805836907197658,-0.01244694111140371,0.012035751125178377,0.9837037799680362
2016-07-01,-1,-0.0041794117101249095,-0.0034516704582328874,-0.012147263590517701,0.012035751125178377,0.9832840476794316
2016-07-06,-1,-0.0028124128607358414,-0.002346893843163891,-0.01727054077856178,0.011103365017901948,0.9833529905650155
2016-07-08,-1,-0.0011233743872077354,-0.0009857857692536411,-0.013795141897500921,0.010526286328244882,0.9846044202080457
2016-07-12,1,0.0006253253269888939,0.000811644164799546,-0.015350999566688027,0.010114646863335564,0.9848829401124165
2016-07-14,1,0.0017968627515921763,0.0021812932173864846,-0.015350999566688027,0.009915375695305314,0.9852823496641981
2016-07-18,1,0.0010189670505372948,0.001268390274676371,-0.013795141897500921,0.008453501490730398,0.9872676349885927
2016-07-20,1,0.0016474207484174935,0.001951126957694645,-0.013795141897500921,0.002498117065736906,0.987504198487646
2016-07-22,1,0.004076923463225221,0.004719370879178311,-0.015350999566688027,0.0004514538278022562,0.987623206415576
2016-07-26,1,0.003934446461528469,0.004616832672091701,-0.013795141897500921,0.0038112957015052303,0.9886207130343556
2016-07-28,1,0.0043074666230783175,0.005070247605786437,-0.013795141897500921,0.00810581816660664,0.9880104293411909
2016-08-01,1,0.0023059275554167175,0.0027373569518154986,-0.005817453785517588,0.009969927978613855,0.9899844331364099
2016-08-03,1,0.0016598185881093524,0.002014461341888453,-0.005817453785517588,0.009969927978613855,0.9903129552937334
2016-08-05,1,0.0017374629419113535,0.0020631840144873697,-0.005817453785517588,0.008926878006242586,0.9905761044101321
2016-08-09,1,0.00045870816137547033,0.0005065964540116924,-0.003613049806997969,0.0132810384875738,0.9878437931385908
2016-08-11,-1,-0.0002760171736437073,-0.0002692861286227193,-0.006334872947712091,0.0132810384875738,0.9867766128332714
2016-08-15,1,0.00011053325683731,0.00022262797260795184,-0.01180269262717078,0.0132810384875738,0.9858767269653704
2016-08-17,1,0.0003566334827122998,0.000508579694039928,-0.015172871880967456,0.0132810384875738,0.9856433048747343
2016-08-19,-1,-0.0006455962191909252,-0.0006424953732860768,-0.015172871880967456,0.0132810384875738,0.9855522997034103
2016-08-23,0,-2.2915200723501222e-05,7.327733492058016e-05,-0.015172871880967456,0.010919868404115341,0.9862904424447563
2016-08-25,1,0.0012531837509322933,0.0015148092211196933,-0.015172871880967456,0.009223460644941332,0.9863902137360319
2016-08-29,1,0.0015483955395080309,0.001799391063786378,-0.015172871880967456,0.0063567378900214,0.98647073878726
2016-08-31,1,0.0006910894562976934,0.0008019327862805079,-0.012186597350309698,0.00656364935247763,0.9874684689007497
2016-09-02,1,0.00032723310017251646,0.0003915507220321016,-0.007159620367878069,0.010138871298900452,0.987236805250288
2016-09-07,1,0.0038124326922472835,0.004437997306200745,-0.009068595535601876,0.0059848536653610805,0.9895328173763823
2016-09-09,1,0.0024943545314340338,0.0028879395708914495,-0.007961333838002798,0.00716256423545024,0.9904454513042709
2016-09-13,1,0.0018620659682446372,0.002142003735352247,-0.007961333838002798,0.00986628722723769,0.9890848457189484
2016-09-15,1,0.0011162532574261245,0.0012830377977340402,-0.008925850744985513,0.00986628722723769,0.9884981048586232
2016-09-19,-1,-0.001363236380409467,-0.0011925896011729515,-0.008925850744985513,0.00986628722723769,0.9882133918936886
2016-09-21,-1,-0.0013534178927564256,-0.001197039222770791,-0.008925850744985513,0.01324336763545505,0.9869727334663667
2016-09-23,1,0.0007290992406633398,0.0009113529080492196,-0.008925850744985513,0.01324336763545505,0.9877959153665072
2016-09-27,1,0.0010562494830687473,0.0012696648802381113,-0.01143725596714235,0.008129900165888042,0.9875286370264009
2016-09-29,1,0.0022226969014490046,0.002624208835415687,-0.01502169824195302,0.008129900165888042,0.9830691111337474
2016-10-03,1,0.0030403802014438014,0.003553894626870378,-0.01913776120513977,0.003577729456692688,0.9822668260351152
2016-10-05,1,0.0030093163028680594,0.003538713665435155,-0.01913776120513977,0.0062238778917116195,0.9815495376725336
2016-10-07,1,0.002736236034765384,0.003181898933952847,-0.01913776120513977,0.006467663310543936,0.9813863954004319
2016-10-11,1,0.0023534791683003354,0.0027698030596389703,-0.01502169824195302,0.006467663310543936,0.9819498926362652
2016-10-13,1,0.0016291161320462454,0.001977377211565449,-0.01502169824195302,0.01452875515237435,0.9797819676574461
2016-10-17,1,0.0006230625429274498,0.0008476046139917597,-0.01060080569404894,0.019408081054387252,0.9791106166924922
2016-10-19,1,0.001144068940695304,0.0013895776033180755,-0.013211592103218208,0.01452875515237435,0.9786048000904599
2016-10-21,1,0.0012154306348968252,0.0014147072280436823,-0.013211592103218208,0.01583003596624676,0.9783548987641643
2016-10-25,1,0.0008064030432553347,0.0009617489659393904,-0.012440485655303967,0.01583003596624676,0.9785357901499051
2016-10-27,-1,-0.0018467878079477184,-0.0016761885400526939,-0.01060080569404894,0.01583003596624676,0.9819693611089456
2016-10-31,-1,-0.0032440039856740667,-0.0028427388529820925,-0.010892852406938006,0.01583003596624676,0.9815424701811885
2016-11-02,-1,-0.003252738933612499,-0.002763407845020402,-0.010892852406938006,0.01412385342402761,0.9818967676289736
2016-11-04,-1,-0.00336967124953895,-0.0028496282346273435,-0.010424368670310963,0.013865277090191405,0.9826736803121513
2016-11-08,-1,-0.0019800667495633146,-0.001628877995330786,-0.011911174584090035,0.011514917808612593,0.9810507814967194
2016-11-10,-1,-0.0008085861183229816,-0.0005705457957279697,-0.00972859346613869,0.008159238804715281,0.9849522623487862
2016-11-14,1,0.0020320023856580014,0.002214412620889905,-0.01147540608779276,0.0052721185559864,0.9854703944040177
2016-11-16,1,0.00021077552141090806,0.00034131407179985345,-0.00972859346613869,0.006181372619490745,0.9864745766201165
2016-11-18,1,0.0018764093178052603,0.0020486219009302,-0.00972859346613869,0.006181372619490745,0.9859603317078951
2016-11-22,1,0.0006490461133036791,0.0007064181128789344,-0.007266057733666537,0.010482294257329779,0.9862713548483327
2016-11-25,1,0.0011912845462431387,0.001225785746558183,-0.007266057733666537,0.006046470373524566,0.9862247694543325
2016-11-29,-1,-0.00022431913681940027,-8.960895977106929e-05,-0.006098710227234729,0.006046470373524566,0.9876652750763053
2016-12-01,1,0.0007553059092412443,0.0007690817837484091,-0.007089864440807126,0.0031909187131432134,0.9871414517630441
2016-12-05,1,0.0006150462378045575,0.0006563910902677805,-0.006605787293226855,0.006046470373524566,0.9867339144844539
2016-12-07,-1,-0.001825729039955717,-0.0015450601575445928,-0.006098710227234729,0.016960450504425368,0.988569478189172
2016-12-09,-1,-0.0010482832530605073,-0.0009023801411979027,-0.006605787293226855,0.018004772138269648,0.9861131456562309
2016-12-13,0,-3.036912410161167e-05,9.588141589324901e-05,-0.006605787293226855,0.016960450504425368,0.9877956418151966
2016-12-15,1,4.3290063065828846e-05,0.00013938012227438678,-0.007189452356658099,0.011939004512833308,0.9880830746396164
2016-12-19,1,0.0006213712970087486,0.0007940861622680063,-0.007189452356658099,0.009738143670934282,0.9889932016701783
2016-12-21,1,0.0003703113999054651,0.00044482689665126414,-0.008535958753502198,0.0070481080245637494,0.9887701299351006
2016-12-23,-1,-0.00030736225442696804,-0.00024955980591615564,-0.008535958753502198,0.01132975617240399,0.9878956192537064
2016-12-28,-1,-0.0007425188879139376,-0.0006283363120029824,-0.007189452356658099,0.01132975617240399,0.988134167697743
2016-12-30,-1,-0.0016657631842630968,-0.0014217851882200611,-0.005504675665889923,0.01132975617240399,0.988660165416094
2017-01-04,-1,-0.0011286833090971705,-0.0009591713426561517,-0.0034250216269148,0.008646458366213427,0.9894542076838263
2017-01-06,1,0.0003080958026763131,0.0003269201480840718,-0.008606301282402449,0.006490709747574505,0.9883025965481205
2017-01-10,1,0.0016685749679813898,0.0018298884008461679,-0.006059095342370445,0.007406613121802916,0.9903227329526385
2017-01-12,1,0.0007948586434086023,0.0008031028162719818,-0.0047931933690426075,0.007870101235203675,0.9891953255526009
2017-01-17,1,0.0008029457360136303,0.000831280096439814,-0.0033271455353141685,0.008646458366213427,0.9893052027491239
2017-01-19,1,0.0015959202926894601,0.0018045146232295445,-0.0033271455353141685,0.00852707062574202,0.9896915176370343
2017-01-23,1,0.0018519373687451686,0.002135736632271111,-0.0021657821701210394,0.009489793365654512,0.9898694918182442
2017-01-25,1,0.0023252267344269152,0.0026297702196433773,-0.0047931933690426075,0.00852707062574202,0.9898264644879545
2017-01-27,1,0.0018466442372084457,0.0020619900824877403,-0.00380181413614665,0.00852707062574202,0.9899914381714852
2017-01-31,1,0.003865027469906519,0.004444676848742586,-0.005258642071520426,0.008046914336258185,0.9897668181544477
2017-02-02,1,0.0034769532250979937,0.00395119824053238,-0.006854627678765092,0.008046914336258185,0.9895656906463514
2017-02-06,1,0.001252818642032766,0.001409803375136777,-0.006854627678765092,0.008046914336258185,0.991754254033868
2017-02-08,1,0.0014790507921925702,0.0016309593079484193,-0.006854627678765092,0.007296587766411448,0.9919854841093283
2017-02-10,1,0.0017886586987110986,0.0019268299432685593,-0.006854627678765092,0.004641109517777037,0.9929776079719916
2017-02-14,1,0.0019917006474721778,0.00213742336283808,-0.006855767918960756,0.0035036342546267774,0.9926628384338022
2017-02-16,1,0.0028672675213808068,0.003190323398918545,-0.006855767918960756,0.002359996724160525,0.9924565496131045
2017-02-21,1,0.0034870890213226594,0.003911930348696904,-0.00786113170326886,0.001191717369197144,0.9905096646790286
2017-02-23,1,0.0027217158320485195,0.003049247225605108,-0.0068236781671667515,0.002359996724160525,0.9911749430546305
2017-02-27,1,0.0029647381823518044,0.0033674069543871993,-0.0068236781671667515,0.0026907227867826473,0.9911582077048481
2017-03-01,1,0.0025990123020625928,0.002934619678696521,-0.006693907217510572,0.005496691794340553,0.9899257840920216
2017-03-03,1,0.002408457933019176,0.0027216488406654115,-0.005644363698609679,0.012100006421677497,0.9895908942718816
2017-03-07,1,0.0013033170969737275,0.0014401514552956698,-0.004785233363069049,0.01692800228151738,0.9898336851696069
2017-03-09,1,0.001164844329652993,0.001225264714999867,-0.004891221505981852,0.01692800228151738,0.9897707360827945
2017-03-13,0,-1.6157808348909336e-05,0.0001299789665654832,-0.004891221505981852,0.01692800228151738,0.9892907895263056
2017-03-15,1,3.9582219626113386e-05,0.00013477613590422713,-0.002971962803038416,0.01692800228151738,0.9891528055697016
2017-03-17,1,0.0004218015413312676,0.0004466936836653385,-0.002971962803038416,0.01692800228151738,0.9882047243455089
2017-03-21,1,0.0004877636868152481,0.000531434013146298,-0.0028474490846347052,0.01668015495894064,0.9893395550804462
2017-03-23,-1,-0.0004819893496435624,-0.000216734696441153,-0.0022591057850891655,0.015692512450976682,0.990153485222339
2017-03-27,-1,-0.001105450373701174,-0.0007269415785560089,-0.0028474490846347052,0.015692512450976682,0.9888305118650249
2017-03-29,1,0.0008395076251313196,0.000960350093715148,-0.0028474490846347052,0.01402151983777782,0.9903421423172922
2017-03-31,1,0.0015606342126302133,0.001599837223841699,-0.003390650346825041,0.012238638249147041,0.9905099785033258
2017-04-04,1,0.0020815542181662427,0.002132997386094379,-0.003390650346825041,0.012238638249147041,0.9900786664759778
2017-04-06,1,0.0026924906683970687,0.0028963156252679806,-0.003840491039178138,0.012238638249147041,0.9897134459368692
2017-04-10,1,0.003851766389477422,0.0043234374310086275,-0.004385479638043385,0.012238638249147041,0.9896960674735947
2017-04-12,1,0.003499971227148263,0.003866154777741423,-0.004385479638043385,0.01394681050155809,0.9897603607844004
2017-04-17,1,0.004565948785546538,0.0051075332049038275,-0.004385479638043385,0.012969384613132835,0.9901465674065402
2017-04-19,1,0.004673884451555416,0.005195138022569398,-0.010086456245310224,0.007971192002607467,0.9891345461524782
2017-04-21,1,0.004875046203211865,0.005437492106643109,-0.010086456245310224,0.010729802644366754,0.9889311282563303
2017-04-25,1,0.0035253470861783365,0.003828395920018374,-0.010086456245310224,0.010729802644366754,0.9888716794059722
2017-04-27,1,0.004454550874957092,0.004906841315834581,-0.010086456245310224,0.008558180400371172,0.9898812214617686
2017-05-01,1,0.003599662722119302,0.0039024542077457213,-0.008865460995506825,0.008558180400371172,0.9899792257384595
2017-05-03,1,0.0022692081840607623,0.002333079820384688,-0.0055849324967199914,0.008558180400371172,0.9910604568580842
2017-05-05,1,0.0017402866959562511,0.0017433885382059549,-0.008865460995506825,0.008558180400371172,0.9908105543916808
2017-05-09,1,0.002247837185962579,0.002322666862034899,-0.009809691223686754,0.006057053289378266,0.9907474367309126
2017-05-11,1,0.003004804209253233,0.00320253020500155,-0.009809691223686754,0.003953773020695987,0.99083895016676
2017-05-15,1,0.003683224910245136,0.004000853770438448,-0.009809691223686754,0.003953773020695987,0.9908586890814445
2017-05-17,1,0.002415077827787455,0.002580128904691686,-0.009390499713571497,0.003953773020695987,0.9919963811746458
2017-05-19,1,0.002444333591113474,0.0025814440264487976,-0.009831518873894118,0.003953773020695987,0.9911095921225094
2017-05-23,1,0.0010829205375483771,0.0011779642016976721,-0.01039714493768779,0.003953773020695987,0.9880022511250062
2017-05-25,1,0.000826865251756586,0.000999161492801711,-0.01143676108796952,0.0027597256743831845,0.9876018796061803
2017-05-30,1,0.00033929261328520587,0.0005542512988433965,-0.01143676108796952,0.0027597256743831845,0.9881835087814564
2017-06-01,1,0.0016531636951747119,0.0016716332005820055,-0.01143676108796952,0.0032779082608361677,0.9879181105719558
2017-06-05,1,0.0023438791722338406,0.002415915137670701,-0.009831518873894118,0.003602302417947771,0.9885099009441336
2017-06-07,1,0.0009251668762716996,0.0010599282845060586,-0.009762827211102339,0.003602302417947771,0.9894391739705749
2017-06-09,1,0.0003239482724339247,0.0005545106144253042,-0.009845095716036409,0.003602302417947771,0.9891036953067245
2017-06-13,1,0.0005378173403981268,0.0007361625733288545,-0.010888191810331438,0.0027922534090237877,0.9878563597032086
2017-06-15,-1,-0.0005898747242541855,-0.00024624078193565674,-0.011242815511967395,0.003602302417947771,0.9881776347282389
2017-06-19,1,0.0004127822016515565,0.0005742322394342515,-0.013878977352664943,0.0027922534090237877,0.9866378066712681
2017-06-21,-1,-0.0033796647171624294,-0.0027539134730707243,-0.011242815511967395,0.0027922534090237877,0.9894263330807974
2017-06-23,-1,-0.0036706940467537957,-0.003040508835265278,-0.01536883142889647,0.002331863098404772,0.9885746382741356
2017-06-27,-1,-0.003778079880241887,-0.003138347822020569,-0.017391910206376784,0.0027922534090237877,0.9864035271375522
2017-06-29,-1,-0.0052513667381213665,-0.004325357391927797,-0.017391910206376784,0.002331863098404772,0.9860009025995613
2017-07-03,-1,-0.005095097505081582,-0.00422501227305353,-0.020152119407723032,0.002331863098404772,0.9850262727360451
2017-07-06,-1,-0.004913786304738784,-0.004122357916592705,-0.020152119407723032,0.003999346669534774,0.9840564807274323
2017-07-10,-1,-0.005126441436011879,-0.004340019844922369,-0.020152119407723032,0.0035935296243274173,0.9843641198919344
2017-07-12,-1,-0.005954919011861685,-0.005099944129583266,-0.017637229399315234,0.004126514554284276,0.9850519303462916
2017-07-14,-1,-0.005501300071894883,-0.004740562874728835,-0.020152119407723032,0.0047039185032643,0.9835179767221438
2017-07-18,-1,-0.008529368170686641,-0.0073653244520657715,-0.017637229399315234,0.0047039185032643,0.9852224017116072
2017-07-20,-1,-0.010701848273592348,-0.009284970940576556,-0.01645641048746835,0.0047039185032643,0.9870171293646874
2017-07-24,-1,-0.012586120440189462,-0.010940018222734242,-0.01645641048746835,0.0047039185032643,0.9874024338916918
2017-07-26,-1,-0.01251122417848396,-0.010864464119803343,-0.01645641048746835,0.002141749737187295,0.9889230849853613
2017-07-28,-1,-0.01145890281157761,-0.009881915373618617,-0.01645641048746835,0.0047039185032643,0.9885988827418685
2017-08-01,-1,-0.011310479460091262,-0.00978639337554858,-0.015181993461424733,0.0047954579313888536,0.9887052960253536
2017-08-03,-1,-0.011732088130140905,-0.010137742445183262,-0.012921510975899912,0.006375350793302347,0.9878358975425588
2017-08-07,-1,-0.012690911977170467,-0.010963885077594616,-0.013492873211492697,0.010287713559678972,0.98585152059314
2017-08-09,-1,-0.012930274371092858,-0.01119023381932849,-0.010556926192302692,0.01075847106330593,0.9840392071476827
2017-08-11,-1,-0.013306943107663874,-0.011509353366897741,-0.010556926192302692,0.011679231196845679,0.9826998393153348
2017-08-15,-1,-0.012956310043759339,-0.011257425557657671,-0.008880942172265895,0.012903679329902636,0.9812910610418859
2017-08-17,-1,-0.013323822028715744,-0.01159088197447546,-0.008880942172265895,0.012903679329902636,0.9801418230766412
2017-08-21,-1,-0.012755698422069809,-0.011214642800348477,-0.006461286732254922,0.012903679329902636,0.9789871488263505
2017-08-23,-1,-0.013096485463540137,-0.011596246243548368,-0.002296763044031842,0.015566863493038815,0.9767863530680877
2017-08-25,-1,-0.010427256048019511,-0.009273753348570689,-0.002296763044031842,0.012903679329902636,0.9790753205595396
2017-08-29,-1,-0.009748128075824236,-0.008689475941823168,-0.0036933717669489956,0.012903679329902636,0.9801141378191196
2017-08-31,-1,-0.008107403611512768,-0.007275967816832841,-0.00798489319243811,0.010695862937364624,0.9809537891788853
2017-09-05,-1,-0.008620991804532255,-0.007762807097019572,-0.00798489319243811,0.009750228951581862,0.9818361561397432
2017-09-07,-1,-0.006154283128040567,-0.005658489126829303,-0.00798489319243811,0.01167676436866234,0.9830365119870283
2017-09-11,-1,-0.006437341713792712,-0.005958394102062448,-0.009572051497439995,0.0096115779856481,0.9859581772377057
2017-09-13,-1,-0.004759572495686917,-0.004504542720262761,-0.009572051497439995,0.009288844003851163,0.9862547168328732
2017-09-15,-1,-0.0044752773863360054,-0.00423106206550372,-0.009572051497439995,0.011805510402174141,0.9842495267443789
2017-09-19,-1,-0.004447249229177704,-0.0042829008456219805,-0.009572051497439995,0.014641730255082318,0.9839458377533766
2017-09-21,-1,-0.00226453112604362,-0.0021875657340332945,-0.013266896396650733,0.014641730255082318,0.9836103402007782
2017-09-25,-1,-0.000573323408854528,-0.00023699806219291747,-0.014151350304054277,0.011805510402174141,0.9846297408250767
2017-09-27,-1,-0.0011425424276286361,-0.000907964694651317,-0.014594329351139999,0.012162633976931025,0.9801267757177445
2017-09-29,-1,-0.001181353146397556,-0.0009319408744371281,-0.014594329351139999,0.01352600734984295,0.9801581893190043
2017-10-03,-1,-0.0007997303513936308,-0.00042819273735920796,-0.014594329351139999,0.01352600734984295,0.9795265715208793
2017-10-05,1,0.0009405325981054848,0.0015901374873448666,-0.014594329351139999,0.01773325469763625,0.9789424482731154
