JNU-Tangyin/eata/results/Batch4_SP500/Batch4_SP500-CME.csv
Date,Action,Predicted_Q25,Predicted_Q75,Actual_Q25,Actual_Q75,RL_Reward
2010-12-14,1,0.0,0.004601079407025234,-0.009835616466448392,0.0073478858060889865,0.9919635359611727
2010-12-16,1,0.00749153393640316,0.008537367397411007,-0.008496412506923946,0.0073478858060889865,0.9888142275342637
2010-12-20,1,0.007411929622245579,0.00845847531868695,-0.010203759664130911,0.0063409461397848895,0.9872713914525362
2010-12-22,0,0.0,0.0,-0.010203759664130911,0.0063409461397848895,0.9899434406576233
2010-12-27,0,0.0,0.0,-0.010203759664130911,0.0034315369221257445,0.9901786681564713
2010-12-29,1,0.006121916424302777,0.006856196997834054,-0.010203759664130911,0.00790013573711974,0.9877993610392385
2010-12-31,1,0.0033652387285093227,0.0036795524600338756,-0.01362495313358451,0.009902815598646425,0.988193035912904
2011-01-04,1,0.0017400201461653846,0.0017428524668917512,-0.010203759664130911,0.011044965855353224,0.988133519710165
2011-01-06,1,0.0009999001414621614,0.001100665050597876,-0.010203759664130911,0.011285532027288594,0.9867264833629839
2011-01-10,1,0.0006096559956213022,0.0007765127138681235,-0.008854695347704744,0.010794427519156952,0.9882930304764178
2011-01-12,0,0.0,0.0,-0.008593935645134724,0.010794427519156952,0.9885342141321287
2011-01-14,0,0.0,0.0,-0.008854695347704744,0.009983004322624882,0.9881195553041681
2011-01-19,1,0.9998338208075863,1.0030659306310108,-0.008593935645134724,0.009983004322624882,0.49915150720495965
2011-01-21,-1,-0.0009396448921156395,-0.000463846114141572,-0.008593935645134724,0.011285532027288594,0.9868705080666974
2011-01-25,-1,-0.0009061954934653056,-0.0004924376123057656,-0.00879845844730716,0.011285532027288594,0.9865777217647391
2011-01-27,1,0.000292336292244801,0.0004943899915130814,-0.00879845844730716,0.011285532027288594,0.985560292175253
2011-01-31,-1,-0.0006512227740890603,-0.00029261403377195297,-0.00879845844730716,0.010622052780944469,0.9857897023581628
2011-02-02,1,0.0005621985218011741,0.0007506046343323932,-0.00879845844730716,0.010622052780944469,0.986050085678177
2011-02-04,-1,-0.0008406660709221918,-0.0005214214816358453,-0.00879845844730716,0.008670957673215567,0.9881226026001555
2011-02-08,-1,-0.001211412813422411,-0.0009081862176738658,-0.009545120991095356,0.008670957673215567,0.9879741086557283
2011-02-10,0,-8.990885518213293e-05,5.2159324637586154e-05,-0.011135901851916813,0.005315738275779783,0.9882719968638499
2011-02-14,-1,-0.0014848793677185402,-0.0011283469284461686,-0.012287660039558907,0.005315738275779783,0.9882784161086099
2011-02-16,-1,-0.002193726909708234,-0.0017794162058387846,-0.012287660039558907,0.005920220988339655,0.988421878849747
2011-02-18,-1,-0.001725450745833071,-0.0013264498419504295,-0.012287660039558907,0.005920220988339655,0.9890857163523771
2011-02-23,0,0.0,0.0,-0.012287660039558907,0.011234570116507475,0.9875215530384727
2011-02-25,0,0.0,0.0,-0.012287660039558907,-5.218488506586352e-05,0.9889889365358752
2011-03-01,0,0.0,0.0,-0.011135901851916813,0.004640993625879237,0.9896178060804963
2011-03-03,-1,-0.0024580557247525494,-0.0018936657067149198,-0.011135901851916813,0.004640993625879237,0.9903568240160383
2011-03-07,-1,-0.002020764324257484,-0.0016203839350746293,-0.009166161772850737,0.008650970164686883,0.9900103469237537
2011-03-09,-1,-0.0024283702430497297,-0.0019963298264986957,-0.0062576778590375855,0.00982372096961314,0.9896916089668618
2011-03-11,0,0.0,0.0,-0.0062576778590375855,0.00982372096961314,0.9898363885843657
2011-03-15,0,0.0,0.0,-0.005057584755979154,0.00982372096961314,0.990859617405846
2011-03-17,0,0.0,0.0,-0.004559011908643634,0.00921803882621604,0.9924070547934746
2011-03-21,-1,-0.0026845419584163996,-0.0021913292350822728,-0.0047417963471364745,0.008650970164686883,0.9925002751192524
2011-03-23,-1,-0.0004662884986573831,-0.0003004185255051406,-0.005767456437147985,0.008650970164686883,0.9927145468916888
2011-03-25,-1,-0.0021026887408783466,-0.0017538653150792293,-0.005767456437147985,0.008650970164686883,0.9926964880481777
2011-03-29,-1,-0.001529739953648164,-0.0012666458278361237,-0.005767456437147985,0.00921803882621604,0.992584591612031
2011-03-31,-1,-0.0009630755593209944,-0.0007877644530537061,-0.0077581049277284835,0.005372563757248568,0.9915500716476402
2011-04-04,-1,-0.0008739643497088643,-0.0006969718649068661,-0.008192259190275896,0.0042755565407555755,0.9910793562044017
2011-04-06,-1,-0.0003719343589058818,-0.00025298336520327824,-0.008852097629672331,0.0032549910381742906,0.9906205478498964
2011-04-08,-1,-0.0012251185253168745,-0.0009788637686939119,-0.008392373894364737,0.005927017176737061,0.9897374614717044
2011-04-12,-1,-0.0012914106964387576,-0.0010677958113318184,-0.008392373894364737,0.010190589862266428,0.9892984015912031
2011-04-14,-1,-0.0006834933684716706,-0.0005366944886202295,-0.00984432992611918,0.00630557638384469,0.9892923831637845
2011-04-18,-1,-0.0020804986399720485,-0.00168752758238128,-0.01077196004454131,0.011426891782673318,0.9890209753840217
2011-04-20,-1,-0.0005187184355022851,-0.0003609980841304994,-0.01077196004454131,0.008332134538746601,0.9895955871997127
2011-04-25,-1,-0.0012478414420983826,-0.0009979654081366438,-0.01077196004454131,0.008332134538746601,0.9894689237016602
2011-04-27,1,0.0008634425877963791,0.0010192500326415283,-0.01367244351170549,0.006914154291209975,0.9883009941852461
2011-04-29,-1,-0.0008929057577879561,-0.0008110398911913889,-0.01077196004454131,0.006914154291209975,0.9903323951443143
2011-05-03,-1,-0.0005629268998559445,-0.0005509848120088392,-0.01077196004454131,0.007804997074900636,0.9895561266441254
2011-05-05,-1,-0.0011360518330354363,-0.0010772926128610597,-0.01077196004454131,0.007804997074900636,0.98928584195619
2011-05-09,1,5.476963576549692e-05,0.00014496196239495603,-0.011539850713706477,0.003474952030192841,0.9895897812556771
2011-05-11,1,0.0001328763710990917,0.0002404453730813985,-0.013339853758578617,0.003474952030192841,0.9890496702513912
2011-05-13,-1,-8.597822517175622e-05,-2.122371436637623e-05,-0.013339853758578617,0.007397278130822424,0.9886796966358595
2011-05-17,1,0.00028026148669695,0.0004266894980187401,-0.013395959474971466,0.007397278130822424,0.988698871643962
2011-05-19,1,0.0007348726478472575,0.0009378440081033491,-0.013395959474971466,0.009449875420335783,0.9881182550257847
2011-05-23,1,0.0002932314505180391,0.0004313585721172569,-0.013395959474971466,0.010209566063453848,0.988055839849677
2011-05-25,-1,-0.0006584777874673175,-0.0006578792435881309,-0.009004559961342116,0.010209566063453848,0.9888919164649174
2011-05-27,-1,-0.0011673603270196094,-0.0010883760167884567,-0.008518714481022443,0.010209566063453848,0.9889130077608214
2011-06-01,-1,-0.0016117110902763667,-0.0014838905785253985,-0.005666634813752422,0.01141345011038506,0.9892451976194897
2011-06-03,0,0.0,0.0,-0.0017592167646146859,0.013954600490830978,0.9895207507880394
2011-06-07,0,0.0,0.0,-0.0003454825472307393,0.013954600490830978,0.990557289079279
2011-06-09,0,0.0,0.0,-0.0003454825472307393,0.01278290082300969,0.9908236038697646
2011-06-13,0,0.0,0.0,-0.002193033384334426,0.011025534024016959,0.9903392427751617
2011-06-15,0,0.0,0.0,-0.0008130244662811495,0.011025534024016959,0.9913822206975235
2011-06-17,-1,-0.0004186723074744457,-0.0003875810316067409,-0.002193033384334426,0.010657611368213414,0.9908630929240299
2011-06-21,0,0.0,0.0,-0.005666634813752422,0.010657611368213414,0.9905717435358193
2011-06-23,0,0.0,0.0,-0.0017480381152690822,0.010657611368213414,0.99079643209999
2011-06-27,0,0.0,0.0,-0.003252168976436323,0.010657611368213414,0.9908743873285566
2011-06-29,0,0.0,0.0,-0.0059589803001373325,0.009412110948448212,0.9900199018283581
2011-07-01,0,0.0,0.0,-0.006922104788001138,0.007188981708874223,0.990331988600395
2011-07-06,0,0.0,0.0,-0.013861452768741036,0.007188981708874223,0.9890316514622901
2011-07-08,0,0.0,0.0,-0.015680757419129977,0.007692709430533955,0.9870189743126689
2011-07-12,0,0.0,0.0,-0.015680757419129977,0.0112264309693473,0.9809387931707596
2011-07-14,1,0.0004124548300407973,0.0004997471005818578,-0.022499495034504383,0.012687952833403886,0.9727364539634634
2011-07-18,-1,-0.0004656964392012108,-0.00041715988663634053,-0.015885829183472998,0.015479361647032775,0.9729681926983499
2011-07-20,1,0.00039627588133942,0.0005653513815278316,-0.01700367437405651,0.015479361647032775,0.9729241068388149
2011-07-22,1,8.03935218409048e-06,7.158510836191638e-05,-0.023920003899635778,0.015479361647032775,0.9701270074337496
2011-07-26,1,0.000151368439221983,0.00023908519081645898,-0.023920003899635778,0.01893884816050872,0.9677215749266118
2011-07-28,-1,-6.614353005971718e-05,-2.5780504110228632e-05,-0.02722504130103577,0.015479361647032775,0.9676593489518266
2011-08-01,1,0.000218089818304545,0.0002818544963163021,-0.02722504130103577,0.01952683043233637,0.9654503955633594
2011-08-03,0,0.0,0.0,-0.01869812463125182,0.01952683043233637,0.9661754355336913
2011-08-05,-1,-0.0018077010912037352,-0.0015697680963059192,-0.017728893137425865,0.01952683043233637,0.9678585102356259
2011-08-09,-1,-0.0007619509094628284,-0.0006590114470347299,-0.015003511819197119,0.01952683043233637,0.9724089332613237
2011-08-11,-1,-0.001175872928034909,-0.0010464408245821253,-0.015003511819197119,0.015273022417588131,0.9790027623234169
2011-08-15,-1,-0.0008403174129559944,-0.0008080091118724835,-0.015003511819197119,0.016487279006641205,0.9786803868503444
2011-08-17,-1,-0.0021200170801630876,-0.0018988394243170089,-0.01477770422555072,0.017299113719306706,0.9782558808556612
2011-08-19,0,0.0,0.0,-0.011206283303764164,0.017299113719306706,0.9806282406187401
2011-08-23,-1,-0.0010145520339488625,-0.0009588386620164354,-0.016721258716748656,0.016487279006641205,0.9817964083607544
2011-08-25,-1,-0.002107218076231113,-0.001935687027512041,-0.011206283303764164,0.016487279006641205,0.9835556151529856
2011-08-29,1,0.0006748567308596391,0.0008832977067957714,-0.011206283303764164,0.010323399640918935,0.9857152607133934
2011-08-31,1,0.00032584976750087163,0.00046387165380973517,-0.016721258716748656,0.01252667382598331,0.9842089357702355
2011-09-02,-1,-0.0005455779911001633,-0.0005337342305991261,-0.016721258716748656,0.01252667382598331,0.9832753259609442
2011-09-07,1,0.0008715132864994229,0.0011031305839044976,-0.012813481912416954,0.014641722301370974,0.9848681137758275
2011-09-09,-1,-0.000667032859419537,-0.0006447144778399561,-0.011424108176267912,0.0157422715049131,0.9821480219681518
2011-09-13,1,0.0010027744445729686,0.001296333151472409,-0.021918533120768843,0.014641722301370974,0.9801507082613707
2011-09-15,1,0.0014695658431016342,0.0017901805180139739,-0.021918533120768843,0.012020433796174804,0.9802385258309025
2011-09-19,1,0.0011315203245974292,0.0014396338648325958,-0.022423755205028165,0.013564727232545273,0.9796174200436141
2011-09-21,-1,-0.0005669824609885163,-0.000566680911800038,-0.015800510735135182,0.014641722301370974,0.979029735067116
2011-09-23,-1,-0.0005354462061278494,-0.0005286051015129655,-0.015800510735135182,0.01562292727338382,0.9779901659905132
2011-09-27,-1,-0.0003719845660842032,-0.0003564121768601791,-0.026396404736113308,0.015619794701151598,0.9768934595794416
2011-09-29,1,0.00016658605992598587,0.0002841054289270681,-0.015800510735135182,0.016756012844348456,0.9757220992170874
2011-10-03,-1,-0.0008002268618153912,-0.0007877737279334061,-0.013498184331250008,0.016756012844348456,0.9764742607896905
2011-10-05,1,9.721372541467621e-05,0.00018591943172478764,-0.01815947798033607,0.021284008945902017,0.972686221321647
2011-10-07,-1,-0.000379276055003527,-0.00035428780714963755,-0.013498184331250008,0.021284008945902017,0.9745216128367054
2011-10-11,1,0.0003585769521873752,0.0005124100494645174,-0.010964643141240434,0.016756012844348456,0.9774120715152776
2011-10-13,1,0.00012089449642076238,0.00021703686886627335,-0.017244835483517802,0.016756012844348456,0.9750946128314926
2011-10-17,-1,-0.0006658722614340236,-0.0006184170618470763,-0.017244835483517802,0.016756012844348456,0.9750047208702524
2011-10-19,0,0.0,0.0,-0.02145296586986851,0.015882753190924394,0.9738664301413552
2011-10-21,0,0.0,0.0,-0.02145296586986851,0.016746615127651784,0.9723988418994195
2011-10-25,0,0.0,0.0,-0.02145296586986851,0.01530578918529999,0.9733699011686305
2011-10-27,0,0.0,0.0,-0.02145296586986851,0.01347940786735365,0.9761641813228125
2011-10-31,0,0.0,0.0,-0.021820817645275783,0.01391054210898405,0.9749542916765229
2011-11-02,0,0.0,0.0,-0.02145296586986851,0.01391054210898405,0.9784124118745576
2011-11-04,1,0.00047211056140991094,0.0005463916648777594,-0.02145296586986851,0.01347940786735365,0.979109753751981
2011-11-08,1,0.0013457112912621128,0.0015615156825935232,-0.02145296586986851,0.01326523804653753,0.9793053963221259
2011-11-10,1,0.0005106524859748575,0.0006392807907733378,-0.017832408920403598,0.01356288437606559,0.9805596561200435
2011-11-14,0,-5.3578661364454204e-05,5.113841349325444e-07,-0.0170209418631702,0.01348709516321082,0.9809423228589962
2011-11-16,-1,-0.0029103760670814507,-0.0026411327674866316,-0.013878505076751653,0.01348709516321082,0.9840847116502742
2011-11-18,-1,-0.0005063833925199907,-0.000421914560154628,-0.011875791297358688,0.012438366784873407,0.9859100314845587
2011-11-22,0,0.0,0.0,-0.011875791297358688,0.01348709516321082,0.9848925168511983
2011-11-25,0,0.0,0.0,-0.011875791297358688,0.015001430831502568,0.9844219706149829
2011-11-29,0,0.0,0.0,-0.010432431433378705,0.01348709516321082,0.9862354010666158
2011-12-01,0,0.0,0.0,-0.010432431433378705,0.012438366784873407,0.9874596056206424
2011-12-05,0,0.0,0.0,-0.010432431433378705,0.011576733027305134,0.9876043305794376
2011-12-07,0,0.0,0.0,-0.012690862271230252,0.008877370103626065,0.9870743212804535
2011-12-09,0,0.0,0.0,-0.012690862271230252,0.003964086857305059,0.9880669672242518
2011-12-13,0,0.0,0.0,-0.010139220372310066,0.008877370103626065,0.9875758702283557
2011-12-15,0,0.0,0.0,-0.012807472184961697,0.008877370103626065,0.9866663887925947
2011-12-19,0,0.0,0.0,-0.012807472184961697,0.012352384738253867,0.985491580283378
2011-12-21,0,0.0,0.0,-0.010139220372310066,0.010201047586756735,0.9872858974097137
2011-12-23,0,0.0,0.0,-0.010139220372310066,0.008994665635197014,0.9875561257473946
2011-12-28,0,0.0,0.0,-0.0076214555285487985,0.008994665635197014,0.9878952210646924
2011-12-30,0,0.0,0.0,-0.0076214555285487985,0.008213566838712497,0.9885011396998081
2012-01-04,-1,-0.001978027455655672,-0.0017697361865076137,-0.006757387561559386,0.011174842973482388,0.9846316020372536
2012-01-06,-1,-0.0027451733171224286,-0.0023330220639023926,-0.004240693965799345,0.016720746011488975,0.983908704025114
2012-01-10,-1,-0.004501225695731288,-0.0038431125826359804,-0.0024445543740666694,0.022027727321456154,0.9822785403260927
2012-01-12,-1,-0.004450353378249377,-0.0036926064522913396,-0.0024445543740666694,0.022027727321456154,0.982592031561122
2012-01-17,-1,-0.0026499594445945542,-0.0023103285750340494,-0.002390353119458729,0.022027727321456154,0.9845836627324747
2012-01-19,-1,-0.002334525653428422,-0.0019254091547925359,-0.002390353119458729,0.019159874206781037,0.9855997278176464
2012-01-23,-1,-0.0007728850786142594,-0.000694356450569133,-0.003490640435323715,0.019159874206781037,0.9858278446657426
2012-01-25,-1,-0.001383270938166765,-0.0011877824616018948,-0.00401267080803097,0.019159874206781037,0.9857139330819268
2012-01-27,1,5.325217172533333e-05,7.812919259966438e-05,-0.00401267080803097,0.019159874206781037,0.9856452673742312
2012-01-31,-1,-0.00020903481889587722,-0.00020084177725512942,-0.0046513617768577185,0.019159874206781037,0.9854773531997126
2012-02-02,1,0.002885709265390361,0.003196273702011319,-0.0046513617768577185,0.008342199626255377,0.9907611368136885
2012-02-06,1,0.0036097547830732444,0.0040937358272100585,-0.0058997481735179845,0.002868565579796965,0.9889415498716437
2012-02-08,1,0.004710561354002451,0.005406873759503598,-0.0058997481735179845,0.0025351228117894424,0.9894170568246946
2012-02-10,0,0.0,0.0,-0.007221579761904603,0.002093908272886528,0.9919303198797164
2012-02-14,0,0.0,0.0,-0.007221579761904603,0.0035664737798631555,0.991050161592985
2012-02-16,0,0.0,0.0,-0.007221579761904603,0.005361090884257249,0.9897353298615963
2012-02-21,0,0.0,0.0,-0.005041948804189601,0.01053900190152203,0.9898273477795574
2012-02-23,0,0.0,0.0,-0.005610229822085409,0.01053900190152203,0.9895810177224217
2012-02-27,0,0.0,0.0,-0.000996642211093287,0.01053900190152203,0.9897962249846403
2012-02-29,0,0.0,0.0,-0.010205669537148347,0.01053900190152203,0.9890345743175886
2012-03-02,0,0.0,0.0,-0.010205669537148347,0.01053900190152203,0.9888191803791054
2012-03-06,0,0.0,0.0,-0.005310261356001763,0.01053900190152203,0.9905372748971415
2012-03-08,0,0.0,0.0,-0.008090066816464545,0.01053900190152203,0.9901053244482547
2012-03-12,1,0.002239230694084084,0.0024599578027615678,-0.00919208185179999,0.01053900190152203,0.9904604295985372
2012-03-14,1,0.0016301830517559774,0.0018438836969682454,-0.00919208185179999,0.008218570721421707,0.990699897814981
2012-03-16,0,0.0,0.0,-0.0097067076732491,0.00611388277507462,0.9916084470632823
2012-03-20,0,0.0,0.0,-0.0097067076732491,0.005775568008204137,0.9920375259685105
2012-03-22,0,0.0,0.0,-0.010101769018704203,0.0020866389747824753,0.9922928695560957
2012-03-26,0,0.0,0.0,-0.010101769018704203,-8.317191823148536e-05,0.99228856580419
2012-03-28,0,0.0,0.0,-0.007926298498853108,0.0026352365107677046,0.9931925779133912
2012-03-30,0,0.0,0.0,-0.00957484339545709,0.0026352365107677046,0.9919480396750893
2012-04-03,0,0.0,0.0,-0.009993225609526991,0.0026352365107677046,0.9913100252411708
2012-04-05,1,0.0032015419665742326,0.0035536957842601438,-0.012491232303001957,0.0026352365107677046,0.989564741654844
2012-04-10,1,0.0022784254595282554,0.0024852465431320723,-0.012194844843204062,0.00331154294142551,0.9904418668684575
2012-04-12,1,0.0017160510725690032,0.0017311673176633748,-0.012194844843204062,0.00331154294142551,0.9905320623467905
2012-04-16,1,0.001485863767793885,0.001535188553095557,-0.010812643656018174,0.0040252882063430044,0.991146714170133
2012-04-18,1,0.0001267203927651341,0.0003186364870869933,-0.010812643656018174,0.0040252882063430044,0.9911160735093008
2012-04-20,-1,-0.0009613023745854781,-0.0006184099046119328,-0.010812643656018174,0.005062087588412742,0.9906998798997549
2012-04-24,-1,-0.0010945722762426492,-0.0007399521100951002,-0.01128860995698099,0.006255712442446978,0.9886677191784717
2012-04-26,1,9.455983457896738e-05,0.00024001754314997907,-0.012836533993556793,0.007340309807917347,0.9875788784747067
2012-04-30,-1,-0.0014205689956808677,-0.0010842681066341058,-0.01128860995698099,0.009836196573283808,0.9875868808508534
2012-05-02,-1,-0.001397550144511755,-0.0011040003736523724,-0.011681777296359523,0.007545981800786271,0.9879539969242844
2012-05-04,-1,-0.002807126885258723,-0.002302367688550991,-0.011092788160976221,0.010846799136411366,0.9884839547700164
2012-05-08,-1,-0.00357342013658329,-0.0029215593246657632,-0.010943699435811017,0.01270729329623809,0.9873761512013254
2012-05-10,-1,-0.0033792466514752715,-0.0027249580313503533,-0.010943699435811017,0.015407441274474614,0.9872426260269535
2012-05-14,-1,-0.003437803831292054,-0.0027964576281363732,-0.010635560516266244,0.015407441274474614,0.9870060833567019
2012-05-16,-1,-0.0043447461497566515,-0.0035838661751583256,-0.011681777296359523,0.015407441274474614,0.9862773771611605
2012-05-18,-1,-0.0035954484832226553,-0.0029651115832193477,-0.010635560516266244,0.016131701898782616,0.9858699576572341
2012-05-22,-1,-0.004423527049230675,-0.0036534570967056397,-0.009795931220454792,0.014928033837008563,0.9875402666226313
2012-05-24,-1,-0.004281234701796335,-0.003535479652891966,-0.009795931220454792,0.014928033837008563,0.9876660601517638
2012-05-29,-1,-0.003519573326580446,-0.002831899420430547,-0.010635560516266244,0.009413542718325006,0.9883404201480491
2012-05-31,-1,-0.005395402201570983,-0.004434027268480081,-0.009795931220454792,0.009413542718325006,0.9880684872959172
2012-06-04,-1,-0.005611573074377849,-0.004561582031864285,-0.009795931220454792,0.012139102063931907,0.98744319598364
2012-06-06,-1,-0.0038262356463231615,-0.003037133963901757,-0.011015541285708454,0.008645494134329327,0.9890357669320939
2012-06-08,-1,-0.004118980126356586,-0.0032390910622916214,-0.010459376984593172,0.007425852112841881,0.9902385610041746
2012-06-12,-1,-0.002826194921498146,-0.002176848088502553,-0.012238280661691067,0.0052493078118154395,0.9903261203991012
2012-06-14,-1,-0.0033688663069787513,-0.002655890112797446,-0.010203511012448997,0.008076280402150577,0.9902874773252321
2012-06-18,-1,-0.001654898437239449,-0.0011705846134729206,-0.010203511012448997,0.0032899560775271524,0.9916882698407566
2012-06-20,-1,-0.0028567883474712157,-0.002220080410237367,-0.011991886841356896,0.0032899560775271524,0.9918101011473193
2012-06-22,-1,-0.003984448737784392,-0.0031938587352262674,-0.011991886841356896,0.0032899560775271524,0.9923616358897319
2012-06-26,-1,-0.0014725720222454688,-0.0012193293518484285,-0.0076907152508783865,0.002877314356146767,0.992969844441472
2012-06-28,-1,-0.001446336679161205,-0.0012465113716028397,-0.005720474634784393,0.0033474433138354796,0.9923377411812693
2012-07-02,1,0.0005888186634939752,0.0007161961774755356,-0.005720474634784393,0.002481529842190241,0.9931494399586122
2012-07-05,1,9.41352602747272e-06,0.00011964398094482554,-0.0076907152508783865,0.002481529842190241,0.9921842414799584
2012-07-09,-1,-0.0004358044728126217,-0.0004044618175920365,-0.0070812445140484405,0.0033474433138354796,0.9905988064849276
2012-07-11,-1,-0.00023193457572602094,-0.00012161168760154361,-0.004372188275071591,0.005788388171065842,0.990263535655341
2012-07-13,0,-7.449580723344748e-05,7.278038244384812e-06,-0.004372188275071591,0.004845093406451454,0.9903425432451077
2012-07-17,1,0.00025424790258483763,0.0004026196276184334,-0.007090716665858444,0.004845093406451454,0.9896986425141854
2012-07-19,-1,-0.0002917303742202581,-0.00023223807058218938,-0.004372188275071591,0.011873087710892549,0.9895346218091702
2012-07-23,-1,-0.0007911817540764127,-0.0007822981351500005,-0.0025678467758679146,0.01277620466339556,0.9896287065892883
2012-07-25,-1,-0.0006062585724519826,-0.000580094641653196,-0.0037171852761515435,0.01277620466339556,0.9895266957798949
2012-07-27,-1,-0.0007762564039788503,-0.000677363245405042,-0.004037373396666211,0.010877007832608202,0.9903145671563456
2012-07-31,-1,-0.0008772723950722446,-0.0007852472243726035,-0.00269032908535678,0.010877007832608202,0.9902031494368289
2012-08-02,-1,-0.0032746239857148517,-0.002854398986949002,-0.0017778495367267886,0.010877007832608202,0.9906379043318365
2012-08-06,-1,-0.0005182888790531468,-0.00047846965126913625,-0.0017778495367267886,0.007420497098404367,0.993248640289092
2012-08-08,1,0.0010206144033017182,0.0012748428299926794,-0.0009796739063816775,0.007420497098404367,0.9939307284319725
2012-08-10,1,0.0019144507529550894,0.002332801719121715,-0.0009796739063816775,0.007420497098404367,0.9927488538876026
2012-08-14,1,0.0012766267408384387,0.0016268081437625008,-0.0001279593029537381,0.007420497098404367,0.9934403705350764
2012-08-16,1,0.0023178180788814354,0.0028265319074129843,-0.0005704841572911842,0.007217187772354214,0.9936359784389344
2012-08-20,1,0.002040839385835582,0.0024585212542734686,-0.0012814954760897847,0.00713397901229402,0.993616848862279
2012-08-22,1,0.0019410644499568146,0.0023404958973932116,-0.0011055546396610894,0.00713397901229402,0.9933708216194841
2012-08-24,1,0.0020224300119547037,0.002427912220502215,-0.0011203185753160885,0.00713397901229402,0.9935459782027862
2012-08-28,1,0.00222547791498119,0.0026582382611453383,-0.0021443436626117853,0.00713397901229402,0.9930405947108085
2012-08-30,1,0.002199517906033048,0.002583608420835595,-0.002158966897534041,0.006262799087655119,0.9930698628232296
2012-09-04,1,0.0032267195918649705,0.0038000097650476867,-0.002994155861669604,0.004082906015021048,0.9927961877592146
2012-09-06,1,0.003465320410483729,0.004005385022930498,-0.002994155861669604,0.004082906015021048,0.9932045801138208
2012-09-10,1,0.004593020266411358,0.005267256730297464,-0.002994155861669604,0.0022715445036442495,0.9937065211824753
2012-09-12,1,0.004188540449438043,0.00475530649462977,-0.0038497735003673777,0.0006551315894114962,0.9932759002645898
2012-09-14,1,0.00400901724397042,0.004550130884444659,-0.004146103973651836,-8.655269498194718e-05,0.9931937474284229
2012-09-18,1,0.0038441875949078224,0.00438093092367932,-0.003415279501508066,0.0022715445036442495,0.9936502679005359
2012-09-20,1,0.002989257036908711,0.003336288463572529,-0.003415279501508066,0.0022715445036442495,0.9944593847750031
2012-09-24,1,0.002540381701354004,0.0027970784226746303,-0.0037769685998596462,0.002558678434934691,0.993986803978644
2012-09-26,1,0.0017302484266209196,0.0018315689461611616,-0.003415279501508066,0.0021907313722217265,0.994804675621734
2012-09-28,1,0.0015458808861796099,0.0016238073709520255,-0.0037769685998596462,0.003597821918595102,0.9933385843738756
2012-10-02,1,0.0014847843378097507,0.0015838746881217428,-0.0037769685998596462,0.007742312971821865,0.9929015423634079
2012-10-04,1,0.0016613539679472217,0.0017653416440753568,-0.0044730912833334385,0.007656884772536173,0.9922570666827448
2012-10-08,1,0.0011323757929777376,0.001140929799909221,-0.006827329087104369,0.007656884772536173,0.991542422849276
2012-10-10,1,0.0007792453548511979,0.0008199797469348297,-0.009120129855309238,0.007656884772536173,0.9909438453153664
2012-10-12,1,3.219208717201012e-05,0.0001758077347758871,-0.009120129855309238,0.007656884772536173,0.9911115595585567
2012-10-16,1,0.0008893100807582248,0.0009275574084046804,-0.009120129855309238,0.0071273514089979844,0.9911426340059823
2012-10-18,1,0.0014656443750765218,0.0015584077484855552,-0.009120129855309238,0.004981751958267794,0.9914344901775023
2012-10-22,1,0.00011887480615822203,0.00025084925361545837,-0.007478142810499385,0.004981751958267794,0.9922680584678369
2012-10-24,1,0.0002602882403391898,0.00034814136456401754,-0.007478142810499385,0.007656884772536173,0.9917285789829091
2012-10-26,1,0.00017355018043735426,0.0002098290280317142,-0.007478142810499385,0.008089534252067487,0.9919798016617609
2012-11-01,1,0.001147613199784887,0.0012674435743349655,-0.007478142810499385,0.004211102855994055,0.9927559674472434
2012-11-05,1,0.0011094260490238082,0.0012432249357366288,-0.007478142810499385,0.004211102855994055,0.9927203243963977
2012-11-07,1,0.00038571690738055874,0.0003988326277517717,-0.007097984010170536,0.004772271840052351,0.9931625337130486
2012-11-09,1,0.00030192954418249387,0.00039599026281748813,-0.004083396405953924,0.004772271840052351,0.9934416577968486
2012-11-13,-1,-0.00048248084037842134,-0.0004230367092509734,-0.004188353786603238,0.004772271840052351,0.992454798665244
2012-11-15,-1,-0.0007076718564112325,-0.0005866700739686982,-0.006429015868360112,0.004042181796537613,0.9917885131988423
2012-11-19,-1,-0.0006936479229915388,-0.0005579266448765808,-0.006429015868360112,0.005487204149495456,0.9910093963671047
2012-11-21,-1,-0.0010354652870316569,-0.0008329368872261779,-0.016420544024276253,0.005487204149495456,0.9899175904209044
2012-11-26,1,0.0003806964029921529,0.00040260046823163405,-0.016420544024276253,0.004772271840052351,0.990087919552616
2012-11-28,-1,-0.0005988894026681098,-0.00043644550921335485,-0.01372422380197205,0.004286705111540838,0.9910794666743135
2012-11-30,-1,-0.0009125635226322434,-0.0006903572261953571,-0.01372422380197205,0.004505243016227917,0.9907552643184128
2012-12-04,-1,-0.0016579108750526417,-0.00133019896882142,-0.009121468493257616,0.0046301761357790535,0.9909284489791423
2012-12-06,-1,-0.0008964389185425899,-0.0006857579849132279,-0.009121468493257616,0.005068273578721801,0.9889529378944591
2012-12-10,-1,-0.0017633301166089725,-0.0014549630005243766,-0.00866887799681322,0.005068273578721801,0.9892825900379669
2012-12-12,-1,-0.0030962896479821275,-0.0026080519665274493,-0.005875957332548063,0.009270073223552527,0.9887493435542211
2012-12-14,-1,-0.0043380622986770485,-0.0036781045930112206,-0.00472784664869502,0.009270073223552527,0.9889168417814214
2012-12-18,-1,-0.003421030691489145,-0.0028679413157813574,-0.00472784664869502,0.009270073223552527,0.9896692343195062
2012-12-20,-1,-0.003975217529511204,-0.003399425778121951,-0.0023224359672794773,0.011378614587904538,0.9894315702298212
2012-12-24,-1,-0.004354737610123413,-0.003717817511368334,-0.000960598129942746,0.011378614587904538,0.9889909312944847
2012-12-27,-1,-0.0058059912787550225,-0.0049136317909649705,9.705970076060344e-05,0.011378614587904538,0.9874612023572864
2012-12-31,-1,-0.004366774574532725,-0.0037365977650799685,0.0007751707873844779,0.009675039591551485,0.9884510063162284
2013-01-03,-1,-0.0032773622866253843,-0.002804002972813182,9.705970076060344e-05,0.009675039591551485,0.989152727907026
2013-01-07,-1,-0.0013863139876180057,-0.0011606974595415574,9.705970076060344e-05,0.009675039591551485,0.9912689329856186
2013-01-09,-1,-0.0020321343260342618,-0.0017021540276918649,0.0007751707873844779,0.009675039591551485,0.9892159657671746
2013-01-11,-1,-0.0007500203157454872,-0.000606060133245634,9.705970076060344e-05,0.007550796601530005,0.9905188060794048
2013-01-15,-1,-0.00027464721417018873,-0.00019108444601050585,9.705970076060344e-05,0.007390270231923116,0.9910884184637199
2013-01-17,1,9.854029402263929e-05,0.0001428573881691236,9.705970076060344e-05,0.007390270231923116,0.9908309379908677
2013-01-22,1,0.0007829554465003213,0.0008236907133118029,-0.0017243420206226223,0.007336307866166118,0.9909520223183439
2013-01-24,1,0.0010499279891335858,0.0011317363331531482,-0.005097396668389484,0.007336307866166118,0.9906297943723772
2013-01-28,0,0.0,0.0,-0.006176145110150004,0.008504703117638419,0.989203011173311
2013-01-30,0,0.0,0.0,-0.006176145110150004,0.01284196769404641,0.9884451235360394
2013-02-01,0,0.0,0.0,-0.006176145110150004,0.01284196769404641,0.9887067116225611
2013-02-05,0,0.0,0.0,-0.005857769034387841,0.01206111757086247,0.9891874203730423
2013-02-07,0,0.0,0.0,-0.00484439279049052,0.01206111757086247,0.9906572745409378
2013-02-11,0,0.0,0.0,-0.002207294156673324,0.01206111757086247,0.991000452817251
2013-02-13,0,0.0,0.0,-0.002207294156673324,0.01206111757086247,0.9908293261147272
2013-02-15,0,0.0,0.0,-0.00484439279049052,0.010405077594132884,0.9914264106199315
2013-02-20,0,0.0,0.0,-0.00484439279049052,0.01206111757086247,0.9907170823496781
2013-02-22,0,0.0,0.0,-0.00484439279049052,0.011573165199508795,0.990217322266736
2013-02-26,0,0.0,0.0,-0.0047253788815569825,0.010242426803681658,0.9912035980965597
2013-02-28,0,0.0,0.0,-0.0035655017088161755,0.009188304971790224,0.9921575653354113
2013-03-04,1,0.005670022023737067,0.006346894634114927,-0.0053705493008922535,0.006863626647687825,0.9914479709920722
2013-03-06,1,0.006416134806646495,0.007177873729277029,-0.0060161382047186325,0.004109023140554638,0.9902071244885599
2013-03-08,1,0.006172749364147242,0.006879226582488124,-0.008079517099533197,0.004109023140554638,0.989920477779453
2013-03-12,1,0.005862929366499608,0.0065033782340007005,-0.008079517099533197,0.004353518319082707,0.9899508480954461
2013-03-14,1,0.006289638607985468,0.007023176095250258,-0.008079517099533197,0.004353518319082707,0.9894131381983393
2013-03-18,1,0.005855846973356637,0.006524925058325161,-0.008172452853980968,0.005670292475650811,0.9888626940793812
2013-03-20,1,0.004980321056457019,0.005487003293766648,-0.008172452853980968,0.004353518319082707,0.9898063393864609
2013-03-22,1,0.004700507054780714,0.005203949570458833,-0.0060161382047186325,0.005354199048422529,0.9904522885873653
2013-03-26,1,0.003949127955267894,0.004256940638492656,-0.007179668407714573,0.005934260923131207,0.9906489901549936
2013-03-28,1,0.0039535168503984,0.004296050640516131,-0.007179668407714573,0.008517008381050312,0.9902817421619955
2013-04-02,1,0.002994999876957323,0.003214162298375145,-0.005566522805079218,0.008517008381050312,0.9911428763893334
2013-04-04,1,0.0027060354687012964,0.0028677505728261464,-0.005566522805079218,0.008517008381050312,0.9911217887744184
2013-04-08,1,0.002012228416757321,0.0020486687227822768,-0.0048848562682776205,0.006008008645015554,0.9920139128324877
2013-04-10,1,0.0016646537606850172,0.0016898506483623908,-0.005566522805079218,0.006008008645015554,0.991891881128555
2013-04-12,1,0.0017258852955324394,0.0017414762029639547,-0.004936993072167667,0.006008008645015554,0.9912275237973637
2013-04-16,1,0.0010818595749917345,0.0011663282771434784,-0.003619113840941915,0.006248866832966646,0.9922802688000165
2013-04-18,1,0.00025304550859107065,0.00044003599041114044,0.0008235053864310614,0.006248866832966646,0.9925168166615195
2013-04-22,1,0.0016722913462212268,0.001675071306752719,0.0008235053864310614,0.005357325938063759,0.9936367286265125
2013-04-24,1,0.0011703877087805219,0.001239864657580328,-0.0008184891552474351,0.005357325938063759,0.9923719015661567
2013-04-26,1,0.001514207796470644,0.0015395765167384601,0.0008235053864310614,0.005796968359867273,0.992320521317379
2013-04-30,1,0.0012197493026178917,0.001313595983350724,0.0012829052433599444,0.013679385646781313,0.9901372001595401
2013-05-02,1,0.0009631810597304646,0.0010399819016648766,0.0012829052433599444,0.014655994770639311,0.9879451433379215
2013-05-06,1,0.0008411856258608053,0.0009912121356288879,0.0012829052433599444,0.014655994770639311,0.9874835529376833
2013-05-08,0,-0.00015834325552473486,0.0001297739708443987,0.0012829052433599444,0.014655994770639311,0.987229000386588
2013-05-10,1,0.000605698793914023,0.000894347298806773,0.0014295346895134057,0.014655994770639311,0.9862754189008247
2013-05-14,1,0.001579268585686652,0.0017013684458984939,-0.0024028341522638443,0.014655994770639311,0.9868326895886234
2013-05-16,1,0.0005913358335085147,0.0008503106796230064,-0.0024028341522638443,0.015241300718897345,0.9856167950310968
2013-05-20,1,0.0008499943609149635,0.0011037983068532546,-0.0024028341522638443,0.019038330151964305,0.9845542358799185
2013-05-22,0,-0.0003915982190507068,2.984282329838257e-05,0.0007043797427718048,0.019038330151964305,0.9842315559063942
2013-05-24,1,0.000310628747834218,0.0006452931399161788,-0.004181789742061048,0.01759047811572262,0.9849274435274287
2013-05-29,1,0.0022711598714293506,0.002361436856668845,-0.004181789742061048,0.01423990925555221,0.9870630712678836
2013-05-31,1,0.003319419520243771,0.003428221537136868,-0.004181789742061048,0.012781164295117647,0.9893674703749727
2013-06-04,1,0.0037041207735659734,0.003830628324681142,-0.0056517602528577855,0.012245000658476474,0.9886587775397019
2013-06-06,1,0.0038014155792741567,0.003977344671908179,-0.004780879414832601,0.01423990925555221,0.9880420150576066
2013-06-10,1,0.006038304500402549,0.0065142333348248965,-0.007495181709804326,0.008442688302398355,0.9890399604343868
2013-06-12,1,0.005535615130612591,0.0059565034025502485,-0.00495463934627815,0.008442688302398355,0.9896923769018355
2013-06-14,1,0.006414375580045059,0.006979614699403994,-0.00495463934627815,0.0074518175457494755,0.9901141696222377
2013-06-18,1,0.007656865185067177,0.008388396867875767,-0.007495181709804326,0.004850886614810456,0.9890789026309957
2013-06-20,1,0.007235194546902076,0.00791954701748996,-0.007495181709804326,0.0043720347879891205,0.989362323270581
2013-06-24,1,0.006419047978871656,0.006981447225879038,-0.007495181709804326,0.0043720347879891205,0.9900085162742944
2013-06-26,1,0.006664091426090867,0.007283613238931787,-0.007495181709804326,0.004159764188868129,0.9897723485588836
2013-06-28,1,0.006104903804304738,0.006626508413481987,-0.005000791784910032,0.005345388095697138,0.9906591005304387
2013-07-02,1,0.004821774612680875,0.005166612141354867,-0.0035868511576495725,0.004159764188868129,0.9917655814106419
2013-07-05,1,0.004707822798584783,0.005070686308223055,-0.005000791784910032,0.0020640491377177674,0.9912206448619669
2013-07-09,1,0.003960857273499743,0.00422612009506949,-0.0033417024833424743,0.003120107875167975,0.9923834818219609
2013-07-11,1,0.004120427825302492,0.004446893782328778,-0.00431735753678047,0.003283950159886121,0.9921193975179139
2013-07-15,1,0.0038177154447099123,0.004068146310672411,-0.007397262374975995,0.0020640491377177674,0.9919166105077496
2013-07-17,1,0.003934683724008183,0.0041492704034206485,-0.006698217473795532,0.003283950159886121,0.990644050288628
2013-07-19,1,0.0033385716144645255,0.003490064773021964,-0.006698217473795532,0.003283950159886121,0.9906717106073283
2013-07-23,1,0.0028680276779294404,0.0029573609397737246,-0.006698217473795532,0.003283950159886121,0.9909552903545907
2013-07-25,1,0.0031757174495780603,0.003343035725279539,-0.006698217473795532,0.0046171972522258894,0.9907173607796067
2013-07-29,1,0.0034832127797851742,0.0037158693340167068,-0.007397262374975995,0.0024959132958906676,0.9901539037026776
2013-07-31,1,0.0031446919430622947,0.003330952049255444,-0.008544545509020049,0.004017190372073613,0.9896619890085118
2013-08-02,1,0.0021460832503446972,0.002194578842342417,-0.007397262374975995,0.0046171972522258894,0.9907452376466238
2013-08-06,1,0.002117450226646566,0.0021772557696087824,-0.007397262374975995,0.006109201160747256,0.989620906811578
2013-08-08,1,0.0015682089681516957,0.0016038455757874117,-0.008544545509020049,0.006109201160747256,0.9893258220227027
2013-08-12,1,0.0007806216336332657,0.0009198541964003067,-0.007141378966894879,0.009224213021077156,0.9896392841037
2013-08-14,1,0.0018737682789142355,0.0019089189758803487,-0.007734991283335086,0.006109201160747256,0.9912474172442317
2013-08-16,1,0.0010736800976172932,0.00121959856136271,-0.0076728760853117875,0.004151882600787655,0.9922639140400947
2013-08-20,1,0.0003407944388646798,0.0005826160338856147,-0.0076728760853117875,0.004151882600787655,0.9923293978340647
2013-08-22,0,-0.0001691711822626135,0.0001612734081051665,-0.0076728760853117875,0.009146910334558906,0.9902251385771147
2013-08-26,-1,-0.001314220954035138,-0.0008311988774376035,-0.00805188845362612,0.009146910334558906,0.9897858804011305
2013-08-28,-1,-0.0019200935243700314,-0.001373121099445957,-0.007500376658251217,0.009753184875245518,0.9893040915246778
2013-08-30,-1,-0.0019895165894030283,-0.0014210277414115615,-0.00805188845362612,0.009753184875245518,0.9891978658397933
2013-09-04,-1,-0.0005575779558847907,-0.00015063796804646733,-0.009201110228885038,0.009419334039135724,0.9897276273428927
2013-09-06,-1,-0.0020846819325176414,-0.0014574267751317571,-0.00805188845362612,0.009753184875245518,0.9897632246162489
2013-09-10,-1,-0.0023844007598180054,-0.0016798515048582988,-0.009201110228885038,0.009521276815690765,0.9890338006358912
2013-09-12,-1,-0.002353885847926468,-0.0016918515444457642,-0.009201110228885038,0.01065743611017398,0.9874543845504543
2013-09-16,-1,-0.0033180295163887396,-0.0025367995123405877,-0.00887407628129479,0.01065743611017398,0.9871432693392191
2013-09-18,-1,-0.003904473665403661,-0.0030614267249998686,-0.007942877137762703,0.012957815141883934,0.9869030311998367
2013-09-20,-1,-0.0019469600894947048,-0.0013281760076137817,-0.007942877137762703,0.01065743611017398,0.9893807644931992
2013-09-24,-1,-0.0029338888582305946,-0.0021996693453372185,-0.0057347737819967975,0.0128951261402383,0.9891997706041605
2013-09-26,-1,-0.0017764947624096172,-0.0011801104930063153,-0.006420499396874004,0.0091332277863013,0.9907583932107588
2013-09-30,-1,-0.002969935715994461,-0.002219775661279811,-0.006220018323953741,0.0091332277863013,0.9905731180717627
2013-10-02,-1,-0.002568243706101153,-0.00190694529542454,-0.005667946757690043,0.004654130715751381,0.9916521169660125
2013-10-04,-1,-0.0018618908754239735,-0.0013101474776251564,-0.006220018323953741,0.004298160606706089,0.9916376092190016
2013-10-08,-1,-0.003076880867649904,-0.0023983239066386166,-0.005667946757690043,0.004298160606706089,0.9926153584185077
2013-10-10,-1,-0.0015224880526234536,-0.0010484016476184853,-0.0039547001234355025,0.004298160606706089,0.993733966637298
2013-10-14,-1,-0.002341858263130123,-0.0016892401348539323,-0.0039547001234355025,0.004298160606706089,0.9922253614604065
2013-10-16,-1,-0.001360795443515956,-0.0008562547662044027,-0.0039547001234355025,0.004298160606706089,0.9925835305903538
2013-10-18,-1,-0.0004131934511284105,-9.503590417010385e-05,-0.0039547001234355025,0.00697291759885041,0.9920886216719914
2013-10-22,1,0.00032985342589097794,0.0005221055827143935,-0.0039547001234355025,0.00697291759885041,0.9918466284688298
2013-10-24,-1,-0.00024505358017556716,-9.422147163936278e-05,-0.0021381871324223697,0.008345438038233382,0.9907971182324147
2013-10-28,-1,-0.001022400446843564,-0.0007071627701587247,-0.001234640007416033,0.008345438038233382,0.9907051188087275
2013-10-30,1,0.00043551292316530645,0.0004585392996161005,-0.0012443711519155203,0.008345438038233382,0.9907477809741171
2013-11-01,0,-5.607861293223295e-05,4.362062558123684e-05,-0.0026584797782576155,0.008345438038233382,0.9908659176932892
2013-11-05,1,5.491488923065467e-05,8.285290487133089e-05,-0.004192262234788303,0.008345438038233382,0.9907339786882429
2013-11-07,1,0.0014820211408984383,0.0017281988195385414,-0.004570366682362763,0.008345438038233382,0.9908557228487848
2013-11-11,1,0.0030804280328749507,0.0035241226958308905,-0.005578588858155599,0.008345438038233382,0.9915500769370053
2013-11-13,1,0.0031263321804201475,0.0035412122013768503,-0.007664549913076343,0.009567063706601006,0.990655921443475
2013-11-15,1,0.0036405570050815172,0.004122907994839188,-0.007664549913076343,0.011466945093110026,0.9898689333127813
2013-11-19,1,0.0040992468043434685,0.0046314002880124125,-0.007664549913076343,0.011466945093110026,0.9895918239972256
2013-11-21,1,0.0048870836956311035,0.00550126392942649,-0.010428181262428525,0.0105388487045786,0.9895846085384643
2013-11-25,1,0.004923306113256386,0.005614409757750256,-0.010428181262428525,0.0105388487045786,0.988141868692196
2013-11-27,1,0.004854828303035523,0.005472146702467471,-0.01126461765801644,0.0105388487045786,0.9874416262104652
2013-12-02,1,0.004363072446737391,0.004914126192308138,-0.01126461765801644,0.0105388487045786,0.9878327953037294
2013-12-04,1,0.003717220428173696,0.0041875513262267915,-0.010454023467929629,0.011466945093110026,0.9881069387568844
2013-12-06,1,0.0033244703931610076,0.0037063133386157085,-0.010115210318601247,0.011134846967749766,0.988051294651104
2013-12-10,1,0.00289888679116531,0.003183233865461762,-0.00984985400959546,0.007433398205687593,0.9888108286104751
2013-12-12,1,0.002653923434168458,0.0028705662474595318,-0.00984985400959546,0.0025946910861538363,0.9878733968847307
2013-12-16,1,0.0036735320279224493,0.004020959750869153,-0.00984985400959546,0.002546540384814315,0.9876141949113769
2013-12-18,1,0.004672258110323,0.005176251499795903,-0.00984985400959546,0.0003209688471646671,0.9872962622807521
2013-12-20,1,0.0040147559085356305,0.00441293368908223,-0.008438657853396682,0.0007854440161249978,0.9884756154558408
2013-12-24,1,0.002815238614850399,0.0030013824341182287,-0.008375396807003119,0.0007854440161249978,0.990586001065183
2013-12-27,1,0.0021518793800648344,0.002244296546741558,-0.008375396807003119,0.0019832096527646445,0.9907179137989814
2013-12-31,1,0.0017078129350634377,0.0017325208525288357,-0.00984985400959546,0.003310009952215491,0.9894577821576899
2014-01-03,1,0.0016546767009505677,0.0016585218693605855,-0.01051287519576629,0.003310009952215491,0.9892398798212213
2014-01-07,1,0.0019500404022338334,0.00201145097092953,-0.010261776513582172,0.004245582228027517,0.9898698249709312
2014-01-09,1,0.0013566245362043885,0.0013851624405407975,-0.008871018871717871,0.005887039229310778,0.9888036654508233
2014-01-13,-1,-0.0003177401225620682,-6.718271773133633e-05,-0.003983225110818065,0.006000919254413195,0.9902880985934257
2014-01-15,1,0.0009089656859359389,0.001054365459420495,-0.003983225110818065,0.004245582228027517,0.9911076271197355
2014-01-17,1,0.00022796297859309486,0.00048229730656593813,-0.006247348602620776,0.004245582228027517,0.9907292906426465
2014-01-22,1,0.00011854038522143536,0.0004120536423585612,-0.01218848668567465,0.004245582228027517,0.9893276329068909
2014-01-24,-1,-0.001099466180337897,-0.0007085753081937296,-0.011593619462469734,0.005887039229310778,0.9898409887676
2014-01-28,-1,-0.0009217079503674809,-0.0006144680417164599,-0.011593619462469734,0.005887039229310778,0.9899149970949817
2014-01-30,-1,-0.0006046490750127554,-0.00028247955566997767,-0.009846996144598517,0.006438084790560202,0.9909507999475176
2014-02-03,-1,-0.0014277463971740989,-0.0010549311776289058,-0.005183107624810646,0.008062326209139319,0.9906106545237892
2014-02-05,-1,-0.0006611089815028849,-0.0003500799765588311,-0.005183107624810646,0.008062326209139319,0.9905548636005366
2014-02-07,1,0.0002482581224940052,0.0004849763248749888,-0.004659055911796232,0.006142520565068444,0.9922059890703417
2014-02-11,1,0.00023269950352402288,0.0005129429113771621,-0.009633214753563357,0.004718434761035331,0.9923415394057605
2014-02-13,1,0.001272608884834012,0.001340776779886685,-0.010900600874278684,0.006083746054255138,0.99137175793752
2014-02-18,1,0.00012793727020030446,0.00036782961324128346,-0.009633214753563357,0.00781488363788731,0.9911870382257398
2014-02-20,0,-9.282488408539423e-05,0.00012451768241551395,-0.003485938089341809,0.008062326209139319,0.9918348560038245
2014-02-24,-1,-0.00043063655028586026,-0.00013378490484596537,-0.004765578135434055,0.00781488363788731,0.9916568751308383
2014-02-26,-1,-0.0012111854327156214,-0.0008243516444931759,-0.004765578135434055,0.00781488363788731,0.9914190813598807
2014-02-28,-1,-0.0006671524183985125,-0.00038341341760198564,-0.005592798889554665,0.005867283748803972,0.9916295182378146
2014-03-04,1,0.00017698989710868411,0.00043966388901035044,-0.007539306059071239,0.004718434761035331,0.9920042266145096
2014-03-06,1,0.001241703992413276,0.0013231150509592862,-0.007539306059071239,0.002614003934722848,0.9917251872436333
2014-03-10,1,0.0012688993198201298,0.0013306682715215781,-0.01517195150753817,0.0020265631909166474,0.9887047849356068
2014-03-12,1,0.0008866214296795143,0.0009425619515867683,-0.01517195150753817,0.006062231638091242,0.9881606370543224
2014-03-14,-1,-0.00018528431224957594,-2.3676619233094958e-05,-0.01710587157115733,0.0033766125155222136,0.9878784901429327
2014-03-18,1,0.000985576314947359,0.001014880376058454,-0.01710587157115733,0.00480730684704724,0.9876851047355955
2014-03-20,1,0.0011354142762333437,0.0011712395550528586,-0.01710587157115733,0.006062231638091242,0.9875839760842421
2014-03-24,1,0.0004241943378194593,0.0005935940643146411,-0.01710587157115733,0.0063471050094591995,0.9871295775691699
2014-03-26,-1,-0.0008250898556429814,-0.0004923607795621244,-0.015167899993252968,0.0063471050094591995,0.988029126476376
2014-03-28,-1,-0.0020912522053569953,-0.0016300719158139866,-0.009565792214693503,0.0063471050094591995,0.9880183120317615
2014-04-01,-1,-0.0026736437681093767,-0.0020947147592444964,-0.007050415697256551,0.0063471050094591995,0.9886385600364124
2014-04-03,-1,-0.002611236909995814,-0.002061670777515913,-0.009321093059576926,0.0063471050094591995,0.987866619180638
2014-04-07,-1,-0.0038470717740717673,-0.0032601251950225407,-0.007050415697256551,0.0063471050094591995,0.9894709231041743
2014-04-09,-1,-0.002092401463590107,-0.001726828998110619,-0.009321093059576926,0.00584321701091651,0.9893245067335107
2014-04-11,-1,-0.003300761780785408,-0.002818416309093451,-0.006409768752138695,0.0080956442551325,0.9891358856232277
2014-04-15,-1,-0.002151163980241387,-0.0018478885003315034,-0.007050415697256551,0.006627306876491346,0.9897343625803238
2014-04-17,-1,-0.00029760184243273044,-0.0002785852610098741,-0.008157371666808693,0.004368530215936037,0.9902759775285442
2014-04-22,1,0.0005117278874269249,0.0005644407945268893,-0.011165817314183028,0.004368530215936037,0.9890736705683257
2014-04-24,1,0.00032631844577953826,0.00035861511082508615,-0.011165817314183028,0.009266915961002493,0.987646545356055
2014-04-28,1,4.095091344122566e-05,7.18607973773147e-05,-0.011165817314183028,0.011790383743193182,0.9875534274167446
2014-04-30,-1,-0.000488398452499968,-0.0003677280056258043,-0.011165817314183028,0.011790383743193182,0.9873790254778186
2014-05-02,-1,-0.0012362060623655044,-0.0010335852417846245,-0.007523664928153401,0.011790383743193182,0.9880429527104089
2014-05-06,-1,-0.0016291096062622694,-0.0013795619615324854,-0.010474735706068779,0.011790383743193182,0.9879917523914892
2014-05-08,-1,-0.0010974120716180425,-0.000919173069318419,-0.010380968131192285,0.007885341764367743,0.9893324304572128
2014-05-12,1,0.0007134763416185928,0.0008240487688585556,-0.010380968131192285,0.007885341764367743,0.9893465483707203
2014-05-14,1,0.0007207868163284553,0.0009003589176327022,-0.008731389526140856,0.007885341764367743,0.9896974528102057
2014-05-16,1,5.100525809665049e-05,0.00011809686653528695,-0.007826760174483477,0.008283794730776069,0.9896789435782983
2014-05-20,-1,-0.0009363978257574371,-0.0008500691388512902,-0.006685644907301044,0.008283794730776069,0.9909976314356349
2014-05-22,1,0.0003915334466958779,0.000621245592142579,-0.007631332219085445,0.006447236989196221,0.9929151176807814
2014-05-27,1,0.0010070989919511537,0.0012009569295929209,-0.007826760174483477,0.006134386176416985,0.9923250350119899
2014-05-29,1,0.0016794562943895008,0.0019902249169110268,-0.007826760174483477,0.006110177861223806,0.9923712241998006
2014-06-02,1,0.0011080987346705775,0.0012978758810198647,-0.007826760174483477,0.006134386176416985,0.9924772217140402
2014-06-04,1,0.00010291594765618405,0.00014647990844666062,-0.003812328701503345,0.006134386176416985,0.9936056309543512
2014-06-06,-1,-0.0009194324272900356,-0.0007717429986793143,-0.00267011286567416,0.00648673601351823,0.9931601185830995
2014-06-10,-1,-0.00016932568059216898,-0.00015449334493637415,-0.00267011286567416,0.006470052071069477,0.9930788566158755
2014-06-12,1,0.0002359474698153832,0.0002627640523435218,-0.0041825864666670785,0.006464208165076362,0.9924938124393965
2014-06-16,1,0.0003089184585158319,0.000358137848745107,-0.00267011286567416,0.006464208165076362,0.9927247290321359
2014-06-18,1,0.0006636724181508357,0.0007204647548534121,-0.003192182226366097,0.005383109100462486,0.9933481768264721
2014-06-20,0,-2.4514922037647353e-05,3.4019903805863796e-05,-0.00267011286567416,0.007476201979496361,0.99224489300189
2014-06-24,-1,-0.00018137236174790736,-0.00012903599469609386,-0.0015904286184195086,0.008446509547459494,0.992460964721298
2014-06-26,-1,-0.0007179936270657164,-0.000568985842407585,-0.0016111759668018936,0.008446509547459494,0.9919635060201124
2014-06-30,0,-9.391596788552848e-05,7.401325039529613e-06,-0.0007600926577094736,0.008396457720113234,0.9923015480269196
2014-07-02,1,0.0004649786948289985,0.0006814978062513649,-0.003192182226366097,0.008396457720113234,0.9911901722588757
2014-07-07,1,0.0012707327471015064,0.0016109246605353121,-0.0010130312705198285,0.006672605616433502,0.9923724965168742
2014-07-09,1,0.0012005686127748673,0.0014808189040319477,-0.0015229550347559578,0.005452574917581533,0.9929215429565329
2014-07-11,1,0.0005722692578333889,0.000818897248674021,-0.0015229550347559578,0.00519587401101684,0.9937040516456308
2014-07-15,1,0.00036756119439935255,0.0005183325689586519,-0.0025474874901160694,0.00447593009863576,0.9940241736721785
2014-07-17,1,0.0004966954846016975,0.000684446937250872,-0.0011562451938110794,0.004578470713182599,0.994113678027488
2014-07-21,1,0.0011525847598642005,0.0013728085734634392,-0.002416924923875599,0.004405065384381231,0.9951724103935287
2014-07-23,1,0.002105100121304944,0.002486630551278622,-0.00336013206643194,0.004405065384381231,0.9952215421215513
2014-07-25,1,0.00313731817899818,0.0036114401871067733,-0.002416924923875599,0.004405065384381231,0.9952682929089296
2014-07-29,1,0.003506510229750642,0.004052827389944915,-0.002416924923875599,0.004914227347131697,0.9947243515469786
2014-07-31,1,0.0027914164762193236,0.0032422448074394664,-0.0011562451938110794,0.004914227347131697,0.9961782707985538
2014-08-04,1,0.0024559420066930975,0.0029045514243798334,-0.0011562451938110794,0.004914227347131697,0.9962628694732601
2014-08-06,1,0.0020138172146786978,0.0023845606341318087,-0.0008389928444512628,0.004914227347131697,0.9966358940576283
2014-08-08,1,0.002027473925214341,0.002439717825817982,-0.0021116053981428155,0.004914227347131697,0.9963764465172745
2014-08-12,1,0.0022988044509378988,0.002748529461963279,-0.0023156075882395737,0.004914227347131697,0.9963035632494862
2014-08-14,1,0.00274682459115899,0.003220396963182734,-0.0023156075882395737,0.006997186864813561,0.9945667931684442
2014-08-18,1,0.0022602804345753704,0.002592620885365667,-0.0008159354274418042,0.006997186864813561,0.9947268721839333
2014-08-20,1,0.0021920672650430875,0.0024951892305291414,0.00037190293172278,0.009605655951468305,0.9936885826434206
2014-08-22,1,0.002123321934948234,0.0023904168525916507,-0.001607022011312333,0.009605655951468305,0.993441893578513
2014-08-26,1,0.002663362603470231,0.0029827500468756858,-0.0023156075882395737,0.004814542730978877,0.9930247312044045
2014-08-28,1,0.0013582200565806176,0.0013988020750183151,-0.003062403469053486,0.007199197079428279,0.9915258482028352
2014-09-02,1,0.0018566285900467867,0.0019356420104222284,-0.0033003868898933988,0.007199197079428279,0.9910267485694353
2014-09-04,1,0.001194901952682112,0.0012465845280378736,-0.004223463063775761,0.01031996476562349,0.9903202685556937
2014-09-08,1,0.0009629640448151947,0.0010295437856097857,-0.0033003868898933988,0.01031996476562349,0.990386059173872
2014-09-10,1,0.0013457043066377786,0.0013603067041730683,-0.004100066336713379,0.011071442397594415,0.9889823576224315
2014-09-12,1,0.0034421253143140183,0.003786645023844631,-0.004100066336713379,0.00840141813543287,0.9906960852787065
2014-09-16,1,0.003109738181616227,0.0034103597760083053,-0.006717743877731614,0.01031996476562349,0.9888640078187009
2014-09-18,1,0.004583324359985444,0.00506219190213621,-0.006822886539455203,0.006887705139585516,0.9894381184275529
2014-09-22,1,0.004254425901076718,0.004688799934490033,-0.008001229618567866,0.008454703714554016,0.9889157362125275
2014-09-24,1,0.0032986229749097868,0.003567538701736143,-0.006904569524954695,0.008760541698420823,0.9892962631344673
2014-09-26,1,0.002578349843953008,0.00272578356733614,-0.006789919281700318,0.011185215510759709,0.9895360146171043
2014-09-30,1,0.002370923728833638,0.0024801878010520433,-0.006904569524954695,0.011185215510759709,0.9892805293513294
2014-10-02,1,0.0028129208100279657,0.003022690532976678,-0.006789919281700318,0.008798466069475921,0.9898416464898274
2014-10-06,1,0.0025870332839379078,0.002747429830557445,-0.006789919281700318,0.012187356523388943,0.9884587412052368
2014-10-08,1,0.0021942302597171646,0.0022644739196163314,-0.004697545199780468,0.010896928184091617,0.9898934695836699
2014-10-10,1,0.0021911653486696627,0.002256246324588323,-0.006789919281700318,0.010896928184091617,0.9897140147523563
2014-10-14,1,0.002197622924954604,0.0023404938300004576,-0.004697545199780468,0.00906387526636022,0.9916691053700866
2014-10-16,1,0.0018001216215813064,0.0018948260650441555,-0.005748266448860028,0.00906387526636022,0.9913490631327997
2014-10-20,1,0.0019251374231864017,0.002050981141395855,-0.005748266448860028,0.006657706710500258,0.9918411428824662
2014-10-22,1,0.0017342145408565965,0.0018152027186634787,-0.004732656774280497,0.005934743612768091,0.9921826850808372
2014-10-24,1,0.0023280920393214328,0.0024475684649810977,-0.005376211581176968,0.0057031319529647975,0.9930859473295697
2014-10-28,1,0.0017086663746785143,0.0017273853878424636,-0.004732656774280497,0.0057031319529647975,0.9938653509891859
2014-10-30,1,0.0009026541454950361,0.0009081309254549436,-0.004732656774280497,0.0057031319529647975,0.9937592405639079
2014-11-03,1,0.0019414656124242635,0.002103639040555228,-0.004732656774280497,0.0044818240916151665,0.9950792465447342
2014-11-05,1,0.0031439210197640637,0.003354478601517913,-0.004732656774280497,0.004507663815827146,0.9944274622156835
2014-11-07,1,0.0031114554690113714,0.003347372354453458,-0.003948617698478582,0.004507663815827146,0.9943733056133985
2014-11-11,1,0.0030166155110874704,0.0032178959294640484,-0.004081480759060009,0.005251177577773311,0.9940267195244732
2014-11-13,1,0.002239463551789105,0.0023021564165458374,-0.004081480759060009,0.005251177577773311,0.9938395793266859
2014-11-17,1,0.0017341353843388528,0.0017476587174020419,-0.004081480759060009,0.006792260764983984,0.9939354324234461
2014-11-19,1,0.001550431453037277,0.0015870762493864089,-0.0026848207900915222,0.011468267819433997,0.9917628675794439
2014-11-21,1,0.0009740453087373133,0.001074408570663465,0.0005616029678262426,0.011468267819433997,0.9918553786319232
2014-11-25,1,0.0012024216587648408,0.00125344836105292,-0.0025176776227684447,0.011468267819433997,0.9906716549032967
2014-11-28,1,0.0013441729472927224,0.001404312755716838,-0.002726357445385437,0.010361720648232757,0.9908705178215941
2014-12-02,1,0.001193982770147017,0.0013023659860775193,-0.004202606692344108,0.006935239623296428,0.9905347741654353
2014-12-04,1,0.0018788760289225248,0.0018993787767688315,-0.005190825550423289,0.005743342956841967,0.9906110893535057
2014-12-08,1,0.0022820579292517802,0.0022950163757399934,-0.005859149206035309,0.005743342956841967,0.9899381967645599
2014-12-10,1,0.0026815226419672628,0.002806590549536998,-0.005859149206035309,0.005743342956841967,0.9901153679778221
2014-12-12,1,0.0023139539040545375,0.002426815875465958,-0.005547394942747114,0.005743342956841967,0.9903780137106245
2014-12-16,1,0.0021104217525829607,0.002211949166236668,-0.0076371858573574414,0.0049006107192203965,0.9896747841209856
2014-12-18,1,0.003969654587007105,0.004319358840551761,-0.0076371858573574414,0.002663085531457818,0.991029087943845
2014-12-22,1,0.0032789160165421064,0.003512368405456956,-0.0076371858573574414,0.002663085531457818,0.9898694583483203
2014-12-24,1,0.003170905767308435,0.00336192325993977,-0.005547394942747114,0.0034484590326470856,0.9912710537231221
2014-12-29,1,0.0026303863399148777,0.002725906412069839,-0.013306230868329274,0.0034484590326470856,0.9896877837193064
2014-12-31,1,0.0016923090802501433,0.0017328461022672608,-0.011325214582264216,0.0049006107192203965,0.9898910711665664
2015-01-05,1,0.0014676616281777842,0.001544193308144452,-0.011325214582264216,0.0049817131021514405,0.9895287829964409
2015-01-07,1,0.0012276983713364162,0.0013380331050730392,-0.006776737851049371,0.0075799823167326,0.9890234568825218
2015-01-09,1,0.0009666424262385064,0.0010940146707426402,-0.006776737851049371,0.013700011782348687,0.9872016960490374
2015-01-13,1,0.00015765069987351316,0.0003778160010996769,-0.002270063763367862,0.013700011782348687,0.9876984234237017
2015-01-15,0,-0.0001835922308306595,6.594137214022686e-05,-0.0014583401422864407,0.013700011782348687,0.9879209282786808
2015-01-20,1,0.0004070913558090406,0.0005596885887344643,-0.004272475626689355,0.013700011782348687,0.9880228287444887
2015-01-22,1,0.0016171163417959744,0.0016319517519663013,-0.004272475626689355,0.009477329491309357,0.9897212452695461
2015-01-26,1,0.0014787752868445025,0.0015162376314317928,-0.004272475626689355,0.012351831462885328,0.9890378363061652
2015-01-28,0,-0.00023357504246462966,1.3478830217370473e-05,-0.0004774796113863293,0.012351831462885328,0.9901231558411487
2015-01-30,-1,-0.0005909754211308719,-0.0002807096233770239,0.00032312410633774833,0.012409268910900405,0.9904613725299756
2015-02-03,1,2.411755179108975e-05,0.0002687568608719271,-0.0017378703396462483,0.009496475307314383,0.9915265320132644
2015-02-05,1,0.0022127885269365524,0.0023095788092995524,-0.004272475626689355,0.0059181381359526795,0.9928024357941959
2015-02-09,1,0.003190992226686655,0.003425494610588706,-0.004823981972174051,0.0059181381359526795,0.9936313642125343
2015-02-11,1,0.003766436083857889,0.004152579836753087,-0.004823981972174051,0.00848563338790636,0.9932313584068385
2015-02-13,1,0.003002057827205517,0.0032812069129492857,-0.004787434054961136,0.010491347569232114,0.9923398928367083
2015-02-18,1,0.0026543147578968725,0.0028476568083386847,-0.005173710052151529,0.010491347569232114,0.9918511712443033
2015-02-20,1,0.0023801982797227606,0.002502240884520831,-0.005173710052151529,0.010491347569232114,0.9916996453561207
2015-02-24,1,0.0027883859453784227,0.0029540511436552874,-0.006616409534243902,0.007749094205132929,0.9909564439366987
2015-02-26,1,0.002569272882603658,0.0027109345744228885,-0.008220567440329446,0.007749094205132929,0.9896155587749214
2015-03-02,1,0.0028750861797351697,0.003069245260387834,-0.008220567440329446,0.0067088727402473645,0.9898368227805616
2015-03-04,1,0.002003891253717021,0.0021195826856076645,-0.008220567440329446,0.0067088727402473645,0.989887428695074
2015-03-06,1,0.0019326869355579814,0.001994480789656071,-0.009044893013703426,0.0067088727402473645,0.9893108447017392
2015-03-10,1,0.0013805419172135637,0.0014266526637153562,-0.009044893013703426,0.005800929532385275,0.989635842608537
2015-03-12,1,0.0016033969321358854,0.0016300091848428628,-0.009044893013703426,0.0054460764091369875,0.9895505860493945
2015-03-16,1,0.002356220615129658,0.002420932232463876,-0.009270379339570372,0.0019576827832627547,0.9903442906889852
2015-03-18,1,0.0010021664444493038,0.0010526474540723699,-0.009270379339570372,0.004400074465017688,0.9914101629017454
2015-03-20,1,0.0023018869474250555,0.0024038668929412957,-0.011088426516808735,0.004400074465017688,0.9898664324832144
2015-03-24,1,0.0011003684518817397,0.001176245609170045,-0.008793331908013015,0.004929488250650345,0.9911074203192431
2015-03-26,1,0.00031504533728181567,0.0004854037614857467,-0.006744568886111807,0.004235660630979786,0.9927230511339707
2015-03-30,1,0.001154967761148237,0.0011737690711889385,-0.008793331908013015,0.004235660630979786,0.9918270676108836
2015-04-01,1,0.0009426586382551708,0.0009742698268308191,-0.008793331908013015,0.004929488250650345,0.9913045381729227
2015-04-06,1,2.9227028614651335e-05,0.0001738284393398475,-0.005002463076554638,0.004929488250650345,0.9927894318164389
2015-04-08,-1,-0.0005837295707466976,-0.0003770135852122886,-0.005002463076554638,0.004929488250650345,0.99344488656994
2015-04-10,0,-0.00017144559923631942,2.0941529402801018e-05,-0.005002463076554638,0.005402529426611508,0.9922382078744442
2015-04-14,-1,-0.00107170282933943,-0.000761848003950175,-0.004140493711005192,0.007933054441541574,0.9921089112972714
2015-04-16,-1,-0.0010730518276145604,-0.0007578626218767049,-0.004140493711005192,0.009836964004992963,0.9917466875641924
2015-04-20,-1,-0.0016599061052849865,-0.0012554490030513435,-0.004140493711005192,0.007982484050194338,0.9925504851824657
2015-04-22,-1,-0.0017191904962417532,-0.0013105284434349294,-0.004140493711005192,0.007982484050194338,0.9924729904857094
2015-04-24,-1,-0.0019402402723510612,-0.0015227293738636957,-0.004188650188911904,0.007982484050194338,0.9920891383724643
2015-04-28,-1,-0.001889696718744829,-0.0014942418600798794,-0.004134844639882933,0.007153715415279396,0.9925210207744184
2015-04-30,-1,-0.0009914693353903197,-0.0007318405212605891,-0.004134844639882933,0.004922878592270734,0.9935095088183197
2015-05-04,-1,-0.0008168016041977927,-0.0006043577742504544,-0.004134844639882933,0.004922878592270734,0.9934939366482856
2015-05-06,-1,-0.0010949296890120515,-0.0008537033515934865,-0.0031389291653700587,0.004922878592270734,0.9935210966359479
2015-05-08,0,-1.4857643236958879e-05,0.0001310423232961101,-0.004134844639882933,0.002873154258111018,0.9946397317955591
2015-05-12,1,0.00014218915128059615,0.00026483104186216465,-0.0036050267557451903,0.004922878592270734,0.9936191535023093
2015-05-14,1,0.0014722991902606645,0.0016145491762400682,-0.005586942960037299,0.0032535527002590164,0.9931164210065774
2015-05-18,1,0.00103260164890821,0.0011188755642120248,-0.005586942960037299,0.0033834526438150654,0.9932942694213043
2015-05-20,1,0.0003129545357886877,0.00033351248303935434,-0.004804706016309774,0.0033834526438150654,0.9934291234339994
2015-05-22,1,0.0002568200883229214,0.00029471030559603427,-0.004804706016309774,0.0033834526438150654,0.9926288772734414
2015-05-27,-1,-0.00021008206311406118,-8.584353083086613e-05,-0.005201062742774267,0.002883409719416539,0.992475722008376
2015-05-29,-1,-0.00014293719474202062,-2.5846010823156278e-05,-0.005201062742774267,0.0031675103397896497,0.992387122506614
2015-06-02,-1,-0.0002707514624254427,-0.00013434383246724367,-0.007371228615725001,0.00453128818402982,0.9913260256656262
2015-06-04,-1,-0.0003550250918535755,-0.0002058272556076081,-0.007371228615725001,0.007047272111793447,0.9909278222750577
2015-06-08,-1,-0.0005209070374831297,-0.00032405048364147994,-0.005201062742774267,0.00697982246327663,0.9916802207998373
2015-06-10,1,0.00027112634722516215,0.00030799199366837103,-0.005201062742774267,0.006226437140594801,0.9923333010450641
2015-06-12,-1,-0.0004811134267618878,-0.0003058587762042443,-0.004338162872969738,0.00697982246327663,0.9924511439783184
2015-06-16,0,-1.2899792203105171e-05,4.830045947861638e-05,-0.004338162872969738,0.00697982246327663,0.9921964817033466
2015-06-18,-1,-0.0005245954652066273,-0.0004288013053867619,-0.002877076499764389,0.007047272111793447,0.9913713829669479
2015-06-22,-1,-0.0016077100105885453,-0.0012931079249222672,-0.002877076499764389,0.00697982246327663,0.9919617612676264
2015-06-24,-1,-0.002104782033041053,-0.0017312726262950764,-0.002877076499764389,0.00697982246327663,0.9912033276908908
2015-06-26,-1,-0.002000805157788834,-0.0017062303521687612,-0.005415028035142795,0.00697982246327663,0.9908922864603678
2015-06-30,-1,-0.0013326270483382642,-0.0011776376199240115,-0.002877076499764389,0.00697982246327663,0.9913210374263591
2015-07-02,-1,-0.00031116948864737704,-0.00030814973067232025,-0.005415028035142795,0.006532618065507086,0.9918029617032085
2015-07-07,1,0.0003068683611846631,0.00041129740203487417,-0.005415028035142795,0.006997928229547816,0.9918684378627081
2015-07-09,1,0.0006169495683713477,0.00074418414066705,-0.00834669130826874,0.006997928229547816,0.9920072698724192
2015-07-13,1,0.0008435671542103921,0.0009961086922769295,-0.00834669130826874,0.0067420076712882086,0.9926411304865838
2015-07-15,1,0.0008274654534492379,0.0010044286342550497,-0.00778291333778172,0.0067420076712882086,0.992806366652738
2015-07-17,1,0.0017046483247314028,0.0019816154039738586,-0.00778291333778172,0.006591837373449957,0.9931363282742091
2015-07-21,1,0.0012222489020964305,0.0014523823484924535,-0.004078874069957671,0.006591837373449957,0.993770279339839
2015-07-23,1,0.0007169702103004286,0.0009330754470347878,-0.00778291333778172,0.006591837373449957,0.9938743404926251
2015-07-27,-1,-0.0002612982304717964,-0.00016797029790582043,-0.00862909764362352,0.006591837373449957,0.990553577267655
2015-07-29,1,0.0015146859947103941,0.001667913872214464,-0.00862909764362352,0.00518077785468568,0.9895073362499152
2015-07-31,1,0.0010081792480823141,0.0010920680202045456,-0.00778291333778172,0.008128001446752256,0.9887578738595707
2015-08-04,1,0.0016055488612236077,0.0018134078423200947,-0.008825449391014378,0.007365224944892241,0.987439010515195
2015-08-06,1,0.002295249739662611,0.002663901163460905,-0.008435893051138604,0.008128001446752256,0.9871902065961199
2015-08-10,1,0.0022460209374937476,0.0025760837718136103,-0.011096636965383,0.010174787211216226,0.9855089507308935
2015-08-12,1,0.002076161095733314,0.0023959403933879256,-0.012702675783747997,0.014079385234062351,0.9840081626867447
2015-08-14,1,0.0019727895867521217,0.002229988554085888,-0.012702675783747997,0.014079385234062351,0.9837951956985461
2015-08-18,1,0.001589588413033333,0.0017435002898963739,-0.012702675783747997,0.014079385234062351,0.9835393976069472
2015-08-20,1,0.0010949536572771035,0.0011904468044148615,-0.02303304493859913,0.014079385234062351,0.9820408504861626
2015-08-24,1,0.0005549182747573553,0.0005733539455786179,-0.013791814489752632,0.015847027670329694,0.984273168538756
2015-08-26,1,0.0012129450562207021,0.0012708320285111803,-0.013791814489752632,0.014079385234062351,0.985080397803717
2015-08-28,1,0.0018110149454790068,0.0019123315775001915,-0.01606647609599688,0.014079385234062351,0.9842761698838395
2015-09-01,1,0.0011805290757357888,0.0012365644509749402,-0.013791814489752632,0.015847027670329694,0.984884996147054
2015-09-03,1,0.0017186794128471775,0.0018234754699638903,-0.01606647609599688,0.012405186440628234,0.9839713191195103
2015-09-08,1,0.0020526519652888198,0.0022043619395922687,-0.01637855089074128,0.01090776089484685,0.9848399847675867
2015-09-10,1,0.0014222297334389798,0.0014715533388537127,-0.0138958394213341,0.009713126576155454,0.9861868246449949
2015-09-14,1,0.0015565791806449016,0.0016150001883727238,-0.015739724602284483,0.009815258680588225,0.9851762781322267
2015-09-16,1,0.0015558712809635804,0.001592521218159712,-0.015739724602284483,0.009815258680588225,0.9841377223435163
2015-09-18,0,-5.33692191468381e-05,0.0001133827709478503,-0.013743014894151709,0.011977986148716351,0.9856452945133428
2015-09-22,1,8.232545233041911e-05,0.00021157042081499858,-0.012506477257761254,0.011977986148716351,0.9862431315669398
2015-09-24,0,-0.00016143797493557753,7.553855347125146e-07,-0.013460644427143157,0.01487340610307382,0.9853195860372127
2015-09-28,-1,-0.0002621150235824352,-7.380631000265651e-05,-0.011265052292451108,0.014730868189111963,0.9866907248477628
2015-09-30,1,0.0014795599150540964,0.00157717130230644,-0.011265052292451108,0.014730868189111963,0.9870774486809873
2015-10-02,1,0.0011309258031463136,0.0011904961157017063,-0.011265052292451108,0.015598460849323577,0.987009444159784
2015-10-06,1,0.0009365788201635837,0.0009787749781814208,-0.009361281115047552,0.016257591759119956,0.9868498962329149
2015-10-08,1,0.0006901820536632478,0.0007048238797284903,-0.007505861502618394,0.016257591759119956,0.9873252452897517
2015-10-12,1,0.0002926241651255428,0.0003703246877197456,-0.004881026301636726,0.016257591759119956,0.9880357872712022
2015-10-14,-1,-0.0005447421337450992,-0.0003691086867653925,-0.0002129265834066809,0.016257591759119956,0.9886731282481025
2015-10-16,1,0.00026396613854726803,0.00034888891419047256,-0.004881026301636726,0.015598460849323577,0.9891283030037509
2015-10-20,1,0.0007589225406141113,0.0007856862427446547,-0.006460532965842877,0.013907859513954662,0.9894905124415642
2015-10-22,1,0.0010008408234463862,0.0010030657036283082,-0.004881026301636726,0.011227124767394892,0.9903873728357712
2015-10-26,1,0.0013796776970207,0.0014194401324078194,-0.004881026301636726,0.010108212083898694,0.9909045919826401
2015-10-28,1,0.002092671480278474,0.002239649718302017,-0.006460532965842877,0.005967129113188579,0.991197428876344
2015-10-30,1,0.0021016875953914923,0.002317154966972483,-0.004881026301636726,0.008123329939379082,0.9928198081055981
2015-11-03,1,0.0021276026349416528,0.0023160684525093188,-0.003995843724039634,0.005349284615408921,0.9939551815400659
2015-11-05,1,0.0018993326427718202,0.002047550621918265,-0.003998687565969032,0.008123329939379082,0.9907557330941994
2015-11-09,1,0.0022084495816457714,0.0023853414018217465,-0.007187038483233076,0.005349284615408921,0.9903562799448988
2015-11-11,1,0.0020921461796588204,0.002223946470495181,-0.00998557041636213,0.007941700707881416,0.988129296568639
2015-11-13,1,0.0010851952297926005,0.0011074955847254547,-0.007831648441556111,0.00943197573822506,0.9866522018072698
2015-11-17,1,0.0008706912316702257,0.000921346736729836,-0.005361271515894073,0.00943197573822506,0.986821585351615
2015-11-19,1,0.001270081136551509,0.001293354428664998,-0.013284545549575713,0.005519832174206329,0.9861106526382919
2015-11-23,1,0.001366265421293482,0.0013679685341239632,-0.013284545549575713,0.007941700707881416,0.9852386855085575
2015-11-25,1,0.0010398627577488996,0.0010574458289994615,-0.019405413859504683,0.009438044756059746,0.9836637223001357
2015-11-30,1,0.0017047430624267607,0.0018100678287452567,-0.019405413859504683,0.005956047440488321,0.9842393851181769
2015-12-02,1,0.001957347546394338,0.002115851008320107,-0.019405413859504683,0.005956047440488321,0.9832503559545114
2015-12-04,1,0.002495930943150884,0.0026961754200618606,-0.01836059398903956,0.005617083775608562,0.9852810149541068
2015-12-08,1,0.002162509665860011,0.0023502895023449714,-0.01713266006829116,0.005617083775608562,0.985244650844209
2015-12-10,1,0.0013589564921399164,0.0014192508637480932,-0.015074683000167913,0.005617083775608562,0.9865408592788276
2015-12-14,1,0.0011136446528008,0.0011217585544267667,-0.015074683000167913,0.004724120532711269,0.9874445499306722
2015-12-16,1,0.0011205981247019603,0.0011626869316155542,-0.015074683000167913,0.005083825084696765,0.9874694113693995
2015-12-18,1,0.0003618444217670564,0.0004534178604182302,-0.015074683000167913,0.006696197431565049,0.9873852283680747
2015-12-22,1,0.0010149207419126811,0.0010521421891976257,-0.01713266006829116,0.006696197431565049,0.985551980366471
2015-12-24,1,0.0004164360465036776,0.0005271454795400997,-0.015074683000167913,0.006696197431565049,0.9870156152449091
2015-12-29,1,0.00025335115517173144,0.00039953307199584314,-0.015074683000167913,0.006696197431565049,0.9869234832936232
2015-12-31,0,-0.00018745857190568095,1.5495063637787016e-06,-0.015074683000167913,0.008008290789845694,0.9861030962736665
2016-01-05,-1,-0.00029579098937012997,-8.983961477263274e-05,-0.007405534300191112,0.0068099963742023865,0.9871850899048149
2016-01-07,-1,-0.0008681923740180123,-0.0006072604532738632,-0.00713533721858217,0.010394013857013887,0.9851688148326307
2016-01-11,-1,-0.0008661192521795656,-0.0006005694887586847,-0.003908012712298242,0.019000338799282628,0.9836447436465015
2016-01-13,-1,-0.0027836386720964225,-0.0023217629858722257,-0.006763768855583853,0.019000338799282628,0.9831430221349414
2016-01-15,-1,-0.0014284230277218717,-0.001034671902223921,-0.006961857247731556,0.020451699518251838,0.9826872316924316
2016-01-20,-1,-0.0006357362343875309,-0.00037159601574907953,-0.005926444563146921,0.020451699518251838,0.9833498496593676
2016-01-22,1,0.0001752277909739726,0.0003053839573412123,-0.005926444563146921,0.020451699518251838,0.9844948301415186
2016-01-26,1,9.474023535322557e-05,0.00026625839650466136,-0.005926444563146921,0.019012490002211876,0.9853276574228387
2016-01-28,1,0.0007151084688597183,0.0007782965622904514,-0.005926444563146921,0.019012490002211876,0.9851810039585588
2016-02-01,1,0.0015847024486575552,0.0016545988275532691,-0.010259487128928504,0.016536245182182514,0.9854484004858238
2016-02-03,1,0.0013844972583304145,0.0013990442780543394,-0.010259487128928504,0.016536245182182514,0.9849631729175675
2016-02-05,1,0.0010728344249529309,0.0010910115725577384,-0.010135358526900862,0.013155009614351041,0.9869914771543541
2016-02-09,1,0.0036741002050599326,0.004008000358878636,-0.010135358526900862,0.01001853891373139,0.9891704840995945
2016-02-11,1,0.0020323944648727556,0.0020746433631151986,-0.003531030518497626,0.01001853891373139,0.9907976818945113
2016-02-16,1,0.0022630998289889575,0.0023355139239355704,-0.0021325534515399306,0.01001853891373139,0.9912075894872889
2016-02-18,1,0.0021166399645314547,0.002156450216019401,-0.0021325534515399306,0.009292027454319892,0.9920365519435511
2016-02-22,1,0.002165367545051691,0.0022026834391882808,-0.0021325534515399306,0.008289959177973757,0.9933105877033682
2016-02-24,1,0.002988432233092371,0.0031975188278049243,-0.0024970883289830432,0.008414321489643694,0.9931362077036391
2016-02-26,1,0.002861677939236039,0.0030303043068958977,-0.003177292476276001,0.008036327836417731,0.9927217446956633
2016-03-01,1,0.002976550832542527,0.003122488689054487,-0.0024970883289830432,0.006902785892386564,0.9938152448144204
2016-03-03,1,0.00339881636383032,0.003610623945852695,-0.0024970883289830432,0.0061346867438023915,0.9940171871950046
2016-03-07,1,0.00292275760818746,0.003062045913693182,-0.0024970883289830432,0.0061346867438023915,0.9933956470700521
2016-03-09,1,0.0024195665703860064,0.002436660219410658,-0.0025754183148448554,0.00526689800249076,0.9924748893903568
2016-03-11,1,0.0022652795560770917,0.0023377505276720844,-0.003777841854509949,0.00526689800249076,0.9910726499216753
2016-03-15,1,0.003032913525915902,0.003227142445929237,-0.003777841854509949,0.0041821054721805275,0.9915975581159253
2016-03-17,1,0.002801694603327313,0.0029814481557267633,-0.002940977735493367,0.00537491302341143,0.9917769940384534
2016-03-21,1,0.0027147692137647755,0.0029001764627117977,-0.0022283467063380913,0.006211751534555442,0.9918006268262306
2016-03-23,1,0.0031595776056436674,0.0034451967558126245,-0.0021759519731991677,0.005386813977502152,0.9920363802029606
2016-03-28,1,0.0021149970074579097,0.0022093075950599976,-0.0021759519731991677,0.006211751534555442,0.9919533217169354
2016-03-30,1,0.002481377767024585,0.0026472935307162823,-0.0017316244048510027,0.005598568724434239,0.9922755497792464
2016-04-01,1,0.0027669039227016844,0.002960298327213804,-0.004738624519938393,0.0051705187533710294,0.9911310302204932
2016-04-05,1,0.0019523068983172155,0.002065439607498807,-0.004738624519938393,0.005598568724434239,0.9912287713039428
2016-04-07,1,0.0017372959806906591,0.001826189879221742,-0.004738624519938393,0.006667348173430638,0.9919760674213547
2016-04-11,1,0.0015596584169084065,0.0015896727001105688,-0.0015407743566480231,0.0068942355380791406,0.9932948096801814
2016-04-13,1,0.0016818768569384149,0.0017269559189371907,-0.004738624519938393,0.007784003350378211,0.9925337513489624
2016-04-15,1,0.0022491506351122823,0.0024070206253452783,-0.005354375976070997,0.008918888306254362,0.9919159531790275
2016-04-19,1,0.0025370694171994463,0.002727380299422697,-0.0056987311813738815,0.0076131478338882265,0.9918434397338429
2016-04-21,1,0.002269759129707576,0.002404461024207743,-0.006759012673975662,0.008918888306254362,0.9903609574915359
2016-04-25,1,0.0025943496938844457,0.0028051935514416004,-0.006759012673975662,0.0076131478338882265,0.9910155594238931
2016-04-27,1,0.0027202306897581296,0.0029415815397964454,-0.006759012673975662,0.008918888306254362,0.9903536590234077
2016-04-29,1,0.002856517376796739,0.003133652443531853,-0.0056987311813738815,0.011786575049743314,0.9912920042749578
2016-05-03,1,0.002440401124886503,0.0026077944347721797,-0.0056987311813738815,0.008828213280838697,0.9920170946805568
2016-05-05,1,0.0020341538861332934,0.0020992851356000527,-0.006560212161627674,0.008828213280838697,0.9917965523728203
2016-05-09,1,0.0024146070501524573,0.0025503627583573396,-0.0073471631484909785,0.0076131478338882265,0.9917303963124064
2016-05-11,1,0.0022733310884040627,0.0024124366082988063,-0.006901397627142969,0.007128073193954533,0.9919566704354114
2016-05-13,1,0.00175971964760838,0.0017734838332475742,-0.006426843685698683,0.0033272796337411015,0.9931772133102343
2016-05-17,1,0.0023204821807278598,0.0024652625583734206,-0.0067542256360548615,0.0019258530616835887,0.9928390791167889
2016-05-19,1,0.002136440151913069,0.00220913963294054,-0.0067542256360548615,0.0019258530616835887,0.9936195986497849
2016-05-23,1,0.002200469556216071,0.0022746029702921658,-0.0067542256360548615,0.0005427339190702251,0.9932941294757663
2016-05-25,1,0.0020590949871404736,0.0020798421257420723,-0.0067542256360548615,0.0014455820612121791,0.9929869329047296
2016-05-27,1,0.0025234722926497253,0.00262684219916457,-0.006901397627142969,0.0014455820612121791,0.9910251914377329
2016-06-01,1,0.0017897718331079892,0.001820465762195776,-0.0067542256360548615,0.006468359996049743,0.9904481724726378
2016-06-03,1,0.0017063674565875229,0.0017396990586196585,-0.0067542256360548615,0.00852898803657986,0.9900383993245673
2016-06-07,-1,-0.0005119149029004233,-0.00011807401077420913,-0.005994549494827401,0.01116553072168263,0.9899802329403469
2016-06-09,-1,-0.0006984279669384728,-0.0002583240574274459,-0.00489993683680481,0.01116553072168263,0.990002795796509
2016-06-13,-1,-0.0007149912269710345,-0.00023013931308314976,-0.00489993683680481,0.01116553072168263,0.9897179062124156
2016-06-15,-1,-0.0017764411590861723,-0.0012048494615754255,-0.0006536662903229654,0.013492174613536013,0.988811530707575
2016-06-17,-1,-0.0016890737055075891,-0.0011622782615312132,-0.0006536662903229654,0.013492174613536013,0.9894746848991491
2016-06-21,-1,-0.0016022527165938931,-0.0010830610472535808,5.388146869375978e-05,0.013492174613536013,0.9890024307228918
2016-06-23,-1,-0.00041454644515780256,-7.992546638492927e-05,-0.0013364390255948063,0.009288876862339323,0.9904060547352643
2016-06-27,-1,-0.0013829890401660311,-0.0009391138015064954,-0.001091157461276361,0.009198744488365947,0.9923375902372038
2016-06-29,0,-4.1411751874048794e-05,0.00028556216572376365,-0.0025048685066985012,0.007676838916722929,0.9934709806916351
2016-07-01,1,0.0013577238699199292,0.001380571025363371,-0.001091157461276361,0.007676838916722929,0.994255689675421
2016-07-06,1,0.0007730013138865599,0.0008723221250666825,-0.001091157461276361,0.0075522457591278465,0.994917546686214
2016-07-08,1,0.0011404448800781729,0.0011787682578784137,-0.001091157461276361,0.007587719537387178,0.9947558406182518
2016-07-12,1,0.0013346639617725945,0.0013476282236402407,-0.0033152855831020175,0.007587719537387178,0.9945548378302187
2016-07-14,1,0.0018227927028597148,0.0018823559090622884,-0.003638134899260256,0.00587906194483759,0.9949582022679866
2016-07-18,1,0.0018004028344015413,0.0018747705639769146,-0.003638134899260256,0.007587719537387178,0.9948167247495803
2016-07-20,1,0.0017558486003715786,0.0018338041833662517,-0.003638134899260256,0.007720343666318501,0.9942905327738996
2016-07-22,1,0.0018768766670147733,0.0019705751978292083,-0.003638134899260256,0.0057643215596774365,0.9944341342244175
2016-07-26,1,0.0021159314336233275,0.0022810588539446,-0.003638134899260256,0.0057643215596774365,0.9946130592479697
2016-07-28,1,0.002051446714991734,0.0021865817322509404,-0.0023701728767762556,0.004785522528669284,0.9951727153187659
2016-08-01,1,0.0022515623635344763,0.0024131847081939745,-0.0023701728767762556,0.004785522528669284,0.9948812869298558
2016-08-03,1,0.0022590326349427275,0.002429916288658099,-0.0023701728767762556,0.004785522528669284,0.9948069467166478
2016-08-05,1,0.002971016402138982,0.0032722543066423656,-0.0023701728767762556,0.0047325680332828204,0.9950075088959152
2016-08-09,1,0.0024541583275830394,0.0026763459266118746,-0.0024964263732579132,0.0047325680332828204,0.9946696614071295
2016-08-11,1,0.00207394141325107,0.0022316455647977463,-0.0033267380506514154,0.0047325680332828204,0.9945423026765764
2016-08-15,1,0.002560861540425552,0.0027901134275824433,-0.0037827463706784996,0.004605678700533236,0.9938257090908649
2016-08-17,1,0.002503612533798127,0.0026918578516718452,-0.003241546909687299,0.004605678700533236,0.9942366838110444
2016-08-19,1,0.002485179263911818,0.00267335282170274,-0.002372838786062345,0.0036804895365775015,0.9945672528414302
2016-08-23,1,0.0026191221290619952,0.002848299014000826,-0.003241546909687299,0.0036804895365775015,0.9940971269659801
2016-08-25,1,0.0017516132512146996,0.0018183121996931397,-0.004153534346802337,0.0036804895365775015,0.9933263211224084
2016-08-29,1,0.001602865234479155,0.0016295578997304614,-0.005240582869082702,0.0035843052518081285,0.9932145052633594
2016-08-31,1,0.0017710534411235325,0.0017908689994442508,-0.0074663087314440985,0.0032691494516899266,0.992418241766918
2016-09-02,1,0.0016877288126828907,0.0017030290787222442,-0.0074663087314440985,0.0015988539255187397,0.9922214180216719
2016-09-07,1,0.001494793902726973,0.0014976410082992752,-0.0043538197792865035,0.001784567391811801,0.9930849561819041
2016-09-09,1,0.001221675447900951,0.001235077198901556,-0.0043538197792865035,0.001784567391811801,0.9934560847909377
2016-09-13,1,0.0015570898330432431,0.0015865875823281117,-0.0043538197792865035,0.0016364378404439203,0.994247107290394
2016-09-15,1,0.0019102488773736043,0.001990476479485715,-0.0043538197792865035,0.0016364378404439203,0.9946528974497023
2016-09-19,1,0.0018966639977619263,0.0019813192305304945,-0.005242094143686387,0.0016364378404439203,0.9932543090723569
2016-09-21,1,0.0012303607117040726,0.0012540170536470233,-0.0043538197792865035,0.002912828049297446,0.9938332633154892
2016-09-23,1,0.0005926297196425106,0.0006834689444364269,-0.0034052994450564146,0.0033211682770514237,0.9948101552901469
2016-09-27,1,0.0003078285033309268,0.0004395232754395537,-0.0034052994450564146,0.002912828049297446,0.9952304264046338
2016-09-29,1,1.0511984049016692e-05,0.00015761788356498998,-0.0037397648654115254,0.0016364378404439203,0.9947699208538784
2016-10-03,-1,-0.00045257164722961693,-0.00024178036395599244,-0.0034052994450564146,0.002124570887051116,0.9950089690320334
2016-10-05,-1,-0.0004344473092265462,-0.00023127208766836522,-0.003812271986022609,0.002912828049297446,0.9941340660353265
2016-10-07,-1,-0.0006405903950105067,-0.00042311815725236065,-0.0036663406228246804,0.0033211682770514237,0.9934526917869512
2016-10-11,-1,-0.0004450222881887568,-0.0002766162798806748,-0.0036663406228246804,0.005163701962273252,0.99225963942605
2016-10-13,-1,-0.0002701701792586323,-0.0001345977214161161,-0.003169430847079264,0.01485901601556399,0.9873700327529649
2016-10-17,-1,-0.00021029037068664563,-8.865023257057208e-05,-0.003169430847079264,0.013331234494087142,0.9871408538036361
2016-10-19,1,7.361005452441016e-07,8.18451252561497e-05,-0.0046320820224456365,0.013331234494087142,0.9868475933630341
2016-10-21,-1,-0.00012772831838687304,-1.776856906343221e-05,-0.004877567436469854,0.013331234494087142,0.9863651449290448
2016-10-25,-1,-0.0007293410589474496,-0.0005290707926424629,-0.005667408594594747,0.013331234494087142,0.9857509684994747
2016-10-27,-1,-0.0018318606590368718,-0.0014869282685543886,-0.0027219542437335684,0.013331234494087142,0.9866433926066863
2016-10-31,-1,-0.0019574559863336696,-0.001580169740412098,-0.005557349085240056,0.013331234494087142,0.9860519342569595
2016-11-02,-1,-0.0015409345766580786,-0.001213471013632183,-0.003275764528002674,0.013892661363688972,0.9860424691367122
2016-11-04,-1,-0.0014970913670496054,-0.001149148593882716,-0.0005131799837016296,0.013892661363688972,0.9856188323702942
2016-11-08,-1,-0.0005404921246992182,-0.0003001488470587225,-0.0005131799837016296,0.013115610170089552,0.986118022728212
2016-11-10,1,0.0035010998916250218,0.0037394660919250165,-0.0005131799837016296,0.010548203857251118,0.9918938906944148
2016-11-14,1,0.0034327919906746527,0.003706854459544132,0.0012920954771773094,0.007818958735672316,0.9932632913326708
2016-11-16,1,0.0024271997355678494,0.002502270440309522,0.0012920954771773094,0.007818958735672316,0.9926557107907444
2016-11-18,1,0.002379180635466182,0.0025135725449920775,0.0012920954771773094,0.007818958735672316,0.9932905847460345
2016-11-22,1,0.001760416811879,0.0018033610455800337,-0.00024429113891579136,0.007818958735672316,0.9932717822436762
2016-11-25,1,0.0019522025371928563,0.0020497767898052786,-0.0025600538566968143,0.007818958735672316,0.9914934076837222
2016-11-29,1,0.002144931345995287,0.0022730288881465887,-0.0025600538566968143,0.007662205685339982,0.9916883113033562
2016-12-01,1,0.002750305728223095,0.0029652749862153337,-0.0034245225744735973,0.00641196433547834,0.991943706519774
2016-12-05,1,0.003654782810900988,0.004011074458580767,-0.004658294729069833,0.006153467118759834,0.9917948815525296
2016-12-07,1,0.004335905569224434,0.00477422427070057,-0.004658294729069833,0.004239958384209652,0.9919284558308784
2016-12-09,1,0.004484249807175334,0.004932236519458155,-0.006526569028692934,0.0028888813841561308,0.991399821062096
2016-12-13,1,0.004521456906377138,0.0049745167098044045,-0.006526569028692934,0.0028888813841561308,0.9913334350982846
2016-12-15,1,0.003939462960078407,0.004298742299314982,-0.006526569028692934,0.0028888813841561308,0.9919973939069875
2016-12-19,1,0.0038502566342319853,0.004197815874416472,-0.007401539658175516,0.0035417418141436867,0.9914101260812453
2016-12-21,1,0.0034720576451551417,0.0037807260023175805,-0.006526569028692934,0.0035417418141436867,0.9920717307914954
2016-12-23,1,0.00294241409852539,0.00317442100738638,-0.004264171565911298,0.005877214559260147,0.9930090058369906
2016-12-28,1,0.002651223890461993,0.002863222373501729,-0.0035710944285143546,0.006130415217569752,0.9933214481540273
2016-12-30,1,0.0021623449350465897,0.00228540264540721,-0.0035710944285143546,0.006432924777523571,0.9935638711632148
2017-01-04,1,0.0019894915840410815,0.002074418055420431,-0.00346988898921434,0.005011334484177578,0.9941950949303928
2017-01-06,1,0.0025137015487743004,0.0026955352715422624,-0.0035710944285143546,0.004657297305883367,0.9939023406810471
2017-01-10,1,0.002228647380292639,0.002384055701594928,-0.004597844769773146,0.004657297305883367,0.9929559491187048
2017-01-12,1,0.0022109378211383874,0.002356002200781605,-0.004597844769773146,0.005011334484177578,0.992557599594518
2017-01-17,1,0.0016700288049046647,0.0017362191880385255,-0.0035710944285143546,0.006566260097125801,0.9920566918302777
2017-01-19,1,0.0016321633266460505,0.0016803514952065158,-0.0031765220153808834,0.006257919300147624,0.9925245072080628
2017-01-23,1,0.0017847198578750463,0.001882873723001646,-0.0031765220153808834,0.007135875984199926,0.9919050762565548
2017-01-25,1,0.0028013050198136633,0.003049866854233119,-0.0031765220153808834,0.005606496272148832,0.9927482593661726
2017-01-27,1,0.002697516036972429,0.002921161291050862,-0.0024818128592548434,0.005606496272148832,0.9930087221355497
2017-01-31,1,0.002519600737758214,0.0026901657889471615,-0.00453973457866297,0.007135875984199926,0.9904392558664962
2017-02-02,1,0.002190492924499998,0.0022950078599481,-0.009461487118569733,0.007135875984199926,0.9893341185339076
2017-02-06,1,0.0018319152839290805,0.001916125534967483,-0.005216104349842203,0.007135875984199926,0.9898256250893337
2017-02-08,1,0.0012864334201080057,0.001320779739349677,-0.0029472364372415886,0.007135875984199926,0.9910078803680394
2017-02-10,1,0.001722847829701377,0.0018114284705006037,-0.0029472364372415886,0.007085918001069239,0.991351728137403
2017-02-14,1,0.0019777742948792966,0.002082312725389285,-0.0029462217185453076,0.005334591072624202,0.9921592773528933
2017-02-16,1,0.0016199607344251873,0.0016290197731667789,-0.0029462217185453076,0.002985521340097396,0.9925666905968965
2017-02-21,1,0.0010872366728124027,0.0011517445571692549,-0.0032706504105746844,0.001867015546362743,0.9918683581264617
2017-02-23,1,0.0011876160460865433,0.0012667548240354748,-0.004286884179448159,0.001040332473230293,0.9918509738227481
2017-02-27,1,0.0009131528601712445,0.0010431512133755353,-0.005947560816699209,0.0005825651318575855,0.9910802417255415
2017-03-01,1,0.0021348120165323057,0.00214155997808486,-0.004286884179448159,0.0005825651318575855,0.9928806901915942
2017-03-03,1,0.0008067818898253146,0.0009698638620224206,-0.0032706504105746844,0.0024860888008915198,0.9946361341444853
2017-03-07,1,0.00039846796819911366,0.0006173351190360269,-0.0036074702521800826,0.0024860888008915198,0.9943684237814322
2017-03-09,1,0.000218376241006019,0.0004663515574066001,-0.0036074702521800826,0.002344622181423286,0.9946510206118392
2017-03-13,1,0.0001976509937750158,0.0004595597405021972,-0.005879952312001097,0.00224139860752425,0.9946805417210483
2017-03-15,0,-9.978753981891944e-05,0.00020219867173745126,-0.005879952312001097,0.001698859369059403,0.9948330895236619
2017-03-17,-1,-0.0004123438482656165,-6.808922671645336e-05,-0.006730302334799676,0.002255760261517194,0.9940271458376282
2017-03-21,-1,-0.0020834496785807856,-0.0015191489876526631,-0.004490656968614042,0.002255760261517194,0.99562671492884
2017-03-23,-1,-0.0029968777948304152,-0.0022920063837718408,-0.003132303828430103,0.002529173762870352,0.99488164882806
2017-03-27,-1,-0.0035183129602462167,-0.0027427138264554656,-0.0028646854219299567,0.002529173762870352,0.9947910644337752
2017-03-29,-1,-0.0033421116249034814,-0.0026153718713770625,-0.003132303828430103,0.002255760261517194,0.9932439026741539
2017-03-31,-1,-0.0033394947296550865,-0.0026090253684553436,-0.003132303828430103,0.002759015444019402,0.9927232657642057
2017-04-04,-1,-0.003421891903922135,-0.002720524187907107,-0.0028646854219299567,0.0056282870408571935,0.9921790489741595
2017-04-06,-1,-0.0005255641317926355,-0.00037466125829494927,-0.0028646854219299567,0.0056282870408571935,0.9930058311521265
2017-04-10,-1,-0.0010720784957817544,-0.000835456584252579,-0.0028646854219299567,0.0056282870408571935,0.9923798365028647
2017-04-12,-1,-0.0014230424636273785,-0.0011321989827598453,-0.0028646854219299567,0.0056282870408571935,0.9922367946939125
2017-04-17,-1,-0.001466608856041707,-0.0011519842139785467,-0.0028646854219299567,0.0056282870408571935,0.9925033362082093
2017-04-19,-1,-0.0019279765480332126,-0.0015319445726206654,-0.004899870938585937,0.0056282870408571935,0.9918725973369842
2017-04-21,-1,-0.0014078275238504053,-0.0010775607585849574,-0.004899870938585937,0.0058112019650430405,0.9920317201874432
2017-04-25,-1,-0.0011897002023350338,-0.0008776706490103686,-0.004899870938585937,0.0058112019650430405,0.9919923079581121
2017-04-27,-1,-0.0019084990189506125,-0.0015467808598904763,-0.003943779564450021,0.0058112019650430405,0.9935666743016545
2017-05-01,-1,-0.0008695872915780044,-0.0006762348670287683,-0.004899870938585937,0.00537649590259542,0.9942127886186595
2017-05-03,1,0.00010806706251166625,0.0001402419659772254,-0.004899870938585937,0.004750634018663196,0.99454860045294
2017-05-05,1,0.0006337367159425255,0.0006996495188481978,-0.0050886266515765485,0.00484844102371406,0.9939535169749594
2017-05-09,1,0.0004060441379296555,0.00045365547277699417,-0.0050886266515765485,0.0064803728986762635,0.9935341455364521
2017-05-11,-1,-2.659121055721483e-05,-4.077659431739759e-06,-0.004973227775884035,0.009666476173316448,0.9918397396236728
2017-05-15,0,-1.3455154098171193e-05,2.6077635944329262e-05,-0.003943779564450021,0.009929213938964652,0.9919079560524556
2017-05-17,-1,-0.0007423700160568637,-0.0006149002127988982,-0.001481147630765013,0.010130268905039106,0.9918762927720047
2017-05-19,-1,-0.0008273177360887533,-0.0006771386727985357,-0.003788750655412382,0.010183237677255444,0.9919363503159616
2017-05-23,-1,-0.0007262772672160623,-0.0005762804325200957,-0.005202282802860548,0.009932782798421202,0.9916960402653312
2017-05-25,-1,-0.000965550792671809,-0.0007780900570081241,-0.006639861132340393,0.009932782798421202,0.9916295197977231
2017-05-30,-1,-0.0011233339587561238,-0.0009114302286615436,-0.005230799754004563,0.009932782798421202,0.9913288337911993
2017-06-01,-1,-0.0007439915763393539,-0.0006058439101774074,-0.006932531642430888,0.010183237677255444,0.9901708346876411
2017-06-05,-1,-0.0008201542947808278,-0.0006567005117764596,-0.005230799754004563,0.009932782798421202,0.9905079533664176
2017-06-07,-1,-0.00038951257542045375,-0.00027847002244012035,-0.005230799754004563,0.009714071574941302,0.9908988980299835
2017-06-09,1,0.0011737736274440775,0.0012304973545292188,-0.006007243468336013,0.008651989563455975,0.9921263639997341
2017-06-13,1,0.0017199292392582844,0.0018570313384364025,-0.006957677842705904,0.007999497380324417,0.9921038040151626
2017-06-15,1,0.0016796504139099642,0.0018011263099823403,-0.008060992539699623,0.003361774220058498,0.9915072345981484
2017-06-19,1,0.002518004836857265,0.002817382910313013,-0.008060992539699623,0.0016664614840598687,0.9915674142159971
2017-06-21,1,0.00176358168429523,0.001964230473784275,-0.006007243468336013,0.002211940353340492,0.9928714273026108
2017-06-23,1,0.0015858702380108745,0.0017780501806473291,-0.005037016162457455,0.0033464618280323035,0.9930128041601006
2017-06-27,1,0.0017210361599218468,0.0019289499438927512,-0.005037016162457455,0.0033464618280323035,0.9929219027754901
2017-06-29,1,0.0015620839578829354,0.0017227967928095352,-0.00409173437767597,0.002211940353340492,0.9940910804140513
2017-07-03,1,0.0015748063485329599,0.001662849474750231,-0.00409173437767597,0.0033464618280323035,0.9935539141447566
2017-07-06,1,0.0009595603920871362,0.0010182003057814736,-0.0033906352512708153,0.004408460466388677,0.9944700389715073
2017-07-10,1,0.0013589137494098619,0.0015046782311345386,-0.0033906352512708153,0.004408460466388677,0.994541811019589
2017-07-12,1,0.0012280210880754264,0.001369294522404961,-0.0020690216621050907,0.006693799211694814,0.9943736407141157
2017-07-14,1,0.0003011562775289593,0.00030584760456639444,-0.0033906352512708153,0.006693799211694814,0.9943504075106966
2017-07-18,1,0.0004676751992616176,0.0005197397641231551,-0.0033906352512708153,0.009642604542316136,0.9934247546115734
2017-07-20,1,0.0004709100932856091,0.0005266775988033441,-0.00409173437767597,0.009642604542316136,0.9932931730053733
2017-07-24,1,0.0012059197582123754,0.0014453111740253045,-0.00222475812815577,0.009642604542316136,0.993724827114128
2017-07-26,1,0.0014132681648587717,0.001623080756445181,-0.0034571757457887886,0.00891082153491663,0.9937427994356902
2017-07-28,1,0.0010007563896928264,0.001147683631395443,-0.002091201826944415,0.009413688417618103,0.9935640336570082
2017-08-01,1,0.0018382219279225354,0.002097160969551739,-0.003575994837186055,0.007215562775972501,0.9940580280381148
2017-08-03,1,0.0022716618632828266,0.0026037339530269243,-0.003575994837186055,0.007215562775972501,0.9937871457241458
2017-08-07,1,0.002256483396463565,0.002583267882391491,-0.003575994837186055,0.0048579472814774425,0.993975642790376
2017-08-09,1,0.002466837366417398,0.002818860997793722,-0.004814199009827939,0.0048579472814774425,0.9923540207742584
2017-08-11,1,0.0009325041276922881,0.0010029475020974657,-0.002729937748737272,0.008868164902039939,0.9929045186116637
2017-08-15,1,0.001506623111539407,0.0016284396956802185,-0.002729937748737272,0.006846042774424958,0.9931407424118637
2017-08-17,1,0.0011496877041685533,0.0012085075816759129,-0.002729937748737272,0.008868164902039939,0.9928194376509213
2017-08-21,1,0.0010822398210310448,0.0011316245391296417,-0.002729937748737272,0.008868164902039939,0.9927748413585231
2017-08-23,1,0.0012548927522578863,0.001328171007120149,-0.002179860747581448,0.009416139748692084,0.9926357994162525
2017-08-25,1,0.0012903634021468144,0.0013324522962175633,-0.002179860747581448,0.007058773032609454,0.9930046736677284
2017-08-29,1,0.0011132945967694348,0.0011360300857511073,-0.002179860747581448,0.009609239184177321,0.992407696086088
2017-08-31,1,0.0006697398708939474,0.0007177135585283918,-0.00033123791727076804,0.00980849546649414,0.9920917020577364
2017-09-05,1,0.0004508189312787073,0.0005379732054077237,5.718123697659555e-05,0.00980849546649414,0.9919841139868502
2017-09-07,1,0.0006262081720392772,0.0006847684342446459,5.718123697659555e-05,0.009609239184177321,0.9936545071720589
2017-09-11,1,0.001421309461968376,0.001447962658296609,-0.00033123791727076804,0.008634209508445519,0.9943813419640567
2017-09-13,1,0.002108173951397034,0.00224981209986418,-0.001812902826017262,0.0071957947537314255,0.9946629481993983
2017-09-15,1,0.0023286942052583026,0.002510160317196041,-0.0017198940142687817,0.006023119999824457,0.995135974193054
2017-09-19,1,0.001720041740232324,0.0017490406864543659,-0.002997729861574391,0.006023119999824457,0.9946702086927612
2017-09-21,1,0.0023472335926988594,0.002480007113058065,-0.003834496230822375,0.005419479768118971,0.9947127750602799
2017-09-25,1,0.0025178322702615755,0.002692144625048759,-0.0042630622891462674,0.005419479768118971,0.9943979616105538
2017-09-27,1,0.0023028390367038,0.0025117925900868805,-0.003889018066029702,0.0041694493674959525,0.9949285663621426
2017-09-29,1,0.0024027676603424696,0.002541663210993748,-0.003889018066029702,0.005419479768118971,0.994316175297161
2017-10-03,1,0.0025031421422784285,0.0026331550754073547,-0.004385583363480308,0.004282316078643225,0.9937221122915226
2017-10-05,1,0.002542224850640869,0.002675159019975991,-0.005616092231902455,0.004282316078643225,0.9924026613155066
2017-10-09,1,0.0020218992157050703,0.0020571785523521274,-0.0060080174559233,0.002094674938800967,0.992205743542286
