JNU-Tangyin/eata/results/Batch4_SP500/Batch4_SP500-NEE.csv
Date,Action,Predicted_Q25,Predicted_Q75,Actual_Q25,Actual_Q75,RL_Reward
2010-12-14,0,0.0,0.0,-0.0033194037829091475,0.007802230633011905,0.9939770809452014
2010-12-16,-1,-0.0020305186673853144,-0.0017978411258838959,-0.0027879753762193407,0.007637285793214278,0.9935601741395733
2010-12-20,-1,-0.002395169410613786,-0.002064410135352881,-0.0033194037829091475,0.005275804370549021,0.9936908688859691
2010-12-22,-1,-0.0010103061267266978,-0.0009095210105107712,-0.0021962039685809722,0.003789998705561979,0.9948859342178015
2010-12-27,0,0.0,0.0,-0.0033194037829091475,0.005275804370549021,0.9946503091407933
2010-12-29,0,0.0,0.0,-0.0033661555897511707,0.005275804370549021,0.9944824219835664
2010-12-31,0,0.0,0.0,-0.0046011739076775166,0.005275804370549021,0.9937299504540344
2011-01-04,0,0.0,0.0,-0.0046011739076775166,0.006352442304320433,0.9931627337458366
2011-01-06,-1,-0.0008839514041439495,-0.0007557248416744244,-0.004451457918516564,0.006352442304320433,0.9932396828028013
2011-01-10,-1,-0.0002077533375518845,-0.00016385494687606592,-0.004451457918516564,0.006352442304320433,0.9935329082962682
2011-01-12,1,0.00027868014948048605,0.0003323211388907408,-0.004451457918516564,0.00477442039173942,0.9944310913570386
2011-01-14,1,0.0005933655726162337,0.000698220053481301,-0.004695996992420059,0.0038541888575826097,0.99441044028032
2011-01-19,1,5.4895079071120374e-05,6.004298377988773e-05,-0.005493441908142448,0.0038541888575826097,0.994280660446007
2011-01-21,1,0.00027206164841645864,0.00029618630436243753,-0.005493441908142448,0.00477442039173942,0.9941628786123021
2011-01-25,1,0.0009354607006960996,0.0010953852275451036,-0.005477253629791856,0.0038541888575826097,0.9944998957179456
2011-01-27,1,0.0006155459155725636,0.0007193533754163873,-0.004690600899636529,0.004548005906553124,0.9947898441596393
2011-01-31,1,0.00011408811319328712,0.0001492341798412449,-0.0037073616859075007,0.0053725049112496315,0.993734615458173
2011-02-02,1,0.001036586992461445,0.0012207646940752075,-0.004690600899636529,0.004548005906553124,0.9941525520586475
2011-02-04,1,0.0008751602334497678,0.0010238040142695345,-0.0038516815822849226,0.0052831597607260455,0.9941007903218391
2011-02-08,1,0.0010421335420993277,0.0011899237383703372,-0.0038516815822849226,0.005883969330589129,0.993666059214265
2011-02-10,1,0.0011034693687805028,0.0012822354552924687,-0.005366787495626832,0.006220241772107176,0.9932990883728683
2011-02-14,1,0.00072505542865672,0.0008402414547824379,-0.006443812929474791,0.006220241772107176,0.9920297085370707
2011-02-16,1,0.0007596091620538114,0.0008907614732272449,-0.0064550926907287155,0.006220241772107176,0.9911935010914282
2011-02-18,1,0.0010186251592925375,0.0012016819681477781,-0.0064550926907287155,0.006731827773134318,0.9906571491492291
2011-02-23,1,0.0006843132664011388,0.0007959686985278664,-0.0064550926907287155,0.006731827773134318,0.9906267295124603
2011-02-25,1,0.0007067416889550207,0.0008117302384032206,-0.0064550926907287155,0.006734602186822374,0.9905395545592812
2011-03-01,1,0.0006421285239195879,0.0007679706251453962,-0.006097295827885171,0.006734602186822374,0.9913007748311166
2011-03-03,1,0.0008612742345320045,0.001013917479139056,-0.00430840307923378,0.006143655824634256,0.9919168501026658
2011-03-07,1,0.0010579682010863835,0.001251993598941817,-0.00430840307923378,0.006734602186822374,0.9915342857663809
2011-03-09,1,0.0017670020196488812,0.002053055123095279,-0.00430840307923378,0.005650522304024223,0.9924642223199739
2011-03-11,1,0.001810988487347667,0.0021221763256764363,-0.00430840307923378,0.004858091639750168,0.9924757863831184
2011-03-15,1,0.0008313899252842247,0.0010222648500704413,-0.0017797889946095942,0.004858091639750168,0.9931908063082593
2011-03-17,1,0.0002531463795072932,0.00034566728927591103,-0.0015322929726825569,0.004858091639750168,0.9939934519511773
2011-03-21,1,0.0007933247562657592,0.0009568101220725075,-0.0029027203041350406,0.004625109874399397,0.9948457978600745
2011-03-23,1,0.0006499073531244621,0.0007886096385930452,-0.001360030337765604,0.004858091639750168,0.9943728837843518
2011-03-25,1,0.0005891059951634978,0.0006855335632872096,-0.0028042694798608454,0.004625109874399397,0.9943985779025609
2011-03-29,1,0.001260033823867451,0.0014683977830061029,-0.001360030337765604,0.004625109874399397,0.9950008253925431
2011-03-31,1,0.0014057765425290916,0.0016351778092462922,-0.0028042694798608454,0.004625109874399397,0.9944765904051286
2011-04-04,1,0.001866378362752942,0.0021443206376345774,-0.0028042694798608454,0.0037466210871092333,0.9945610346884901
2011-04-06,1,0.001852360833939187,0.0021076230945889455,-0.003151647352844767,0.0030054269762932735,0.9942056538413947
2011-04-08,1,0.001418339887007446,0.0016050971606334395,-0.0028042694798608454,0.004887754259382475,0.9946515095542272
2011-04-12,1,0.00046914324880256535,0.00048071005706757275,-0.0023512393466360057,0.0070842706630501635,0.9948214749008663
2011-04-14,1,0.00041421485812852894,0.0004193110754972863,-0.0024342150295392478,0.010646011512051717,0.9943556338309841
2011-04-18,0,-7.699436643242736e-05,1.3663153891156513e-05,-0.0024342150295392478,0.010646011512051717,0.9936258734578121
2011-04-20,1,0.000123955164114639,0.00020850425579147598,-0.0024342150295392478,0.009459676345342288,0.9942165233837547
2011-04-25,-1,-0.00020231738632313682,-7.468685828549635e-05,-0.003485262371729419,0.009459676345342288,0.9937254041246019
2011-04-27,1,0.000499206593931268,0.0005295302979429828,-0.004200857999951947,0.006751489135723512,0.9937971312774732
2011-04-29,1,0.00040921029961070205,0.00047099239773677065,-0.003753866717354537,0.004887754259382475,0.9943500776499564
2011-05-03,1,0.0009317416650873793,0.0009332558133828737,-0.004669158429690044,0.004887754259382475,0.9933938010519128
2011-05-05,1,0.00097423066949695,0.0010150039786844406,-0.007193442081959326,0.004887754259382475,0.9927442297116131
2011-05-09,0,0.0,0.0,-0.007193442081959326,0.002278575806213612,0.9931981521392678
2011-05-11,0,0.0,0.0,-0.007193442081959326,0.0018037841277727085,0.9937115377854058
2011-05-13,0,0.0,0.0,-0.007193442081959326,0.0018037841277727085,0.9939835145133178
2011-05-17,1,0.0014169220240096295,0.001527201055739908,-0.006714897778051146,0.0015900694257197424,0.9940009118789517
2011-05-19,1,0.0008700769598686062,0.0008953316330793569,-0.006714897778051146,0.002851342148192693,0.9935222004048992
2011-05-23,1,0.0004582375329552072,0.0004903839329761858,-0.005248931482169308,0.005130891801021505,0.9938963745042511
2011-05-25,0,-6.698420222935893e-05,3.127541364769914e-05,-0.00513544979740159,0.005130891801021505,0.9939635532966267
2011-05-27,1,0.00042543225822273644,0.000440126770086705,-0.00513544979740159,0.006749125509174857,0.9936472506107953
2011-06-01,-1,-0.0005498620976123068,-0.00038956597579973586,-0.0045034923587666635,0.004693571647368489,0.9950030101697219
2011-06-03,-1,-0.00010919756029269747,-3.923849929441298e-05,-0.001680837138276173,0.006749125509174857,0.9951364576994908
2011-06-07,-1,-0.0006103357558153147,-0.0004949600697575129,-0.001680837138276173,0.006749125509174857,0.9947378059899311
2011-06-09,-1,-0.00029913778696124475,-0.00023381791317520978,-0.00298453113328964,0.006749125509174857,0.9945075235877948
2011-06-13,-1,-0.0002477746695803358,-0.000174085690248831,-0.004789796030381205,0.005399575908281539,0.9944425318067425
2011-06-15,-1,-0.0005055904606333991,-0.00041305438536057705,-0.003850553071584785,0.005399575908281539,0.994529121866834
2011-06-17,1,0.0003364571720986898,0.000359117172575253,-0.004789796030381205,0.004034010592440342,0.9950668684010507
2011-06-21,1,0.00028716652171093817,0.00029184834172397403,-0.004789796030381205,0.004034010592440342,0.995014337643986
2011-06-23,-1,-0.00047417568241517235,-0.0003469215683364954,-0.0042607991856523685,0.004314787358799135,0.9942865100203425
2011-06-27,1,0.00043784134516468244,0.00046616947855691816,-0.0042607991856523685,0.0032505961322106167,0.9946648099362262
2011-06-29,1,0.00038173032513410014,0.0003952317698348356,-0.007285036365434527,0.0032505961322106167,0.9938212038934054
2011-07-01,1,0.0012377344657898681,0.0013915990105159257,-0.007507528059590894,0.0024297335078874824,0.9934607884208647
2011-07-06,1,0.0007422090549666798,0.000818632512463956,-0.007507528059590894,0.0024297335078874824,0.9927056165740472
2011-07-08,1,0.0004806471392624673,0.0004970907822557152,-0.008149533077137592,0.0024297335078874824,0.9916043903191962
2011-07-12,1,0.00016419066738365624,0.00019561815844413877,-0.008904328010975904,0.002920570402859953,0.9880947388099695
2011-07-14,0,0.0,0.0,-0.013684250424904407,0.0037699786448019447,0.9845584275172564
2011-07-18,-1,-0.0002810666911984748,-0.0002070328585439741,-0.013684250424904407,0.0063909600027529595,0.9830281185729429
2011-07-20,0,0.0,0.0,-0.013684250424904407,0.006217936866798086,0.98312446440162
2011-07-22,0,0.0,0.0,-0.013684250424904407,0.004955907577192368,0.9836205757637371
2011-07-26,0,0.0,0.0,-0.013684250424904407,0.006217936866798086,0.9828126039335053
2011-07-28,0,-0.0006079179450516636,0.0,-0.015508951060190589,0.00910964881978336,0.9825021023058522
2011-08-01,-1,-0.0006436965949436755,-0.0005531174613199897,-0.009969738042830025,0.01608394500968804,0.9823328706251444
2011-08-03,-1,-0.0014008764456115695,-0.0012196274866944998,-0.006210629367683741,0.01608394500968804,0.9829174812295056
2011-08-05,-1,-0.002685490413970197,-0.0023025108457918808,-0.006210629367683741,0.01608394500968804,0.9834110182387112
2011-08-09,-1,-0.002983412084510621,-0.0025465097737133726,-0.006210629367683741,0.00890733294813139,0.9870336954014862
2011-08-11,-1,-0.0023060114180450363,-0.0019759128669861554,-0.006725371579268345,0.005366441863163658,0.9899809484363438
2011-08-15,-1,-0.0011963549814537843,-0.0009903423256329186,-0.008715275114923477,0.005366441863163658,0.99141274941787
2011-08-17,-1,-0.001148800739747742,-0.0009580127605586857,-0.008715275114923477,0.005995645343680241,0.9910020347319285
2011-08-19,-1,-0.001273487249438748,-0.0010889011757236897,-0.009638906827469996,0.009249911443637585,0.9902280024898406
2011-08-23,-1,-0.0006381442495840999,-0.0005346164513547903,-0.009951288044241804,0.009249911443637585,0.9897347244411588
2011-08-25,-1,-0.00035341755516923537,-0.0003100938492701449,-0.009951288044241804,0.008741615457330817,0.9895449068340609
2011-08-29,1,0.0003139836003097006,0.0003642787204064706,-0.009951288044241804,0.008741615457330817,0.9898555457469197
2011-08-31,1,0.00033387106099303844,0.0003702856694307382,-0.011118672121716156,0.009249911443637585,0.9889229160067209
2011-09-02,-1,-0.0005405330943794794,-0.0004474306526726196,-0.011118672121716156,0.009249911443637585,0.9884850138772553
2011-09-07,-1,-0.0007973195831835596,-0.0006758432441227292,-0.010643898330285624,0.009249911443637585,0.9887944709677365
2011-09-09,-1,-0.001683155152819278,-0.0014522877722943782,-0.009638906827469996,0.009924331183010185,0.9886207282831808
2011-09-13,-1,-0.0014352017053883472,-0.0012527613674631127,-0.009275092873179654,0.01110212062565246,0.9885121979007231
2011-09-15,-1,-0.0010920157120622794,-0.0009419463754111138,-0.009275092873179654,0.01110212062565246,0.989319403424217
2011-09-19,-1,-0.0006061573048286986,-0.0005342435759017298,-0.00678454274583229,0.009114975256553904,0.9902461853907851
2011-09-21,-1,-0.00045795309121479395,-0.0004130087625498139,-0.0038213935143097282,0.008294017138237356,0.991631784307639
2011-09-23,-1,-0.0005996297597528078,-0.000562394516517825,-0.0020091653623668815,0.008786632276204449,0.9922883260953929
2011-09-27,-1,-0.000337263663998456,-0.0003198920000380427,-0.0038213935143097282,0.006566715397676622,0.9924870288604709
2011-09-29,-1,-7.190913402339383e-05,-3.349489458504939e-05,-0.0020091653623668815,0.00962766634557926,0.991469165779644
2011-10-03,-1,-0.000785893797057479,-0.000747525472255084,-0.0020091653623668815,0.00962766634557926,0.9916751636131536
2011-10-05,-1,-0.0004294270546284974,-0.0004146530897488345,-0.0038213935143097282,0.014053397969534132,0.990232792939726
2011-10-07,1,0.0001783342040304575,0.00027222602051529024,-0.007296852522897501,0.014516089710875793,0.9891121013590058
2011-10-11,1,0.00033958641996343546,0.0004450660884038985,-0.008253308115949624,0.009207695154066074,0.9894850146993751
2011-10-13,1,0.0001627735327346504,0.00022704888645965775,-0.011280465877172085,0.009207695154066074,0.9879389275926
2011-10-17,1,6.479952954820543e-05,0.00010457381244731036,-0.011280465877172085,0.010775028746371111,0.9873706241187394
2011-10-19,1,0.00014517821777260554,0.00020211959335007421,-0.011280465877172085,0.010775028746371111,0.9871964328063394
2011-10-21,1,0.0005202927889732592,0.0006131916036141076,-0.011280465877172085,0.008018464391432022,0.9878273780583215
2011-10-25,1,0.00011173852074049331,0.00013784042294757323,-0.013598280088590844,0.008018464391432022,0.9865882050893788
2011-10-27,1,0.0010419526550632383,0.0011720940220807901,-0.015864398847524976,0.007024229522945515,0.9875460268907734
2011-10-31,1,0.00043361951433434193,0.0004887827812022724,-0.015864398847524976,0.008018464391432022,0.9872314992453547
2011-11-02,0,0.0,0.0,-0.011126524267532342,0.008018464391432022,0.9878044422557625
2011-11-04,0,0.0,0.0,-0.007911533156116278,0.008018464391432022,0.989207080381723
2011-11-08,0,0.0,0.0,-0.0054308623981941554,0.007999581412375436,0.9894370318102759
2011-11-10,0,0.0,0.0,-0.004982319810807137,0.010551974127043388,0.9900264949474517
2011-11-14,1,0.000579758373950861,0.000598393793635943,-0.004982319810807137,0.008519144523372385,0.9904081117275441
2011-11-16,1,0.0010619859151397826,0.001163200975668925,-0.004982319810807137,0.01307053672242782,0.9901679589106709
2011-11-18,1,0.0009476710480454155,0.0010370760025219074,-0.006161951484704987,0.01307053672242782,0.9900538885703231
2011-11-22,1,0.0006511956117253401,0.0007357772807315171,-0.0014330226607906446,0.015360007379439601,0.9901694869288364
2011-11-25,1,0.0003090457874238341,0.00032729284866492547,0.0003300067676652988,0.015360007379439601,0.9907244443509364
2011-11-29,1,0.0009978392976969193,0.0011037976277694646,-0.0009294537115346942,0.01307053672242782,0.9921779303584444
2011-12-01,1,0.0010539214566025125,0.0011571875992697172,-0.002052791488743741,0.009892016515576897,0.9926583829752508
2011-12-05,1,0.0013356372037874181,0.0014742384484689038,-0.0033707705319897356,0.008691716795450952,0.9915970901073159
2011-12-07,1,0.0015047408648155972,0.001643484047020354,-0.004127304233643505,0.009844821706093446,0.9907897858228346
2011-12-09,1,0.0018670708523816806,0.0020746272849708814,-0.0033707705319897356,0.008691716795450952,0.9917700706144609
2011-12-13,1,0.0016146625297585385,0.0017842882034807934,-0.0027270179925157232,0.008691716795450952,0.9923507527170355
2011-12-15,1,0.001747511990107524,0.0019308460189054444,-0.0027270179925157232,0.007226126506802499,0.9927789238160476
2011-12-19,1,0.001168432657881753,0.001245406956429352,-0.0027270179925157232,0.007226126506802499,0.9923977806903107
2011-12-21,1,0.001812319400687961,0.001961686447675574,-0.0027270179925157232,0.006127333113366065,0.9935934254850878
2011-12-23,1,0.0016473862068152245,0.001741007812587634,-0.0029665377494291264,0.006127333113366065,0.9931503068346356
2011-12-28,1,0.0013088409253161854,0.001330011161559455,-0.0035923618865013073,0.004784907043940178,0.9931762215791248
2011-12-30,1,0.001063449976487798,0.0010785524383514818,-0.0032844930062016263,0.0042441571806274125,0.9935423352662781
2012-01-04,1,0.0008438895985526612,0.0008649125540740876,-0.0017171696365192997,0.0042441571806274125,0.9952361250427246
2012-01-06,1,0.001227311120539427,0.0013636674357407506,-0.0017171696365192997,0.0033274517178531514,0.9961616013095771
2012-01-10,1,0.0012104991917355227,0.001321261374889677,-0.0017171696365192997,0.00315545805212987,0.9961233354008951
2012-01-12,1,0.0010568225918595278,0.0011310800701496287,-0.0017171696365192997,0.0029940551217627594,0.996181668088106
2012-01-17,1,0.0010138594916351041,0.0011181056222632545,-0.0017171696365192997,0.0036737292034600957,0.995958978170798
2012-01-19,1,0.0003825465578474114,0.00039429227527892246,-0.0017171696365192997,0.0036737292034600957,0.9959667699212598
2012-01-23,1,0.00132042057089165,0.001476790894566705,-0.003016706087910155,0.0032417402136136475,0.9962323679042889
2012-01-25,1,0.0018971883534740553,0.0021353807554943985,-0.0035581372630967695,0.002907390013721704,0.9966936598354552
2012-01-27,1,0.0014101490459941341,0.0015582126552693828,-0.0018699609351002218,0.002907390013721704,0.9968805278126347
2012-01-31,1,0.0010300127573500133,0.0011051620551310918,-0.003851985178582624,0.002907390013721704,0.9958596637125146
2012-02-02,1,0.0008881172339199139,0.0009210507227051417,-0.003851985178582624,0.0032417402136136475,0.995704694586886
2012-02-06,1,0.0007155701683213251,0.0007235733956238752,-0.0041506078809698255,0.0032417402136136475,0.9956850009210703
2012-02-08,1,0.001093397446026197,0.0011725401176102856,-0.0041506078809698255,0.0032902153885377193,0.9956729887047201
2012-02-10,1,0.0011097873952964365,0.0011927116319722906,-0.0041506078809698255,0.004397855532664693,0.9950578333148311
2012-02-14,1,0.0009753605643371533,0.001017996663839488,-0.0041506078809698255,0.003817577274383807,0.9948062441982896
2012-02-16,1,0.0007361207808058578,0.0007403022418785501,-0.0035581372630967695,0.003296519228746455,0.9953152309802465
2012-02-21,1,0.0005008912354137723,0.0005354468839812538,-0.0025725187868883012,0.003296519228746455,0.9954190646992578
2012-02-23,1,0.0004988756377690582,0.0005177000070226207,-0.0016605643534855327,0.003296519228746455,0.9955181082676824
2012-02-27,1,0.00022905475802829434,0.00032463257751402417,-0.0016605643534855327,0.003296519228746455,0.995511229882732
2012-02-29,-1,-0.00023033517820535647,-8.708935391533323e-05,-0.0006221652761590707,0.003296519228746455,0.9960673748707163
2012-03-02,1,0.0002636057101501305,0.0003160398978986769,-0.0006221652761590707,0.003296519228746455,0.995921092212189
2012-03-06,0,-3.924797388890454e-05,5.751760715080054e-05,4.25950573941511e-05,0.003817577274383807,0.9954128929517355
2012-03-08,0,-6.690864306810172e-05,3.825803296405011e-05,0.0002863543043370461,0.007221834669966584,0.9948633243558562
2012-03-12,1,0.0005103024904586687,0.0005548153488516436,-0.0016605643534855327,0.004134311206718267,0.9953427196710061
2012-03-14,-1,-0.0002034771934384627,-7.385760508973871e-05,-0.0006221652761590707,0.004134311206718267,0.9957588940358297
2012-03-16,1,0.00023920490587261024,0.00029357998650027,-0.0007889511634555475,0.007221834669966584,0.9952576982065469
2012-03-20,0,-3.9483354527062046e-05,7.428485520325601e-05,-0.0011214643088703106,0.007221834669966584,0.9950225987541382
2012-03-22,1,0.0006250712489450124,0.0006642483091115538,-0.001828133983605267,0.0077904065923277005,0.9946845732958203
2012-03-26,1,0.0003826594085882832,0.0004123818837867909,-0.0022909472454132216,0.0077904065923277005,0.9945514730442718
2012-03-28,1,3.6129533467184414e-06,7.843383419240326e-05,-0.0014281248663983357,0.00793594922957821,0.9944964149056666
2012-03-30,1,0.0006696404233092902,0.0006873374071838608,-0.00215419073091992,0.007805508148310939,0.9949057870426987
2012-04-03,1,0.0008021405605772078,0.0008283501460486821,-0.003080705053554111,0.007221834669966584,0.9950573643451037
2012-04-05,1,0.001006376596137448,0.0010284915679699123,-0.0031066647812459146,0.003003035051745891,0.9954149994546424
2012-04-10,1,0.00032021524819778806,0.0003914508352230179,-0.00215419073091992,0.005582676730381822,0.9956497589866798
2012-04-12,1,0.000679802095270418,0.0006873732575185612,-0.00215419073091992,0.00819623949143598,0.9949990260601683
2012-04-16,1,0.0006856933013884896,0.0007020964914375803,-0.0014281248663983357,0.00801907988220699,0.995466847748919
2012-04-18,0,-0.0001174021922038595,4.215908812576282e-05,-0.0012325611572889057,0.00801907988220699,0.995810634059112
2012-04-20,1,0.0002639871893900108,0.0003839733187811948,-0.001386832244558224,0.00327577998645562,0.995982935660128
2012-04-24,1,0.0009073876952530281,0.0009079621808936851,-0.000989602906230872,0.0038797571000870135,0.995965126168078
2012-04-26,1,0.001022469184868953,0.001048560052819743,-0.0016500848472718536,0.002049685543774359,0.9957605751526237
2012-04-30,1,0.0010610973274667627,0.00110810240449208,-0.000989602906230872,0.004646252465426045,0.9956362456371604
2012-05-02,1,0.00102503453418476,0.0010879966347409015,-0.000989602906230872,0.004646252465426045,0.9956994775119299
2012-05-04,1,0.0009404405775131483,0.0010009937947519053,-0.000989602906230872,0.004646252465426045,0.9952888974774249
2012-05-08,1,0.0010433670020252547,0.0011009063076862138,-0.000989602906230872,0.005130926921086271,0.9950914121903303
2012-05-10,1,0.001425231733891133,0.0015407289528316442,-0.000989602906230872,0.006338415522308081,0.9951191633259655
2012-05-14,1,0.001532590737150875,0.001641259227534681,-0.001885124478072029,0.005130926921086271,0.9951120693089813
2012-05-16,1,0.001659968474831675,0.0018372513571000264,-0.0015475415550961363,0.006338415522308081,0.9951365495826078
2012-05-18,1,0.0014708642392296171,0.001635097392285484,0.0014675186582750908,0.006380861926958543,0.9953050526607138
2012-05-22,1,0.0017128579773875875,0.0019088108957932871,-0.004232730686947511,0.006380861926958543,0.9948119285901826
2012-05-24,1,0.001423774010489382,0.0015832325223047758,-0.004232730686947511,0.006380861926958543,0.994739289736766
2012-05-29,1,0.0013535033138379346,0.0014265954437887667,-0.004232730686947511,0.006380861926958543,0.9948309970975239
2012-05-31,1,0.0011745069685360548,0.0012194133922448082,-0.0008584070072090659,0.006769339567696671,0.9946900229290463
2012-06-04,1,0.0008687924628210675,0.0008853491463868174,0.0003645139823925598,0.007666009544758205,0.9946068085732401
2012-06-06,1,0.0012246186436838265,0.0012861917514339024,-0.0027210198393613277,0.0066617394652410886,0.9949304971828006
2012-06-08,1,0.0016970009205849292,0.0017974027362567487,-0.003893602730708073,0.003976665025246102,0.9952280382522578
2012-06-12,1,0.0013342327082645532,0.001364743444699068,-0.0027315369776220637,0.00485104432857762,0.9949801655387583
2012-06-14,1,0.001681358858767255,0.0017864265933471319,-0.0027315369776220637,0.00485104432857762,0.9946649795963851
2012-06-18,1,0.002159509443095143,0.002354413783602288,-0.0027315369776220637,0.0032517976595196766,0.9946899007882987
2012-06-20,1,0.0014230702222222944,0.0015063630917547426,-0.0023336645883326582,0.005733105877624565,0.9948496479674669
2012-06-22,1,0.0010004943605751012,0.0010154579853155505,-0.0023336645883326582,0.005733105877624565,0.9948736588407073
2012-06-26,1,0.001162409594822041,0.0012025919269451212,-0.0031081495429713816,0.004631842841087421,0.9941466572925977
2012-06-28,1,0.0015174663534849894,0.0015912421861126662,-0.0031081495429713816,0.0063921838439973955,0.9931377271400509
2012-07-02,1,0.0016695727602774044,0.001772998863095428,-0.004493914974150554,0.004789479647459287,0.9931489490394443
2012-07-05,1,0.00140066342996313,0.0014607973199648736,-0.005590370549920547,0.004789479647459287,0.9930050982237691
2012-07-09,1,0.000917738496132656,0.0009221759250970937,-0.005590370549920547,0.006309934127541374,0.9927613298163824
2012-07-11,1,0.0010138561594107245,0.0010166658801252933,-0.006350295938352673,0.004789479647459287,0.9928392770195307
2012-07-13,1,0.0014239368830837613,0.0014708950450521238,-0.006899965488225073,0.004789479647459287,0.9926157904534036
2012-07-17,1,0.0011573207228812252,0.0011611012837246762,-0.007287275302460123,0.004789479647459287,0.9922696708380531
2012-07-19,1,0.00161285697815068,0.0016841800740622645,-0.007287275302460123,0.004745419178776925,0.9925802197133039
2012-07-23,1,0.0009637724212396928,0.0010009556477207622,-0.007287275302460123,0.004745419178776925,0.992717990195773
2012-07-25,1,0.0004106591794175415,0.0005065763682340744,-0.0069266955207053895,0.004745419178776925,0.9931127337144561
2012-07-27,1,0.0011001461670193129,0.0011296240128595386,-0.007287275302460123,0.004407679502415499,0.9935028300121395
2012-07-31,1,0.0007783704039080713,0.0008460562665910864,-0.006933143934366878,0.004511069590542463,0.9939105467540259
2012-08-02,1,0.0008087341837938063,0.000840899861545427,-0.0073978547391990515,0.004511069590542463,0.9936469660957841
2012-08-06,1,0.0008812532895837317,0.0009024503887258385,-0.0073978547391990515,0.002070637454848062,0.9941996400795311
2012-08-08,1,0.0006019787763047259,0.0006529450187829317,-0.006933143934366878,0.003986360925555466,0.9945749330166105
2012-08-10,1,0.0007609490042403042,0.0007926813622929948,-0.005798134297211974,0.003975666076562524,0.9949937744736828
2012-08-14,1,0.0003297975420994758,0.00041803120467255855,-0.005798134297211974,0.003638193117415133,0.9950324069156888
2012-08-16,-1,-0.00017217536224818403,-7.391041232668576e-06,-0.007153901540318355,0.003638193117415133,0.9938525395924894
2012-08-20,0,0.0,0.0,-0.005798134297211974,0.003638193117415133,0.9938940204271319
2012-08-22,0,0.0,0.0,-0.004020559005653354,0.003975666076562524,0.9940141239818618
2012-08-24,-1,-0.1280040796359958,-0.1090713678126677,-0.003092959298353703,0.00491027761017347,0.8930380857144803
2012-08-28,0,0.0,0.0,-0.003092959298353703,0.004508379209201335,0.9939419696788359
2012-08-30,0,0.0,0.0,-0.0018551750884256253,0.004508379209201335,0.9944062234112744
2012-09-04,0,0.0,0.0,-0.0021942391170767825,0.005376660608538966,0.9941232519667704
2012-09-06,0,0.0,0.0,-0.0021942391170767825,0.005376660608538966,0.9939874423387148
2012-09-10,0,0.0,0.0,-0.0026554857541662923,0.005376660608538966,0.9940967344237915
2012-09-12,-1,-0.0007818397691053706,-0.0006250786436009141,-0.0027988163737977917,0.005376660608538966,0.9940871448566887
2012-09-14,-1,-0.0008042167532499765,-0.0006286336947199109,-0.0027988163737977917,0.005111171236596472,0.9956101904746822
2012-09-18,-1,-0.0009410045715013963,-0.0007565761005357998,-0.00222816797307174,0.005376660608538966,0.9948895468690478
2012-09-20,-1,-0.0005915090495057945,-0.0004440567117299582,-0.00222816797307174,0.005376660608538966,0.994382079118793
2012-09-24,0,0.0,0.0,-0.0027988163737977917,0.004407997451330109,0.9952396867555544
2012-09-26,0,0.0,0.0,-0.0047438584644948914,0.0038662884054348817,0.9940856120206443
2012-09-28,0,0.0,0.0,-0.0047438584644948914,0.0038662884054348817,0.994048570791331
2012-10-02,1,0.0012999802419290923,0.0013124765632363002,-0.0047438584644948914,0.0038662884054348817,0.9937012858372882
2012-10-04,1,0.0016411290355760884,0.0016847851884683016,-0.0047438584644948914,0.0032055876858771712,0.9934876686285388
2012-10-08,1,0.000440190971978938,0.0004592697997839283,-0.006132198101047721,0.0032055876858771712,0.9931229895531863
2012-10-10,-1,-0.0002618733989576469,-0.00014055361729742386,-0.006501460332109209,0.0032055876858771712,0.9934906290103477
2012-10-12,0,0.0,0.0,-0.006501460332109209,0.0038662884054348817,0.9930646192863822
2012-10-16,0,0.0,0.0,-0.006501460332109209,0.00012765197213808965,0.993409219609255
2012-10-18,1,0.0008792119431117619,0.0009045344244256497,-0.006501460332109209,0.00012765197213808965,0.9931657075453403
2012-10-22,1,0.00047066529710396577,0.0005042782890967179,-0.006654590922466619,0.0007550664754764284,0.9933004912435296
2012-10-24,-1,-0.0009508711350805007,-0.0007274073235828008,-0.00619913551316394,0.0034255436184656776,0.9947628834343926
2012-10-26,-1,-0.0007531283697761214,-0.0005776458840481143,-0.00619913551316394,0.0011603441920363926,0.9946561423800976
2012-11-01,-1,-0.00020817660389233536,-0.00013330961761903983,-0.00619913551316394,0.004817337767303395,0.9939716385331
2012-11-05,0,0.0,0.0,-0.006200932976240945,0.004817337767303395,0.9934929946641379
2012-11-07,0,0.0,0.0,-0.006061572939849631,0.006211229729889913,0.9936670102883032
2012-11-09,-1,-0.0009204740982385147,-0.0007890212405279402,-0.005684686984864262,0.006211229729889913,0.9939258350021974
2012-11-13,-1,-0.0011820251671437094,-0.0010112555010626156,-0.0038778179074257547,0.006211229729889913,0.9944057192671388
2012-11-15,0,0.0,0.0,-0.0038778179074257547,0.009202985007915332,0.9937798468343898
2012-11-19,0,0.0,0.0,-0.0038778179074257547,0.009202985007915332,0.99367706609011
2012-11-21,0,0.0,0.0,-0.0036152097919957635,0.009202985007915332,0.9937756313727288
2012-11-26,0,0.0,0.0,-0.004776639679534449,0.006137397439720998,0.9939018905039777
2012-11-28,1,0.0002092582092174711,0.00023316421059178965,-0.004776639679534449,0.006137397439720998,0.993671058243335
2012-11-30,0,0.0,0.0,-0.005701503217089114,0.003589012314078509,0.9932416359055403
2012-12-04,0,0.0,0.0,-0.0036152097919957635,0.006896226050504522,0.9928626034808794
2012-12-06,0,0.0,0.0,-0.004549442318843539,0.005033498768284354,0.9933247602947598
2012-12-10,0,0.0,0.0,-0.0052449115424820355,0.006592772750307789,0.9927680169135825
2012-12-12,0,0.0,0.0,-0.0052449115424820355,0.009966956228231301,0.9922661475184105
2012-12-14,1,0.0010789463425768364,0.001095309216819335,-0.004549442318843539,0.006371505537192819,0.9931157412152497
2012-12-18,0,0.0,0.0,-0.0052449115424820355,0.004282994692661827,0.9935194584850396
2012-12-20,0,0.0,0.0,-0.0052449115424820355,0.006160411750492332,0.9931334288356702
2012-12-24,0,0.0,0.0,-0.0035828893589889667,0.006160411750492332,0.9932586441060576
2012-12-27,1,0.00026182841474722883,0.0003199363122549829,-0.0027860655050677176,0.006160411750492332,0.9936324649906244
2012-12-31,0,0.0,0.0,-0.0027860655050677176,0.00566335046090713,0.9943671272212488
2013-01-03,0,0.0,0.0,-0.0027860655050677176,0.005108772212685989,0.9951328990337049
2013-01-07,0,0.0,0.0,-0.0027860655050677176,0.004625554945340469,0.9952935683969483
2013-01-09,0,0.0,0.0,-0.0022189652349234776,0.0041219222702133206,0.9958997843700816
2013-01-11,0,0.0,0.0,-0.0022189652349234776,0.0032273363069695773,0.9964265423904949
2013-01-15,0,0.0,0.0,-0.0022189652349234776,0.0035733266693483453,0.996366053276396
2013-01-17,0,0.0,0.0,-0.0020767930174874,0.004190071489929222,0.9964740589612652
2013-01-22,0,0.0,0.0,-0.0020767930174874,0.0035384222769035568,0.99679966277397
2013-01-24,0,0.0,0.0,-0.0020767930174874,0.0032273363069695773,0.9967153829484943
2013-01-28,0,0.0,0.0,-0.0025620981593366485,0.003072975429973942,0.9966220823607588
2013-01-30,1,0.0004465526031825974,0.0004761688808236692,-0.0025620981593366485,0.003072975429973942,0.9970149286497249
2013-02-01,1,0.0008238462175716144,0.000843579775616511,-0.0025620981593366485,0.0035384222769035568,0.9960658548545942
2013-02-05,1,0.000964837343752101,0.0009884334217588366,-0.0020767930174874,0.0039943658668990705,0.9960906140142127
2013-02-07,1,0.0009072573931616766,0.0009339630565588857,-0.002332340939767738,0.0039943658668990705,0.9960536859263509
2013-02-11,1,0.0007072666756803745,0.0007078895341794931,-0.003467227530299063,0.0039943658668990705,0.995386571181227
2013-02-13,1,0.0005333494307146882,0.0005457494853267997,-0.003467227530299063,0.0039943658668990705,0.9950136566211228
2013-02-15,1,0.0006433445798641701,0.0006628110451208328,-0.003467227530299063,0.004334889699006949,0.9949338261914549
2013-02-20,1,0.0011316613246759053,0.0012636309596131222,-0.003467227530299063,0.006365981714725898,0.994351801092723
2013-02-22,0,0.0,0.0,-0.0018650660350853928,0.007031626007589169,0.9940059723472449
2013-02-26,0,0.0,0.0,-0.0010930497261773748,0.007684973481926108,0.9937925427930038
2013-02-28,0,0.0,0.0,-0.00026479312143655323,0.008013664202794445,0.9933668294641845
2013-03-04,0,0.0,0.0,-0.001733490859777084,0.007984792221636658,0.9939822211216246
2013-03-06,0,0.0,0.0,-0.001733490859777084,0.008805333980561261,0.9936957827284894
2013-03-08,0,0.0,0.0,-0.00026479312143655323,0.008805333980561261,0.9935543417165075
2013-03-12,0,0.0,0.0,-0.00026479312143655323,0.008805333980561261,0.9934056088259103
2013-03-14,0,0.0,0.0,-0.001733490859777084,0.008539596131459645,0.9937897998638217
2013-03-18,1,0.00181624114190422,0.0020919279022820923,-0.001733490859777084,0.008988939804200574,0.9940545709234148
2013-03-20,1,0.0023695806351904346,0.002704224205798654,-0.002870456741616537,0.008539596131459645,0.9941687230218574
2013-03-22,0,0.0,0.0,-0.002870456741616537,0.008988939804200574,0.9936073363231138
2013-03-26,0,0.0,0.0,-0.002870456741616537,0.008539596131459645,0.9938545476944733
2013-03-28,1,0.002522885477127277,0.00281891065579377,-0.0022571547544739906,0.006328088791366164,0.9946119799274035
2013-04-02,1,0.0025723540639993416,0.0028649424763063517,-0.0021299734084954565,0.008580398723608393,0.9945249166168938
2013-04-04,1,0.00235765142362982,0.0025780799363881775,-0.0027094354113020285,0.006328088791366164,0.9943184048840886
2013-04-08,1,0.0023364771399309522,0.0025285280572547716,-0.0049861412269101915,0.006328088791366164,0.9935779170584376
2013-04-10,1,0.0020283672535390115,0.0021723902867049963,-0.0049861412269101915,0.006447846672829521,0.9933432787180385
2013-04-12,1,0.0015505874106975645,0.0016043556579328827,-0.007228345848527768,0.006447846672829521,0.9930173353237691
2013-04-16,0,0.0,0.0,-0.005695830823568562,0.006002678879628638,0.9932209897671814
2013-04-18,0,0.0,0.0,-0.005695830823568562,0.0076041689883958145,0.9927140377601791
2013-04-22,0,0.0,0.0,-0.008648724609880002,0.007451801457142036,0.9926543080802284
2013-04-24,0,0.0,0.0,-0.009132157674069209,0.007451801457142036,0.9920870951720033
2013-04-26,0,0.0,0.0,-0.01089356860613905,0.007451801457142036,0.9910594496037789
2013-04-30,0,0.0,0.0,-0.011789934256186754,0.003566303094047352,0.99095703550214
2013-05-02,0,0.0,0.0,-0.011789934256186754,0.0022819537629995695,0.991553017774985
2013-05-06,0,0.0,0.0,-0.01089356860613905,0.004126490141667811,0.9916922141248218
2013-05-08,0,0.0,0.0,-0.01089356860613905,0.004126490141667811,0.9916174914662759
2013-05-10,0,0.0,0.0,-0.009397014694800622,0.007451801457142036,0.9914136012819763
2013-05-14,0,0.0,0.0,-0.01089356860613905,0.004419290403614915,0.9911823527619731
2013-05-16,1,0.001329798428659188,0.0013942145804037493,-0.01089356860613905,0.007769453040921165,0.9908732980655747
2013-05-20,1,0.0012659484443268997,0.0012820337292395356,-0.007843020329924507,0.009428294539884318,0.9907732740450644
2013-05-22,-1,-0.0005856597006168137,-0.0003763442947757207,-0.011789934256186754,0.009428294539884318,0.9892596252791053
2013-05-24,-1,-0.0010757911396452541,-0.0008193901321392781,-0.004350950895219308,0.011563433025442002,0.9895858063843329
2013-05-29,-1,-0.0015991181847485477,-0.0012969254066476084,-0.0012722429916620709,0.011563433025442002,0.989254920587096
2013-05-31,-1,-0.001694744636185101,-0.0013736124423204973,9.798057590931764e-05,0.01198117582514099,0.9881467692676262
2013-06-04,-1,-0.0014099002203598315,-0.0011451209217700252,-0.0027763586715202153,0.01198117582514099,0.9881511991131883
2013-06-06,-1,-0.0003387260283101191,-0.0002172905578646969,-0.0024631754989552757,0.011563433025442002,0.9894821524342658
2013-06-10,1,0.00014563681660236322,0.00021368033461047174,-0.0024631754989552757,0.010857095571262094,0.9897073263196872
2013-06-12,-1,-0.0008376299813671094,-0.000631456698708584,-0.0001141683717413263,0.011563433025442002,0.9890131479473221
2013-06-14,0,-1.8188544243001126e-05,7.217956305120084e-05,-0.0001141683717413263,0.011563433025442002,0.9892890350741939
2013-06-18,1,0.0008304775511783843,0.0008356479759974125,-0.0024631754989552757,0.009686920583042328,0.9902436048473816
2013-06-20,-1,-0.0010721566326381128,-0.0008601097777648416,-0.0019170343331983072,0.009686920583042328,0.9916919295347092
2013-06-24,-1,-0.0009007722205685249,-0.0006979497786680939,-0.0019170343331983072,0.00919267643954435,0.9924986248357979
2013-06-26,-1,-0.000403385578781111,-0.00026254967805047373,-0.0024631754989552757,0.008699029291260284,0.9927157819540697
2013-06-28,1,0.000366807494528145,0.00042265487337253007,-0.0024631754989552757,0.008699029291260284,0.9931436347658411
2013-07-02,-1,-0.001194182241325732,-0.0009893065040940425,-0.0019170343331983072,0.00919267643954435,0.9928413979670637
2013-07-05,-1,-0.0016327674309570654,-0.0013750979256652806,-0.0016010421006819446,0.00953020521079493,0.9916807509028341
2013-07-09,-1,-0.0009498629712673441,-0.0007823582614603649,-0.003230386400511936,0.00953020521079493,0.9923120203683701
2013-07-11,-1,-0.0001786714411833772,-9.670424881070628e-05,-0.003230386400511936,0.007825769892217043,0.9933208168593848
2013-07-15,1,0.0009536284730531832,0.001018399836642328,-0.004578634766221061,0.002082513345965857,0.993600161085417
2013-07-17,1,0.0005833081942155692,0.0005936902116786802,-0.00555743167184366,0.002082513345965857,0.9934208723420108
2013-07-19,1,0.00029003402483507117,0.00033989733883135016,-0.007823112572797643,-0.0001424911829868401,0.9928099075231807
2013-07-23,1,0.0001411897865638246,0.00022829276443448409,-0.007823112572797643,0.002082513345965857,0.9922452078670917
2013-07-25,1,8.743550706753417e-05,0.00013309874590313942,-0.007823112572797643,0.001715428844020086,0.9920880228018312
2013-07-29,1,0.0006149523833649619,0.0006447853494850831,-0.00843780269601038,0.001715428844020086,0.9916640084419387
2013-07-31,1,0.0013084704833995773,0.0014271511074740494,-0.00843780269601038,0.00049558537634769,0.9919968356826161
2013-08-02,1,0.001012371255589774,0.001046371050750861,-0.00843780269601038,-0.0005491056722109721,0.992739527836636
2013-08-06,1,0.00056022884583544,0.0005700789220068541,-0.007823112572797643,0.00049558537634769,0.9931258038441648
2013-08-08,1,0.00038695863519796656,0.00041268723718013346,-0.007823112572797643,0.001057037522620562,0.9932451123842228
2013-08-12,1,0.00031283250202499853,0.0003170266224036104,-0.007566737174407859,0.0030964827816428652,0.9935562644303636
2013-08-14,1,0.00031417282735831596,0.00031934513388379106,-0.00812932278616584,0.0030964827816428652,0.9934102776370705
2013-08-16,-1,-0.00040224314283709484,-0.00033807558443141306,-0.006645606168314389,0.0030964827816428652,0.9948269634654453
2013-08-20,-1,-0.00024275162422181988,-0.00020776100268584923,-0.004806520386264071,0.0030964827816428652,0.99323213767283
2013-08-22,-1,-0.001414179656892764,-0.001277958208782914,-0.004806520386264071,0.0030964827816428652,0.9929274941399544
2013-08-26,-1,-0.0013187299063636,-0.0012101841222313904,-0.0029296553939159985,0.0030964827816428652,0.9932538611907695
2013-08-28,-1,-0.0004224690644847952,-0.0004190516971746114,-0.004806520386264071,0.0020501727837591134,0.9930784205820777
2013-08-30,-1,-0.0010285911700357157,-0.0009697023410392524,-0.0043530864489430485,0.0020501727837591134,0.9931483178661381
2013-09-04,-1,-0.001250437000430192,-0.0011592865438631932,-0.002678158710646699,0.0020501727837591134,0.9934147440926245
2013-09-06,-1,-0.0012515512341581144,-0.0011616020717353272,-0.0043530864489430485,0.002575441015606374,0.9928178032140018
2013-09-10,-1,-0.0011791685024948944,-0.0010788818951081758,-0.0043530864489430485,0.001992095963484452,0.9929316534075624
2013-09-12,-1,-0.0016231280236419503,-0.0014942694477025427,-0.002552070344451241,0.003979115977306219,0.9923138056967092
2013-09-16,-1,-0.0013670871614807928,-0.0012892220432448474,-0.003974821350356674,0.00425596659730987,0.9918268771427595
2013-09-18,1,0.0008329716454038233,0.0010360789748992956,-0.005559900943581199,0.00425596659730987,0.993272767123486
2013-09-20,1,0.0005762494704778798,0.000747134794261299,-0.003974821350356674,0.004851310386993474,0.9933578012478361
2013-09-24,1,0.0007765744361866436,0.0009812933966816162,-0.003974821350356674,0.004851310386993474,0.9929571665437319
2013-09-26,1,2.3601881300840756e-05,0.00010201379718985078,-0.0017837320951503773,0.004851310386993474,0.9931744829249141
2013-09-30,0,-5.653653701199779e-05,1.081712914397648e-05,-0.0017837320951503773,0.007169061381130985,0.9925136054442562
2013-10-02,-1,-0.0001436742125663605,-0.00011790690572036572,-0.00398795300722848,0.0092758375515368,0.9920142613872571
2013-10-04,-1,-0.0004144572994250083,-0.0004040705437646147,-0.00398795300722848,0.010861753445182499,0.9901673145682744
2013-10-08,-1,-0.000538437623970214,-0.0005266698771314646,-0.005599295914196615,0.010861753445182499,0.9900772025583501
2013-10-10,1,0.00017466110245290415,0.0002564592922250015,-0.008628125766563485,0.010344538011314144,0.9899982991633561
2013-10-14,-1,-0.00034312993763934633,-0.0003069023768604868,-0.007204850150468942,0.010344538011314144,0.9901058904641304
2013-10-16,-1,-0.0007482482088957376,-0.0006395677384811787,-0.007204850150468942,0.0092758375515368,0.9905956600310649
2013-10-18,-1,-0.00045409610208974846,-0.0003396404329163853,-0.007204850150468942,0.010278839315784095,0.9904903864047908
2013-10-22,1,0.0001368033193456485,0.00018319982688316824,-0.009249013524013755,0.0092758375515368,0.990171295488217
2013-10-24,1,0.0003065239164435707,0.00032330474210597385,-0.009491224541616867,0.0092758375515368,0.9894278456043798
2013-10-28,1,0.00039217765372409255,0.0004200475574252686,-0.009491224541616867,0.0065564748404238595,0.9900151924127141
2013-10-30,1,0.0005469879526783497,0.0006130154676252286,-0.009873569356669267,0.005323509347349967,0.9899981579536465
2013-11-01,1,0.0015499666842827926,0.0016819712874684368,-0.00966624501658347,0.004444575860480637,0.9914914536780352
2013-11-05,1,0.0014138884363616997,0.001569376627151381,-0.008451378300260146,0.004444575860480637,0.9921710046594314
2013-11-07,1,0.0012587634719704774,0.0014754113707299834,-0.007472507568823731,0.004444575860480637,0.9926284184440959
2013-11-11,-1,-0.0004056226775321381,-0.00026246495555394273,-0.008451378300260146,0.004444575860480637,0.9921044447152891
2013-11-13,-1,-4.2626082373715496e-05,-4.760530652791296e-06,-0.007472507568823731,0.004223334518963765,0.9923138561214637
2013-11-15,1,0.0006499505244832809,0.0006639358200962135,-0.007472507568823731,0.0018360833341925556,0.9933893774143053
2013-11-19,1,0.0004515977651219125,0.0004820607296692012,-0.006448910008887896,0.0018360833341925556,0.9939378426269612
2013-11-21,-1,-0.0006000019616798848,-0.0004596713710228859,-0.005780209166239811,0.0018360833341925556,0.9943256052195194
2013-11-25,-1,-0.0010245940827718833,-0.0008238029646775336,-0.005519624460024165,0.0018360833341925556,0.9945574896980459
2013-11-27,-1,-0.0009992828709198824,-0.0008276852381858647,-0.004418315907331347,0.0018360833341925556,0.9949727419862691
2013-12-02,-1,-0.0009230434387742064,-0.000795766495996841,-0.0019332442892982691,0.004191462551960119,0.9948336790090664
2013-12-04,-1,-0.0001309449472476531,-0.00010064007489402334,-0.003409700473110824,0.004191462551960119,0.9942817288757834
2013-12-06,-1,-0.0002679954215005689,-0.00025965932614237404,-0.0019332442892982691,0.004191462551960119,0.994822235591608
2013-12-10,-1,-0.0012544464000943186,-0.0011299174195275874,-0.0008068433564514017,0.004952188575483333,0.9948593340205255
2013-12-12,-1,-0.0011516779664584712,-0.001044790317115828,-0.0008068433564514017,0.006862930549437939,0.9943473321766316
2013-12-16,-1,-0.001183840018342271,-0.001053989539364137,-8.799805941388055e-05,0.006862930549437939,0.9943374381498408
2013-12-18,1,2.1561091942347608e-06,4.6373426945107873e-05,0.00043467525516905866,0.006862930549437939,0.9951458280432991
2013-12-20,1,0.0009568583910314961,0.001129432872644012,-8.799805941388055e-05,0.006862930549437939,0.9953115202500994
2013-12-24,1,0.0010967874159018038,0.0013147922472201993,-0.0009194915011526156,0.006862930549437939,0.9944004364777572
2013-12-27,1,0.0009754588827648531,0.0011430639431804575,-0.000994557809660152,0.0076491811082534675,0.9933351344538411
2013-12-31,1,0.0012611467683390212,0.0014697790488527953,-0.000994557809660152,0.00857937594728573,0.9925442465604988
2014-01-03,1,0.0006237336633061969,0.0007259990886990535,-0.000994557809660152,0.009146424936650526,0.992431909045224
2014-01-07,1,0.0004952991795197747,0.0005840583980330437,-0.0032334820481014982,0.009146424936650526,0.9916887463515778
2014-01-09,1,0.0006561646079969435,0.0006913175663020594,-0.0032334820481014982,0.00959964131296868,0.9915523399736612
2014-01-13,1,0.0006179019281894065,0.0006214986569464029,-0.001997906536775434,0.008791624817042216,0.9918806089424157
2014-01-15,1,0.0003161438904713972,0.00037275592812935213,-0.001997906536775434,0.008791624817042216,0.9914721144540742
2014-01-17,1,0.0007286179954553217,0.0007386800642943282,-0.001997906536775434,0.00835355432180707,0.9917475453764953
2014-01-22,1,0.0012326265311768938,0.0013243663853650437,-0.0033953059331535843,0.007301545916844197,0.9921408890387602
2014-01-24,1,0.00033276680254251884,0.0003754469254578486,-0.0033953059331535843,0.007301545916844197,0.9926244178151423
2014-01-28,1,0.001049496284392689,0.0010995283209578159,-0.007899181620858621,0.007017625794679922,0.9931023648426875
2014-01-30,1,0.0016244282202075196,0.0017429495936876096,-0.007899181620858621,0.007017625794679922,0.9939358646786614
2014-02-03,1,0.0013400704714765866,0.0014401346962213718,-0.008483513154653514,0.007017625794679922,0.993508804570555
2014-02-05,1,0.0007205005572050024,0.0007598885169658158,-0.0032507734550215536,0.007017625794679922,0.9939180345635701
2014-02-07,1,0.001154441927812265,0.0011631984009227271,-0.007172120079671664,0.007017625794679922,0.9936456568399987
2014-02-11,1,0.001916069289387878,0.0021396933488915713,-0.007172120079671664,0.005155031005239567,0.993351691911203
2014-02-13,1,0.0017373644406182428,0.0018668910679140768,-0.007172120079671664,0.006074384552587653,0.9927368100911479
2014-02-18,1,0.0018643441013964526,0.0020144281781112184,-0.007172120079671664,0.006611743047841139,0.9924224317635957
2014-02-20,1,0.001248510577255312,0.001302139451636275,-0.007172120079671664,0.006611743047841139,0.9924340848101088
2014-02-24,1,0.0008076092687903142,0.0008195085256513116,-0.005574454016283064,0.009459587911109003,0.9920797265745452
2014-02-26,1,0.00027378218331019317,0.000348122568010758,-0.005574454016283064,0.009459587911109003,0.9921851113373421
2014-02-28,1,0.00031607967486520065,0.0004060994026788373,-0.005574454016283064,0.008584769792585229,0.9922682695760892
2014-03-04,1,0.00024753464861625255,0.00034969637843544247,-0.005574454016283064,0.008207366363455083,0.9927536437960419
2014-03-06,1,0.00023180684468891932,0.000307667773136147,-0.005574454016283064,0.008207366363455083,0.9926073739996845
2014-03-10,1,0.0001621168215022188,0.0002596993593659562,-0.005710045573874041,0.006410145110940257,0.9927257559073868
2014-03-12,1,0.0011775781971257557,0.0011987775407824842,-0.005710045573874041,0.006410145110940257,0.9922634633271382
2014-03-14,1,0.0015062574333614205,0.0016106254602983846,-0.006957337891783208,0.0058648786811220975,0.9924811362767818
2014-03-18,1,0.0016768185553526177,0.0018349619994390187,-0.006957337891783208,0.008207366363455083,0.9920512745336354
2014-03-20,1,0.0013477453427231045,0.0014610639107857956,-0.006957337891783208,0.008207366363455083,0.9917616835077272
2014-03-24,1,0.0013523181048222723,0.0014647102248009128,-0.006957337891783208,0.007111651349698521,0.9922966770123189
2014-03-26,1,0.0012312675664909241,0.0013349983610727795,-0.006566439869787274,0.007111651349698521,0.9928695828775929
2014-03-28,1,0.0023598908573527195,0.0026888593468978603,-0.006566439869787274,0.007543097620579995,0.9924584564563492
2014-04-01,1,0.00209662296437777,0.0023299133541548455,-0.00469002750440797,0.007919713783546127,0.9922482914050069
2014-04-03,1,0.001958980726608244,0.0021529306649540553,-0.00469002750440797,0.007919713783546127,0.9918275039835548
2014-04-07,1,0.0014794571415835034,0.0016144808958215955,-0.0035838656876902206,0.007919713783546127,0.9924159894201934
2014-04-09,1,0.002547338496183987,0.002789436263031643,-0.00469002750440797,0.007919713783546127,0.9925166531925539
2014-04-11,1,0.0022798097886882482,0.0025624892088113565,-0.005010941215892636,0.007919713783546127,0.9919159587028381
2014-04-15,1,0.0027045755935200463,0.002999781422361231,-0.005010941215892636,0.005859724853411197,0.9924456023275685
2014-04-17,1,0.0023800232288675384,0.0026116897589836263,-0.0036633688629060823,0.0039499646291088625,0.9931966897455184
2014-04-22,1,0.0018942807990709968,0.0020774809489971235,-0.005010941215892636,0.0059362954349957186,0.9918044515800553
2014-04-24,1,0.001693859261306361,0.0017922159308544083,-0.005010941215892636,0.0059362954349957186,0.9916263581871867
2014-04-28,1,0.0015729937433310917,0.0016210284901397095,-0.004578871014829443,0.004183381436113247,0.9921011583506507
2014-04-30,1,0.002014317495155323,0.0021220440893915697,-0.007897989085494833,0.0035056838880090594,0.9922977302499535
2014-05-02,1,0.002029662329659475,0.002127443493484166,-0.004578871014829443,0.004183381436113247,0.9929094296954415
2014-05-06,1,0.001604579223050189,0.001614149079878523,-0.004578871014829443,0.004183381436113247,0.9930909428226917
2014-05-08,1,0.0017998897511401048,0.0018025622839777078,-0.0034112433385630817,0.0039602979566621095,0.993747173172699
2014-05-12,1,0.00031651414769731927,0.0004941447716379602,-0.0034112433385630817,0.0039602979566621095,0.994468221838574
2014-05-14,1,0.0005381789827677106,0.000681201663010868,-0.004195844672809937,0.0039602979566621095,0.9939720563320151
2014-05-16,1,0.0005072477408583277,0.0006311152461184488,-0.004087742548821334,0.005364653895053192,0.9935731826667815
2014-05-20,1,0.0006123068588223808,0.0007304773034385341,-0.0022407417876202673,0.00645105149971135,0.9941773354241007
2014-05-22,1,0.0003854339804928242,0.0005482051145867717,-0.0022407417876202673,0.00645105149971135,0.9940736570074444
2014-05-27,1,0.0004082867014991056,0.0005540633197492532,-0.0034314985271875586,0.007787562260045485,0.993471162105036
2014-05-29,1,0.0001759214085493609,0.0003740127317561192,-0.003391354083787799,0.007787562260045485,0.9936431700419667
2014-06-02,1,0.0005461390758652327,0.0006913021053660347,-0.003391354083787799,0.007855576144565038,0.9936891785577305
2014-06-04,1,0.0006019338997272175,0.0007173709373252367,-0.004256610238683368,0.007855576144565038,0.9923644642812322
2014-06-06,1,0.000599484318195846,0.0007256280415393724,-0.006965930053626647,0.007855576144565038,0.9919030525133975
2014-06-10,-1,-0.00034082122037272153,-0.00010324580883285103,-0.0034799328868503126,0.007855576144565038,0.9924446871301729
2014-06-12,-1,-0.00025449200296697567,-4.390281540763894e-05,-0.0034799328868503126,0.006719681288887942,0.9927846717199983
2014-06-16,1,0.0005904308470717453,0.0006795280635517992,-0.0037567143738358685,0.006719681288887942,0.9923819752813692
2014-06-18,1,0.0007718287608033763,0.0008690406313763522,-0.005682020086872422,0.004952538290522963,0.9928316349408629
2014-06-20,1,0.0008921902358085278,0.0009068216498623518,-0.005682020086872422,0.006415069516381223,0.9924489701437595
2014-06-24,1,0.0015283990629965983,0.001634805436793754,-0.005682020086872422,0.004615172667817115,0.9929669447878673
2014-06-26,1,0.0015547550116225884,0.0016762992988429955,-0.005682020086872422,0.004117474488743456,0.993390377839485
2014-06-30,1,0.001403199169025011,0.0014452756829096659,-0.010425054278197012,0.004117474488743456,0.9926014846862034
2014-07-02,1,0.00032460171956145154,0.00038085189215445446,-0.011623297220219446,0.004117474488743456,0.9917765475118967
2014-07-07,0,-4.435531842652963e-05,2.887681679701254e-05,-0.006056270550163839,0.004117474488743456,0.9925242910253996
2014-07-09,1,0.0003057010209767879,0.00032734247986557853,-0.011623297220219446,0.002855744945489669,0.9917875261771075
2014-07-11,1,0.00034516068946410236,0.0003508559607109836,-0.011623297220219446,0.005360864149925234,0.9906581710162863
2014-07-15,-1,-0.00012808462896649763,-4.203809559344792e-05,-0.007287141908098258,0.002855744945489669,0.991671566793038
2014-07-17,-1,-0.0006924855895099974,-0.0005240633875002215,-0.003974851085112079,0.005685689420410613,0.991807793562923
2014-07-21,-1,-0.0005688335161266097,-0.0003806392292609738,-0.003974851085112079,0.0029874854395038467,0.9922532431744797
2014-07-23,-1,-0.0005239968104563907,-0.00036247888198381444,-0.0035180186750558068,0.005685689420410613,0.9916133899782127
2014-07-25,-1,-0.0005580262039941962,-0.00038802346255392873,-0.0042980948600313635,0.005685689420410613,0.9915426746712525
2014-07-29,-1,-0.0009000870473888134,-0.0006694189309437345,-0.0042980948600313635,0.004803517011166247,0.9916895242770827
2014-07-31,-1,-0.0031270502232467923,-0.0026549274885778094,-0.002515603219301367,0.005722423720924005,0.9925490072568699
2014-08-04,-1,-0.0026650845747352744,-0.0022749864585889326,-0.002887825438575687,0.00719326203555758,0.9920454364700263
2014-08-06,-1,-0.002911755600941822,-0.002536901783051835,-0.002811379049259641,0.00719326203555758,0.9921769420259915
2014-08-08,-1,-0.001570437821986129,-0.0013541802851971146,-0.0037790981055899828,0.005722423720924005,0.9937472037182208
2014-08-12,-1,-0.0019858509788954525,-0.0016982352732334324,-0.0037790981055899828,0.005722423720924005,0.9932229140977341
2014-08-14,-1,-0.0013584564666788163,-0.001146579028338934,-0.004579312150477513,0.005456758214409942,0.9928342242996072
2014-08-18,-1,-0.0013446558785229594,-0.0011167438137611825,-0.004579312150477513,0.005808426059465627,0.9924005031028004
2014-08-20,-1,-0.00044325588545140646,-0.00034019421745537276,-0.007071068157845506,0.005456758214409942,0.9929560953982346
2014-08-22,-1,-0.0005463845904340621,-0.0004332557326536458,-0.007071068157845506,0.005637292310865821,0.9927126159531966
2014-08-26,-1,-0.0011039585052161137,-0.0009145032856245309,-0.005835307684774558,0.005637292310865821,0.9935201283421369
2014-08-28,-1,-0.0009454847116987256,-0.0007581824334985964,-0.007071068157845506,0.004239709764997958,0.993345939792165
2014-09-02,-1,-0.00030777606251071574,-0.00025434938070705915,-0.005835307684774558,0.0033670827389407918,0.9940511701686652
2014-09-04,-1,-0.0006796913608329166,-0.000556455152124437,-0.0058723214948805166,0.0035075719912423553,0.993974539456991
2014-09-08,-1,-8.859293342066015e-05,-7.46302792440866e-05,-0.005648465951544961,0.0035075719912423553,0.9940701858352468
2014-09-10,-1,-0.000980045271614344,-0.0008520779929489127,-0.005648465951544961,0.004501910360990313,0.9932839889595735
2014-09-12,-1,-0.0016832187745416756,-0.0014724255911588362,-0.005648465951544961,0.0035075719912423553,0.993603593953491
2014-09-16,-1,-0.001045915524399899,-0.0009190334733630816,-0.00624509444783739,0.0035075719912423553,0.9935827101122555
2014-09-18,-1,-0.0012504908718752599,-0.001133093010016596,-0.00624509444783739,0.004501910360990313,0.992372390341058
2014-09-22,-1,-0.00043958424468068795,-0.0004390860868411884,-0.00624509444783739,0.005161097299625793,0.991950675184025
2014-09-24,-1,-0.0011289292630023695,-0.001005316606787482,-0.00624509444783739,0.0067796953242151604,0.9912444225383127
2014-09-26,-1,-0.0014745230990844361,-0.0013103264362915915,-0.005648465951544961,0.00935884044085132,0.9907981588713956
2014-09-30,-1,-0.000986683540869963,-0.0008985935233191055,-0.005648465951544961,0.00971206047573603,0.9906132289557749
2014-10-02,-1,-0.001759545225753824,-0.001526837111298447,-0.005522133263135186,0.010580922841348277,0.9900459457836343
2014-10-06,-1,-0.001558746285043122,-0.0013685272903081794,-0.003395421917964431,0.010580922841348277,0.9900247656764737
2014-10-08,-1,-0.00039934211542267555,-0.00034346778139549017,-0.0003657110137385673,0.010580922841348277,0.9899266731918555
2014-10-10,-1,-0.0014405820317118778,-0.0012834508363238249,0.00042970666733260516,0.010580922841348277,0.989588663304415
2014-10-14,-1,-0.0014489028307369247,-0.0012970669962733654,0.00042970666733260516,0.010580922841348277,0.9895237913615375
2014-10-16,-1,-0.0014655002243672782,-0.0012989942124820406,-0.003395421917964431,0.00971206047573603,0.9901037807215511
2014-10-20,-1,-0.0006926005264933648,-0.0006186548973097367,-0.004416694436448436,0.010580922841348277,0.9904794887803621
2014-10-22,1,0.00010742980345803417,0.00014324504919515767,-0.004416694436448436,0.008952528757408798,0.9911742612238721
2014-10-24,1,0.0007700660783004396,0.0008993174974588646,-0.005576749730189004,0.0077283851482918674,0.9916444140251317
2014-10-28,1,0.0010714862032124564,0.0012428090867428136,-0.005576749730189004,0.006824493328400364,0.9918512206119697
2014-10-30,1,0.0010125753318342937,0.00113746469419568,-0.0053262471507646595,0.006824493328400364,0.9921051465720084
2014-11-03,1,0.0012313319944535978,0.0013824340105285905,-0.0053262471507646595,0.006824493328400364,0.9922650892263118
2014-11-05,1,0.0029367246370384887,0.003343095136046484,-0.007054909977493257,0.004667042605214191,0.9931484037918971
2014-11-07,1,0.003045260480783633,0.0035344358371516764,-0.00641311310815638,0.004667042605214191,0.9933445446345244
2014-11-11,1,0.0028414031941811197,0.003311517138585682,-0.00641311310815638,0.004667042605214191,0.9922491225189146
2014-11-13,1,0.002431023084253363,0.0028174208983019443,-0.005625218364024496,0.006745908787323462,0.9924273908172907
2014-11-17,1,0.0029419275418834786,0.0033939357914868247,-0.005625218364024496,0.004778857885779095,0.9930103726245815
2014-11-19,1,0.0033768890824668295,0.0038914162959305778,-0.005625218364024496,0.0076105722128151955,0.9913402673364741
2014-11-21,1,0.003236814091665684,0.0036895988855443714,-0.005112156143520192,0.0076105722128151955,0.991794619783502
2014-11-25,1,0.002225030165646292,0.0025042749325785403,-0.0024686971758450874,0.0092188150903889,0.9915948261839947
2014-11-28,1,0.002702102385364144,0.0030489580587732823,-0.0024686971758450874,0.010457144226893061,0.9913708720049983
2014-12-02,1,0.003344470749628528,0.003736382768942321,-0.0072928662410982874,0.010457144226893061,0.9893616717869058
2014-12-04,1,0.0026191707468355262,0.0028904073165440074,-0.006706215179583263,0.010457144226893061,0.9895433679114172
2014-12-08,1,0.0025746765481224868,0.00287957590519901,-0.003763784998648321,0.010457144226893061,0.9897924465468377
2014-12-10,1,0.0015721493066047938,0.0017713509325039136,-0.003323362544982267,0.010457144226893061,0.9906130871555496
2014-12-12,1,0.001311336219898314,0.0014705756670697404,-0.0017488782131779442,0.009633022269733324,0.9914970786078847
2014-12-16,1,0.0013813629126359637,0.0015452414216086733,-0.0028528114875626424,0.009633022269733324,0.9913075224763815
2014-12-18,1,0.0029095089917609233,0.003273977523964666,-0.0028528114875626424,0.007208912206952141,0.9931231437950592
2014-12-22,1,0.0021235247794103387,0.002271998960037507,-0.0032744001974482984,0.008898129416506716,0.992333846736253
2014-12-24,1,0.0027086200588869514,0.0029436735283955816,-0.0032744001974482984,0.007123773534805518,0.9930492926195228
2014-12-29,1,0.0028709378083051143,0.0030783426055576322,-0.005069215782269336,0.0062754128547043535,0.9926649454795556
2014-12-31,1,0.0020470795612497544,0.002216503085923926,-0.0032744001974482984,0.007123773534805518,0.992865293514244
2015-01-05,1,0.0016059304186484295,0.0016954054065472799,-0.0026723810760733422,0.007901722470640192,0.9931398541691752
2015-01-07,1,0.0021514374486712637,0.002335364672438793,-0.0032744001974482984,0.006820017443565552,0.9932488738579609
2015-01-09,1,0.0015304157152768146,0.0016506403405373274,-0.004675981740359513,0.006820017443565552,0.9913795533966023
2015-01-13,1,0.0017222845913111321,0.0019062232862998526,-0.008364782633347147,0.007901722470640192,0.9889184585732959
2015-01-15,1,0.0017232279401833694,0.0018989749886006149,-0.011791019127594954,0.007901722470640192,0.9884744993721901
2015-01-20,1,0.0020046173271004125,0.002191088969860972,-0.011791019127594954,0.007901722470640192,0.9875894322679596
2015-01-22,1,0.0022973188140159168,0.0025300716037626415,-0.011791019127594954,0.0038983407225166118,0.9875130139103229
2015-01-26,1,0.002148160633812141,0.0023476716051512047,-0.011791019127594954,0.00466937366362678,0.9875457145062159
2015-01-28,1,0.0020455036832417806,0.0022238295146419724,-0.013155774233743275,0.0029221431505921302,0.9873695152206672
2015-01-30,1,0.0017366940526137805,0.0018677842794918415,-0.013155774233743275,0.002516588943345604,0.9881789815826764
2015-02-03,1,0.0016600483580793569,0.0017475098816466298,-0.013155774233743275,0.002516588943345604,0.9880384206959872
2015-02-05,1,0.0010326110226648113,0.0010558436287575331,-0.016885484982469258,0.0029221431505921302,0.986694530089971
2015-02-09,-1,-0.0005985010925922799,-0.0004028985122750999,-0.011547477730167255,0.0029221431505921302,0.9887772759594494
2015-02-11,-1,-0.0005014556830828476,-0.00030100372144695024,-0.009614760261899117,0.0029221431505921302,0.9902833930596663
2015-02-13,-1,-0.0010389059176652295,-0.0007737470489480072,-0.0064219434193456566,0.003754719379866678,0.9899113025229205
2015-02-18,0,-5.6158865724806784e-05,0.00010164973211786003,-0.0064219434193456566,0.003754719379866678,0.9896957279661045
2015-02-20,-1,-0.0006172363585103463,-0.0003763339516266827,-0.0064219434193456566,0.00416325882985027,0.9892882023201824
2015-02-24,-1,-0.0006376471926658611,-0.0003949601001901602,-0.008759016447370677,0.00416325882985027,0.9890847618693849
2015-02-26,-1,-0.0016554367262215364,-0.0012850691254964945,-0.008759016447370677,0.00416325882985027,0.989264907989428
2015-03-02,-1,-0.0024230865617701604,-0.001957909445788477,-0.007204229945740015,0.00746961258997833,0.9889621901295339
2015-03-04,-1,-0.0021265329633148337,-0.0017356163017144884,-0.007204229945740015,0.00746961258997833,0.9887769171937781
2015-03-06,-1,-0.0035916710202640633,-0.0029908702604188376,-0.006632890591410255,0.007652046881877168,0.9898001621801344
2015-03-10,-1,-0.003961773696911686,-0.0033133614559075876,-0.006632890591410255,0.007652046881877168,0.9898019228005189
2015-03-12,-1,-0.0030269347516794186,-0.002507023955814601,-0.006632890591410255,0.007652046881877168,0.9909486041470226
2015-03-16,-1,-0.002079376497926647,-0.0016948253400060449,-0.007204229945740015,0.007003168822869207,0.9917235074245104
2015-03-18,-1,-0.0002945218329161413,-0.0001422187912040059,-0.007204229945740015,0.006115551336527975,0.9933937338622746
2015-03-20,-1,-0.00048471328106298274,-0.0003295832569072357,-0.006632890591410255,0.007003168822869207,0.9933812399060326
2015-03-24,-1,-0.00080775262493399,-0.0006256636628513007,-0.006632890591410255,0.007003168822869207,0.9933901258947682
2015-03-26,-1,-0.0012591591861092215,-0.0010388203924170396,-0.004493339083693119,0.007652046881877168,0.9933788558369384
2015-03-30,-1,-0.0006464520255851708,-0.0005037829405784848,-0.006056140809610857,0.006963726935946295,0.9937199295062821
2015-04-01,1,0.0005460910725530084,0.000615924061558392,-0.010635434921209583,0.00625564479194972,0.9926172287505708
2015-04-06,1,0.0005337761685049502,0.0005921811882374387,-0.010635434921209583,0.007677221348615683,0.9921613754685541
2015-04-08,1,0.00014083924383053424,0.00014463801375023727,-0.010635434921209583,0.007677221348615683,0.9916090959691469
2015-04-10,-1,-0.00010114399335026049,-3.350091420677411e-05,-0.010635434921209583,0.006393720162560125,0.9915331631110101
2015-04-14,-1,-0.00015474451466266102,-9.994809468303066e-05,-0.010821911329187178,0.006393720162560125,0.9917401337499187
2015-04-16,-1,-0.00029782885311755184,-0.00023181493050434157,-0.010821911329187178,0.007697420736122131,0.9914305604084586
2015-04-20,-1,-5.0399360710921286e-05,-1.3706323326842697e-05,-0.010821911329187178,0.007697420736122131,0.9917519287145445
2015-04-22,-1,-0.0006395005955478214,-0.0005173664588994549,-0.003825858015153328,0.007697420736122131,0.9920874846321293
2015-04-24,1,0.00021989944883998852,0.00021993985954215343,-0.005560766637727329,0.005789621760992279,0.9928611053372393
2015-04-28,1,3.9197918451575106e-05,4.860554856676195e-05,-0.005568151624461875,0.005789621760992279,0.9928728573076103
2015-04-30,-1,-0.0013751434220504336,-0.0011695407105429888,-0.0013935675353607595,0.006707133596470727,0.9933081554534924
2015-05-04,-1,-0.0007378432666244821,-0.000610215493144888,-0.002362545275507217,0.005789621760992279,0.9932621030242084
2015-05-06,-1,-0.0022802173477657877,-0.001948986632840031,-0.002362545275507217,0.005789621760992279,0.9929844195193026
2015-05-08,-1,-0.002048630338418225,-0.0017362655307250415,-0.007870233469870895,0.00226521894620365,0.9929547692179944
2015-05-12,-1,-0.002379524422334907,-0.0020387942563957276,-0.004278802214284872,0.004372529816153418,0.9926779740965154
2015-05-14,-1,-0.0010940795192966096,-0.0009895598486257169,-0.004880901107293726,0.0029267785260203407,0.9931419378272961
2015-05-18,-1,-0.0008350604684700158,-0.0007866328329756374,-0.004880901107293726,0.0025736727305978695,0.9935712653085934
2015-05-20,-1,-0.00033936980644079176,-0.00028797416416507984,-0.004880901107293726,0.00652944647579576,0.9923845450405702
2015-05-22,1,0.00019978604545672365,0.0003378805073652425,-0.007870233469870895,0.00652944647579576,0.9919439487035161
2015-05-27,-1,-0.0009229801936848079,-0.0008415926998898681,-0.008904103916170483,0.00652944647579576,0.9914953434667462
2015-05-29,-1,-0.0005031601885233369,-0.0004618675675473444,-0.008904103916170483,0.005972994554835832,0.991631924475697
2015-06-02,-1,-0.00026944599819021895,-0.00026425291316236395,-0.006849254869784772,0.004489465978574117,0.9924788006623936
2015-06-04,-1,-0.000956680015685402,-0.0008739530181207094,-0.005755651256099996,0.005972994554835832,0.9924969894843302
2015-06-08,-1,-0.0016481485738011007,-0.0014891445403075606,-0.0045781289162917065,0.007802080045778663,0.9920404820459147
2015-06-10,-1,-0.001054374898261837,-0.0009681361337400673,-0.005998602546510963,0.005972994554835832,0.9919977734103903
2015-06-12,-1,-0.0005806519859675792,-0.0005791342254402837,-0.005998602546510963,0.005221165010191802,0.9919566746309856
2015-06-16,-1,-0.00030501271208600064,-0.00025145597886392225,-0.005998602546510963,0.0073461702936197665,0.991833066639176
2015-06-18,1,0.0006759304624293969,0.0008642338484779296,-0.007490002074204626,0.005221165010191802,0.9920513970856335
2015-06-22,1,0.00035280304748675894,0.0005068171456349079,-0.007490002074204626,0.005221165010191802,0.9920663767588407
2015-06-24,-1,-0.0003774136728584061,-0.00033029093764767533,-0.005885730181017151,0.006731649489529789,0.9924221812010499
2015-06-26,0,-7.607791503482788e-05,3.2913209127130247e-05,-0.005802646411604988,0.006832191658330821,0.992420823865405
2015-06-30,-1,-0.0002679501402161229,-0.00018910348525865293,-0.0053932448938151,0.006832191658330821,0.9921326180075783
2015-07-02,-1,-0.0004391871110582903,-0.00038633306160726637,-0.0053932448938151,0.0059154166012578245,0.9928585190396282
2015-07-07,1,0.00013904455229752464,0.00019010527395355172,-0.007193176409145278,0.0059154166012578245,0.9926650188588574
2015-07-09,-1,-0.0005317485963892026,-0.00047689117437377243,-0.004978940415938494,0.0059154166012578245,0.9929207670417948
2015-07-13,1,0.0006935941058410847,0.0008664140237137397,-0.004978940415938494,0.006832191658330821,0.9928140001700576
2015-07-15,1,0.0009585934567240566,0.0011451349541039652,-0.004978940415938494,0.007875325200641891,0.9924434046831871
2015-07-17,1,0.000933001749768716,0.0011508888310654618,-0.004500382731019626,0.0059154166012578245,0.9934315401154868
2015-07-21,-1,-0.0001925489747361565,-0.0001585952730961583,-0.0006323936291619116,0.0059154166012578245,0.9934644384112622
2015-07-23,-1,-0.0006765394524632826,-0.0006019165160984256,-0.0024908835297347614,0.005027763605562986,0.9934229460690582
2015-07-27,-1,-0.00042126503140731765,-0.0004028007011220283,-0.004655396541658823,0.004798646593963413,0.9918666875178483
2015-07-29,1,0.0003463863562481508,0.00034696760433548893,-0.0059625126009799625,0.0045695623293085345,0.9906684566769774
2015-07-31,1,0.00035284550219423646,0.00036186243265949104,-0.0059625126009799625,0.005073265486236366,0.9904227775511437
2015-08-04,1,0.0009402583661155804,0.00108298604337837,-0.008617795540246012,0.0045695623293085345,0.9888524609496262
2015-08-06,1,0.0013010457464957522,0.0015271747238754386,-0.008617795540246012,0.0045695623293085345,0.9890057664929163
2015-08-10,1,0.001659038896879835,0.0020197284950596124,-0.008617795540246012,0.0045695623293085345,0.9881319442878201
2015-08-12,1,0.001719377311707794,0.0020560917899900034,-0.013546759124665384,0.002149298185943665,0.9877930394703366
2015-08-14,1,0.0016362779451088768,0.0019353883618068732,-0.013546759124665384,0.0033143498327525742,0.9877982783447646
2015-08-18,1,0.001490831668969332,0.001734970698526763,-0.013546759124665384,0.003501873444316965,0.9874721248112552
2015-08-20,1,0.0014495776916352329,0.0017212022796349257,-0.015323364338740073,0.005408381715305053,0.9869302938820395
2015-08-24,1,0.0008197863567944271,0.0010085835025005429,-0.01122057698748576,0.006379438073165647,0.9886200580482263
2015-08-26,-1,-0.0004089990743409824,-0.00037277941420204734,-0.006884032519779338,0.005651569505812335,0.989905255649608
2015-08-28,-1,-0.0005181276189037208,-0.0005172475072577215,-0.010336506372004256,0.006128996438831578,0.9893008373405011
2015-09-01,-1,-0.0023601565645100637,-0.0021636718440737708,-0.006282037600461067,0.00782180736121802,0.9912484579478719
2015-09-03,-1,-0.0024657218406117874,-0.002247403695917774,-0.008392893048016582,0.008683363493194107,0.989943258166992
2015-09-08,-1,-0.001652822426235453,-0.0015250310418292799,-0.009028095663053001,0.008683363493194107,0.9901815144717685
2015-09-10,-1,-0.0023922345518935977,-0.002191338430528427,-0.00800263233371045,0.00969912849179458,0.9902160721934433
2015-09-14,-1,-0.002274057098897863,-0.00206445156839094,-0.00800263233371045,0.00969912849179458,0.9903769421129407
2015-09-16,-1,-0.0012421013240234966,-0.0011878553191021356,-0.00800263233371045,0.008190661161068778,0.99137835469424
2015-09-18,-1,-0.0014782654578783072,-0.0013718093516217492,-0.0042442296077492185,0.008190661161068778,0.9911976706685144
2015-09-22,-1,-0.0021397707275326505,-0.0019066758225335066,-0.0023179838810380247,0.008190661161068778,0.9916198046795114
2015-09-24,-1,-0.0014665753284049132,-0.0013451194071032793,-0.0023179838810380247,0.00969912849179458,0.9912233572608115
2015-09-28,-1,-0.0020562345075518557,-0.0018172227907355316,-0.003994092826747798,0.008190661161068778,0.9914739348789285
2015-09-30,-1,-0.0016978968402896854,-0.0015213976296451466,-0.003994092826747798,0.005644678687229688,0.9916485624789158
2015-10-02,-1,-0.001663079049682806,-0.0014712831129999786,-0.003994092826747798,0.005504609024318858,0.9922021462770838
2015-10-06,-1,-0.0011085179141086452,-0.0009985530445001702,-0.0033436516999578456,0.0040831393052803856,0.9935866470938766
2015-10-08,-1,-0.00041109825627273734,-0.00040360348572140065,-0.004839027624322773,0.0040831393052803856,0.9932894184237666
2015-10-12,-1,-0.00033222763841439756,-0.0003175139797863721,-0.0078054224603994644,0.00299040005654542,0.9920262259122506
2015-10-14,-1,-0.0004837872882689149,-0.0004790287593929916,-0.0078054224603994644,0.005161257048077843,0.9917607286365221
2015-10-16,1,9.042370753246058e-05,0.00013206826044502432,-0.0078054224603994644,0.003694227574873429,0.9926245919599653
2015-10-20,1,0.0004546112542707068,0.000571013124549013,-0.010857686105737792,0.0076160915793028845,0.9913369429239269
2015-10-22,1,0.0011001590819240273,0.0012970120964918774,-0.010857686105737792,0.0076160915793028845,0.9908894480337832
2015-10-26,1,0.00012626955400165215,0.00015357229707363683,-0.010529059095895965,0.0076160915793028845,0.9915376341526406
2015-10-28,-1,-0.0006259550390867662,-0.0005251662678646537,-0.010503220031863086,0.0076160915793028845,0.9914330468155373
2015-10-30,-1,-0.0004693450116202907,-0.00040534828620855873,-0.006604106523798425,0.005534852882978161,0.9918684616579135
2015-11-03,-1,-0.0005805398728431644,-0.0005038666171680555,-0.010503220031863086,0.00715064344372368,0.9904994112085139
2015-11-05,-1,-0.0007692528988351398,-0.0006809035259665643,-0.010503220031863086,0.00715064344372368,0.9897955124203225
2015-11-09,-1,-0.0009227540302358078,-0.0008715359262312997,-0.006604106523798425,0.007407473048269705,0.9906732679142858
2015-11-11,-1,-0.0010534837346725607,-0.0009558509214960866,-0.010503220031863086,0.007285376888931517,0.990413118126529
2015-11-13,-1,-0.0012963347510083114,-0.0011366506123753337,-0.010503220031863086,0.006166150127669129,0.9907055976007239
2015-11-17,-1,-0.0014747618564191702,-0.00129928449097094,-0.006984323759538822,0.0072205934644119715,0.9892416639757778
2015-11-19,-1,-0.0014580516808727405,-0.0012424794300061506,-0.007065677272713941,0.006166150127669129,0.9898139101428727
2015-11-23,-1,-0.0011741328408366512,-0.001032859198536404,-0.007065677272713941,0.00624963128475702,0.9895551300374309
2015-11-25,-1,-0.0009500866999101088,-0.0008909271351122299,-0.003196217163668201,0.0072205934644119715,0.9896501565850858
2015-11-30,-1,-0.0010122332675498078,-0.0009063473349733621,-0.003196217163668201,0.0072205934644119715,0.9898057796532219
2015-12-02,-1,-0.001747033602792757,-0.001571180611002926,-0.003196217163668201,0.0066482345151714336,0.9906406077560482
2015-12-04,-1,-0.001287985608277937,-0.0011851154424381868,-0.002506642630688778,0.0066482345151714336,0.9917638228470563
2015-12-08,-1,-0.0006479001550898219,-0.0006344072393364084,-0.0031229179097107046,0.006058844968343508,0.9921837401078648
2015-12-10,-1,-0.001667904990506884,-0.0015137844535882846,-0.002038867179845524,0.006058844968343508,0.9921965823183552
2015-12-14,-1,-0.0012939305948056069,-0.001187587187404132,-0.002506642630688778,0.006058844968343508,0.9923752952862932
2015-12-16,1,0.0010383275462286182,0.0012577545205436041,-0.0031229179097107046,0.004857486054665899,0.9949485699705052
2015-12-18,1,0.0004908838418428645,0.0006676948815490325,-0.0031229179097107046,0.006058844968343508,0.9933727237829282
2015-12-22,1,0.0008118406881230918,0.0010329556256628816,-0.0031229179097107046,0.007198069418972383,0.9928690533841832
2015-12-24,1,0.0017013826617289026,0.00205366103851051,-0.0031229179097107046,0.004953470884648141,0.9932681547856296
2015-12-29,1,0.0018649317112568935,0.0022305349284508676,-0.0031229179097107046,0.005804740845330291,0.9928960241768089
2015-12-31,1,0.0017381221361526145,0.002112193517831717,-0.002692914959405643,0.010512805314748085,0.9915951817185716
2016-01-05,1,0.0025529141237181944,0.003076045979518326,-0.0020617129314067415,0.010512805314748085,0.9918100339310275
2016-01-07,1,0.002548391485783519,0.003076790931397175,-0.0020617129314067415,0.010512805314748085,0.9914274996953565
2016-01-11,1,0.00281281986995634,0.0033856870961934075,-0.0020617129314067415,0.010593790853650871,0.9911126205651273
2016-01-13,1,0.00233557746683522,0.0028202341872500215,-0.002939996703337047,0.010593790853650871,0.9900353706101956
2016-01-15,1,0.0022086689433073316,0.0026626078465009973,-0.00218253425468472,0.010593790853650871,0.990321066563822
2016-01-20,1,0.0016023679005776647,0.0019109562375717033,-0.00218253425468472,0.010593790853650871,0.9908936872236281
2016-01-22,1,0.0019148671353700897,0.00226010111875525,-0.0017802778216622472,0.008792997254848067,0.9913842396353288
2016-01-26,1,0.0006590796348181496,0.0006820434378772351,-0.0012889371499620128,0.008792997254848067,0.9908306106722206
2016-01-28,1,0.0011958879811507107,0.0012830422989698533,-0.003588747401470793,0.00824337102401504,0.9901277467471552
2016-02-01,1,0.002521039213005889,0.0028175160317793816,-0.003588747401470793,0.006410582583692486,0.9919907501224897
2016-02-03,1,0.002335218796790193,0.0025407426942114057,-0.006986635919117429,0.0039874508224316775,0.9918003664034556
2016-02-05,1,0.0021197120921057455,0.002302162871552762,-0.0032450534856154406,0.005219184858907773,0.9914345830812751
2016-02-09,1,0.0027723806810040783,0.003060865082019527,-0.0032450534856154406,0.006321047318298579,0.9913664101287876
2016-02-11,1,0.0015655173955869137,0.0016794223749492048,-0.002074432382861606,0.006321047318298579,0.992730283845981
2016-02-16,1,0.001610953975319786,0.001717763728395447,-0.00208670856606781,0.0045091876549364805,0.992864602515987
2016-02-18,1,0.0022878838910857418,0.002490996270074388,-0.0019804659738268987,0.0073317621585022846,0.9935378417214464
2016-02-22,1,0.0024073397408806447,0.0026162559625355483,-0.00208670856606781,0.004476613342691968,0.9932977137399572
2016-02-24,1,0.0023740611478559022,0.00257707757552959,-0.002725550418113812,0.005919269741305683,0.9930394197879344
2016-02-26,1,0.0012530101746678584,0.0013251422550072975,-0.002725550418113812,0.006788435513252069,0.9942106262689678
2016-03-01,1,0.001347406074991452,0.001445494729773867,-0.0043410146182400345,0.007446412072383085,0.9936395663025098
2016-03-03,1,0.001266272318008469,0.001374497301386121,-0.0026251966327765506,0.007446412072383085,0.9939842604146508
2016-03-07,1,0.0019180232501836599,0.0021152385631373312,-0.0043410146182400345,0.006788435513252069,0.9939088184772357
2016-03-09,1,0.0021926674761966977,0.002410469268588771,-0.004468580009636004,0.003733373258645837,0.9940350055303759
2016-03-11,1,0.002364541330565482,0.0026541864892893783,-0.004468580009636004,0.005390451445672614,0.9939406697489116
2016-03-15,1,0.002246482520316424,0.0025238849137734077,-0.004598384519294159,0.005843391787228379,0.9937038945089743
2016-03-17,1,0.0032727623282342577,0.0037175871340101923,-0.004598384519294159,0.005390451445672614,0.9936999222172996
2016-03-21,1,0.00255303440094314,0.0028616415779545807,-0.004468580009636004,0.005390451445672614,0.994468216267766
2016-03-23,1,0.0023308165120105775,0.002592563297170728,-0.004893602991409026,0.003678967119454625,0.9925029761493793
2016-03-28,1,0.002033020563537241,0.0022485721424615928,-0.004559022190982033,0.003678967119454625,0.9925611329264152
2016-03-30,1,0.002076519851302492,0.002284902492125353,-0.004559022190982033,0.005765777572610639,0.9925435978270611
2016-04-01,1,0.00199241154798487,0.0021750029946120053,-0.004559022190982033,0.007584398008016771,0.9921045121069437
2016-04-05,1,0.00044590863672383865,0.0005214303668544381,-0.003808694377668454,0.007584398008016771,0.9927704710186591
2016-04-07,1,0.00041095063409715324,0.0004806831519944887,-0.003912257335118526,0.00887989834534116,0.9924478453793508
2016-04-11,1,0.00040297126266666643,0.0004677234094502815,-0.003170051543962938,0.00887989834534116,0.9926352315312542
2016-04-13,1,0.00041772230596630224,0.00048088016007601726,-0.002882098365684769,0.00887989834534116,0.9929361083938809
2016-04-15,1,0.0005795868722470151,0.0006203403566362228,-0.0030765612048059025,0.00887989834534116,0.9928929954176624
2016-04-19,1,0.00041331499708071044,0.0004895960751537499,-0.0033126350749095113,0.00887989834534116,0.9921210720551803
2016-04-21,-1,-0.001772688484736532,-0.0014143183879724234,-0.0030765612048059025,0.00887989834534116,0.9927987839574972
2016-04-25,-1,-0.0012269864609941227,-0.0009455576100698761,-0.0033126350749095113,0.008022775800192698,0.9928269341961603
2016-04-27,-1,-0.0009484868088829936,-0.0006490190135261914,-0.00397140879041915,0.00642132393820453,0.9929251539988913
2016-04-29,-1,-0.0005430230288016839,-0.0003142185165176702,-0.003690937772948044,0.005990261945288159,0.9932555412811561
2016-05-03,-1,-0.00030963756491813894,-0.0001173510817760959,-0.003690937772948044,0.005990261945288159,0.9935262425458451
2016-05-05,-1,-0.0009491832746793069,-0.0006254995467214192,-0.0030765612048059025,0.005990261945288159,0.9931446147701135
2016-05-09,-1,-0.0010267490450786326,-0.0006990046547656967,-0.0037285256763491363,0.005990261945288159,0.9932010565516103
2016-05-11,1,0.0005073095252149562,0.0005578364042258155,-0.0037285256763491363,0.007983083084354716,0.9924981032815425
2016-05-13,1,0.00013625362765589766,0.0002727377161104034,-0.003436538928324826,0.006476412370141973,0.9931227523912722
2016-05-17,-1,-0.00019265396090446308,-2.6163960739895246e-05,-0.003436538928324826,0.007983083084354716,0.9930898928113855
2016-05-19,-1,-0.0005405291525519766,-0.0003379555044937218,-0.002161096266648859,0.008272661006901254,0.9934080518733097
2016-05-23,-1,-0.0008433727835145916,-0.0006092277684058843,-0.002161096266648859,0.008272661006901254,0.9939246010603551
2016-05-25,-1,-0.0006972657048432121,-0.00046690831304248824,-0.002161096266648859,0.006572938344324152,0.9947688202647829
2016-05-27,-1,-0.0003355077871448031,-0.00016321121608192668,-0.002161096266648859,0.008272661006901254,0.9935109522377298
2016-06-01,-1,-0.0003588856709342633,-0.00015755439985057698,-0.003389767938086795,0.008272661006901254,0.9931834330358956
2016-06-03,1,0.0001188502453737248,0.0002660515542842914,-0.005086694155009331,0.008272661006901254,0.9928562630418672
2016-06-07,-1,-0.0005133709900993899,-0.00027572890141237317,-0.0027210351330155913,0.008664522287400509,0.9926220955520895
2016-06-09,1,0.00039478409674514143,0.0005179564815971907,-0.005086694155009331,0.00831364600355616,0.9922592145822504
2016-06-13,1,5.648940323787826e-06,0.00017635122782950222,-0.0052352833250930795,0.00831364600355616,0.9914675160229477
2016-06-15,1,0.0002930477218021671,0.0004229415047448488,-0.0052352833250930795,0.006986677421597871,0.9917615626430057
2016-06-17,1,0.0004522610959892638,0.0005734736594139318,-0.0052352833250930795,0.005587944925574729,0.9918517736599388
2016-06-21,1,0.0004121440124048843,0.0004981367491779906,-0.0052352833250930795,0.005587944925574729,0.9917663766642176
2016-06-23,1,0.000980598863451962,0.001022693851365959,-0.0052352833250930795,0.008387393432540387,0.9911059795706242
2016-06-27,1,0.0023712251565147836,0.0026196507705538398,-0.005862835247696253,0.007011259897925947,0.9920666472118916
2016-06-29,1,0.0018338998369345095,0.001988993086910518,-0.006966608780824948,0.007011259897925947,0.9919919218253206
2016-07-01,1,0.0026630013544432047,0.0029463811608174406,-0.006966608780824948,0.00665469568708338,0.992881305855342
2016-07-06,1,0.0022498450816023957,0.0024156273571762986,-0.006966608780824948,0.005587944925574729,0.9928504366997857
2016-07-08,1,0.002059408455253002,0.00220490520940341,-0.006966608780824948,0.004016019004280169,0.993433884296757
2016-07-12,1,0.0014362370797280967,0.0015385570852448553,-0.006795374083796461,0.004016019004280169,0.9945683664073296
2016-07-14,1,0.0014723001131318628,0.0015942832961726267,-0.005439974014697783,0.003989015264944583,0.995039546732966
2016-07-18,1,0.0017381547271092604,0.0018963392625679061,-0.006795374083796461,0.002685781233336305,0.994402363586659
2016-07-20,1,0.0006604871681929335,0.0007153921391800902,-0.007124351777838293,0.003989015264944583,0.993820156224808
2016-07-22,1,0.0013695671553607851,0.0013982398210538787,-0.008592231621315905,0.002685781233336305,0.9934187274130123
2016-07-26,1,0.0006271503476972551,0.0007131061296765681,-0.007530524457031659,0.002685781233336305,0.9937942409993145
2016-07-28,1,0.0006321732097442679,0.0006647046477103281,-0.006311160013121323,0.0030758325234902678,0.9941626729919466
2016-08-01,1,0.0011360596080980541,0.0011943089972296437,-0.007731048489589531,0.0030758325234902678,0.9929369212386722
2016-08-03,1,0.0008616638121345713,0.0008705790084289271,-0.009519292557588927,0.002509671673413789,0.9928626370401177
2016-08-05,1,4.959164247557104e-05,0.00014340069978215314,-0.006907241369121122,0.003460686585177036,0.9930952035424737
2016-08-09,1,0.0005716889441163327,0.0005792605702594308,-0.006907241369121122,0.005337689614079797,0.9920724912965581
2016-08-11,1,0.000612134218260282,0.0006141680889136334,-0.009519292557588927,0.0036547987492519455,0.9904747488160788
2016-08-15,0,-3.9303668654534275e-05,3.7664189857512684e-05,-0.009519292557588927,0.006745258062587547,0.9896207821592811
2016-08-17,1,0.00025759324072795783,0.0003158588781343787,-0.006907241369121122,0.005349815437421537,0.9903682555942658
2016-08-19,1,3.627221832045439e-05,0.00011138634486906123,-0.0032718957133262526,0.005349815437421537,0.9907619126739684
2016-08-23,-1,-0.0002594216526990525,-0.00015258010979437236,-0.0019542858370281144,0.007318705462917147,0.989807813782844
2016-08-25,-1,-0.0006804834372364796,-0.00048529554443887653,-0.004021073528200125,0.007318705462917147,0.9893654897283699
2016-08-29,-1,-0.0014529878817356881,-0.0011629426258592322,-0.0027580142292346695,0.006748494794034159,0.990205577030412
2016-08-31,-1,-0.0015798478045703826,-0.0012533543509598267,-0.0028593607808918434,0.006748494794034159,0.989555788124829
2016-09-02,-1,-0.0010795765990109939,-0.000832327522184698,-0.009795862406395059,0.004895389259817302,0.9897150159054854
2016-09-07,-1,-0.0004565941321573507,-0.0002963440015166312,-0.010287235696766522,0.004657455020683334,0.9896642142695156
2016-09-09,-1,-0.001653497141662357,-0.0013620930225873781,-0.009795862406395059,0.004895389259817302,0.9898726171353931
2016-09-13,-1,-0.0024046174183165537,-0.0019677835359957437,-0.009795862406395059,0.004895389259817302,0.9905595928946557
2016-09-15,-1,-0.0016372067776784308,-0.0013084815851006678,-0.009795862406395059,0.009285788728043,0.9895846070859265
2016-09-19,-1,-0.0006545944966218895,-0.0004723382385755045,-0.009795862406395059,0.005462946118022388,0.9901152623463912
2016-09-21,1,0.0003514966822439746,0.0004030907733853598,-0.009795862406395059,0.005443163016789586,0.9904968113357273
2016-09-23,1,6.834439846982853e-05,0.00014847366688719096,-0.006042828721317132,0.005443163016789586,0.9907858789427137
2016-09-27,-1,-0.00018704169391688195,-8.27479997318954e-05,-0.006042828721317132,0.008483454489440592,0.9905618137816045
2016-09-29,-1,-0.0010089626507808391,-0.000806720342943776,-0.005750128270586456,0.008483454489440592,0.9911891704265042
2016-10-03,-1,-0.0015998049536660127,-0.0013389703880438766,-0.004252787524118245,0.008698466839914001,0.990885236633288
2016-10-05,-1,-0.0024010189287088,-0.0020867012128706983,-0.004430331901751267,0.008698466839914001,0.9902183553629081
2016-10-07,-1,-0.001182139614233213,-0.0010021607588878573,-0.00494303490411087,0.008483454489440592,0.9916921017961758
2016-10-11,-1,-0.0016413779939098198,-0.0013939916322823795,-0.004380756237987348,0.008639117536215596,0.9918126094840973
2016-10-13,-1,-0.0010387372365331074,-0.0008570452115017239,-0.00613651885284334,0.0054162744154516145,0.9894557014272157
2016-10-17,-1,-0.0013009324215513896,-0.001082137230873968,-0.009720966707941774,0.006044783255311508,0.9886882275111407
2016-10-19,-1,-0.0010878720402851196,-0.0009040381573060644,-0.009720966707941774,0.0054162744154516145,0.9887245590737685
2016-10-21,-1,-0.0012863743601499418,-0.001081693112259423,-0.009720966707941774,0.0054162744154516145,0.988457103001393
2016-10-25,-1,-0.0003530367758534437,-0.0002835720827864926,-0.009720966707941774,0.004945370325834797,0.9888833419279887
2016-10-27,-1,-0.0007449214964801183,-0.0006154706086174519,-0.008127431922295264,0.004945370325834797,0.9888437523545381
2016-10-31,1,0.0005923389131043291,0.0006739775386478291,-0.008127431922295264,0.005848314741885269,0.9888763542031717
2016-11-02,-1,-0.0007126721376021175,-0.0006222636786914195,-0.007626194037842644,0.005848314741885269,0.9887298484385608
2016-11-04,-1,-0.0009756604706009254,-0.0008609931808441493,-0.007626194037842644,0.008030162273150235,0.9880922229647416
2016-11-08,-1,-7.667394240694263e-05,-6.565023542263004e-05,-0.007626194037842644,0.008030162273150235,0.9875631473237483
2016-11-10,-1,-0.0023515660912453973,-0.002082236237690214,-0.006116912672895582,0.008030162273150235,0.991209938898094
2016-11-14,-1,-0.0025688279712163353,-0.0022700367361023813,-0.004913439974801233,0.009208965031795914,0.9909397035799047
2016-11-16,-1,-0.001896867349528014,-0.001761293702793678,-0.004913439974801233,0.009417478117071509,0.9898564853321982
2016-11-18,-1,-0.0020266497423609238,-0.0018639753998640535,-0.0038382740971366503,0.012092430794189923,0.9892560576686678
2016-11-22,-1,-0.0017899334297028335,-0.001686462762084854,-0.004168320653138466,0.012092430794189923,0.9892813989326783
2016-11-25,-1,-0.0010582665921648876,-0.0010553253541791142,-0.0039055380247834913,0.009695378943723017,0.9897565804763069
2016-11-29,-1,-0.0003599134663202126,-0.0002778525910181504,-0.005240475056905453,0.008335397477758393,0.9908562922623753
2016-12-01,-1,-0.0021337737133555437,-0.0019578630895474712,-0.0036964967131283,0.009687610394720356,0.99125402414346
2016-12-05,-1,-0.0013103786229507236,-0.0012333116691123445,-0.005240475056905453,0.008335397477758393,0.9920024162281406
2016-12-07,-1,-0.000395383251072725,-0.0003432717498028609,-0.005240475056905453,0.004271335999814623,0.9933964181255429
2016-12-09,-1,-0.0010345777260172264,-0.0009909091754433037,-0.003463731172369879,0.004271335999814623,0.9934643118092858
2016-12-13,1,0.0002510353564768837,0.0004197442988961062,-0.003463731172369879,0.0028186177650121103,0.9945067564345431
2016-12-15,-1,-0.0007169443036108337,-0.0006994707218330803,-0.003147288945769003,0.0028186177650121103,0.9952231613579663
2016-12-19,-1,-0.0001563164539325634,-6.867243265910037e-05,-0.004082107065447633,0.0025910167719199297,0.995950197955765
2016-12-21,-1,-0.0001610049480777911,-5.5248106877251824e-05,-0.0038304605785221034,0.0025910167719199297,0.9960862049642348
2016-12-23,1,0.00010781749105630658,0.00024907472877041186,-0.0038304605785221034,0.0018114943984495972,0.9962358320821616
2016-12-28,-1,-0.0002840639061886536,-0.00022324988480951856,-0.003147288945769003,0.002194587564637221,0.9952836499168181
2016-12-30,-1,-0.00012234554880382999,-3.388950507352657e-05,-0.0026316439328766153,0.003960952579838282,0.9952624411037567
2017-01-04,1,4.752153210299092e-05,0.0001764007206384021,-0.0026316439328766153,0.0068876789944992385,0.9949567875770656
2017-01-06,-1,-0.00022468265384932616,-0.0001572775326547698,-0.0026008020923913313,0.0068876789944992385,0.9946367593376343
2017-01-10,0,-1.7614903938541746e-05,9.137894839850099e-05,-0.002405822689507295,0.007474222470874115,0.9939362708476276
2017-01-12,1,9.930728783194445e-05,0.00020770050952549255,-0.0030547634243131504,0.007362392119461707,0.9933585940013284
2017-01-17,1,0.0002630710089524566,0.0003804112985621851,-0.002405822689507295,0.006646413337188522,0.9938360725631588
2017-01-19,1,0.00010827889717368263,0.00021151357491695219,-0.002405822689507295,0.0069336383554878585,0.9935868941312732
2017-01-23,-1,-0.00032958252887099857,-0.0003181563453859884,-0.0005671245393244915,0.007612100553839977,0.9927492593368245
2017-01-25,-1,-0.00039274126631337435,-0.00037370349153743496,-0.0005671245393244915,0.007612100553839977,0.9924733632155657
2017-01-27,1,0.0006759842620068324,0.0008329902779548172,-0.0007044490715338203,0.007612100553839977,0.9931266903367783
2017-01-31,1,0.0014236223880526402,0.0017109180094206007,-0.003522075556809084,0.0069336383554878585,0.9932739961239199
2017-02-02,1,0.000678592424009434,0.0007980791146207015,-0.001506339557852651,0.007562771748860056,0.9930986472228731
2017-02-06,1,0.0005948235114664527,0.0007069532966778991,-0.0011077078761816987,0.007562771748860056,0.9933900673079461
2017-02-08,1,0.0013892862642254289,0.0016261506507377183,-0.0054067337601150095,0.006729649481981279,0.9935662845089598
2017-02-10,1,0.0012334813721616774,0.0014807723203107113,-0.0022501206422244,0.007562771748860056,0.9940316426108432
2017-02-14,1,0.0016345470200650502,0.0019915264948543935,-0.0022501206422244,0.009069469549175067,0.9938416968596916
2017-02-16,1,0.0017143480581080965,0.002065135244966613,-0.0022501206422244,0.009069469549175067,0.9935972784407217
2017-02-21,1,0.002182008326966187,0.0025960896552503967,-0.0032907216230901788,0.009069469549175067,0.9933253333033221
2017-02-23,1,0.002026950680733121,0.002379885793196095,-0.0032907216230901788,0.009069469549175067,0.9931946194833471
2017-02-27,1,0.001645149651757122,0.0019105028524836838,-0.0032907216230901788,0.0062066421558453246,0.9933891405531976
2017-03-01,1,0.0011058679047904001,0.001259300917514273,-0.0032907216230901788,0.004529217462654474,0.9940919181341542
2017-03-03,1,0.0020937123580519767,0.0023969385445211837,-0.005350267121379325,0.0033684885357255015,0.9935421659845939
2017-03-07,1,0.0018294562077311532,0.002082139136274143,-0.005350267121379325,0.004529217462654474,0.9936082516109737
2017-03-09,1,0.0017974095135513436,0.002103577571390478,-0.003310314853926322,0.005623969175684927,0.9937990979606077
2017-03-13,1,0.002018798947431441,0.0023389025517205134,-0.0056558947478067174,0.004529217462654474,0.9937364409875141
2017-03-15,1,0.0024367956277360383,0.0028141410708959424,-0.0056558947478067174,0.004529217462654474,0.9936725149519893
2017-03-17,1,0.001841523541990354,0.00212418171213312,-0.003310314853926322,0.004529217462654474,0.9945272899452
2017-03-21,1,0.0024642955029548974,0.002858975315058324,-0.0038534124155256183,0.004529217462654474,0.9947665370235323
2017-03-23,1,0.0023881757342603346,0.002762751684921525,-0.004945445445748554,0.005623969175684927,0.9940577240324019
2017-03-27,1,0.0024562857147018904,0.002882917432835399,-0.003698878626145885,0.004501143871389602,0.9946416885537027
2017-03-29,1,0.002028112234876189,0.002301266616525428,-0.0023560684138774317,0.005488559646118262,0.9948668050233701
2017-03-31,1,0.001342070779026559,0.0015120546220548598,-0.0023560684138774317,0.005488559646118262,0.9955552269535283
2017-04-04,1,0.0019130507972418024,0.002179808875650854,-0.00347450404008292,0.005737543120645787,0.9951663532878976
2017-04-06,1,0.0006302723284901646,0.0006394288248428156,-0.0023560684138774317,0.005733095525633091,0.9956091251966953
2017-04-10,1,0.0002723641914322418,0.0003451319551500717,-0.0023560684138774317,0.005733095525633091,0.9954894336062992
2017-04-12,1,0.0006171554082085998,0.0006392728059127929,-0.0023560684138774317,0.004760254038642233,0.9957015227020009
2017-04-17,1,0.00029666222025972333,0.00038124431169104487,-0.0023560684138774317,0.005585668805221153,0.9953099459969458
2017-04-19,1,0.00022442123289558377,0.0003230566037380876,-0.0017746820728041768,0.004760254038642233,0.995577461039493
2017-04-21,1,0.0008286002778380612,0.0008431127163960897,-0.0009302141219371116,0.004363023657799083,0.99642415035746
2017-04-25,1,0.001187004121948341,0.0012528510721576524,-0.0002250656951315151,0.004760254038642233,0.9962077801845721
2017-04-27,1,0.0008109261048606942,0.0009001665185620969,0.00020604844419767397,0.005151294884105784,0.9958638692173295
2017-05-01,1,0.0009258268860618613,0.0009764146819841197,3.4757684486617186e-05,0.005151294884105784,0.9960454586171491
2017-05-03,1,0.001249924269193646,0.0012630403554012967,0.0019346333888428206,0.004865807107722291,0.9964441480334554
2017-05-05,1,0.0010639948057136629,0.0010896522495419643,0.0019346333888428206,0.004865807107722291,0.9961459088877378
2017-05-09,1,0.0011278967649993171,0.0011651729712078246,0.0020402035026416123,0.004892109953104623,0.9966418683577883
2017-05-11,1,0.0002196957993183292,0.0003422439878372206,-5.326803836718591e-05,0.004892109953104623,0.995679225565128
2017-05-15,1,0.0009529880724374641,0.0009564660998068989,-0.0007422855206106267,0.004469466963227961,0.9958229266202459
2017-05-17,1,0.0007714594476807613,0.0008040875663526414,-5.326803836718591e-05,0.0052299340326482915,0.9954881769478444
2017-05-19,1,0.000979724692085186,0.000989150666474903,-0.0011074641877544026,0.005639714130940913,0.9952480719710927
2017-05-23,1,0.0010850046779071199,0.00109442699072652,-0.0038245603763170733,0.0052299340326482915,0.995190455142525
2017-05-25,1,0.0014161346139011915,0.0014517644467995539,-0.0038245603763170733,0.0052299340326482915,0.9950943655003344
2017-05-30,1,0.0011374031429990368,0.0011475096006415845,-0.005891931162744954,0.005639714130940913,0.9941627696975748
2017-06-01,1,0.0013210317342104557,0.0013265239693685637,-0.006616352115797022,0.005252807927511373,0.9935531580439053
2017-06-05,1,0.0010732100755282044,0.001123071250846958,-0.006616352115797022,0.004763141218628111,0.9939415312079891
2017-06-07,1,0.0011804014234992814,0.001201038073477,-0.006616352115797022,0.005176393834653171,0.9935679056722106
2017-06-09,1,0.0005276436448489574,0.0006269035881939229,-0.005759105981915403,0.00568199517375659,0.9940865192977444
2017-06-13,1,4.9255647011076337e-05,0.00022859735534764506,-0.004162098118653076,0.00568199517375659,0.9944526838007485
2017-06-15,1,0.00020016372997583006,0.0003736040285099809,-0.004162098118653076,0.00568199517375659,0.9946547387535863
2017-06-19,1,9.227525059076185e-05,0.00027645197764643954,-0.005085563644452247,0.004287047291006664,0.994739175401966
2017-06-21,0,-9.294645469731149e-05,7.68759708597567e-05,-0.003947369032782793,0.00568199517375659,0.9944951433250795
2017-06-23,1,0.0006276247296186109,0.0007075664827181505,-0.005085563644452247,0.005602747344695419,0.9944770799215418
2017-06-27,1,0.00023957457548162665,0.00036279077631805963,-0.003947369032782793,0.005602747344695419,0.9947120086884241
2017-06-29,-1,-0.00027916186253102045,-9.08927600616618e-05,-0.0023989252029477035,0.005602747344695419,0.9950410161588711
2017-07-03,0,-3.435996505427144e-05,8.561133515756601e-05,-0.0015618221436184895,0.0062821988755508,0.994791244054284
2017-07-06,-1,-0.0006391415865012652,-0.00042916693519929596,-0.0005646938834743113,0.0062821988755508,0.994795836412456
2017-07-10,-1,-0.0003748624159166115,-0.00019538846429735567,-0.0015618221436184895,0.005639539876015904,0.9950806118781443
2017-07-12,-1,-0.0005029605614239621,-0.00031145527219269035,-0.0009150531679615879,0.005639539876015904,0.9950218985640313
2017-07-14,1,1.193638390625454e-05,0.00011247672952518708,-0.0014738000976552547,0.004129502818499641,0.9952461715122451
2017-07-18,1,2.3420065886753535e-05,0.00011589906534305078,-0.0003961667134437,0.006035067799355721,0.9950447735349265
2017-07-20,1,0.0008134948940764137,0.0008430315925927517,-0.0014738000976552547,0.006035067799355721,0.995170638342666
2017-07-24,1,0.0006717483370253319,0.0006804394152924891,-0.0003961667134437,0.006044196956116249,0.9952962318059431
2017-07-26,1,0.0015411960590238692,0.001666690019595329,-0.0014738000976552547,0.0055835787936379345,0.9959912453464415
2017-07-28,1,0.0013849555449754712,0.0014799673386702255,-0.0011112207354181248,0.0055835787936379345,0.9960014461126635
2017-08-01,1,0.0012698351098481208,0.0013169652826448544,-0.0013466784552789825,0.0053312309933225875,0.995994394806989
2017-08-03,1,0.0013595226113030053,0.001441377983406661,-0.0013466784552789825,0.005220161125979922,0.9960391416058255
2017-08-07,1,0.00139332394342168,0.0014995696852358165,-0.0013466784552789825,0.005220161125979922,0.9962116103447073
2017-08-09,1,0.0013189092463542409,0.0013824574716462539,-0.0022353202455255698,0.00546307363443586,0.9952361916711534
2017-08-11,1,0.0012776020523573269,0.0013741647866977085,-0.0022353202455255698,0.006044196956116249,0.99414072478592
2017-08-15,1,0.0018096355357782928,0.00196951142492486,-0.006766629318051373,0.005220161125979922,0.9933676126445287
2017-08-17,1,0.0013878068738202604,0.0014655699946844632,-0.003336615256174445,0.005220161125979922,0.9936843374526222
2017-08-21,1,0.0016165903056385975,0.0017123442937177714,-0.006766629318051373,0.0040072224722601645,0.9932320857255145
2017-08-23,1,0.0007696723244622079,0.0008163086616760687,-0.006772080857717197,0.0040072224722601645,0.9935271881619305
2017-08-25,1,0.0009441091085036683,0.000960195040916913,-0.006772080857717197,0.003259932698038077,0.9935246489179388
2017-08-29,1,0.0009228576539903411,0.0009399690611867846,-0.008039938778486907,0.003259932698038077,0.9930619746927621
2017-08-31,1,0.0006363484623858229,0.0006948687750893228,-0.008039938778486907,0.003973057302491652,0.9929242982463339
2017-09-05,1,0.0006670732429547501,0.0007078466404457103,-0.008039938778486907,0.003973057302491652,0.9930142136596507
2017-09-07,1,0.00032166592420629456,0.0004035208057745752,-0.006772080857717197,0.003973057302491652,0.9933066550977436
2017-09-11,1,0.0009518806758487768,0.0009528186713364594,-0.0056816367793245635,0.003259932698038077,0.9944181793880404
2017-09-13,1,0.0002009963621280615,0.000276737152737899,-0.0028944139607265146,0.005204006092520664,0.994970155606963
2017-09-15,1,0.0006258463811010795,0.000665745961402799,-0.0028944139607265146,0.0051794363266180025,0.9952457962311699
2017-09-19,0,-0.00010081854109566819,1.9373332488444592e-05,-0.0021873007710717434,0.005725734096060427,0.995265491154949
2017-09-21,-1,-0.0006954652413542787,-0.0004956974589836365,-0.0012371350861756939,0.006106009679081325,0.995072979829969
2017-09-25,-1,-0.0006832704474151861,-0.00048564243195853643,-0.0008874849712765158,0.006106009679081325,0.995143497475235
