JNU-Tangyin/eata/results/Batch4_SP500/Batch4_SP500-MCHP.csv
Date,Action,Predicted_Q25,Predicted_Q75,Actual_Q25,Actual_Q75,RL_Reward
2010-12-14,0,0.0,0.0,-0.004273244358422094,0.006003743740442195,0.9937715474232213
2010-12-16,0,0.0,0.0,-0.003126865165453327,0.008156021002375733,0.9924445185589663
2010-12-20,0,0.0,0.0,-0.002237050573310964,0.010963319667721405,0.9919862288719191
2010-12-22,0,0.0,0.0,-0.002237050573310964,0.008156021002375733,0.9923534776067606
2010-12-27,1,0.0023843516715927942,0.0026204215599067667,-0.001359688839418697,0.008313297628415447,0.9924434168782432
2010-12-29,1,0.002105410077022475,0.0023062938855879615,-6.763433316212707e-05,0.011546943147167513,0.9923565581211552
2010-12-31,1,0.001788620238534055,0.001938296831159975,-0.001359688839418697,0.011546943147167513,0.9906601561984855
2011-01-04,1,0.0012033517075884647,0.0012270861478701754,-0.0013272275041377097,0.011546943147167513,0.9902365199882569
2011-01-06,1,0.0012312088816862803,0.0012621934545367316,-0.0016827897568071186,0.01198413864010572,0.9897470803600416
2011-01-10,1,0.0015913596599262645,0.0016208743473212573,-0.002275802667183495,0.01198413864010572,0.9901031039027774
2011-01-12,1,0.001311920058391433,0.0013617448291837907,-0.003994279915866853,0.01198413864010572,0.9896403588517036
2011-01-14,1,0.002197832922994937,0.002248488930830456,-0.003994279915866853,0.011026388449248572,0.9907544570934005
2011-01-19,1,0.001562619758205845,0.0016214992597901486,-0.003994279915866853,0.00945998006178737,0.9912951217243523
2011-01-21,0,0.0,0.0,-0.0032134487206379255,0.00945998006178737,0.9915724193781928
2011-01-25,0,0.0,0.0,-0.005974923570804338,0.00899002438354056,0.9902659292268751
2011-01-27,1,0.0024939582958730905,0.002568287729127846,-0.005974923570804338,0.00945998006178737,0.9894169165431131
2011-01-31,1,0.0003357711576113042,0.0005796453351209627,-0.005974923570804338,0.00945998006178737,0.9903477278499642
2011-02-02,1,0.0003865233050224583,0.0006770176264779186,-0.005974923570804338,0.010308873199998594,0.9898998354433721
2011-02-04,1,0.0016201195065067538,0.0016915337408786844,-0.010396606413825858,0.009315912256692914,0.9891717447981632
2011-02-08,1,0.0011394900725770554,0.0012770228437363844,-0.01189262991580085,0.009315912256692914,0.9881408044972863
2011-02-10,1,0.0018245061708250189,0.0018346545300909416,-0.014260872869995011,0.00899002438354056,0.987657381293435
2011-02-14,1,0.001429822423427859,0.0015413576624851827,-0.014260872869995011,0.008401932776939725,0.9874169092056959
2011-02-16,1,0.0021461317637058402,0.0022066593684336934,-0.014260872869995011,0.005944034215261733,0.9878237071226886
2011-02-18,0,0.0,0.0,-0.014260872869995011,0.008699204987593006,0.987150215053554
2011-02-23,0,0.0,0.0,-0.010396606413825858,0.01044651668667232,0.9885150631294538
2011-02-25,0,0.0,0.0,-0.010396606413825858,0.008699204987593006,0.9884280277887247
2011-03-01,-1,-0.0007006489834344997,-0.0004281418857022191,-0.006049589666362832,0.008699204987593006,0.9894967364342727
2011-03-03,1,0.00043830096139763796,0.0005736689958470973,-0.006056965569831211,0.007554970637215848,0.9904619274576839
2011-03-07,-1,-0.0005577259315942872,-0.0003091837107639495,-0.004400269835811545,0.007554970637215848,0.9914722959448602
2011-03-09,-1,-0.0019545684766113427,-0.001493438109436779,-0.002828937223482536,0.008323913425132758,0.9919101177666466
2011-03-11,-1,-0.002042745183447659,-0.0015920960694853219,-0.004400269835811545,0.007668212543859312,0.9926994736533377
2011-03-15,-1,-0.0027584060495758358,-0.002209350665179306,-0.004966509897879169,0.007668212543859312,0.9920482250722429
2011-03-17,-1,-0.0022073065881063622,-0.0017599825792879995,-0.004966509897879169,0.008742843906516948,0.9920299405387504
2011-03-21,-1,-0.0015103658799966286,-0.0011434042168205268,-0.005040691891230628,0.005363348887310159,0.9925966722526841
2011-03-23,-1,-0.0007338074250614102,-0.0004886954542618562,-0.005040691891230628,0.0059976343443933966,0.9914752695010056
2011-03-25,0,-0.0001766681898343988,1.0761832360884835e-05,-0.005040691891230628,0.005375714908102027,0.9926188914591907
2011-03-29,1,0.00034806430594449715,0.00043693774677701743,-0.005040691891230628,0.008742843906516948,0.9912630962783301
2011-03-31,1,0.0009714043179722244,0.001000538637918602,-0.0030861290903811322,0.007503349949345734,0.9915018349246388
2011-04-04,1,0.0007931186716080311,0.0008031473575197829,-0.005622648952807506,0.007503349949345734,0.9909481964954392
2011-04-06,1,0.000891303574083398,0.0009035626891557165,-0.005622648952807506,0.006968152852443146,0.9912043861527592
2011-04-08,1,0.00027480915063723315,0.00036318546324490405,-0.0045270938477227065,0.007696556317577092,0.9900904944463516
2011-04-12,-1,-0.0009491314029456496,-0.0006852077159901659,-0.0021532855786215704,0.011099316482963192,0.9892968872458587
2011-04-14,0,-7.703686383977022e-05,4.523060861441494e-05,-0.0045270938477227065,0.01376944122678836,0.9889775371084019
2011-04-18,-1,-0.0006547950428728438,-0.0004548257487177877,-0.010155495301666248,0.01376944122678836,0.9878177720562288
2011-04-20,1,0.0011831332775989146,0.0012223477428412147,-0.010155495301666248,0.01376944122678836,0.9889924799037626
2011-04-25,1,0.0007933397105980827,0.0008450094149004849,-0.011315324108974196,0.01376944122678836,0.9882491760409043
2011-04-27,1,0.0028614643276618024,0.003186953190942539,-0.01286403081735206,0.006968152852443146,0.9886205437609489
2011-04-29,1,0.003030012337664578,0.0033661536138977527,-0.01286403081735206,0.004246959778493121,0.9886093692004205
2011-05-03,1,0.002984621243280955,0.0033587987684819847,-0.01340617916621667,0.00660238790619157,0.9875004387633175
2011-05-05,1,0.002207855836550269,0.0024021067904461766,-0.014342000468609466,0.00660238790619157,0.9865254754774995
2011-05-09,1,0.0018160243595777609,0.001922105926784398,-0.01340617916621667,0.004246959778493121,0.9879182488570898
2011-05-11,1,0.001717135647667193,0.0017959375246761095,-0.01296261193394701,0.003575072942476277,0.9888052509155142
2011-05-13,1,0.0012567806671301134,0.0012806074889214949,-0.013571584776431002,0.0020452642661490613,0.9888981005344586
2011-05-17,0,-5.0958842336593525e-05,0.00010024855745050621,-0.011806779763668947,0.003575072942476277,0.9903561495134364
2011-05-19,1,0.0008188520479014641,0.0008523295769081424,-0.011806779763668947,0.0020452642661490613,0.9905947707562179
2011-05-23,-1,-0.0002611821260147555,-7.797855650566569e-05,-0.01090369610230006,0.004246959778493121,0.9903796700298204
2011-05-25,-1,-0.0008191554771813048,-0.0005577216292541736,-0.009052729317760808,0.006008170600890726,0.9900523402864522
2011-05-27,-1,-0.0005010869140458721,-0.0002992218627980614,-0.01090369610230006,0.008373660148979226,0.9889046902927087
2011-06-01,-1,-0.00122968525860471,-0.0009541225450898071,-0.009052729317760808,0.0056020574864848426,0.9905172114648667
2011-06-03,-1,-0.001891209195113683,-0.0015556455175873125,-0.007620783349961465,0.010067999439263595,0.9902702947196931
2011-06-07,-1,-0.001782764500553263,-0.0014730149221941474,-0.009052729317760808,0.010067999439263595,0.9898248912477948
2011-06-09,-1,-0.0013427546539743634,-0.001150779939235847,-0.009252713281595635,0.010067999439263595,0.9892252732507091
2011-06-13,-1,-0.0023291061945304005,-0.002005876626629678,-0.010599692048258773,0.010067999439263595,0.984902276050778
2011-06-15,-1,-0.0020315076836803373,-0.001727602632391115,-0.01188594141315387,0.009102037416323223,0.9847807776662132
2011-06-17,-1,-0.0018432640130666201,-0.0015988486449839668,-0.01188594141315387,0.010331188636928033,0.9840669500394067
2011-06-21,-1,-0.00035123293157547576,-0.00030142261952211994,-0.01188594141315387,0.010331188636928033,0.984146248424598
2011-06-23,-1,-0.0006393956230560795,-0.0005040432305562295,-0.01188594141315387,0.01069915972955688,0.9832968927090597
2011-06-27,-1,-0.0007940427683179843,-0.000663891646591207,-0.011514211824926544,0.012560082109234615,0.9833791741612884
2011-06-29,-1,-0.00028961712707553314,-0.00024345133851891296,-0.01188594141315387,0.012560082109234615,0.9823898713057803
2011-07-01,1,0.00025966369579748065,0.00026796982760188314,-0.01188594141315387,0.009732962066561223,0.9835230630074342
2011-07-06,1,0.0001823295356699952,0.00019712676025112274,-0.012642739248992464,0.009732962066561223,0.9825807013475695
2011-07-08,1,4.254712921620444e-05,4.387934097211848e-05,-0.016486060155771656,0.009732962066561223,0.980865489397302
2011-07-12,-1,-0.0025548103670985267,-0.0022590108853937996,-0.016486060155771656,0.01158728409086082,0.9831192196267715
2011-07-14,-1,-0.003153840809729379,-0.002791684162163801,-0.019039224213068407,0.01653524740750151,0.9809035906113279
2011-07-18,-1,-0.0039225589836296825,-0.0034091520538742505,-0.019039224213068407,0.01653524740750151,0.9812331030588458
2011-07-20,-1,-0.002463309054037622,-0.002160070699323417,-0.02168016028662988,0.011010910063746136,0.9811403717765889
2011-07-22,-1,-0.0017764136340954427,-0.0015255507329404565,-0.025862493481451643,0.00866459616607176,0.9812248330018001
2011-07-26,-1,-0.0012063663337607857,-0.0010592152874926576,-0.025862493481451643,0.009171502384314347,0.9788982491523911
2011-07-28,-1,-0.0018215169614860332,-0.0015745775238161265,-0.025862493481451643,0.00866459616607176,0.9799417690232824
2011-08-01,-1,-0.0021024383787844308,-0.00180326594196366,-0.025862493481451643,0.021373210375181168,0.9770251523243783
2011-08-03,-1,-0.0025326913919783275,-0.0021761811795658844,-0.02027543798611862,0.021373210375181168,0.9780072584152368
2011-08-05,-1,-0.0041743596440176195,-0.003611873003335937,-0.01870488208496766,0.021373210375181168,0.9787438573011957
2011-08-09,-1,-0.0035188075603103473,-0.00303884848145272,-0.011533162988145515,0.021373210375181168,0.9800094631786852
2011-08-11,-1,-0.0028497928989259925,-0.002477333287557336,-0.010402895006309032,0.011684940977743096,0.982814496095219
2011-08-15,-1,-0.0026627493956020275,-0.002332154928374318,-0.010402895006309032,0.02188307636161632,0.9808514182452976
2011-08-17,-1,-0.0032497455869933394,-0.002881166557341678,-0.008913273350887532,0.02496450269761317,0.9811527248223468
2011-08-19,-1,-0.004232430013092039,-0.003760548419368517,-0.008913273350887532,0.02496450269761317,0.9821219088421949
2011-08-23,-1,-0.0020012534694568004,-0.001795968119647214,-0.010803733883511503,0.021301555191817145,0.9847606871599917
2011-08-25,-1,-0.0024553928063988937,-0.0022043919150976183,-0.012330427774201944,0.024513880476990955,0.9825224802123669
2011-08-29,-1,-0.00047857211393079906,-0.0004729678057771997,-0.012704373324847435,0.02051188853203035,0.9837251398098703
2011-08-31,-1,-0.0011609423833183563,-0.0010617889619124472,-0.012704373324847435,0.02051188853203035,0.9829875844948809
2011-09-02,0,0.0,0.0,-0.014093028724456868,0.02051188853203035,0.982446004192421
2011-09-07,0,0.0,0.0,-0.014093028724456868,0.022013981548453604,0.9809059419436799
2011-09-09,0,0.0,0.0,-0.014093028724456868,0.022013981548453604,0.9802437131035747
2011-09-13,0,0.0,0.0,-0.014093028724456868,0.020225871541520175,0.981559138699549
2011-09-15,0,0.0,0.0,-0.014093028724456868,0.020225871541520175,0.9815166719765113
2011-09-19,0,0.0,0.0,-0.01747161906717227,0.020225871541520175,0.9796922256264887
2011-09-21,1,0.003299398538816282,0.0038010289363055467,-0.014805306508159977,0.020225871541520175,0.9804868967185565
2011-09-23,1,0.0031802261792919055,0.0036373913549511876,-0.01248076188161245,0.020225871541520175,0.9814730537481934
2011-09-27,1,0.0034057140123209097,0.0038987982294113547,-0.012164916797626215,0.020825295306358144,0.9816230233239063
2011-09-29,1,0.0024958885555219495,0.0028667489048532016,-0.005461583617277675,0.023883094165897026,0.9812741767180388
2011-10-03,1,0.0008984439462386541,0.001095820932693257,-0.0029468319822185513,0.023883094165897026,0.9828775328402473
2011-10-05,1,0.0036725239604529516,0.004232624223435778,-0.005379110895638223,0.019743036845123137,0.9844418087877138
2011-10-07,1,0.004700180134318591,0.005290613860596911,-0.005379110895638223,0.023883094165897026,0.982609991576138
2011-10-11,1,0.005048628816401438,0.005768429596689209,-0.007762088364200425,0.023883094165897026,0.9825765326528266
2011-10-13,1,0.005770764122574691,0.0065375289112672,-0.00911355263309404,0.020675275059009984,0.9811657264047486
2011-10-17,1,0.004219844897317781,0.004763709064265441,-0.008251403777587037,0.02429934333185468,0.982523516195673
2011-10-19,1,0.004260674313162291,0.004815041706517318,-0.008003985612668681,0.02429934333185468,0.9824969872641892
2011-10-21,1,0.004256173918058931,0.00479000578150891,-0.008003985612668681,0.02135260844284598,0.981092285502023
2011-10-25,1,0.004565714271055784,0.005091460380893796,-0.013440172483917259,0.01398169747094994,0.9801225692571793
2011-10-27,1,0.006248647685477468,0.006994181773516418,-0.01718343756279879,0.009020166131720075,0.9797870930474828
2011-10-31,1,0.005509379544378798,0.0061346742589217925,-0.01718343756279879,0.0104045343203602,0.9795713003056228
2011-11-02,1,0.004117628644000334,0.004492099253118728,-0.013440172483917259,0.015018195952763989,0.9794830577290098
2011-11-04,1,0.006344976453737116,0.0070012254845433575,-0.013440172483917259,0.009020166131720075,0.9811320700617822
2011-11-08,1,0.005754657537531226,0.0062967765768597046,-0.010853725917396253,0.007813829500221003,0.9820157496779313
2011-11-10,1,0.005456174402421526,0.006018873055472822,-0.010008235174542635,0.006388763793985642,0.9834900243180075
2011-11-14,1,0.006139135465526141,0.006808534110247209,-0.01394714487204875,0.004967491378207376,0.9831419452942634
2011-11-16,1,0.00592503610480874,0.006545156994507937,-0.01394714487204875,0.003603211552853042,0.9832774394216899
2011-11-18,1,0.004483763572160805,0.004919654300652187,-0.013234022114754235,0.004967491378207376,0.9857301876214629
2011-11-22,1,0.003619739713693887,0.004000293274782975,-0.00789398356784446,0.006388763793985642,0.9856828636802559
2011-11-25,1,0.0024655386779394283,0.0026692510699259132,-0.006268752755517702,0.011436261167077863,0.986147239764072
2011-11-29,1,0.0030439550251502353,0.0033083567500742095,-0.007385715497326965,0.0077632267152687425,0.9867560364224061
2011-12-01,0,0.0,0.0,-0.007385715497326965,0.0077632267152687425,0.9885427894065575
2011-12-05,0,0.0,0.0,-0.009328406200951368,0.006648431776680614,0.9879616207987675
2011-12-07,0,0.0,0.0,-0.012058099212058556,0.008416948780085722,0.9871855555602798
2011-12-09,1,2.934678884832943e-17,3.129134464251051e-17,-0.009328406200951368,0.008933347766933279,0.9875430745522813
2011-12-13,1,0.0008945336697105595,0.001022332144966584,-0.007385715497326965,0.008933347766933279,0.9884777084590579
2011-12-15,1,0.00078757790424813,0.0009076112080108963,-0.006025925886078774,0.011368941525015733,0.9880907320495729
2011-12-19,1,0.000768809931138883,0.0008656257073881251,-0.006025925886078774,0.011368941525015733,0.9865277871902602
2011-12-21,1,0.0018848674192966952,0.0021192902248357197,-0.006499193080119748,0.008933347766933279,0.9882131874412194
2011-12-23,1,0.002429728908446715,0.0026985857971672314,-0.009599464203470439,0.004918720590190773,0.9885728678892848
2011-12-28,1,0.0010997563499934547,0.001111578753585885,-0.008961157244280865,0.008591802531255403,0.9886579442126935
2011-12-30,1,0.0014563415526822401,0.0014967156714099346,-0.008961157244280865,0.004918720590190773,0.98955313230565
2012-01-04,0,0.0,0.0,-0.006237897768340077,0.008591802531255403,0.9899153992720716
2012-01-06,0,0.0,0.0,-0.006237897768340077,0.009457909020442322,0.9895450366115278
2012-01-10,0,0.0,0.0,-0.008961157244280865,0.005135334969116431,0.9891002420257262
2012-01-12,0,0.0,0.0,-0.009470561068751975,0.005135334969116431,0.9885228905969843
2012-01-17,0,0.0,0.0,-0.009470561068751975,0.004803075590010036,0.989042982125482
2012-01-19,0,0.0,0.0,-0.009470561068751975,0.004803075590010036,0.9913647708999662
2012-01-23,0,0.0,0.0,-0.009470561068751975,0.004803075590010036,0.9915225629336838
2012-01-25,0,0.0,0.0,-0.00904604898467727,0.004573943744469692,0.9919230411701236
2012-01-27,0,0.0,0.0,-0.007124988141004307,0.0024961013790849576,0.9927205128212393
2012-01-31,0,0.0,0.0,-0.009359590317174508,0.004573943744469692,0.9913751859852526
2012-02-02,0,0.0,0.0,-0.010852098222344057,0.0015176388592841566,0.9917306895587886
2012-02-06,0,0.0,0.0,-0.012763070206584985,0.0015176388592841566,0.9922416140565141
2012-02-08,-1,-0.8949079572439778,-0.8642815618143507,-0.009800503473274871,0.004673643678190549,0.5325706442761969
2012-02-10,1,0.000964757901962635,0.0010239485283948574,-0.007857034607042256,0.0057372979978588794,0.9927208886559876
2012-02-14,1,0.0005503148359780856,0.0005945724114470823,-0.007857034607042256,0.0057372979978588794,0.992086741379138
2012-02-16,0,0.0,0.0,-0.009535323829656885,0.0057372979978588794,0.9918876285519382
2012-02-21,0,0.0,0.0,-0.007857034607042256,0.00729803709071662,0.9921038722536887
2012-02-23,0,0.0,0.0,-0.0049303453529146056,0.00729803709071662,0.9921313880709669
2012-02-27,0,0.0,0.0,-0.0049303453529146056,0.008252420618301125,0.9915274406560001
2012-02-29,0,0.0,0.0,-0.0049303453529146056,0.00729803709071662,0.9925267094248867
2012-03-02,0,0.0,0.0,-0.0036773937593067656,0.008252420618301125,0.9924168763613153
2012-03-06,-1,-0.0006361658170153783,-0.0005061823774222182,-0.0036773937593067656,0.008252420618301125,0.9924186858831736
2012-03-08,1,0.00013016393647939304,0.00013428994086269843,-0.0049303453529146056,0.00729803709071662,0.9923549043339445
2012-03-12,-1,-0.0009403022893399079,-0.0007447495903915733,-0.009110573547997235,0.0062912667158341136,0.9918613806728699
2012-03-14,-1,-0.0005148802890802902,-0.00036897139710040275,-0.009110573547997235,0.007740064238673107,0.991277743273878
2012-03-16,-1,-0.0004931492749137105,-0.0003647580105724735,-0.009057189571426412,0.0062912667158341136,0.9916736177468646
2012-03-20,-1,-0.00012675668706673267,-5.968614228610828e-05,-0.009057189571426412,0.007243946077859415,0.9909889344531343
2012-03-22,1,0.0005704831567475125,0.0006502469601166556,-0.011005174456988943,0.005603410511180788,0.9899553701170404
2012-03-26,1,0.0005931574485362808,0.0006632175075943594,-0.01288088560748046,0.0033756393349917086,0.9896020093339674
2012-03-28,-1,-0.0002775599758069269,-0.00018957969739691303,-0.01288088560748046,0.010506438297462724,0.9892850019725488
2012-03-30,1,0.0010163932732188677,0.0011733074839551665,-0.01288088560748046,0.004878113668086237,0.989623379733227
2012-04-03,1,0.0006258939785545433,0.000730820531176926,-0.011005174456988943,0.003519284575005315,0.9899849113198598
2012-04-05,-1,-5.860370110412511e-05,-3.179449605962582e-05,-0.011005174456988943,0.003519284575005315,0.9894020426193955
2012-04-10,-1,-0.0006240465675694572,-0.0005537037816815723,-0.010845022527276472,0.003519284575005315,0.9895030640912114
2012-04-12,1,0.0004792116352440054,0.0005575965859611783,-0.01288088560748046,-0.0019230304123940157,0.9893458647860653
2012-04-16,-1,-0.0009780386451451217,-0.0008009186530232397,-0.01288088560748046,-0.0010821318880797513,0.9905046096600181
2012-04-18,-1,-0.00118317058300773,-0.0009292473517320087,-0.01288088560748046,-0.0010821318880797513,0.9912373664775859
2012-04-20,-1,-0.0024067883300518504,-0.0019838419752635423,-0.012550923635671436,-0.0010821318880797513,0.9917383353987079
2012-04-24,-1,-0.002731625483244872,-0.002285731370154429,-0.010978288877812636,0.00011418512597971271,0.9916331851745844
2012-04-26,-1,-0.0010210344447939932,-0.0008498322862972563,-0.010978288877812636,-0.0007844546667311856,0.9914817321272335
2012-04-30,-1,-0.0011943041998619638,-0.0009994132483056098,-0.010978288877812636,0.0002462889061770713,0.9908096700298098
2012-05-02,-1,-0.0013751658071447857,-0.00117333915904893,-0.010978288877812636,0.0002462889061770713,0.9909740205456206
2012-05-04,-1,-0.002416003040669728,-0.0020865672397582385,-0.010978288877812636,0.0020238901410340694,0.9914838921743002
2012-05-08,-1,-0.0038045577000396097,-0.0032661399811772136,-0.0106482894864703,0.004652439647310631,0.9905792998614126
2012-05-10,-1,-0.004444903616044056,-0.003830380428673683,-0.009354313983182913,0.00794246895925883,0.9905406435103166
2012-05-14,-1,-0.004393513250687224,-0.0037882378134694037,-0.0106482894864703,0.008674263323013881,0.9890982759696865
2012-05-16,-1,-0.0039824008526122496,-0.0034881514393849435,-0.0106482894864703,0.008674263323013881,0.989130069148874
2012-05-18,-1,-0.004053634363868525,-0.003601383498883958,-0.0034326116421857953,0.012054416083326528,0.9880471407750464
2012-05-22,-1,-0.0036532236842244112,-0.003234686813649683,-0.0034326116421857953,0.009807891121273648,0.9883938184596595
2012-05-24,-1,-0.0035177002032870646,-0.0031346180438707513,-0.0034326116421857953,0.012169418279335893,0.9872551561190707
2012-05-29,-1,-0.0030575841507102914,-0.002707788776716629,-0.009809032524343633,0.009807891121273648,0.9865637476316713
2012-05-31,-1,-0.0035166431323378215,-0.003102764796397626,-0.008870802600552829,0.009807891121273648,0.9862280369364355
2012-06-04,-1,-0.003479244782014731,-0.003089906735350303,-0.0078115173716979715,0.013879898968300882,0.9857114909517337
2012-06-06,-1,-0.0022578185744029076,-0.0020055390324090795,-0.0078115173716979715,0.009304813095713911,0.9875568632459736
2012-06-08,-1,-0.0016881077466011966,-0.0015228877003250103,-0.012637900912530538,0.008762369737337402,0.9865482188113179
2012-06-12,-1,-0.0007582551923169075,-0.0007565726666558497,-0.011362317125121193,0.007660549091579321,0.9878093043685343
2012-06-14,-1,-0.0013885528584567743,-0.0012990046607678982,-0.011129665560959802,0.008762369737337402,0.9868324505393667
2012-06-18,-1,-0.000511359684732821,-0.0005112716172080404,-0.011129665560959802,0.006241454963997811,0.988307629816553
2012-06-20,-1,-0.0002104559094478719,-0.00015168182608466828,-0.011129665560959802,0.0077026597030807,0.9870444925910165
2012-06-22,0,-5.3996934742753255e-05,2.518281811199986e-05,-0.011876878771853193,0.007633664713720013,0.9876044670273156
2012-06-26,-1,-0.00029157628252806636,-0.00020118096404141562,-0.011129665560959802,0.007633664713720013,0.9883960026919667
2012-06-28,-1,-0.0002687867895131876,-0.0001519496947703528,-0.011129665560959802,0.013507091138291176,0.9874553063500515
2012-07-02,0,-5.711990952051609e-05,6.175992651234069e-05,-0.011129665560959802,0.013427685435465273,0.9884141920858134
2012-07-05,1,0.00011204244046898813,0.00022530718662078204,-0.011129665560959802,0.013427685435465273,0.9882593999832185
2012-07-09,-1,-0.0006669194011087528,-0.0006347822492979331,-0.0068366424308591925,0.014061140144717165,0.9881487559264468
2012-07-11,-1,-0.0006947787920401891,-0.0006495208269133833,-0.003311032647710411,0.014061140144717165,0.988196377573177
2012-07-13,-1,-0.0005363324391414539,-0.0005106297637731433,-0.002135309957124386,0.013427685435465273,0.9893582573564367
2012-07-17,-1,-0.0007100711964580385,-0.0007059058067735073,-0.0017978594401858172,0.013427685435465273,0.9890775808186971
2012-07-19,1,0.0004202360203233209,0.0005822345045011314,-0.0017978594401858172,0.00882706208188315,0.9908721091303413
2012-07-23,-1,-0.0005730045402615602,-0.0005651646719077582,-0.0017158298446519886,0.00882706208188315,0.9908933690805773
2012-07-25,-1,-0.0002557101679822538,-0.0002118474543831902,-0.0017158298446519886,0.007251588138520186,0.9920398129228214
2012-07-27,1,0.00035872392027978464,0.0004804564279869714,-0.0017978594401858172,0.006504087812218945,0.99289640908006
2012-07-31,1,0.0008543325598363138,0.0010593985042771977,-0.0023596451510194956,0.006135343645545627,0.9931164257672962
2012-08-02,1,0.0010042471265462223,0.0012244745290569518,-0.0023596451510194956,0.006079441759163395,0.9931659431938604
2012-08-06,1,0.0019651312167564376,0.0023419827089365226,-0.0038656490890044692,0.006079441759163395,0.9942397148707031
2012-08-08,1,0.002142031357595764,0.00253445340688193,-0.00604605242764119,0.006079441759163395,0.9928106209034773
2012-08-10,1,0.0023494849936374334,0.0027788076829214016,-0.00885086340161478,0.006079441759163395,0.9918101689482782
2012-08-14,1,0.002571085856682849,0.003038224026926734,-0.00885086340161478,0.004046887721963665,0.9914393425268289
2012-08-16,1,0.0029286887873785483,0.0034549260478593143,-0.00885086340161478,0.004046887721963665,0.9907433868912384
2012-08-20,1,0.0022555648837444065,0.002672822929629224,-0.007882390025104524,0.004371264883529192,0.9916463367275312
2012-08-22,1,0.002544543503969852,0.00303291741319324,-0.007882390025104524,0.004371264883529192,0.9916593317552459
2012-08-24,1,0.002267207028063538,0.002690139890204268,-0.007882390025104524,0.001389056522134829,0.9916322307270447
2012-08-28,1,0.002274941164908108,0.002687816697952399,-0.008824854129699713,0.00014615944386819457,0.9904062969019123
2012-08-30,1,0.001591695470048493,0.0018706905353075504,-0.00807157814262422,0.001389056522134829,0.9908732610914781
2012-09-04,1,0.0020624184709695306,0.0024666643527181406,-0.007490464085628729,0.004073480442157855,0.9908679803348531
2012-09-06,1,0.002319888513055564,0.002718043106515834,-0.006869928474582319,0.001389056522134829,0.9919005973043037
2012-09-10,1,0.0017793452753145798,0.0021394094750278357,-0.005770453690905629,0.002986166693290321,0.9929718014714282
2012-09-12,1,0.0011074014915671423,0.0013241009165165412,-0.006963923213151143,0.002986166693290321,0.9922656701400743
2012-09-14,1,0.0014496676759809626,0.0016920538943198935,-0.008212728414546726,0.001117007832524609,0.9922350497263459
2012-09-18,1,0.0019131969914860645,0.00226410109723437,-0.008212728414546726,0.003257334373327195,0.9912437414933016
2012-09-20,1,0.0017351425034388334,0.0020544495195794618,-0.009696421199303149,0.003257334373327195,0.9900621697952923
2012-09-24,1,0.001232045338333299,0.0014691532335452293,-0.010872454893455799,0.003257334373327195,0.9902638940891744
2012-09-26,1,4.084999866648847e-05,6.464494378847627e-05,-0.008516731131591074,0.005193331596884662,0.9914422451248649
2012-09-28,-1,-0.0003344330333978143,-0.0002723151038137984,-0.008516731131591074,0.006212194762121242,0.9914495388525099
2012-10-02,-1,-0.0002218021041476693,-0.0001487972132182571,-0.010872454893455799,0.004582545653179962,0.9899693281593793
2012-10-04,-1,-0.000460863767437464,-0.00035460699312937495,-0.01122383927335702,0.008380809159153572,0.9893982979229425
2012-10-08,-1,-0.0008566277107236457,-0.0006825856210498093,-0.011821195642160946,0.010437279759667649,0.98733853676615
2012-10-10,-1,-0.0023053751616368395,-0.001917903152677891,-0.01122383927335702,0.010437279759667649,0.9868169523327265
2012-10-12,-1,-0.0021808046159780487,-0.0018398564931641102,-0.01122383927335702,0.010437279759667649,0.9867082577704678
2012-10-16,-1,-0.0013100249245843643,-0.0010593591085554421,-0.01122383927335702,0.0005092234316439947,0.9871946297343291
2012-10-18,-1,-0.0022411071109780956,-0.0019045802381470827,-0.010291784074850121,0.008380809159153572,0.987492982484618
2012-10-22,-1,-0.0025664971562334503,-0.00217380622743685,-0.010194556702759917,0.008380809159153572,0.9874318251445805
2012-10-24,-1,-0.0027319503838447853,-0.002300431889054134,-0.010194556702759917,0.008380809159153572,0.9868186701293835
2012-10-26,-1,-0.001567755856126292,-0.0013338961857063333,-0.010194556702759917,0.010205073106292902,0.9859201651116685
2012-11-01,-1,-0.0006849834096970279,-0.0005599182425126657,-0.009759908927576175,0.007905446302467525,0.987479424315773
2012-11-05,-1,-0.0008207486948787986,-0.0006917410150208818,-0.009759908927576175,0.0030816702318955803,0.9875447148771668
2012-11-07,-1,-0.001715539426244813,-0.0014537469507355616,-0.009030799896886373,0.004838209270527123,0.9893323599200818
2012-11-09,-1,-0.0022570877726351348,-0.0019831382800264445,-0.008283466651416946,0.009000755923132488,0.9906089783426647
2012-11-13,-1,-0.0024309695428605537,-0.0021461190393981407,-0.007502593036934967,0.012230132305701323,0.9898522546292446
2012-11-15,-1,-0.002874602464605203,-0.0025464686537750914,-0.004370898982186951,0.012230132305701323,0.9901645329368446
2012-11-19,-1,-0.0026213653444190216,-0.0022874525023038397,-0.0031229206868230177,0.011967453617791666,0.9902684617719064
2012-11-21,-1,-0.0036588920046287422,-0.0031952322677578126,0.00026651883383966906,0.011967453617791666,0.9895607838932673
2012-11-26,-1,-0.003038811561913193,-0.0026697389832725012,-0.0009968411777829815,0.009000755923132488,0.9911995134130688
2012-11-28,-1,-0.0019117073374553808,-0.0016960285748516607,-0.0016629774433800245,0.007553039827656091,0.9925487123890167
2012-11-30,-1,-0.0025564841701708526,-0.0022058665478377204,-0.0016716783885985399,0.008267418575853228,0.9918156473707953
2012-12-04,-1,-0.00332552658527436,-0.0028738287956794027,-0.0009968411777829815,0.011967453617791666,0.989886482699849
2012-12-06,-1,-0.0021590882478437936,-0.0018655913405850018,-0.0017855668772592025,0.008267418575853228,0.9916007963409317
2012-12-10,-1,-0.00195368808792388,-0.0016714983087006271,-0.004020613512253376,0.008243851729608485,0.9912393794759058
2012-12-12,-1,-0.0006294288953674461,-0.0005598769663121686,-0.004020613512253376,0.007977353057579068,0.9916289186161145
2012-12-14,-1,-0.0012671550352961608,-0.0010767004170382302,-0.005890895814665563,0.007977353057579068,0.99113651808699
2012-12-18,-1,-0.0003522458059420354,-0.0002824051294645321,-0.005890895814665563,0.008194702069959307,0.9912767147599039
2012-12-20,1,0.0002013489914842104,0.0002350491264234562,-0.00671588701766997,0.008194702069959307,0.9911057620730976
2012-12-24,1,0.00030804500270321445,0.00037616492667246973,-0.00671588701766997,0.008194702069959307,0.9909746621066194
2012-12-27,1,0.00015046445352970346,0.0002083168967999062,-0.005890895814665563,0.010485001922693929,0.9906920371227026
2012-12-31,1,0.0010899528182916935,0.001328894345169094,-0.004536039213047694,0.008194702069959307,0.9913541350710552
2013-01-03,1,0.0017299332248823668,0.0020699044956443277,-0.004536039213047694,0.008194702069959307,0.9915445751266037
2013-01-07,1,0.0017470501189444773,0.0020995249797825417,-0.005350662571455398,0.008194702069959307,0.9910212973232368
2013-01-09,1,0.0017425213499566601,0.002107450427778799,-0.005350662571455398,0.006914402699649444,0.9913866705513396
2013-01-11,1,0.0014050229908653573,0.0016778639786817302,-0.005350662571455398,0.006914402699649444,0.9887314187874141
2013-01-15,1,0.0009803947734377872,0.0011793207009670277,-0.002843507711048514,0.006914402699649444,0.9892565186526201
2013-01-17,1,0.0013156488918651236,0.0015589286632102931,-0.004721568060119797,0.0065332686153741,0.989069405552961
2013-01-22,1,0.0010027379633270187,0.0012020456896798314,-0.004721568060119797,0.0065332686153741,0.9886275706543912
2013-01-24,1,0.0011410285855376944,0.0013623708805993616,-0.006949317883015232,0.00819406965249332,0.9875304636631876
2013-01-28,1,0.001317100132282216,0.0015492031296087043,-0.008747593193563176,0.007325573445572893,0.986705566661474
2013-01-30,1,0.0013243006050870578,0.0015537962445236848,-0.008747593193563176,0.00825340667584386,0.9864504348953826
2013-02-01,1,0.002052072293473065,0.002405953034043633,-0.0074351871489906724,0.007030479789938437,0.9881872363321335
2013-02-05,1,0.0014592122755358707,0.0016977782871661793,-0.006592767400878711,0.00825340667584386,0.9882501237108928
2013-02-07,1,0.0010378746466913975,0.001211837418510457,-0.0044516774858862984,0.00825340667584386,0.989097430106727
2013-02-11,1,0.0026235969348754064,0.0030269697481015907,-0.0044516774858862984,0.005694304763546009,0.99226496212326
2013-02-13,1,0.002746738530133572,0.00316662883902088,-0.00568048484483313,0.004241842938590261,0.9919423354040853
2013-02-15,1,0.0027626526706902473,0.0031787795925962295,-0.007100586722034921,0.00278607971729225,0.9917017397913244
2013-02-20,1,0.0021393085037996005,0.0024530743019656933,-0.0058424412668249435,0.004241842938590261,0.9926159406556164
2013-02-22,1,0.002020576382403706,0.0022863834521861565,-0.0058424412668249435,0.004241842938590261,0.9925326541741631
2013-02-26,1,0.0018173870509715375,0.002057487661073918,-0.004201568774535043,0.004241842938590261,0.9933894696977145
2013-02-28,1,0.001817329540595036,0.0020705897338523117,-0.004201568774535043,0.004101582887398725,0.9934894489122836
2013-03-04,1,0.0016866892473802353,0.0019156588118840571,-0.005502903931423847,0.004101582887398725,0.992766013513883
2013-03-06,1,0.0018707279066239517,0.0021183205991339455,-0.006081974715831631,0.004101582887398725,0.9923235776151788
2013-03-08,0,0.0,0.0,-0.006081974715831631,0.005225792105600484,0.9922714406517764
2013-03-12,0,0.0,0.0,-0.006081974715831631,0.007597720827901994,0.9911389829116698
2013-03-14,0,0.0,0.0,-0.008031499202065211,0.007597720827901994,0.990977802123358
2013-03-18,0,0.0,0.0,-0.006947037030319608,0.00843906996616101,0.9907608806177818
2013-03-20,0,0.0,0.0,-0.012487965910781119,0.007597720827901994,0.9883937863413741
2013-03-22,0,0.0,0.0,-0.010999499770017076,0.007597720827901994,0.9892000555910095
2013-03-26,1,0.0007984582006849104,0.0010347072028543964,-0.010999499770017076,0.008621039178865334,0.9885547378863482
2013-03-28,1,0.0008217993941847586,0.0010883179320364503,-0.012487965910781119,0.010108865519835784,0.9875452005021162
2013-04-02,0,0.0,0.0,-0.010999499770017076,0.011077867377049699,0.987196723358287
2013-04-04,0,0.0,0.0,-0.009246451415141521,0.012188798251932184,0.9874518975513903
2013-04-08,0,0.0,0.0,-0.009246451415141521,0.01312584537427781,0.986403003434729
2013-04-10,1,0.00015476360597685662,0.00034733278692739987,-0.009246451415141521,0.012188798251932184,0.9872182640336103
2013-04-12,-1,-0.0007229982664461131,-0.00039830515680916293,-0.008992346744416105,0.012188798251932184,0.9871047279952687
2013-04-16,-1,-0.0005459240174362467,-0.0002627280574589696,-0.007208622182649094,0.011278923282171775,0.9879096988746966
2013-04-18,0,0.0,0.0,-0.0019398647522404122,0.011278923282171775,0.9903094711946722
2013-04-22,0,0.0,0.0,-0.007208622182649094,0.010782274338351824,0.9898142468011547
2013-04-24,-1,-0.0007523356637688579,-0.0005283711022593113,-0.008975916309067928,0.008582976648142298,0.9909349412560938
2013-04-26,0,0.0,0.0,-0.007208622182649094,0.0068622462099660175,0.9924157029676829
2013-04-30,0,0.0,0.0,-0.007208622182649094,0.004624728293933982,0.9931787907719049
2013-05-02,0,0.0,0.0,-0.007398165320038041,0.004624728293933982,0.9924267923972278
2013-05-06,-1,-0.0017754262110781425,-0.001543010155279705,-0.007398165320038041,0.006226940793303884,0.9928466429689636
2013-05-08,-1,-0.0012221957490270961,-0.0010720222803506435,-0.009560976156582943,0.004624728293933982,0.9926526761040335
2013-05-10,-1,-0.0014476500499073152,-0.001268301384123263,-0.007119936188215538,0.006226940793303884,0.9922867198518648
2013-05-14,-1,-0.0009572933439867009,-0.0008631111097527686,-0.009855291074410124,0.004624728293933982,0.9921806017207049
2013-05-16,0,0.0,0.0,-0.009855291074410124,0.004783823770213721,0.9910003269221763
2013-05-20,0,0.0,0.0,-0.005806102738662252,0.01066365658264262,0.9908665025137531
2013-05-22,0,0.0,0.0,-0.007657380801029987,0.01066365658264262,0.989265138593094
2013-05-24,0,0.0,0.0,-0.0118319728092296,0.01066365658264262,0.9883045018369871
2013-05-29,0,0.0,0.0,-0.0118319728092296,0.013170039487989935,0.9877952639480607
2013-05-31,0,0.0,0.0,-0.007657380801029987,0.01066365658264262,0.9892644684638945
2013-06-04,0,0.0,0.0,-0.007657380801029987,0.009642707919521928,0.9898173338909814
2013-06-06,0,0.0,0.0,-0.0024278425203162817,0.011794080410970484,0.9899699658921092
2013-06-10,0,0.0,0.0,-0.007151750529149776,0.010055468372324742,0.9893099627960421
2013-06-12,0,0.0,0.0,0.00019621292770616154,0.011794080410970484,0.9885063439875164
2013-06-14,0,0.0,0.0,0.001161892707816901,0.011794080410970484,0.9892663275949475
2013-06-18,0,-2.2315345256486777e-06,8.942865468860244e-05,0.001161892707816901,0.009599023170234916,0.9898679826278803
2013-06-20,-1,-0.0008066925070590103,-0.0006324679585356156,0.0018556471371726575,0.009599023170234916,0.9912845232714638
2013-06-24,-1,-0.0009249526986095777,-0.0007370049717436859,0.0018556471371726575,0.009599023170234916,0.9918483233837759
2013-06-26,-1,-0.0003212599903252579,-0.00022582296950709584,0.0003064230938080462,0.009407706044169734,0.9921565345598375
2013-06-28,-1,-0.0003112849872707429,-0.0002082439642990759,-0.00209147610865785,0.009407706044169734,0.9920408011182061
2013-07-02,-1,-0.00039809510395611737,-0.0002674181056690184,-0.00209147610865785,0.009599023170234916,0.9916317983522791
2013-07-05,1,0.001254211679112445,0.0014082518186266792,-0.002692254812634036,0.009599023170234916,0.9903071691823441
2013-07-09,1,0.0010453724664970425,0.0011860964156267884,-0.002692254812634036,0.006970432193809924,0.9911140124534688
2013-07-11,1,0.0019295048683249318,0.00220011270456432,-0.0042570382650790025,0.00586035517475313,0.9916701877213867
2013-07-15,1,0.0019386245159086295,0.002179611392223938,-0.005246643269852185,0.005244853777220131,0.9919303832107353
2013-07-17,1,0.0024805681709314633,0.0028096966352297633,-0.006221885132304893,0.00397561612416278,0.9915794326433014
2013-07-19,1,0.0021667936934106104,0.0024313660349703104,-0.007665961722894938,0.00397561612416278,0.9907619935965662
2013-07-23,1,0.0021496246840145717,0.0024107946138656345,-0.009115003606799829,0.00397561612416278,0.9901863896746891
2013-07-25,1,0.0017921329687121046,0.0019971062707474846,-0.007665961722894938,0.00397561612416278,0.9905158927993232
2013-07-29,1,0.0015813020277318937,0.0017762236487823546,-0.00699327204913752,0.00397561612416278,0.9912156766320271
2013-07-31,1,0.001901480187493919,0.0021394800794775157,-0.007665961722894938,0.00397561612416278,0.990417005396976
2013-08-02,1,0.002985556395743192,0.003362017318697737,-0.007665961722894938,0.0031315015073733895,0.9922899803942556
2013-08-06,1,0.002661406593882815,0.002987334754611699,-0.00699327204913752,0.003990679269047801,0.992450694091429
2013-08-08,1,0.001989992457881655,0.002191038790454184,-0.008083948950417856,0.003990679269047801,0.9922649509499976
2013-08-12,1,0.001991362592154873,0.0022029782985744525,-0.008083948950417856,0.005077477610988529,0.9921719281584247
2013-08-14,1,0.0015604513753807827,0.0017037313690101952,-0.005953371783657075,0.005077477610988529,0.9928532125337126
2013-08-16,1,0.001141809167913319,0.0012492394342949148,-0.005436241283226638,0.006672315965506349,0.9935593775142167
2013-08-20,1,0.00082565584304394,0.0008918406384015476,-0.0013423618076924427,0.006672315965506349,0.9941233802588962
2013-08-22,1,0.0004366450334692233,0.0004527187730667682,-0.0012978929574276963,0.006354698982451233,0.9943097392405641
2013-08-26,1,0.00021069826014551737,0.00027271205315640293,-0.0012978929574276963,0.00972008897540684,0.993531073881461
2013-08-28,0,-1.6438892860156057e-06,8.481155903101279e-05,-0.0012978929574276963,0.0068850925858527055,0.9938152511836359
2013-08-30,1,0.0002973563501296934,0.00030961730820985574,-0.001483965942337624,0.0068850925858527055,0.9938334159991338
2013-09-04,1,0.000589354662709147,0.0005934944973332935,-0.005236040679975532,0.004103179285948876,0.9942611112267454
2013-09-06,1,6.86605483634888e-06,7.522362957612837e-05,-0.0033865121413181234,0.004103179285948876,0.9944469134695328
2013-09-10,-1,-0.0007045875326795261,-0.0004699135584666185,-0.005679838729619571,0.0034011709053630617,0.9941873020708586
2013-09-12,-1,-0.0005592731411821768,-0.0003587558050626091,-0.005679838729619571,0.004103179285948876,0.9931145173284238
2013-09-16,1,0.00027681384821915344,0.0003404531111686435,-0.005679838729619571,0.005417603609553182,0.9930198477104903
2013-09-18,1,0.0003513843119667307,0.0004126421284882724,-0.007802697393617406,0.006268983736164954,0.9919743331516097
2013-09-20,1,0.00048790312213731906,0.0005053213646174372,-0.007802697393617406,0.00706980204482896,0.991789496203912
2013-09-24,1,0.0008611034552272346,0.0009002246213073809,-0.007802697393617406,0.0062149366491759915,0.9923483138606011
2013-09-26,1,0.0009686390389696938,0.0010454758666771742,-0.007802697393617406,0.005476037375795493,0.9913754611519467
2013-09-30,1,0.0007309980719756102,0.0007759186135368851,-0.004752554730098768,0.00706980204482896,0.9909878248198539
2013-10-02,1,0.0003060939603132533,0.0003295063335673986,-0.004479543364738308,0.0076357778911972035,0.9899432764191047
2013-10-04,0,-3.55630399236853e-05,1.0803513125385049e-05,-0.004479543364738308,0.009217974851060448,0.9863453003609772
2013-10-08,-1,-0.0003080278584725006,-0.000233985467588165,-0.0021194012016588853,0.009217974851060448,0.986955029644596
2013-10-10,-1,-0.00019814386212305222,-0.00010878198278319474,-0.004479543364738308,0.0076619148984860466,0.9869145905765402
2013-10-14,1,6.474630950507003e-06,8.64492735221552e-05,-0.004479543364738308,0.0076619148984860466,0.9869209868365145
2013-10-16,-1,-0.00035111572391124333,-0.00022670959369308933,-0.0018039520722157186,0.008592557981953401,0.9875621843577185
2013-10-18,-1,-8.970591592644204e-05,-2.011652238735601e-06,-0.0018039520722157186,0.008592557981953401,0.9878886493377944
2013-10-22,0,-7.007347451511864e-05,1.893161426349822e-05,-0.006642694634272535,0.008592557981953401,0.9869570516618865
2013-10-24,-1,-0.0007875519773267253,-0.0006314159183806279,-0.003798832967832486,0.012900511983033752,0.9873048222058362
2013-10-28,-1,-0.0009034420887486526,-0.0007067586645986764,-0.0025250024953937943,0.008592557981953401,0.9880267491764655
2013-10-30,-1,-0.00042052790585792667,-0.0002964350303526393,-0.0030425795690174045,0.0062253510044798675,0.9892318376073352
2013-11-01,1,0.0008073767565486613,0.0008103695650734339,-0.0033914281990439737,0.0047514909995668075,0.9926352018804598
2013-11-05,1,0.0009693542561116581,0.001015311454531237,-0.00536012358957566,0.0047514909995668075,0.9921998424572172
2013-11-07,1,0.0009296191810654597,0.0010006101713893208,-0.0032197111127369848,0.0047514909995668075,0.9919705822326723
2013-11-11,1,0.0007312088651676564,0.0007370204507337389,-0.005794903637137723,0.0016075404777189401,0.9921721657998603
2013-11-13,1,0.0008166554354064259,0.000821842597884653,-0.006203207424418446,-0.000171052347035446,0.9915416942332298
2013-11-15,1,0.0009808825982813097,0.0010135618466546783,-0.007191043191409374,-0.000171052347035446,0.9908963771616259
2013-11-19,1,0.00045388993604920155,0.0004811564982113443,-0.006036126824189457,0.004617302812036148,0.9915770823692122
2013-11-21,1,0.0010624042159793697,0.0011129825079134034,-0.006036126824189457,0.0035452624395442443,0.991856954278735
2013-11-25,1,0.0012072118363666813,0.0012975099814742594,-0.006036126824189457,0.006138634228316299,0.9909128549313005
2013-11-27,1,0.0007897535708823359,0.0008076136770285799,-0.005304430056165996,0.006138634228316299,0.9912938205567002
2013-12-02,1,0.0007195472020064592,0.000761591992778963,-0.004492728132727496,0.006877071818373245,0.9916810258847165
2013-12-04,1,0.0006259997777926465,0.0006681878857311152,-0.004637654815248185,0.008049252663760605,0.9910759040505681
2013-12-06,1,0.0012618452338701398,0.0014052186901714646,-0.004637654815248185,0.006877071818373245,0.9923525480096781
2013-12-10,1,0.0009398659279860181,0.0010346748202210083,-0.0018556345361593128,0.008049252663760605,0.9922869362958977
2013-12-12,1,0.00045569840019509385,0.0004891535399335098,-0.0016339169790965016,0.008049252663760605,0.9931453633162723
2013-12-16,1,0.00022907643797694523,0.00023607241956942379,-0.001553778007314655,0.009582368694034763,0.9925804553814874
2013-12-18,1,0.00043912514110125206,0.00044258061687126314,-0.001553778007314655,0.008049252663760605,0.9933548185873259
2013-12-20,1,0.000883590173347217,0.0009619604681973489,-0.0016339169790965016,0.006877071818373245,0.9941480048988652
2013-12-24,1,0.0019767308211149706,0.00225012708759993,-0.0023447817246352123,0.005147120722634481,0.9927994740666287
2013-12-27,1,0.001814407552716721,0.0020590418478754827,-0.0023447817246352123,0.005848907093635206,0.9920727367163686
2013-12-31,1,0.0018318624823077012,0.002061725719356717,-0.00351488208442131,0.006312419853292204,0.991079897669274
2014-01-03,1,0.001588532716387954,0.0017814813126488243,-0.005522782641466751,0.005147120722634481,0.9901153065150121
2014-01-07,1,0.0015245210806154987,0.001693047182994711,-0.005522782641466751,0.002794828239833338,0.9903886674488379
2014-01-09,1,0.0014247480354645289,0.0015505101730002334,-0.005522782641466751,0.002794828239833338,0.9903195118373701
2014-01-13,1,0.0012028282675656302,0.0012811950072245575,-0.005522782641466751,0.00554122486289417,0.9902913529663193
2014-01-15,1,0.0015411546900192222,0.0016630358823210099,-0.005522782641466751,0.006081223481742008,0.9904843010557196
2014-01-17,1,0.0014123061275295179,0.001515675692458463,-0.006703060112802177,0.006081223481742008,0.9903183071683805
2014-01-22,1,0.0011788391321041697,0.0012417650010446632,-0.010080903375227348,0.006811301300031573,0.9896422662680737
2014-01-24,1,8.80645530029575e-05,0.00016945282438241357,-0.002239093925626906,0.006811301300031573,0.9918288607566077
2014-01-28,1,0.0007520095634242568,0.0007684689564628838,-0.002239093925626906,0.005951419439291529,0.9927367013419872
2014-01-30,1,0.0005935671224420227,0.000619799818860154,-0.001147531267628405,0.0045699124733077695,0.9938862354430397
2014-02-03,-1,-0.0002251861481344828,-0.00011486535521519782,-0.00044479345471518897,0.005951419439291529,0.9935142325046316
2014-02-05,-1,-0.0002603018868773364,-0.00014112054179832322,-0.00010713819168542199,0.005951419439291529,0.9932320499369474
2014-02-07,1,0.0002839384947893529,0.00032451916967835394,-0.0013617806375325332,0.005313829822228629,0.9940743334499502
2014-02-11,1,0.0005512268513076146,0.0005531770041913985,-0.0015011135316516106,0.004866991329022288,0.9939400645260904
2014-02-13,1,0.0008827927484587498,0.0009140156912409777,-0.002862557034982612,0.002658840164508109,0.9944920611297915
2014-02-18,1,0.0008647894338083711,0.0009121630037802109,-0.0016145854733790417,0.004866991329022288,0.9936059576587314
2014-02-20,1,0.0005374322807777639,0.0005475326348286793,-0.0016145854733790417,0.004866991329022288,0.9935520841186672
2014-02-24,1,0.0003806323600660954,0.000424238060310667,-0.0020953468296892666,0.004866991329022288,0.9928601009012917
2014-02-26,1,0.0002683888272886816,0.00034094793243614525,-0.003299367483838707,0.004866991329022288,0.9924667548633906
2014-02-28,0,-4.204970407811808e-05,8.736716584145334e-05,-0.005867043832696147,0.006416402500113069,0.9914191700183622
2014-03-04,1,8.391617244297663e-05,0.000220325759797466,-0.003299367483838707,0.006416402500113069,0.9926002863374184
2014-03-06,1,0.0004530289790385072,0.0005252581631022234,-0.003299367483838707,0.009112691121333819,0.9922232452372958
2014-03-10,1,0.0005417240589674022,0.0005906128018904461,-0.005958375419266147,0.009112691121333819,0.9906786466392202
2014-03-12,1,0.0001504060798455579,0.0002686734887235669,-0.005631441961908743,0.013717281320009867,0.989805607434427
2014-03-14,0,-4.201940355607676e-05,9.357553476453093e-05,-0.010660710279589609,0.013717281320009867,0.9882600190190691
2014-03-18,1,0.0007570304970364564,0.0007941954462070647,-0.010660710279589609,0.01064670153563323,0.9890033197389079
2014-03-20,1,0.0003481208097065908,0.0004918424040691687,-0.011352663444919989,0.01064670153563323,0.9882861172663087
2014-03-24,1,2.540823068614335e-06,0.00017706953329814986,-0.010660710279589609,0.01064670153563323,0.988397295137375
2014-03-26,0,-0.0001712145538795679,1.2889838956087196e-05,-0.006953920076967814,0.01064670153563323,0.9884852540740444
2014-03-28,1,0.0009105459959735477,0.0009296327669733496,-0.006953920076967814,0.00964104177890095,0.9884652207366416
2014-04-01,1,0.0014949040645567228,0.0015925081303570156,-0.006953920076967814,0.007946401581238464,0.989029192975983
2014-04-03,1,0.0016617913590203572,0.0017522349274295675,-0.01180149088290252,0.007381517170318191,0.9886219043711318
2014-04-07,1,0.0007453417726948069,0.000748686125539313,-0.00923797115164169,0.007381517170318191,0.9896315376758014
2014-04-09,1,0.0018220569983280173,0.0019866739225333514,-0.00923797115164169,0.006548329851174565,0.990620789684723
2014-04-11,1,0.0005245697579676866,0.0005272787906171036,-0.004352327353444749,0.007381517170318191,0.9911801142596183
2014-04-15,1,0.00044656206649962564,0.0005071960163952672,-0.008922039918248227,0.006548329851174565,0.9905862483355368
2014-04-17,1,0.001114867888310884,0.0011914943917366275,-0.008922039918248227,0.006548329851174565,0.9911171694978957
2014-04-22,1,0.001442273273178174,0.0015587044801605638,-0.008922039918248227,0.005626914363226477,0.9910432012264666
2014-04-24,1,0.001493039785547517,0.0015905780307311494,-0.008922039918248227,0.005653350420540361,0.9910618403552374
2014-04-28,0,-5.967466467326506e-05,6.69460118559256e-05,-0.008657585438093147,0.007460825342259841,0.9918829370695106
2014-04-30,1,0.00012242228004448648,0.0002464154376837522,-0.008657585438093147,0.005400818311730244,0.9924344465929955
2014-05-02,0,-1.430900497987475e-05,8.136933553780373e-05,-0.007669862581173085,0.006445117537864845,0.9927688808500635
2014-05-06,-1,-0.0007750741947505519,-0.0005636687612237795,-0.0050243056391169345,0.007066011834551898,0.9924567978066107
2014-05-08,-1,-0.00087236573492128,-0.0005960749844828912,-0.0050243056391169345,0.007511582387992206,0.9923192501064011
2014-05-12,-1,-0.0006444039890333684,-0.0003804805816956991,-0.0018382273389744908,0.007511582387992206,0.9925997113289363
2014-05-14,-1,-0.001377699964200571,-0.0010614958497924191,0.000607055600102384,0.007511582387992206,0.9930633451263107
2014-05-16,-1,-0.0010149444954211698,-0.0007793249252407285,-0.0001017110345084635,0.007066011834551898,0.9942062485835648
2014-05-20,-1,-0.0008906302841808432,-0.000710796058436514,0.0005053445655939205,0.007511582387992206,0.9940654043785513
2014-05-22,-1,-0.0006520022085881787,-0.0004918860965307198,-0.00040653411115615905,0.0071862865575899595,0.9945158183627327
2014-05-27,1,0.00018788836997889438,0.00023217974961610617,-0.0009638332844799694,0.00633668559439743,0.9947927923427043
2014-05-29,1,7.015864681703045e-05,0.00014053705121682184,-0.003349729262426504,0.00633668559439743,0.994373493476732
2014-06-02,1,1.754957100363785e-05,9.042247326951231e-05,-0.0009638332844799694,0.005145689774694692,0.994657731713067
2014-06-04,1,0.0006312717320170304,0.0006533845470488686,-0.0028300385681750586,0.005374396441200169,0.9941363281967235
2014-06-06,1,0.0011754629699484444,0.001263215872960465,-0.0039354427954967335,0.003727452159525872,0.9944446836783425
2014-06-10,1,0.002161163674507253,0.002432613027997671,-0.0039354427954967335,0.003727452159525872,0.9945226419759534
2014-06-12,1,0.0018114966558285012,0.0020274313477173208,-0.004265834295121869,0.003727452159525872,0.994270238291658
2014-06-16,1,0.0014715775360362982,0.0016333552350971119,-0.004748530746068331,0.003727452159525872,0.9941178546255078
2014-06-18,1,0.0007660253767647755,0.0007894202085391069,-0.007432386754648672,0.0031788452879686147,0.9939679298444366
2014-06-20,1,0.0011827352135032679,0.0012529802907834744,-0.007432386754648672,0.0034502700356482444,0.9937494741056643
2014-06-24,1,0.0008212488581587267,0.0008516342151084499,-0.007432386754648672,0.004565585951164224,0.9924831707260287
2014-06-26,-1,-0.00045105679561724507,-0.0002521244645856001,-0.007432386754648672,0.004565585951164224,0.9916520446815257
2014-06-30,-1,-0.00024395472250155956,-7.010935321468033e-05,-0.007432386754648672,0.004730594224357726,0.9916589210953903
2014-07-02,1,0.0006403101942521473,0.000683864318860992,-0.008035238512501925,0.003474129584247706,0.9913244560525142
2014-07-07,1,0.0005190346244924491,0.0005484616585245235,-0.008035238512501925,0.004510769630279493,0.9906620113051454
2014-07-09,1,0.0009839000514185329,0.0010433846357396515,-0.008035238512501925,0.004510769630279493,0.9906283640562147
2014-07-11,1,0.00039000998201046245,0.0004210781588855151,-0.010411929601319975,0.005457450879034484,0.9897026171277078
2014-07-15,-1,-0.00020751592665451047,-9.101055703695523e-05,-0.003563549003607346,0.00672416487651102,0.9894896808025238
2014-07-17,-1,-0.0006056746555703652,-0.00044230957790977504,-0.0001622112505681003,0.007122784532580454,0.9895330418073103
2014-07-21,-1,-0.0002560877532173763,-0.0001411663130218087,-0.0022810192290862166,0.00672416487651102,0.9894520596665033
2014-07-23,-1,-0.0014157693121186444,-0.0011637274222076827,-0.0001622112505681003,0.0072193108707108815,0.990392680265145
2014-07-25,-1,-0.002035960713882333,-0.0017405648135558251,-0.00010462679106774439,0.0072193108707108815,0.9910885828635625
2014-07-29,-1,-0.0015836485038108875,-0.001354281522624995,-0.00047609162377133346,0.0072193108707108815,0.9916821395449594
2014-07-31,-1,-0.0026278172181795553,-0.00227151618951567,-0.00047609162377133346,0.007859572156170384,0.9918123043310098
2014-08-04,-1,-0.0016618626581669225,-0.0014150997771745998,-0.0007426395364819122,0.007859572156170384,0.992960875335583
2014-08-06,-1,-0.0015037105746180518,-0.0012619491779880066,-0.0010820291437197396,0.006913255531664961,0.9933942639981083
2014-08-08,-1,-0.00139708088350834,-0.0012183505421206175,-0.0005698861579808445,0.00656944260917963,0.9944986959448681
2014-08-12,-1,-0.0005543705752227999,-0.0005004790333809773,-0.0017785046719729152,0.005087832257946982,0.994965311311654
2014-08-14,-1,-0.000398032109945173,-0.0003430843166159979,-0.003585664008852645,0.004334573247076612,0.9947587348372382
2014-08-18,-1,-0.0006074431758515181,-0.0005140802483251687,-0.003585664008852645,0.004334573247076612,0.9942463353652805
2014-08-20,-1,-0.0003040415006675751,-0.0002370545482846551,-0.003585664008852645,0.005368548558361002,0.9937092193851287
2014-08-22,1,0.00021877605594026951,0.00025045031371315196,-0.006775113922541395,0.005368548558361002,0.9927458255118371
2014-08-26,1,0.0005153455471997768,0.0006160343119357226,-0.007401552082331064,0.00624166623351588,0.9921537064815205
2014-08-28,1,1.1821751598864168e-05,4.057086890660854e-05,-0.007883589483023163,0.005433551197436998,0.991950117532788
2014-09-02,1,0.0009688481983116965,0.0011170087146575413,-0.007883589483023163,0.00486787348605229,0.9924024752106714
2014-09-04,1,0.00018749774033536063,0.0002108727138290052,-0.008908997293933888,0.00486787348605229,0.9912552764040282
2014-09-08,1,0.0006188104201002818,0.000675123719312368,-0.008908997293933888,0.004738653579833293,0.9911327975157883
2014-09-10,1,0.00022716733286262013,0.0002369317859996752,-0.009353857690551349,0.005433551197436998,0.989433564023555
2014-09-12,1,2.9024391619832224e-05,3.37334271938252e-05,-0.011383927686758534,0.005433551197436998,0.984705280874701
2014-09-16,1,0.000329546624035667,0.0003877277719662286,-0.014576848331422688,0.004738653579833293,0.9835917006400866
2014-09-18,1,0.0004883106163143579,0.0005247308566832817,-0.014576848331422688,-0.00012090772856564202,0.9821288531842394
2014-09-22,1,7.170021353318103e-05,7.480639738780036e-05,-0.01581762106164083,0.004738653579833293,0.9816043779381141
2014-09-24,-1,-0.000394459271186072,-0.00031149568172349744,-0.016559341873391146,0.004738653579833293,0.9800447543766895
2014-09-26,-1,-0.0007046773268095559,-0.0005711686162232716,-0.016559341873391146,0.01128081741741881,0.9795272768084583
2014-09-30,-1,-0.0006805587460090949,-0.0005729395155916084,-0.016559341873391146,0.017272359401651127,0.9787908938115807
2014-10-02,-1,-0.0010679686506735945,-0.0009347066961487859,-0.016559341873391146,0.017272359401651127,0.9785635239119882
2014-10-06,-1,-0.0011687338152899138,-0.001000618619660531,-0.016559341873391146,0.017768231165077482,0.9762327679982503
2014-10-08,-1,-0.0010474133086254074,-0.00089303986040076,-0.014532951017617573,0.017272359401651127,0.9775207228369684
2014-10-10,-1,-0.003564491658281586,-0.003107973459173137,-0.012445257567034853,0.017272359401651127,0.982284160598864
2014-10-14,-1,-0.004309830145429042,-0.0037787334780742046,-0.007853748471435322,0.017272359401651127,0.9832344120083949
2014-10-16,-1,-0.0034137350304984356,-0.00300768484055435,-0.007853748471435322,0.016729770129909487,0.9854399346108312
2014-10-20,-1,-0.0033671700031677803,-0.0029716977534361613,-0.0038062670886957342,0.012358173974715485,0.9861724277651736
2014-10-22,-1,-0.0028256894294594564,-0.002494817516728261,-0.0038062670886957342,0.009682260262824975,0.987583275042722
2014-10-24,-1,-0.0020291497641079237,-0.0018049803330275902,-0.0038062670886957342,0.009095487364088942,0.9884429219819917
2014-10-28,-1,-0.0012559885004692366,-0.0011435697362040995,-0.0038062670886957342,0.008207465751304,0.9892358095205068
2014-10-30,-1,-0.0013998920008453015,-0.0012905637258148193,-0.0020088267465713937,0.009095487364088942,0.9896230427290253
2014-11-03,-1,-0.00027962272919568565,-0.0002589100472890605,-0.0038062670886957342,0.0082035178925226,0.992043867140729
2014-11-05,-1,-0.00011951097430805062,-7.997515375729298e-05,-0.004022940268546397,0.0082035178925226,0.9905394071340645
2014-11-07,-1,-0.0002023180495160177,-0.00016288345773029126,-0.004222590566177693,0.0082035178925226,0.9896645232110687
2014-11-11,1,3.366901194048241e-07,7.423944097265984e-05,-0.009800668477908406,0.007307739080603578,0.9891323236164193
2014-11-13,-1,-0.0003008824743022537,-0.00028312311747962296,-0.010035371518849513,0.007307739080603578,0.9882498250031064
2014-11-17,1,3.3352444357807117e-05,8.919422677532141e-05,-0.012436651615575858,0.005999186638919969,0.9885636387430655
2014-11-19,-1,-7.654285022988563e-05,-2.283270945143041e-05,-0.010035371518849513,0.007918847673518957,0.9876250943281717
2014-11-21,1,0.00045449024571192747,0.0006003619200391584,-0.010035371518849513,0.006784391330899451,0.9879766647190895
2014-11-25,1,0.0006330230040274915,0.0008011636642737962,-0.010035371518849513,0.006387904105010089,0.9881896244931422
2014-11-28,1,0.0011896037062000234,0.0014377671821321587,-0.010035371518849513,0.0050076579230263025,0.9888678537294003
2014-12-02,1,0.0008747282680284507,0.001068695594586029,-0.008001464247169328,0.0050076579230263025,0.9889640323246353
2014-12-04,1,0.0014258712261518809,0.0016810943334622057,-0.008203737391884623,0.003645268761907245,0.9901676985964422
2014-12-08,1,0.001020606270630223,0.0012116923328528697,-0.008203737391884623,0.003645268761907245,0.9903450429680338
2014-12-10,1,0.0007821243756663123,0.0009550653934094017,-0.005637897127233884,0.004935589575912698,0.9898037574350391
2014-12-12,1,9.375565350325247e-05,0.00013724824386213534,-0.005637897127233884,0.0038596558505482673,0.9905104985808926
2014-12-16,-1,-0.0005378358178386449,-0.00047446301533547,-0.005637897127233884,0.0061716990636692766,0.9895089347139859
2014-12-18,1,0.0006611364412462842,0.000758296354825446,-0.005637897127233884,0.0061716990636692766,0.9908488762747883
2014-12-22,1,0.000585026039398048,0.0006339417135919708,-0.005637897127233884,0.008147199402782431,0.9899751488668551
2014-12-24,1,0.0010377685456649615,0.0011841086973665433,-0.005637897127233884,0.008147199402782431,0.9897737454267512
2014-12-29,1,0.0009486205442189425,0.0010952036247283857,-0.007694451353558524,0.008147199402782431,0.9890019856247079
2014-12-31,1,0.000528602226401503,0.0005978955187151199,-0.011309617742689345,0.008147199402782431,0.9886013414839607
2015-01-05,1,3.5045910416623696e-05,5.8659208163169016e-05,-0.008239353800417789,0.008751923576431283,0.9887297338396142
2015-01-07,-1,-0.000135054810670587,-0.00011588446450117726,-0.003845368473110431,0.016752707252659437,0.9862883578484238
2015-01-09,1,0.000596775679423155,0.0007117195056554136,-0.008869060084798892,0.011082863674504324,0.9868756642791592
2015-01-13,1,0.00046135963743117224,0.0005767681451593974,-0.007526931529878304,0.016752707252659437,0.9865013169664413
2015-01-15,1,0.0008364422218236779,0.001009651811631998,-0.0031396170899645436,0.016752707252659437,0.9865866949184173
2015-01-20,1,0.0012980936913084907,0.0015333939276366013,-0.0047756445647064785,0.016752707252659437,0.9870678706199463
2015-01-22,1,0.0020427730900943295,0.002382391778812081,-0.0047756445647064785,0.01501229161022731,0.9877964862161769
2015-01-26,1,0.0023788268089029833,0.002786594956685629,-0.006394366892937671,0.016668020259547865,0.9869623065516595
2015-01-28,1,0.001774371876914746,0.0020978042687556184,-0.004468090383990835,0.016668020259547865,0.987949053706402
2015-01-30,1,0.0015579805628258673,0.001864375493386699,-0.0038964591375599605,0.018061768514520328,0.98759156608021
2015-02-03,1,0.001661389446819797,0.0019608915245110633,-0.0038964591375599605,0.016668020259547865,0.9878083172600048
2015-02-05,1,0.003338109837650929,0.0038396820387759296,-0.004468090383990835,0.009588548208342651,0.9900237464465858
2015-02-09,1,0.0027521489930173856,0.003185475477980446,-0.0038964591375599605,0.012222913959292979,0.9893634796236972
2015-02-11,1,0.003553881480054093,0.004127361682298561,-0.004468090383990835,0.011988418925355833,0.9891168519997658
2015-02-13,1,0.004091066060129021,0.004696828953545439,-0.004468090383990835,0.00879424175751642,0.9892771621096123
2015-02-18,1,0.003953373253241299,0.004530962294974896,-0.007139298581726006,0.010096236131913306,0.9886085373163511
2015-02-20,1,0.003951494573556672,0.00452024218380185,-0.007139298581726006,0.011356153419907587,0.9887003821982615
2015-02-24,1,0.004061732821740877,0.004629883321019334,-0.01063631267228375,0.010072084769060253,0.9881908899522386
2015-02-26,1,0.0037421548587764915,0.004233347113137239,-0.012211397002772925,0.010072084769060253,0.9869717991593098
2015-03-02,1,0.004034675455141067,0.0045494332075825036,-0.012211397002772925,0.011356153419907587,0.9868888804092344
2015-03-04,1,0.0034747972934876664,0.003918893125948353,-0.012519242226495194,0.011356153419907587,0.9863394826442411
2015-03-06,1,0.0016836210193525623,0.0016887632024671067,-0.012519242226495194,0.011356153419907587,0.987216764611475
2015-03-10,0,-0.0002622375478011431,4.534930888983415e-05,-0.01073892774685784,0.011655047766943209,0.9890157759053295
2015-03-12,1,6.83307887051727e-05,0.0002836205614221313,-0.010240626488659366,0.011535430973905268,0.9890825209967774
2015-03-16,1,0.00023045609029857263,0.00042564229836643665,-0.012519242226495194,0.010192005648665434,0.988941576269573
2015-03-18,1,0.00026750324568583495,0.00043065078176498964,-0.010240626488659366,0.011535430973905268,0.9886501591276551
2015-03-20,1,0.0008560431649071506,0.000918563841809205,-0.012733715167210566,0.01039543456551617,0.98776933544217
2015-03-24,1,0.00032241356154574986,0.00042583796014763076,-0.010066378914726146,0.01039543456551617,0.9885897905940517
2015-03-26,-1,-0.0010361640204184538,-0.0007209870499877071,-0.012733715167210566,0.01039543456551617,0.9882528470052379
2015-03-30,1,0.0010583338780159705,0.0010835223745657432,-0.012733715167210566,0.008702999288514264,0.9891672196113751
2015-04-01,0,-0.0001454354156183135,7.981281269317628e-06,-0.0080948316947283,0.008702999288514264,0.9904844869920536
2015-04-06,-1,-0.0005157186419481371,-0.0002956337939548189,-0.0080948316947283,0.01039543456551617,0.9894828613186487
2015-04-08,0,-6.639902272409872e-05,9.434556897071247e-05,-0.010734651665219197,0.008702999288514264,0.9884454529686453
2015-04-10,1,0.0003425648830105072,0.0004816121910532437,-0.010734651665219197,0.00685937635672328,0.987628130733394
2015-04-14,-1,-0.00034861364443128037,-0.00015804777816497704,-0.008006080833612884,0.008394158075698141,0.9880246487191746
2015-04-16,1,0.0003526349627131174,0.0004876102169612016,-0.008006080833612884,0.008394158075698141,0.9888322490073036
2015-04-20,1,2.0015941629407277e-05,0.00017361131586496537,-0.008006080833612884,0.006920204329692091,0.9893533822440775
2015-04-22,-1,-0.0001957693305496092,-2.6843224818820814e-05,-0.009742643212894836,0.007731918351898665,0.9887615479992564
2015-04-24,-1,-0.0013043125672298722,-0.0010459765167436675,-0.00622431758688248,0.007731918351898665,0.9902569517396511
2015-04-28,-1,-0.0011475926628023796,-0.0008851895603044892,-0.007267508433747719,0.007731918351898665,0.9896178740413512
2015-04-30,-1,-0.0007260454219873323,-0.0005678057772613965,-0.0068168217655001405,0.00802046567569085,0.9892691050573637
2015-05-04,-1,-0.0002237443995784804,-9.468630748189386e-05,-0.009742643212894836,0.007546526245594091,0.9897535164292505
2015-05-06,-1,-0.0020698067216030716,-0.0016877156798552318,-0.007514444008794276,0.007546526245594091,0.9905270318370626
2015-05-08,-1,-0.0010938905677937115,-0.0007866578729458225,-0.012182434028202207,0.005698510580844997,0.9916200281355088
2015-05-12,-1,-0.001503730101783911,-0.0011154440638890127,-0.012182434028202207,0.005698510580844997,0.9913586447980202
2015-05-14,1,4.1880789978027274e-05,0.0001664619072823678,-0.012182434028202207,0.004171916925237019,0.991597422980929
2015-05-18,-1,-0.0005255747968276782,-0.00035125218499792136,-0.007773769633608842,0.005079283340285852,0.9920578402198129
2015-05-20,-1,-0.0007532177247087746,-0.0005576731155086956,-0.005897363979753264,0.005079283340285852,0.9917043992042667
2015-05-22,-1,-0.0012418418873594772,-0.0009726569422758763,-0.005662768913189389,0.009242964379321955,0.9904076743103387
2015-05-27,-1,-0.0014624055337025532,-0.0011468210116059858,-0.005662768913189389,0.005794693022109058,0.9909907757164648
2015-05-29,-1,-0.001717334894073052,-0.0013160915095090766,-0.007993704687478597,0.004160155980993419,0.9908644357622768
2015-06-02,-1,-0.0028932919285706835,-0.0023237003174501167,-0.007993704687478597,0.004921534283098839,0.9901278477936101
2015-06-04,-1,-0.003126416103657656,-0.0025823066054112276,-0.007993704687478597,0.004921534283098839,0.9900839779163055
2015-06-08,-1,-0.004065933375790935,-0.003385494916377788,-0.007993704687478597,0.004921534283098839,0.9901798552167566
2015-06-10,-1,-0.0029535161454842538,-0.0024340084141525244,-0.014840368336705613,0.0037318308259919903,0.9902258191923675
2015-06-12,-1,-0.002757366482862041,-0.0022902882988104405,-0.014840368336705613,0.004921534283098839,0.9895188628729897
2015-06-16,-1,-0.0018545853387232053,-0.001543257706543255,-0.014840368336705613,0.0051563247251390455,0.9893969111427989
2015-06-18,-1,-0.0008164456358015826,-0.0006337164286138319,-0.014840368336705613,0.002890497028820172,0.9898842003477287
2015-06-22,-1,-0.0003807545959096856,-0.00020276787034077787,-0.014840368336705613,-0.0023150995661890823,0.9905429209520848
2015-06-24,-1,-0.0013911213132488218,-0.0010788932696430924,-0.016414170455883635,-0.0010812390330063428,0.9893572316866023
2015-06-26,-1,-0.0020606859155570317,-0.0016829668477899161,-0.016414170455883635,-0.0010547091883034978,0.9897226051655869
2015-06-30,-1,-0.0012733685097165463,-0.0011133690530234944,-0.012642311981959803,0.002316914687013385,0.9895115161875812
2015-07-02,-1,-0.002464524650352261,-0.0021246873337022664,-0.010524807274580772,0.0027522336878356836,0.9904257447822414
2015-07-07,-1,-0.002654213412655812,-0.002330146484997444,-0.008477412995010937,0.0027522336878356836,0.9909229039567163
2015-07-09,-1,-0.0029179119748384322,-0.002632009752386503,-0.006119774138789079,0.003956652128554073,0.9903474667858335
2015-07-13,-1,-0.002166442961714268,-0.0019731410051522964,-0.006119774138789079,0.006413420678953178,0.9899457509749897
2015-07-15,-1,-0.0019001605780852942,-0.0017485671931765107,-0.008477412995010937,0.004363388643304171,0.9895959886421327
2015-07-17,-1,-0.0020295225358497853,-0.0018887754345930322,-0.008542708389901982,0.004363388643304171,0.9896386341375858
2015-07-21,-1,-0.002338691481690535,-0.002165208778965724,-0.01125696268003265,0.005893153525519222,0.9890621606820922
2015-07-23,-1,-0.002707097092913543,-0.0025320613093178924,-0.01125696268003265,0.003783229744076088,0.9901636013314873
2015-07-27,-1,-0.003886643652777527,-0.003556540777154636,-0.01359006788928891,0.003783229744076088,0.9894452117576213
2015-07-29,-1,-0.0027591682082846397,-0.0025301294547951407,-0.013817052079799,0.003783229744076088,0.9884513569744946
2015-07-31,-1,-0.0029638556685853733,-0.0026744498661260257,-0.013817052079799,0.008709087292338762,0.9860183969072132
2015-08-04,-1,-0.002814182654086878,-0.0025531936811918955,-0.015972565152262898,0.008709087292338762,0.9831878747163135
2015-08-06,-1,-0.0018651301442352412,-0.0017397661431025387,-0.015972565152262898,0.012906336655686561,0.9829848221899421
2015-08-10,-1,-0.0008060442543475004,-0.0007938022765245406,-0.01673930264644932,0.012906336655686561,0.9788432437602348
2015-08-12,-1,-0.0007597663355778277,-0.0007528443457119423,-0.01673930264644932,0.012906336655686561,0.9790952238569262
2015-08-14,-1,-0.0013850982622736578,-0.0012881722820706656,-0.01673930264644932,0.012906336655686561,0.9794222102291196
2015-08-18,-1,-0.0019141035248975832,-0.0017195797345519541,-0.01673930264644932,0.012906336655686561,0.9802601611398964
2015-08-20,-1,-0.0021221894536128947,-0.001950863231498936,-0.014803834416674962,0.012906336655686561,0.980643326426232
2015-08-24,-1,-0.0033209601395005777,-0.002972837770830369,-0.013456666236717022,0.012906336655686561,0.9814326894959644
2015-08-26,-1,-0.0025434978982567117,-0.0022909303910465077,-0.01371704332574344,0.004520752540579231,0.9832690337547085
2015-08-28,-1,-0.0008769887685182748,-0.0008376273222635258,-0.01371704332574344,0.001024920368908533,0.9847313731893301
2015-09-01,-1,-0.0022264426222593997,-0.0020623123188803468,-0.012315444101441794,0.0057716448843582804,0.9854695841047196
2015-09-03,-1,-0.0015793222238188573,-0.0014661085824306023,-0.012727048754507619,0.0021425219501364705,0.9848462541579598
2015-09-08,1,0.000919232154563987,0.0011767449261027617,-0.012315444101441794,0.003369690301816008,0.987462297908445
2015-09-10,1,0.00044766590747628496,0.000627149027413149,-0.012315444101441794,0.01389420398663788,0.9870167798414433
2015-09-14,1,0.0002793375174500014,0.0004305413242175801,-0.012315444101441794,0.01389420398663788,0.9869556003452851
2015-09-16,-1,-0.00022187122946792877,-0.00019778631851451764,-0.012315444101441794,0.015884629226571967,0.9855638868481584
2015-09-18,-1,-0.0006697483824294538,-0.0006609760848221832,-0.008169362802788778,0.015884629226571967,0.986306784726393
2015-09-22,-1,-0.0012546585893047715,-0.0011721895805456024,-0.005601660270045592,0.015884629226571967,0.9864977174382683
2015-09-24,-1,-0.0011900144186051797,-0.0011546661461253626,-0.004831044623019007,0.02165242491754152,0.9851977213080209
2015-09-28,-1,-0.002022562973594334,-0.0018427533649678677,-0.004831044623019007,0.02165242491754152,0.9848508306462551
2015-09-30,1,0.00027392205404851107,0.0004423482102855703,-0.005833942033962895,0.01389420398663788,0.987098364777987
2015-10-02,1,0.0006103048827059395,0.0008310859799951394,-0.005833942033962895,0.01389420398663788,0.9874619438544815
2015-10-06,1,0.0021367320579343107,0.0025885479183284663,-0.005833942033962895,0.013275244736206383,0.9890517778172002
2015-10-08,1,0.0026840313541326775,0.003180536774832913,-0.008169362802788778,0.007739814756145233,0.98891807349772
2015-10-12,1,0.0024815448377929015,0.002946421980755695,-0.005857515861709021,0.007739814756145233,0.9892192490882694
2015-10-14,1,0.0030310006558949,0.003559168060681738,-0.00916912751273518,0.00538202468207781,0.989687144844962
2015-10-16,1,0.002846339346389331,0.003353871913466939,-0.012613576449313229,0.00538202468207781,0.9885691991012505
2015-10-20,1,0.0034388419870104974,0.004052502779150935,-0.012613576449313229,0.005535574247304151,0.9883499106142105
2015-10-22,1,0.004142719816242891,0.004821998218088546,-0.012613576449313229,0.005535574247304151,0.9893533321647741
2015-10-26,1,0.003572617663409291,0.004138617186894736,-0.014226047416304365,0.004890939643194816,0.9893659924839429
2015-10-28,1,0.0033489567486337827,0.0038595065789753962,-0.014226047416304365,0.004890939643194816,0.9898980105239711
2015-10-30,1,0.0034400417205339793,0.003993155619467455,-0.004720785880090101,0.0079574253160571,0.9912088307107593
2015-11-03,1,0.003674482431971982,0.004251613378093537,-0.014226047416304365,0.004960344912309294,0.9897874390289036
2015-11-05,1,0.00320851455146221,0.0037362304394626487,-0.007147387733323905,0.0079574253160571,0.9898836090987061
2015-11-09,1,0.003565741849103515,0.004187406820414986,-0.01399285322955248,0.0079574253160571,0.9887783379033402
2015-11-11,1,0.0035769690261021154,0.004250092542838863,-0.014711677629473138,0.0079574253160571,0.9886254727967885
2015-11-13,1,0.002436819750908022,0.0029280313810555484,-0.011192971561470526,0.0079574253160571,0.9893707264384668
2015-11-17,1,0.0024330084441227884,0.0028883617305838546,-0.011192971561470526,0.012658511608542646,0.9871216282251115
2015-11-19,1,0.0028953164139766353,0.0033795434299204005,-0.014308094711912385,0.011682453721545657,0.9866142233269153
2015-11-23,1,0.002199327801259013,0.002556013653887817,-0.011106952310439466,0.012658511608542646,0.9868089545877846
2015-11-25,1,0.0022310876606802315,0.002557402397441304,-0.011106952310439466,0.011682453721545657,0.9873369594310021
2015-11-30,1,0.0023725050916159336,0.0026547975713764583,-0.011106952310439466,0.008226031464455356,0.9875807498534291
2015-12-02,1,0.0015729297052770536,0.001778266570526829,-0.011106952310439466,0.008226031464455356,0.9878985385350257
2015-12-04,1,0.0020238003644490674,0.002287582370501716,-0.012580035876523933,0.0059923906666314326,0.9878969560527305
2015-12-08,1,0.000991357990080515,0.0010899647386410014,-0.014453619876379956,0.0059923906666314326,0.9861270028763983
2015-12-10,1,0.00013063172804710115,0.00016487643075128878,-0.01455568397278411,0.0059923906666314326,0.9859419812699112
2015-12-14,-1,-0.0010308913535279868,-0.0008152417632525773,-0.013232886616452109,0.007231151948123892,0.9859948534248014
2015-12-16,1,0.0003463003949141072,0.0004370697703471276,-0.01455568397278411,0.0059923906666314326,0.9857254555904098
2015-12-18,0,-3.619283031224696e-05,5.6166452824136766e-05,-0.013566495128354894,0.009428577687924085,0.9841481934497964
2015-12-22,1,0.0006235818883071542,0.0006395756753566763,-0.013566495128354894,0.009428577687924085,0.983736676199997
2015-12-24,1,0.0005497367985662358,0.000580362351042258,-0.013566495128354894,0.01372772576984907,0.9827642071805474
2015-12-29,1,0.0011495956290713096,0.001208849531860094,-0.016865111899421963,0.010743087220854677,0.9821713146252713
2015-12-31,1,0.0005546674740786409,0.000578271519370634,-0.013566495128354894,0.017687525743189943,0.9817279291486625
2016-01-05,-1,-0.00035177019726840094,-0.0002444107091831235,-0.02013521131518356,0.017687525743189943,0.9805574081102907
2016-01-07,-1,-0.00272969314438371,-0.002325214550601057,-0.014656528266942094,0.017687525743189943,0.9828421116709034
2016-01-11,-1,-0.0037604505550830098,-0.0032229695605595736,-0.014656528266942094,0.017687525743189943,0.982963377978733
2016-01-13,-1,-0.004595192730635571,-0.003907793325962568,-0.02013521131518356,0.017687525743189943,0.9825467098265481
2016-01-15,-1,-0.00597467032304852,-0.005069509819578327,-0.016526197854368506,0.020452140210407987,0.9823354207873125
2016-01-20,-1,-0.003639039771942412,-0.003045093739795713,-0.016934158891378826,0.01809417351479152,0.9834297640629935
2016-01-22,-1,-0.002492675167059694,-0.00211064836231403,-0.016934158891378826,0.0171827750092695,0.9831324653163277
2016-01-26,-1,-0.0030970002477341673,-0.002530362769897633,-0.019084129967132577,0.0171827750092695,0.98220541362556
2016-01-28,-1,-0.003478232962453397,-0.0029137293169127403,-0.01665665485947593,0.020481665803380497,0.981495546420298
2016-02-01,-1,-0.0010486109480303478,-0.0008892667630816143,-0.01665665485947593,0.0171827750092695,0.9825488308699382
2016-02-03,-1,-0.0033711993138812323,-0.002912382793381159,-0.01297396162747431,0.0171827750092695,0.9832282314552265
2016-02-05,-1,-0.0036052762161723198,-0.003107150226434576,-0.01036638177052926,0.01904559181853008,0.982248066987985
2016-02-09,-1,-0.004434048976601525,-0.003841510226564436,-0.01036638177052926,0.01904559181853008,0.9812474170250588
2016-02-11,-1,-0.006568590246874721,-0.005679800260911775,7.472136930992274e-05,0.020481665803380497,0.9799175418742897
2016-02-16,-1,-0.004980991247518723,-0.004241491552585314,-0.008644775877821705,0.018250263166199827,0.9829491654209469
2016-02-18,-1,-0.005054592991464754,-0.004272872445944688,-0.003093206703903568,0.01689053598290957,0.9840851022854564
2016-02-22,-1,-0.004303248247309854,-0.003587862196120971,-0.007655311007567937,0.016805807617564474,0.9850383145865566
2016-02-24,-1,-0.0024549894049752203,-0.0020586020470931697,-0.007655311007567937,0.01564805713240282,0.9875496662627443
2016-02-26,-1,-0.0011856233519701113,-0.0009530216651812074,-0.007655311007567937,0.014379338957310406,0.988981046893633
2016-03-01,1,0.00014208120791335646,0.00014951944045650122,-0.007266316738472844,0.014379338957310406,0.9893473872242263
2016-03-03,1,0.001366084289615366,0.0015957617875826898,-0.007655311007567937,0.014379338957310406,0.9896085595693224
2016-03-07,1,0.0023989452186798047,0.0027467866688558155,-0.007655311007567937,0.006267660952538076,0.990719998651645
2016-03-09,1,0.0026090996268887437,0.0030305274647866574,-0.007655311007567937,0.003897289697150176,0.9915768564447044
2016-03-11,1,0.003240462163591605,0.0037274821545016873,-0.007266316738472844,0.003897289697150176,0.9926724987697093
2016-03-15,1,0.0030102173555802986,0.0034859083477418885,-0.0035257043936356572,0.006267660952538076,0.9926134861646392
2016-03-17,1,0.003799688670862434,0.004444049042149966,-0.007266316738472844,0.003897289697150176,0.9919187222502963
2016-03-21,1,0.0038845436459657772,0.004524472286220568,-0.0073764386930484475,0.0029874813689986764,0.9922366399265757
2016-03-23,1,0.003365865951643679,0.00394061013309635,-0.00252108685642783,0.003897289697150176,0.9924896999767419
2016-03-28,1,0.0033052279074326624,0.003860903996301575,-0.002918855351355717,0.005601758753444931,0.9924263034515977
2016-03-30,1,0.004077457941220802,0.004757259678698986,-0.002918855351355717,0.005601758753444931,0.992639448568236
2016-04-01,1,0.0032390441523464913,0.0037655554151982884,-0.004362586081424967,0.005601758753444931,0.9916745784850822
2016-04-05,1,0.003407844315251465,0.0039508179693216895,-0.00841602948605946,0.006820544601970482,0.9904870062270438
2016-04-07,1,0.002558388543940666,0.0029563470180982753,-0.008427972868330266,0.006820544601970482,0.9904760400503541
2016-04-11,1,0.0022731712514713863,0.0025667066483661695,-0.008531500384176417,0.005309882548341168,0.990602990001449
2016-04-13,1,0.002892293786094298,0.003284192602830906,-0.008531500384176417,0.005309882548341168,0.9906601933417863
2016-04-15,1,0.0029163061417850932,0.003356143519263045,-0.008729925049817589,0.005309882548341168,0.9899391460518356
2016-04-19,1,0.0024908848052165892,0.00284820244740741,-0.008729925049817589,0.006820544601970482,0.9896065049174005
2016-04-21,1,0.003227264501210758,0.003702637537604942,-0.011456536948868144,0.006820544601970482,0.9894033158795236
2016-04-25,1,0.0036081566973039624,0.004176993681241136,-0.011456536948868144,0.010594182239076162,0.9885651254532022
2016-04-27,1,0.0035381329283113907,0.004031350380518052,-0.011456536948868144,0.012543628458989224,0.9880126082945309
2016-04-29,1,0.0026013994859572266,0.0029982279408768595,-0.007821416427198311,0.012543628458989224,0.9897389871181694
2016-05-03,1,0.0022417558025717814,0.0025400795563146183,-0.004640609822460017,0.012016376937537272,0.9903762121060717
2016-05-05,1,0.0012048161326763459,0.001326937438539484,-0.0011966593941537163,0.012016376937537272,0.991323430171029
2016-05-09,1,0.0006873724611307459,0.0007056743068661489,-0.0005515900127324915,0.01419569879941436,0.9906811619061262
2016-05-11,1,0.002047539163628957,0.00235118260331513,-0.0016101929180438268,0.012016376937537272,0.9913875445311013
2016-05-13,1,0.000878360717368462,0.0009843595640014495,-0.0016101929180438268,0.012016376937537272,0.9915846325531954
2016-05-17,1,0.0016430756719829857,0.0018932086938687918,-0.0012027808103058219,0.010202909205241225,0.9923689176400103
2016-05-19,1,0.0015634419426612833,0.001805633577135235,-0.0012027808103058219,0.0073272450532337555,0.9926213932419619
2016-05-23,1,0.0026012748844387408,0.0030130735239274013,-0.0012027808103058219,0.0073272450532337555,0.9931853404256814
2016-05-25,1,0.0027308888162105825,0.00309523394438989,-0.0024747518849836045,0.0073272450532337555,0.9926763702479502
2016-05-27,1,0.002595175629667736,0.0029049126084750554,-0.006250177223550941,0.003952990753235987,0.9884460507018158
2016-06-01,1,0.0018807194623361814,0.001978933670344054,-0.006250177223550941,0.005912000264932049,0.9879153747904159
2016-06-03,1,0.0013004381255764651,0.0013270921307982318,-0.006554932659577573,0.008388154933318924,0.9867306330143178
2016-06-07,1,0.0015853701189166003,0.0015922882957974086,-0.007730354042030209,0.005912000264932049,0.9866451722231512
2016-06-09,1,0.001104363457419876,0.0012327120846459122,-0.007730354042030209,0.014262966115205021,0.984997683644397
2016-06-13,1,0.0014905141938708303,0.0014925567494215516,-0.006779253400869377,0.015341873320091693,0.9848123765254778
2016-06-15,1,0.0015126205049245933,0.0015223598091416864,-0.006779253400869377,0.015341873320091693,0.9848624174770283
2016-06-17,1,0.0012199854676214444,0.001234315147390446,-0.006297929929293152,0.015341873320091693,0.9855154250252309
2016-06-21,1,0.0009926007064531613,0.001054385701293376,-0.006297929929293152,0.015341873320091693,0.9852005162664578
2016-06-23,1,0.001945282186973454,0.0020528368907265448,-0.006779253400869377,0.012378921521497666,0.9861658247731098
2016-06-27,-1,-0.002342696855858457,-0.0018512177740067374,-0.00014209345422753344,0.015341873320091693,0.986296518375724
2016-06-29,-1,-0.0014554946167999766,-0.0010530622741420313,-0.006254513813703853,0.012378921521497666,0.9879772168105896
2016-07-01,-1,-0.0016422353925565584,-0.001172771208399508,-0.00628810904099412,0.009872841359064305,0.9882785177247367
2016-07-06,-1,-0.003356504137025637,-0.0026162703576873766,-0.004927400762616324,0.009872841359064305,0.9874924179002742
2016-07-08,-1,-0.0008953582584460456,-0.0005186712440698599,-0.004927400762616324,0.008006562873627079,0.9894688163974239
2016-07-12,0,-0.00013190635011809022,0.0001505651010047192,-0.004927400762616324,0.0070556740929867655,0.9873491583837687
2016-07-14,1,0.0004306073141222005,0.0005862406714831437,-0.004990319265564323,0.007117273738345671,0.9873480313394197
2016-07-18,1,0.0006704887989296086,0.0007694851741006444,-0.004990319265564323,0.00858517622001339,0.986933797988388
2016-07-20,1,0.0011101450764187087,0.0011245892593016856,-0.005015686679121302,0.007117273738345671,0.9874401004543447
2016-07-22,1,0.0009755434398734872,0.0010012624833689054,-0.004555300020247631,0.007117273738345671,0.9880566587129296
2016-07-26,1,0.0026185656932464153,0.002833461581122555,-0.004555300020247631,0.006514353834676159,0.9906920087993758
2016-07-28,1,0.0026272740932281454,0.0028915149658310813,-0.004363401112680815,0.006514353834676159,0.9910526231303097
2016-08-01,1,0.002053543948547695,0.0022288562694020245,-0.0014366478716552479,0.007059920739938805,0.9918446340805972
2016-08-03,1,0.002031914753815355,0.002236583190655771,-0.0010569600284912708,0.007418726384251102,0.9923854481577252
2016-08-05,1,0.002323137266639307,0.002544582987500899,-0.002003629223502985,0.007059920739938805,0.9923844378556584
2016-08-09,1,0.004149611845911422,0.004617187162922785,-0.004363401112680815,0.005185291154850802,0.9933848370661048
2016-08-11,1,0.00409996403202865,0.0045648967163784485,-0.004756082062792537,0.002739807524974068,0.9916909230767664
2016-08-15,1,0.003965482687670121,0.0043764978439081925,-0.006193729529456469,0.002739807524974068,0.9908045283569455
2016-08-17,1,0.0036541764973994327,0.004017972536955813,-0.003617018533300606,0.005391824501192325,0.9908583449639393
2016-08-19,1,0.0038136577800219036,0.004219749463213721,-0.003617018533300606,0.005391824501192325,0.9906609712459286
2016-08-23,1,0.00346194292322702,0.003796422841404303,-0.006250880652066251,0.007474471109917725,0.9899608439312103
2016-08-25,1,0.0032747221280430843,0.0035882768682283274,-0.006502422741505254,0.007474471109917725,0.9898197796517139
2016-08-29,1,0.003075302051452747,0.0033281797508157426,-0.006502422741505254,0.009374456074850913,0.9893537684024053
2016-08-31,1,0.0031703265220285573,0.0034443631627006366,-0.006502422741505254,0.007550358801322513,0.989671687884817
2016-09-02,1,0.003517456159303627,0.0038566214286257687,-0.006502422741505254,0.005238348876000805,0.989973402145851
2016-09-07,1,0.002374065019281918,0.002539849622399523,-0.005471416804015566,0.007297801447867981,0.9908107184340522
2016-09-09,1,0.0011364651622405707,0.0011471112669956764,-0.005471416804015566,0.008815377510912213,0.9919010158323832
2016-09-13,1,0.0015286710342356214,0.0015923764322441597,-0.006849521090944934,0.0058874932717817375,0.9916482811425226
2016-09-15,1,0.002030535861394696,0.0021557248697537893,-0.008438635509642405,0.005238348876000805,0.9912911869454701
2016-09-19,1,0.0021431377540312158,0.0023024524390645074,-0.008438635509642405,0.0058874932717817375,0.990870490671202
2016-09-21,1,0.001692870194873499,0.001730126622445578,-0.008438635509642405,0.0058874932717817375,0.9910522599968575
2016-09-23,1,0.0013704932640851216,0.0013771710563438842,-0.008143340860273136,0.0058874932717817375,0.9910368037980851
2016-09-27,1,0.0011074872598192793,0.0011784418483921737,-0.008143340860273136,0.0058874932717817375,0.9908734360994845
2016-09-29,1,0.001074930214705668,0.0011639606321532186,-0.008143340860273136,0.005190652976202334,0.9907359486739418
2016-10-03,1,0.0010344056911162007,0.00111432905301284,-0.008143340860273136,0.005190652976202334,0.9908754073074164
2016-10-05,1,0.000495085520995907,0.0006776507315530189,-0.0066603188641001475,0.004222581323159048,0.9914366805032779
2016-10-07,1,0.00043223969216480166,0.0006093255806819877,-0.0059604358842205215,0.004222581323159048,0.991550657689957
2016-10-11,-1,-0.0011029005564864571,-0.0007052689278757801,-0.005142893646588392,0.009946016332929832,0.9907996332912825
2016-10-13,-1,-0.0014015595711806324,-0.001023181411704326,-0.005020548881747962,0.009946016332929832,0.9900425601325277
2016-10-17,-1,-0.0009681025806051055,-0.000669434507583136,-0.004131506815862963,0.010263503838195527,0.9898350903471066
2016-10-19,0,-0.00014740786278285363,3.5597999574952166e-05,-0.004131506815862963,0.010263503838195527,0.9893159968083524
2016-10-21,-1,-0.0003107351768237576,-0.00012400447152065958,-0.004211062280845572,0.010263503838195527,0.9889119475591936
2016-10-25,1,0.0002873961512756657,0.00040572774028489636,-0.004211062280845572,0.009791195618995696,0.989332425374758
2016-10-27,1,0.00019817314778326534,0.0003026904550762969,-0.003245468864457305,0.009791195618995696,0.989356436855252
2016-10-31,1,0.00014064042560881147,0.0002570978567624604,-0.003245468864457305,0.009791195618995696,0.9893739475509098
2016-11-02,-1,-0.0006513004100502994,-0.00041415846520527423,-0.0028046136526040256,0.009791195618995696,0.9860147094297568
2016-11-04,-1,-0.0006092974362078284,-0.00035960258773872324,-0.001021321874574166,0.011876252860075081,0.9850734919985418
2016-11-08,1,0.0009202337332978605,0.001026063944939036,-0.001021321874574166,0.010160348593203689,0.9875953394934021
2016-11-10,1,0.00015059106939389216,0.000332884386969005,-0.001021321874574166,0.010866024892603132,0.9880126130641861
2016-11-14,1,0.0009259683752378767,0.0010020523545455353,-0.0028046136526040256,0.011371314991858705,0.9871677095360624
2016-11-16,0,-0.00011820064371358499,0.0002628888023527055,-0.0028046136526040256,0.011020973451837106,0.9880482003284664
2016-11-18,-1,-0.00037602694050722983,-8.51052485378108e-06,-0.0012569780138864833,0.011020973451837106,0.9874399851420016
2016-11-22,1,0.00021901485851307542,0.0005005019739147699,-0.0021741586122453332,0.011020973451837106,0.9879715045129611
2016-11-25,0,-0.00025374161568960264,0.00012704598613848934,-0.0021741586122453332,0.011020973451837106,0.9881738344417774
2016-11-29,1,0.000443078499905763,0.0006597945420177669,-0.0040242417361420904,0.011020973451837106,0.9878926983683314
2016-12-01,-1,-0.0020057871572991405,-0.0015364175594431953,-0.003848015691014995,0.011020973451837106,0.9905247360128141
2016-12-05,-1,-0.0007793970306165797,-0.0004637910005436159,-0.0058622910669366085,0.0052052628111146585,0.9923625237825533
2016-12-07,0,-6.69224277321807e-05,0.00015775701084923027,-0.009595629847312782,0.0052052628111146585,0.9915723780116134
2016-12-09,0,-0.00015781410753843252,7.599729099692898e-05,-0.0058622910669366085,0.006865826173502161,0.9917017213158562
2016-12-13,0,-0.00010463261412029781,0.0001377083458720099,-0.002662311445931969,0.006865826173502161,0.9923265518286623
2016-12-15,1,0.0013570330923564661,0.0013916890075298493,-0.0058622910669366085,0.005014387233669326,0.9914734062859666
2016-12-19,1,0.0005044053060460263,0.0005978096489137605,-0.0058622910669366085,0.005014387233669326,0.9912290899653461
2016-12-21,1,5.937782728608013e-05,0.0002375439861187685,-0.0058622910669366085,0.00791135530030587,0.9906696172495296
2016-12-23,0,-0.00020885891881146726,2.260090164821443e-05,-0.0058622910669366085,0.013121805668572937,0.9895467018373105
2016-12-28,-1,-0.0003355671602982657,-0.00012314209502985087,-0.0058622910669366085,0.014339141033657228,0.9883937978754994
2016-12-30,1,0.000851628826553286,0.0008989240077695125,-0.006552543720126089,0.014339141033657228,0.9875495488350196
2017-01-04,1,0.000619115641469621,0.0006393385549200515,-0.0046246050926039076,0.015981225490529202,0.9868539430934364
2017-01-06,1,0.0006411378105509242,0.0006783447075185589,-0.002515703905286136,0.014096671474883289,0.9880160976279272
2017-01-10,1,0.0011945001634286927,0.0012905213721253047,-0.002515703905286136,0.015981225490529202,0.9858639120190495
2017-01-12,1,0.0015594799627813485,0.0017276780934850399,-0.005853710852990297,0.014096671474883289,0.9851586228665753
2017-01-17,1,0.0008848560721536262,0.0009636667532311022,-0.003474966788114908,0.014096671474883289,0.9859477103315178
2017-01-19,1,0.001067804043984924,0.001160539114553425,-0.002828199547595909,0.014096671474883289,0.9868648333176813
2017-01-23,1,0.0016604551892215442,0.001841342426716258,-0.002828199547595909,0.013121805668572937,0.9873520930436561
2017-01-25,1,0.0023685108727551194,0.0026477759697194976,-0.003474966788114908,0.009878022193368568,0.9879294077166987
2017-01-27,1,0.00246090796145683,0.0027702230437435266,-0.002828199547595909,0.008157287452187802,0.9894860354775715
2017-01-31,1,0.0013467164245028367,0.0014540698767512943,-0.002828199547595909,0.009878022193368568,0.9895874699511668
2017-02-02,1,0.001232723945749881,0.0012615844322871829,-0.003474966788114908,0.008157287452187802,0.9898190630024697
2017-02-06,1,0.0013926666242636816,0.00145559672573665,-0.002828199547595909,0.007909257258255744,0.9900328717256338
2017-02-08,1,0.003298885119371474,0.0036439400056337834,-0.003588322788436148,0.005020897842461852,0.9923582649999612
2017-02-10,1,0.0021492969180151593,0.0023407553534007144,-0.002828199547595909,0.007509683305868311,0.9943567713813876
2017-02-14,1,0.0020745926057919506,0.0022657094358134585,-0.003031503173769689,0.007509683305868311,0.9939705516289993
2017-02-16,1,0.0021670026963374073,0.0023524830455544047,-0.004278199575650228,0.007231710225114018,0.9944973719508848
2017-02-21,1,0.002435085146203427,0.002668925554985782,-0.004730474192423108,0.006587936567911128,0.9935206178754487
2017-02-23,1,0.0025757689109806602,0.0028375497362206586,-0.005737120212912089,0.006587936567911128,0.9928138039160391
2017-02-27,1,0.002523348080363321,0.002769725724444596,-0.005737120212912089,0.006587936567911128,0.9924464746836106
2017-03-01,1,0.0026322206842786795,0.002895097343312763,-0.004725378565795109,0.006587936567911128,0.9932643856796955
2017-03-03,1,0.0023585027976283177,0.002578341595521459,-0.004276501033440894,0.006587936567911128,0.9937186779340972
2017-03-07,1,0.001803366131207713,0.0018865722743381425,-0.004725378565795109,0.005722779771777081,0.9936125133578314
2017-03-09,1,0.0011705600510852425,0.0012067361115761677,-0.005489285415030265,0.006509017945728647,0.9933191270607865
2017-03-13,1,0.0014441498598702712,0.0014498230847640723,-0.006102161864481626,0.00583558691406364,0.9930733854840883
2017-03-15,1,0.0015708548964087719,0.001608771506130521,-0.007195682937308817,0.0038332343445618648,0.992774114000091
2017-03-17,1,0.0011655059119599083,0.0011981115712049438,-0.007195682937308817,0.00583558691406364,0.9927055825253723
2017-03-21,1,0.0006265838716946427,0.000697201123374873,-0.006145500703631533,0.007843239245407073,0.9929057201449218
2017-03-23,1,0.000453299614903501,0.0005618057006289748,-0.006145500703631533,0.007843239245407073,0.992898451290714
2017-03-27,1,0.0003397150089702782,0.00045852929522272414,-0.006145500703631533,0.009953207855836387,0.9919000010776678
2017-03-29,1,0.0002919556558158643,0.00043743550583745863,-0.007154015349842249,0.009953207855836387,0.9916907261350643
2017-03-31,1,0.00022764804828352589,0.0003758960320980461,-0.007600664142655386,0.009953207855836387,0.9907536914923342
2017-04-04,1,0.0009505089055062505,0.0009644334910177592,-0.007154015349842249,0.009953207855836387,0.9906739093848956
2017-04-06,1,0.00044093851271663227,0.0005177396894602179,-0.007154015349842249,0.009953207855836387,0.9910213809197258
2017-04-10,1,0.0005297546532123478,0.0005770273330067577,-0.006383181067777568,0.010273954914070252,0.9910251296116284
2017-04-12,1,0.0004738012903309639,0.000486640107443624,-0.00384530964403184,0.010413697922243727,0.9902794255336568
2017-04-17,1,0.00044125437011235946,0.00048173116550836623,-0.00384530964403184,0.010994242863076407,0.990104714864711
2017-04-19,1,0.0011598707773278834,0.0012262892129221749,-0.005902721626575607,0.010994242863076407,0.9885539654729733
2017-04-21,1,0.001058694613158003,0.0011162762270187786,-0.00384530964403184,0.012853530097992234,0.9887706288109824
2017-04-25,1,0.001685770716856251,0.00182009069871784,-0.00384530964403184,0.011890397591451012,0.9897914741327484
2017-04-27,1,0.00039589355633626425,0.0004866438685342828,-0.0011768984343704149,0.011890397591451012,0.9899290798550611
2017-05-01,1,0.00048408499061481855,0.0005327413695642897,-0.0005935773344428822,0.011890397591451012,0.9905327502648343
2017-05-03,1,0.00036120330168380407,0.00040779617433065417,0.0015071840962112282,0.011890397591451012,0.9905955289399826
2017-05-05,1,0.00024198323976529283,0.00030353684154026177,0.0019019376354324155,0.011890397591451012,0.9901845687688298
2017-05-09,1,0.0005873965264056668,0.0006038561015188353,0.0019019376354324155,0.011890397591451012,0.99019336314358
2017-05-11,1,0.0012154485510477832,0.001287692019269841,0.0015071840962112282,0.011080201471433609,0.9899665697224912
2017-05-15,1,0.0014126160623172718,0.0014770429558187258,0.0015071840962112282,0.010667372041308215,0.9902973019665363
2017-05-17,1,0.0008791493572217635,0.0008910186313620026,0.000796208047186659,0.010082637440550121,0.991609329750571
2017-05-19,1,0.0012860424300878924,0.0013269732488135134,-0.0016840805402321543,0.009659552039014883,0.9918092128872128
2017-05-23,1,0.001349590572999944,0.0013753263200533296,-0.004324011891838992,0.008428443304838223,0.990768400260202
2017-05-25,1,0.0011922301850001446,0.0012025711243829676,-0.005811195773392251,0.009659552039014883,0.9894578141766414
2017-05-30,1,0.0011687420322605566,0.0011980542275829545,-0.010733156220957274,0.008428443304838223,0.9881348215439503
2017-06-01,1,0.0011784031014693817,0.001213299687907201,-0.014996567996204933,0.008761616309378396,0.986376049982857
2017-06-05,1,0.0015234731579159139,0.0015468097078490655,-0.016295696692444094,0.006878319639881215,0.9857107949100158
2017-06-07,1,0.002084533045958992,0.002209872539807023,-0.016295696692444094,0.006102670519257674,0.9845792142446528
2017-06-09,1,0.0008607044856910823,0.000924889473047036,-0.014996567996204933,0.008037800911816724,0.9861802832718315
2017-06-13,1,0.000852759382790512,0.000909413005595023,-0.014996567996204933,0.013511893833130536,0.9859003776166647
2017-06-15,1,0.00039910640109318035,0.0004896259580043927,-0.011843351844723994,0.014691816180217797,0.9859187604272432
2017-06-19,1,0.0009338066684988466,0.0009350600601481061,-0.011843351844723994,0.013511893833130536,0.9865544657366484
2017-06-21,1,0.00027167554547070265,0.0003544845776929944,-0.009682084170463628,0.013511893833130536,0.9873141045304671
2017-06-23,1,8.069407238566682e-05,0.00021029927794961206,-0.011843351844723994,0.010122126631706198,0.9872091630898883
2017-06-27,-1,-0.0005928860934833463,-0.0004038590723957349,-0.005149624203163424,0.013511893833130536,0.9875175998579699
2017-06-29,-1,-0.0010614808913020253,-0.0008147905829930078,-0.005149624203163424,0.010122126631706198,0.9885286049338879
2017-07-03,-1,-0.0009778994408279913,-0.0007961488301532691,-0.00510463280921763,0.010122126631706198,0.9888322263690297
2017-07-06,-1,-0.0013079760647238192,-0.0010132810548175602,-0.00464724475731247,0.009497514865408646,0.9898567732810828
2017-07-10,-1,-0.0006880212961067034,-0.00045771128578199006,-0.00464724475731247,0.01139886149869047,0.9884584892395855
2017-07-12,1,0.00013905420840650999,0.0002543844234321991,-0.006806225654362522,0.009497514865408646,0.9886662876203514
2017-07-14,1,0.0005658451122650023,0.0006156088287375217,-0.006806225654362522,0.009497514865408646,0.9879472397803124
2017-07-18,1,0.0008355453860657966,0.0008518246823577015,-0.006806225654362522,0.011065673901367565,0.9871641599341837
2017-07-20,1,0.001419392328908612,0.0014844646407008743,-0.009147276874675635,0.011065673901367565,0.986311810898537
2017-07-24,1,0.0003718784820695211,0.0004286648034056885,-0.006806225654362522,0.011065673901367565,0.9878043331649206
2017-07-26,1,0.0011099289941181962,0.0011298087560094655,-0.006806225654362522,0.011065673901367565,0.9881883669577005
2017-07-28,1,0.0002569329628535049,0.0003292231014518712,-0.0047644328308090195,0.011065673901367565,0.9893159303336581
2017-08-01,-1,-0.00013533316450797578,-6.401722940484287e-06,-0.002958945531683538,0.012373829830342263,0.9892415699140698
2017-08-03,1,0.000230056359922382,0.00029593912829285025,-0.001789986745107646,0.013874911074588683,0.9883537065990232
2017-08-07,1,0.0019172044482544679,0.0020616100793853,-0.002958945531683538,0.012340522631510812,0.9894824024825456
2017-08-09,1,0.0011792928463088942,0.0012143958598780933,-0.001789986745107646,0.013222815600040959,0.9894877373453762
2017-08-11,0,-0.00010442742741476984,6.21145667663604e-05,-0.001789986745107646,0.013874911074588683,0.9899545301159233
2017-08-15,1,0.0007755116785983118,0.0008339346305696914,-0.001789986745107646,0.013222815600040959,0.9910378837449062
2017-08-17,-1,-0.0005264228045852244,-0.0003106185486259626,-0.0009538974043194718,0.013222815600040959,0.9918657219439648
2017-08-21,-1,-0.0004602063825350286,-0.0002687337110424665,-0.0008551601271844496,0.013874911074588683,0.9911068372828298
2017-08-23,1,4.975036712747327e-05,0.00018451202544511803,-0.0015660259153606004,0.013222815600040959,0.9905790225303908
2017-08-25,-1,-0.0003246984486465045,-0.00013340196161211427,-0.0020022092783765766,0.01394331641980192,0.9890605172758468
2017-08-29,1,7.168824994987328e-05,0.00021784934020914758,-0.0037093984308123563,0.013600072383881555,0.9890297736055171
2017-08-31,1,0.0011413435034033084,0.0011691902029302853,-0.0037093984308123563,0.012376996118355212,0.9903357165017687
2017-09-05,1,0.00042226661156249035,0.0005711899719324486,-0.0018127104690918478,0.010945401376626362,0.9912336733777726
2017-09-07,1,0.0008520792171951,0.0009375749899139746,-0.0017515003763754022,0.00982209148109003,0.9915907567719234
2017-09-11,1,0.0015548191021561956,0.0015960707530535707,-0.0008024890199554143,0.008857462556150658,0.9929592470180625
2017-09-13,1,0.0012954413429570194,0.0013095799602828966,-0.00041107456929776636,0.008857462556150658,0.9928425517366358
2017-09-15,1,0.002173937097123803,0.0023279913699531434,-0.0008995003824553597,0.007528924897481179,0.9932420316088845
2017-09-19,1,0.0025072198860970267,0.002698198686048085,-0.0017406987040672647,0.005319905616338364,0.993698337218871
2017-09-21,1,0.0012470650196321803,0.0012488970008469825,-0.0008995003824553597,0.007528924897481179,0.994743302253639
2017-09-25,1,0.0006575111609607943,0.0007544962838112217,-0.0013785050857029954,0.005319905616338364,0.9960096997611315
