JNU-Tangyin/eata/results/Batch4_SP500/Batch4_SP500-OMC.csv
Date,Action,Predicted_Q25,Predicted_Q75,Actual_Q25,Actual_Q75,RL_Reward
2010-12-14,0,0.0,0.0,-0.007228602042119659,0.004550047591606498,0.9935982059458034
2010-12-16,0,0.0,0.0,-0.007228602042119659,0.004550047591606498,0.9933017055266267
2010-12-20,0,0.0,0.0,-0.007228602042119659,0.0020500486254661256,0.9932261914004736
2010-12-22,0,0.0,0.0,-0.007228602042119659,0.0030666954803352697,0.993232381003992
2010-12-27,0,0.0,0.0,-0.005675195475892318,0.0043562300984364925,0.9934261719256194
2010-12-29,0,0.0,0.0,-0.005675195475892318,0.005636083195306991,0.9931147507626091
2010-12-31,0,0.0,0.0,-0.00600072871206973,0.005636083195306991,0.9919953606543584
2011-01-04,0,0.0,0.0,-0.00600072871206973,0.008225184293239943,0.9910289310070708
2011-01-06,1,0.0007685008331064713,0.0008570852281769523,-0.00600072871206973,0.008225184293239943,0.9904985518204352
2011-01-10,1,8.30670671564001e-05,0.00023924069531617513,-0.0020306235009217217,0.008460776843877018,0.9912224329312417
2011-01-12,-1,-0.0009564982222598653,-0.0006556308088671978,-0.0008235748202942298,0.010760945293223464,0.9911284837590395
2011-01-14,-1,-0.0017034663204864363,-0.0012665199481027806,-8.965114636280984e-06,0.011626279184662207,0.9901764703606397
2011-01-19,-1,-0.0015743867976251195,-0.0011452646667303452,-8.965114636280984e-06,0.011676256893941825,0.9887183405870672
2011-01-21,-1,-0.0018909529595365479,-0.001409954302350988,0.0010559281179930132,0.011676256893941825,0.9883367568102265
2011-01-25,-1,-0.0013831384417917793,-0.0009798596558090093,-0.0020306235009217217,0.011676256893941825,0.9870518317181634
2011-01-27,-1,-0.0008776902151717022,-0.000573084585004748,-0.00041832888968796673,0.015604292901264506,0.9858683593998093
2011-01-31,-1,-0.0019593536490528822,-0.0015067241839106236,-0.00041832888968796673,0.01738478907418653,0.9848947661123383
2011-02-02,-1,-0.0009133482149272824,-0.0006042103580280734,-0.0011776955557942573,0.015604292901264506,0.9864938151583305
2011-02-04,1,0.00029754227480961075,0.00043516089901345626,-0.009526832474241052,0.01110972242246707,0.9874865237630528
2011-02-08,1,0.00010275625208632845,0.00027549485494927006,-0.009526832474241052,0.01110972242246707,0.9875585240865274
2011-02-10,1,0.0008082226314260342,0.0008684537246881447,-0.011904575449760068,0.01110972242246707,0.9868521503374533
2011-02-14,1,0.0008427539884711358,0.0009258831708798682,-0.015536526391512723,0.009044433939553934,0.9857338433386361
2011-02-16,1,0.0012660139408563497,0.0012692949938510958,-0.013029650705862024,0.009044433939553934,0.9867490977660472
2011-02-18,1,0.0009582144451419236,0.0010100854648976362,-0.013029650705862024,0.009703006150362355,0.9863121580694
2011-02-23,-1,-0.000654629494958854,-0.00039640131479604936,-0.011343870249197216,0.009703006150362355,0.9883191799219385
2011-02-25,1,0.000263200354920575,0.0004378358205781114,-0.011343870249197216,0.007315634899334025,0.9895717364562836
2011-03-01,-1,-0.00026099075696803893,-3.8874791617045834e-05,-0.0093399307407201,0.007315634899334025,0.9912170861372818
2011-03-03,1,0.000313185590387982,0.0004467443955643783,-0.0093399307407201,0.007985742458685018,0.9908339420130758
2011-03-07,-1,-0.000500004246179125,-0.0002802608162857581,-0.006126921531220757,0.007985742458685018,0.9915876858773208
2011-03-09,1,8.797674983680753e-05,0.00022438655175863827,-0.0066261198824364605,0.007535158969603499,0.9917711912651067
2011-03-11,1,0.0005204865483370686,0.0005920271028302203,-0.00561824111574726,0.004861367680170435,0.9930588499279042
2011-03-15,-1,-0.0006638565461301048,-0.00046223351100644055,-0.00561824111574726,0.004861367680170435,0.9942244880178736
2011-03-17,-1,-0.0005017249160598158,-0.0003370737107154963,-0.0031937008392997667,0.0036382146973996847,0.9955108676083767
2011-03-21,-1,-0.00023279951518891535,-0.00012288352317926663,-0.0015586352005883424,0.0036382146973996847,0.9957001746644493
2011-03-23,-1,-0.0004667308962927829,-0.0003215751591614008,-0.0015299490289421205,0.004861367680170435,0.9933274047125024
2011-03-25,-1,-0.00023718761875339187,-0.00011983327721562607,-0.0027025259047350936,0.005048355478702207,0.9931097280379728
2011-03-29,1,0.0005893578236498643,0.0006197761490505749,-0.0027025259047350936,0.005048355478702207,0.9927380553481239
2011-03-31,1,0.0011767122476207042,0.0013205812872673886,-0.004144716312053241,0.0031873586617822704,0.9929169990591576
2011-04-04,1,0.0007922017583577714,0.0008577814846213327,-0.0061227595859875555,0.0031873586617822704,0.9925964256930735
2011-04-06,1,0.0007317513705909412,0.000802305517695021,-0.006604857694378104,0.0031873586617822704,0.9922425680140523
2011-04-08,1,0.00032888200303289497,0.00034882265634309873,-0.007615300101543945,0.0022996935474583952,0.9918783652558942
2011-04-12,-1,-0.00027040648384269985,-0.0001678087916860588,-0.006565828074393876,0.004294080281860534,0.9920743794121952
2011-04-14,1,0.00015507245428363634,0.00017771426668613312,-0.007615300101543945,0.008145115253712138,0.9907206127869347
2011-04-18,0,-8.877845563938253e-05,1.1685201754508114e-05,-0.008073159511307479,0.004525803938472063,0.9904554599180522
2011-04-20,1,0.00011745279884175638,0.00017423923568229366,-0.007615300101543945,0.004525803938472063,0.9917514378378215
2011-04-25,1,0.00014766940548588652,0.00019522540265894516,-0.008073159511307479,0.0022996935474583952,0.9911088165017542
2011-04-27,1,0.0011275501000390345,0.0012451274657372903,-0.00840510046141969,0.0009430762752824793,0.9910612973478939
2011-04-29,1,0.0009368232184071569,0.0010451900138953403,-0.008195434772482533,0.0009430762752824793,0.9912590202641305
2011-05-03,0,-9.01181235833182e-06,5.738071135258683e-05,-0.008195434772482533,0.0021537125001459554,0.9912365504146361
2011-05-05,0,-3.0391861429876298e-05,1.8100251365990393e-05,-0.009107333077675452,0.0037061968723641914,0.9909958840527382
2011-05-09,-1,-0.00042182731137403213,-0.0003269347504051304,-0.010391730710773785,0.0037061968723641914,0.9908597585853716
2011-05-11,-1,-0.0006603750126204618,-0.0005181760518353323,-0.010391730710773785,0.0037061968723641914,0.9902178307546229
2011-05-13,-1,-0.00027702834410376796,-0.00020448519382944104,-0.011286665141455862,0.002522871828715306,0.9901082457840503
2011-05-17,-1,-0.0007321590409694516,-0.0005971331427690482,-0.012458986303303827,0.0037061968723641914,0.9894026097274311
2011-05-19,-1,-0.0005233101474227743,-0.00040044898154630834,-0.012458986303303827,0.0037061968723641914,0.9903899914498997
2011-05-23,-1,-0.0011723740126910616,-0.000979335831210606,-0.009385510212581995,0.006904670625551,0.9897731929259406
2011-05-25,-1,-0.0013028703869997593,-0.0010805455469347783,-0.012458986303303827,0.006904670625551,0.9891455786691624
2011-05-27,-1,-0.001219330881728352,-0.0010174573562685522,-0.01623375780852496,0.007793582417307264,0.9881696206706968
2011-06-01,-1,-0.001245037857908803,-0.0010765148035791396,-0.012458986303303827,0.0108728937528394,0.9877804714217325
2011-06-03,-1,-0.001683235302370661,-0.0014221076517290671,-0.0047046409374418745,0.01263449520117608,0.9868121275486373
2011-06-07,-1,-0.0025446252836853703,-0.0021506457836735953,-0.0016401030599424355,0.01263449520117608,0.987115476484329
2011-06-09,-1,-0.0013545506807793534,-0.0011052507632399594,-0.005367747353588257,0.0121767260572597,0.9880401678408667
2011-06-13,-1,-0.002017349141956971,-0.0017066491603670464,-0.006829497283212639,0.0121767260572597,0.9883153223803675
2011-06-15,-1,-0.002333936554166514,-0.001983601536556692,-0.006829497283212639,0.011817971320223105,0.9893066558138396
2011-06-17,-1,-0.0018640180461340266,-0.0015876054984397146,-0.006829497283212639,0.011817971320223105,0.9893422310087828
2011-06-21,-1,-0.000634311675991152,-0.0005094768448584675,-0.007708825572026731,0.010664309753765061,0.9900821247563724
2011-06-23,-1,-0.0012365680447342427,-0.0010136123938995502,-0.006141116692507833,0.011817971320223105,0.9902413741928883
2011-06-27,-1,-0.0009184191992560795,-0.0007746018216088823,-0.006141116692507833,0.011817971320223105,0.9909424082368871
2011-06-29,-1,-6.645961501462738e-05,-6.24776150019233e-05,-0.007708825572026731,0.0107532341866306,0.9908255606212215
2011-07-01,1,0.000571285213158747,0.000646998279235824,-0.010601690067816255,0.003922948441947842,0.9909984502979745
2011-07-06,1,0.0005113231467611653,0.0006019088269411346,-0.012163889890445674,0.003922948441947842,0.9899268585921868
2011-07-08,1,0.0006941318097766452,0.0008240018528134205,-0.014823704758761217,0.0029468495193163725,0.9876680414172683
2011-07-12,1,0.0004258257243830697,0.0005373018805717598,-0.01525409132187993,0.003922948441947842,0.9829829431947722
2011-07-14,1,0.00011564141125577275,0.00018073628868247525,-0.017147460805172515,0.005777767557827634,0.9797799326941635
2011-07-18,-1,-6.50726761451826e-05,-5.157463046997355e-05,-0.017147460805172515,0.011352552743622372,0.9784741765307347
2011-07-20,1,0.0005133231112384204,0.0006323812581383935,-0.017147460805172515,0.0075304569384235355,0.9788639643372641
2011-07-22,1,0.0005935370234322001,0.0006974119223815336,-0.026169393485741113,0.003633176495112066,0.9752600967038016
2011-07-26,1,0.00047557657550242313,0.0005814669791498832,-0.026169393485741113,0.0075304569384235355,0.9740100209249583
2011-07-28,1,0.00021921851412636556,0.0002618494383276466,-0.026169393485741113,0.008929178386183364,0.973326151227035
2011-08-01,-1,-0.00028035933391167895,-0.0002801463395817923,-0.026169393485741113,0.01737492411801762,0.9728779126891902
2011-08-03,-1,-0.00025155730318790915,-0.00022949426326906812,-0.022615994139536688,0.01737492411801762,0.9735361863067851
2011-08-05,-1,-0.0024923725386844365,-0.0022036223047645948,-0.022615994139536688,0.01737492411801762,0.9745064340441881
2011-08-09,-1,-0.0015826433805217308,-0.001402522265261894,-0.01672457622245418,0.01737492411801762,0.9784510412400519
2011-08-11,-1,-0.002850943446272675,-0.0025264175569681933,-0.02002567644148492,0.015845270229539923,0.9803110020153343
2011-08-15,-1,-0.00217814045960898,-0.0019313111990509571,-0.02002567644148492,0.015330772655622486,0.9806443891885863
2011-08-17,-1,-0.0027001472709604437,-0.0024071789226429744,-0.02002567644148492,0.01660466416552635,0.9798830041576582
2011-08-19,-1,-0.004517432754680148,-0.004031871355464177,-0.01663676821855652,0.01660466416552635,0.9823175217749439
2011-08-23,-1,-0.002522132541583573,-0.002290841100190647,-0.02002567644148492,0.014403328041463813,0.9820957163234855
2011-08-25,-1,-0.00336577193540099,-0.0030354199480195757,-0.021078693175655357,0.011041176343411382,0.9820350287978314
2011-08-29,-1,-0.002124400797038291,-0.0019396611180504762,-0.021078693175655357,0.01146580684671267,0.9802805266223047
2011-08-31,-1,-0.0017967427440751052,-0.0016578310099832775,-0.023179444955419872,0.01146580684671267,0.9795401986761759
2011-09-02,-1,-0.0033728521462649745,-0.003036597340024177,-0.023536996227112854,0.01146580684671267,0.9795490937633554
2011-09-07,-1,-0.0023748019484979774,-0.0021650439067077035,-0.023536996227112854,0.01512212912336549,0.9774628846042079
2011-09-09,-1,-0.0036805701239632947,-0.0033470040427444835,-0.02288660962728451,0.01512212912336549,0.9784515727134672
2011-09-13,-1,-0.0025421939100005006,-0.0023454250790620945,-0.02288660962728451,0.01512212912336549,0.9778414148983878
2011-09-15,-1,-0.0019176321455508405,-0.0018013470622622776,-0.02288660962728451,0.015831311220681845,0.9781391127714989
2011-09-19,-1,-0.0020419693799053544,-0.0019468911942922434,-0.01607685063004136,0.02001262765450918,0.9777884135029227
2011-09-21,-1,-0.0035763960936435277,-0.003293696532204631,-0.01092499832675955,0.02001262765450918,0.979581063098296
2011-09-23,-1,-0.0036351816239964755,-0.003336956937270328,-0.007477994211141567,0.02052633829757714,0.9803894693172298
2011-09-27,-1,-0.00148868342683287,-0.0014330933818002952,-0.01092499832675955,0.018685184821655754,0.9825009214178442
2011-09-29,-1,-0.0029985638949655427,-0.002754033877473517,-0.0025725265917374055,0.020503818325638988,0.9807841727466913
2011-10-03,-1,-0.0038842166108420464,-0.0035433267673075078,-0.0011907904901830516,0.020503818325638988,0.9814032672431073
2011-10-05,-1,-0.0008413507875656141,-0.0008227672795856762,-0.0025725265917374055,0.018685184821655754,0.984406228350835
2011-10-07,-1,-0.0012282697883601243,-0.0011886703558907333,-0.0020907516866068053,0.020503818325638988,0.9835330139448752
2011-10-11,1,0.0003861885021490514,0.0005823762169731387,-0.003217615383894726,0.018685184821655754,0.9852963309050535
2011-10-13,1,0.00041958651747985536,0.0005778058475714944,-0.006032669495749767,0.016871145465162895,0.9835108681297557
2011-10-17,1,0.000773551400900032,0.0009810227565823545,-0.00799888171165203,0.016605380941981784,0.9834637836394355
2011-10-19,1,0.0010905227285538722,0.0013412456215836097,-0.018101543728069696,0.016605380941981784,0.9827686641470498
2011-10-21,1,0.0014133237863131845,0.0016823039263339278,-0.019257456541140878,0.014663352729048373,0.9822706347525123
2011-10-25,1,0.0011638613282514369,0.0014057426362639298,-0.018101543728069696,0.013242586159421544,0.9837752995573319
2011-10-27,1,0.0024463416824752997,0.00283265568695029,-0.019257456541140878,0.005264157062714809,0.9845152047484956
2011-10-31,1,0.0023164753836719234,0.0027432926457113685,-0.018391188018277535,0.010760040181368018,0.9842989468621188
2011-11-02,1,0.0012351242070720724,0.0014723472379006757,-0.01365894293353162,0.014968926984871187,0.9839683524562162
2011-11-04,1,0.0018216166928661434,0.002122828359830415,-0.01365894293353162,0.014968926984871187,0.984670379539438
2011-11-08,1,0.002242918268636503,0.0026099537975107375,-0.01365894293353162,0.014968926984871187,0.9849413169462765
2011-11-10,1,0.0021303398980581215,0.002545823850791274,-0.01365894293353162,0.015438867804627558,0.9853321554561175
2011-11-14,1,0.001864187885331013,0.002228754859755786,-0.01396039402961948,0.011146541955823878,0.9853133755169209
2011-11-16,1,0.0014519389569697056,0.001751830287337752,-0.01396039402961948,0.011146541955823878,0.9850255138839106
2011-11-18,1,0.00102057742373852,0.0012894298161146233,-0.013240063725290366,0.011146541955823878,0.98541555907394
2011-11-22,1,0.0013448902718764019,0.0017110404747778184,-0.013240063725290366,0.015438867804627558,0.9846541860645366
2011-11-25,1,0.0008185339130108953,0.00110634376423507,-0.00945446575980768,0.01749745921573218,0.9846623964960889
2011-11-29,1,0.0016949478879748,0.0021037033914736375,-0.013000372706315481,0.015279690183982248,0.985550959993683
2011-12-01,1,0.00288492870673118,0.0034216366674562617,-0.013000372706315481,0.01279844129577559,0.9871121505126959
2011-12-05,1,0.0030780647459197627,0.003620872467043594,-0.013000372706315481,0.00988720805967654,0.9870635095996283
2011-12-07,1,0.003249259727758566,0.0038376533622548918,-0.013637924667461613,0.00988720805967654,0.9865446510498452
2011-12-09,1,0.0036261652749063956,0.004282474812584583,-0.012549755380235925,0.00988720805967654,0.9878657438661798
2011-12-13,1,0.0028500273705337853,0.003427184148886745,-0.0055835080370210035,0.01279844129577559,0.9885782039549177
2011-12-15,1,0.0022395718325635377,0.0027193170017984513,-0.004645298819187393,0.013981401110453533,0.9895860071838467
2011-12-19,1,0.001904476718208049,0.0023398149518614377,0.0014267487767457543,0.013981401110453533,0.9896847020795444
2011-12-21,1,0.0024269040333100324,0.002881765499221354,-0.0055835080370210035,0.012771754941679661,0.9896993579619129
2011-12-23,1,0.0029394441014282536,0.003438653765878589,-0.0055835080370210035,0.01123431908203424,0.9903983922049788
2011-12-28,1,0.0014797661392918723,0.001683194206036357,-0.0049098773139711616,0.01123431908203424,0.9905691841123081
2011-12-30,1,0.0027470929206149537,0.003154197381177194,-0.005636215004710742,0.010640934896685841,0.9906054366971903
2012-01-04,1,0.0019102808522186957,0.002109896607042616,-0.0070819582521953715,0.01123431908203424,0.98960910722573
2012-01-06,1,0.0018229417105478016,0.0020547414648586695,-0.005536332879086043,0.012771754941679661,0.9895010734880424
2012-01-10,1,0.0023168344722513732,0.0025722942922136584,-0.005536332879086043,0.01123431908203424,0.9905628719949319
2012-01-12,1,0.0012607724704505406,0.001287619767304314,-0.006018112984830317,0.010640934896685841,0.9908175559164213
2012-01-17,1,0.002087385893199147,0.0022564474298932637,-0.006018112984830317,0.009906632215290243,0.9909434127604668
2012-01-19,1,0.0023075770601147234,0.0024636814026590182,-0.00836917766635898,0.009529257209632127,0.990522413712586
2012-01-23,1,0.0019482688533169071,0.002127244421034883,-0.004927446303201074,0.009529257209632127,0.9919694274153431
2012-01-25,1,0.0024182043833061028,0.0026670817162932204,-0.0058847719816208415,0.008413800039306613,0.9917373966847698
2012-01-27,1,0.001317214602251821,0.001343122004795263,-0.0058847719816208415,0.008413800039306613,0.9916526840502136
2012-01-31,1,0.0009609392106022277,0.000976156848166299,-0.001234698686483238,0.009529257209632127,0.9919563851916676
2012-02-02,1,0.00026575621664491953,0.0004097496676127888,-0.004459957178494401,0.008413800039306613,0.9925305590383166
2012-02-06,1,0.0016043989873087052,0.0016673018283987558,-0.006905309389365498,0.0071610287657929445,0.9929197201937374
2012-02-08,1,0.0015160667273697286,0.001584547827323093,-0.006905309389365498,0.008413800039306613,0.9919634860633753
2012-02-10,1,0.0011381614440403596,0.0011624373461916492,-0.0071243726701410715,0.0071610287657929445,0.9922727554646763
2012-02-14,0,0.0,0.0,-0.0071243726701410715,0.0071610287657929445,0.9920474903285444
2012-02-16,0,0.0,0.0,-0.004459957178494401,0.0071610287657929445,0.9924281402505987
2012-02-21,0,0.0,0.0,-0.004688211080568161,0.00602683836527371,0.9928159053559865
2012-02-23,0,0.0,0.0,-0.003765371409965114,0.005245249874812849,0.9932704369348492
2012-02-27,0,0.0,0.0,-0.0016089209193434928,0.0068942104794458,0.9926372133629121
2012-02-29,0,0.0,0.0,-0.00504061536455321,0.004289996504676479,0.9929150456013641
2012-03-02,0,0.0,0.0,-0.0017237109371729417,0.005797590685418919,0.993498347184818
2012-03-06,0,0.0,0.0,-0.0017237109371729417,0.005797590685418919,0.993522341806429
2012-03-08,0,0.0,0.0,-0.0030813173090483044,0.005281698547559418,0.9937264773608145
2012-03-12,1,0.0007234640087612592,0.0007857242433794294,-0.005547744286639583,0.005281698547559418,0.9922777599792678
2012-03-14,1,0.0011651906841213687,0.0011672348985051846,-0.005547744286639583,0.006011525190855684,0.9908586299833696
2012-03-16,1,0.00168960765753195,0.0017637884678711755,-0.011310101357848809,0.006011525190855684,0.9903260221485407
2012-03-20,1,0.0014410296045705008,0.0014583740350841462,-0.012038364834274545,0.007440796724129335,0.9897397591938353
2012-03-22,1,0.0017941393163050502,0.001918534357497178,-0.012038364834274545,0.0083293162787457,0.9890884903033003
2012-03-26,1,0.0016637252877754866,0.0017382640750618396,-0.012343804548898368,0.007659194007654402,0.9889748561490559
2012-03-28,1,0.0012260186587410094,0.0012443445933371813,-0.012343804548898368,0.009289026176880568,0.9885598872603033
2012-03-30,1,0.002191918429883968,0.002417533720742964,-0.012343804548898368,0.009410459741882165,0.9885976319883466
2012-04-03,1,0.001757680432500021,0.001939248027234244,-0.0112829324172173,0.009410459741882165,0.9891147782492976
2012-04-05,1,0.001424514028356401,0.0015614686993735668,-0.0112829324172173,0.009410459741882165,0.9890065652589543
2012-04-10,-1,-0.00012728208341198488,-3.028836989472987e-05,-0.005287909472599618,0.009410459741882165,0.9897199203263359
2012-04-12,1,0.0007702288210028576,0.0007923528845639956,-0.008121504191883719,0.00827907451669334,0.9913214955438644
2012-04-16,1,0.00022536197805194557,0.00033412545339203095,-0.008121504191883719,0.00827907451669334,0.9912375726520689
2012-04-18,0,-0.00013800525271419578,4.051935651573559e-05,-0.005287909472599618,0.00827907451669334,0.9920335629571828
2012-04-20,0,-0.00014248292977978277,7.269029594729123e-05,-0.009792595025714296,0.006304635579713709,0.9912619214462529
2012-04-24,1,5.822804596493055e-05,0.0002096937618157104,-0.008121504191883719,0.006997191563509569,0.9906293295042141
2012-04-26,0,0.0,0.0,-0.008121504191883719,0.005421401930219514,0.9914122331292339
2012-04-30,0,0.0,0.0,-0.008121504191883719,0.0050088470988864835,0.9917600181590346
2012-05-02,0,0.0,0.0,-0.0137474250246959,0.002366519955732971,0.9901923236707733
2012-05-04,0,0.0,0.0,-0.0137474250246959,0.0006130413590477116,0.9898341251536265
2012-05-08,0,0.0,0.0,-0.0137474250246959,0.002324040310623459,0.9896151060964335
2012-05-10,0,0.0,0.0,-0.0137474250246959,0.0057922485685786345,0.9893445991544252
2012-05-14,0,0.0,0.0,-0.009546921299069958,0.004265331022231682,0.9900459241785228
2012-05-16,0,0.0,0.0,-0.01555050072966912,0.004265331022231682,0.9892210687216613
2012-05-18,-1,-0.0008708492298480848,-0.0006761230246667421,-0.006715106457810599,0.0057922485685786345,0.9903872916816272
2012-05-22,-1,-0.0016740768316990309,-0.0012116614547783195,-0.006715106457810599,0.0057922485685786345,0.9911448483200443
2012-05-24,0,0.0,0.0,-0.012442495844700618,0.005002215613642529,0.9902649286827807
2012-05-29,0,0.0,0.0,-0.015726234774222574,0.005002215613642529,0.9896559592005583
2012-05-31,0,0.0,0.0,-0.008510919670747123,0.008373077011990367,0.9907944595233213
2012-06-04,0,0.0,0.0,-0.004842922863503408,0.010492063528079958,0.9898848079140654
2012-06-06,0,0.0,0.0,-0.005141589518971778,0.009356977047214879,0.9903912120012516
2012-06-08,0,0.0,0.0,-0.010890671888343719,0.008373077011990367,0.9900245001346807
2012-06-12,0,0.0,0.0,-0.010890671888343719,0.008373077011990367,0.9904633957336124
2012-06-14,-1,-0.002182282053423092,-0.0018393847563645056,-0.005934840258170643,0.009476520542280428,0.9902903328487543
2012-06-18,-1,-0.0015927853094228686,-0.0013399150227705976,-0.005934840258170643,0.010967254404124598,0.9897314034213072
2012-06-20,-1,-0.0012615871018808833,-0.001032438167933301,-0.006893761540703202,0.01096995121367484,0.98974930142097
2012-06-22,-1,-0.0027197534582791005,-0.0022803192360723234,-0.006893761540703202,0.01096995121367484,0.9895913684478287
2012-06-26,0,0.0,0.0,-0.004608837494494787,0.01096995121367484,0.989984914218786
2012-06-28,0,0.0,0.0,-0.004608837494494787,0.012217698886526285,0.9890876442188267
2012-07-02,-1,-0.0002503328201724837,-0.0002322791307447928,-0.0063488664750721915,0.011178823199319506,0.9907227779123176
2012-07-05,-1,-0.0008287858399356439,-0.0006712728705421836,-0.009237084634837738,0.011178823199319506,0.9904203363022659
2012-07-09,-1,-0.0015436907769458747,-0.001320015448497381,-0.004485372711628774,0.012217698886526285,0.9897441227341686
2012-07-11,0,0.0,0.0,-0.004485372711628774,0.012217698886526285,0.9892809069465963
2012-07-13,0,0.0,0.0,-0.004485372711628774,0.011178823199319506,0.9898296549994421
2012-07-17,0,0.0,0.0,-0.005291426351925333,0.006316791622972836,0.9905798204719739
2012-07-19,0,0.0,0.0,-0.004393261903261436,0.005801347490429883,0.9911855717416591
2012-07-23,0,0.0,0.0,-0.0037396817934217323,0.006316791622972836,0.9918546532304117
2012-07-25,-1,-0.0006857597030309484,-0.0005687340520428823,-0.00391257876176322,0.006316791622972836,0.9917283048110191
2012-07-27,1,0.0004337008950119698,0.00044298276150081853,-0.004348596091071402,0.005588922982422371,0.9923684488537706
2012-07-31,1,0.0006622206999358779,0.0007314585868779593,-0.00391257876176322,0.005588922982422371,0.9926975312827631
2012-08-02,0,0.0,0.0,-0.00391257876176322,0.005588922982422371,0.9928669270886209
2012-08-06,0,0.0,0.0,-0.00391257876176322,0.005588922982422371,0.9937962289713278
2012-08-08,0,0.0,0.0,-0.00391257876176322,0.00524866123259217,0.9932993092106664
2012-08-10,0,0.0,0.0,-0.00391257876176322,0.004798409932848767,0.9933114250803401
2012-08-14,1,0.0016328935419560025,0.0018746558041855947,-0.002353552204872913,0.004798409932848767,0.9937855952426925
2012-08-16,1,0.0020154307195261985,0.0023409181960057537,-0.002353552204872913,0.005943943617186089,0.9935516629679996
2012-08-20,1,0.002159147814865387,0.0024780413820036824,-0.002725414351900225,0.004798409932848767,0.9940021595715661
2012-08-22,0,0.0,0.0,-0.0021137435572896063,0.005934755944113431,0.9932654868082318
2012-08-24,0,0.0,0.0,-0.0018839328032474573,0.005934755944113431,0.9937981742660359
2012-08-28,0,0.0,0.0,-0.00204450668615784,0.005934755944113431,0.9922673459760981
2012-08-30,0,0.0,0.0,-0.00204450668615784,0.008564126868841969,0.9916171858678687
2012-09-04,0,0.0,0.0,-0.00204450668615784,0.006202184551894917,0.9920370640763921
2012-09-06,0,0.0,0.0,-0.00204450668615784,0.006033466363712328,0.9927358594167097
2012-09-10,0,0.0,0.0,-0.00204450668615784,0.006033466363712328,0.9931168627038055
2012-09-12,1,0.0023547370958861853,0.0026440846880837945,-0.005236066127906872,0.006033466363712328,0.9922406160570002
2012-09-14,1,0.0024228295906609182,0.0027062679876122906,-0.007470564584628395,0.00526753336350118,0.9921587718184108
2012-09-18,1,0.002637063152024721,0.002998830993367554,-0.013688107684951864,0.006033466363712328,0.9902248827304778
2012-09-20,1,0.0024882039108579572,0.002833823657242074,-0.013688107684951864,0.00526753336350118,0.9902932507566118
2012-09-24,1,0.00288615388545266,0.0033060175486573,-0.014997978759861672,0.0030498736316961644,0.9896901487087846
2012-09-26,1,0.0015248021335450208,0.0017388519339050163,-0.01334417506670441,0.0030498736316961644,0.9912175508362941
2012-09-28,1,0.0014163214870976412,0.0016135732524463903,-0.007470564584628395,0.002421345322734616,0.9923711395361147
2012-10-02,1,0.001456327088654726,0.001635836607655237,-0.007470564584628395,0.0016862099510846717,0.9910739194126676
2012-10-04,1,0.0018371680334423877,0.002056721394878752,-0.01334417506670441,0.001130246348626777,0.990103373780531
2012-10-08,1,0.0017713279009850728,0.0019759960670645512,-0.01334417506670441,0.0019211208544891371,0.989442559437246
2012-10-10,1,0.0005305518097450007,0.0005600917530699274,-0.014153411104619377,0.0019211208544891371,0.9893095698330704
2012-10-12,1,0.0011876810941078028,0.0013188336009410046,-0.014153411104619377,0.0013735271466481368,0.9891717642960931
2012-10-16,1,0.0006708246992651073,0.000738187174364695,-0.013765213644308357,0.0004790504231897265,0.9905102319354288
2012-10-18,-1,-0.00023399643757990673,-0.00016982028856656832,-0.009903274733163034,0.0019211208544891371,0.9906256066095084
2012-10-22,-1,-0.001546558555791528,-0.0012613348495328987,-0.008515124349247505,0.0019211208544891371,0.9911540446611267
2012-10-24,-1,-0.002962685686200734,-0.002463369268996199,-0.008020828147540453,0.0037262890597510047,0.9904922816859245
2012-10-26,0,0.0,0.0,-0.008020828147540453,0.007168589006270354,0.9894249174376124
2012-11-01,0,0.0,0.0,-0.008020828147540453,0.009217370128707107,0.9897335059920839
2012-11-05,0,0.0,0.0,-0.007117452130670134,0.009217370128707107,0.9902383597016347
2012-11-07,0,0.0,0.0,-0.006541879842047456,0.008097489599320041,0.9908415031267829
2012-11-09,-1,-0.0037780457080661555,-0.0032427525153349754,-0.006541879842047456,0.008097489599320041,0.9911092395202055
2012-11-13,-1,-0.0038173014102510987,-0.003303034665883488,-0.005132535637419702,0.008097489599320041,0.9910137041088641
2012-11-15,-1,-0.004967350234704945,-0.0042724786027605694,-0.0031337457178375727,0.008097489599320041,0.9910200291986663
2012-11-19,-1,-0.004369127543662518,-0.003717622819895533,-0.0031337457178375727,0.011690037580398355,0.9912846202949338
2012-11-21,-1,-0.0044528486248099144,-0.003828740154957723,-0.0009118839960643101,0.011690037580398355,0.9906607009322062
2012-11-26,-1,-0.0025812266811923923,-0.00224481391640771,-0.0030046314355404845,0.00779206866814823,0.9928141095258725
2012-11-28,-1,-0.0018721801236699556,-0.001601458995335944,-0.004500155747940472,0.004312842848294486,0.9933597310719524
2012-11-30,-1,-0.0016095733624757773,-0.001326325284766752,-0.005158122429279592,0.0037356431698246247,0.9937367735635446
2012-12-04,-1,-0.0017272644738162081,-0.0014310270188533473,-0.004401737847542678,0.0037356431698246247,0.9924811043754598
2012-12-06,-1,-0.0013874096288922565,-0.0011671272630118879,-0.0050535718976768285,0.0037356431698246247,0.9924923850076995
2012-12-10,-1,-0.0009305990842542363,-0.0008139530701263116,-0.004399693637141021,0.00394518417567512,0.9927546713418308
2012-12-12,-1,-0.0008287959309209462,-0.0007217732217406226,-0.004399693637141021,0.006210454357834879,0.9921161443061003
2012-12-14,-1,-0.0016745357261293424,-0.0014205540492558785,-0.003369831739245292,0.008778128175749248,0.9914341523257276
2012-12-18,-1,-0.0006345184708348244,-0.0005023426675849138,-0.0035971107898393126,0.005274710592669378,0.9925613750534062
2012-12-20,1,0.0002593336437989864,0.00030062446385752253,-0.0035971107898393126,0.007737411586461422,0.9925869659007094
2012-12-24,-1,-0.0004064640216660321,-0.00035407599745691554,-0.0025822684279482636,0.007737411586461422,0.9927224584675708
2012-12-27,-1,-0.0011242544344868006,-0.0009638736878274876,-0.0025822684279482636,0.007737411586461422,0.9929204905879869
2012-12-31,-1,-6.715199666263722e-05,-5.5789288346557356e-05,-0.0017056252251471,0.007737411586461422,0.9938209172340564
2013-01-03,1,0.0011334516868876526,0.0013298563009710128,-0.0017056252251471,0.0072219800505118805,0.9956270698398915
2013-01-07,1,0.0010790679374868752,0.001286783975457203,-0.0007820296961371322,0.007737411586461422,0.994747181533096
2013-01-09,1,0.0009190497586376838,0.0010843605378441368,-0.0015630912145116393,0.007737411586461422,0.9944884775382765
2013-01-11,1,0.001537517777672753,0.00178952074441771,-0.0015630912145116393,0.007737411586461422,0.9944483448385079
2013-01-15,1,0.0021837290825909685,0.002542878580706508,-0.0015630912145116393,0.008250269585201687,0.9940449848239395
2013-01-17,1,0.002039318810589596,0.0023531733152227013,-0.0007820296961371322,0.008592015309682696,0.9939114260797282
2013-01-22,1,0.0022624494537122645,0.0025979698885690017,-0.0019824323901855767,0.008592015309682696,0.9935015894105924
2013-01-24,1,0.002181429791179079,0.0024929116024636606,-0.0024871293108278654,0.010291730156558852,0.9927002728011269
2013-01-28,1,0.0021145509749423605,0.002409528045825711,-0.0025581418569653814,0.01157834381436647,0.9919520562123362
2013-01-30,1,0.0025805844125927554,0.002967423671995026,-0.0025581418569653814,0.01157834381436647,0.9922958096695063
2013-02-01,1,0.003021424889533502,0.003512581153871215,-0.0047948537084058765,0.01157834381436647,0.9918533813949036
2013-02-05,1,0.0029476904152054154,0.003445972197168647,-0.0025581418569653814,0.01157834381436647,0.9928347274409365
2013-02-07,1,0.003127462150395567,0.0036555206110270343,-0.002085890461301139,0.011976103648864471,0.9926275807406684
2013-02-11,1,0.0038231131866782375,0.004453857925402455,-0.003202166186758895,0.01157834381436647,0.9929187310404078
2013-02-13,1,0.0045712244007106405,0.005284533087611525,-0.003202166186758895,0.00865958839728894,0.9935276520174249
2013-02-15,1,0.004913339200869208,0.005653941071348121,-0.0047948537084058765,0.007878777952992928,0.9925051333391792
2013-02-20,1,0.004530157206570634,0.005234425518212946,-0.003284147605953593,0.007878777952992928,0.9930765012671683
2013-02-22,1,0.003937652800624068,0.004492902871214507,-0.003284147605953593,0.007878777952992928,0.9934242061852191
2013-02-26,1,0.003841292283950435,0.004373717535478527,-0.003284147605953593,0.007878777952992928,0.9939704275744021
2013-02-28,1,0.004018123404883591,0.004587412069391896,-0.004444101715021006,0.007878777952992928,0.9937796715575254
2013-03-04,1,0.00426095989778768,0.004873515897413409,-0.003085248855630605,0.006922504135872841,0.9941791286439686
2013-03-06,1,0.004059722873715574,0.004644110117694188,-0.004322760227903303,0.006922504135872841,0.9942576287811532
2013-03-08,1,0.0042825190387822615,0.004860164027279746,-0.005021563294413365,0.006922504135872841,0.993905233725448
2013-03-12,1,0.0042403512103005095,0.004806818302236782,-0.006596146716624549,0.006982157999873548,0.9931129553093867
2013-03-14,1,0.004099554388955232,0.0046043161980869165,-0.006596146716624549,0.008058077707641725,0.9929033903984246
2013-03-18,1,0.0032065688763304313,0.0035447088020300406,-0.006596146716624549,0.008098759925192817,0.9923873910235586
2013-03-20,1,0.0026824038058388807,0.0029154670418097468,-0.006599779889420423,0.008098759925192817,0.9913746176776337
2013-03-22,1,0.0022689608876659347,0.002405875152776989,-0.0058835148008952115,0.008098759925192817,0.9918198285887722
2013-03-26,1,0.00220686779085709,0.0023355316961003636,-0.004842749186346442,0.008284541741474577,0.9916898763323786
2013-03-28,1,0.0023465453091691753,0.0025396480259385914,-0.0054036324239735995,0.008284541741474577,0.991511514965393
2013-04-02,1,0.0018965793047836393,0.0019791751423455773,-0.005736382426272931,0.008284541741474577,0.9914014211764729
2013-04-04,1,0.0016966554904043073,0.0017448194417428995,-0.005978560001229139,0.008284541741474577,0.9910090579384903
2013-04-08,0,0.0,0.0,-0.005736382426272931,0.008284541741474577,0.9905551120472745
2013-04-10,0,0.0,0.0,-0.0054036324239735995,0.008284541741474577,0.99110674834145
2013-04-12,0,0.0,0.0,-0.0054036324239735995,0.009830826237609617,0.9905840245723888
2013-04-16,0,0.0,0.0,-0.0054036324239735995,0.008058086301249814,0.991688338372052
2013-04-18,0,0.0,0.0,-0.00106723705020183,0.008058086301249814,0.9921943846546606
2013-04-22,0,0.0,0.0,-0.0007335046469755103,0.007700799378448673,0.99236352950746
2013-04-24,0,0.0,0.0,-0.005719227726770678,0.00764568910790757,0.9924932568453007
2013-04-26,0,0.0,0.0,-0.00611077313952871,0.007664473184629812,0.9910257696112346
2013-04-30,0,0.0,0.0,-0.007177481514632952,0.007664473184629812,0.9903320343147758
2013-05-02,0,0.0,0.0,-0.007546542969705929,0.0068648728669067375,0.9900768257442846
2013-05-06,0,0.0,0.0,-0.007546542969705929,0.0065627292161285575,0.9910065395502575
2013-05-08,0,0.0,0.0,-0.009791302721530837,0.0065627292161285575,0.9902452954696861
2013-05-10,1,0.001908281356439342,0.0019356493381100426,-0.011566117811047948,0.005661479632401699,0.9879876865884955
2013-05-14,1,0.002396244329184396,0.0024155823708050576,-0.013189612827431616,0.005151665849875834,0.9870585512254931
2013-05-16,1,0.0014441903955189081,0.0014749324042012352,-0.013189612827431616,0.005446981509540096,0.9868081665406605
2013-05-20,0,0.0,0.0,-0.013189612827431616,0.008166930105436659,0.9866102475176852
2013-05-22,0,0.0,0.0,-0.014146359422534479,0.008166930105436659,0.9859215604130598
2013-05-24,1,0.0012560619241352702,0.0013642552983383928,-0.014146359422534479,0.006935035716514756,0.9868838424141678
2013-05-29,1,0.0009116104624944865,0.0010321756627399616,-0.01319827653999215,0.008166930105436659,0.987140191766762
2013-05-31,1,0.00014662214675687955,0.0003780143238323059,-0.012844136456957112,0.008391826219927099,0.9874718294251149
2013-06-04,0,-0.00013203828409539783,0.00012928597165992746,-0.012844136456957112,0.008391826219927099,0.9875301806060769
2013-06-06,-1,-0.00032394418538131333,-6.34499134724608e-05,-0.01249120236749596,0.009256019178085434,0.9881023769463525
2013-06-10,0,0.0,0.0,-0.006774835405036312,0.009456913703725447,0.9899767966704448
2013-06-12,0,0.0,0.0,-0.0029823540947302315,0.01059951937859644,0.9902337374383164
2013-06-14,0,0.0,0.0,-0.0026268299452351625,0.009456913703725447,0.991387846118248
2013-06-18,0,0.0,0.0,-0.0026268299452351625,0.009456913703725447,0.9919409295952349
2013-06-20,0,0.0,0.0,-0.0026268299452351625,0.009456913703725447,0.9926064011267215
2013-06-24,0,0.0,0.0,-0.003739010952801645,0.009456913703725447,0.9928647315759603
2013-06-26,1,0.0006117070049718027,0.0007559375018286752,-0.004917983873407634,0.006251389926363855,0.9936196657786359
2013-06-28,1,0.0011099551817528672,0.0012766937531870257,-0.005096295205926864,0.006251389926363855,0.9935264482593451
2013-07-02,1,0.0003337590662200493,0.0005885665496637298,-0.0057798306251002195,0.009412372318151875,0.9924382127690232
2013-07-05,1,0.0006841458557601634,0.0008509046469172836,-0.006542717582619115,0.008484204486514347,0.9919906426312385
2013-07-09,1,0.0017706096526842582,0.0017817530845913353,-0.006542717582619115,0.004213568858797789,0.992516010139375
2013-07-11,1,0.00253459861945814,0.0026574956990355835,-0.006542717582619115,0.0020348391984330184,0.9928667445472684
2013-07-15,1,0.0023967762860420644,0.0024508993281967175,-0.006701240203408476,0.0013726415999857412,0.9921666291209809
2013-07-17,1,0.0022249762012519175,0.0022703307609031552,-0.006795594352799503,0.000433558592254102,0.9918950328733912
2013-07-19,1,0.0014371118090465726,0.001486629571480475,-0.006795594352799503,0.0013726415999857412,0.9917580954314843
2013-07-23,1,0.000793201084790309,0.0009114414139036334,-0.005822018834122238,0.005807984986750192,0.992186913506029
2013-07-25,1,0.000630788985072334,0.0007618337646217704,-0.00817614582642268,0.008381474652591198,0.9914016641828207
2013-07-29,1,0.0006985737919343713,0.0008308711739388293,-0.00817614582642268,0.005807984986750192,0.9917085354783585
2013-07-31,1,0.001030130438614908,0.0011051235378685435,-0.00817614582642268,0.002195130380776419,0.9918977978779553
2013-08-02,1,0.0008995127722364511,0.0009889310166182675,-0.006289787475421111,0.002195130380776419,0.9925958658523016
2013-08-06,1,0.0008186798858448767,0.0009036344385721425,-0.006289787475421111,0.005942899247641346,0.9918863823779088
2013-08-08,1,0.00033096028200095594,0.0004770425063495447,-0.006289787475421111,0.008948161105780093,0.9915011477661412
2013-08-12,-1,-0.00026699584457823397,-3.933881329871568e-05,-0.0046170190159212955,0.009898477695565705,0.9912121383572519
2013-08-14,-1,-0.0008331509068665599,-0.0005420518198381472,-0.003929518662768408,0.011158870323723941,0.9908913495394069
2013-08-16,-1,-0.0008448466819985405,-0.0005462849790714986,-0.0034503325453916632,0.010277492593891935,0.9918196467553474
2013-08-20,-1,-0.00044927157784830946,-0.0001973467505273969,-0.003929518662768408,0.010545830830324864,0.9919647002929638
2013-08-22,-1,-0.0006461795952740459,-0.0003784238256328474,-0.004209340112847034,0.010545830830324864,0.9924888148120405
2013-08-26,-1,-0.001340774794501296,-0.0009853819034054425,-0.004209340112847034,0.010545830830324864,0.9923357080548337
2013-08-28,-1,-0.0019851879673819526,-0.00155937126600127,-0.003116706511002953,0.010545830830324864,0.9928788215604306
2013-08-30,-1,-0.0018559095970930616,-0.001445410718558563,-0.00322095641471814,0.0100879309968211,0.9930659235206859
2013-09-04,-1,-0.001181693701240775,-0.0008618975464156419,-0.004925563575983788,0.007376604765884787,0.993769631026681
2013-09-06,-1,-0.000778010868415699,-0.0004998274100160779,-0.004925563575983788,0.006232678575291209,0.9944923374920287
2013-09-10,-1,-0.00047043805560656384,-0.00018447899578837533,-0.00635312114787727,0.0009369463347328705,0.9946652561250101
2013-09-12,1,1.2308703461033068e-05,0.00022245574626897867,-0.00635312114787727,0.0009369463347328705,0.9935761218788646
2013-09-16,1,0.0010735261977285083,0.0011302846174699023,-0.00635312114787727,0.0009369463347328705,0.9934849823145195
2013-09-18,1,0.0012366463729305472,0.0012764669890786033,-0.00635312114787727,0.0009369463347328705,0.9930911555570685
2013-09-20,1,0.0004905345305705184,0.0006520287754114903,-0.005574926923666726,0.004126447313865179,0.9934407528098904
2013-09-24,-1,-0.0002661479068355471,-3.236324107258105e-05,-0.004129724332705165,0.00762959411232315,0.9923591513530027
2013-09-26,1,0.0001817063785946151,0.0003056633581306891,-0.005574926923666726,0.00762959411232315,0.9908478111945471
2013-09-30,-1,-0.0003118743062513538,-0.00013946098068640117,-0.004129724332705165,0.009756878402966972,0.9901298688115991
2013-10-02,1,9.52381534094325e-06,0.0001153782665996921,-0.004129724332705165,0.009756878402966972,0.9895781560282274
2013-10-04,-1,-0.00015489698067575275,-4.2510951962640116e-05,-0.004129724332705165,0.012952503615952802,0.988886324665714
2013-10-08,-1,-0.00105564319412816,-0.0008255255027854285,0.0033847365231885404,0.013484011812752605,0.9883692700580178
2013-10-10,-1,-0.0003147023939222936,-0.0001841421574871953,0.002895755181497564,0.012950664315769396,0.9899725514134401
2013-10-14,-1,-0.00046700154149316203,-0.00026153345206919045,0.0013948125053954363,0.012950664315769396,0.9902287081283551
2013-10-16,1,0.0002457511524232262,0.0002783145028518483,-0.00024777055924677933,0.0095778697038503,0.9910051460950928
2013-10-18,1,0.0014046268145361186,0.0014482975358190606,-0.0021686654104934484,0.012638890819472013,0.9910233467303265
2013-10-22,1,0.0021225901761935135,0.002254427565333156,-0.0021686654104934484,0.008743004230631816,0.9924857657403717
2013-10-24,1,0.0017404631626754354,0.0018059907050993647,-0.0006753477279441849,0.008743004230631816,0.9938806124214861
2013-10-28,1,0.002612917961503184,0.0027949449100426005,-0.0021686654104934484,0.0060226089438524255,0.9939342457747413
2013-10-30,1,0.001566816462827913,0.0017536198024041226,-0.0021686654104934484,0.007154527016669041,0.9941119476801314
2013-11-01,1,0.0015042088812450972,0.0016364751228243168,-0.0021686654104934484,0.00601224226902692,0.9942173250588917
2013-11-05,1,0.00209870210882031,0.0023427243530739533,-0.004527975352915164,0.003852713825545019,0.9930627118890547
2013-11-07,1,0.002113434514642243,0.0023825285034489866,-0.004527975352915164,0.00856014942684342,0.9922297012186083
2013-11-11,1,0.0016535586031560892,0.0018096886226079232,-0.006871185420846087,0.00856014942684342,0.991648485707684
2013-11-13,1,0.0012878107497339124,0.0013777635416717042,-0.010309541686212575,0.00856014942684342,0.9909804732898998
2013-11-15,1,0.0015072486796972521,0.0016529866464486684,-0.007743997672300443,0.008505848241258019,0.9914540112925353
2013-11-19,1,0.001600505277378015,0.0017649268226032598,-0.007743997672300443,0.010567092677485153,0.9911476640067981
2013-11-21,1,0.001672023920071693,0.0018381012152904326,-0.01164952031465687,0.011824100113013582,0.9891993908395905
2013-11-25,1,0.0018106250291343997,0.0020108487562196103,-0.007824041734166346,0.010567092677485153,0.9898488771725644
2013-11-27,1,0.0022481819030804127,0.0025315433449985027,-0.007824041734166346,0.010567092677485153,0.9897524805920355
2013-12-02,1,0.0026389523769853327,0.003003924938891819,-0.007824041734166346,0.010567092677485153,0.9898485253736514
2013-12-04,1,0.0017464063351522118,0.001997590107988531,-0.004076795245544495,0.010567092677485153,0.9910607041662222
2013-12-06,1,0.0023808161772564274,0.002721699499160694,-0.005348580380632826,0.009552824028244904,0.9905423571302977
2013-12-10,1,0.001720970260944144,0.0019412530068141397,-0.006703783969328905,0.010176718549500908,0.9897702983607948
2013-12-12,1,0.0008816625859712876,0.0009703687951505936,-0.004076795245544495,0.010260393478285067,0.9891166916014654
2013-12-16,1,0.0010414076036971396,0.0011443673671707548,-0.004076795245544495,0.010260393478285067,0.9878625518831091
2013-12-18,1,0.0010962785369763406,0.0012195366403519444,-0.004076795245544495,0.010260393478285067,0.9881167292495677
2013-12-20,1,0.0012525531177220136,0.001384487105157292,-0.004076795245544495,0.009563351983575002,0.9898077634065461
2013-12-24,1,0.0012431487752480382,0.0013542771981898654,-0.005182897712179276,0.009563351983575002,0.9895333877326601
2013-12-27,1,0.001568866454210457,0.00172050759473803,-0.006250881236599835,0.00853904937593363,0.9892334104895628
2013-12-31,1,0.0016705802345470377,0.001833940711012708,-0.00814859449798771,0.010260393478285067,0.9881669841708451
2014-01-03,1,0.001160424330672768,0.001244884887915685,-0.012445536800993091,0.010260393478285067,0.9865202031333786
2014-01-07,1,0.0008052442851101247,0.0008257717507206252,-0.010107203050613585,0.011047711397421157,0.9872608522682508
2014-01-09,1,0.00040952015842740034,0.00044763597262891604,-0.00814859449798771,0.01441292386658304,0.9873364985151968
2014-01-13,1,0.0002880601426747746,0.00032922125479651395,-0.00814859449798771,0.012722804686552396,0.9883422307418069
2014-01-15,1,0.0009717626373145313,0.0009982146354427564,-0.00814859449798771,0.012722804686552396,0.9889636903161206
2014-01-17,1,0.0006835852549163422,0.0007120702774688587,-0.00814859449798771,0.01715432860230106,0.9882521968871837
2014-01-22,1,0.00011799132419623861,0.00023624745692126382,-0.009451617622985738,0.01715432860230106,0.9879756801465421
2014-01-24,-1,-0.0002598168836818928,-0.00010025564640057157,-0.008019543573097147,0.01741505451841312,0.9877165087675223
2014-01-28,1,5.106006641959353e-05,0.00015933115942372977,-0.009451617622985738,0.01741505451841312,0.9878163590735809
2014-01-30,1,0.0003856295518662214,0.00044480088833955293,-0.007599019415418018,0.012809713325256414,0.9889808425051043
2014-02-03,-1,-0.00041336074832597046,-0.0002848958619485043,-0.00535997621211671,0.012809713325256414,0.9899426295574775
2014-02-05,1,5.465306768525876e-05,0.00012006534051945883,-0.006441768606678761,0.01085374755612765,0.9901108079069089
2014-02-07,1,0.0007665919389371523,0.0008024671161713513,-0.007599019415418018,0.007989765574032437,0.9900739013526644
2014-02-11,1,0.0004704569035867993,0.00047259860859525857,-0.006441768606678761,0.007989765574032437,0.9906585610390768
2014-02-13,1,0.0006624718692485428,0.0006652900144089591,-0.007599019415418018,0.005797935970222065,0.9910363618235141
2014-02-18,1,0.0009627275453863065,0.0009919742595230114,-0.007599019415418018,0.005797935970222065,0.9916135085490084
2014-02-20,1,0.0004567052666383147,0.0005023189274220092,-0.007725673298186848,0.0073415202260222285,0.9912782429199724
2014-02-24,1,0.0004391491897315459,0.0005128733243291885,-0.007725673298186848,0.005797935970222065,0.9920254440691562
2014-02-26,1,6.018994880405045e-05,0.0001885100848967232,-0.0054962217660431715,0.00588826222363709,0.9928047811339243
2014-02-28,1,2.291104703278405e-05,0.0001603026207748706,-0.006004032904018842,0.003963532780821967,0.9927181921445303
2014-03-04,-1,-0.0005271981548418012,-0.00030080384765585673,-0.005415058203806184,0.0030630388091087576,0.9937935090128311
2014-03-06,-1,-0.00022863936723111855,-6.424532879306167e-05,-0.005415058203806184,0.0030630388091087576,0.9939374297395414
2014-03-10,-1,-0.0008643200088266422,-0.0006313308009633843,-0.005415058203806184,0.0030630388091087576,0.9936452138190501
2014-03-12,-1,-0.0010312625658312142,-0.000776519097372172,-0.005415058203806184,0.0045375641004071045,0.9932522733802722
2014-03-14,-1,-0.0012282688925067077,-0.0009665014014076435,-0.005996867817718697,0.0045375641004071045,0.9922063058937947
2014-03-18,-1,-0.0005411075724845297,-0.0003960610733233358,-0.005996867817718697,0.0045375641004071045,0.9919989684060525
2014-03-20,-1,-0.0012189652330344284,-0.0009599806396087794,-0.005415058203806184,0.0045375641004071045,0.991776095333733
2014-03-24,-1,-0.0009906119721092362,-0.0007947277302156265,-0.005996867817718697,0.0050076880561756715,0.9906524111332733
2014-03-26,-1,-0.0009093373013293097,-0.0007121227066628796,-0.008528286649182582,0.0050076880561756715,0.9896040645966742
2014-03-28,-1,-0.0008282589889875453,-0.0006596204564355213,-0.01641731500440599,0.0050076880561756715,0.9875689453827953
2014-04-01,-1,-0.0005238969749083774,-0.0004159686224484894,-0.01641731500440599,0.006842546801711594,0.986904361848872
2014-04-03,-1,-0.0005278317942381712,-0.00042079446719051457,-0.01641731500440599,0.0057315477545022385,0.9870002830280836
2014-04-07,-1,-0.001563301669702373,-0.0013384504400302494,-0.015492531873091898,0.0057315477545022385,0.9879823532602712
2014-04-09,-1,-0.00145798939104632,-0.0012296347470055324,-0.015492531873091898,0.00507423920804061,0.9880602188019184
2014-04-11,-1,-0.0025163226967142758,-0.002165856179209865,-0.008811263097240772,0.011472070663250292,0.9876301226646262
2014-04-15,-1,-0.0020443790345608956,-0.001753445167204848,-0.011103145289021978,0.008003252991302608,0.9871224791881542
2014-04-17,-1,-0.0009819223282454717,-0.0008262737080269705,-0.011103145289021978,0.007512126865014373,0.9878646235412423
2014-04-22,-1,-0.00153673526335304,-0.0013195950383192321,-0.008811263097240772,0.007512126865014373,0.9887190547695501
2014-04-24,-1,-0.0013407724661161993,-0.0011599736355846334,-0.007229743595865406,0.01024669487188089,0.9890972450836766
2014-04-28,-1,-0.002821308807945467,-0.0024787590159286474,-0.00531015521788432,0.01024669487188089,0.990289124368951
2014-04-30,-1,-0.002936548709928476,-0.0025244966348754463,-0.00531015521788432,0.008823803131407345,0.9905397298842451
2014-05-02,-1,-0.002697568061219914,-0.002357108662579682,-0.0003356129898363421,0.008823803131407345,0.9904530735781035
2014-05-06,-1,-0.0033141550662349603,-0.0028887229968798554,0.0001761630963992057,0.008823803131407345,0.9903691677388261
2014-05-08,-1,-0.003669803967684862,-0.0031649228211591256,0.0001761630963992057,0.008823803131407345,0.9901951435983545
2014-05-12,-1,-0.0022746668854744054,-0.0019498345635797732,-0.003511164374549541,0.00670997346497406,0.9922263258229517
2014-05-14,-1,-0.002676105528963636,-0.0023267907991279596,-0.00406588076342063,0.00670997346497406,0.9931091571580284
2014-05-16,-1,-0.002311609522970736,-0.002025811090245728,-0.00328002666492367,0.00650930769047028,0.9938676118002141
2014-05-20,-1,-0.0018969939223868375,-0.00166922230745037,-0.00328002666492367,0.00650930769047028,0.9940887540126163
2014-05-22,-1,-0.0006779384340373771,-0.000629284082501782,-0.00328002666492367,0.00650930769047028,0.9945660897628763
2014-05-27,0,-3.299470097180537e-05,2.2049882632801054e-05,-0.00406588076342063,0.006264213445869148,0.9948208126097695
2014-05-29,1,0.0002957946474757003,0.0003810649502719992,-0.00406588076342063,0.004867944095575811,0.9953197273365475
2014-06-02,1,0.00032442166598977383,0.0003893084736199524,-0.004795814082875053,0.004720186796723017,0.995015509724385
2014-06-04,-1,-0.00011307858665502441,-0.00010830649991721634,-0.004795814082875053,0.005753945588036687,0.9947932299979403
2014-06-06,-1,-0.00024238454703504305,-0.00020656534966878758,-0.005031655989563705,0.005753945588036687,0.9935129930303849
2014-06-10,1,0.0006023075425460012,0.0007583391069220886,-0.006097443143324378,0.004720186796723017,0.9934450211453025
2014-06-12,1,0.00012421818110961824,0.0002101479706915856,-0.006097443143324378,0.004720186796723017,0.993515894658587
2014-06-16,0,-2.7358806491327393e-06,5.24846263618584e-05,-0.006097443143324378,0.004720186796723017,0.9934934128145559
2014-06-18,-1,-7.953809362595514e-05,-6.380063403472626e-05,-0.006097443143324378,0.004992127014808021,0.9932825230768751
2014-06-20,1,0.0006735069407255404,0.0008096185721285936,-0.006097443143324378,0.0038336199075797127,0.9935690954057294
2014-06-24,1,0.0008100333668801443,0.0009906012890916497,-0.004510121175513728,0.004992127014808021,0.9931669541218996
2014-06-26,-1,-4.0066434634318735e-05,-1.658085904543653e-05,-0.004510121175513728,0.006925393859508071,0.9922632412756954
2014-06-30,1,0.0002784720811552759,0.0003354049846420779,-0.006780735795615599,0.006925393859508071,0.9914788125073453
2014-07-02,1,0.0009456144540664093,0.0011551547680186127,-0.009669576484034919,0.005208699706293883,0.9905777172336062
2014-07-07,1,0.0012499664726169587,0.0014635798583456168,-0.0059328588244973255,0.005208699706293883,0.9918982588097293
2014-07-09,1,0.0013450250847508438,0.0016133324113084375,-0.0049505162341073146,0.005208699706293883,0.9921135233931497
2014-07-11,1,0.0014658584993181806,0.001802999879890789,-0.004227495518474304,0.006854663638683431,0.9920523163236742
2014-07-15,1,0.001100028601321213,0.0013567072754659061,-0.004227495518474304,0.006854663638683431,0.9919539886989827
2014-07-17,1,0.0014092138826154261,0.0017354192085510995,-0.003807450649247944,0.008076744955877851,0.9919351484730616
2014-07-21,1,0.0014744045093743937,0.0017972884115166014,-0.004203763086034042,0.008148725812659508,0.9917864652083653
2014-07-23,1,0.0020773891601946837,0.0024927830731110052,-0.0049505162341073146,0.00802521100827892,0.9920976045867586
2014-07-25,1,0.002978744548760532,0.003506088846843743,-0.006001200324247285,0.006016056568860192,0.9922444568947509
2014-07-29,1,0.002091706647375899,0.0025138218997286994,-0.004203763086034042,0.006016056568860192,0.9936341108465286
2014-07-31,1,0.0005623273037303862,0.0007251259752213287,-0.003598895013657743,0.006172121995587525,0.9948661497726669
2014-08-04,1,0.0009293524971814854,0.001130344978287722,-0.003598895013657743,0.0054063581042721335,0.9951824140443927
2014-08-06,1,0.0004328734621179251,0.0005404233393104639,-0.003056790367521312,0.0054063581042721335,0.9954155598503439
2014-08-08,1,0.0010041635239618357,0.0012110983708442968,-0.003598895013657743,0.004790486219243614,0.9955852267830242
2014-08-12,1,0.0008961128650673007,0.0010697882010896665,-0.0036808653762902136,0.004379326758481239,0.9956481064944107
2014-08-14,1,0.0011817300523297232,0.001380322554374122,-0.004174810619405888,0.003795918636569112,0.9955098135240439
2014-08-18,1,0.0014891329342457738,0.0017463483927220393,-0.0046428127918897765,0.0037148768975380792,0.9953658585053123
2014-08-20,1,0.0013344032517014256,0.0015629786034075791,-0.004230481111163838,0.0037148768975380792,0.9955445514312786
2014-08-22,1,0.0013689546292470736,0.0016031766178945623,-0.004230481111163838,0.002260512545402785,0.9956294870351452
2014-08-26,1,0.0012890034355397832,0.001512797703887211,-0.0046428127918897765,0.0037148768975380792,0.994496111035177
2014-08-28,1,0.000756679569753077,0.0008329303461252158,-0.005334793131728988,0.0037148768975380792,0.9939283671684296
2014-09-02,1,0.0008587729566067152,0.0009689819750288042,-0.007428727044313696,0.0037148768975380792,0.9932621308014815
2014-09-04,1,5.9902873726924954e-05,0.00011947017814028545,-0.008858345098887988,0.0037148768975380792,0.992380135518381
2014-09-08,1,0.0001382678338473342,0.0001649357058627143,-0.008489338404805605,0.0037148768975380792,0.9919005922956549
2014-09-10,1,0.000670085005640773,0.0007704192948043848,-0.0099381058469758,0.004158615347545248,0.9902479555426874
2014-09-12,1,1.8575332073357972e-05,3.715440050524473e-05,-0.010922841140050765,0.004158615347545248,0.9898173693212725
2014-09-16,-1,-0.00020083264416999682,-0.00015665798026063586,-0.010922841140050765,0.006429064207296414,0.9894862332799542
2014-09-18,-1,-0.0012499875211180477,-0.0009992740831541009,-0.010922841140050765,0.007586768500183163,0.9898977837945133
2014-09-22,-1,-0.0012910873005747862,-0.0010642178776305946,-0.00971918458762675,0.011964000086521816,0.9894976339302027
2014-09-24,-1,-0.0015020480790370245,-0.001245617010631458,-0.00971918458762675,0.013070328507160538,0.9882443137729808
2014-09-26,-1,-0.0016693649264290268,-0.0013669695721398884,-0.00971918458762675,0.013166144914267246,0.9868115469648098
2014-09-30,-1,-0.002168849488423325,-0.0018103772056296315,-0.010279784197883599,0.013166144914267246,0.9861631995995127
2014-10-02,-1,-0.002237195969976662,-0.001924700095800847,-0.008311985597165812,0.013166144914267246,0.9864194706102415
2014-10-06,-1,-0.0024316109911467097,-0.0020653695964432646,-0.006915286396439168,0.013292485084158569,0.9859602158488541
2014-10-08,-1,-0.00257480354679061,-0.0021981269382271105,-0.006282094961358519,0.012013196505712719,0.9873006514565205
2014-10-10,-1,-0.003073517367954766,-0.0026504505900363023,-0.0005713834401610222,0.012013196505712719,0.9873588275749059
2014-10-14,-1,-0.002529196159145838,-0.0022018057103988607,0.0008880989717447005,0.011573131585515333,0.9881811233606586
2014-10-16,-1,-0.0020886605065954114,-0.0018306697676882932,0.001554702947875558,0.011573131585515333,0.9883632622999614
2014-10-20,-1,-0.0012853948314561407,-0.0011428325774400267,0.001554702947875558,0.01081438311562087,0.9892257188938586
2014-10-22,-1,-0.0012521469469120967,-0.0011257972682279262,0.002282216128887653,0.009705417744039234,0.9914451406449295
2014-10-24,1,1.4765351232967547e-05,2.2975659434402465e-05,0.001554702947875558,0.006038464327083859,0.9942192890709155
2014-10-28,0,-6.236343166809306e-06,2.935449988046826e-06,0.001554702947875558,0.006038464327083859,0.9947254708396893
2014-10-30,1,0.0003011687501102096,0.0003535107852406286,0.002282216128887653,0.006286866174061835,0.9947822519456666
2014-11-03,1,0.000780489014211904,0.0008734921909447531,0.0014304085233376887,0.00592202262461858,0.9958959810533213
2014-11-05,1,0.0006342701611781892,0.0007048903079409064,0.0014304085233376887,0.00592202262461858,0.9961229512349076
2014-11-07,1,0.0008143616004063748,0.0009154219604715066,0.0014886692272700385,0.005076129135703526,0.996562317654415
2014-11-11,1,0.0011624046388731492,0.0013360369711772051,0.0007517346926522151,0.005076129135703526,0.9962383400544684
2014-11-13,1,0.0012784854881165738,0.0014608751874706939,9.626908505545862e-05,0.005076129135703526,0.9954463420182608
2014-11-17,1,0.001459167001903142,0.001663764155744333,-0.002900729242345804,0.00423365867456069,0.9948190976597704
2014-11-19,1,0.00166518956648775,0.0018929475813022024,-0.002900729242345804,0.006682872041181726,0.9937177646891557
2014-11-21,1,0.0016906474566772065,0.0019241198624092835,-0.003462154714509331,0.006682872041181726,0.9936963141030448
2014-11-25,1,0.0022481006677709152,0.0025815517363324348,-0.003775309373255589,0.006682872041181726,0.9937551835673192
2014-11-28,1,0.0024637600946871823,0.002810795008582833,-0.003775309373255589,0.004416817438912571,0.9939042406104646
2014-12-02,1,0.0024791867780035903,0.0028084695105351715,-0.004335144192440113,0.003158962370082949,0.9937768116431973
2014-12-04,1,0.0025516388894127225,0.002881439655913803,-0.0073059723038897805,0.0026725710837168866,0.9917168843759704
2014-12-08,1,0.0026012885920441244,0.0029354337547787537,-0.0073059723038897805,0.0034761684254426026,0.991328505941057
2014-12-10,1,0.0022560402617848845,0.0025476402365405505,-0.0073163884309031015,0.004416817438912571,0.9910819327056142
2014-12-12,1,0.0018639433913276585,0.0021237149574304705,-0.0066385491456213905,0.004416817438912571,0.9918502696411498
2014-12-16,1,0.0017948568432918782,0.0020888957689962013,-0.00605209958107843,0.004416817438912571,0.9916935651438137
2014-12-18,1,0.0022631723095075207,0.0025689766876056154,-0.00605209958107843,0.0034761684254426026,0.992642011760123
2014-12-22,1,0.0016813123391566406,0.0018552663989974813,-0.00605209958107843,0.0059902067060639795,0.9921808624923825
2014-12-24,1,0.0019242816973280607,0.002148227636031318,-0.007113676455008546,0.004000631514493072,0.9919162947975737
2014-12-29,1,0.0018946411620224717,0.002098741884757833,-0.009271160851353034,0.0033628279800615364,0.9911506854616348
2014-12-31,1,0.0017531482614668004,0.0019521242934793098,-0.011723508379592464,0.004000631514493072,0.9901892817519685
2015-01-05,1,0.000643138232041872,0.0006968678911420498,-0.007113676455008546,0.00712215569924247,0.9912499700581142
2015-01-07,1,0.0006795090905107502,0.0007563465080621713,-0.006594797549097104,0.01096873366940708,0.9908800969643711
2015-01-09,1,0.0009126377954613837,0.001025576112853859,-0.005739216159128559,0.01096873366940708,0.9912675056180186
2015-01-13,1,0.0007046403590393157,0.0007841920395448714,-0.006314000283468428,0.01096873366940708,0.9908801292615982
2015-01-15,1,0.00020278946005914956,0.00021634995587696228,-0.005111292923714768,0.011502925662134518,0.9906882823466998
2015-01-20,1,0.00037382610251540167,0.00040464081613248603,-0.005111292923714768,0.011502925662134518,0.9907966585594649
2015-01-22,1,0.0010709838096182298,0.0012002413133437731,-0.005111292923714768,0.011158590531023907,0.9916718816293904
2015-01-26,1,0.0006927889065363056,0.0007687814224933492,-0.004710564941980933,0.011158590531023907,0.9922021490736653
2015-01-28,1,0.00016153334800904915,0.0001629308430355346,-0.0015972921429106203,0.012680074211855952,0.9916246307400022
2015-01-30,-1,-0.00019452571371754855,-0.00014649273802177872,-0.0015972921429106203,0.012680074211855952,0.9919812131519756
2015-02-03,1,0.0004201393814254485,0.00044584636964233265,-0.004710564941980933,0.012379349687373004,0.9922114518044021
2015-02-05,1,0.0006354727425963377,0.0006705516677412311,-0.007446899828373967,0.01141026516202404,0.9918255316681229
2015-02-09,1,0.0006949799194355395,0.0007261503368453342,-0.00819105165226612,0.008320714137013796,0.9916102042922795
2015-02-11,1,0.0005630540380503914,0.0005759036374001796,-0.007459675037506001,0.01141026516202404,0.9912994098405742
2015-02-13,1,0.001051822365656803,0.0011092591596433064,-0.00823123313601809,0.008561155594917684,0.9914644063649893
2015-02-18,1,0.0007652272525574403,0.0007716059455805202,-0.00864345397227793,0.012131589535735697,0.9906141099537025
2015-02-20,1,0.0010012086360233917,0.0010442618817348484,-0.00864345397227793,0.012131589535735697,0.9909318451807503
2015-02-24,1,0.0006945848763417987,0.000721538328992325,-0.00864345397227793,0.012131589535735697,0.9907816810355797
2015-02-26,1,0.0009032373586401116,0.0009497436888586883,-0.009582130056223699,0.00338041479889282,0.9911811277796727
2015-03-02,1,0.0009615974550408665,0.0009966953274036445,-0.009582130056223699,0.0035070666187635297,0.9915122316516543
2015-03-04,1,4.030742595454351e-05,0.00019801473156573935,-0.008549692733067616,0.0035070666187635297,0.9923162148992062
2015-03-06,-1,-0.0013503479474079483,-0.000992806361117524,-0.00541276747708673,0.008561155594917684,0.9926571047281781
2015-03-10,-1,-0.0017563186513525194,-0.0013426873037892632,-0.00541276747708673,0.00914981597737737,0.9928146462666394
2015-03-12,-1,-0.001296806315611362,-0.0009430279650801031,-0.006646972727563471,0.006844535511642748,0.9930543420864598
2015-03-16,-1,-0.0009843040246821709,-0.0006917515320608868,-0.006959864755545394,0.00651174722084602,0.9929904958328694
2015-03-18,-1,-0.0013238480666571996,-0.0009506834994159729,-0.006383787883292578,0.004458290400137546,0.9937881534796202
2015-03-20,-1,-0.00033376894409089424,-0.00016039824019921693,-0.006383787883292578,0.00651174722084602,0.993064567364116
2015-03-24,-1,-0.0006875685329395263,-0.00046181604281108257,-0.0077601382002549365,0.007178548970618959,0.9919254170996776
2015-03-26,-1,-0.001089921106097663,-0.0008367567202206271,-0.006157014347937773,0.007178548970618959,0.992390392122229
2015-03-30,0,-4.242592186762061e-05,4.942697845147819e-05,-0.0077608631051561015,0.00651174722084602,0.9923734227180022
2015-04-01,-1,-0.0003985583752801154,-0.0002540808078895014,-0.0077608631051561015,0.00651174722084602,0.9923136389285635
2015-04-06,1,0.00026071874238722565,0.0003214238226649526,-0.0077608631051561015,0.00651174722084602,0.9921183185192567
2015-04-08,1,0.00023040015878834135,0.00028766034420352735,-0.007890900130029094,0.0047271351987419555,0.9921152663653116
2015-04-10,1,0.0001776324770055059,0.00023017307274350392,-0.007007751295919604,0.006949751811921503,0.9920911353909934
2015-04-14,0,-1.6729512993626414e-06,5.725551498470734e-05,-0.006459134168910499,0.004942464150499964,0.9928013326417918
2015-04-16,-1,-0.00015053844510517814,-8.619540551626034e-05,-0.00615844621523715,0.008067854440844131,0.9923157131553197
2015-04-20,1,8.829673172141364e-05,0.00012242209351891886,-0.00615844621523715,0.005152293138927948,0.9928602026416852
2015-04-22,1,0.0003594743409520326,0.00038599813517507266,-0.0044202212428237336,0.0043903082381664855,0.9940523799467041
2015-04-24,1,0.00044092213025221933,0.0005060111364045252,-0.00615844621523715,0.0043903082381664855,0.9938873298996567
2015-04-28,1,9.08037957525109e-05,0.00012497619065387854,-0.00615844621523715,0.0043903082381664855,0.9936976928300372
2015-04-30,-1,-7.899363768169162e-05,-5.945104805531428e-05,-0.006321728587342128,0.0043903082381664855,0.9933697540736941
2015-05-04,1,0.0005462824413738582,0.0006554117590074129,-0.006321728587342128,0.0027028004281604025,0.9939440344453065
2015-05-06,-1,-0.000208870386211672,-0.00019713902687660498,-0.004106448636059673,0.0043903082381664855,0.9940364766001879
2015-05-08,1,6.729602637583226e-05,7.849303876087462e-05,-0.005684726817642041,0.001728555506205823,0.9944629812935317
2015-05-12,-1,-0.0006365727809385341,-0.0005138306243617696,-0.006064720175687829,0.0027028004281604025,0.9944358769825408
2015-05-14,1,0.0005414248333673985,0.0006183086558603063,-0.007722127815138216,0.0005906234643041164,0.994432998216952
2015-05-18,1,0.0006100862277704076,0.0006943366317849122,-0.008112805799392914,0.0005906234643041164,0.9937338164689248
2015-05-20,1,0.0005016554864220554,0.0005809287726424946,-0.008112805799392914,0.00187928585116603,0.9938990101324153
2015-05-22,1,0.00037563560359072165,0.0004530443156110553,-0.00830536365409657,0.002612480252852069,0.9935289863595425
2015-05-27,-1,-0.00028232418427211425,-0.00026425042065916505,-0.009049088086585666,0.002612480252852069,0.9934272146438521
2015-05-29,-1,-0.0016208928581754058,-0.0013809267212061519,-0.00830536365409657,0.0033387339233062153,0.994033079576022
2015-06-02,-1,-0.0016410684031527936,-0.001393603754840223,-0.009049088086585666,0.004054751648300192,0.9928892738801779
2015-06-04,-1,-0.0017936414247319496,-0.0015399550577425989,-0.00830536365409657,0.004054751648300192,0.9931243805747801
2015-06-08,-1,-0.0022117871555899565,-0.0018998826605922702,-0.00830536365409657,0.004516516644951161,0.992361920998397
2015-06-10,-1,-0.002509266157617454,-0.0021378676219354457,-0.009049088086585666,0.004618119244104947,0.9916072562641686
2015-06-12,-1,-0.002673040038222242,-0.0022957692452937354,-0.008875202242691577,0.0065514634841760035,0.9905515823709158
2015-06-16,-1,-0.0022097171799749086,-0.0019251580626907952,-0.007855851539616855,0.005088243810721467,0.9910862607012365
2015-06-18,-1,-0.0021985310010757615,-0.0018984927095746648,-0.007855851539616855,0.005966222236352695,0.9908472271287626
2015-06-22,-1,-0.002523511579427556,-0.0021589477063226684,-0.008523324296102388,0.005088243810721467,0.9908485591723415
2015-06-24,-1,-0.0037008850312435482,-0.0031830731578214484,-0.0053144710437826575,0.005966222236352695,0.9906801908200303
2015-06-26,-1,-0.0034037137468374817,-0.0029534967108213904,-0.008032793718388687,0.005966222236352695,0.9903978402758286
2015-06-30,-1,-0.0036935616194098573,-0.0032355012763205094,-0.005794033482148797,0.008263243319442745,0.9901219004490805
2015-07-02,-1,-0.003394277484025856,-0.002987453167417789,-0.004566252127075591,0.008263243319442745,0.9905262568909039
2015-07-07,-1,-0.002713485940089126,-0.0023840913686739417,-0.004982154044685053,0.006468503922473404,0.991554383499895
2015-07-09,-1,-0.0018652391127704174,-0.0016795849045297163,-0.004982154044685053,0.006468503922473404,0.9912254241057777
2015-07-13,-1,-0.0010701945085843374,-0.0009746921397677761,-0.004982154044685053,0.006468503922473404,0.9913870228491831
2015-07-15,-1,-0.0006613670885080953,-0.0006277063205763373,-0.006101492383092301,0.006468503922473404,0.9909389667022483
2015-07-17,-1,-0.00020384030494929796,-0.00017486477032900344,-0.006101492383092301,0.006564154874432479,0.9911798130463745
2015-07-21,1,1.531623928447307e-05,0.00012272632491025227,-0.005927139292038728,0.006564154874432479,0.9914336286431338
2015-07-23,1,0.00011025353207281136,0.0002414956378319002,-0.008616192770740936,0.004631312025161306,0.9903225720165345
2015-07-27,-1,-0.0008509557879100304,-0.0008400467935838086,-0.011052901470026999,0.004631312025161306,0.9886824833852017
2015-07-29,-1,-0.00030215834421210187,-0.00030205895426059097,-0.011052901470026999,0.0030776726571907593,0.988536628166642
2015-07-31,-1,-0.00043370639068890046,-0.0004094255841743315,-0.011052901470026999,0.00443034959740706,0.9885925654707155
2015-08-04,-1,-0.00026576646282832245,-0.00024232938554146996,-0.016644021839284828,0.00443034959740706,0.9870316012477168
2015-08-06,-1,-0.0003243230991915425,-0.0003040887801171054,-0.012198744361828311,0.005545440911067474,0.9876395563003725
2015-08-10,1,0.0003773074463360467,0.0004916066995444871,-0.012760888595248175,0.005545440911067474,0.9867355939297633
2015-08-12,1,0.0001169972887414951,0.00020446510734607195,-0.012613661421109687,0.005545440911067474,0.9866173374325228
2015-08-14,1,0.00031534082715105544,0.00042467556189597296,-0.012613661421109687,0.005174616037980289,0.9863953612049621
2015-08-18,1,3.265497500079821e-05,8.24696440065684e-05,-0.012613661421109687,0.008234642277447572,0.9852184007662552
2015-08-20,-1,-0.0007612023729896334,-0.0007383201737502284,-0.012613661421109687,0.008234642277447572,0.9855642823545816
2015-08-24,-1,-0.002177504261271207,-0.001983554968264963,-0.011406668845490724,0.008234642277447572,0.9871324735827693
2015-08-26,-1,-0.0014202286197584305,-0.0013414568114714631,-0.011406668845490724,0.005545440911067474,0.9881879689471051
2015-08-28,-1,-0.0011817921072918543,-0.001133360864114659,-0.012191697491957122,0.005232030300710353,0.9874765429802226
2015-09-01,-1,-0.0022008354030082994,-0.0020329444981418716,-0.01022329037574003,0.008234642277447572,0.9882485081129692
2015-09-03,-1,-0.001446857577500503,-0.0013587204770253453,-0.01022329037574003,0.00774898887890026,0.9879676851096155
2015-09-08,-1,-0.0010212105490700677,-0.0009848449739574706,-0.00908375585173574,0.006559962317072407,0.9894641985631109
2015-09-10,-1,-0.0010685105312795002,-0.0010400421339909875,-0.007877754199792262,0.0148858543916264,0.9887032149027313
2015-09-14,-1,-0.0010646848685756743,-0.0010405384244715843,-0.007163133045115975,0.0148858543916264,0.9890516519374283
2015-09-16,1,5.901059547777968e-05,0.00017593145364465655,-0.007163133045115975,0.0059862823454924705,0.9910718913689428
2015-09-18,-1,-0.001057491983378068,-0.0010109360449193077,-0.0013965455134853071,0.011235217795366537,0.9914467474662096
2015-09-22,-1,-0.0013662528190976355,-0.0012752843538100405,-0.0007832607540168299,0.011235217795366537,0.9919095119533075
2015-09-24,-1,-0.0011051745828296175,-0.001074553386400463,-0.00028188898558121364,0.012535968545052067,0.9909244787080412
2015-09-28,-1,-0.0021174134576751975,-0.001949039441681112,7.861638325640932e-05,0.012535968545052067,0.9903407379641908
2015-09-30,-1,-0.0010535741026973396,-0.0010422003501928544,-0.00028188898558121364,0.011235217795366537,0.9917339548595857
2015-10-02,-1,-0.0001355910265839061,-3.785096625136822e-05,-0.0007832607540168299,0.01099581115368605,0.9932691082532126
2015-10-06,1,0.0005231994323493183,0.0007437214003497148,-0.0007956739406014585,0.007661797975653401,0.9939574113439664
2015-10-08,1,0.0016248148554064842,0.0020008400600320993,-0.0025320789084720195,0.006300991091085936,0.9944330640514745
2015-10-12,1,0.001669425855367191,0.0020439811085340874,-0.0028520126635703715,0.006300991091085936,0.9937146320852084
2015-10-14,1,0.0015271334019377994,0.00187236791515872,-0.0028520126635703715,0.006549079383533791,0.9936136952646686
2015-10-16,1,0.0018398134891299365,0.002196902305292196,-0.0055874895242608675,0.005277000540169878,0.9930471198962441
2015-10-20,1,0.001747599890874247,0.0020693042595982276,-0.006567354114690182,0.006300991091085936,0.9914841175148974
2015-10-22,1,0.00261408251307571,0.0030529979168111925,-0.006567354114690182,0.00535912838572659,0.9919437736164421
2015-10-26,1,0.002570588168601796,0.0029884427705829794,-0.0055874895242608675,0.00535912838572659,0.9925715733910158
2015-10-28,1,0.002509550856143818,0.002902452039421697,-0.007460189173829704,0.006961106711095157,0.9915966607019241
2015-10-30,1,0.002455801735283097,0.0028358052567241197,-0.007460189173829704,0.00472586183995867,0.991805762445212
2015-11-03,1,0.002205435142871353,0.0025329509004105885,-0.011543952873719555,0.008220143282919822,0.9908626383437019
2015-11-05,1,0.0015238966960149079,0.0017562380887542455,-0.0073829111047976495,0.009190117771589469,0.9912798452685843
2015-11-09,1,0.001305691328848097,0.0015192305542816608,-0.005050779509271009,0.01248151859423909,0.9910870573662984
2015-11-11,1,0.0015217397650918478,0.0017636870481046606,-0.0073829111047976495,0.01248151859423909,0.9904463437276592
2015-11-13,1,0.0004363963487617925,0.0004874047909614039,-0.006412034075900959,0.01248151859423909,0.9903921973369852
2015-11-17,1,0.0005962136954150164,0.0006645861485921219,-0.0033378177037574064,0.010588275566353075,0.9914948976214594
2015-11-19,1,0.000715876317455502,0.0007639468766876099,-0.006412034075900959,0.008686195881174358,0.991381427399842
2015-11-23,1,0.0009209847995513374,0.000990497539206038,-0.006412034075900959,0.011272195764932033,0.9906736084081355
2015-11-25,1,0.001209666845245656,0.0013454537167073863,-0.0036382275451305648,0.010894288438212458,0.9911869304460962
2015-11-30,1,0.0012371129153498344,0.0013865884697138603,-0.002974842274476891,0.010894288438212458,0.9910172372576908
2015-12-02,1,0.0016993333035576976,0.0019524965449991532,-0.004141482062183232,0.010218173076713298,0.9912182061810433
2015-12-04,1,0.0021339351259045056,0.002451122020953253,-0.008219665093429907,0.00880815221587912,0.9903706985374624
2015-12-08,1,0.002787184209649327,0.0032107365593644797,-0.014747593407416826,0.006390657523853599,0.9887253440276321
2015-12-10,1,0.002170216109826047,0.002493323337010971,-0.01303972498988918,0.006330189748797788,0.9890852543982589
2015-12-14,1,0.001571606078960459,0.0018112307042384315,-0.01303972498988918,0.00880815221587912,0.9884041984565859
2015-12-16,1,0.0013909205460368441,0.0015667181329798562,-0.014454610348901163,0.008888450651232213,0.9871797601101535
2015-12-18,1,0.0012881201052086068,0.0014899918205810545,-0.014158802874261254,0.008888450651232213,0.9867170767762017
2015-12-22,1,0.0019066080386590544,0.0021863761623248826,-0.014158802874261254,0.008886279445143957,0.9859060971356847
2015-12-24,1,0.001988149467896452,0.002269346932743692,-0.014158802874261254,0.008886279445143957,0.9846745185611924
2015-12-29,1,0.0021956941740594337,0.002491798379916161,-0.014158802874261254,0.00658839503938939,0.9845175703489623
2015-12-31,1,0.002003625833789315,0.0023117753604922483,-0.014158802874261254,0.011965574821308897,0.9845675650720576
2016-01-05,1,0.0011690797989695183,0.0013436833469861217,-0.014158802874261254,0.011965574821308897,0.9850810270276796
2016-01-07,1,4.353872621642627e-05,8.214954579455936e-05,-0.011844228504792581,0.011965574821308897,0.9863433882583843
2016-01-11,-1,-0.00032604049901736594,-0.00031253260138600726,-0.014158802874261254,0.017460559596542923,0.9845540085623379
2016-01-13,-1,-0.0011539452404421145,-0.0009888222964336648,-0.014158802874261254,0.020646756872054334,0.984124944137444
2016-01-15,-1,-0.0019615196179961795,-0.0016251642323229381,-0.011844228504792581,0.021689282224967677,0.9831837179010736
2016-01-20,-1,-0.0026397906527004847,-0.0022358711882303687,-0.007481157872742616,0.021689282224967677,0.9835166074489803
2016-01-22,-1,-0.0013258100297960833,-0.0010809311954953662,-0.007481157872742616,0.020308792556240917,0.9849858897298568
2016-01-26,-1,-0.0015422908736453871,-0.0012089185890752864,-0.0045497361175403815,0.011212151989803474,0.9867069131160718
2016-01-28,-1,-0.0012008931114393545,-0.0009430354395270683,-0.0038438164250354017,0.012977044132442599,0.9867546538119374
2016-02-01,1,2.4286867351436432e-05,0.00011492018918173968,-0.0038438164250354017,0.011723269970841483,0.9875276664902458
2016-02-03,-1,-0.0009322058097302115,-0.0007142524221610767,-0.0038438164250354017,0.011723269970841483,0.9880836979196493
2016-02-05,-1,-0.0016693649613596748,-0.0013574680404976787,-0.0034329950856558334,0.011723269970841483,0.9885896558342159
2016-02-09,-1,-0.0007740217360778239,-0.0006254225625903368,-0.0034329950856558334,0.008514157551615706,0.9906731454457539
2016-02-11,-1,-0.0014071128136956038,-0.0011281418181102675,-0.003040846130698158,0.008514157551615706,0.9919761199871193
2016-02-16,1,8.763523739195556e-05,0.00020926585109667147,-0.003040846130698158,0.006854345824847016,0.9947561064984896
2016-02-18,0,-5.7818028122102636e-05,9.621808638212841e-05,-0.0017036278199685808,0.008296475439241847,0.9943444908686309
2016-02-22,-1,-0.0002193028237073095,-3.243100464441883e-06,-0.0017036278199685808,0.0072627687741030735,0.9944581518020477
2016-02-24,0,-0.0001614675424276799,2.730956272239569e-05,-0.0013946868210164968,0.0072627687741030735,0.994584587802591
2016-02-26,1,0.0005889467809069436,0.0006340043771747507,-0.0011893743570582343,0.0072627687741030735,0.9945660865642355
2016-03-01,1,0.001189439923736111,0.0012284767018843465,-0.0011893743570582343,0.00667200503768359,0.9947162538509118
2016-03-03,1,0.0013490083946641862,0.0014620805697390159,-0.0010298317938760308,0.007486998360261183,0.9948050504765553
2016-03-07,1,0.0013192941029910776,0.001428122290213404,-0.0010298317938760308,0.007486998360261183,0.9947210902856457
2016-03-09,1,0.000867436387686997,0.0009078130348674992,-0.0007362829886710516,0.008077797115155822,0.9943258450070106
2016-03-11,1,0.0015152814521428096,0.0016689400234258126,-0.000714252121694821,0.007486998360261183,0.9951968563766468
2016-03-15,1,0.0014586391743131202,0.0016055110038691507,-0.00033248432184150394,0.008077797115155822,0.9948213728833899
2016-03-17,1,0.002294545864957315,0.0025948827645232587,-0.0007310178168240547,0.006840406983794502,0.9950658437264599
2016-03-21,1,0.002562579288855651,0.00289992393888979,-0.0012396714424459357,0.007486998360261183,0.994584718458548
2016-03-23,1,0.002466048096040274,0.002794023782263939,-0.0023057040970738073,0.007497380401587631,0.9938297495065027
2016-03-28,1,0.0026970226459137004,0.003054386837063181,-0.003733878984883128,0.0073028052764452745,0.9937528861668284
2016-03-30,1,0.0029458750970880847,0.0033302463299125654,-0.003733878984883128,0.006843867664236652,0.9939877461613548
2016-04-01,1,0.00269216324365388,0.0030054407263611317,-0.006155866116318692,0.004994439213731665,0.9935156787266148
2016-04-05,1,0.0022250037028922896,0.002456758717574066,-0.003733878984883128,0.006843867664236652,0.9936899256076205
2016-04-07,1,0.0020838915101939223,0.0023047179222962953,-0.0029777021259805568,0.004994439213731665,0.9944102928571142
2016-04-11,1,0.0017924667846995583,0.0019371774147554299,-0.003101780714389114,0.006843867664236652,0.9938873306914351
2016-04-13,1,0.0020440057637865884,0.002230976710600471,-0.00395018425983247,0.006843867664236652,0.9936006268233767
2016-04-15,1,0.00208558911633093,0.0022975927449907685,-0.00395018425983247,0.005150879098243356,0.9938800177569201
2016-04-19,1,0.0022394250540166668,0.0024822773660780175,-0.00395018425983247,0.004905046015510004,0.9938211710085182
2016-04-21,1,0.0019665984647020732,0.002172438193104879,-0.00395018425983247,0.0032531752848568027,0.9942865067617249
2016-04-25,1,0.0016882865079134626,0.001851049805362727,-0.005651480261838957,0.0044753466072659405,0.994275569714648
2016-04-27,1,0.0018097976441917205,0.0019901159789582415,-0.006529338352770181,0.005040756762106124,0.9935078199247648
2016-04-29,1,0.0015860727855440103,0.0017556093184960993,-0.005651480261838957,0.005688774747518282,0.9942550921337333
2016-05-03,1,0.0018282735417478437,0.002048615235890871,-0.005651480261838957,0.005688774747518282,0.9940375918305283
2016-05-05,1,0.0015572169490920588,0.0017211287286915257,-0.006529338352770181,0.005688774747518282,0.9936114820347206
2016-05-09,1,0.0013773506535670415,0.0014852260210920947,-0.006529338352770181,0.006158983014794242,0.9935421258654233
2016-05-11,1,0.001509175451942245,0.00164505420094277,-0.007898478350730369,0.006158983014794242,0.992557356159898
2016-05-13,1,0.001085881377315768,0.0011393761290872109,-0.010260944077885322,0.006158983014794242,0.9914757328282208
2016-05-17,1,0.0011801112172344216,0.0012793814333333531,-0.009862614273444774,0.005631817423503591,0.991918942625105
2016-05-19,1,0.000961777062658913,0.0010427928154119444,-0.007908879939434123,0.005631817423503591,0.9923019586557907
2016-05-23,1,0.0010109184892558153,0.0011173237629754204,-0.005893635437278151,0.006663893561714802,0.9918391950957853
2016-05-25,1,0.0006508176978007084,0.0006784965808074874,-0.004444434975385382,0.007130580046530829,0.9917362610473849
2016-05-27,1,0.000417236075637514,0.0004501549288346561,-0.011691169713018484,0.007130580046530829,0.9876001928353999
2016-06-01,-1,-0.000373221050820983,-0.00018514263199526288,-0.011691169713018484,0.010890596160807143,0.986704209260007
2016-06-03,-1,-0.0010313996615925894,-0.0007455654901959059,-0.006144954547807296,0.014046752683557479,0.9863371528476026
2016-06-07,-1,-0.0007979188901473178,-0.0005345514146835179,-0.01142908591578557,0.014046752683557479,0.9862494083187378
2016-06-09,-1,-0.0005493088868499761,-0.0003031829615287742,-0.006211721270719688,0.011537928947214275,0.9869882203215472
2016-06-13,-1,-0.0018947834779333734,-0.0014525724651994602,-0.003020447995214815,0.011537928947214275,0.9869669288808868
2016-06-15,-1,-0.0015844911429618168,-0.001227918441326398,-0.00027448874304323613,0.011537928947214275,0.9858999281972988
2016-06-17,-1,-0.001410723183940261,-0.0011039666902111066,0.0008181290308257273,0.011537928947214275,0.9858694264315593
2016-06-21,-1,-0.0009413324771500188,-0.0006833121514461543,0.0008181290308257273,0.010312111963317595,0.9868432648027955
2016-06-23,0,-8.460816651683956e-05,4.216330655352525e-05,-0.00597523592244995,0.010145654712234902,0.9865875615949633
2016-06-27,-1,-0.0030287470864902746,-0.0025266156420537156,0.0005147526604662042,0.010145654712234902,0.989449085571834
2016-06-29,-1,-0.002398583166770758,-0.0019515107974447377,-0.0022363304752836153,0.008776801939974738,0.9912481409970091
2016-07-01,-1,-0.0017419921166611466,-0.0013872139499264645,-0.0033828524546434154,0.007286579907322947,0.9921986449573829
2016-07-06,-1,-0.002003916125125063,-0.0016043229932283176,-0.0033828524546434154,0.0054530488913695175,0.9924145749850078
2016-07-08,-1,-0.0006592908477348733,-0.0004901230053488391,-0.0033828524546434154,0.005020563184971492,0.9927806359596048
2016-07-12,-1,-0.0002672116717826578,-0.00014535640653431605,-0.004337379709608241,0.004267387553261237,0.9933707101299378
2016-07-14,-1,-0.000538844792341114,-0.0004007265722587753,-0.0033828524546434154,0.004339829590048836,0.9938770407923209
2016-07-18,-1,-0.0006615492318032806,-0.0005012323651334377,-0.0022363304752836153,0.006449882617480916,0.9929183955727209
2016-07-20,-1,-0.0003849769713274337,-0.0002671112518297499,-0.0036297129624926366,0.007206349792056143,0.9923451617463188
2016-07-22,-1,-0.0004606171574907649,-0.0003528324916870971,-0.003483544324977017,0.005430286236322254,0.9936128230588792
2016-07-26,-1,-0.000640490324512485,-0.000500517122604392,-0.003483544324977017,0.005430286236322254,0.9935286676524931
2016-07-28,-1,-0.0006416497131806478,-0.0004999266933717839,-0.0033378014635551396,0.005430286236322254,0.9937722604167406
2016-08-01,-1,-0.0009070483418692127,-0.0007176257755958415,-0.0020304619892205305,0.007430460237046995,0.993244624591845
2016-08-03,-1,-0.0011979925490196597,-0.0009924031636316063,-0.0013065371254945427,0.007430460237046995,0.9934834547111785
2016-08-05,-1,-0.0007945005770272128,-0.0006337667683133301,-0.0013065371254945427,0.006090062315725716,0.9941282707073621
2016-08-09,-1,-0.000687896017714889,-0.0005663722685891529,-0.0010212013896470653,0.006897789830932082,0.993785557493179
2016-08-11,-1,-7.990946002584901e-05,-4.397335542266365e-05,-0.003166020200150987,0.006090062315725716,0.9928342187326203
2016-08-15,1,0.0005354497387187063,0.0005700070845847032,-0.003977942892880967,0.005427474928903529,0.99234781868661
2016-08-17,1,0.0004377501342365711,0.00047564936995992844,-0.003166020200150987,0.005427474928903529,0.9926245135347134
2016-08-19,1,0.0005296720570099914,0.0006000470683594755,-0.003166020200150987,0.005427474928903529,0.9925590233117038
2016-08-23,1,0.0006860954505527193,0.0007872010954113819,-0.003166020200150987,0.006801098735760318,0.992217408813313
2016-08-25,1,0.0005007958595405889,0.000566496385132953,-0.0047752024807944885,0.006801098735760318,0.9915164926675947
2016-08-29,1,0.0008743466551461448,0.0009808497585189458,-0.0051260952917270555,0.006801098735760318,0.9914523729715314
2016-08-31,1,0.0010036719403362468,0.0011336063402613184,-0.008888547987766482,0.0063213208523106405,0.990985370715295
2016-09-02,1,0.001294758775006543,0.0014824960637131851,-0.008888547987766482,0.009301426677761267,0.990290835800357
2016-09-07,1,0.0013818206339456236,0.0015778393365557231,-0.01268991721963641,0.006591848439036018,0.9898883572916471
2016-09-09,1,0.00044293648290929535,0.0005225753216326996,-0.008229838282822928,0.006591848439036018,0.9915483597066552
2016-09-13,1,0.00032895578914058146,0.00038014018997559537,-0.007939342338862197,0.005184837923128348,0.9926597636717818
2016-09-15,1,0.000499713797312435,0.0005639863791484176,-0.007939342338862197,0.005184837923128348,0.9925831723736627
2016-09-19,1,0.0004037073522600704,0.0004662165499184933,-0.007710985791575342,0.006321339067473501,0.9924918994777964
2016-09-21,1,0.0004644105814450248,0.000512402737872994,-0.009000890195166979,0.005184837923128348,0.9914216163382887
2016-09-23,1,0.00033503197675632953,0.0003736376570613738,-0.008742153159266932,0.004101624725711207,0.9918519838395288
2016-09-27,1,0.000504458373560953,0.0005613860422170148,-0.008742153159266932,0.004101624725711207,0.9920175119731806
2016-09-29,1,0.00029196053383341174,0.0003274937993286323,-0.007710985791575342,0.0024070218413065163,0.9923228627795309
2016-10-03,1,0.0004762162142379663,0.0005438756430174642,-0.007710985791575342,0.0028775046556369166,0.9927769950227012
2016-10-05,-1,-1.4808313805926686e-05,-1.3503904242158614e-05,-0.007443937882381201,0.0028775046556369166,0.9932127025276225
2016-10-07,-1,-0.0003611733735489638,-0.0003102095133872179,-0.006759817832098096,0.004021877244906751,0.993496866868661
2016-10-11,-1,-0.0006394375223019743,-0.0005417457837153502,-0.006161024703924332,0.00721835021006427,0.9930236568827301
2016-10-13,-1,-0.0006381510912445382,-0.0005370477059017814,-0.006161024703924332,0.004419776082680383,0.9932915171646018
2016-10-17,-1,-0.0004200466346027205,-0.0003417473779030936,-0.006161024703924332,0.00721835021006427,0.9920148673956924
2016-10-19,-1,-0.0011058474240245315,-0.0009610171632401231,-0.005582116930915935,0.008971690588170933,0.9923177032976649
2016-10-21,-1,-0.0012584110860659162,-0.0011013022081402851,-0.005582116930915935,0.010114821165877736,0.9900703412936905
2016-10-25,-1,-0.0013413375438825993,-0.0011579870355343832,-0.005582116930915935,0.012322490563819722,0.9889495801007417
2016-10-27,-1,-0.0013906594221965887,-0.0012250871983298952,-0.0004918417840094532,0.012322490563819722,0.9888303323103887
2016-10-31,-1,-0.0008460349681045213,-0.0007655534676864673,-0.002751359220333654,0.012322490563819722,0.9893307527798465
2016-11-02,-1,-0.0015979541886199976,-0.0013920907659550187,-0.0005920321254152718,0.012322490563819722,0.9883113759528915
2016-11-04,-1,-0.0014933408162818044,-0.0012910514824400364,-0.003880253941893165,0.012322490563819722,0.9880978176194174
2016-11-08,-1,-0.0008739127606596394,-0.0007393878385504537,-0.0057736340170744405,0.012251937147689565,0.9877846688204416
2016-11-10,-1,-0.0008087487418569981,-0.0007167616809432592,-0.003128631776628738,0.013904944329558924,0.9873567433054488
2016-11-14,1,0.0005763126089149422,0.000689704826917218,-0.003128631776628738,0.012140018175722423,0.9887691080609736
2016-11-16,-1,-0.0004311542728992898,-0.0002700526127391391,-0.0037362180027598352,0.011882476970223453,0.9891760478646894
2016-11-18,1,0.0001191470508195898,0.0001674744007169416,-0.003828006846594634,0.00901688912126172,0.9907867277944549
2016-11-22,1,0.0014476170359116786,0.0016017104984104244,-0.003912796667407097,0.0058116999573152575,0.9920140228493183
2016-11-25,1,0.001642076833402477,0.00181063192908056,-0.003912796667407097,0.004526306740482627,0.9922844226054541
2016-11-29,1,0.0018619372525277792,0.002096806332958275,-0.006213383770621663,0.005274448118210921,0.9917604152320543
2016-12-01,1,0.0018393438823720788,0.0021023767981386793,-0.005314661539071216,0.004526306740482627,0.9922490075584603
2016-12-05,1,0.001042054672364073,0.0011657841124243958,-0.003912796667407097,0.005274448118210921,0.9929164392529288
2016-12-07,1,0.0007393389886880337,0.0008200715621946163,-0.003912796667407097,0.005274448118210921,0.9937668788408237
2016-12-09,1,0.0014117732798936773,0.0015953760907514176,-0.004875125478671959,0.004526306740482627,0.9941349541899553
2016-12-13,1,0.0016876362271681876,0.0018817889977973395,-0.004875125478671959,0.0029923670010301886,0.9941527655298523
2016-12-15,1,0.0014923430022352247,0.0016567198895715953,-0.005106818223598505,0.0029923670010301886,0.9940037129813345
2016-12-19,1,0.0006607472059550732,0.0007153358858906968,-0.005106818223598505,0.004171867817325583,0.994931807922083
2016-12-21,1,0.0006098807319466076,0.0006532210312041192,-0.005106818223598505,0.0044841343823541335,0.9948844066876561
2016-12-23,1,0.0003675868265707898,0.00039144192599480944,-0.005106818223598505,0.005876075387921676,0.9943362916138447
2016-12-28,1,0.0004584551902177067,0.0004730328649126856,-0.004631125451863201,0.006815312056042806,0.9946956644575641
2016-12-30,-1,-9.557046286593791e-05,-3.0111605204096538e-05,-0.004631125451863201,0.006815312056042806,0.9944302904159017
2017-01-04,1,0.00041841853145008104,0.0004415181824510352,-0.005106818223598505,0.005876075387921676,0.9942865698751361
2017-01-06,1,0.0008734826694166873,0.001006844472742397,-0.004631125451863201,0.0059980484110489325,0.993932665102953
2017-01-10,1,0.0004165696344901462,0.00047403619754778634,-0.004843430438137296,0.006815312056042806,0.9920835050324303
2017-01-12,1,0.0004250100781936579,0.0004785053495781759,-0.004260456864750298,0.006936806255815524,0.9920714322707453
2017-01-17,1,0.0002604080468708468,0.0002982126788645215,-0.004615061973119087,0.007154856958173195,0.991575405500481
2017-01-19,1,0.00011682251714656818,0.00012962242615875965,-0.0037439339753521494,0.007261686399431456,0.9915508735443856
2017-01-23,1,0.0004780260346692023,0.0005668479114999186,-0.0037439339753521494,0.007261686399431456,0.992064262466862
2017-01-25,1,0.000981166762522547,0.0011419969469095936,-0.0037439339753521494,0.007067116449707524,0.992782750008227
2017-01-27,1,0.001270802927029611,0.0014807904747928219,-0.0037439339753521494,0.007067116449707524,0.9926998585427325
2017-01-31,1,0.0009150216653594363,0.0010859134120185963,-0.0037439339753521494,0.007388729627669916,0.9922785380936213
2017-02-02,1,0.00020586409036328767,0.0002189168347588756,-0.0037439339753521494,0.007388729627669916,0.992114610066139
2017-02-06,1,0.0008522902088696538,0.0009506646396087253,-0.006303826983450183,0.007067116449707524,0.9924034314018869
2017-02-08,1,0.0002798483774533866,0.0003182885252456561,-0.0040669972045817475,0.007067116449707524,0.9941259010667731
2017-02-10,1,0.00028172164065880934,0.0003088790321659189,-0.005373526632042497,0.00237356533243762,0.9942439251806761
2017-02-14,1,0.0003180929354559351,0.0003658529130803292,-0.004044899754407094,0.0021272540126793115,0.9948132625166565
2017-02-16,1,0.0002892451942638136,0.0003207765880248611,-0.0028402986122996864,0.0009103789959158588,0.9952866577870342
2017-02-21,1,0.0003913435183947186,0.0004492171623345462,-0.00397974564283502,0.0009103789959158588,0.9949145932810123
2017-02-23,1,0.00024678962046561945,0.0002689611673350512,-0.00397974564283502,0.0018028771132106007,0.994757606837849
2017-02-27,1,0.0005505490107753233,0.0006192064085823545,-0.00397974564283502,0.0006505281532610543,0.9948844875034378
2017-03-01,1,0.0003285841019086741,0.00033977634036586594,-0.0033938028431605215,0.0006505281532610543,0.9955402459504855
2017-03-03,-1,-0.00015744293799682473,-9.777871129329856e-05,-0.00258539278444297,0.003625420404428514,0.9956239540476407
2017-03-07,-1,-0.0006893244350122467,-0.0005614783610038617,-0.0022720343466680268,0.003625420404428514,0.9960606669341757
2017-03-09,-1,-0.00037234416967074955,-0.0002818812921436719,-0.0023701741568851985,0.0017862757202736959,0.9965639745777018
2017-03-13,-1,-0.0004988277919622214,-0.00040541682497419917,-0.0023701741568851985,0.0023047614383128498,0.9964457337973766
2017-03-15,-1,-0.0009283460374506543,-0.0007375279900827695,-0.0025122034195904745,0.0013515898625474428,0.9967546399950017
2017-03-17,-1,-0.0010858477535639437,-0.0008649018754504088,-0.0025366353778388815,0.0023047614383128498,0.9957966351388633
2017-03-21,-1,-0.001209680803467289,-0.000983778205989271,-0.002455774596777577,0.0023047614383128498,0.9944986993782883
2017-03-23,-1,-0.001415321689057958,-0.0011469978208259448,-0.0025366353778388815,0.0023047614383128498,0.9939920841582792
2017-03-27,-1,-0.0014023014294490476,-0.001147899547232659,-0.0025366353778388815,0.0035148256134796027,0.9937427697944594
2017-03-29,-1,-0.0013299686776505597,-0.0010683341430181717,-0.0035083943531763286,0.002273430305642181,0.9941317728335634
2017-03-31,-1,-0.0009232290903735628,-0.0007162483847773863,-0.006112695488049444,0.0014616708881626918,0.9939524211747398
2017-04-04,-1,-0.0007551322847567678,-0.0005950113886525942,-0.00370527796735318,0.002249190630358266,0.9940431199451816
2017-04-06,-1,-0.0011067896324794791,-0.0008866324495824231,-0.00370527796735318,0.0034107754549571887,0.9936092165992015
2017-04-10,-1,-0.0007171620733630578,-0.0005911318605365069,-0.0025366353778388815,0.0034107754549571887,0.993886289515594
2017-04-12,-1,-0.0004913569507743839,-0.00041892358700612147,-0.0015121517441813522,0.0034107754549571887,0.9939643205917034
2017-04-17,1,3.8014288662444715e-06,1.744371144347253e-05,-0.007493822511795976,0.0032650917758176657,0.9942192622691763
2017-04-19,-1,-0.00026002400449143097,-0.00025739347972630465,-0.0052299013625986225,0.0032650917758176657,0.995377305518034
2017-04-21,-1,-0.00020647850335118185,-0.00018877412098465635,-0.0032906888702615615,0.0034107754549571887,0.995160715947018
2017-04-25,-1,-0.000107581823564625,-7.661799462002016e-05,-0.0052299013625986225,0.00358956135838274,0.9946953515473042
2017-04-27,-1,-0.0002991530796160057,-0.0002943476188585922,-0.0032906888702615615,0.004501945919002205,0.9946244300018601
2017-05-01,-1,-0.000652928444062366,-0.0005861920304612783,-0.0031227360890338563,0.00358956135838274,0.9951949971582819
2017-05-03,-1,-0.0006310939863765758,-0.0005575098821955929,-0.0031227360890338563,0.004501945919002205,0.9942733852813427
2017-05-05,-1,-0.0001590945291115632,-0.00015595257883027288,-0.004234894696255048,0.003927354568317831,0.9943483083468737
2017-05-09,1,0.00014206835270391436,0.00020827454927908342,-0.00852714185504864,0.003927354568317831,0.9923930079811437
2017-05-11,1,0.00012922193258892885,0.0001920576708854723,-0.00852714185504864,0.004501945919002205,0.991458261027591
2017-05-15,-1,-0.0006349187838700543,-0.0005714808284250435,-0.0050091769183533905,0.004501945919002205,0.992234437416987
2017-05-17,-1,-0.0007782979777882605,-0.000700153489734836,-0.004505318574670275,0.006052078198228428,0.9917980822473399
2017-05-19,-1,-0.00016973449975512053,-0.0001697026137203611,-0.004505318574670275,0.005416604629824465,0.9924130418087347
2017-05-23,-1,-0.0003519868590097973,-0.0003262705573931335,-0.004505318574670275,0.005416604629824465,0.9921909659194506
2017-05-25,-1,-0.0002730876971776225,-0.0002451890272794352,-0.004904197815958442,0.00459861562923285,0.9923385060617756
2017-05-30,-1,-0.0002144666519849445,-0.00020253876612023744,-0.004904197815958442,0.004635600470142626,0.9921919965616843
2017-06-01,1,0.0003354594573419413,0.0003970121430096542,-0.00521628977074585,0.004635600470142626,0.9927275998328958
2017-06-05,1,2.8462065726590335e-05,4.0157475499572634e-05,-0.005051230121627117,0.004635600470142626,0.9927617014137166
2017-06-07,-1,-0.0010792353280590832,-0.0009643957813263149,-0.0047028115550073685,0.004635600470142626,0.9935577556267172
2017-06-09,-1,-0.0009274347155351226,-0.0008222914248163921,-0.0046760842231994915,0.004333545671989847,0.9944316508222788
2017-06-13,-1,-0.0008519778347779236,-0.0007526914442613736,-0.004934721514371144,0.004333545671989847,0.9943589226959839
2017-06-15,-1,-0.00039401940821162684,-0.0003548884852463748,-0.004934721514371144,0.004333545671989847,0.9945198947205978
2017-06-19,1,0.00012503178834792766,0.00017511204507910145,-0.0050250371897715765,0.0031815473770549106,0.9946382410160689
2017-06-21,-1,-5.5240167022519994e-05,-1.708943182703909e-05,-0.004934721514371144,0.003993633007527437,0.9940949843283623
2017-06-23,-1,-0.0003384595113522951,-0.0003218556292770467,-0.0050250371897715765,0.003993633007527437,0.9940008523282275
2017-06-27,-1,-0.00015590176640556904,-0.00015375069181370696,-0.005188853256860764,0.002909453762037043,0.9924408504686267
2017-06-29,1,0.00033790337494788445,0.00044700487234482586,-0.005188853256860764,0.0016258362122568665,0.9930366738236115
2017-07-03,-1,-8.865372461728049e-05,-8.219071987707543e-05,-0.005110274461294141,0.0016402615140759557,0.9930801494558437
2017-07-06,-1,-0.000652033723474571,-0.0006001116561191044,-0.004944855194347945,0.0034820012471280235,0.9935104669670051
2017-07-10,-1,-0.0008888853530140085,-0.0008053459210134054,-0.005079116855186831,0.0034820012471280235,0.9934866722269566
2017-07-12,-1,-0.001076445733304261,-0.0009790377861108495,-0.005181310337748702,0.0034820012471280235,0.9933997487372733
2017-07-14,-1,-0.0006089171883878033,-0.0005679353114567766,-0.0054423042757835655,0.0011122304362794345,0.9933532104757139
2017-07-18,-1,-0.0006400069082878775,-0.0005969727637288014,-0.005348831457461635,0.0011122304362794345,0.9932844036288453
2017-07-20,1,0.00026280401839207747,0.0003541406894918093,-0.006301998319566547,0.0011122304362794345,0.9936696147635516
2017-07-24,1,0.0001054678752024185,0.00018320212429025264,-0.006565563207151874,0.00219727791537121,0.9934149103687893
2017-07-26,-1,-0.0012834630576181807,-0.0011690817322521656,-0.005348831457461635,0.0033764812995021065,0.9913416067392619
2017-07-28,-1,-0.0010840464152289042,-0.0009667822122263449,-0.005348831457461635,0.004748773866870671,0.9910495992773753
2017-08-01,-1,-0.0007986664168755888,-0.0007296205414074955,-0.005348831457461635,0.0033764812995021065,0.9910727163312301
2017-08-03,-1,-0.0007323992479189756,-0.0006623788273479286,-0.006243644064744758,0.00219727791537121,0.991365544903363
2017-08-07,-1,-0.0007632061189682315,-0.0006985549297245562,-0.0063442102704547865,0.00219727791537121,0.9912638747242115
2017-08-09,-1,-0.0007603371250586367,-0.0006983705500629561,-0.007509553430735705,0.0026471353740384726,0.9903373027466204
2017-08-11,-1,-0.0011417646205521162,-0.0010291890354897438,-0.0063442102704547865,0.004854596112526308,0.990265169340526
2017-08-15,-1,-0.0008955499313136518,-0.0008159182337383168,-0.0063442102704547865,0.004854596112526308,0.9900049509532768
2017-08-17,-1,-0.0011013365744571492,-0.0009949606864430144,-0.005610213988795666,0.004854596112526308,0.9905574736516334
2017-08-21,-1,-0.0011049650444658761,-0.0010130453501396995,-0.005052526357712995,0.004854596112526308,0.9909462238716631
2017-08-23,-1,-0.0020683836011968415,-0.0018812991987169178,-0.004895672148553,0.004854596112526308,0.9940256135222447
2017-08-25,-1,-0.001857692430750619,-0.001693059973247053,-0.004895672148553,0.0076854036835430255,0.9932679474043292
2017-08-29,-1,-0.0019164255629080908,-0.0017459901742004087,-0.005029485589979809,0.0076854036835430255,0.9928705799492218
2017-08-31,-1,-0.002039893789153596,-0.0018507919994349936,-0.005029485589979809,0.0076854036835430255,0.9925709291867378
2017-09-05,-1,-0.002231709669974973,-0.0020199261546222677,-0.005029485589979809,0.009893791017004747,0.9912916648843719
2017-09-07,-1,-0.001619557202174559,-0.0015056504897248365,-0.004713276344840473,0.009893791017004747,0.9913938836480534
2017-09-11,-1,-0.0016613666876405004,-0.001509601250882692,-0.006528874465742482,0.009893791017004747,0.9912109579994073
2017-09-13,-1,-0.0015378471118246808,-0.0014001261915902315,-0.00610439337372887,0.008033826922465312,0.9918601013958473
2017-09-15,-1,-0.00160496563727492,-0.0014667492480713942,-0.005929677825927405,0.010402212593997893,0.9914505506567428
2017-09-19,-1,-0.0015234950569740129,-0.0013866089957354304,-0.009801276386504446,0.01076712964573803,0.9898280444862718
2017-09-21,-1,-0.0009633610634436744,-0.0008861083278494616,-0.01023823128171981,0.010402212593997893,0.9893617303543049
2017-09-25,-1,-0.00037593984321331237,-0.0003736059518644267,-0.01023823128171981,0.007941929371480567,0.9894404315835853
2017-09-27,-1,-0.0003366851922363841,-0.0003220439484970248,-0.013242486110179558,0.007941929371480567,0.9879771822570187
