JNU-Tangyin/eata/results/Batch4_SP500/Batch4_SP500-NSC.csv
Date,Action,Predicted_Q25,Predicted_Q75,Actual_Q25,Actual_Q75,RL_Reward
2010-12-14,0,0.0,0.0,-0.0017537525432116878,0.006104888119264982,0.9944915354847578
2010-12-16,0,0.0,0.0,-0.0038182765620117746,0.005528779626608937,0.9945828263859463
2010-12-20,0,0.0,0.0,-0.0022936808431667137,0.005528779626608937,0.9947174627571064
2010-12-22,0,0.0,0.0,-0.004531058760392574,0.005265730522341375,0.9941922771431118
2010-12-27,0,0.0,0.0,-0.005598327256813554,0.005674739725449959,0.9931571628015017
2010-12-29,0,0.0,0.0,-0.006437964060229381,0.005674739725449959,0.9927567835355398
2010-12-31,0,0.0,0.0,-0.006614093934141706,0.007427921622100886,0.9906367314539049
2011-01-04,0,0.0,0.0,-0.007498261331136973,0.007427921622100886,0.9899004195360923
2011-01-06,1,5.8984560254184506e-05,0.00016035082837110513,-0.007498261331136973,0.007427921622100886,0.9899960777986689
2011-01-10,1,0.0011379476492213458,0.0011989598028209886,-0.007498261331136973,0.004741040761145918,0.9907262733807575
2011-01-12,1,0.0003503602135049306,0.00043080077742874037,-0.006614093934141706,0.007391220577185003,0.9906208211542308
2011-01-14,-1,-0.00032769074228808826,-0.00012583619293755443,-0.006614093934141706,0.00844814608781699,0.9900491431368715
2011-01-19,-1,-0.0006775173656782015,-0.00043158230602528185,-0.006465043392401563,0.00844814608781699,0.9900058901966923
2011-01-21,-1,-0.0012259031251523962,-0.0009170807086509281,-0.003031623870302503,0.00844814608781699,0.9902693767967717
2011-01-25,-1,-0.0007098296127631675,-0.0005353049070129734,-0.003974411482702125,0.007391220577185003,0.9908972533182524
2011-01-27,-1,-0.0005262879127126824,-0.00040326203324116214,-0.0016289246856078733,0.00847593765033409,0.9905436977666187
2011-01-31,-1,-0.0005493397278080965,-0.00043248572648824535,-0.0016289246856078733,0.00847593765033409,0.9914277117283323
2011-02-02,-1,-0.0008757330900185452,-0.0007299750333376277,6.184693046901651e-05,0.00847593765033409,0.9922417986893864
2011-02-04,-1,-0.0008015483901114746,-0.0006518474484401608,-0.003936058049767504,0.00847593765033409,0.9919414208081525
2011-02-08,-1,-0.000754051929360681,-0.0006021069113242758,-0.004605348439417223,0.008621212466521921,0.9916432538565214
2011-02-10,1,8.230084554426874e-05,0.000123337723762785,-0.00662663959390483,0.008621212466521921,0.9914212309401885
2011-02-14,1,0.0002670873567294778,0.0002865137769850738,-0.0069217310591413415,0.007380621575126044,0.9917511542459573
2011-02-16,1,0.0005886699636380549,0.0006517215103122964,-0.007538000957605699,0.008621212466521921,0.9900047055491765
2011-02-18,1,0.00031078256072352805,0.0003117423387256349,-0.007538000957605699,0.00972242664178202,0.9889454459449534
2011-02-23,-1,-0.0003165835682438533,-0.00023186088167043197,-0.007163618140545651,0.00972242664178202,0.9891532480274465
2011-02-25,-1,-9.530541073409361e-05,-1.9514422429323173e-05,-0.007163618140545651,0.013852266788292756,0.9884271901321703
2011-03-01,0,-5.782150223016257e-06,3.8002228701423095e-05,-0.0069217310591413415,0.012916706570829134,0.9890633666317796
2011-03-03,1,0.0006605659021493071,0.0007199223391375366,-0.007163618140545651,0.012916706570829134,0.9891703328353733
2011-03-07,-1,-0.00014095940452687927,-7.120027275961472e-05,-0.0070408362997016905,0.012916706570829134,0.9895995548151199
2011-03-09,1,0.0004911709746823877,0.0005340695695537372,-0.007689290516099227,0.012047421288556936,0.9898086506024792
2011-03-11,1,0.000854393633356956,0.0009424545478959276,-0.007689290516099227,0.007884074039444824,0.9906132258388058
2011-03-15,1,0.0009240519837107393,0.00104019857627632,-0.007452809304339919,0.007884074039444824,0.991333220387167
2011-03-17,1,0.0007309441558193651,0.0008179330513973177,-0.007452809304339919,0.004714632485008218,0.9927361184622061
2011-03-21,1,0.0012170983463127218,0.001370008611348577,-0.007689290516099227,0.003827699505317533,0.9928937882094687
2011-03-23,1,0.00035087078095391463,0.000352316908045324,-0.007621165958212449,0.00435182277255486,0.9931011291194034
2011-03-25,1,0.0011693132820554924,0.0012974578728962912,-0.007621165958212449,0.003827699505317533,0.993637119633172
2011-03-29,1,0.0014285514309411917,0.0015923055130669138,-0.007621165958212449,0.003827699505317533,0.9930555281243796
2011-03-31,1,0.0012144142671335185,0.001351234534947206,-0.006701149561294114,0.006665043543752201,0.9893819255393435
2011-04-04,1,0.001064112713530742,0.0011625570475364093,-0.006701149561294114,0.006665043543752201,0.9894132200561206
2011-04-06,1,0.0009000735639753408,0.0009892325517546865,-0.006701149561294114,0.006665043543752201,0.9885261663647713
2011-04-08,1,0.0003705960679885866,0.00037720936620450963,-0.002470649179055433,0.010322251918386711,0.9887198451643668
2011-04-12,1,0.0004415112013918934,0.0004417218176643308,-0.006730576827173616,0.011060528786925402,0.9873208704955171
2011-04-14,1,0.0002869339501441278,0.0002927984912359518,-0.006730576827173616,0.011060528786925402,0.9869597425418536
2011-04-18,-1,-0.0002904431750061749,-0.00017392899526532356,-0.006433127374408607,0.010322251918386711,0.9876968658007605
2011-04-20,-1,-0.0001782725747980351,-0.00010318844088086409,-0.003633024529987896,0.011128681496474929,0.9870570575556536
2011-04-25,0,-3.5325042624814734e-05,4.4849095419662206e-05,-0.006302377358449361,0.010322251918386711,0.9872993227422747
2011-04-27,1,0.0007641491019526615,0.0008340653600810149,-0.006803552625975788,0.010322251918386711,0.9871356570025646
2011-04-29,1,0.0023373143636342625,0.002604975407571544,-0.006803552625975788,0.007912647670397848,0.9906279906493958
2011-05-03,1,0.0020012087538273738,0.002198528252105478,-0.007554238867350464,0.008767436029984753,0.9887516447069661
2011-05-05,1,0.0015479419563072944,0.0016987923830293697,-0.007554238867350464,0.010130213427295134,0.9893890070970794
2011-05-09,1,0.0015918172922782443,0.001739083585739094,-0.007554238867350464,0.010578977697877795,0.9889649824817003
2011-05-11,1,0.0014035517573948299,0.0015397307315313778,-0.007554238867350464,0.010578977697877795,0.9893582481814401
2011-05-13,1,0.0006890993507153491,0.0007045486469339016,-0.007554238867350464,0.010578977697877795,0.9896117786094586
2011-05-17,1,0.0006286390421053271,0.0006475814582650747,-0.008899611342537802,0.012019225007971352,0.9883757038419938
2011-05-19,1,0.001207416878508561,0.001309463450083215,-0.01070792965358584,0.011049735964578318,0.9884910426123634
2011-05-23,1,0.0008234884442551754,0.0008655645500590239,-0.01070792965358584,0.012019225007971352,0.987781699662566
2011-05-25,1,0.0009408911707093552,0.0009998904085968432,-0.011284225899741089,0.011049735964578318,0.9882343363146096
2011-05-27,1,0.0008623872064212809,0.0009140255469101195,-0.011284225899741089,0.011049735964578318,0.9879194697944386
2011-06-01,1,5.4404225178700315e-06,5.369187168154292e-05,-0.01070792965358584,0.012688943530071746,0.9886672391554658
2011-06-03,1,0.0007381657693693884,0.0008182458572778853,-0.009884905767133908,0.01290966994610588,0.9882646931969218
2011-06-07,1,0.0008178519767497606,0.000892564408206185,-0.01070792965358584,0.012688943530071746,0.988232369853173
2011-06-09,1,0.0008030338816048013,0.0008739463642318507,-0.011284225899741089,0.011272975471945116,0.9881824131542337
2011-06-13,1,0.0003424768716346805,0.0003459937402747218,-0.011284225899741089,0.011272975471945116,0.987761158926825
2011-06-15,1,9.723475604264605e-06,7.597681405621231e-05,-0.010349661403458556,0.009982834633372345,0.9887076091886067
2011-06-17,-1,-0.00013623105903683846,-3.7850038733972435e-05,-0.00976548301709148,0.009426389892109765,0.9893916843251231
2011-06-21,1,0.0005852377792423116,0.0006063778554454947,-0.00976548301709148,0.009426389892109765,0.9898075331072221
2011-06-23,1,9.755013962982453e-05,0.00018333777480629665,-0.008147936599610358,0.010431110687274772,0.9890978574705498
2011-06-27,-1,-0.0003294435683083763,-0.0001714426809079643,-0.008240840494549196,0.010431110687274772,0.9891468098090681
2011-06-29,1,0.0002640795854468275,0.00034197047258766543,-0.008240840494549196,0.00799211325450663,0.989948754339193
2011-07-01,1,0.0010872072336743754,0.001113947244555124,-0.010179875752519683,0.006472345894347387,0.9907525159834866
2011-07-06,1,0.0009852526229754926,0.0010288772104388231,-0.010883269401976491,0.00645453028132592,0.9893680396193867
2011-07-08,1,0.0007540302689023686,0.0007791073200168351,-0.010883269401976491,0.005383543038831439,0.9883206287316942
2011-07-12,1,0.00023055961834306233,0.0002614274806644119,-0.010883269401976491,0.006508963826181407,0.9843522654931155
2011-07-14,1,0.00010842783796447374,0.00015459069433244394,-0.012598424086441903,0.006508963826181407,0.983422411261447
2011-07-18,-1,-0.0002680414442668746,-0.00015322678056156646,-0.012598424086441903,0.009709409174300767,0.9829124807106588
2011-07-20,1,0.00023907890328720333,0.00027706312111030557,-0.015239148775311294,0.00572877778284959,0.9831585580150586
2011-07-22,1,0.0003081559464345866,0.0003515310225609063,-0.01751934572153124,0.004875139368749328,0.9806564091270275
2011-07-26,1,0.00022778510034165246,0.0002586721475131403,-0.01751934572153124,0.00572877778284959,0.9795049602942959
2011-07-28,1,0.0003010663806218639,0.0003471630413339696,-0.018347264054763637,0.007198921458295015,0.9785102423164854
2011-08-01,-1,-0.00018033842805854027,-9.215769116794554e-05,-0.018347264054763637,0.015273633539329314,0.9777445654233476
2011-08-03,-1,-0.0006522563728509866,-0.0005264146633871425,-0.017512245852083413,0.016868083720105453,0.9789422944105001
2011-08-05,-1,-0.0013140368575767715,-0.0011000328066739385,-0.017512245852083413,0.016868083720105453,0.9793880991393735
2011-08-09,-1,-0.001250902216803186,-0.0010392534649074892,-0.016103863856722987,0.016868083720105453,0.9831525357615658
2011-08-11,-1,-0.0010518081745054734,-0.0008925921349833583,-0.01637983663446712,0.015273633539329314,0.9835311608114841
2011-08-15,-1,-0.0010783330848813813,-0.0008876783413925572,-0.01637983663446712,0.01541882712786716,0.9829358285214168
2011-08-17,-1,-0.001224403998643219,-0.0010509335007015486,-0.013782756331259444,0.01992608065233273,0.9816147078314489
2011-08-19,-1,-0.002666034532632514,-0.0023379929696936883,-0.0090126223774606,0.01992608065233273,0.9829603952651312
2011-08-23,-1,-0.0017887591069781009,-0.0015555238302790144,-0.013782756331259444,0.017887225095279815,0.9807165585641406
2011-08-25,-1,-0.003009853364527064,-0.0026298857149994422,-0.015212577512947781,0.018435289653158108,0.9801185251709287
2011-08-29,-1,-0.0021557353566589244,-0.0018556898296843562,-0.015212577512947781,0.017794808283651545,0.9803716759016171
2011-08-31,-1,-0.002046237553490925,-0.0017399830462003216,-0.02424946575505607,0.01872346338152856,0.9782354903817225
2011-09-02,-1,-0.002855978928326495,-0.0024673274808994696,-0.02424946575505607,0.01872346338152856,0.9773898550402639
2011-09-07,-1,-0.002251018815573569,-0.0019135268558819886,-0.02424946575505607,0.020900987624553127,0.9761002012072773
2011-09-09,-1,-0.003521612796790085,-0.0030290086643025207,-0.018428851026610838,0.022280382807524438,0.9751734117848513
2011-09-13,-1,-0.0023881396648521695,-0.00201959817256868,-0.018428851026610838,0.022280382807524438,0.9749776819502035
2011-09-15,-1,-0.0012404481311984773,-0.0010211746247858193,-0.018428851026610838,0.019882086990281784,0.9766700189650049
2011-09-19,-1,-0.0016772007762552907,-0.0014313973399243704,-0.018428851026610838,0.019882086990281784,0.9765959552276121
2011-09-21,-1,-0.003396521223698162,-0.0030725971513410237,-0.015969743039836518,0.026317621267558333,0.9785185773657518
2011-09-23,-1,-0.0025704193908186977,-0.002345011138122582,-0.010590144338772825,0.029414665042058204,0.9778504645631428
2011-09-27,-1,-0.002508389725750642,-0.002249198216503623,-0.015969743039836518,0.029414665042058204,0.9788255200248112
2011-09-29,-1,-0.001940165190525978,-0.0017681879600425832,-0.010590144338772825,0.029414665042058204,0.97785708004068
2011-10-03,-1,-0.0034342346631048137,-0.0030776535131923615,-0.0066638249672885215,0.029414665042058204,0.9796215845630503
2011-10-05,-1,-0.0017757681227337885,-0.0015847522318086244,-0.009947127149935488,0.023362877375839204,0.9815736054385632
2011-10-07,-1,-0.001654452158337547,-0.0014744217488602551,-0.007749313787144095,0.01787321205210635,0.9827347133376886
2011-10-11,-1,-7.776820486341099e-05,-3.1342234096878396e-05,-0.007749313787144095,0.014293465849147391,0.984205681545049
2011-10-13,-1,-0.0002889212109657278,-0.00028609876006744544,-0.013846610798339546,0.01787321205210635,0.98179911265117
2011-10-17,-1,-0.0006570292463313687,-0.000626422882581308,-0.010038911514168504,0.02208795227995624,0.9821829927749421
2011-10-19,-1,-0.0001701987132743616,-0.00013713838635599413,-0.010038911514168504,0.015311110508857622,0.9834609765865158
2011-10-21,1,0.0007906981374103303,0.0008989351779955116,-0.014148975624224519,0.007720052235506186,0.9846780563427592
2011-10-25,1,0.0002570280116824847,0.0003146703885638591,-0.014148975624224519,0.007720052235506186,0.9846096070052924
2011-10-27,1,0.002263254828359519,0.002600371144931491,-0.017097541591785875,0.005361889056069193,0.9874818977233043
2011-10-31,1,0.0017663966338181368,0.002039765959095386,-0.017097541591785875,0.007720052235506186,0.9866515786244358
2011-11-02,1,0.0010782998063645227,0.0012389142101181226,-0.011791972702834743,0.00975867555440351,0.9854424145549506
2011-11-04,1,0.0014918913938892476,0.0017073777932671919,-0.011791972702834743,0.00886514818561961,0.985855603923355
2011-11-08,1,0.001675905532791593,0.0019181295746648662,-0.013058155562131897,0.00886514818561961,0.9854199974181446
2011-11-10,1,0.002036571420685833,0.0023749761154344424,-0.013058155562131897,0.00886514818561961,0.9866142125860113
2011-11-14,1,0.002106896707811185,0.0024371838807988174,-0.01727479039320767,0.005632457223813378,0.9864776741419313
2011-11-16,1,0.0017480695936342326,0.0020242114544665487,-0.018366228997212103,0.004439739405547397,0.9862279176758845
2011-11-18,1,0.0018209206448827663,0.002146444167427486,-0.013347824286948116,0.0024915434877430154,0.9870018559783944
2011-11-22,1,0.001877974202669839,0.002258378768472681,-0.010482984000748225,0.009939216331972292,0.9868392012870485
2011-11-25,1,0.001464463914592256,0.0017732420676357336,-0.00973164635681223,0.009939216331972292,0.9872349006131371
2011-11-29,1,0.001982571845044411,0.002344195661203498,-0.010482984000748225,0.009800749432234997,0.9882460734125491
2011-12-01,1,0.002184946611024325,0.0025430363805628436,-0.010153707309911282,0.009800749432234997,0.9897116240827614
2011-12-05,1,0.002470597404386925,0.0028649294632078345,-0.010153707309911282,0.01018775980757939,0.9888431763585234
2011-12-07,1,0.0021799149410076505,0.002529294679565944,-0.009172844281591035,0.01018775980757939,0.9890177414139258
2011-12-09,1,0.002188409727340839,0.0025666391680621795,-0.0067106934416401995,0.01329982086478794,0.9893266238899947
2011-12-13,1,0.0014462532735181788,0.0017459798597061886,-0.0012853220444729871,0.01329982086478794,0.9907805996627032
2011-12-15,1,0.0008967733447070723,0.0011110709025463673,-0.0006209230111315359,0.01329982086478794,0.9905603687127148
2011-12-19,1,0.001064733226209621,0.0013265590734424311,0.00010297326465307199,0.014931169623833033,0.990172702451134
2011-12-21,1,0.0017943496396491468,0.0021224452383737016,-0.0033477365787608535,0.01329982086478794,0.9904802079337272
2011-12-23,1,0.0015811536082067403,0.001826538767842802,-0.006001952044240522,0.01329982086478794,0.9903790905988253
2011-12-28,1,0.0006283363072951195,0.0007037576955854154,-0.006001952044240522,0.01329982086478794,0.990249682017133
2011-12-30,1,0.0011586452889511363,0.0012953240475771402,-0.00911315593426084,0.010286312734150874,0.9896674730684393
2012-01-04,1,0.0019186899337051955,0.002151551841436663,-0.00911315593426084,0.00436405693857663,0.9902854143863532
2012-01-06,1,0.0018314549281893651,0.002072567280945737,-0.010814358187696403,0.00436405693857663,0.9892574747305739
2012-01-10,1,0.0023509072284318582,0.002639295026879237,-0.010814358187696403,0.002946512329496921,0.9903973628423913
2012-01-12,1,0.0013136288076212553,0.001332965090999966,-0.01140072815056262,0.0008896948198974409,0.9899911739965371
2012-01-17,1,0.000956888308616226,0.0009776777778214981,-0.01047408948004138,0.0008896948198974409,0.9906009460951789
2012-01-19,1,0.0012322891277979251,0.0012479497409619228,-0.01140072815056262,-0.0015812199278667687,0.9892708044283465
2012-01-23,1,0.0008110224777914755,0.0008301053838446486,-0.01047408948004138,0.0028050213614480416,0.9904881947666411
2012-01-25,0,0.0,0.0,-0.01047408948004138,0.0035288193247103895,0.990497913249045
2012-01-27,0,0.0,0.0,-0.00943103925457196,0.00698531921004484,0.9904011758227681
2012-01-31,0,0.0,0.0,-0.00926902145306526,0.00698531921004484,0.9903810758452217
2012-02-02,0,0.0,0.0,-0.009988036075521279,0.006053727296261972,0.9902411174044411
2012-02-06,-1,-0.0007049466616168176,-0.0005344362471321401,-0.009988036075521279,0.0035288193247103895,0.9907040069010413
2012-02-08,0,0.0,0.0,-0.010498249849073996,0.006053727296261972,0.9891449687680958
2012-02-10,0,0.0,0.0,-0.009800632877576746,0.006053727296261972,0.9893349713803304
2012-02-14,-1,-0.004009907787371116,-0.0032928482334956283,-0.010886689907818657,0.008208511148158737,0.9887189287104968
2012-02-16,-1,-0.004611833736992147,-0.003931182536672247,-0.009800632877576746,0.0085944359712648,0.9875025539519894
2012-02-21,-1,-0.004548838448913649,-0.0038282246673082138,-0.010886689907818657,0.0085944359712648,0.9871069248226061
2012-02-23,0,0.0,0.0,-0.013073062746735944,0.006924035159970198,0.9847648114134777
2012-02-27,0,0.0,0.0,-0.013073062746735944,0.004442231127238055,0.9842052838954614
2012-02-29,0,0.0,0.0,-0.010886689907818657,0.004442231127238055,0.9849554123846209
2012-03-02,0,0.0,0.0,-0.009971161997118609,0.004714432895556904,0.9851686408221055
2012-03-06,0,0.0,0.0,-0.009971161997118609,0.00855633792557076,0.9852953466310089
2012-03-08,0,0.0,0.0,-0.006989387375401203,0.011093576383405258,0.9857829646022299
2012-03-12,0,0.0,0.0,-0.012409063613145196,0.011093576383405258,0.984466102121393
2012-03-14,0,0.0,0.0,-0.010153812542762616,0.012770958051622563,0.9847829747906024
2012-03-16,0,0.0,0.0,-0.010153812542762616,0.012069328901275014,0.9868677213565193
2012-03-20,-1,-0.002240065604317804,-0.002139539652323716,-0.006255139519482259,0.012075043558639784,0.9869179539570888
2012-03-22,-1,-0.0021700454988146664,-0.002064969603918424,-0.006255139519482259,0.01223373874157355,0.9876620390683291
2012-03-26,-1,-0.0016802095873973883,-0.0016045356051916757,-0.006255139519482259,0.01192284583489192,0.9885333671863907
2012-03-28,-1,-0.002468960038856614,-0.0023352944244927946,-0.005583904328080704,0.01223373874157355,0.9864570760143678
2012-03-30,-1,-0.002051917423355762,-0.0019856014961055863,-0.006228011501374142,0.01223373874157355,0.9866418974369444
2012-04-03,-1,-0.0014079900773452505,-0.0013745745601522672,-0.006228011501374142,0.01223373874157355,0.9868049090704439
2012-04-05,-1,-0.0009228446713814679,-0.0008131394450150043,-0.0094981420994283,0.01192284583489192,0.9869095595678976
2012-04-10,-1,-0.0019508302160579872,-0.001935927397485904,-0.007508951651163422,0.01192284583489192,0.9869431287993711
2012-04-12,-1,-0.0008364770627913084,-0.0007249832979740018,-0.0094981420994283,0.0118272499512493,0.9878617442112214
2012-04-16,-1,-0.0008159899392360259,-0.0007122098562963552,-0.0094981420994283,0.009688086535471289,0.9882746341756292
2012-04-18,-1,-0.0005087097528875128,-0.00039863631214105065,-0.0094981420994283,0.004548185195230808,0.9892185192780661
2012-04-20,-1,-0.0007877524777093108,-0.0007362170043116572,-0.010915235018693613,0.004067804049249315,0.9886764477234219
2012-04-24,-1,-0.00030301378872690175,-0.00017388358160693622,-0.010915235018693613,0.004067804049249315,0.9876397472057612
2012-04-26,1,0.0009910183138203395,0.0012885399986958149,-0.010915235018693613,0.002424019598724749,0.9883151459669997
2012-04-30,1,0.0011316771806126457,0.0014769898738040568,-0.013599114630356296,0.0017804894604882824,0.9878346430704525
2012-05-02,1,0.0013054523526504283,0.0016512468565747721,-0.015593145779053217,0.001479008576141624,0.9882071363571954
2012-05-04,1,0.00024669533955008695,0.000433549747788959,-0.015593145779053217,0.001479008576141624,0.988629869710286
2012-05-08,-1,-0.0008422229141356742,-0.0008203063770453803,-0.013599114630356296,0.001479008576141624,0.9888282070034541
2012-05-10,-1,-0.0022745696088069802,-0.0020429368759354036,-0.01044458748827998,0.004637237888672632,0.9894852321917307
2012-05-14,-1,-0.002365615069026123,-0.0021109547352297147,-0.01044458748827998,0.006716263163893757,0.988656922876401
2012-05-16,-1,-0.0015007899438464348,-0.0014030065284790518,-0.01044458748827998,0.00815850699501595,0.9879035647944501
2012-05-18,-1,-0.002581089609282221,-0.0023798652985292925,-0.008203192525466583,0.012862954407760514,0.9871498607787844
2012-05-22,-1,-0.0016626303019841426,-0.0015418738905711483,-0.008203192525466583,0.011477590032027883,0.9884847530917366
2012-05-24,-1,-0.001039706368036638,-0.001017939076027383,-0.008203192525466583,0.007971302694900975,0.988664301603319
2012-05-29,-1,-0.0007804202075768819,-0.0007041873199207075,-0.008203192525466583,0.009041679709142894,0.9882724349997728
2012-05-31,-1,-0.001019272707936812,-0.0009777802093274544,-0.007710640931532968,0.009041679709142894,0.9885344674232476
2012-06-04,-1,-0.0011820904213077149,-0.0010971067197612567,-0.0014546882731565876,0.012301341507415589,0.9883324123181167
2012-06-06,1,2.9330905644109773e-05,0.00029919540109067547,-0.0014424622877612545,0.009041679709142894,0.9900963658506724
2012-06-08,1,9.83702168376227e-05,0.0003507317128374017,-0.002569554136559613,0.009041679709142894,0.9904678486770376
2012-06-12,1,0.0009512795664647087,0.0013676424783097014,-0.002569554136559613,0.007218703049887332,0.9911334207201484
2012-06-14,1,0.0010216022869919492,0.001386071443790285,-0.002569554136559613,0.008071341091878615,0.9903359749022764
2012-06-18,1,0.0025838905108186063,0.003165469503764234,-0.002569554136559613,0.006584702014035643,0.9925745520461984
2012-06-20,1,0.0021629765836333713,0.0026367165139560104,-0.002569554136559613,0.006584702014035643,0.9923536965510084
2012-06-22,1,0.000981610882265868,0.0012710869009284241,-0.002569554136559613,0.006584702014035643,0.9920180183540487
2012-06-26,1,0.0008503727011573601,0.001126208663069301,-0.003292849463477789,0.00548491951810347,0.9928614738239097
2012-06-28,1,0.0012993440856955316,0.0016262671989119364,-0.003292849463477789,0.007145113068884795,0.9913944621848974
2012-07-02,1,0.0017090719391454454,0.0021136648132080247,-0.003292849463477789,0.005576985642831935,0.9922481108767817
2012-07-05,1,0.0017566260077029547,0.002145733207886552,-0.0044169240238707925,0.004311797438543536,0.9919367153015203
2012-07-09,1,0.0015318478068185903,0.0018612437425094112,-0.0044169240238707925,0.005861198323495695,0.9910835044444446
2012-07-11,1,0.0007539306576703351,0.00090370843458753,-0.003292849463477789,0.005861198323495695,0.9917890095637536
2012-07-13,1,0.0020539005756352625,0.0023797738923915248,-0.0044169240238707925,0.003796621782614437,0.9917136531647713
2012-07-17,1,0.0022065705809006355,0.0025760890467701487,-0.004523574343597105,0.003796621782614437,0.9912203910912502
2012-07-19,1,0.0024328192065532833,0.002863782617736001,-0.004523574343597105,0.004635177802894377,0.9910214615495555
2012-07-23,1,0.0011718443769452662,0.0013836362561306897,-0.0035996583566168068,0.006242786567068077,0.9924799002496923
2012-07-25,1,0.0007038310668360379,0.0008311016266720967,-0.0031005639954545853,0.006242786567068077,0.9927785178476582
2012-07-27,1,0.001305814660313092,0.0014647122519487747,-0.003635208463192244,0.001757244217776066,0.9936958400186299
2012-07-31,1,0.0010998869987534966,0.0012590298584743702,-0.003242496952536382,0.00349751364241093,0.9939957569276684
2012-08-02,1,0.000661426882082872,0.0007306610799868462,-0.003242496952536382,0.00349751364241093,0.9938964934617279
2012-08-06,1,0.0006334552169852661,0.0006491622781733021,-0.003635208463192244,0.0013375461045526686,0.9939333400067774
2012-08-08,1,0.0014838205173721528,0.0017014447643177457,-0.006264287105080497,0.001489235390489539,0.9917708896462754
2012-08-10,1,0.0009629273974681912,0.0010537059007062134,-0.003635208463192244,0.001489235390489539,0.9929307633667672
2012-08-14,-1,-0.0004283106563488878,-0.0002927430779852306,-0.003242496952536382,0.005785509321414845,0.9925836763172026
2012-08-16,1,0.0003258564269482369,0.00034737735522599625,-0.003242496952536382,0.005785509321414845,0.9925115322830326
2012-08-20,1,0.00016170425178698979,0.00021831897671084011,-0.004570844491762991,0.004632968415051755,0.9924622583031983
2012-08-22,1,0.00024927197427319296,0.00026211744940977906,-0.013805193140115428,0.004632968415051755,0.987321597884002
2012-08-24,1,7.504677672739372e-05,0.00012861656137041295,-0.013805193140115428,0.006705814575145345,0.9863192395015042
2012-08-28,1,0.0006338834786240081,0.0007001694524919132,-0.014578746686052668,0.006705814575145345,0.9852326437712626
2012-08-30,-1,-0.0009072754832277875,-0.0007111440011177488,-0.014536475506998823,0.006705814575145345,0.985686116956983
2012-09-04,-1,-0.0007483269750439947,-0.0006453659935195587,-0.009875002639625353,0.007378559383386811,0.985482160427697
2012-09-06,1,3.730962635347718e-05,4.201194435183412e-05,-0.007905433446535628,0.00884213386215478,0.9865172890852328
2012-09-10,1,0.0005547331497344123,0.000674270638047953,-0.007905433446535628,0.008863135844726767,0.9862219239880388
2012-09-12,1,0.0013628283052716753,0.0015755557743081623,-0.008303672398400835,0.00884213386215478,0.9865115740335699
2012-09-14,1,0.0016650802036907134,0.0019503773544337862,-0.008303672398400835,0.008863135844726767,0.9854796875948922
2012-09-18,1,0.0016365572720079317,0.0019501177933159424,-0.008303672398400835,0.008863135844726767,0.9860045603628613
2012-09-20,-1,-0.00017085778604784195,-0.00010245241958703526,-0.007612149463163695,0.008863135844726767,0.990418716366712
2012-09-24,1,0.00047380387990225736,0.0006569054282658988,-0.007612149463163695,0.008863135844726767,0.9905986798997626
2012-09-26,-1,-0.001354301105036068,-0.0012448313947038996,-0.007744895780452097,0.008863135844726767,0.9875835970105837
2012-09-28,-1,-0.002115970165099751,-0.00187318789832233,-0.007435372388368294,0.009410130160402284,0.9866340288980615
2012-10-02,-1,-0.0018417471439767066,-0.0015795179327569688,-0.007744895780452097,0.008861208856390461,0.9864928542650636
2012-10-04,-1,-0.0011873908736535401,-0.0010002633375603759,-0.008751515093352825,0.0059715583660691594,0.9869766068142595
2012-10-08,-1,-0.0005150514367116292,-0.00040238822183727993,-0.010838238474626376,0.005390176408211493,0.9861161217459472
2012-10-10,-1,-0.002048571389417334,-0.0016717460011577028,-0.014476507679536513,0.005390176408211493,0.9855385553258758
2012-10-12,-1,-0.0006225273870932721,-0.00047726707010036965,-0.014476507679536513,0.005390176408211493,0.9859864545222561
2012-10-16,-1,-0.0004316435176274874,-0.0003119444024633925,-0.016191787580380715,0.004108823732329349,0.9850897849203714
2012-10-18,-1,-0.001519643327440005,-0.0012365011564226271,-0.016191787580380715,0.00707213622504176,0.9840257597935155
2012-10-22,-1,-0.0016203576318377262,-0.001314620932144503,-0.017637392876944706,0.004108823732329349,0.9846651760550675
2012-10-24,-1,-0.004456999804998285,-0.0037661452731065875,-0.014776277162580788,0.007903412262212351,0.9875882253746497
2012-10-26,-1,-0.002771314370644882,-0.002343481797982074,-0.014776277162580788,0.00839235131024301,0.9877287294218191
2012-11-01,-1,-0.0031204022527316017,-0.0026491471669417522,-0.01244540175536135,0.009323924102031604,0.9883195905755641
2012-11-05,-1,-0.003400621417515394,-0.00291553537056128,-0.014436927907330796,0.012084170690155566,0.9872589263384484
2012-11-07,-1,-0.0036897193730910513,-0.0032085915632989377,-0.01244540175536135,0.012824122159093619,0.9875129660896238
2012-11-09,-1,-0.003892990871347556,-0.0034685673100052607,-0.004687277274569572,0.012824122159093619,0.9877336677749182
2012-11-13,-1,-0.003196423806464169,-0.0028605554691615237,-0.008524518504108916,0.012824122159093619,0.9883319244568384
2012-11-15,-1,-0.004787700714579467,-0.004220376549500102,-0.003735497420451976,0.012824122159093619,0.9883275959308874
2012-11-19,-1,-0.0044939557252210455,-0.003954042928118996,-0.002092467839725391,0.012824122159093619,0.9892137070871326
2012-11-21,-1,-0.005086693445812696,-0.0045048187648759,-0.002092467839725391,0.012937787946123132,0.9889598028514369
2012-11-26,-1,-0.0035645891137274103,-0.0031797655585533817,-0.004661584521734279,0.012937787946123132,0.9908165885620286
2012-11-28,-1,-0.002161693308191208,-0.0019596372805408095,-0.00619943725906301,0.010174049956165058,0.9921529968486362
2012-11-30,-1,-0.002015716193241641,-0.001842243853421779,-0.00619943725906301,0.010102254805213498,0.9921542411317327
2012-12-04,-1,-0.002145367282858702,-0.0019237925772642903,-0.005077022458595529,0.010102254805213498,0.9921118452250651
2012-12-06,-1,-0.0004667364195731019,-0.00041333292126142195,-0.00619943725906301,0.010102254805213498,0.9915908193613098
2012-12-10,1,9.977883406962323e-05,0.00024266659782776093,-0.0063860101636829675,0.01205974431990025,0.9909703433720072
2012-12-12,0,-1.5321143258782005e-05,0.00011642893321020883,-0.0063860101636829675,0.01205974431990025,0.9908726593295091
2012-12-14,-1,-0.0006257962993919179,-0.0006232346471819368,-0.0063860101636829675,0.012696536721631213,0.990057036511905
2012-12-18,-1,-7.145077069893772e-05,-8.066847590197288e-07,-0.0063860101636829675,0.01205974431990025,0.9905735783708273
2012-12-20,1,0.0012377539444650243,0.0015542190939284947,-0.0063860101636829675,0.011498396478316207,0.9908381179178454
2012-12-24,1,0.0003399078867263891,0.0005367467991889339,-0.0033798501001942333,0.012696536721631213,0.9895300183731641
2012-12-27,1,6.97275890003079e-05,0.00017531903887466397,-0.0014278771793652762,0.012696536721631213,0.9897615856099243
2012-12-31,1,0.0007134319110610642,0.0009311172984256969,-0.0014278771793652762,0.012147791413048122,0.9889376972569877
2013-01-03,1,0.0008412441588285931,0.0010795775914993126,-0.0014278771793652762,0.011498396478316207,0.9896460287645381
2013-01-07,1,0.0014319961184369998,0.0017522248763481227,-0.0014278771793652762,0.011206248648311462,0.99082932823344
2013-01-09,1,0.0013207207221450983,0.0015909941406227128,-0.0014278771793652762,0.010737442103783577,0.9915279273214063
2013-01-11,1,0.00097758593751144,0.0012337143258858057,-0.00018716555566552945,0.011206248648311462,0.9909177971454938
2013-01-15,1,0.0021519128749432764,0.0025555314238808625,-0.00018716555566552945,0.011206248648311462,0.9916465297065805
2013-01-17,1,0.0021811975846685256,0.0025917096790525965,-0.0007189169224278661,0.011206248648311462,0.9915662065061787
2013-01-22,1,0.0028067748593971335,0.00327372690838358,-0.002841326759197426,0.012153747087569724,0.9904292046741077
2013-01-24,1,0.003864363755447529,0.00449941463427295,-0.005645673802587954,0.010737442103783577,0.9905509955777031
2013-01-28,1,0.0036591150875471875,0.004223342304018678,-0.007320021521101901,0.010737442103783577,0.9893361215850256
2013-01-30,1,0.002663558207889162,0.003052334323298323,-0.005645673802587954,0.011740275070963086,0.9903749708412494
2013-02-01,1,0.0030016058752690817,0.003483166068472401,-0.005645673802587954,0.010977388181044155,0.9904890136520202
2013-02-05,1,0.0029030118151967856,0.003369537752563884,-0.005645673802587954,0.014090860930737737,0.9900696293586224
2013-02-07,1,0.0033900439935719306,0.003973426942261271,-0.007320021521101901,0.016072588105725396,0.9890493734499612
2013-02-11,1,0.004578544271778099,0.005331576149746015,-0.007820628273696105,0.014090860930737737,0.9893907840674854
2013-02-13,1,0.004947818073428508,0.005731495594797395,-0.007820628273696105,0.011104978995297835,0.989289870370289
2013-02-15,1,0.0036107325350118098,0.004094529113187154,-0.007820628273696105,0.011104978995297835,0.9892887207413016
2013-02-20,1,0.003958180384262777,0.004488861769584577,-0.006857704503504473,0.009744008634037408,0.9909335826934014
2013-02-22,1,0.0038901302761780517,0.0043461187260897234,-0.006857704503504473,0.008061610066350826,0.9911422762274255
2013-02-26,1,0.0024198704219166073,0.0026504372681458504,-0.004398770834699122,0.009744008634037408,0.9912989744680974
2013-02-28,1,0.0034585105263223673,0.003878247652095459,-0.004398770834699122,0.009744008634037408,0.9919047263207607
2013-03-04,1,0.004229956711972273,0.004781414706024249,-0.006857704503504473,0.008223183122032109,0.9914513066039418
2013-03-06,1,0.004528898814498569,0.0051576499278223505,-0.008512138619078473,0.007484242658803148,0.990634950469381
2013-03-08,1,0.0042954013830690104,0.004873883214807315,-0.006857704503504473,0.007899943858130878,0.9917507808335148
2013-03-12,1,0.004503068043413366,0.005121024110674678,-0.008171851782993617,0.009259010009377566,0.9908007806474858
2013-03-14,1,0.00471851012633412,0.005373057640484729,-0.008171851782993617,0.00833705757008666,0.9912510547560525
2013-03-18,1,0.004366424426486244,0.004940995391196159,-0.012592008024278074,0.00932375734778122,0.9890514609859572
2013-03-20,1,0.004423494811299963,0.005001185100306688,-0.013326976528243231,0.00932375734778122,0.9874414088340219
2013-03-22,1,0.002606193657297395,0.0028611899361834147,-0.012592008024278074,0.010683836729163239,0.9881004295958412
2013-03-26,1,0.0035490263053827263,0.003974402801848322,-0.012592008024278074,0.01041568233291023,0.988263751875589
2013-03-28,1,0.003574032649349285,0.003970460500039347,-0.012592008024278074,0.01061180190737759,0.9879576288389395
2013-04-02,1,0.0026121540126514743,0.0028450919876421075,-0.012349156278523203,0.011466600496456938,0.9877318878110097
2013-04-04,1,0.001290947888785984,0.0013136742517129887,-0.005801669936119913,0.012107296956784204,0.98672361466619
2013-04-08,1,0.0005435203482898651,0.0006577528216317086,-0.005801669936119913,0.012650782907726539,0.9865723346890597
2013-04-10,1,0.0008014274819990681,0.0008738595726547212,-0.0008265825683650942,0.012107296956784204,0.9874862037244063
2013-04-12,1,0.00032149038149114414,0.0005139466658950412,-0.004380865877952194,0.012107296956784204,0.987393641842472
2013-04-16,1,0.0001980098353494028,0.0003885752359300168,-0.004380865877952194,0.012107296956784204,0.9888273799252153
2013-04-18,-1,-0.0017284488346880837,-0.0012709726632221731,-0.004380865877952194,0.012107296956784204,0.9889261489093457
2013-04-22,-1,-0.0008068004570902295,-0.00048776637764890026,-0.004380865877952194,0.011578710337527632,0.9894250681618898
2013-04-24,-1,-0.0007012237438276971,-0.0004329186493811476,-0.004380865877952194,0.011578710337527632,0.9891217443482434
2013-04-26,-1,-0.0006483371729921396,-0.0003853179564799724,-0.005273764499795563,0.010864976165831867,0.98955666132201
2013-04-30,1,1.186835253693709e-05,0.00021179720815386405,-0.00676580872785865,0.007886195027173666,0.9904237367425579
2013-05-02,-1,-0.0004656851434156038,-0.0002450932947966921,-0.00676580872785865,0.007886195027173666,0.9913181061529137
2013-05-06,0,-7.804642052704831e-05,8.104786125509166e-05,-0.00676580872785865,0.006595798016323627,0.9918377707786051
2013-05-08,1,0.00018153662982193098,0.00033275931034644864,-0.008109704580252473,0.0055749942590694835,0.9909814014816245
2013-05-10,-1,-0.00024417263502135014,-2.9314112097635005e-05,-0.008109704580252473,0.007475429736846959,0.9908773408666702
2013-05-14,1,0.0004179165567946537,0.0005273169713996471,-0.011634602991291787,0.006541231986688657,0.9906872436055185
2013-05-16,1,2.6136001006488738e-05,0.00016942640045399074,-0.010894525519545336,0.007475429736846959,0.990179569739043
2013-05-20,0,-7.513469373527845e-05,0.00011362437087730944,-0.010894525519545336,0.007386257705619063,0.9902267818686068
2013-05-22,-1,-0.00197702771169054,-0.00153950139711535,-0.012223513911803227,0.007386257705619063,0.98950799341967
2013-05-24,-1,-0.0015525915210620827,-0.0011633253219555484,-0.015795299231021548,0.007386257705619063,0.9879939625640602
2013-05-29,-1,-0.0013116911703345223,-0.0009037863003066736,-0.015795299231021548,0.008719893364499914,0.9863447066325627
2013-05-31,-1,-0.001162143688761475,-0.0007974023290167947,-0.012988144183759523,0.007544046496953245,0.9869816330121036
2013-06-04,-1,-0.0011855879828345337,-0.0008078294335764247,-0.012988144183759523,0.007544046496953245,0.987125276414188
2013-06-06,-1,-0.0016576900496593902,-0.0011980757972423406,-0.011287795562715884,0.007544046496953245,0.98793536750324
2013-06-10,-1,-0.0008337811681446829,-0.0004913045716504248,-0.011287795562715884,0.007928576079219209,0.9872338784836238
2013-06-12,-1,-0.0020123962282745864,-0.001551090913748723,-0.010941952681535236,0.00994328991088281,0.98694098583598
2013-06-14,-1,-0.0017044814949841239,-0.0013254637986461325,-0.008879053925910364,0.007928576079219209,0.9877190626106462
2013-06-18,-1,-0.0007232111949201466,-0.0005417779100439079,-0.008879053925910364,0.007833052393755601,0.987802833667545
2013-06-20,-1,-0.0024530858236627285,-0.002067966356177079,-0.005795148185048509,0.00994328991088281,0.9883725994459922
2013-06-24,-1,-0.004238759417159474,-0.0036168387739881373,-0.005469510868657821,0.00994328991088281,0.9890844518554863
2013-06-26,-1,-0.0023397382068358714,-0.0019350600059892845,-0.007934086254448596,0.007087791984721933,0.9903327285172525
2013-06-28,-1,-0.0030737600603624763,-0.0025631588395613834,-0.006918720706124813,0.007087791984721933,0.9907554195671564
2013-07-02,-1,-0.0033657053126251286,-0.0028173519101856903,-0.006918720706124813,0.007087791984721933,0.9907672199242686
2013-07-05,-1,-0.002972395240329183,-0.002509738707344917,-0.006581905424668252,0.007087791984721933,0.9894201283509626
2013-07-09,-1,-0.001684635370292472,-0.0014084573756547357,-0.00816821362112782,0.005679932365241794,0.9901860034642772
2013-07-11,-1,-0.001568606107729437,-0.0013008160902517447,-0.006918720706124813,0.004656181190322047,0.9913692047719366
2013-07-15,-1,-0.0010632695436451596,-0.0008651410471263104,-0.006918720706124813,0.004489699223614068,0.9913486472839421
2013-07-17,-1,-0.000490104332068662,-0.00038640379149118824,-0.007225376212163433,0.0027029094039097744,0.9914507753083167
2013-07-19,-1,-0.00025021899124431956,-0.00013041646271602636,-0.007225376212163433,-6.418191667880487e-05,0.991956917998144
2013-07-23,-1,-0.0003468445982454935,-0.0002450436275214163,-0.007225376212163433,0.0012607068290293746,0.9919975538142837
2013-07-25,-1,-0.001072987271597318,-0.000925221105182461,-0.00664607036946287,0.0027029094039097744,0.992802757688969
2013-07-29,-1,-0.001165175957000639,-0.0010080597087568132,-0.00664607036946287,0.004489699223614068,0.992169896245937
2013-07-31,-1,-0.0013529228777938197,-0.0011787256240704332,-0.006885492929806577,0.004489699223614068,0.9912329428597481
2013-08-02,-1,-0.00039686158696805194,-0.00032759340878618225,-0.007106663546351626,0.003034818440338813,0.992872521929945
2013-08-06,-1,-0.0009274953647718741,-0.0008091406727380712,-0.006045957585519019,0.005171404844577853,0.992588302827137
2013-08-08,-1,-0.0006249039873291697,-0.0005346679838670272,-0.006045957585519019,0.005171404844577853,0.9926302011308862
2013-08-12,-1,-0.0003591605979628444,-0.00032107509489287116,-0.005611745652786802,0.00653787673834621,0.9918402635241186
2013-08-14,-1,-0.0010627697827833285,-0.0009137027865450066,-0.005611745652786802,0.00653787673834621,0.9914709139557616
2013-08-16,-1,-0.000586131809041053,-0.0005147669325222142,-0.005611745652786802,0.008254355222141154,0.9912777834974118
2013-08-20,-1,-0.0006964425334426425,-0.0006444562545779769,-0.0014964183554521222,0.009864443429257066,0.9910146348289453
2013-08-22,-1,-0.0004999939890445813,-0.0004527921537075668,-0.0014964183554521222,0.008254355222141154,0.9917742369901614
2013-08-26,-1,-0.0006978314953747292,-0.00056319233166437,-0.0014964183554521222,0.006210515074049039,0.9919775700460176
2013-08-28,-1,-0.0009785303011978596,-0.00084599602723585,-0.0014964183554521222,0.006210515074049039,0.9925847251794516
2013-08-30,-1,-0.0013098616792659055,-0.0011507651607485284,-0.0015377893759021947,0.006210515074049039,0.9924609480614306
2013-09-04,-1,-0.00013855903542769313,-0.0001338914785740271,-0.0015377893759021947,0.006187592945584382,0.9933951415001702
2013-09-06,-1,-2.801458863750343e-05,-2.6012421482790466e-05,-0.00543807020479816,0.006187592945584382,0.992927959200242
2013-09-10,1,0.00023687004361997322,0.0002488931232928353,-0.0059458431811853524,0.005137124428226066,0.993458803152362
2013-09-12,1,5.954692229305848e-05,6.525790017929161e-05,-0.005681375312614761,0.006237877693412089,0.9923291018367761
2013-09-16,1,0.0004365591090906257,0.0004787552210321886,-0.005681375312614761,0.005533661042783692,0.992771994846655
2013-09-18,1,0.0011079083671589334,0.0012487695888305885,-0.005681375312614761,0.0051763041061346745,0.9928038119572988
2013-09-20,1,0.0013658538771047306,0.0015802817929884152,-0.0058705732490397225,0.006237877693412089,0.9916601794481917
2013-09-24,1,0.0014172110185293105,0.001619929606322623,-0.0058705732490397225,0.007624463330915204,0.9915630545946164
2013-09-26,1,0.0013901997690567724,0.001643562882148015,-0.0058705732490397225,0.01224746727980762,0.9879279276534008
2013-09-30,1,0.0014558966203856067,0.0017341599976060157,-0.0030065609483299104,0.01224746727980762,0.9883153491106886
2013-10-02,1,0.0019199204137969339,0.0022582766810847017,-0.004825574713343195,0.009713208848153077,0.9878657612832901
2013-10-04,1,0.0017463987091770432,0.002090372658971969,-0.004480419025170368,0.012259330071470995,0.987862716130676
2013-10-08,1,0.0010764173056372669,0.0013141950473562819,-0.0030065609483299104,0.012259330071470995,0.9882529883095145
2013-10-10,1,0.0022898349613107985,0.002711100739122748,-0.0042159865836989925,0.008473170405354509,0.9890449935735638
2013-10-14,1,0.0018693010224151076,0.002146032352781488,-0.0042159865836989925,0.009330296133308519,0.9890499664974128
2013-10-16,1,0.0021084519201002958,0.002414760700842503,-0.0030581046176413446,0.00928073001378477,0.989453999757569
2013-10-18,1,0.0019152831084133354,0.0021742959297678293,-0.002676706964873568,0.007785689502498342,0.9906911072282781
2013-10-22,1,0.0020714799320182163,0.0023423694215309356,-0.003577088133413522,0.0060968054316687375,0.9902640893377833
2013-10-24,1,0.004305943355934633,0.004881260427363761,-0.003577088133413522,0.003830568903730099,0.9928645238935225
2013-10-28,1,0.004422309220328528,0.004994718373723289,-0.003577088133413522,0.0033824000740009267,0.9928057503715989
2013-10-30,1,0.003684282962690329,0.004183785581328557,-0.002971576077514714,0.004574794678964025,0.9941344790324731
2013-11-01,1,0.0032129524710770158,0.0035891327157931427,-0.002355728180733954,0.004188121372189019,0.9948945778387958
2013-11-05,1,0.002976721848170609,0.00333399440995913,-0.002971576077514714,0.004188121372189019,0.9947172934369175
2013-11-07,1,0.002727662849873348,0.003071766906444338,-0.002355728180733954,0.008110302439900758,0.9945210017151375
2013-11-11,1,0.002213851585566325,0.0024051491242117035,-0.002971576077514714,0.008186660270168336,0.9940070606455721
2013-11-13,1,0.001697386703129453,0.0017589969366557817,-0.005470763093705919,0.006772778256058543,0.9931183818595307
2013-11-15,1,0.00189666225556872,0.0020569738267520853,-0.005470763093705919,0.008186660270168336,0.9926866378858611
2013-11-19,1,0.001220787998633426,0.0012665693510855733,-0.003475767011100179,0.008997344475280607,0.9922922017597768
2013-11-21,1,0.001235305104354573,0.0012669231740700042,-0.003400194331291481,0.008998104701479956,0.9923026441606113
2013-11-25,1,0.0011343440386046945,0.0011509470716679286,-0.003400194331291481,0.008998104701479956,0.9921606242296949
2013-11-27,1,0.0017320800527245086,0.001868445890831923,-0.005362987962729684,0.008998104701479956,0.9920560057759195
2013-12-02,1,0.0019422464154127544,0.002096399463277808,-0.005362987962729684,0.009223644939927564,0.9917270731380986
2013-12-04,1,0.0015425058483096456,0.0016573589368183259,-0.004459193217585523,0.009223644939927564,0.9914852689761261
2013-12-06,1,0.002443947864746172,0.0026902621427843465,-0.005922364336932152,0.007687470853418969,0.9917534354189069
2013-12-10,1,0.0026498728254720993,0.0029597526184602283,-0.005922364336932152,0.007687470853418969,0.9915140238057848
2013-12-12,1,0.0013759385677422872,0.001475959872243644,-0.004459193217585523,0.007687470853418969,0.9918918781981496
2013-12-16,1,0.0021037596871014063,0.002243942797074246,-0.004459193217585523,0.0065567092835628026,0.9925225760566859
2013-12-18,1,0.00210060179539074,0.002256331350671633,-0.006100496927240098,0.0065567092835628026,0.9910164640036105
2013-12-20,1,0.002116523206015192,0.00223287454078401,-0.006100496927240098,0.0065567092835628026,0.9890676714032098
2013-12-24,1,0.0024816260258431256,0.002719939640492421,-0.00896716760033154,0.007386892415880118,0.9868993442957505
2013-12-27,1,0.0018844981145456287,0.001998980017154017,-0.00896716760033154,0.008307575692881758,0.9867687871863731
2013-12-31,1,0.0020128928266667165,0.0021494165088467043,-0.015066868968624232,0.008544276257462508,0.98506851479629
2014-01-03,1,0.0013235534054839059,0.0013663165694450777,-0.015066868968624232,0.008544276257462508,0.9840470960163019
2014-01-07,1,0.0007960915095594425,0.0008434092363974357,-0.009040026440907546,0.011309462404991078,0.9838047596363299
2014-01-09,1,0.0009455010256852655,0.0009817934755507792,-0.006181166850886125,0.012881853071263435,0.9834365583475706
2014-01-13,1,0.00010616226991533973,0.00026852691325484056,-0.006359364568525847,0.012881853071263435,0.9832076601287332
2014-01-15,1,0.0004343914309535968,0.0005516758859611725,-0.01305402440945315,0.012881853071263435,0.982879586585256
2014-01-17,1,7.223839394673853e-05,0.00021934938514317346,-0.012932090450668893,0.010931597500460705,0.9843994623416381
2014-01-22,1,0.0005169557709697437,0.0006482388687837307,-0.012932090450668893,0.008544276257462508,0.9859510233469782
2014-01-24,-1,-0.0005333423717376784,-0.0002511793504243609,-0.011880314403656089,0.009233861499340069,0.9876798114335675
2014-01-28,1,0.0001944117258283807,0.0003566999414251349,-0.011880314403656089,0.008023305647849702,0.9881994867964171
2014-01-30,1,0.0005215640161737971,0.0006392583179066558,-0.008130978238143249,0.008023305647849702,0.9898227968925186
2014-02-03,-1,-0.00029806108449792685,-0.00011672501319675871,-0.006257575156064187,0.009757991721430853,0.990164321540347
2014-02-05,1,5.8915542929355975e-05,0.00022345401378200667,-0.006257575156064187,0.008023305647849702,0.991066841367994
2014-02-07,1,0.0011229364350656696,0.0011527069347178952,-0.006257575156064187,0.005303460244130063,0.9923287852270977
2014-02-11,1,0.0007436166174223899,0.0007984845971017218,-0.0031773038815912876,0.0060071459273124544,0.9926375280269691
2014-02-13,1,0.0003318553045538063,0.0004401818735603128,-0.006257575156064187,0.0060071459273124544,0.9926618603189121
2014-02-18,0,-0.00011099552576198513,4.582665171187268e-05,-0.0031773038815912876,0.008706557217121599,0.9925400372180256
2014-02-20,-1,-0.0003723514441777597,-0.00018191179968670259,-0.0024888579740288486,0.008706557217121599,0.9930090701264869
2014-02-24,-1,-0.0006657060069520887,-0.000418802510494599,-0.0024888579740288486,0.007131152231802017,0.9934458568757444
2014-02-26,-1,-0.0007297940353743754,-0.0004953613582767636,-0.0024888579740288486,0.00861268875738858,0.9926976639039079
2014-02-28,-1,-0.0007672978221864528,-0.0005036775419220676,-0.00378130524442577,0.00861268875738858,0.992496859984319
2014-03-04,-1,-0.0004876641963780224,-0.0002246360348922517,-0.00378130524442577,0.00861268875738858,0.9929679219718898
2014-03-06,1,9.786630855176384e-06,0.00016878650909401015,-0.004373448704416303,0.00861268875738858,0.9930418542349783
2014-03-10,0,-0.00010665652795620274,6.801507171133223e-05,-0.007557196234336239,0.00861268875738858,0.9924175518071613
2014-03-12,1,0.00044815451034924695,0.0005440255723855919,-0.007557196234336239,0.00861268875738858,0.9923552185468142
2014-03-14,-1,-0.0003811098441496542,-0.0001887413561327165,-0.007928596225362124,0.00861268875738858,0.991671025398758
2014-03-18,1,0.0003666826273586109,0.0004637856669645898,-0.007928596225362124,0.0076446747243409385,0.9919507055519555
2014-03-20,1,0.0015107112990360735,0.0016706596660504853,-0.007928596225362124,0.008532106887664738,0.9915140514093362
2014-03-24,1,0.0013065856307999894,0.0014307954471996505,-0.007928596225362124,0.008532106887664738,0.9915691535979816
2014-03-26,1,0.0008595574408453415,0.0008858897466441835,-0.007928596225362124,0.00816006028800626,0.9915970422198972
2014-03-28,1,0.0009979332550796734,0.0010509732685370448,-0.008027060255870456,0.00752781639858059,0.9918994924006572
2014-04-01,1,0.0012428241878841633,0.0013119001384632608,-0.008027060255870456,0.006574688914359373,0.9923045086657551
2014-04-03,1,0.0008498645840833917,0.000851486526137337,-0.008899016373691141,0.006574688914359373,0.9921417488178722
2014-04-07,1,0.000393861301684711,0.00043491256720993774,-0.007284016275886632,0.006574688914359373,0.9929987665683574
2014-04-09,1,0.0007057756685967487,0.0007197459848125524,-0.00393782817286819,0.006574688914359373,0.9930039912351197
2014-04-11,-1,-0.0003623439500504187,-0.00023392518515769984,-0.0005552978811420251,0.007072511866532101,0.9934969680761865
2014-04-15,-1,-0.00015932102872032324,-3.9042385252580525e-05,-0.0017049237522842897,0.006840987216967831,0.9938157505400091
2014-04-17,1,0.0003149709490211306,0.00037373390963145816,-0.0019489585153961212,0.005875023178847711,0.9938448526209058
2014-04-22,1,0.00034412576602452303,0.00040362850627159356,-0.0019489585153961212,0.0050821238137881775,0.9939182449494389
2014-04-24,0,-2.4209056913462033e-05,6.991948574062724e-05,-0.0017049237522842897,0.0063836041692477835,0.994302065935638
2014-04-28,-1,-0.00022678204048991516,-0.00011362156316217407,-0.0004900918897404339,0.006730543150258038,0.9945145026955343
2014-04-30,-1,-0.00045511369628899396,-0.0002980526184520906,0.0005343540075758173,0.008602787924499922,0.9941108920367785
2014-05-02,-1,-0.00037524666382137594,-0.00026810249193042016,0.00015114538386172907,0.008602787924499922,0.9944309603550143
2014-05-06,-1,-0.00036508306981455967,-0.00025702015417153746,-0.0016516200053898816,0.008602787924499922,0.9935824609926462
2014-05-08,-1,-0.0003134768723716955,-0.00017356156650042695,-0.0016516200053898816,0.00909978869560005,0.9932651150612374
2014-05-12,1,0.0003474126970474232,0.00039233462052653813,-0.0016516200053898816,0.008602787924499922,0.9937835650012921
2014-05-14,1,0.0006916688248627679,0.000706666278478889,-0.0019830349218093513,0.006963834761482268,0.993497012851918
2014-05-16,1,0.0006619995235334251,0.0006828100515417774,-0.001672799394692392,0.006963834761482268,0.9938568499398742
2014-05-20,1,0.0008002222054500783,0.0008471721762294757,-0.001672799394692392,0.00913580108563458,0.9934457877153784
2014-05-22,1,0.0010566967892433209,0.0011339900568348893,-0.001672799394692392,0.00913580108563458,0.9933683400647548
2014-05-27,1,0.00125247051192778,0.0013599158337415612,-0.003324502781053535,0.00913580108563458,0.9924922308613898
2014-05-29,1,0.0012810893415147661,0.0013679658117043247,-0.005128561661655907,0.0071122029395434515,0.9925592128493158
2014-06-02,1,0.0009374359318744042,0.0009603414926371767,-0.005128561661655907,0.0102149540200833,0.9921801599933802
2014-06-04,1,0.00067835338559197,0.0006818810084616523,-0.004665980042386261,0.010415875074209067,0.9924110087263796
2014-06-06,1,0.0010461281366516738,0.0010777521592679811,-0.004984238234619035,0.0071122029395434515,0.9932096100863825
2014-06-10,1,0.0011556001546380481,0.0012023707026489307,-0.005391873340943985,0.0075807293818226165,0.9931598563385148
2014-06-12,1,0.0003188364571214431,0.0003715262876226803,-0.005391873340943985,0.009647879304526721,0.9928165494436403
2014-06-16,1,0.0011533364704035157,0.0012542181997235863,-0.005391873340943985,0.007647703066531206,0.9932096840383872
2014-06-18,1,0.0010612149459825761,0.0010617134173028719,-0.0060186782273985925,0.0074615082272953435,0.9929482408337976
2014-06-20,1,0.0015800045759169442,0.001674125772694339,-0.0060186782273985925,0.0074615082272953435,0.9927647589414824
2014-06-24,1,0.0014164757222534363,0.0014864669026621365,-0.005391873340943985,0.0092902158409449,0.9929976760407213
2014-06-26,1,0.0006118382138654624,0.0006745900656053619,-0.004801858411161245,0.0092902158409449,0.9928322427801793
2014-06-30,1,0.0014797769170920311,0.0015689358094441719,-0.006194643221574054,0.008874674805085976,0.9914913952895905
2014-07-02,1,0.0019286998825193656,0.0021253522185729905,-0.007550880584413148,0.007385059495087656,0.9911544975291465
2014-07-07,1,0.0013058429436299031,0.0013842459185775169,-0.007550880584413148,0.007385059495087656,0.9912993278070564
2014-07-09,1,0.0011989289667061038,0.0012519684825474664,-0.007550880584413148,0.005662784303396263,0.9911512233155935
2014-07-11,1,0.0012528925461118001,0.001283805127304044,-0.006819953525205232,0.005662784303396263,0.9916238555717245
2014-07-15,1,0.0010074980662885254,0.0010178774119638065,-0.006819953525205232,0.008874674805085976,0.9910295655879046
2014-07-17,1,0.0008809533272082914,0.0009069561811589394,-0.006146233599118105,0.007909706093080846,0.9912991370087861
2014-07-21,1,0.0012321888599105492,0.0012398263044930483,-0.006146233599118105,0.007909706093080846,0.991236526934347
2014-07-23,1,0.0015686116484659668,0.001626761751072939,-0.004883450611612072,0.007279711582390269,0.9921514047640876
2014-07-25,1,0.0020091725833877466,0.0021558089351085665,-0.006146233599118105,0.005543167246804972,0.9920048501350823
2014-07-29,1,0.0008560822052942252,0.0008648605858563985,-0.003975457876697865,0.005543167246804972,0.99389400933818
2014-07-31,1,0.00017384871806822548,0.00025991717378084456,-0.002633135935942736,0.007279711582390269,0.9941874476367263
2014-08-04,1,0.00047480965648443477,0.0004975841104191172,-0.0012360531987453934,0.007279711582390269,0.9943245234123566
2014-08-06,-1,-0.0005382613891503523,-0.00037321626250417297,2.2727399114351704e-05,0.007929561146857991,0.9939249599582517
2014-08-08,1,0.0003725005526316886,0.00039323143072528147,2.2727399114351704e-05,0.007929561146857991,0.994151441657149
2014-08-12,1,0.0005930922155480078,0.0006001181601191087,2.2727399114351704e-05,0.007279711582390269,0.9946995997682533
2014-08-14,1,0.0009165759061145005,0.0009564787013913579,-0.0007038306661597024,0.005672972405664447,0.99479006922305
2014-08-18,1,0.0013648891459161925,0.0014408551958600743,-0.0007038306661597024,0.005672972405664447,0.9952349880870701
2014-08-20,1,0.0014438994331283715,0.001529545978702047,-0.0007038306661597024,0.00673372913892711,0.9941475422572158
2014-08-22,1,0.0014905823828908731,0.001609576787090329,-0.0015648185798908135,0.00673372913892711,0.9942002824142375
2014-08-26,1,0.0012925612567960536,0.0013726474475134775,-0.003410946368935831,0.008938092664194534,0.9932461319991078
2014-08-28,1,0.001184559045194695,0.0012149408977582684,-0.006993244212138447,0.008938092664194534,0.9925039557107302
2014-09-02,1,0.0012565793306969636,0.0013040662634628858,-0.006993244212138447,0.008938092664194534,0.9926869687639654
2014-09-04,1,0.0010540237414522233,0.0010905930503860373,-0.007523465292886564,0.009150750734988406,0.9912796299885849
2014-09-08,1,0.001220278011831107,0.0012284580203229761,-0.007563902293058901,0.01009089806273512,0.9904942421119513
2014-09-10,1,0.0011583749448125739,0.0011713223402047752,-0.008583510704482288,0.01009089806273512,0.9892413873219542
2014-09-12,1,0.0010886345921017851,0.0010964904356916265,-0.012770286776734188,0.01009089806273512,0.986671445983804
2014-09-16,1,0.0011432018043829573,0.0011639955346764838,-0.012770286776734188,0.012168106719937401,0.9862655474535611
2014-09-18,1,0.0015799117579449282,0.0015910044579675806,-0.012770286776734188,0.00923915616788006,0.986896226335042
2014-09-22,1,0.0010095054834703418,0.0010626188372891642,-0.012770286776734188,0.012168106719937401,0.9866220994935384
2014-09-24,1,0.000379613652271487,0.0004890263860464195,-0.017538658835739268,0.012393162706281255,0.9848186489119372
2014-09-26,1,0.0004707886126639425,0.0006053714349322889,-0.015504154749619805,0.013030330044023954,0.9849775803643551
2014-09-30,1,0.0007273243378589112,0.00080610238237094,-0.015504154749619805,0.013670021140544284,0.9841989082662739
2014-10-02,1,0.0007903163528956524,0.0008568302030083461,-0.01074799842461855,0.013170657672755395,0.9852932525919245
2014-10-06,1,0.0008503023174236984,0.0008916813552208461,-0.010504243263832704,0.012226708217018292,0.9858812442055959
2014-10-08,1,0.00030209470606043954,0.0004133285473759699,-0.006825076814120603,0.012226708217018292,0.986800456674852
2014-10-10,-1,-0.0010843791266812845,-0.0008029653316571095,-0.004244306251528113,0.013170657672755395,0.988215158677649
2014-10-14,0,-9.024614354102064e-05,6.43359476919206e-05,-0.004244306251528113,0.014719011161993627,0.9878655868142568
2014-10-16,0,-4.64147675113025e-05,9.027212042885441e-05,-0.005594611712506161,0.014719011161993627,0.987884676394205
2014-10-20,-1,-0.00037214766998545034,-0.00021122553678903374,-0.005594611712506161,0.013170657672755395,0.9885550538607044
2014-10-22,-1,-0.0013690435166945508,-0.0010828959055509254,-0.0043064211637635205,0.01074745372250018,0.9909527355508255
2014-10-24,-1,-0.0005283924485316659,-0.0003177002948407129,-0.0043064211637635205,0.008651044961049287,0.9923173160175852
2014-10-28,1,0.0003107055283486158,0.0003786754690791309,-0.0043064211637635205,0.008498492705819826,0.9924376683256471
2014-10-30,-1,-0.00038119071313499973,-0.0002485060639342348,-0.0023363095194856064,0.008498492705819826,0.9907912869131543
2014-11-03,-1,-0.0011436997677138582,-0.0009057161856610476,-0.0023363095194856064,0.008498492705819826,0.9880000322612064
2014-11-05,-1,-0.00027080716521148124,-0.0001560242164584871,-0.0023363095194856064,0.008498492705819826,0.985751625238636
2014-11-07,1,0.0006852173802524385,0.0006958777306222947,-0.005506802128790404,0.0054438519239824465,0.9852367022851498
2014-11-11,1,0.0005927241750340567,0.0006972011350796102,-0.014504661770228931,0.0054119781651444055,0.9852645842421336
2014-11-13,-1,-7.052474289853921e-05,-5.6074130237773615e-05,-0.014617989859988967,0.006608278934282616,0.984692815957402
2014-11-17,1,3.673709970876323e-05,4.582719842230776e-05,-0.014617989859988967,0.006608278934282616,0.9846391375781837
2014-11-19,1,0.0001018708309103187,0.0001118292331612694,-0.014617989859988967,0.009768701415653424,0.9818434027302837
2014-11-21,1,0.0005660474814185989,0.0006256797715728714,-0.014617989859988967,0.010003549701661112,0.9816543857856537
2014-11-25,1,0.0008417653487148157,0.0009268881424963734,-0.014617989859988967,0.011376336572500305,0.9818308149356807
2014-11-28,-1,-0.0008960528696888156,-0.0007682949824934151,-0.004238461194071858,0.011376336572500305,0.9834707132445794
2014-12-02,-1,-0.00199289675881953,-0.0017468074841119011,-0.009138541509717418,0.009352538898839064,0.9859922667418292
2014-12-04,-1,-0.0028587056169961096,-0.002514137383450335,-0.009138541509717418,0.007156039700389931,0.987724162652235
2014-12-08,-1,-0.004011994278095399,-0.0035333382732266796,-0.009138541509717418,0.007156039700389931,0.9874820846616559
2014-12-10,-1,-0.004190523481765789,-0.003720856636864999,-0.008083276735344142,0.009074114892753279,0.9882040829766967
2014-12-12,-1,-0.003883020666627656,-0.0034624194340160484,-0.008083276735344142,0.007092455750909405,0.9890010323809724
2014-12-16,-1,-0.003347192167181103,-0.003000380235578825,-0.008083276735344142,0.007937572605622858,0.9891782833882765
2014-12-18,-1,-0.002368104697629239,-0.0020779639826113442,-0.008083276735344142,0.0035856235448701846,0.9916037339291555
2014-12-22,-1,-0.0023933027715543767,-0.0020755869330725644,-0.008083276735344142,0.007888804289060893,0.9908387098922379
2014-12-24,-1,-0.0020743014426242894,-0.0017923791499188696,-0.009237395488516093,0.007888804289060893,0.9904313566998072
2014-12-29,-1,-0.0023386903002532078,-0.0020112672781057318,-0.011473913269201958,0.007888804289060893,0.9895949816996548
2014-12-31,-1,-0.0027114667403458923,-0.0023627942719021055,-0.011810440049598749,0.007927401353171794,0.9891588701980388
2015-01-05,-1,-0.003448873590008219,-0.0030226051572656587,-0.011473913269201958,0.010382042233007382,0.9875665424164619
2015-01-07,-1,-0.004335617593893434,-0.0038407052886226863,-0.009287720514113283,0.013046052911467041,0.9879635257299043
2015-01-09,-1,-0.00385218461069964,-0.0034422669978834246,-0.009287720514113283,0.013046052911467041,0.9883944581582198
2015-01-13,-1,-0.004112960611543561,-0.0036801409250468145,-0.005247858706371377,0.013046052911467041,0.9878620744577935
2015-01-15,-1,-0.00406240853040627,-0.003627253638160753,-0.003302354159750707,0.013046052911467041,0.9877032014938861
2015-01-20,-1,-0.0034799495242332657,-0.0031167462195462424,-0.003302354159750707,0.009840911450518356,0.9881391402347836
2015-01-22,-1,-0.002496054033985268,-0.0022648918723434932,-0.003302354159750707,0.007974964359764697,0.9895491078672825
2015-01-26,-1,-0.001925987310786084,-0.0017700620391554605,-0.0029482723619812115,0.0071035016163556505,0.9906839621589241
2015-01-28,-1,-0.0025460471056747277,-0.0023460197211389814,-0.0008033078873076962,0.0071035016163556505,0.9912241226312981
2015-01-30,-1,-0.0026877181777809544,-0.0024710794390915996,-0.0008033078873076962,0.007408554174884001,0.9915458324886959
2015-02-03,-1,-0.0012079856562883413,-0.001162945942512924,-0.0029482723619812115,0.005356985698966519,0.9938297666977292
2015-02-05,-1,-0.001008818873691877,-0.0009916872163111402,-0.0029482723619812115,0.00497447341402725,0.9944817509129802
2015-02-09,-1,-0.0006825613308836396,-0.0006313451368137205,-0.0071663647467951775,0.005356985698966519,0.9937317510922578
2015-02-11,0,-8.34941666930123e-05,9.176668049976696e-05,-0.0071663647467951775,0.006190466097146164,0.9936688364213134
2015-02-13,1,1.4205253927170622e-05,0.00019128859546332282,-0.0071663647467951775,0.006190466097146164,0.9930559185528831
2015-02-18,1,0.0005365828614504947,0.000796918614180549,-0.0071663647467951775,0.006356255320010857,0.9927984603952918
2015-02-20,1,0.0007442818266897469,0.0010332792918347302,-0.007233453211622193,0.006356255320010857,0.9925372680804553
2015-02-24,1,0.0006267001545077739,0.0009090124554221533,-0.007541454028040707,0.006356255320010857,0.9909748525289744
2015-02-26,1,0.00033638793893870874,0.0005663606810964761,-0.007709773084497298,0.006356255320010857,0.9903858989072617
2015-03-02,1,0.0005670110807141197,0.0008444886061593615,-0.007709773084497298,0.00543208031200122,0.9909108671114164
2015-03-04,1,0.0002057870693867803,0.00042098873215311934,-0.007709773084497298,0.004237678173739687,0.991484352842822
2015-03-06,-1,-0.001064188472118885,-0.0010210123510784861,-0.006592410708423926,0.006356255320010857,0.9912541111850655
2015-03-10,-1,-0.000860684459044453,-0.0008558489426339716,-0.005565009843522129,0.004237678173739687,0.99218085910825
2015-03-12,-1,-0.00021698316242993112,-0.00011614043457151575,-0.005565009843522129,0.004121317818633357,0.9920287592260763
2015-03-16,1,0.0004352844458057753,0.0006410584482438659,-0.008130215534849735,0.0029331185670996166,0.9903793378696629
2015-03-18,1,0.0004126072857873988,0.00045216997973481285,-0.008130215534849735,0.002537961936101181,0.9908501552157589
2015-03-20,1,0.0005607724333805489,0.0006779091185831168,-0.006095274021027669,0.0036978684392061957,0.9899601260431612
2015-03-24,-1,-0.00036427591556472755,-0.0003425478480832369,-0.005027641704541208,0.004213265830356274,0.9903519448593315
2015-03-26,-1,-0.001323679208754726,-0.0011918828799100515,-0.005027641704541208,0.007002188069688867,0.9901899269381483
2015-03-30,-1,-0.0013804747614747886,-0.0012436006887193724,-0.006461351629458124,0.007002188069688867,0.9901907903957669
2015-04-01,-1,-0.0015441982909372347,-0.0014021281622925087,-0.007792838353253809,0.007002188069688867,0.9891571591841127
2015-04-06,-1,-0.0003518343640305545,-0.0003004400261577278,-0.007792838353253809,0.007167940829140306,0.9884265741481721
2015-04-08,1,0.0002339375946310004,0.0004227577253418033,-0.009346992260124124,0.007167940829140306,0.9868071480942606
2015-04-10,1,0.0007838410122007716,0.0010225356875903364,-0.009346992260124124,0.006387338194847162,0.9870367659518178
2015-04-14,-1,-0.0004982440508387645,-0.0004170960612100424,-0.007792838353253809,0.006387338194847162,0.9891691576352047
2015-04-16,-1,-0.0007531563614502291,-0.0007099679390475376,-0.010547289872884214,0.006387338194847162,0.9884672251636074
2015-04-20,1,0.0004879018093416329,0.0007050285297869552,-0.010547289872884214,0.006387338194847162,0.9888700249450224
2015-04-22,1,0.0015462191649904592,0.0019353653093604321,-0.011237043451447158,0.004556841824130091,0.9889942775997325
2015-04-24,1,0.000794677383821172,0.0009711205344896753,-0.01168660794761912,0.004556841824130091,0.9889090144059073
2015-04-28,1,0.0007196305042522354,0.0008553463685663585,-0.01168660794761912,0.004556841824130091,0.9888125370695142
2015-04-30,-1,-0.0009280120125802918,-0.0008167037300051067,-0.01199326067599865,0.004556841824130091,0.9894803289770017
2015-05-04,-1,-0.00017711022229878432,-8.435367274937326e-05,-0.01199326067599865,0.0031126265474566927,0.9902484482510514
2015-05-06,-1,-0.0017800385807417672,-0.0014593916066999945,-0.011339261027573667,0.0031126265474566927,0.9922049358189032
2015-05-08,-1,-0.0017394881395356857,-0.0014240870765456085,-0.01199326067599865,0.0031126265474566927,0.9917239510426885
2015-05-12,-1,-0.0020771644337398585,-0.0017411701577721027,-0.01199326067599865,0.0031126265474566927,0.9920416478682511
2015-05-14,-1,-0.0023779895242664753,-0.002183171233267038,-0.010489551609991576,0.004647158373006663,0.9914538699168336
2015-05-18,-1,-0.001439380657481029,-0.001377113300911757,-0.010489551609991576,0.0015165936140596242,0.9919052926744893
2015-05-20,-1,-0.001983346264331304,-0.0018768813916016018,-0.00923986018995359,0.004286349407283224,0.9917567797482332
2015-05-22,-1,-0.0019651446868772476,-0.001878114717350653,-0.00740602723170533,0.004118026416976844,0.9924853652100561
2015-05-27,-1,-0.002591465857295533,-0.002393609190111212,-0.00740602723170533,0.004118026416976844,0.9919042098595363
2015-05-29,-1,-0.0043244211755089895,-0.0038698922809240035,-0.006827651863385705,0.004118026416976844,0.9923102214673982
2015-06-02,-1,-0.0041545291773134405,-0.0036801323793568936,-0.00740602723170533,0.0038833229531423674,0.9918615459956268
2015-06-04,-1,-0.004361732762722413,-0.003868770252163487,-0.00740602723170533,0.004603492136543551,0.9913544568794191
2015-06-08,-1,-0.0050132880114493366,-0.004422010515225106,-0.00740602723170533,0.004603492136543551,0.9913536577081322
2015-06-10,-1,-0.004770820875540885,-0.004202369749471453,-0.009260863934183875,0.004603492136543551,0.9902970859678388
2015-06-12,-1,-0.0037249739340836623,-0.0033156740887486467,-0.007696807495679734,0.004603492136543551,0.9910818079116676
2015-06-16,-1,-0.0033986152487494484,-0.0030627029087757066,-0.007696807495679734,0.004603492136543551,0.9906749309865461
2015-06-18,-1,-0.002344058101342121,-0.002128442175644528,-0.011126496514385098,0.004071203943988843,0.9909528528292453
2015-06-22,-1,-0.0029219116539338924,-0.002571558491615007,-0.011126496514385098,0.0032483990228616534,0.9913065253343164
2015-06-24,-1,-0.004213851856938769,-0.0037014117348941594,-0.011126496514385098,0.0032483990228616534,0.9911240368672257
2015-06-26,-1,-0.003439506028612466,-0.003083353691815743,-0.007334238979050521,0.0032483990228616534,0.9917986332102579
2015-06-30,-1,-0.00370007254356898,-0.0033237377982058376,-0.006272128467199589,0.0050966746403933155,0.9907696450713533
2015-07-02,-1,-0.0033590232507482625,-0.003022344245715395,-0.007334238979050521,0.0032483990228616534,0.9907254307573684
2015-07-07,-1,-0.002783475251943568,-0.002548221910006562,-0.008710783199633467,0.0028274261734190778,0.9909577091415832
2015-07-09,-1,-0.003556641765310198,-0.0032467197067462253,-0.008376770688036897,0.0028274261734190778,0.9916612509735742
2015-07-13,-1,-0.0025956310816120753,-0.002431214305361473,-0.008376770688036897,0.0028274261734190778,0.9912847411401634
2015-07-15,-1,-0.001984932429545945,-0.0019031915470323812,-0.012810335852617233,0.0025289451983443265,0.9905717959978647
2015-07-17,-1,-0.0023703878504927867,-0.0022348275417741537,-0.008376770688036897,0.002647306751897585,0.9909414410528555
2015-07-21,-1,-0.0023542361748104808,-0.002213777333632224,-0.008376770688036897,0.0045880786912566385,0.9905670491975602
2015-07-23,-1,-0.003037646858990306,-0.002836167239951,-0.010708164301998665,0.0045880786912566385,0.9905593108407913
2015-07-27,-1,-0.00393744873524938,-0.003690114153009952,-0.01602281166904833,0.0045880786912566385,0.987926642250679
2015-07-29,-1,-0.0019763016099537765,-0.0018971904344865058,-0.01760427115130613,0.002937264096947596,0.9870598342381947
2015-07-31,-1,-0.0023778788546963076,-0.002177778068409895,-0.01649420206956515,0.005983639283904191,0.9844206336957887
2015-08-04,-1,-0.0020377660048496297,-0.0019086415175588252,-0.01922630857149623,0.005983639283904191,0.9832461445238723
2015-08-06,-1,-0.0019870276082493894,-0.001886593875134037,-0.01922630857149623,0.009405759810961475,0.9828536384691352
2015-08-10,-1,-0.0008506211606348362,-0.0007944371583497555,-0.01922630857149623,0.009405759810961475,0.9822631204237289
2015-08-12,-1,-0.001667655745709022,-0.0015960442646765986,-0.016970456571540067,0.009405759810961475,0.9830714886044348
2015-08-14,-1,-0.0017983436977686892,-0.0016604466535458,-0.016970456571540067,0.00881600886159841,0.9833425953464329
2015-08-18,-1,-0.0015396245195371775,-0.0014072090843837385,-0.016970456571540067,0.01500474038525014,0.9819000218314697
2015-08-20,-1,-0.002535246937590662,-0.0022777178105091063,-0.01837592624131493,0.01500474038525014,0.9816613293365499
2015-08-24,-1,-0.0022688082360436154,-0.002029722506783711,-0.01019563502300296,0.01500474038525014,0.9829828393395497
2015-08-26,-1,-0.0024572278148141512,-0.0022296460090201137,-0.009905166060896376,0.011854837765140598,0.9846882846396591
2015-08-28,-1,-0.0008878976439287427,-0.0008402668791835445,-0.013040601795056615,0.007914923862298421,0.9875382032539594
2015-09-01,-1,-0.0017654744247148123,-0.0016501837408903386,-0.008252301529778985,0.00881600886159841,0.9882821523781481
2015-09-03,-1,-0.0007564031031966651,-0.0007437265029304077,-0.008252301529778985,0.012762239973520877,0.9876776527017693
2015-09-08,-1,-0.00015076489205310365,-9.370879712801623e-05,-0.007453641000795232,0.012198819487658446,0.988602988752096
2015-09-10,1,0.0006238892751954185,0.0008575049356534265,-0.007453641000795232,0.015870594479413466,0.9868373946194966
2015-09-14,1,0.0008215957683123283,0.0011291835536792112,-0.009559605916258738,0.015870594479413466,0.9860058245880877
2015-09-16,1,0.0019903614713292343,0.0024598705383754565,-0.013545782403197894,0.012198819487658446,0.9858189361412498
2015-09-18,1,0.001005887979094912,0.0013273013845050753,-0.013487317895524877,0.013138409860986413,0.9862728272440853
2015-09-22,1,0.00034695401736306694,0.000532552731091702,-0.01286343518646607,0.014249589828113623,0.9869297671559859
2015-09-24,1,0.0005816095338134811,0.0008635683004231238,-0.008820812122880144,0.016764736336841588,0.9869104608314828
2015-09-28,1,8.576408108886246e-05,0.00025215239840839065,-0.00786927770009986,0.016764736336841588,0.9868069137059717
2015-09-30,1,0.0011779110205649844,0.001485062396485719,-0.010008831918125217,0.017223379329162805,0.9836669878574626
2015-10-02,1,0.0018925448837725952,0.0022901344669106526,-0.013146053379509704,0.014249589828113623,0.9840055314242379
2015-10-06,1,0.001040398537736334,0.0013026814318655691,-0.013146053379509704,0.014249589828113623,0.9847703709293781
2015-10-08,1,0.0029920787993838686,0.003538228830973716,-0.013146053379509704,0.004770329193306152,0.9858808525685278
2015-10-12,1,0.002060248619387064,0.002448735950960743,-0.009934644446426001,0.007910599196280965,0.9824856468327942
2015-10-14,1,0.002116045045396583,0.0024683292448316285,-0.006569870292217278,0.007910599196280965,0.9841409773078135
2015-10-16,1,0.0021002488347732617,0.002443078359350378,-0.004630198348395202,0.004770329193306152,0.9853806906368745
2015-10-20,1,0.0020816184341850034,0.0023729973885750974,-0.00654227477919371,0.0038925676002519232,0.9850803868395845
2015-10-22,1,0.0021543571010243846,0.0025654541478894073,-0.00654227477919371,0.004770329193306152,0.9811997876492593
2015-10-26,1,0.0020098232534468347,0.002385046307896506,-0.00654227477919371,0.005112734435756256,0.9805786004729883
2015-10-28,1,0.002569124105249426,0.0029985739560358547,-0.00654227477919371,0.005112734435756256,0.9838566852819292
2015-10-30,1,0.0018144522801653287,0.0021307536506772334,-0.003642639788474262,0.005112734435756256,0.9846884667291573
2015-11-03,1,0.0023374264660703053,0.0027479257062588375,-0.004922446831421607,0.0045424472426550296,0.9830471977422631
2015-11-05,1,0.001980058489476625,0.0023414077793857853,-0.00820656982963846,0.0077456700733372534,0.9826546401298524
2015-11-09,1,0.005976000726972566,0.006879934391124489,-0.010746168203834356,0.0045424472426550296,0.9826843755282217
2015-11-11,1,0.004824989038102847,0.005504244693811641,-0.010746168203834356,0.0077456700733372534,0.982975091338577
2015-11-13,1,0.004250481643784299,0.004805449872299026,-0.010746168203834356,0.009346898723807267,0.9825688860519697
2015-11-17,1,0.004028592446418734,0.004533266425524134,-0.010746168203834356,0.011375676184663359,0.9825739675408245
2015-11-19,1,0.005977337538699246,0.0067585617021189495,-0.011836129453625097,0.0077456700733372534,0.9833775035152963
2015-11-23,1,0.004649814021122579,0.005253228387741518,-0.010746168203834356,0.009346898723807267,0.9839419851617358
2015-11-25,1,0.0047520929708647726,0.005379191719286817,-0.00978493379180089,0.009401229435439296,0.9843772239689695
2015-11-30,1,0.004016628116678312,0.004490331667947074,-0.011836129453625097,0.009401229435439296,0.9841177117544837
2015-12-02,1,0.0032874358823922895,0.003678237945082617,-0.00978493379180089,0.009401229435439296,0.9853179188529605
2015-12-04,1,0.004143724191111075,0.004655844183967787,-0.01034404633129374,0.006482674339799726,0.9842000282993738
2015-12-08,1,0.0022099117713552806,0.0024617715858795425,-0.013563316650429395,0.006482674339799726,0.9853812823678847
2015-12-10,1,0.0024434221876586896,0.00271926950064128,-0.014939918586185923,0.0011428228771003743,0.9843870329983658
2015-12-14,1,0.0025173841696686794,0.002755898037970407,-0.019814888450507925,-0.0004825252502734094,0.9822126348494925
2015-12-16,1,0.0022531113035643563,0.0024878423832355974,-0.019814888450507925,-0.0004825252502734094,0.9831864065467848
2015-12-18,1,0.0013980519728680517,0.0015953294022233824,-0.014939918586185923,1.580386606282665e-05,0.9862889288946121
2015-12-22,1,0.0016322308649439495,0.0018143184092473553,-0.019246254493324663,-0.0004825252502734094,0.985447688256042
2015-12-24,1,0.001497473446719867,0.0016414508114019422,-0.019246254493324663,-0.0004825252502734094,0.98457468589652
2015-12-29,1,0.0006651573043090022,0.0006687455445954745,-0.019246254493324663,0.0016229783713330385,0.9850699612345628
2015-12-31,1,0.000696591040028868,0.0007291297031517003,-0.019246254493324663,0.0037515355017422643,0.9852030023534427
2016-01-05,-1,-0.00020819949206086797,-0.00010399044461728286,-0.019246254493324663,0.0037515355017422643,0.984351028886392
2016-01-07,-1,-0.001620628092589592,-0.001335474143384354,-0.013302196055984174,0.01015650487143411,0.9849862035312955
2016-01-11,-1,-0.0021590525712799962,-0.001816351234818601,-0.01012826029247067,0.010883084605687847,0.985006379718211
2016-01-13,-1,-0.0039768436230970304,-0.0033878469396925095,-0.01012826029247067,0.011623229067863637,0.9856581516163022
2016-01-15,-1,-0.005456838208664386,-0.004719324947560234,-0.01012826029247067,0.013487178840852893,0.9840319661300517
2016-01-20,-1,-0.005558742471545826,-0.0047840960533719465,-0.012438965431083998,0.015095075240550837,0.9827572832283037
2016-01-22,-1,-0.006099715728912271,-0.005357420691330066,0.0006045615708879107,0.015095075240550837,0.9823915715434368
2016-01-26,-1,-0.006956902907297351,-0.006046657861237046,-0.00038857724699729596,0.013487178840852893,0.9820637172415417
2016-01-28,-1,-0.005938971522224733,-0.005179980858705021,-0.00383803242912812,0.013390337015567291,0.9829071539476797
2016-02-01,-1,-0.005365383752699691,-0.004704406781235243,-0.0058402246817274295,0.015412896913506058,0.9813593077427033
2016-02-03,-1,-0.005970721544679749,-0.005247694721402463,-0.00020221189314283963,0.015782130200356327,0.9824353624213522
2016-02-05,-1,-0.005174638200781222,-0.00453368652153701,-0.00020221189314283963,0.015782130200356327,0.9831544697275021
2016-02-09,-1,-0.0034488216162494867,-0.003083117211287547,-0.009092837053465402,0.015782130200356327,0.9830860023991413
2016-02-11,-1,-0.004227687070461342,-0.003715443075075024,-0.004735871199186321,0.015782130200356327,0.9823898984462517
2016-02-16,-1,-0.0036786359314341056,-0.003216613361569806,-0.004735871199186321,0.014104329355839976,0.9841831747849805
2016-02-18,-1,-0.003760565698259616,-0.003259041733307809,-0.0012926242214746008,0.01644229766336672,0.9832645534714505
2016-02-22,-1,-0.0034414801611177743,-0.0029317022304913426,-0.0012926242214746008,0.016637791861995033,0.9834431430729779
2016-02-24,-1,-0.003535869005403215,-0.003062322389588773,-0.0012926242214746008,0.016637791861995033,0.9837757308840358
2016-02-26,-1,-0.002463516110627409,-0.0021794830747814847,-0.0023768283453872584,0.016637791861995033,0.9832169521930523
2016-03-01,-1,-0.002117298916126386,-0.0018627143543677597,-2.7538099098575692e-05,0.016637791861995033,0.9838041836049766
2016-03-03,-1,-0.0005669713599830317,-0.0005495082248714925,-0.004519632417928145,0.016637791861995033,0.9847302400298839
2016-03-07,1,0.00048276511553045685,0.0005854038322196176,-0.009900930349833097,0.013316610914262542,0.985576795380383
2016-03-09,-1,-0.0021807451669177795,-0.0019051459437716572,-0.007573707764836308,0.013316610914262542,0.9869778674556988
2016-03-11,-1,-0.00043081533352136333,-0.00037408911419663926,-0.013613847080275788,0.013316610914262542,0.9872959418795231
2016-03-15,-1,-0.0003209044882012313,-0.0002902603264251624,-0.013613847080275788,0.015388991449458335,0.9854865259706761
2016-03-17,1,0.0013638582385172699,0.0015848862481257196,-0.013613847080275788,0.012454301790632163,0.9867260849758633
2016-03-21,1,0.001313169191527334,0.0015120857694434129,-0.013613847080275788,0.012454301790632163,0.9866449207367787
2016-03-23,1,0.001409852634797581,0.0016555104689560435,-0.00853241590040863,0.012454301790632163,0.9870871958925821
2016-03-28,1,0.0005804748358067242,0.0006999681631283157,-0.006545885233732609,0.01340419764031385,0.9841824599713227
2016-03-30,1,0.0018322114286338151,0.002131608251887205,-0.006545885233732609,0.013014425403327513,0.9847771733695173
2016-04-01,1,0.001058864809360707,0.0012425780091650383,-0.00853241590040863,0.013014425403327513,0.9842795595688622
2016-04-05,1,0.0015560305881625082,0.002117495907973068,-0.00853241590040863,0.013014425403327513,0.9843842854336724
2016-04-07,1,0.0006240501950987008,0.0009958878029620785,-0.006545885233732609,0.013014425403327513,0.9849351021104816
2016-04-11,1,0.0005405655795620028,0.0009055873078123867,-0.006545885233732609,0.009067660517509409,0.985956110621992
2016-04-13,1,0.0012651747809437003,0.0017340366301042927,-0.008131925093115167,0.009067660517509409,0.9858665108117666
2016-04-15,1,0.003197331224713817,0.004024306025670822,-0.013903658863406373,0.007072655030253335,0.9846290501947873
2016-04-19,1,0.002872856035568097,0.0035861257877238366,-0.013903658863406373,0.005226330501705179,0.9850720959294536
2016-04-21,1,0.002934078334862198,0.0036666450900565075,-0.014197552311486835,0.0040478211869131,0.9843699661754491
2016-04-25,1,0.0038972411230839914,0.004754051122331571,-0.014197552311486835,0.0040478211869131,0.9876926167957962
2016-04-27,1,0.003828450230137062,0.004632043364996678,-0.015668325413173895,0.0040478211869131,0.9864652248507481
2016-04-29,1,0.003721322663112528,0.004583303079043269,-0.014197552311486835,0.00637372703391567,0.9884097239607059
2016-05-03,1,0.0022962793965420605,0.002893273365737073,-0.012818157488602322,0.0039158933091576155,0.9892038952149109
2016-05-05,1,0.002473846790304555,0.003132013964218494,-0.012818157488602322,0.0039158933091576155,0.9893120581340696
2016-05-09,1,0.002748516233127538,0.003480126778151855,-0.009706323154502436,0.003766519656933591,0.9901531235685752
2016-05-11,1,0.00320935346144571,0.004023343627120869,-0.007598705519825921,0.003766519656933591,0.9903816339072834
2016-05-13,1,0.0012159485412860513,0.0016613712581834495,-0.009140330868973395,0.003766519656933591,0.9912583293150066
2016-05-17,1,0.001639024581734698,0.0021875724082411705,-0.009140330868973395,0.005793678199488112,0.9909374560692261
2016-05-19,1,0.001402127820809521,0.0019323716330829168,-0.006069329760811081,0.008311143997123661,0.9911972492140696
2016-05-23,1,0.0013735642011603558,0.0018764821470402613,-0.005742873254254807,0.0067472249401927436,0.9916247846544376
2016-05-25,1,0.0008614167820782113,0.0012836949037006269,-0.004345690465791008,0.008311143997123661,0.9925585126297027
2016-05-27,1,0.0006374784520451587,0.0009520533414395934,-0.008160961349304574,0.008311143997123661,0.9884912455592286
2016-06-01,-1,-0.0004982554748910055,-0.0004642154069529132,-0.005742873254254807,0.011249516557679085,0.9863655571133362
2016-06-03,-1,-0.0007583397113541939,-0.0007178930086586027,-0.005742873254254807,0.011966887495095535,0.9855338635150589
2016-06-07,-1,-0.0017589378384172713,-0.001480503302971916,-0.008160961349304574,0.012304109952287569,0.9845719008795366
2016-06-09,-1,-0.0008717525907602043,-0.0006957975096835898,-0.010348325254306807,0.012304109952287569,0.9842685568293121
2016-06-13,-1,-0.0021383672064261036,-0.0018121779806580828,-0.005742873254254807,0.013505527711833125,0.9839425334546692
2016-06-15,-1,-0.0030872880267910647,-0.0025908691752002714,-0.0012513647066874944,0.016584755009619572,0.9822151055642729
2016-06-17,-1,-0.002347073732674173,-0.0019381581934597946,-0.004319338226147503,0.016584755009619572,0.983495438751535
2016-06-21,-1,-0.0021765821524746057,-0.0018165769862730744,-0.0025363278916835583,0.016584755009619572,0.9838576258343246
2016-06-23,-1,-0.001394538017872975,-0.0011245700810273561,-0.0025363278916835583,0.016584755009619572,0.985025727227888
2016-06-27,-1,-0.003857642909935308,-0.003254579579654579,-0.0009253070854631359,0.016584755009619572,0.9871409793171915
2016-06-29,-1,-0.0022010370981152927,-0.0018490439453114917,-0.002126232511046646,0.01155664126753235,0.9895683615249349
2016-07-01,-1,-0.0012387602272411024,-0.0010329753054681002,-0.0028166287053986512,0.009252336332167755,0.9901304557569325
2016-07-06,-1,-0.0015085180571378428,-0.0012504489484605058,-0.0028166287053986512,0.009252336332167755,0.9900697219658945
2016-07-08,-1,-0.0004830493211678859,-0.0003987921019764127,-0.0028166287053986512,0.009252336332167755,0.9908757494942337
2016-07-12,1,0.0002692852444302543,0.0002880899594353189,-0.0030791270780449313,0.00754821048210838,0.9914442641472895
2016-07-14,1,0.0015615833630358749,0.0017801067108913571,-0.0043560350830970955,0.005486323422670489,0.9921807705622092
2016-07-18,1,0.0009692180280781119,0.0010247697288830128,-0.007752104439146149,0.006553439629414206,0.9915711711714571
2016-07-20,1,0.0010681869008373382,0.0011509984415369802,-0.007752104439146149,0.007364170973446245,0.991477195801765
2016-07-22,1,0.0012160821985106752,0.0013111556383294102,-0.007752104439146149,0.00803858312029857,0.9907516135869242
2016-07-26,1,0.0015993847556868889,0.0017924231103269245,-0.007752104439146149,0.007463839748705151,0.9907297536876609
2016-07-28,1,0.001208135161129629,0.0014239478776206188,-0.004166799063140601,0.007463839748705151,0.9922540806652604
2016-08-01,-1,-0.00043312921498284135,-0.000333316154179692,-0.0025557254908768444,0.008459507870308206,0.9919291756450218
2016-08-03,1,0.00012749620317252478,0.0001511003324722651,-0.0025557254908768444,0.007463839748705151,0.9930021603519951
2016-08-05,1,0.00036595813609338943,0.00040929851621525587,-0.0013992809741167195,0.007233936352469151,0.9939366906163998
2016-08-09,1,0.000912066976938819,0.001144964132410896,-0.0013992809741167195,0.007463839748705151,0.9934924697068188
2016-08-11,1,0.0011955324915722265,0.0014821330924990207,-0.0013992809741167195,0.006586662554500507,0.9926446406116413
2016-08-15,1,0.0007504682037916635,0.0009395178199314009,-0.0013992809741167195,0.007463839748705151,0.9917807472817141
2016-08-17,1,0.0008833595149950442,0.0010514405730906052,-0.0013992809741167195,0.007816306151544349,0.9916772189682638
2016-08-19,1,0.0018331364067809555,0.0021856973669429616,-0.0019119332081485793,0.007361178986831269,0.9922785091608339
2016-08-23,1,0.0016247863886070142,0.0019111172568436136,-0.001333572489533299,0.00789902772885399,0.9920516429403405
2016-08-25,1,0.0012891190791910175,0.0014895860002226355,-0.002083380245161197,0.008760117823794107,0.9915813664988196
2016-08-29,1,0.0016647082103258743,0.0018917758790618472,-0.00322399072512509,0.008760117823794107,0.991636649971059
2016-08-31,1,0.001374987568928611,0.0015702503666132806,-0.00322399072512509,0.009576805816103592,0.9913416564867944
2016-09-02,1,0.0016268589536890942,0.0018992486622880858,-0.00322399072512509,0.010663850276847726,0.990531881020692
2016-09-07,1,0.0015399989939696638,0.0018068020761160845,-0.00322399072512509,0.011551196550582805,0.9904703329375876
2016-09-09,1,0.000626555921052855,0.0007734761599412754,-0.00322399072512509,0.011551196550582805,0.991680095797271
2016-09-13,1,0.0007352251879616971,0.0008902953484717256,-0.0037182535027414807,0.009726660497516639,0.9922656239544393
2016-09-15,1,0.0018566778511027349,0.002151008468436237,-0.0047021600144208486,0.011551196550582805,0.9913269693592204
2016-09-19,1,0.002228568455742902,0.0026195076457037727,-0.0047021600144208486,0.011551196550582805,0.9915530215597521
2016-09-21,1,0.0020547478806847612,0.0023629039744878615,-0.0047021600144208486,0.009222369098317517,0.9919805485205382
2016-09-23,1,0.001937194872338674,0.0022090792635192772,-0.00761048815039035,0.007989945568492023,0.9909517242582424
2016-09-27,1,0.0021491443374704175,0.0024382480857156274,-0.00761048815039035,0.004905963009899883,0.9915519831515526
2016-09-29,1,0.00214181811540741,0.002395605987426706,-0.010251320408076496,0.004905963009899883,0.9898590582292531
2016-10-03,1,0.002762827867838139,0.0031001324983952827,-0.010251320408076496,0.007189492127735618,0.9901776047905783
2016-10-05,1,0.002226280849841493,0.0024321450404443863,-0.010388236430877917,0.004930423826227668,0.9904902683004997
2016-10-07,1,0.0019589363679096096,0.002115191849249888,-0.010388236430877917,0.004930423826227668,0.9906661713878329
2016-10-11,1,0.000851634295328955,0.0008627147046227533,-0.002316233388309772,0.008451484174190834,0.9897635213701198
2016-10-13,1,0.0009996804865029223,0.001020074521902559,-0.0017080101163410308,0.010317972345148523,0.9889918060793693
2016-10-17,1,0.0004493004067924487,0.0005572327112862353,-0.0017080101163410308,0.011959307288628769,0.9874061547098343
2016-10-19,1,0.0007553490034684781,0.0008305288599125678,-0.002316233388309772,0.011959307288628769,0.9867982105435197
2016-10-21,-1,-0.0005372027171541212,-0.0002907077067179648,-0.00013929421362061,0.011959307288628769,0.9876443466225425
2016-10-25,-1,-0.0005714461680192043,-0.0003140339369691815,-0.0017693407808678846,0.012002816406358561,0.9870144078399453
2016-10-27,-1,-0.001120329618945312,-0.0008041293253917226,0.00048464250077215397,0.011072987352098598,0.9889422677015521
2016-10-31,0,-8.058871911137335e-05,7.7612821584383e-05,-0.0017693407808678846,0.011072987352098598,0.9898961074875773
2016-11-02,-1,-0.001269926352377117,-0.0009117199137100281,0.00048464250077215397,0.01263898393064127,0.9892274784279728
2016-11-04,-1,-0.0014887506503364469,-0.0011094116614547198,0.0013081032467219685,0.01263898393064127,0.9884525708012272
2016-11-08,1,0.000611873834320085,0.0007020117985469495,0.0013081032467219685,0.01263898393064127,0.9900790120551552
2016-11-10,1,0.0017622727857324273,0.0017781302731778178,0.0013081032467219685,0.005372254362542819,0.9925101448694175
2016-11-14,1,0.003271472370619392,0.003501155006982528,-0.0002282666099627296,0.004058629804794885,0.9936670779404818
2016-11-16,1,0.0009953940848335303,0.0011442330031471034,-0.0002282666099627296,0.003972322122890079,0.993178471423055
2016-11-18,1,0.001857359981675779,0.0018838337622628385,-0.004141042565080894,0.003972322122890079,0.992626021062678
2016-11-22,1,0.0021515194010483228,0.002243956683448883,-0.0016705907608212491,0.003972322122890079,0.9929654237669745
2016-11-25,1,0.0020459317243114623,0.0021132269607936236,-0.0016705907608212491,0.005012862527378852,0.9926585442562978
2016-11-29,1,0.002244954895356034,0.0023630362421890373,-0.0024994081623015965,0.005012862527378852,0.9926182307638184
2016-12-01,1,0.0031404777806176747,0.003422183815454423,-0.006725283870511583,0.004678963625949871,0.9928470261114981
2016-12-05,1,0.003203634047375421,0.0035630668091364026,-0.006725283870511583,0.005012862527378852,0.9914171100806264
2016-12-07,1,0.004273618814465961,0.004767048990732334,-0.006725283870511583,0.005012862527378852,0.9918908952029145
2016-12-09,1,0.0043157387796276675,0.004809180103129709,-0.007111449465415802,0.004678963625949871,0.9904862226336087
2016-12-13,1,0.003946368192518194,0.004388970786211031,-0.006725283870511583,0.005383939056181243,0.9910300180306281
2016-12-15,1,0.003374583005260957,0.0037530792777599746,-0.006725283870511583,0.005607549567190838,0.9909365183210557
2016-12-19,1,0.0012928575575380217,0.0014120919549553703,-0.004039967659374028,0.010268231662250311,0.9895567352545238
2016-12-21,1,0.0006792355732309057,0.000691041698515967,-0.006725283870511583,0.007523450033058295,0.9895913466837473
2016-12-23,1,0.0010650406107407888,0.0011168224867787518,-0.006725283870511583,0.011960486293220099,0.9872358274464731
2016-12-28,1,0.0006347817149408032,0.0006362967007468969,-0.006982584753598836,0.011960486293220099,0.9868189261835397
2016-12-30,1,0.00023340483129651938,0.0002866133862640633,-0.007556143434281117,0.011960486293220099,0.9859533408258263
2017-01-04,1,0.001243623586040483,0.0013282571287316289,-0.0063004190081491504,0.011960486293220099,0.9869520586697207
2017-01-06,1,0.0010784309027269438,0.0011112087096018944,-0.0063004190081491504,0.010320820741518279,0.9870424088743464
2017-01-10,1,0.00017168498620879745,0.00022552066333577213,-0.0051690360673217976,0.010320820741518279,0.9877028488667433
2017-01-12,1,0.0009604589108263952,0.001025445224429879,-0.0051690360673217976,0.008775692710648842,0.9881914876129637
2017-01-17,-1,-7.338167053193826e-05,-1.5248945936094334e-05,-0.0041011375926026826,0.00920586306075416,0.989011158456156
2017-01-19,1,0.00031286467871794805,0.0003291260324725872,-0.0041011375926026826,0.008321373033438152,0.9913515242667866
2017-01-23,1,0.00038332176546145464,0.00042827747046938406,-0.0027573088536846863,0.008321373033438152,0.99143479666272
2017-01-25,1,0.0016774694727119633,0.0018766522579299872,-0.0051690360673217976,0.006338532528418752,0.9930221722443301
2017-01-27,1,0.001188029148912068,0.0013427925040030819,-0.0041011375926026826,0.006653010383881789,0.9933577668852611
2017-01-31,1,8.984188971485738e-06,2.304658043138329e-05,-0.0015146369658019703,0.008321373033438152,0.9934063986630141
2017-02-02,0,-4.535220543535481e-05,3.268438068142746e-05,-0.0015146369658019703,0.006653010383881789,0.9937696894146675
2017-02-06,-1,-0.00017300677013796004,-8.657495544846949e-05,-0.0015146369658019703,0.005407417952584653,0.9938007388128167
2017-02-08,1,0.00044049731394593027,0.00044859584599624705,-0.004832014192675342,0.004540973584773076,0.993228803725263
2017-02-10,1,0.00036960778186835883,0.00037575558420807446,-0.004832014192675342,0.004540973584773076,0.9933728762363454
2017-02-14,1,0.000822316760785699,0.0009108608996449934,-0.008122758672717513,0.0027156930599156383,0.9929671274558624
2017-02-16,1,0.0009593574996699922,0.0010516064190851148,-0.009814388431508664,0.0027156930599156383,0.9917363021235887
2017-02-21,1,0.001213247554279196,0.0013605869060104945,-0.010606274700757368,0.001394344612884613,0.9905035062689634
2017-02-23,1,0.0001019352158772818,0.00011075499747759907,-0.010132804842551814,0.0022385528659698652,0.9916551737331145
2017-02-27,1,0.0009308254544567491,0.0010785657143484659,-0.010132804842551814,0.0022385528659698652,0.9917313231682259
2017-03-01,1,0.001335383296055283,0.001526605221972844,-0.010132804842551814,0.0022385528659698652,0.9915521995100837
2017-03-03,1,0.0009518886866781388,0.0010915043512284052,-0.010132804842551814,0.0022385528659698652,0.9911363886514216
2017-03-07,1,0.00023636364477063338,0.0002646120388331501,-0.010132804842551814,0.002877917356477912,0.9904461409234326
2017-03-09,-1,-0.0004892117974427392,-0.00038835535203322967,-0.007791171106540583,0.005482008263924778,0.9908696795704727
2017-03-13,-1,-0.0007050506997965747,-0.000558252426435557,-0.007791171106540583,0.005482008263924778,0.9908715170377429
2017-03-15,-1,-0.001133415704424843,-0.0009525271353081116,-0.006890048317104524,0.005482008263924778,0.9901385305112587
2017-03-17,-1,-0.003119307560077753,-0.002642229925827056,-0.0036515214726489664,0.009395726846165022,0.9900124682931691
2017-03-21,-1,-0.004228048885735641,-0.003632000032879915,-0.003137266406883961,0.009395726846165022,0.9908971932994596
2017-03-23,-1,-0.006319420819913324,-0.005445115640905936,-0.002811199257375034,0.010933700849668519,0.9879828503841852
2017-03-27,-1,-0.005508623570352552,-0.004760751492593272,-0.002811199257375034,0.010933700849668519,0.9886269024454564
2017-03-29,-1,-0.005425844407584257,-0.004662556259681767,-0.002811199257375034,0.009395726846165022,0.9887744474796848
2017-03-31,-1,-0.006292395677547798,-0.00541446375948385,-0.002811199257375034,0.009185101849792777,0.9889568165605996
2017-04-04,-1,-0.0041181689536273595,-0.0035678135759305884,-0.003137266406883961,0.006462025038323861,0.991644958912351
2017-04-06,-1,-0.0034549138708992746,-0.003056037572169383,-0.0030420631052111066,0.005087521729711331,0.9923892061709507
2017-04-10,-1,-0.0031452227951872533,-0.0028514711553972566,-0.0030420631052111066,0.006369611773411168,0.9917677233256964
2017-04-12,-1,-0.004961484673848602,-0.004421383534271385,-0.002811199257375034,0.006369611773411168,0.9916759832379587
2017-04-17,-1,-0.004052510110075608,-0.0036344615836620795,-0.002811199257375034,0.005087521729711331,0.992677272824897
2017-04-19,-1,-0.004268148889432418,-0.0038318825632026707,-0.0025192449073561133,0.005087521729711331,0.9908034344786156
2017-04-21,-1,-0.0026426108439728613,-0.002368003671192147,-0.0025192449073561133,0.004837793814244703,0.9927767684538865
2017-04-25,-1,-0.002560075339377789,-0.0023023318187845665,-0.002518014508684387,0.004893168835003446,0.9925031427842708
2017-04-27,-1,-0.0017298978182287636,-0.0015954524179056647,-0.002518014508684387,0.0046884649614637825,0.991311749566922
2017-05-01,-1,-0.0020713202685262635,-0.0018601939076950732,-0.0017310119439566294,0.0065357368356874,0.9898855850631739
2017-05-03,-1,-0.001237148519524489,-0.0011947923043616102,-0.0009891081734897064,0.0065357368356874,0.9905384160477133
2017-05-05,-1,-0.0011971422497374204,-0.0011646322519371372,-0.0017310119439566294,0.0065357368356874,0.9901044159264049
2017-05-09,-1,-0.0013256168650769837,-0.0012668713844004077,-0.003237706011103317,0.0054508213843570755,0.990201121370757
2017-05-11,-1,-0.0016585454628236284,-0.0015328837308616727,-0.006253546387905303,0.0054508213843570755,0.9896207974893633
2017-05-15,-1,-0.0017293641263272557,-0.0015743037125585972,-0.006253546387905303,0.006949825177854831,0.9890435517297931
2017-05-17,-1,-0.004017804352472065,-0.0036152325126738807,-0.006253546387905303,0.006949825177854831,0.9892445728692321
2017-05-19,-1,-0.0031813073393806507,-0.0029045086316514526,-0.006253546387905303,0.008148089303876845,0.9892395313615183
2017-05-23,-1,-0.002772332568956335,-0.002532274064224091,-0.007485804608006146,0.007445699057850294,0.989253805615757
2017-05-25,-1,-0.0008727940477128796,-0.0008516500665695154,-0.007485804608006146,0.007445699057850294,0.9910899412442783
2017-05-30,1,0.00012643153475117128,0.00028234851203712144,-0.007485804608006146,0.004481817030566083,0.9926642221231697
2017-06-01,1,0.00013530137410777145,0.0003066451228798537,-0.009400333036825416,0.006715695095845981,0.9917108583668108
2017-06-05,-1,-0.0009406721515593128,-0.000918970357550491,-0.0070117364497333644,0.008320458656325672,0.9908142241671161
2017-06-07,-1,-0.0012234926589259568,-0.0012034509323040027,-0.006196166911902594,0.008320458656325672,0.9908599662438607
2017-06-09,-1,-0.002072504635020555,-0.0018934009237044393,-0.003999006442543939,0.008721899605511292,0.9905795810746114
2017-06-13,-1,-0.000794055860244518,-0.0007367236935726034,-0.004285803152453844,0.008437459055893267,0.9911898726660727
2017-06-15,-1,-0.0018211091093726873,-0.0016317278355501023,-0.004285803152453844,0.009680121610645197,0.9912194388267612
2017-06-19,0,-8.687260618325609e-05,2.182826830196392e-05,-0.004285803152453844,0.009680121610645197,0.991929016476346
2017-06-21,-1,-0.0006303624012705695,-0.0006076998494341343,-0.005110326690082864,0.009680121610645197,0.991118337462329
2017-06-23,-1,-0.00046956651008932547,-0.00046564480223376263,-0.0056110358503092435,0.007043727931442551,0.9915385293068619
2017-06-27,-1,-0.00018837432190911375,-0.00011450282186960565,-0.006724878203659729,0.009680121610645197,0.9900833633132563
2017-06-29,0,-5.094680822920384e-05,5.6334450017522656e-05,-0.007154102931503644,0.009503554458220737,0.9892886022624944
2017-07-03,1,0.0011317236034875378,0.0014238199711886345,-0.012354109599286057,0.005637957844896543,0.989649462595454
2017-07-06,1,0.0006602400407037532,0.0008867099450051521,-0.007850917947591254,0.006886982370969134,0.9900357610043177
2017-07-10,1,0.0014484769360766847,0.0018018102514803778,-0.007850917947591254,0.008935162500161074,0.9895837094662654
2017-07-12,1,0.0016172930322736136,0.0020073532291663854,-0.007850917947591254,0.010501049590322473,0.9895973991924933
2017-07-14,1,0.0020393191043196006,0.0024969046201661856,-0.015132744818479291,0.00987719897798603,0.9890872871023617
2017-07-18,1,0.0012536560305269047,0.0015331313046946758,-0.015132744818479291,0.010501049590322473,0.9882128106660681
2017-07-20,0,-3.260264451014638e-05,0.00010138975854153515,-0.007850917947591254,0.010501049590322473,0.9885568625037576
2017-07-24,1,9.999189136193317e-05,0.0002864548835383794,-0.009680424087363589,0.010501049590322473,0.9881840563587582
2017-07-26,-1,-0.0004151412878577455,-0.00030475077227609356,-0.009100844947838284,0.010501049590322473,0.987939444379428
2017-07-28,-1,-0.0012097975867639995,-0.0012046871027677952,-0.008591575136685764,0.00987719897798603,0.9889080908127271
2017-08-01,-1,-0.0020200958886260317,-0.0018904022525155675,-0.005276156962274474,0.010594245537810692,0.9887555902281304
2017-08-03,-1,-0.0016264875597364252,-0.0015440207358943761,-0.004878164203626688,0.011223751592424263,0.9887885409010129
2017-08-07,-1,-0.001135804025310252,-0.0010829431441517405,-0.004878164203626688,0.01012400258434434,0.9897302414441601
2017-08-09,-1,-0.00111625102402665,-0.0010167851246590995,-0.004878164203626688,0.01114670933680317,0.98929333333257
2017-08-11,-1,-0.002157166280347675,-0.0018736596087106363,-0.0026281794861811505,0.011773453846800227,0.989226566250451
2017-08-15,-1,-0.0014228284312933557,-0.001208852079807624,-0.0026281794861811505,0.01114670933680317,0.9907969612150344
2017-08-17,-1,-0.002291157602773366,-0.0019881467197098036,-0.0008683569029683679,0.01114670933680317,0.9911388626518273
