JNU-Tangyin/eata/results/Batch4_SP500/Batch4_SP500-JBHT.csv
Date,Action,Predicted_Q25,Predicted_Q75,Actual_Q25,Actual_Q75,RL_Reward
2010-12-14,0,0.0,0.0021032983278881662,-0.0030708223233696617,0.00876132962875443,0.9939918688852297
2010-12-16,0,0.0,0.0,-0.001990269474954554,0.005544585051198031,0.9938705689324157
2010-12-20,1,0.0017080067480861822,0.0019185495903020905,-0.0013372874694996134,0.007304056919120755,0.9933651067241709
2010-12-22,1,0.002339455614061615,0.0026502309550057437,-0.001990269474954554,0.004596535269101412,0.9938453771584563
2010-12-27,1,0.0032111956893516565,0.0036408147785412784,-0.000785343862818519,0.006152733263051078,0.99385272661724
2010-12-29,0,0.0,0.0,-0.0004805506621635056,0.007918738127406373,0.992369629047237
2010-12-31,0,0.0,0.0,-0.003369948703533496,0.007323423958392928,0.9907116484827423
2011-01-04,1,0.0018677549001883257,0.0019399838453788211,-0.003369948703533496,0.007323423958392928,0.9908482278417409
2011-01-06,1,0.0017955774472584352,0.0018633069289681658,-0.003369948703533496,0.008008174700081984,0.9903511217534026
2011-01-10,1,0.002441329002397967,0.0026333310591779326,-0.003369948703533496,0.00782936091477157,0.9908337428177297
2011-01-12,1,0.0021267097427492164,0.0022531554782663755,-0.004106433903788925,0.008008174700081984,0.9904577290477803
2011-01-14,1,0.0017561294803066048,0.0017737350533322171,-0.004106433903788925,0.008132756694315285,0.9900213988664757
2011-01-19,1,0.0010325854688680244,0.0011120516854527212,0.0006151574327312877,0.008951021063854637,0.9900819682951173
2011-01-21,1,0.0008643898798065019,0.0009192337945797775,-0.0018875098424702874,0.008951021063854637,0.990177524694079
2011-01-25,1,0.0009057407001992584,0.0009685519106026079,-0.009229067395038665,0.008951021063854637,0.9876222133353192
2011-01-27,1,0.002006566099442312,0.002137856202206226,-0.009229067395038665,0.008237400678382656,0.9880347701057597
2011-01-31,0,0.0,0.0,-0.004871208988390546,0.008951021063854637,0.9879220161910632
2011-02-02,0,0.0,0.0,-0.0018875098424702874,0.011782089612129011,0.9867606953614965
2011-02-04,0,0.0,0.0,-0.011405581487356169,0.011782089612129011,0.9862308425712321
2011-02-08,1,0.0002549796096505834,0.0002814762915575602,-0.011405581487356169,0.012705767084728562,0.9851742112646736
2011-02-10,0,0.0,0.0,-0.01227932855175925,0.012705767084728562,0.9848417062551278
2011-02-14,0,0.0,0.0,-0.01227932855175925,0.012011838127848621,0.9853235481697467
2011-02-16,1,4.4822361734396796e-05,4.8875136346028233e-05,-0.01227932855175925,0.007852155366954626,0.9863659351368198
2011-02-18,0,0.0,0.0,-0.012161517390271891,0.012011838127848621,0.9861854849304547
2011-02-23,0,0.0,0.0,-0.005701058070594436,0.012011838127848621,0.9886077094727103
2011-02-25,0,0.0,0.0,-0.005701058070594436,0.012011838127848621,0.9889802570134655
2011-03-01,0,0.0,0.0,-0.004187523322324011,0.007365343797973311,0.9904154858782522
2011-03-03,0,0.0,0.0,-0.004187523322324011,0.007852892310197802,0.9915198963421002
2011-03-07,0,0.0,0.0,-0.0015214677794679527,0.013637442265463456,0.9914863276002195
2011-03-09,0,0.0,0.0,-0.0019829127802638707,0.008163898178841198,0.9927103345000184
2011-03-11,0,0.0,0.0,-0.0019829127802638707,0.008163898178841198,0.9918073801908247
2011-03-15,0,0.0,0.0,-0.00015759637440518795,0.00998397405690127,0.9914279591723735
2011-03-17,0,0.0,0.0,-0.002161098184889445,0.013637442265463456,0.9881985615860915
2011-03-21,0,0.0,0.0,-0.004722079536200734,0.013637442265463456,0.9868458756809417
2011-03-23,0,0.0,0.0,-0.002161098184889445,0.013637442265463456,0.9865901773615967
2011-03-25,1,0.00020964678264826192,0.0005914501690866859,-0.005006465550609776,0.012836438404993863,0.987088949040338
2011-03-29,1,0.00042293313698773454,0.0005288809597835366,-0.005006465550609776,0.012836438404993863,0.9862613843210406
2011-03-31,0,0.0,0.0,-0.006109413565119079,0.009844813476313738,0.987431799205776
2011-04-04,0,0.0,0.0,-0.006245619113917933,0.00891722275104034,0.9879074541374337
2011-04-06,0,0.0,0.0,-0.006823848859383274,0.009844813476313738,0.9872168361400512
2011-04-08,1,8.435130052593842e-05,0.0003019068353869574,-0.007483572360324394,0.009844813476313738,0.988172229694768
2011-04-12,1,0.00016906810195779884,0.00039732197912688,-0.00774139094063726,0.009844813476313738,0.9880505422433837
2011-04-14,1,0.0028816996036948434,0.0030315146154660543,-0.008004497518692238,0.0069979665519425745,0.9900769546785906
2011-04-18,1,0.0017559098322878957,0.0017979695294365065,-0.00774139094063726,0.004421515734256485,0.9919673763047913
2011-04-20,1,0.0019017813337597956,0.0019281570169332205,-0.00774139094063726,0.004421515734256485,0.9916197423350802
2011-04-25,1,0.0011571129461621036,0.0013078502004690486,-0.008198061461726249,0.0014072267164583257,0.9910984181818006
2011-04-27,1,0.0028386302734823444,0.003000459337926444,-0.008198061461726249,-0.0005364108288821728,0.9905240752976605
2011-04-29,1,0.002470542904027077,0.0026020085543399423,-0.007992503881332784,6.779997595312269e-05,0.9906860378622917
2011-05-03,1,0.002167171732247162,0.00230440726456399,-0.007992503881332784,0.003219859130964212,0.9893295655055603
2011-05-05,1,0.002407906172113067,0.002597035520509265,-0.008198061461726249,0.003219859130964212,0.9890329037788775
2011-05-09,1,0.0012995569298161857,0.0013044624598811095,-0.008198061461726249,0.005209886050595261,0.9894579746872227
2011-05-11,1,0.0012217252544767941,0.0012239010967780254,-0.008198061461726249,0.002872276989775927,0.9898066544934775
2011-05-13,1,0.0002177886944137541,0.00036966576358186845,-0.007617854336265658,0.002872276989775927,0.9904902456785332
2011-05-17,1,0.0005108071991301305,0.0005674073031168062,-0.007488436805677882,0.00575316407934962,0.9894834862986267
2011-05-19,1,0.0010979749494501537,0.0011007400620866624,-0.007488436805677882,0.00575316407934962,0.9896974917089937
2011-05-23,0,-6.978459901589898e-05,7.759464295745079e-05,-0.006018611534866958,0.008698114453721687,0.9900002406449937
2011-05-25,-1,-0.0002193380779198324,-6.448366743829788e-05,-0.00416070146398986,0.00986925571398131,0.9896901121599897
2011-05-27,0,-2.3222274127971288e-05,8.80339801471176e-05,-0.00416070146398986,0.00986925571398131,0.9896629139662516
2011-06-01,-1,-0.0008745874880315421,-0.0006656341248682531,-0.00315703531832858,0.00986925571398131,0.991199465296047
2011-06-03,-1,-0.0008925002621339567,-0.0006977720392500506,-0.002968756729255781,0.011649359944362357,0.9913260711795807
2011-06-07,-1,-0.0013936557994186109,-0.0011350762242280142,-0.002968756729255781,0.01397953088030869,0.9912386816209523
2011-06-09,-1,-0.001407843875242171,-0.0011637276633393481,-0.002968756729255781,0.014744721659598347,0.9902418387545453
2011-06-13,-1,-0.0018336753142980896,-0.0015140163707791402,-0.0032311762170790436,0.014744721659598347,0.9896387799205009
2011-06-15,-1,-0.001305393991912748,-0.001025800408402182,-0.0041309913714985,0.01397953088030869,0.9906201817997151
2011-06-17,-1,-0.00039510883872999455,-0.00024493058218188004,-0.005264532646712004,0.012568461279923882,0.990931749536192
2011-06-21,1,0.0008235493302878409,0.0008628955809715988,-0.005669968165808499,0.011237717825716781,0.9910934324964935
2011-06-23,1,0.000148741057653285,0.00026986180253292557,-0.005669968165808499,0.008493752692799105,0.9914558571615554
2011-06-27,-1,-0.0005714763477600561,-0.0003378860497362401,-0.005669968165808499,0.008493752692799105,0.9905992164053047
2011-06-29,1,0.00022003701708659762,0.0003383039720861891,-0.007258672256653203,0.006430156496527086,0.9906393512717998
2011-07-01,1,0.0010274496722470626,0.0010415734703704835,-0.007258672256653203,0.0026910488429216194,0.9910397696184887
2011-07-06,1,0.0013541048217223465,0.0013915707386190845,-0.010725633243950882,0.002018606069735581,0.9900003249917957
2011-07-08,1,0.0014945516819120474,0.0015756556675682264,-0.013776547148601104,0.002018606069735581,0.9875535226705027
2011-07-12,1,0.0010439654258760772,0.0011210109480957868,-0.015267698397884692,0.0034323078409901897,0.9829510485133298
2011-07-14,1,0.0007904517506090533,0.0008110070218213853,-0.020792938718880757,0.0036072234216421944,0.9798501037452297
2011-07-18,-1,-0.00019256322578768963,-9.476767476238393e-06,-0.020792938718880757,0.0036072234216421944,0.9785189078480647
2011-07-20,-1,-0.0004433861930458906,-0.000256851795907848,-0.02467592738477105,0.0036072234216421944,0.9780069094084423
2011-07-22,0,0.0,0.0,-0.03060124304580519,0.002018606069735581,0.9750973053651598
2011-07-26,-1,-0.0003901343474983742,-0.00025111787362478935,-0.025877859399775154,0.018589229199951877,0.9744323158905804
2011-07-28,-1,-0.0014167355182077607,-0.0011347119740153823,-0.025877859399775154,0.018589229199951877,0.9742984922045372
2011-08-01,-1,-0.0010321198580254321,-0.0008369092962859852,-0.025877859399775154,0.026102911089697325,0.9720066396787618
2011-08-03,-1,-0.0027984013260767284,-0.0023687286488971635,-0.01789286725346882,0.026102911089697325,0.9726631807826764
2011-08-05,0,0.0,0.0,-0.01789286725346882,0.02483153277671169,0.974027041683535
2011-08-09,-1,-0.006897519999876858,-0.005932241193816048,-0.016732679477193185,0.02483153277671169,0.9783346966461608
2011-08-11,-1,-0.007344366053227122,-0.0063692883937864694,-0.016063972203203585,0.01816543642895667,0.9814813839253055
2011-08-15,-1,-0.006654128725742156,-0.005730834779998764,-0.016063972203203585,0.01816543642895667,0.9813968547782747
2011-08-17,-1,-0.007642575876849678,-0.006640397931877139,-0.015339897705542085,0.01816543642895667,0.9808563000407274
2011-08-19,-1,-0.010405923936629365,-0.009101712041647532,-0.015339897705542085,0.01816543642895667,0.9814972127533931
2011-08-23,-1,-0.0066793652109108405,-0.005901883783154083,-0.01642783691061541,0.010202758727247501,0.982089549460986
2011-08-25,-1,-0.006855788324210491,-0.006067332205113642,-0.01642783691061541,0.01488897577379612,0.9815491780761523
2011-08-29,-1,-0.0039964392091674265,-0.003559235471504231,-0.01642783691061541,0.01488897577379612,0.9816802317949723
2011-08-31,-1,-0.005098453937601505,-0.004463034321631172,-0.017546187364591844,0.01730886977600366,0.9808186631812923
2011-09-02,0,0.0,0.0,-0.017546187364591844,0.01730886977600366,0.9798682407200794
2011-09-07,-1,-0.004154252299590537,-0.003811748659874971,-0.01633514149900314,0.01730886977600366,0.9797778142313263
2011-09-09,-1,-0.005236715811668756,-0.00474862786934087,-0.01506651466646651,0.022229915730907688,0.9784435176650537
2011-09-13,-1,-0.0028517226592960215,-0.0026653574697272637,-0.01506651466646651,0.022229915730907688,0.9793698518164093
2011-09-15,-1,-0.002140382490832639,-0.002037666259867423,-0.01506651466646651,0.022229915730907688,0.9788432515745356
2011-09-19,-1,-0.0021076710942836982,-0.002064993818584346,-0.01800350533958678,0.02410865516484688,0.9741167329518777
2011-09-21,-1,-0.00626093462525159,-0.005723925417911175,-0.013105575757346602,0.024577915119933708,0.9753147034529236
2011-09-23,0,0.0,0.0,-0.013105575757346602,0.025305466454305748,0.9759861219314337
2011-09-27,0,0.0,0.0,-0.01602057651641571,0.02410865516484688,0.9774226808544793
2011-09-29,-1,-0.0031851843339894695,-0.0028989695765567827,-0.013105575757346602,0.024587753016053468,0.9770204170140248
2011-10-03,-1,-0.004982978655455607,-0.004498374830869581,-0.013105575757346602,0.024587753016053468,0.9769080273790681
2011-10-05,-1,-0.0029036981671194118,-0.002644219928121367,-0.013689381412310297,0.02410865516484688,0.9789002645819819
2011-10-07,-1,-0.0024171216097077716,-0.002200725934988229,-0.01529772917401375,0.01788199970752561,0.9791998803960181
2011-10-11,-1,-0.0003650574166798028,-0.00026472581092283783,-0.01529772917401375,0.018131075416396133,0.9792228489091976
2011-10-13,0,0.0,0.0,-0.02084561980152607,0.016627199616078878,0.9788374717813956
2011-10-17,1,0.000695086713242478,0.0008815044384980514,-0.01723980625116227,0.016627199616078878,0.9817665401406315
2011-10-19,1,0.0008513756248252305,0.0010620681288865878,-0.014119343812368575,0.013842061557130154,0.9830528751567014
2011-10-21,1,0.00155625657146177,0.0018283101601834348,-0.014119343812368575,0.013842061557130154,0.9834368297449161
2011-10-25,1,0.0009519816267480207,0.0011342628543927077,-0.009446663891615723,0.013842061557130154,0.9842541967811015
2011-10-27,0,0.0,0.0,-0.014119343812368575,0.012774646175032746,0.9847188851426714
2011-10-31,0,0.0,0.0,-0.009446663891615723,0.014871504456306148,0.9846079638781563
2011-11-02,0,0.0,0.0,-0.006749813616257797,0.018428244193695993,0.9842933662967502
2011-11-04,0,0.0,0.0,-0.005675580109694778,0.018428244193695993,0.9853709095574735
2011-11-08,0,0.0,0.0,-0.006425752081940678,0.014871504456306148,0.9863074606468905
2011-11-10,0,0.0,0.0,-0.006425752081940678,0.016146677197602103,0.9860275214234354
2011-11-14,0,0.0,0.0,-0.007621015647081819,0.014619485487302113,0.9873582047167311
2011-11-16,0,0.0,0.0,-0.010259217984923736,0.014514815437679915,0.9868637813750534
2011-11-18,0,0.0,0.0,-0.012293378024434202,0.014514815437679915,0.9857177092694257
2011-11-22,0,0.0,0.0,-0.012293378024434202,0.016146677197602103,0.9846268881514844
2011-11-25,1,0.0051062872835203835,0.006140673972212187,-0.010259217984923736,0.016146677197602103,0.9862645692891839
2011-11-29,1,0.002856522926283368,0.0034001855715158707,-0.011007149457587299,0.009094809586690109,0.9871193010039137
2011-12-01,1,0.007899358534029682,0.009284311171958555,-0.011007149457587299,0.008919610710453668,0.9861020809656225
2011-12-05,0,0.0,0.0,-0.011007149457587299,0.007987664730131353,0.9875126332471553
2011-12-07,0,0.0,0.0,-0.01272738256101113,0.011647386785129506,0.9866306804800737
2011-12-09,0,0.0,0.0,-0.010437695100874934,0.011647386785129506,0.9872577982317693
2011-12-13,0,0.0,0.0,-0.0011874459701854323,0.013529271211997878,0.9873384647989512
2011-12-15,0,0.0,0.0,0.0019375044471135645,0.011647386785129506,0.9884221599063708
2011-12-19,0,0.0,0.0,0.0019944056458638475,0.011647386785129506,0.9896157935925036
2011-12-21,0,0.0,0.0,0.0011844614151385233,0.01075357398873282,0.9908561817765433
2011-12-23,0,0.0,0.0,-0.0009247308328651141,0.01075357398873282,0.9909882951838255
2011-12-28,0,0.0,0.0,0.0012854501887757507,0.013459920662624037,0.989675733459914
2011-12-30,0,0.0,0.0,0.0012854501887757507,0.011753235111992104,0.9904584969185721
2012-01-04,1,0.003503256125509403,0.003840240180118822,-0.0009130307703080461,0.011753235111992104,0.9912689691528583
2012-01-06,1,0.0032388640596457585,0.0035891898100654496,0.0014944036646101421,0.011521504265910792,0.9925734643581415
2012-01-10,1,0.0035851652715798064,0.0038922848296188816,-0.0009130307703080461,0.010676330373372383,0.9928715902994224
2012-01-12,0,0.0,0.0,-0.0011925969661055922,0.009482996055667993,0.9915090527288994
2012-01-17,0,0.0,0.0,-0.002201248141741833,0.009482996055667993,0.9913689267967404
2012-01-19,0,0.0,0.0,-0.00602081740347615,0.009482996055667993,0.9909664967928145
2012-01-23,0,0.0,0.0,-0.008781403107238548,0.009482996055667993,0.9903264587634365
2012-01-25,0,0.0,0.0,-0.009002840741241469,0.009482996055667993,0.9896148901402368
2012-01-27,0,0.0,0.0,-0.009002840741241469,0.007593913011924684,0.9912204588638456
2012-01-31,0,0.0,0.0,-0.009002840741241469,0.007792239427602019,0.9910089260687611
2012-02-02,0,0.0,0.0,-0.009284674246818505,0.007792239427602019,0.9899824161494601
2012-02-06,0,0.0,0.0,-0.009996223952354551,0.007620640132924863,0.9896724859362632
2012-02-08,1,0.004164234096047685,0.004740184134451544,-0.009996223952354551,0.007620640132924863,0.9892048043277284
2012-02-10,1,0.004023017080627367,0.004549905170575848,-0.009996223952354551,0.007620640132924863,0.989681609469099
2012-02-14,1,0.0011990245749642133,0.00130848875265217,-0.008942851573412963,0.009369665904533368,0.9893499616428041
2012-02-16,1,0.0011153260043300318,0.0012252199797600659,-0.008534774602594632,0.009369665904533368,0.9891794422172815
2012-02-21,1,0.001112516675697277,0.0011608581955386023,-0.0075664477551560675,0.009369665904533368,0.9891256677310527
2012-02-23,1,0.0002207635055049463,0.0003946534902108401,-0.004853864954925164,0.009369665904533368,0.9895802255739079
2012-02-27,-1,-0.0007732514055365178,-0.0003926909451908874,-0.004853864954925164,0.01449365333101947,0.9892493536268607
2012-02-29,0,0.0,0.0,-0.004853864954925164,0.01449365333101947,0.9894655177856068
2012-03-02,0,0.0,0.0,-0.004853864954925164,0.008771962970693048,0.990911096328767
2012-03-06,0,0.0,0.0,-0.0017540186915808976,0.01381112943702718,0.9907086469977745
2012-03-08,0,0.0,0.0,-0.001297682155540054,0.011748674076450853,0.9912430765043319
2012-03-12,1,0.002583939748124921,0.0025970838081177646,-0.006277066642247923,0.0069675790782561565,0.9905577790278036
2012-03-14,1,0.0013020498632540442,0.0013085848740304333,-0.004853864954925164,0.0069675790782561565,0.990911394839091
2012-03-16,1,0.0023259915028671285,0.0024972158967592386,-0.004853864954925164,0.0069675790782561565,0.9919347927478849
2012-03-20,1,0.001497333385788356,0.0015218232205177393,-0.0027418461936449313,0.0069675790782561565,0.9922289912213478
2012-03-22,1,0.0018706049428004637,0.0019847326477424165,-0.004085068584850259,0.011144055579901044,0.9914933379190698
2012-03-26,1,0.001712722699986116,0.0017719819604755187,-0.010055102065188901,0.006752412715445748,0.9915108339723564
2012-03-28,1,0.0017046301090287918,0.001746303073054053,-0.010185836195185604,0.007753202057452953,0.9908747992095547
2012-03-30,1,0.0011798345112377037,0.0012203250675110627,-0.010185836195185604,0.007753202057452953,0.9908907094772785
2012-04-03,1,0.0019287004540555304,0.0019963403615847622,-0.010185836195185604,0.005458934588269769,0.9906179966468208
2012-04-05,1,0.001379374629523067,0.0014636094478154109,-0.010471323956881811,0.005458934588269769,0.989645270678249
2012-04-10,1,0.000697211523606641,0.0008378029804436003,-0.007260300372775479,0.005950176711556572,0.990847062698942
2012-04-12,1,0.0014477385575080194,0.001493737923350363,-0.010185836195185604,0.005226100879125923,0.991090648409941
2012-04-16,1,0.0020291153649251697,0.0020886122345735465,-0.010185836195185604,0.00492148918054577,0.9913139927338684
2012-04-18,1,0.0016177489271232085,0.00162909545638817,-0.007260300372775479,0.005226100879125923,0.9913826678034825
2012-04-20,1,0.0008761647825837514,0.0010164284831610595,-0.007260300372775479,0.005226100879125923,0.9896207113277792
2012-04-24,1,0.0012293447852280341,0.00127891506101522,-0.005915139017286982,0.005950176711556572,0.9887066242896112
2012-04-26,1,0.0013069870702051576,0.0013250487372054526,-0.005650848904926121,0.009143054020292522,0.9875789426204401
2012-04-30,1,0.0012930818100354955,0.001300126918415416,-0.005049704324029206,0.01231310901855832,0.9874552902009259
2012-05-02,1,0.001763165602971844,0.0017800541434799771,-0.005650848904926121,0.009143054020292522,0.9878701278876344
2012-05-04,1,0.0006159949722645945,0.0007508624258183488,-0.007588697736505832,0.009143054020292522,0.9862027551480655
2012-05-08,0,-6.077712771576269e-05,0.00020731221247085555,-0.007588697736505832,0.01231310901855832,0.9854903506887674
2012-05-10,-1,-0.0009833270326288911,-0.0005886925726112716,-0.0059305399936559824,0.01231310901855832,0.9853077713539952
2012-05-14,-1,-0.001279516225154668,-0.0008539393689213099,-0.0049603474706304525,0.013022267865487085,0.9846515703664542
2012-05-16,-1,-0.0006708099459229635,-0.000353937767219858,-0.0014551390871971217,0.013022267865487085,0.9844764065696165
2012-05-18,-1,-0.002428031339567472,-0.0019083615729486507,0.0017144635834484973,0.01831490904687429,0.9841417518912964
2012-05-22,-1,-0.0016570848022565985,-0.0012053155003997774,-0.00505162687490982,0.014751786963407615,0.9853413647379382
2012-05-24,-1,-0.00032293764746992016,-1.819198191626225e-05,-0.008724660084431965,0.012699499712338361,0.9863003306494001
2012-05-29,1,3.74459124981403e-05,0.00029946874608975074,-0.008724660084431965,0.01165847936561981,0.9865853110567154
2012-05-31,-1,-0.0007693300552837257,-0.00037584492038038515,-0.006667843704993803,0.01165847936561981,0.9868838423520204
2012-06-04,-1,-0.00253072437139586,-0.0019718055358589094,-0.006378031909786426,0.012699499712338361,0.9872524177431187
2012-06-06,-1,-0.0012398542310726652,-0.0008765626717378708,-0.006378031909786426,0.012699499712338361,0.9879246688444847
2012-06-08,-1,-0.001045619755361674,-0.0007160275138239875,-0.006667843704993803,0.013226566626841345,0.9871199561227718
2012-06-12,0,-0.00012101546712370119,6.709837377891941e-05,-0.007433554056844826,0.01314940468051872,0.9870475449245972
2012-06-14,1,0.000371322293755243,0.0005186231006563522,-0.007923636199398317,0.014848446423581163,0.9867602938265164
2012-06-18,1,0.0021693403017514134,0.0022269814280113406,-0.01337638646083864,0.005910080090833895,0.9854195501754558
2012-06-20,1,0.0018017312352490318,0.0019076603558606034,-0.009243144454944419,0.006342516694759457,0.9863206972691483
2012-06-22,1,0.0006772132629980249,0.0007113257785557963,-0.009243144454944419,0.006342516694759457,0.9871759734604924
2012-06-26,1,0.00044222161859701413,0.0005042616458416424,-0.011253093656415187,0.006342516694759457,0.9870731891521912
2012-06-28,1,0.0010350509894182216,0.0010663390998764568,-0.011253093656415187,0.014709480078642678,0.9859999832466196
2012-07-02,0,0.0,0.0,-0.011253093656415187,0.008154757062432787,0.9878514139640642
2012-07-05,1,0.0007793346764749375,0.0008366727364566234,-0.01326946582232752,0.007811183682588405,0.9867176457298164
2012-07-09,1,0.002250151325656649,0.0023724038641089918,-0.011253093656415187,0.006024716805263568,0.9873629803097299
2012-07-11,1,0.001115453668597477,0.001149760251743419,-0.008706939708438586,0.007842587380030373,0.9879851814959992
2012-07-13,0,0.0,0.0,-0.006629470705876667,0.006024716805263568,0.9891097283620424
2012-07-17,0,0.0,0.0,-0.005094608679300514,0.006368247874013654,0.9919227336512183
2012-07-19,0,0.0,0.0,-0.004843849597566699,0.008469769849718244,0.9917387673972464
2012-07-23,0,0.0,0.0,-0.004554357917734106,0.008469769849718244,0.9917382052430816
2012-07-25,-1,-0.0012363062010547128,-0.0010273426940260052,-0.004242795895689147,0.008469769849718244,0.9922865699794999
2012-07-27,0,0.0,0.0,-0.004242795895689147,0.003431129657514062,0.9934739561520036
2012-07-31,0,0.0,0.0,-0.004554357917734106,0.005184994095816899,0.9923847552011994
2012-08-02,0,0.0,0.0,-0.004554357917734106,0.0031407541885511824,0.9932665389658347
2012-08-06,-1,-0.0020043030394474542,-0.0016638573452589897,-0.004242795895689147,0.0031407541885511824,0.9938639391448437
2012-08-08,-1,-0.0008886388557672874,-0.0007374754322757014,-0.004685416408251048,0.0031407541885511824,0.9926539952908483
2012-08-10,-1,-0.001375302998969542,-0.0011329523535967613,-0.005289885537183906,0.005101184506058972,0.9922647597303835
2012-08-14,-1,-0.0011533048998541588,-0.0009457403043122914,-0.005659691430788386,0.005101184506058972,0.9914517048928214
2012-08-16,-1,-0.0006716164960937211,-0.0005492162061259366,-0.007934281990373401,0.0027404860354498955,0.9915568076487514
2012-08-20,-1,-0.0014354673939242038,-0.0012265134456901274,-0.007722004385530481,0.0027404860354498955,0.9919628947302528
2012-08-22,-1,-0.0015326797246584067,-0.0012858965137329142,-0.007722004385530481,0.002678586135351607,0.9918776951602492
2012-08-24,-1,-0.0009698459058611101,-0.0008469353389978921,-0.007722004385530481,0.005101184506058972,0.9907830113427507
2012-08-28,-1,-0.0013293792067998688,-0.0011681855291637265,-0.007722004385530481,0.006759191648735487,0.9904721468459268
2012-08-30,-1,-0.002947533966677793,-0.002538148107480792,-0.007722004385530481,0.010174359661245415,0.9901149131170248
2012-09-04,-1,-0.0015290373476337478,-0.0013614816045799025,-0.007722004385530481,0.010174359661245415,0.9900879981892109
2012-09-06,-1,-0.0014966822210906855,-0.0013526251482022557,-0.007409391150359025,0.011573657990821225,0.9897958710677769
2012-09-10,-1,-0.0017762953229308535,-0.001572188347035016,-0.006357106049380864,0.013965441833019187,0.9896289250550161
2012-09-12,-1,-0.0011481502841116191,-0.0010210349739291362,-0.007446521048958967,0.011573657990821225,0.9904588765090413
2012-09-14,-1,-0.0015268051101287633,-0.0013422074882938223,-0.006357106049380864,0.013965441833019187,0.9874488161040759
2012-09-18,-1,-0.002308960458272435,-0.002023722185149911,-0.002685876260133047,0.013965441833019187,0.9875151556789543
2012-09-20,-1,-0.002286548556284348,-0.002005513260421039,-0.0027430186173115394,0.013965441833019187,0.9871947668628437
2012-09-24,-1,-0.0005144540999402184,-0.0005032191418129549,-0.003530874444006602,0.011573657990821225,0.9881234337953232
2012-09-26,-1,-0.0010125611413038878,-0.0008944153525461936,-0.003530874444006602,0.008393119521277316,0.9886765873861265
2012-09-28,-1,-0.0014786210328161628,-0.0013306305093481654,-0.0017575185812485584,0.006618291171109618,0.9894834847056903
2012-10-02,-1,-0.0017369233646923666,-0.0015183738002834855,-0.0018014507279275932,0.008891699358878239,0.9882501396448262
2012-10-04,-1,-0.00021398501062006557,-0.00017802872052590576,-0.0018014507279275932,0.005558265305943787,0.9904030163880073
2012-10-08,1,0.00030438967081030223,0.0003367845936506135,-0.003449348451723123,0.005558265305943787,0.990094594185235
2012-10-10,-1,-0.001004497265637856,-0.000823127163214137,-0.003449348451723123,0.005558265305943787,0.9897027830702912
2012-10-12,1,0.0014065574178069458,0.0015611931672623734,-0.003449348451723123,0.005558265305943787,0.992039833985331
2012-10-16,1,0.0020626247288655867,0.002390968676261521,-0.008531508035796855,0.005558265305943787,0.990995134920643
2012-10-18,1,0.0018922881992304646,0.0022064335716395727,-0.007712537995864436,0.005627018444213095,0.991514276772803
2012-10-22,1,0.0015280862546881557,0.0017840138466772442,-0.004907389552899802,0.005627018444213095,0.9919208225760942
2012-10-24,-1,-8.561683743759266e-05,-1.9902827666456855e-05,-0.003776367043290997,0.005627018444213095,0.9924094831400729
2012-10-26,1,0.0010201977115078162,0.0011588941512377033,-0.0040707493131093946,0.004420834486020178,0.9926398180145307
2012-11-01,1,0.001766356869003252,0.002013531371182203,-0.004753821706548831,0.003916906064987872,0.9936562031386746
2012-11-05,1,0.0019011361391743737,0.0021819695113311204,-0.007712537995864436,0.003756171524342646,0.9925439512311637
2012-11-07,1,0.0024747120244312396,0.00286551098477344,-0.006966165032744615,0.003756171524342646,0.9930701652135691
2012-11-09,1,0.0030846364880789956,0.0036618658065247466,-0.004753821706548831,0.003756171524342646,0.9934790013613859
2012-11-13,1,0.0027307989558902892,0.003154926566446673,-0.006966165032744615,0.003239511458434554,0.9933271930446638
2012-11-15,1,0.0016975103149136942,0.001950299871153543,-0.004753821706548831,0.0035780116301780468,0.9937816267388594
2012-11-19,1,0.0019227469214562066,0.0022039248477517936,-0.004753821706548831,0.003611658173416556,0.9927920051325259
2012-11-21,0,0.0,0.0,-0.004753821706548831,0.00469292832423137,0.9925850540303714
2012-11-26,0,0.0,0.0,-0.004753821706548831,0.0044474753435897515,0.9925975751681254
2012-11-28,1,0.0008094115036646527,0.0009434987128650797,-0.006333564302310383,0.0044474753435897515,0.9926165461834803
2012-11-30,0,0.0,0.0,-0.00463396395730742,0.007315181739635358,0.9918175283646804
2012-12-04,0,0.0,0.0,-0.0033218677623874752,0.008454123077564971,0.9916427757992151
2012-12-06,0,0.0,0.0,-0.0036824246660903865,0.008274901019909731,0.9913544417600856
2012-12-10,0,0.0,0.0,-0.0033218677623874752,0.008274901019909731,0.9916266529141217
2012-12-12,1,0.000420500375391057,0.0004693580506167478,-0.0033218677623874752,0.008274901019909731,0.9925007243277263
2012-12-14,0,0.0,0.0,-0.002858065228622304,0.008274901019909731,0.9930743797088173
2012-12-18,1,0.001258307133489336,0.0013104581025104724,-0.002858065228622304,0.00733359902717567,0.9930365951945408
2012-12-20,1,0.0020692722639654116,0.0023094284911421487,-0.0020372599277622286,0.008241509055882577,0.9930419663455541
2012-12-24,0,0.0,0.0,-0.0020372599277622286,0.010020665824691771,0.9899527055175518
2012-12-27,1,0.0003508143484231873,0.00036296231261676753,-0.001550656648570577,0.010020665824691771,0.9902309838361972
2012-12-31,0,0.0,0.0,-0.001550656648570577,0.007915520628769684,0.990402634167006
2013-01-03,0,0.0,0.0,-0.001550656648570577,0.007537030256618862,0.991198517572181
2013-01-07,0,0.0,0.0,-0.001550656648570577,0.007537030256618862,0.9908080995231439
2013-01-09,0,0.0,0.0,-0.0011101563631642681,0.007537030256618862,0.9908017999800005
2013-01-11,1,0.001220869875591236,0.0014407212452991268,-0.0011101563631642681,0.008851802744212153,0.9906108923468453
2013-01-15,1,0.0008922272566739729,0.0010166846031409494,-0.0033271915246297287,0.008851802744212153,0.9895948980189269
2013-01-17,1,0.0016198925719549304,0.0018444630739496053,-0.005205300883033579,0.007610021606593307,0.9902014749199409
2013-01-22,1,0.001945410096523641,0.002207673302931227,-0.009145321746443051,0.007610021606593307,0.9892757563741857
2013-01-24,1,0.0027763586349963108,0.0030987663413567334,-0.009145321746443051,0.007610021606593307,0.9912466902956045
2013-01-28,1,0.0023658540168011903,0.0025857405786975894,-0.00979010266880995,0.007610021606593307,0.9903244044712625
2013-01-30,1,0.002357593180093877,0.0025782086903829975,-0.009145321746443051,0.00924748914742218,0.9885474746665144
2013-02-01,1,0.002294375357794164,0.002471422474103691,-0.009145321746443051,0.008384198381954155,0.9882581123625667
2013-02-05,1,0.0024480527209944387,0.002646342455203921,-0.007710937265374416,0.00761062876971015,0.9887135532068972
2013-02-07,1,0.002596371104024995,0.002836910587413087,-0.007710937265374416,0.00761062876971015,0.9884211307037711
2013-02-11,1,0.001982499414515143,0.0021110809036836813,-0.006984214359983541,0.00761062876971015,0.9884523717858922
2013-02-13,1,0.0010458082264330983,0.0010999026016187768,-0.006780792309491813,0.009425666761519794,0.9867397081166347
2013-02-15,1,0.0005538067539031423,0.0006781826452185447,-0.0067693142930034455,0.009425666761519794,0.9871479441173886
2013-02-20,1,0.0004782974813361682,0.0005973764038089533,-0.006537128719416209,0.008962044226988297,0.9879119221936792
2013-02-22,1,0.0009630822767421668,0.001013470839099982,-0.0067693142930034455,0.006780690495495882,0.9885047581644704
2013-02-26,0,-1.3663894460112878e-06,0.00018727672008201995,-0.0067693142930034455,0.006780690495495882,0.9891928545740194
2013-02-28,1,0.0014144630297084839,0.0014394500275253569,-0.0067693142930034455,0.00676032937102685,0.9912501658296097
2013-03-04,1,0.001868017893096632,0.001971654776591853,-0.0067693142930034455,0.004836136372545312,0.990885642132265
2013-03-06,1,0.0017899128838809418,0.0019033020029179857,-0.0067693142930034455,0.003561999092281846,0.990915335108014
2013-03-08,1,0.0012496427555880507,0.001257947361326549,-0.006040832380082234,0.006594433833960849,0.9906901486657629
2013-03-12,1,0.0031568332836770597,0.003436132699642008,-0.005164562585229475,0.006594433833960849,0.990437645138785
2013-03-14,1,0.005152889882758106,0.005691044945636583,-0.007625723337012128,0.004236182141648069,0.9903038150927186
2013-03-18,1,0.004985330915999757,0.005461988534590052,-0.008693216500441841,0.006594433833960849,0.9897416757634485
2013-03-20,1,0.004741077114515439,0.005154858924589087,-0.00885622788490522,0.004236182141648069,0.988598958325066
2013-03-22,1,0.003995111810335773,0.004276788269320783,-0.008693216500441841,0.008457100136088462,0.9887755535059624
2013-03-26,1,0.0035922627815186403,0.0038199465948501603,-0.009845389121074551,0.008457100136088462,0.988569622818068
2013-03-28,1,0.0041549129425627876,0.004486918449378918,-0.009845389121074551,0.009102667716528744,0.9881363342472218
2013-04-02,1,0.0033394492290348497,0.0035606637128591367,-0.009845389121074551,0.009640674877507508,0.9881055280778153
2013-04-04,1,0.0030124869303625014,0.0032006737696670625,-0.013913895066676197,0.009640674877507508,0.9877189948362359
2013-04-08,1,0.003154590923414002,0.0033271258341946988,-0.013913895066676197,0.010848748769196538,0.9871422975647549
2013-04-10,1,0.0037850800589019815,0.004085580775543848,-0.013913895066676197,0.010848748769196538,0.987216876199941
2013-04-12,1,0.0020523541461988735,0.0020762219617945,-0.011965355687612794,0.010848748769196538,0.9883885703252827
2013-04-16,1,0.001865453293994762,0.0018746548408028617,-0.006379849118418292,0.011973866835769537,0.989251271499421
2013-04-18,1,0.0005039808837546546,0.0006714240638931448,-0.002444299290092115,0.012428595205858279,0.9896125407263631
2013-04-22,0,0.0,0.0,-0.002444299290092115,0.011973866835769537,0.9900473341996295
2013-04-24,0,0.0,0.0,-0.0021031273237799965,0.011973866835769537,0.9900328988234957
2013-04-26,0,0.0,0.0,-0.005500238261429162,0.010016571351540653,0.9902019052791312
2013-04-30,0,0.0,0.0,-0.005500238261429162,0.009012067540366805,0.9903199970064055
2013-05-02,0,0.0,0.0,-0.005500238261429162,0.009012067540366805,0.9911724774997919
2013-05-06,-1,-0.0004999759974073032,-0.00011350336780620827,-0.00917718526899138,0.006699074328241052,0.9915630838880662
2013-05-08,-1,-0.000839989746153885,-0.00035515170359839846,-0.01133958001014443,0.006699074328241052,0.9911444163161239
2013-05-10,-1,-0.0017300377804260825,-0.0011868937053126185,-0.00917718526899138,0.007379378551036879,0.9899060254180722
2013-05-14,0,0.0,0.0,-0.011358770432512467,0.006699074328241052,0.9891467691848693
2013-05-16,0,0.0,0.0,-0.011358770432512467,0.006699074328241052,0.9888408288870344
2013-05-20,0,0.0,0.0,-0.011358770432512467,0.006462415162115169,0.988975706193493
2013-05-22,0,0.0,0.0,-0.012430553189805056,0.005142746170286946,0.9884384036557681
2013-05-24,0,0.0,0.0,-0.015081985444429551,0.004056713368422371,0.9877177381304898
2013-05-29,0,0.0,0.0,-0.014960786121718913,0.006930404482622812,0.9875822422235263
2013-05-31,0,0.0,0.0,-0.014960786121718913,0.012031774421066014,0.9867493789331035
2013-06-04,0,0.0,0.0,-0.012154035782798278,0.01269394597554235,0.9870053189275406
2013-06-06,0,0.0,0.0,-0.008969163881244307,0.014524208896147174,0.9874798118689164
2013-06-10,-1,-0.000862315067123571,-0.000684186631994593,-0.008969163881244307,0.014161484210911098,0.9880799590846655
2013-06-12,-1,-0.0027536055524266505,-0.0021877579946787927,-0.0027414049981804465,0.014161484210911098,0.988386343572389
2013-06-14,0,0.0,0.0,-0.0027414049981804465,0.01269394597554235,0.9895795208957642
2013-06-18,0,0.0,0.0,-0.008587776774566201,0.01269394597554235,0.9891702745735553
2013-06-20,-1,-0.0014889519363254387,-0.0012069656887260067,-0.004706899369194841,0.01269394597554235,0.9896011907487493
2013-06-24,-1,-0.0029179890513156715,-0.002450627948439586,-0.0035881912697116806,0.01269394597554235,0.990177459556438
2013-06-26,-1,-0.001676310843467845,-0.0013731526948420271,-0.004681142515707356,0.010596976113555357,0.9912773542061462
2013-06-28,-1,-0.0004940406675701728,-0.0003396051461567896,-0.005076237707688674,0.006564161600010523,0.9922024592849399
2013-07-02,0,-9.911130835185439e-05,1.1735273597524866e-05,-0.005076237707688674,0.006277215782875273,0.9929662356841135
2013-07-05,1,0.0006427981803451569,0.0006736022929861609,-0.0051551099569890485,0.006277215782875273,0.991875958324338
2013-07-09,1,0.0007910235975538358,0.0008460417564471593,-0.007551556309376931,0.0048839713419467495,0.9917755271597468
2013-07-11,1,0.0007713642640483099,0.0008426855297292184,-0.00781819490668292,0.006277215782875273,0.991101813051888
2013-07-15,1,0.0002503004844012638,0.0003910049297542943,-0.007551556309376931,0.006244640585488093,0.9918962140611534
2013-07-17,-1,-0.00034026320873555796,-0.00015521349460226102,-0.007551556309376931,0.006244640585488093,0.9918433377302137
2013-07-19,-1,-0.00046243431006630223,-0.00023071805318507525,-0.008127180484083498,0.0048709242146883595,0.9915530270912086
2013-07-23,1,0.00010776832100362128,0.00018287804505080725,-0.007992521075310044,0.006244640585488093,0.991136973827913
2013-07-25,1,1.3285195759485532e-05,0.0001016334332323531,-0.008059726535822216,0.00646643600784898,0.9906762757706773
2013-07-29,-1,-0.00012867593537772864,-1.0715384714270974e-05,-0.008059726535822216,0.004902719327666643,0.991012314542974
2013-07-31,-1,-0.00019402959166702648,-6.139857944313323e-05,-0.009655030775806858,0.0039056951855990616,0.9901179748309785
2013-08-02,1,0.0012487281792605623,0.0013186817248677036,-0.01104813136874735,0.003178145152886108,0.9908833076359249
2013-08-06,1,0.001472603616637795,0.0016966342254470627,-0.009655030775806858,0.004157375826284082,0.9912694843668821
2013-08-08,1,0.001507172391441684,0.0017243273345002234,-0.008059726535822216,0.004997153909103349,0.991923484579908
2013-08-12,1,0.0017662336439927284,0.002034112214441355,-0.008059726535822216,0.005451121831965556,0.9913436162212728
2013-08-14,1,0.0006831557983611436,0.0007897094511774797,-0.006133773477412827,0.005451121831965556,0.9919463003408093
2013-08-16,1,5.621953262766327e-05,6.118843201251391e-05,-0.004520919340891176,0.005792923969414195,0.9923200742358235
2013-08-20,1,0.0006337306818401565,0.0007456632416919155,-0.006078448386836121,0.005195691482825766,0.9927898531279872
2013-08-22,1,0.0004458714464446935,0.0004922285017575491,-0.004520919340891176,0.005195691482825766,0.9934320305794618
2013-08-26,1,0.0004589246987364605,0.0004910512740050382,-0.006368200988145035,0.005195691482825766,0.9924998574026791
2013-08-28,1,4.284999116035055e-05,5.587568844218901e-05,-0.006368200988145035,0.005195691482825766,0.992637262261679
2013-08-30,-1,-0.00030741148901296695,-0.0003018342675462665,-0.00459906184446858,0.006229457467776309,0.99280204843489
2013-09-04,-1,-0.0006326413487599801,-0.0005193699137369495,-0.0044038256123759755,0.006229457467776309,0.9930309286760894
2013-09-06,-1,-0.00053750938056385,-0.00042765130774368614,-0.006368200988145035,0.006575939808187106,0.9925323871818563
2013-09-10,-1,-0.00024464391461721173,-0.00011444014993887414,-0.009713148834216938,0.00568300478639511,0.9928001954503366
2013-09-12,0,-5.7553808038104644e-05,1.7223233239671359e-06,-0.009713148834216938,0.0062461822591298516,0.9919178576075701
2013-09-16,-1,-0.0007011526797334068,-0.0005352278200491324,-0.010553705641550526,0.006889226238120186,0.9905605333403572
2013-09-18,-1,-0.00013189480515655695,-6.98688330985535e-05,-0.010553705641550526,0.007743303357365782,0.9899913259380129
2013-09-20,-1,-0.00011865404464870557,-3.459127801560646e-05,-0.010553705641550526,0.009064552325987053,0.98919406896042
2013-09-24,-1,-0.0014929804260306098,-0.001216262865279173,-0.008280239023555942,0.009064552325987053,0.9896614286869594
2013-09-26,-1,-0.0015309735216473374,-0.0013016227244034883,-0.006344693527218395,0.009064552325987053,0.9903498996073957
2013-09-30,-1,-0.0005708202778371893,-0.0004761327978030513,-0.006344693527218395,0.008706484942220667,0.9906729056763213
2013-10-02,-1,-0.0005061283323389652,-0.0003977912003636709,-0.006344693527218395,0.009272913625371498,0.9904449240033213
2013-10-04,-1,-0.0005359129737795734,-0.0004459968297497686,-0.005891324670370662,0.009272913625371498,0.991329637746404
2013-10-08,-1,-0.0008514399425520061,-0.0007645423367250402,-0.00584907354951422,0.011876034954117118,0.9911775041744817
2013-10-10,-1,-6.183101592988137e-05,-3.312664089016771e-05,-0.00584907354951422,0.009272913625371498,0.9910184334037008
2013-10-14,-1,-7.89867206790675e-05,-7.28772374819535e-05,-0.005672932081541392,0.005716634729595294,0.992643364420693
2013-10-16,1,0.00046581436014235593,0.0005475256640593486,-0.005672932081541392,0.005418042461950041,0.9925360155618558
2013-10-18,1,0.0010989524678835824,0.0012501463513465867,-0.005689119188239171,0.004733311389817816,0.9922370614556548
2013-10-22,1,0.00041552848072400685,0.0004626156690537185,-0.005622597625489064,0.004733311389817816,0.9921306439137166
2013-10-24,1,0.00019373040524893185,0.00022784941205357414,-0.005622597625489064,0.005340441095620347,0.9918636306294661
2013-10-28,-1,-0.0003752587552743123,-0.00027689794877996986,-0.004608625296545291,0.007467698306250711,0.9915109154068922
2013-10-30,1,0.0005446592005448623,0.0005921172011356645,-0.004608625296545291,0.007243361516418158,0.9916877441092687
2013-11-01,-1,-0.00047317905207288014,-0.0003338667904337771,-0.004608625296545291,0.007479488117432273,0.991274402101797
2013-11-05,-1,-5.554519132199625e-05,-2.069063869177928e-06,-0.0037028917026973966,0.007243361516418158,0.9923429756962554
2013-11-07,-1,-0.000762261466160666,-0.0006453172368337541,-0.002654945721817949,0.007479488117432273,0.9928946398331158
2013-11-11,-1,-0.0011560846490640104,-0.0009415197441966282,-0.0037028917026973966,0.007479488117432273,0.9926197564953059
2013-11-13,-1,-0.0022054481439183274,-0.0018202068214164188,-0.004608625296545291,0.007479488117432273,0.9925969993461465
2013-11-15,-1,-0.0009274902269199647,-0.0007327259176336352,-0.004505722393414222,0.007479488117432273,0.9930637559318743
2013-11-19,-1,-0.0011830811018443506,-0.0010036032543214043,-0.0028553400585909945,0.008482487272866771,0.9926933684820061
2013-11-21,-1,-0.0006499685029658695,-0.0005487632804362105,-0.0030958236340071096,0.007809476903369114,0.9926988839924872
2013-11-25,1,0.0004120280142275362,0.00048151849583209804,-0.0030958236340071096,0.007796155481921368,0.9933896451912392
2013-11-27,1,0.0009164107667220678,0.0010853245575908016,-0.0030958236340071096,0.006498495783446272,0.9937509662492235
2013-12-02,1,0.0014620386531951062,0.0017165357073404908,-0.0030958236340071096,0.003161535609519411,0.9940937388688307
2013-12-04,1,0.0012063297631975639,0.001413318161455099,-0.005871975173328947,0.00639567003466321,0.9934724239154454
2013-12-06,1,0.0011808919655613625,0.0013442045895048044,-0.007948078369515962,0.0063624465562952546,0.993043297357153
2013-12-10,1,0.0010786434701443351,0.0012463118340291577,-0.006013672208516824,0.0063624465562952546,0.9932172926050352
2013-12-12,1,0.00029109281522252307,0.00033481690858427464,-0.0030958236340071096,0.008908194514650195,0.9923377001521095
2013-12-16,1,0.0005910480612527925,0.0006717998347074834,-0.002051726892084416,0.008908194514650195,0.9926291349457786
2013-12-18,1,0.0011101769123695823,0.001263536973859872,-0.008513438888113373,0.008002789519215937,0.9926641661061693
2013-12-20,1,0.0009845048217790684,0.001125474975269001,-0.0035708108414625856,0.008908194514650195,0.9923996430070842
2013-12-24,1,0.0017373879044920387,0.0020330203407213647,-0.008765391629463477,0.008002789519215937,0.9908550806009332
2013-12-27,1,0.001570325610131834,0.0018130117562593184,-0.009314160485742243,0.008002789519215937,0.9897569693703684
2013-12-31,1,0.0014808561405794628,0.0017101049656020248,-0.009314160485742243,0.008908194514650195,0.9889185610992268
2014-01-03,1,0.0014475285354419295,0.0016760515628727888,-0.01049676880797988,0.008002789519215937,0.9876257237653387
2014-01-07,1,0.0011274231003377765,0.0012755874048848309,-0.01049676880797988,0.00816662548068962,0.9879065343704136
2014-01-09,1,0.0008863565075636495,0.0009710929361904224,-0.01049676880797988,0.009016974475743686,0.9876345012270187
2014-01-13,1,0.0010637325704215008,0.0011829637791176502,-0.009624637710087225,0.007995512011878526,0.9890569817748931
2014-01-15,1,0.0016099419096449793,0.0018129858547393202,-0.009624637710087225,0.0035159149777406378,0.989561270977944
2014-01-17,1,0.001092787025654927,0.0012339063447145567,-0.009006405432770974,0.0035159149777406378,0.9899318403671767
2014-01-22,1,0.0013018160569738895,0.001426281811319053,-0.009624637710087225,0.002648114920548278,0.9900368494968208
2014-01-24,-1,-8.113473818419843e-05,-8.65131861318077e-06,-0.007056373372986029,0.00363653403452692,0.9919067654356821
2014-01-28,-1,-0.0006590934458100273,-0.0005279585770507015,-0.007056373372986029,0.00363653403452692,0.9923290995347377
2014-01-30,-1,-0.0001729607414440515,-0.0001125087699984343,-0.007056373372986029,0.00363653403452692,0.9928640948672273
2014-02-03,-1,-0.0010234430409645243,-0.0009005458645728697,-0.007056373372986029,0.004997622547997862,0.9934831542838536
2014-02-05,-1,-0.0007052805011920514,-0.000606705635440541,-0.007056373372986029,0.005081316890458146,0.993218341650954
2014-02-07,-1,-0.000509958117713974,-0.00043612758931793724,-0.007056373372986029,0.005081316890458146,0.9933115205187062
2014-02-11,-1,-0.0008953231694984269,-0.000770095540218752,-0.007056373372986029,0.005081316890458146,0.9928767897076582
2014-02-13,-1,-0.00059968301351046,-0.0005255486710648603,-0.009108725198991299,0.005081316890458146,0.9922319766142343
2014-02-18,-1,-0.001496158470951907,-0.0012838763062905606,-0.007924243988091915,0.005081316890458146,0.9926098859095545
2014-02-20,-1,-0.0022364493664792694,-0.0019058402675480588,-0.007924243988091915,0.005081316890458146,0.9928811539154498
2014-02-24,-1,-0.001913482317147228,-0.0016444870057667356,-0.007924243988091915,0.0033018524941743053,0.9932945050469392
2014-02-26,-1,-0.0019984041042784458,-0.0017331819848825927,-0.006512237202556653,0.0019425648365890614,0.9938267323910228
2014-02-28,-1,-0.0017882184330463048,-0.0015345507377219941,-0.006512237202556653,0.001313409444730882,0.9941927578130806
2014-03-04,-1,-0.002051408873235307,-0.0017310450551494363,-0.004951407254780409,0.0037832947567775343,0.9931797807185319
2014-03-06,-1,-0.0011092734034445246,-0.0009172335539791214,-0.005406667186914253,0.001313409444730882,0.9932907635119119
2014-03-10,-1,-0.0006955858116106732,-0.000573999583469076,-0.006512237202556653,0.0002805637206435206,0.9925920955874915
2014-03-12,-1,-0.0012240802248185433,-0.00105363001230017,-0.006137906103930193,0.0032678884386194386,0.9929270221426928
2014-03-14,-1,-0.0012388569626769817,-0.0011124139920494563,-0.006136575018990672,0.0032678884386194386,0.9928982329657587
2014-03-18,-1,-0.001543327104719474,-0.0013635960678030766,-0.00536638383404437,0.004504903685030188,0.9911620884856609
2014-03-20,-1,-0.0017573436402054025,-0.001560119018654977,-0.0031028492418134278,0.009252611878186986,0.9905922031498412
2014-03-24,-1,-0.0020167592284368726,-0.0017739727112773174,-0.0031028492418134278,0.009596503640896942,0.9897526912904762
2014-03-26,-1,-0.0018017651481073268,-0.0016060321736851065,-0.00536638383404437,0.009596503640896942,0.9895538219254444
2014-03-28,-1,-0.0017196182264708573,-0.001528824154982324,-0.006136575018990672,0.009596503640896942,0.9895556545808968
2014-04-01,-1,-0.0002876416949847189,-0.0002671951564240883,-0.006136575018990672,0.007306838348531673,0.991466387549613
2014-04-03,-1,-0.0005042616041039948,-0.0004127229738418408,-0.006136575018990672,0.007306838348531673,0.9917440631535334
2014-04-07,-1,-0.0012551287810832448,-0.0010816216592528616,-0.0027586260664648303,0.007306838348531673,0.9924936718946714
2014-04-09,-1,-0.0010319574276837925,-0.0008731089221888592,-0.005170091139098383,0.00583991314446404,0.9926850901649655
2014-04-11,-1,-0.0012692383217497811,-0.0011117998088386975,-0.0016021879302001172,0.007758184779130906,0.9925611603913798
2014-04-15,-1,-0.0002508248032906762,-0.00018390824093973424,-0.0027586260664648303,0.007276049412886792,0.9942640566430073
2014-04-17,1,0.0003971676937717248,0.00041277853541212673,-0.0027586260664648303,0.005715019578345762,0.9949558865616414
2014-04-22,1,0.0010547551581096635,0.0011921323159356598,-0.00486544540344548,0.002085948049230282,0.9943162258090724
2014-04-24,1,0.000865369957260627,0.0009904733745109663,-0.00486544540344548,0.007383504080776071,0.9941642354574862
2014-04-28,1,0.0008585337988166227,0.0010075557517469434,-0.003719043487448083,0.007383504080776071,0.9942430781908926
2014-04-30,1,0.0010792102978801504,0.0012530942149010936,-0.003719043487448083,0.007278939410695298,0.9941251643025502
2014-05-02,1,0.0015912820195309856,0.0018541688765022191,-0.003719043487448083,0.0042043376000432744,0.9944219721510141
2014-05-06,1,0.001322973794321892,0.001538805555200788,-0.0037755113130229713,0.0042043376000432744,0.9943221512187211
2014-05-08,1,0.0006632434549978403,0.0007509852490874489,-0.002975696990058349,0.0042043376000432744,0.9950201597997166
2014-05-12,1,0.0012562741030774423,0.0014424418048494606,-0.0037755113130229713,0.004074552949504636,0.9950129743155977
2014-05-14,1,0.0015678638257182929,0.0018248174139044878,-0.005123886545387713,0.0014890180066500038,0.9942640788469663
2014-05-16,1,0.0014412933539816278,0.0016750024382377001,-0.005123886545387713,0.003246011163442843,0.9944267562832847
2014-05-20,1,0.0016612878682544978,0.0019443793893246407,-0.003783384576338435,0.0033483852616244107,0.994972479016762
2014-05-22,1,0.0018995727461178663,0.002218494960805708,-0.002975696990058349,0.0033483852616244107,0.9954678191057299
2014-05-27,1,0.0016932163797359918,0.001981822891397929,-0.006115259318763784,0.0033483852616244107,0.9946232646030801
2014-05-29,1,0.0020255212668598673,0.002357733875428456,-0.008973713190805047,0.0033483852616244107,0.9933805040269268
2014-06-02,1,0.0019854729768023867,0.0023144523612131747,-0.008973713190805047,0.0036006633389132005,0.9935436205090535
2014-06-04,1,0.0017364859407288725,0.002037523559644888,-0.006310624923629443,0.004093410763443929,0.9937232665433852
2014-06-06,1,0.0018480387085324824,0.00217380926180011,-0.006310624923629443,0.004423078656132788,0.9936206868796336
2014-06-10,1,0.002211484718937783,0.002620911708331967,-0.006310624923629443,0.004093410763443929,0.9937994853038696
2014-06-12,1,0.0011989529347220095,0.001436497236144892,-0.0050261116825252505,0.004423078656132788,0.994259886556637
2014-06-16,1,0.0017470533321447183,0.0021043283391541426,-0.0050261116825252505,0.00548925334619242,0.9926859074188621
2014-06-18,1,0.001587974734366361,0.0018530688432564755,-0.006426989012134752,0.00548925334619242,0.9914830537811447
2014-06-20,1,0.00144085460317354,0.0016383329863657939,-0.006426989012134752,0.00548925334619242,0.9913254332514041
2014-06-24,1,0.0007663297072090678,0.0008984941987607614,-0.0017881525737011418,0.005812652040061963,0.991982328097199
2014-06-26,-1,-0.0010897705112665826,-0.000904487328755656,-0.0017881525737011418,0.006380200497657255,0.9922200393627869
2014-06-30,-1,-0.0005774718933878467,-0.00048195234076277684,-0.0050261116825252505,0.006380200497657255,0.9920770861273152
2014-07-02,-1,-0.00043308166080259416,-0.0003668363780366912,-0.0051734811949217824,0.006380200497657255,0.9916950071273644
2014-07-07,-1,-0.00040504170498484814,-0.00032273168477992215,-0.006869097549324349,0.006092026409608904,0.9913940860621169
2014-07-09,-1,-0.0004159545780232358,-0.0003370827516427267,-0.00797992444239011,0.006092026409608904,0.9913947665304952
2014-07-11,-1,-0.000977481600422272,-0.0008004834991101797,-0.0065167615350171125,0.007852008386246428,0.9912038491050259
2014-07-15,1,0.0004942227850562866,0.0005190619829735901,-0.0065167615350171125,0.004104585922195623,0.9927405489657332
2014-07-17,1,0.0007419240084261578,0.0007426144555506666,-0.0065167615350171125,0.0028363045624475924,0.9935979904886032
2014-07-21,1,0.0006991736846866097,0.0007215362920141603,-0.0065167615350171125,0.0028363045624475924,0.9930347998425599
2014-07-23,1,0.0012431128156298226,0.001308387144089156,-0.007981808220805872,0.0005916494081984207,0.9927248375151558
2014-07-25,1,0.0014116601480177343,0.001506165753407982,-0.007981808220805872,-0.00013106030446430425,0.9930667708722163
2014-07-29,1,0.0012580010504495,0.0013790322411748625,-0.007981808220805872,0.0005916494081984207,0.9929681912033362
2014-07-31,1,0.0008128047457901292,0.000882701990242662,-0.007560908053551993,0.0005916494081984207,0.9933248814042583
2014-08-04,-1,-0.00030717154091946543,-0.00019587439077784342,-0.00635720828630782,0.0036248763689107383,0.9941720168221294
2014-08-06,-1,-0.0012687573050317877,-0.0010032949107297553,-0.004446271905014001,0.006676799813681838,0.9939032133724993
2014-08-08,-1,-0.0011343757341731866,-0.0008693666380030495,-0.0028374990558072627,0.0036248763689107383,0.9948270609575915
2014-08-12,-1,-0.0014258753729112805,-0.001099231140014702,-0.0079018439906389,0.0015552401466701808,0.994078498752454
2014-08-14,-1,-0.0020605659761545295,-0.0016476423938724095,-0.004840096230258627,0.00395465534165451,0.9940816961726354
2014-08-18,-1,-0.0013924398925216058,-0.0010501880489160176,-0.007777151155080205,0.0017963351402273354,0.9948852510006668
2014-08-20,-1,-0.0019531471809428012,-0.0015477681624336556,-0.007110417289284342,0.0017963351402273354,0.9950142517240229
2014-08-22,-1,-0.0011082904328387532,-0.0008898008259797846,-0.007777151155080205,0.00395465534165451,0.9942498380804196
2014-08-26,-1,-0.0010093953132993098,-0.0008230162381369064,-0.007777151155080205,0.0017963351402273354,0.9946553365465234
2014-08-28,-1,-0.0016422415709931274,-0.0013301994958873136,-0.007348887182322848,0.0018307171693359488,0.9944593194211291
2014-09-02,-1,-0.0011971736486058558,-0.0009600659948330565,-0.007348887182322848,0.0013401674433462835,0.994619338142952
2014-09-04,-1,-0.0012428210379751801,-0.0009579961920534438,-0.008617253669754419,0.0013401674433462835,0.994011836516514
2014-09-08,-1,-0.0004065904350163805,-0.0002971276468083595,-0.009120237467083892,0.0018307171693359488,0.9924932449405715
2014-09-10,-1,-0.0009853245269215768,-0.0008506997988015758,-0.00874615896040781,0.003988330813980501,0.9917488120733309
2014-09-12,-1,-0.00037513300156744587,-0.0003421710615400539,-0.010047546263526963,0.0026198277233373444,0.9904483822677722
2014-09-16,-1,-0.0010494296699548166,-0.000916364407570913,-0.010666902004500456,0.008521088133771445,0.9890402001669927
2014-09-18,-1,-0.0014166046492112066,-0.0012284144421208297,-0.010666902004500456,0.014650468289573067,0.9884953109247984
2014-09-22,-1,-0.0014061961012173166,-0.0012356636415150025,-0.01009900974391035,0.014650468289573067,0.989094164681283
2014-09-24,-1,-0.0015615420170602796,-0.001396112318962803,-0.01009900974391035,0.01547072667901096,0.9880548964372927
2014-09-26,-1,-0.0008175887341161853,-0.0007302698689316991,-0.01009900974391035,0.014650468289573067,0.9886004802850834
2014-09-30,-1,-0.0011080179319091607,-0.0009693913585595471,-0.01009900974391035,0.014650468289573067,0.9877131755796793
2014-10-02,-1,-0.00042104247836145667,-0.0003919293241868021,-0.009241840996691305,0.012747659927939047,0.9884603613825457
2014-10-06,-1,-0.0002654656552237293,-0.0002587783166443536,-0.004113368975985639,0.012747659927939047,0.9888484387608508
2014-10-08,-1,-0.00046830734121517217,-0.0004354941601237935,-0.004113368975985639,0.012747659927939047,0.9888064024610183
2014-10-10,-1,-0.001589153050096164,-0.001429947920361008,-0.0022045357506734822,0.012747659927939047,0.9890439801699213
2014-10-14,-1,-0.0005321965435753457,-0.0005087270776550693,-0.0022045357506734822,0.01274244248838887,0.9901437088200346
2014-10-16,0,-1.311136400090669e-05,1.761840261665748e-05,-0.004113368975985639,0.012386655134759197,0.9900280546236482
2014-10-20,1,0.0002726455419267475,0.00036438236487834456,-0.0077786259074993265,0.012386655134759197,0.9897784949258099
2014-10-22,1,0.0010807118928624702,0.0012734120894278536,-0.0077786259074993265,0.010462368465277042,0.9912707498128864
2014-10-24,1,0.0011707278587453696,0.001356745672818096,-0.0077786259074993265,0.011369786318022348,0.9911860778008256
2014-10-28,1,0.0018096745842249282,0.0020796739387389947,-0.0077786259074993265,0.007128408212926414,0.9917584379498087
2014-10-30,1,0.0016400486308008324,0.0018891711424941526,-0.005348975215087728,0.009285262712791814,0.9918576076769906
2014-11-03,1,0.0018530466224620425,0.0020841940783750193,-0.00796757333921238,0.007559745239917773,0.9912589828891624
2014-11-05,1,0.0021642606076932485,0.002439555264521745,-0.005348975215087728,0.006148109770369078,0.9930101510922231
2014-11-07,1,0.0019098025116463966,0.0021690981521069767,-0.005348975215087728,0.006148109770369078,0.9932558922789804
2014-11-11,1,0.0021449913926291798,0.002450688598385281,-0.004974370710542932,0.004764957792184896,0.9938708978560703
2014-11-13,1,0.0017371356842678905,0.0019370108495266256,-0.0028355262349247018,0.006133688930428694,0.9938217046564678
2014-11-17,1,0.000965152250005446,0.0010169969370002836,-0.0028355262349247018,0.007143873204938266,0.9932657152749104
2014-11-19,1,0.0010940890835936285,0.001165953184858857,-0.0028355262349247018,0.00890764862649345,0.9923063552292548
2014-11-21,1,0.0015145312676585548,0.001638955734123051,-0.004974370710542932,0.007984747541075017,0.992433255834433
2014-11-25,1,0.0015199125489874967,0.0016537760086965405,-0.0031667240419757507,0.007984747541075017,0.9926114505759117
2014-11-28,1,0.0018247400006505062,0.0019915866490793663,-0.0031667240419757507,0.0073288031584785,0.9929607009745237
2014-12-02,1,0.001176438808142821,0.0012467265806667973,-0.004093012735883338,0.0072855406386573476,0.9938672088576431
2014-12-04,1,0.0015613050935822572,0.0017619629926687256,-0.006105492653956101,0.0072855406386573476,0.9924597524226438
2014-12-08,1,0.001480499879237592,0.0016839098911705511,-0.006105492653956101,0.0072855406386573476,0.9919567279652622
2014-12-10,1,0.0013203062827304947,0.0015130771701518208,-0.005782896670061821,0.008214822382175633,0.9916940702061545
2014-12-12,1,0.0022652726369031518,0.002601676383734608,-0.006996752135081008,0.00593345252223241,0.9919683360037506
2014-12-16,1,0.0022150125478624613,0.0025474416228557966,-0.007796598637122929,0.0033036128135326987,0.9915519976232736
2014-12-18,1,0.002745205688710537,0.0031251540440142373,-0.007796598637122929,0.0033036128135326987,0.9905476173324012
2014-12-22,1,0.002523422485547303,0.002848989834817256,-0.007061417086448583,0.005713206654139082,0.9899811109138521
2014-12-24,1,0.0021872126966295796,0.002441875244727129,-0.011780496114406402,0.0036901512579071492,0.9892422922389604
2014-12-29,1,0.0019629266425716095,0.002170013436128155,-0.013280535717224517,0.0036901512579071492,0.9879349551136933
2014-12-31,1,0.0017607210453763759,0.0019508125468207754,-0.013280535717224517,0.0036901512579071492,0.9879004450113444
2015-01-05,1,0.0009685789103582745,0.0010551861466189002,-0.011957138172055012,0.010159952902156074,0.9883326752791085
2015-01-07,1,0.00026653324569336117,0.0002871676590819003,-0.007961074019420956,0.012469476423362618,0.9886886611685933
2015-01-09,1,0.0006702449565680383,0.0007290116087718217,-0.011957138172055012,0.010800209969066832,0.9882583371181132
2015-01-13,1,0.00020678555162078325,0.0002266790534048128,-0.011096000914444142,0.010800209969066832,0.9889063274721887
2015-01-15,-1,-0.0005872393313954875,-0.00046711795023471185,-0.0076740282668839995,0.013592637639820075,0.9889946694481814
2015-01-20,1,0.0005250792098798517,0.0005297393084436922,-0.0076740282668839995,0.00964092249368306,0.9905423983523537
2015-01-22,1,0.0013367747089921762,0.0014476341468006566,-0.0076740282668839995,0.00964092249368306,0.9904595244052651
2015-01-26,1,0.00085568669463513,0.0009070284692351211,-0.004945200031571007,0.00964092249368306,0.9909669894665153
2015-01-28,1,0.00023570815554241822,0.00024762252118374955,-0.0029471712195469533,0.00964092249368306,0.9921902020710709
2015-01-30,-1,-0.00018752967307257153,-0.00012101196731780501,-0.001738810723186325,0.00964092249368306,0.9924298829240467
2015-02-03,1,0.00023647558281770275,0.00028662555746532617,-0.003857769614305725,0.0062205109823347034,0.9928808111893106
2015-02-05,1,0.0006487985317358668,0.0006505440518006327,-0.003857769614305725,0.005862422495389883,0.9931487498216318
2015-02-09,-1,-0.00033543126877665433,-0.00020439912169595916,-0.0029471712195469533,0.005862422495389883,0.9940243341699885
2015-02-11,-1,-0.0006658556262541554,-0.0004780188952522031,-0.0034697729562330713,0.0066767154069023015,0.9920820459426667
2015-02-13,-1,-0.00014005562476506123,-3.6471041014880237e-06,-0.0034697729562330713,0.005862422495389883,0.9916098532778823
2015-02-18,-1,-0.0003934983768117392,-0.00020619097448564406,-0.004881077026006345,0.005974554337992721,0.9912934796040389
2015-02-20,1,0.000585643099006079,0.0006346386233699913,-0.006101563880768849,0.005974554337992721,0.9915154459976452
2015-02-24,1,0.0008145292711709345,0.0008449134532656903,-0.008213439343824267,0.0045027953389092275,0.9907659228324428
2015-02-26,1,0.0006928325740247344,0.0007320162528730225,-0.008992797551723422,0.0045027953389092275,0.9896266019066089
2015-03-02,1,0.00041853124774101497,0.000490019980287607,-0.008992797551723422,0.005974554337992721,0.989373382991181
2015-03-04,-1,-0.0004197013966688313,-0.0002412004618400496,-0.007258494664498666,0.005974554337992721,0.9903909451656728
2015-03-06,-1,-0.0008614926175130619,-0.0005823864416700192,-0.008213439343824267,0.005987069178048867,0.9899649514604152
2015-03-10,-1,-0.0011206887365723245,-0.000808619179466984,-0.007258494664498666,0.006558617856072176,0.9895259276193091
2015-03-12,1,0.00019040641209377876,0.00032146073164497836,-0.007258494664498666,0.006558617856072176,0.9904762789217731
2015-03-16,1,0.0012230040853993009,0.0012369437668125092,-0.007258494664498666,0.006558617856072176,0.9896368705613445
2015-03-18,1,0.0015397001354617488,0.001605004784214235,-0.007258494664498666,0.006558617856072176,0.9897666816393261
2015-03-20,1,0.0017561329956280775,0.0018610750247423312,-0.00836467604881242,0.006558617856072176,0.9895846664485249
2015-03-24,1,0.0011420543705339356,0.0012003250373631923,-0.0034000139652552103,0.006558617856072176,0.9907145754193237
2015-03-26,1,6.391903479363071e-05,0.00014997006100957825,-0.003569191184468248,0.006558617856072176,0.9916868300324639
2015-03-30,1,0.00037959706564063634,0.0003999234363124231,-0.003569191184468248,0.005880463801673333,0.9912984988566853
2015-04-01,1,0.00047334850875936413,0.0004817584782384239,-0.006136134220309818,0.005880463801673333,0.9903011396720681
2015-04-06,1,1.0420425416471797e-05,7.91740366423048e-05,-0.004583834599329955,0.006764646027650578,0.9907746813463445
2015-04-08,1,0.0006233080861698367,0.0006297004437343723,-0.006136134220309818,0.0038904349279025034,0.9908716177227543
2015-04-10,1,0.001173712552027733,0.0012574610396261369,-0.006136134220309818,0.0014847187404880297,0.9915159762067487
2015-04-14,1,0.0024308448053111677,0.0026575703844026587,-0.008128777868114456,0.0012045783529372263,0.9922312746824264
2015-04-16,1,0.002174226593983743,0.0023709126371205622,-0.008128777868114456,0.0014847187404880297,0.9915071983839849
2015-04-20,1,0.0023382968081166653,0.0025870765526375366,-0.006311793469504825,0.002320710513565317,0.9923208415055635
2015-04-22,1,0.002322397905244236,0.002563558275645046,-0.008128777868114456,0.0014847187404880297,0.9912391051411495
2015-04-24,1,0.0021690113495173753,0.0024098919278116695,-0.012351586093912514,0.0014847187404880297,0.9909169761911619
2015-04-28,1,0.0011889905281812407,0.001266692457904427,-0.008128777868114456,0.002320710513565317,0.9918862827109353
2015-04-30,1,0.00038022904865513086,0.00040994689007639194,-0.007192802315600397,0.002320710513565317,0.9922806814714871
2015-05-04,1,0.0005510226652614126,0.0005766034523488684,-0.007192802315600397,0.00198988781418147,0.9920093260726776
2015-05-06,-1,-0.0001696299531190213,-4.17103049890661e-05,-0.006287943362823883,0.004617976220007749,0.9923661047963832
2015-05-08,1,0.00040200242623735714,0.00041675436808911526,-0.007192802315600397,0.007036373130168235,0.9912093239514523
2015-05-12,0,-6.349458660783797e-05,5.130631100592087e-06,-0.006287943362823883,0.007948917801395495,0.9911690945889737
2015-05-14,1,0.0008860026829675097,0.000980733490379979,-0.0069806187897853075,0.007617481923377908,0.991652980082019
2015-05-18,1,0.0012802601006775551,0.0014272408724693762,-0.007919513177180811,0.007036373130168235,0.9914661649488237
2015-05-20,1,0.000551340129944705,0.0006099064958910379,-0.0069806187897853075,0.007617481923377908,0.9923080421737747
2015-05-22,-1,-1.5240881237714145e-05,-1.7878577197574439e-06,-0.006171877130882054,0.008605224677454792,0.9925326386456572
2015-05-27,-1,-0.00017850346490969353,-0.00013069348158762783,-0.0069806187897853075,0.008605224677454792,0.9917135768738383
2015-05-29,-1,-0.0013637297331828432,-0.0011273518566037488,-0.00522957400981488,0.008605224677454792,0.9918617518305151
2015-06-02,-1,-0.0015247757862109036,-0.0012369446980990042,-0.009266268878096676,0.007584985077082988,0.9917743060095155
2015-06-04,-1,-0.00112922191177069,-0.0008962415723235465,-0.009266268878096676,0.007584985077082988,0.9914241365318913
2015-06-08,-1,-0.0016896165814671478,-0.0013718057346732387,-0.00917484005939649,0.008605224677454792,0.99155822464362
2015-06-10,-1,-0.0016939697303374997,-0.0013328017299209056,-0.009266268878096676,0.008605224677454792,0.9907714522644476
2015-06-12,-1,-0.0008721435977693543,-0.0006761964618931789,-0.009266268878096676,0.008805007085113725,0.9903763148080906
2015-06-16,-1,-0.0006279369291257383,-0.0005142806836944706,-0.00917484005939649,0.008805007085113725,0.9901895306634904
2015-06-18,-1,-0.0006259623798416688,-0.00047987300832656667,-0.00917484005939649,0.007499104305042937,0.9907385218661318
2015-06-22,-1,-0.000756638301864285,-0.000543623289639457,-0.009779579278133667,0.007448964277441408,0.9905425135317574
2015-06-24,-1,-0.0022480989005668776,-0.0018369653575429194,-0.011162888436373182,0.007448964277441408,0.990777024859975
2015-06-26,-1,-0.0021426863360262073,-0.0017959453391128248,-0.00964741474291408,0.007448964277441408,0.9908360537654781
2015-06-30,-1,-0.0026124864265363807,-0.0022362266776246075,-0.007453071869734452,0.010297504938513353,0.9901016042917709
2015-07-02,-1,-0.0031465420411859878,-0.0026643590226084857,-0.006652044327115546,0.009450247093847206,0.9905859352108486
2015-07-07,-1,-0.0026014436260264947,-0.002178561380914293,-0.006652044327115546,0.007448964277441408,0.9912499053658406
2015-07-09,-1,-0.0018604647441825561,-0.0015641969333432223,-0.006652044327115546,0.006651252761765274,0.9918755297124642
2015-07-13,-1,-0.0010548229100379187,-0.0008575752688934848,-0.007917998799404653,0.003476852071034025,0.9917974258166116
2015-07-15,-1,-0.001045993019746138,-0.0008919842134527593,-0.005688357827731657,0.003476852071034025,0.9923197004645211
2015-07-17,-1,-0.0007059675584554154,-0.0006154785173037689,-0.005928499916147782,0.003476852071034025,0.9920813270113089
2015-07-21,-1,-0.0009164840067915649,-0.0007963530038929329,-0.0039876164993963865,0.003390556477649605,0.9929754318462592
2015-07-23,-1,-0.0021481168057280934,-0.0018759177688509286,-0.0039876164993963865,0.003390556477649605,0.9934472619872659
2015-07-27,-1,-0.0026004139581974665,-0.0022373295544633174,-0.008906956761048464,0.0025228396979333854,0.9920575622718373
2015-07-29,-1,-0.0012793105987390816,-0.0010889677607138547,-0.017971003984062567,0.001626161984706002,0.9913152446048024
2015-07-31,-1,-0.001505879646013147,-0.0012721874360028585,-0.017971003984062567,0.001626161984706002,0.9911798062727882
2015-08-04,-1,-0.0006152892872591223,-0.0005417801074893416,-0.017971003984062567,-0.0003728646157951226,0.9899877828784931
2015-08-06,-1,-0.0008867066354729205,-0.0008407554938898282,-0.017388540997471582,0.0025228396979333854,0.9887129432578906
2015-08-10,-1,-0.001446384359378824,-0.0013352116184221145,-0.011776119825695694,0.00436034044297153,0.9882551479885914
2015-08-12,-1,-0.0012067308871773284,-0.0011404134386054788,-0.0147012689979197,0.00436034044297153,0.9874995717037344
2015-08-14,-1,-0.0016350367174223675,-0.0014798668537928563,-0.0147012689979197,0.007690640765411453,0.986989292020464
2015-08-18,-1,-0.002250316258915211,-0.0019809718735865826,-0.0147012689979197,0.009427226989960204,0.9853127797931058
2015-08-20,-1,-0.00303735155887549,-0.002677128386910357,-0.01090571678596285,0.009427226989960204,0.9857797955326758
2015-08-24,-1,-0.004385448757610155,-0.0038697074364291628,-0.00934000385955755,0.009427226989960204,0.9860918204430323
2015-08-26,-1,-0.0051211965170088435,-0.004515410034261487,-0.00934000385955755,0.009427226989960204,0.9869881021932256
2015-08-28,-1,-0.004281939056185626,-0.0038046647645350496,-0.01090571678596285,0.00726152831376513,0.986383013102788
2015-09-01,-1,-0.004642782103537196,-0.004156191540511694,-0.009054196273692573,0.00726152831376513,0.9870661063948873
2015-09-03,-1,-0.001721798975858171,-0.001651198490220036,-0.009054196273692573,0.0054653569237338995,0.9886758356334987
2015-09-08,-1,-0.0010984822940932786,-0.0010968972084663888,-0.008824243504205884,0.005672352240573504,0.9895598663141703
2015-09-10,-1,-0.001324304300470541,-0.001313439535330689,-0.006861592984079245,0.009191340457999376,0.9890450571267954
2015-09-14,-1,-0.0010471978509426125,-0.001008880803758204,-0.005427168807791823,0.009099951656883551,0.9893874296886954
2015-09-16,0,-2.0296497663296962e-05,0.00014211208385040168,-0.006861592984079245,0.009099951656883551,0.9877423192153726
2015-09-18,-1,-0.0006715424104855657,-0.0006249548011335012,-0.005033867679262052,0.009099951656883551,0.9879653171806237
2015-09-22,-1,-0.0016542293338885736,-0.0015489400970339134,-0.004123059979773262,0.010145500160295341,0.9881063915403382
2015-09-24,-1,-0.0022092494579055125,-0.002065086715538518,-0.002281148932873559,0.010145500160295341,0.9888606381252107
2015-09-28,-1,-0.0030170782252037336,-0.002762432692634276,-0.002281148932873559,0.010433152096538082,0.9886035078506945
2015-09-30,-1,-0.0029431917772028793,-0.0027066326739691067,-0.002281148932873559,0.010433152096538082,0.9873459026688759
2015-10-02,-1,-0.0024421676956301337,-0.0022506313980353333,-0.002997962507335481,0.010433152096538082,0.9875997502602784
2015-10-06,-1,-0.0014892781522714473,-0.0014424952172977805,-0.005592655518664497,0.010433152096538082,0.9880760363546104
2015-10-08,-1,-0.00036985014395838104,-0.00024352490344775309,-0.007017933462205802,0.009987070653793416,0.9888799453750723
2015-10-12,-1,-0.0004909817237841439,-0.0004207666454777835,-0.007491636955340033,0.010259546751269766,0.9874277570952102
2015-10-14,-1,-0.000839316239790142,-0.0008338286814881252,-0.007491636955340033,0.009330004068722978,0.9899239663805639
2015-10-16,-1,-0.0006210326656103024,-0.000591553729672052,-0.00798748318087727,0.009330004068722978,0.9898626384784245
2015-10-20,-1,-0.00015744905274539295,-9.066470050744823e-05,-0.00798748318087727,0.009471576933049564,0.9897609796674904
2015-10-22,1,5.9343486707506604e-05,0.00017171541308656714,-0.00798748318087727,0.01115967633733007,0.9889601140547719
2015-10-26,1,0.000644727608908467,0.0008545900087348073,-0.00798748318087727,0.009471576933049564,0.9901007037181959
2015-10-28,-1,-0.00014439548047300293,-4.829597056159177e-05,-0.007119129461308985,0.009644746806256077,0.9910333533335056
2015-10-30,1,0.0004009531771518084,0.0006045406582274501,-0.007311387689536673,0.009644746806256077,0.991164898457551
2015-11-03,1,0.00034366411168685555,0.0005461116873188752,-0.007311387689536673,0.010968539945768371,0.9903717529559315
2015-11-05,-1,-0.00012785711408017987,-3.0869485900045235e-06,-0.008828263450532493,0.010968539945768371,0.9898985703315029
2015-11-09,1,0.0001889508939512905,0.0003859767034017265,-0.010059478650650827,0.009644746806256077,0.9896266357305031
2015-11-11,1,0.0005077641166892421,0.0007840925114636314,-0.008828263450532493,0.009644746806256077,0.9900880472715977
2015-11-13,0,-0.00010983650960810104,2.945552437260855e-05,-0.008706764781910415,0.009644746806256077,0.98973730924009
2015-11-17,1,0.0004954948734861266,0.000692862127967456,-0.008706764781910415,0.008365217810286683,0.9898236827180923
2015-11-19,1,0.0009366060310247386,0.001157125029010391,-0.013463707394580646,0.007202690961447596,0.9884743462834457
2015-11-23,1,0.0008426683287016413,0.0010522288486960645,-0.013463707394580646,0.008365217810286683,0.9878250690914164
2015-11-25,1,0.0015099670607982897,0.0018420381859346614,-0.013463707394580646,0.00720877469170953,0.987859536008689
2015-11-30,1,0.0018059584289489496,0.0021975713417306,-0.013463707394580646,0.00720877469170953,0.9884591585634409
2015-12-02,1,0.0021434491249427232,0.002623584096444284,-0.00950641198672027,0.006922002908032448,0.9893361064891661
2015-12-04,1,0.0017863682511758945,0.002191016724441092,-0.011065838781852681,0.006922002908032448,0.9884506721070524
2015-12-08,1,0.00026303346169267896,0.0004723222797794717,-0.010256730215809867,0.006922002908032448,0.9887049745578071
2015-12-10,1,0.0003355410177892673,0.0005464046146595706,-0.013193970122420727,0.006511088468629692,0.9881569528226205
2015-12-14,-1,-0.000171572141656779,-8.518252671585702e-05,-0.01662925050708959,0.006511088468629692,0.9871320731009885
2015-12-16,1,0.00016964745278921534,0.00031328812298849656,-0.01662925050708959,0.0056019378432680175,0.9877840308793314
2015-12-18,-1,-0.000696402729966806,-0.000614328000168932,-0.01102359163181125,0.006502694052740514,0.9896569489126241
2015-12-22,1,0.00011821935067921183,0.00031282411711601563,-0.01102359163181125,0.006902903390626845,0.9889399908514416
2015-12-24,1,0.0006692481235166793,0.0009511807122564184,-0.01102359163181125,0.008718727677554647,0.9872724237430742
2015-12-29,1,0.0005610599383760963,0.0007830627108495779,-0.013193970122420727,0.007406298762116136,0.9865591907458879
2015-12-31,1,0.0002567990156914592,0.00040511542349264617,-0.013193970122420727,0.009300186409144758,0.9849942064382334
2016-01-05,-1,-0.0002191710554591624,-0.0001323929564971341,-0.013193970122420727,0.008933707816807438,0.9852477011267149
2016-01-07,-1,-0.0016014588193503467,-0.0015201638293879324,-0.006880690430058907,0.011296501116165675,0.9851001669033336
2016-01-11,-1,-0.002355935039170624,-0.0021831295585160635,-0.002806236949284798,0.011296501116165675,0.9854342157838485
2016-01-13,-1,-0.003574362510511994,-0.0032248567868897286,-0.0036908050963468434,0.011296501116165675,0.9855971852756547
2016-01-15,-1,-0.004675964993659373,-0.004127852366799963,-0.0016642318938882047,0.018601838852699712,0.9831401560852964
2016-01-20,-1,-0.004783421218061882,-0.004183301878910466,-0.0016642318938882047,0.01949531877027464,0.9823373186195431
2016-01-22,-1,-0.0031090964730438224,-0.0027225844259570085,-0.0036908050963468434,0.016287851915037056,0.9845848925212375
2016-01-26,-1,-0.0019975557829806693,-0.001694004869610831,-0.005288039338648914,0.010460223951100685,0.9866187414185514
2016-01-28,-1,-0.0014044605114535797,-0.0012643408729370352,-0.0043910117128107135,0.01573830088053169,0.9862328478393372
2016-02-01,1,0.0004924932465892099,0.0006218828321262187,-0.005288039338648914,0.01573830088053169,0.9866818016633215
2016-02-03,-1,-0.00013744927039133366,-0.00011485457775865332,-0.0045396959541795495,0.016092409748843257,0.9870978165307924
2016-02-05,1,0.0010603314238110352,0.0012463982417715356,-0.0045396959541795495,0.015165768950861719,0.9885353074054372
2016-02-09,1,0.0018518059755065952,0.0022132937473351016,-0.005510896286447802,0.016092409748843257,0.9872031904598833
2016-02-11,1,0.0006799752583096022,0.0008587119024924582,-0.0045396959541795495,0.017327634477208913,0.9868301657616765
2016-02-16,1,0.0014962239405835734,0.0017399181607533894,-0.004789478020757923,0.01593161939529517,0.988224362089911
2016-02-18,1,0.001779230998335735,0.0020009623634739495,-0.004789478020757923,0.01593161939529517,0.9878123518174124
2016-02-22,1,0.0012881559613816837,0.0013932716015352526,-0.0045396959541795495,0.017327634477208913,0.9868981573862737
2016-02-24,1,0.0003951772546659339,0.0004199503433472085,-0.004131443854722573,0.017327634477208913,0.9871402218150878
2016-02-26,1,0.0016373502952198645,0.0018055040805509746,-0.004789478020757923,0.01593161939529517,0.9876340394429506
2016-03-01,1,0.0017474199965255796,0.0019567198478529623,-0.004131443854722573,0.015257844192114404,0.989312416405653
2016-03-03,1,0.002485700967745659,0.0028393284360351935,-0.0037333553085829928,0.012102636219530014,0.990371964830575
2016-03-07,1,0.0031526705305546933,0.0036025945632537832,-0.004158368973502058,0.010124401344025287,0.9897697773712569
2016-03-09,1,0.002868279253133537,0.003262340742565018,-0.004158368973502058,0.00482288992307772,0.9912969617407371
2016-03-11,1,0.003956697837738108,0.004497926476563503,-0.004158368973502058,0.0032489064890470045,0.9918296389518494
2016-03-15,1,0.003971654199007819,0.004555411688015076,-0.0037333553085829928,0.00482288992307772,0.9912342405474425
2016-03-17,1,0.005067924850342799,0.005794874715638528,-0.004383296742483062,0.0032489064890470045,0.9906482994792952
2016-03-21,1,0.0062208211430625025,0.007124488431509509,-0.004195577878762103,0.0035778552037985037,0.9903315002357564
2016-03-23,1,0.005485430405339085,0.006229448539366054,-0.004195577878762103,0.0040585566134042125,0.9895519994118658
2016-03-28,1,0.0046750451495243435,0.005320686396258881,-0.004195577878762103,0.0040585566134042125,0.9905328936965843
2016-03-30,1,0.004424681159163846,0.005018838590710933,-0.0031290352322234493,0.007253564999830993,0.9908757974114731
2016-04-01,1,0.004197576299544372,0.004726502340224061,-0.009650681721277348,0.007253564999830993,0.9887737706537885
2016-04-05,1,0.003402705357205279,0.003822552424429947,-0.006527040748312143,0.007253564999830993,0.9900641719961526
2016-04-07,1,0.0031028913287166077,0.0034733860634255705,-0.009650681721277348,0.007253564999830993,0.9893879614226512
2016-04-11,1,0.0030350423133088697,0.003373666980570002,-0.009650681721277348,0.009956729109449954,0.9887088124956375
2016-04-13,1,0.0047113119388183695,0.005317886489000079,-0.013131767272453626,0.008745914621228885,0.9882681654392915
2016-04-15,1,0.0046089268559500515,0.0052468275353742735,-0.016506118161256998,0.008745914621228885,0.9874001510853944
2016-04-19,1,0.005619920855547042,0.006375845784274555,-0.016506118161256998,0.006412328179452226,0.9880490911325989
2016-04-21,1,0.004675028952154347,0.005323338247868984,-0.016506118161256998,0.006412328179452226,0.9890350516308025
2016-04-25,1,0.004183323142853133,0.004767227416880618,-0.016506118161256998,0.007253564999830993,0.9893275754795201
2016-04-27,1,0.0045993737840499885,0.0052280291060264605,-0.016506118161256998,0.006408644043611644,0.9889655767535436
2016-04-29,1,0.002944300863987037,0.003339232879691602,-0.004301598596012126,0.007454458079495806,0.9913612602972718
2016-05-03,1,0.0021033793204449556,0.002271618989666402,-0.006515013550476217,0.007641290905873035,0.9908501904553055
2016-05-05,1,0.0013769901277986146,0.001447218188635407,-0.004248101067798271,0.007641290905873035,0.9915665517981139
2016-05-09,1,0.0019199811244457819,0.0020490962864650256,-0.004248101067798271,0.006816121711087112,0.9920575329143457
2016-05-11,1,0.0016404484354694614,0.0017390147332492988,-0.004248101067798271,0.005336301495504524,0.9929952770140831
2016-05-13,-1,-0.0006928317025215974,-0.00041486634581072745,-0.004248101067798271,0.005336301495504524,0.9934138653171308
2016-05-17,0,-0.00014546718893647913,3.13239687011373e-05,-0.006503711815069851,0.006816121711087112,0.9924604933503492
2016-05-19,-1,-0.0006375835963357873,-0.00042103654175115225,-0.006503711815069851,0.006816121711087112,0.9927496768779798
2016-05-23,0,-0.0001409674371781186,4.531112613886587e-06,-0.007450395604217814,0.006816121711087112,0.9925067687222321
2016-05-25,-1,-0.00019002558255218463,-3.36961456980902e-05,-0.007450395604217814,0.0068865885852573035,0.9919891049106085
2016-05-27,-1,-0.0003256773513928097,-0.0001272945744792141,-0.00966446412987437,0.006339628685091139,0.990201745866681
2016-06-01,-1,-0.0014350824951583489,-0.0010224437713946745,-0.00966446412987437,0.00789802141036448,0.9891337994710501
2016-06-03,-1,-0.0022481856821869265,-0.0016915550190628893,-0.00966446412987437,0.011744095394801382,0.9882625298097288
2016-06-07,-1,-0.002589612029161242,-0.0019438662037331582,-0.00966446412987437,0.012897062932807901,0.9880063946635499
2016-06-09,-1,-0.0036490470263563783,-0.00285106778631719,-0.009476092745015367,0.013781922863575916,0.9867986424853415
2016-06-13,-1,-0.004290177594914195,-0.0034276947352548577,-0.009318727088343907,0.013781922863575916,0.9865913686891497
2016-06-15,-1,-0.0038970321752405676,-0.003133855094826706,-0.0071699337623184175,0.013781922863575916,0.9875368464701549
2016-06-17,-1,-0.003138944354694204,-0.0025448715162002824,-0.0071699337623184175,0.013781922863575916,0.9862398114313918
2016-06-21,-1,-0.003396458803675902,-0.002747340806571202,-0.005959688150106559,0.01302321065916798,0.9865744104043372
2016-06-23,-1,-0.0023108566836047124,-0.0018600008286220548,-0.0034624081352353387,0.01302321065916798,0.9865485862525534
2016-06-27,-1,-0.004374854931902043,-0.0036579104907954636,-0.0015919472197539195,0.01496758308126284,0.9864900263637435
2016-06-29,-1,-0.002396124765075699,-0.001967442816326836,-0.0034624081352353387,0.010122673116598436,0.9888957721449789
2016-07-01,-1,-0.001689235051571064,-0.0013480685325555494,-0.005957013749313157,0.009206331995136695,0.989926476872871
2016-07-06,-1,-0.0022322052135497995,-0.0017802359545718057,-0.005957013749313157,0.0052073860476464714,0.9901380646591156
2016-07-08,-1,-0.00028114377001123975,-0.00011071315287183007,-0.005957013749313157,0.0033638825158425773,0.9916605919002084
2016-07-12,1,0.00020469721100189745,0.0002831193106209479,-0.005957013749313157,0.003179499332152923,0.9914354855683157
2016-07-14,1,7.494291976301563e-05,0.00017424043574587367,-0.005957013749313157,0.003179499332152923,0.9915776942659827
2016-07-18,-1,-0.0020597214931076385,-0.0016761296621769007,-0.005482921900122017,0.0033666466022273236,0.9937534349042482
2016-07-20,-1,-0.0014012619550099192,-0.0011413388489164983,-0.0030730094542665595,0.003179499332152923,0.9943633595431697
2016-07-22,-1,-0.0008071223443624287,-0.0006081290602976966,-0.0030730094542665595,0.003179499332152923,0.9948651596684909
2016-07-26,-1,-0.0003083609079701158,-0.00018288267812284904,-0.0033488820694254286,0.0022570161514758333,0.9952596711065022
2016-07-28,-1,-0.00044550406326100103,-0.0003307807634070673,-0.0033488820694254286,0.0022570161514758333,0.9954521764437709
2016-08-01,-1,-0.0008161668511153589,-0.0006529365834897455,-0.0033488820694254286,0.003179499332152923,0.9948678415982067
2016-08-03,-1,-0.0005071263187301825,-0.00043142170067116917,-0.0033488820694254286,0.0022570161514758333,0.9948183402971185
2016-08-05,-1,-0.0005460012222207407,-0.0004530370915083542,-0.0032433818186591206,0.0022570161514758333,0.9945197320922359
2016-08-09,1,0.00011869368885414062,0.00016190301208551366,-0.0032433818186591206,0.0017964287320976985,0.9944817124881576
2016-08-11,1,0.0005314344257386964,0.0006716011965076907,-0.005610895121040483,0.0019324745684376346,0.9929315590789055
2016-08-15,1,0.0005601410397864798,0.0006997400756465885,-0.008226546954986525,0.0019324745684376346,0.9912329365648559
2016-08-17,1,0.00025666007054626254,0.0003155583329086818,-0.008226546954986525,0.00685958607479132,0.9900219289385547
2016-08-19,1,0.000646411384244154,0.0007567248202072962,-0.008226546954986525,0.003087089233546437,0.9904236713374593
2016-08-23,1,0.000252676719528914,0.0003186996400824798,-0.007640713058577636,0.003087089233546437,0.990865165889289
2016-08-25,-1,-0.0003145204955847901,-0.00027899802804913493,-0.00962592609005536,0.003087089233546437,0.9904075121917583
2016-08-29,-1,-0.0006677627077414426,-0.0005874123043626066,-0.008266580678104686,0.0019324745684376346,0.9913925013743105
2016-08-31,-1,-0.0010127954814173766,-0.0009019840490234467,-0.005690599074959201,0.008840308626961729,0.9910626103086012
2016-09-02,1,3.227916800048228e-05,0.00011303083511390009,-0.003929634069726054,0.007929292052249312,0.991260402764646
2016-09-07,-1,-0.0001102512941044652,-6.587667655720203e-05,-0.003809586246557663,0.007929292052249312,0.9911634989842807
2016-09-09,-1,-0.00030269178803114956,-0.0002262814981677339,-0.00380547162615555,0.007929292052249312,0.9923856873888744
2016-09-13,-1,-9.147943993631139e-05,-3.375505041795221e-05,-0.002271282124354788,0.006767264310790672,0.9936909925630749
2016-09-15,1,0.0004972225691964641,0.0006169533632100982,-0.006916950063665735,0.004656442515538447,0.9937408515085633
2016-09-19,1,0.0006341265626311442,0.0007966190856604806,-0.007867481059127454,0.004656442515538447,0.9929592617434071
2016-09-21,-1,-0.00010605245324772895,-0.00010424960042157166,-0.008254236816898346,0.006460077874259441,0.9923797804783971
2016-09-23,-1,-0.0004858990189838408,-0.0004560209912574664,-0.00330844160352485,0.0066120073576240715,0.9928533953487665
2016-09-27,-1,-0.0008044990092573934,-0.000716441690464073,-0.00330844160352485,0.0066120073576240715,0.9925175613303362
2016-09-29,1,0.0001277915170652838,0.0001842052626000315,-0.00330844160352485,0.0066120073576240715,0.9924320844477511
2016-10-03,1,0.00037523286156283727,0.0004553588979898125,-0.00330844160352485,0.0066120073576240715,0.9926161962721527
2016-10-05,1,3.5850130746292486e-05,4.2793907200911813e-05,-0.005582340248879958,0.0066120073576240715,0.9923449109315547
2016-10-07,-1,-0.00016127009475376186,-0.000137915786539525,-0.005582340248879958,0.0066120073576240715,0.9920391885238872
2016-10-11,-1,-7.225161571996581e-05,-3.936439286293363e-05,-0.005582340248879958,0.008480999177011362,0.9900102310948506
2016-10-13,-1,-0.0005246585353078874,-0.0004531652654762168,-0.0014474687735468433,0.010993365033449243,0.9890957003550157
2016-10-17,-1,-0.0010058716099640326,-0.0008827087488264641,-0.0011440088295572445,0.016992403585738558,0.9882580033500697
2016-10-19,-1,-0.0010547973771375524,-0.0009410440857097377,-0.000523986011852922,0.016992403585738558,0.9890933870929152
2016-10-21,-1,-0.0007914053154674051,-0.0007106268945330431,8.195164462751654e-05,0.016992403585738558,0.9895861266636986
2016-10-25,-1,-0.0006033477503109191,-0.0005424603505396448,-0.000523986011852922,0.016992403585738558,0.9897274488787359
2016-10-27,1,0.00033311741985894065,0.0004069464681528105,-0.000523986011852922,0.016992403585738558,0.9900190704234616
2016-10-31,1,0.000314964329900466,0.00036337200130058593,-0.0005573402783297704,0.016992403585738558,0.9898199090696076
2016-11-02,1,7.273230566938795e-05,8.089684492764402e-05,8.195164462751654e-05,0.018454925220620106,0.9883898550769311
2016-11-04,-1,-0.0004754814963306861,-0.0003975694203963919,0.00120461019860332,0.018454925220620106,0.9878468000691698
2016-11-08,1,0.0009262362157336868,0.0010162937416396422,0.00120461019860332,0.01781032636326431,0.9901502702452993
2016-11-10,1,0.002128002882111589,0.0023777756742360883,8.195164462751654e-05,0.015859986786728418,0.9914613339613876
2016-11-14,1,0.0032689618197734773,0.0036776426196556532,-0.0013611223419511863,0.01171054256699788,0.9925819237240341
2016-11-16,1,0.0026183418515398757,0.0028383831830856745,-0.0042572282657852775,0.01171054256699788,0.9919248747945891
2016-11-18,1,0.0031459077100419452,0.0035026844733497655,-0.005202799430237253,0.01171054256699788,0.9912364231857901
2016-11-22,1,0.003300417235459475,0.0037120285361742773,-0.006418137218100507,0.01171054256699788,0.9909725903651293
2016-11-25,1,0.004153517670427465,0.004679167201938526,-0.006418137218100507,0.007618666491192748,0.9917947743990975
2016-11-29,1,0.004512574944110776,0.005159183440712622,-0.006418137218100507,0.007618666491192748,0.9916603239784882
2016-12-01,1,0.005667439265437267,0.006469440727321331,-0.006418137218100507,0.004686981374991207,0.9918464856390399
2016-12-05,1,0.005747172715914668,0.006554360673147871,-0.004551148485477882,0.004686981374991207,0.9921631250539276
2016-12-07,1,0.005777150938508724,0.006487251794375431,-0.006173513236541169,0.0036790816470419403,0.9921431650761132
2016-12-09,1,0.005419443081297115,0.006080338940537788,-0.006173513236541169,0.0036790816470419403,0.9925828058225528
2016-12-13,1,0.005550011628060245,0.006265279077517352,-0.006173513236541169,0.005243465433523424,0.9929183318496312
2016-12-15,1,0.005314436507796508,0.006013843726575254,-0.006928753442361197,0.005243465433523424,0.9930251922746878
2016-12-19,1,0.004819145997810325,0.0054198035347937734,-0.006928753442361197,0.0037932451588512375,0.9918941548523582
2016-12-21,1,0.004273871288098023,0.004777962804567186,-0.003928031662660236,0.0037932451588512375,0.9926805810638429
2016-12-23,1,0.004075524527331468,0.0045262606267920235,-0.003928031662660236,0.006348789254575342,0.9913398122004523
2016-12-28,1,0.0038202903966687166,0.004236815982745752,-0.0028529573408440237,0.006052079159582829,0.9918962527871296
2016-12-30,1,0.0036527886210057066,0.004042298295627126,-0.0009313161054650403,0.006052079159582829,0.9920649085247579
2017-01-04,1,0.0037742514759109423,0.004173029720737659,-0.006747927172636101,0.0037932451588512375,0.991378124575544
2017-01-06,1,0.003558915940974845,0.003925591152922001,-0.0029712826270830773,0.004700762249908147,0.9907570492756336
2017-01-10,1,0.0034366499312346384,0.003781613301772525,-0.004353946170861054,0.0025772138172008873,0.9906252176204062
2017-01-12,1,0.003952600353444595,0.004387469418726668,-0.004353946170861054,0.003345538234299666,0.9900126398960556
2017-01-17,1,0.0031121709830087916,0.0033909650707087007,-0.004353946170861054,0.003278482164809004,0.9905056875050346
2017-01-19,1,0.0014446517660242594,0.001474663812505108,-0.0018657344654080992,0.0077517717848385225,0.9925892629836425
2017-01-23,1,0.0010875364963202163,0.001127126693217652,-0.002445125175616631,0.0077517717848385225,0.9924537475138574
2017-01-25,1,0.0021494268399383566,0.0022031338343038004,-0.007895232263340766,0.0024936445483370643,0.9922144489447494
2017-01-27,1,0.0022469138369942262,0.0023264465462651306,-0.007895232263340766,0.004061591007938972,0.9910490315565815
2017-01-31,1,0.0020662631350836145,0.002110929635410451,-0.0089640325573061,0.0077517717848385225,0.9892543236580486
2017-02-02,1,0.0003904603817468539,0.0006066193093648358,-0.0089640325573061,0.0077517717848385225,0.9894442306914448
2017-02-06,1,0.0015274039972295286,0.0015840476843128812,-0.01022995776796036,0.006600541328255284,0.989126661254846
2017-02-08,1,0.0013628920183717773,0.0013957780862543787,-0.009045331353157361,0.006600541328255284,0.9895561027411829
2017-02-10,1,0.0018830057035417326,0.0018975420840016766,-0.011476708526041024,0.003679235919072897,0.9894318775347365
2017-02-14,1,0.0010407246364978352,0.0011520201780070723,-0.011476708526041024,0.00538566563277412,0.9894285552687299
2017-02-16,1,0.0007212977077622254,0.0009147140623286321,-0.011476708526041024,0.003679235919072897,0.9893821763087245
2017-02-21,1,0.00038811298558036854,0.0006354498847877519,-0.014115368607801696,0.003475751114966319,0.9884535288843552
2017-02-23,-1,-0.0007574871196783909,-0.00041196317833543485,-0.011800252023851064,0.003475751114966319,0.9899142039975231
2017-02-27,1,0.00041796992163851325,0.0006126904818647481,-0.011800252023851064,0.002095330782002428,0.9905885616258994
2017-03-01,1,0.0002259780873334398,0.0004477896763750083,-0.011496930604617789,0.002095330782002428,0.9909972952316679
2017-03-03,-1,-0.001182217636248789,-0.0007687381155772593,-0.010046578168876432,0.0035480784785316666,0.992028868358044
2017-03-07,-1,-0.0016435418522614603,-0.0011912337958187031,-0.010046578168876432,0.0035480784785316666,0.9918711656860553
2017-03-09,-1,-0.002650617173936329,-0.002023646241961845,-0.010046578168876432,0.0044839713038752425,0.9920945183073467
2017-03-13,-1,-0.004013172669557884,-0.0031580709261364807,-0.010046578168876432,0.00498295343475887,0.9913860978945765
2017-03-15,-1,-0.004318653346639159,-0.003425364679620287,-0.01270687571556001,0.0034138410791932504,0.9909115890545398
2017-03-17,-1,-0.004930420900935649,-0.003970203768329663,-0.01270687571556001,0.0034138410791932504,0.9906221193147574
2017-03-21,-1,-0.006039198718709253,-0.004956091719514971,-0.0116556776465388,0.0034138410791932504,0.9909186350643663
2017-03-23,-1,-0.005832694911669979,-0.004827308901203889,-0.0116556776465388,0.00847796309065366,0.9897750440596877
2017-03-27,-1,-0.005902983263187705,-0.004900229799288259,-0.0116556776465388,0.010455529754854908,0.9889938314656318
2017-03-29,-1,-0.0058141763101357755,-0.004814688181413429,-0.0116556776465388,0.00847796309065366,0.9897352957079637
2017-03-31,-1,-0.006074587647405415,-0.005010387437920474,-0.013218307993176493,0.005652084761579624,0.9898166654534969
2017-04-04,-1,-0.00490417085302881,-0.004072758315326268,-0.011953932819761284,0.005652084761579624,0.9906627736914584
2017-04-06,-1,-0.0038497293695294787,-0.0032192357504883928,-0.011953932819761284,0.004786221987718028,0.9908125248691273
2017-04-10,-1,-0.0025883425143353404,-0.0021718008458471143,-0.011412686259646846,0.0023233774778742963,0.9921959951095041
2017-04-12,-1,-0.0038938067079721424,-0.0033297763727070558,-0.009810034846136882,0.0023233774778742963,0.9929903164521567
2017-04-17,-1,-0.004311679155716817,-0.003702841607508821,-0.008443934020916125,0.0023233774778742963,0.9932082892516096
2017-04-19,-1,-0.004428356850196973,-0.003801628003298633,-0.009810034846136882,0.0023233774778742963,0.9920506645831032
2017-04-21,-1,-0.0027203154541806975,-0.0023523118193064605,-0.009810034846136882,0.0014899859877367176,0.9927753565769813
2017-04-25,-1,-0.0022858237270800665,-0.001960373260430538,-0.009810034846136882,0.0014899859877367176,0.9928290348300496
2017-04-27,-1,-0.0018088858035909294,-0.0016126265692179684,-0.008443934020916125,0.0014899859877367176,0.993054713193197
2017-05-01,-1,-0.0026676548288366644,-0.0023865223963774407,-0.006372418306939219,0.002825554861696204,0.9931621384943018
2017-05-03,-1,-0.0016735187076270604,-0.0015563685639250712,-0.00667516372257135,0.002825554861696204,0.993195370377072
2017-05-05,-1,-0.0019190861198860312,-0.001764738398235962,-0.006213488841750999,0.0054149395163000675,0.9932548873835779
2017-05-09,-1,-0.0023405175194142883,-0.002135676430788629,-0.005499172013455261,0.006062496046376465,0.992533186647163
2017-05-11,-1,-0.0031358343140996444,-0.0028236543627821165,-0.0024941921892525157,0.006062496046376465,0.9923070519145293
2017-05-15,-1,-0.003077861693910181,-0.0027739206145747145,-0.0011001488400674956,0.007821744694714984,0.991072585199687
2017-05-17,-1,-0.0042541158208241935,-0.0038017652048151357,-0.0011001488400674956,0.007821744694714984,0.9913140624458388
2017-05-19,-1,-0.0036593938893072896,-0.0032907296736394863,-0.0035780299782296123,0.007821744694714984,0.9918928033220488
2017-05-23,-1,-0.0031506883688396828,-0.002839411479180533,-0.006213488841750999,0.006409882573830665,0.9915515698295849
2017-05-25,-1,-0.003022519009185567,-0.0027309716538263785,-0.005600087151999306,0.006409882573830665,0.9917298479371077
2017-05-30,-1,-0.0022199177818885973,-0.0020415362928534473,-0.003883412346690887,0.006409882573830665,0.9922352908199908
2017-06-01,-1,-0.002098167796694223,-0.001937911433090237,-0.0035949038986102626,0.006552516031903906,0.9906345652113159
2017-06-05,-1,-0.001712826004505479,-0.0016028413311955764,-0.0035949038986102626,0.008249645068934709,0.9897762904693045
2017-06-07,-1,-0.0006070635860198496,-0.0005508781872262917,-0.0059538490641560474,0.006059938403884453,0.9906485915857769
2017-06-09,-1,-0.00047591984352510284,-0.00042131472507222014,-0.007762481286388979,0.008249645068934709,0.9898065716703341
2017-06-13,-1,-0.0002510748514709405,-0.00024540540181727853,-0.008353603509430575,0.005283458711842414,0.9900854351001344
2017-06-15,-1,-0.00028676322999706197,-0.0002808754385251694,-0.008353603509430575,0.005659582664595853,0.9900052693787301
2017-06-19,1,0.0003571716382192964,0.0005442870556928037,-0.010048809412979472,0.006865360386229985,0.9889121305621346
2017-06-21,-1,-0.0007033159847665608,-0.000644277267637409,-0.005897655881455009,0.006865360386229985,0.990197951287337
2017-06-23,-1,-0.00044368934656853417,-0.00034022684430434606,-0.005897655881455009,0.006865360386229985,0.9904580023490418
2017-06-27,-1,-0.0002990602084757595,-0.00021338568144071518,-0.005897655881455009,0.00864279556075863,0.9898938385278233
2017-06-29,1,0.0015438634480300782,0.00192822291373154,-0.0080839646864874,0.005659582664595853,0.9904144839874992
2017-07-03,1,0.0022585438365943667,0.0027103071126397585,-0.010048809412979472,0.004133596245638771,0.9904564808621954
2017-07-06,1,0.0023882334087185764,0.002908954686835278,-0.0080839646864874,0.004133596245638771,0.9908120394990608
2017-07-10,1,0.0024751036955689533,0.0029904386326465313,-0.005838546002672118,0.004133596245638771,0.9913929450965944
2017-07-12,1,0.0024924939578697732,0.0030395099084659987,-0.004249214263968428,0.004437953559300035,0.991773825250497
2017-07-14,1,0.00256905029850236,0.0031319966112180416,-0.003503063960408991,0.0062866525022832204,0.9910093629498388
2017-07-18,1,0.0020278247562460785,0.0024451575674267244,-0.002232702386734251,0.011797416011281474,0.9916716067507083
2017-07-20,1,0.002457739064202357,0.002996338868821543,-0.001592220785173144,0.011797416011281474,0.991660061967866
2017-07-24,1,0.002578284426014787,0.003139503910335329,-0.002988730627606943,0.011797416011281474,0.9914238474353448
2017-07-26,1,0.0029913785902058888,0.0035595362611179947,-0.0039818197768329445,0.0083658248755725,0.991511907931601
2017-07-28,1,0.0015848641556903287,0.0019419495744892495,-0.002988730627606943,0.0111804519549473,0.992664307240228
2017-08-01,1,0.0012306180538694718,0.0015337351815298936,-0.0012869676874283915,0.012008908249871605,0.9923795677383365
2017-08-03,1,0.001033660070855734,0.0012928927457158124,-0.0027121853663869934,0.012008908249871605,0.9918733839180148
2017-08-07,1,0.0015906842926522067,0.0019220256265804075,-0.0031521839931730952,0.0111804519549473,0.9920168568502281
2017-08-09,1,0.0019774888534162456,0.0023351002958544934,-0.0031521839931730952,0.0111804519549473,0.9918285282587851
2017-08-11,1,0.002467961795799087,0.002836197564189918,-0.003557353186433068,0.010966875900611805,0.9926079643347092
2017-08-15,1,0.003242892481558065,0.003692291009170269,-0.00452506706960039,0.007959186688913449,0.9929904286774585
2017-08-17,1,0.0028863717345826625,0.0032789524223457477,-0.00595622850994523,0.009842347101616062,0.9923220893022913
2017-08-21,1,0.003141166785331651,0.003579836804541255,-0.00595622850994523,0.011037373313475183,0.9922249970134427
2017-08-23,1,0.0031129564641242478,0.00355886244877404,-0.0038686109112252842,0.011472978635902627,0.992284347471771
2017-08-25,1,0.0032279070041775467,0.0036909681292796818,-0.004365999177193474,0.011118407755840378,0.9922451766003346
2017-08-29,1,0.00407682183512479,0.0046557074101321715,-0.004365999177193474,0.012658698746140437,0.991721056592651
2017-08-31,1,0.003951279231399563,0.0045356728751865735,-0.0014915329361342823,0.015777798053531897,0.9917390897069559
2017-09-05,1,0.0031102535276965816,0.00350593127086986,-0.0014915329361342823,0.015777798053531897,0.9908702234627143
2017-09-07,1,0.003503362027075305,0.0039204459497516764,-0.004708105259033752,0.012658698746140437,0.9902554834236623
2017-09-11,1,0.003588013312668388,0.004005402452158026,-0.007587260291029137,0.012658698746140437,0.9901267042190672
2017-09-13,1,0.0035156953347807696,0.003968327982119161,-0.005350256918958594,0.012658698746140437,0.9904881639666997
2017-09-15,1,0.004050215147881075,0.004597838796549816,-0.00538214854009472,0.012658698746140437,0.9883943501694405
2017-09-19,1,0.004122708461431108,0.0046485919339710365,-0.007700734923332197,0.011610257580195796,0.9874893334593925
2017-09-21,1,0.004133656623180083,0.004594062498418984,-0.007700734923332197,0.011941074993415488,0.9872257311952416
2017-09-25,1,0.004282085157470768,0.0047693657161398985,-0.00538214854009472,0.016877811861430985,0.9873133109762667
2017-09-27,1,0.005289854906822459,0.005888468856850737,-0.008322498512302526,0.007776303278757389,0.9873164570787413
2017-09-29,1,0.005530999582571618,0.006122686919269325,-0.008322498512302526,0.007776303278757389,0.9872341492470926
2017-10-03,1,0.004191697347046617,0.0045578320887158,-0.008322498512302526,0.008524519776830672,0.9864138984180424
2017-10-05,1,0.003157235324583197,0.003370921148701588,-0.00538214854009472,0.010876855463631771,0.9872150886637538
2017-10-09,1,0.002037981690958187,0.002046383148516009,-0.0026342007650615278,0.010876855463631771,0.9873542479199273
2017-10-11,1,0.0018117253397843688,0.0018413602651127627,-0.010439596123265981,0.010876855463631771,0.9859072995285773
2017-10-13,1,0.0011509633642017927,0.001246515645322172,-0.010439596123265981,0.008524519776830672,0.9877712276706255
2017-10-17,1,0.00023023959275526276,0.00044288225446810557,-0.00404069299437414,0.008524519776830672,0.9889215205889564
2017-10-19,1,0.0011946858149697187,0.0012797889791032564,-0.009367169602536318,0.008524519776830672,0.9887207128723865
