JNU-Tangyin/eata/results/Batch4_SP500/Batch4_SP500-UDR.csv
Date,Action,Predicted_Q25,Predicted_Q75,Actual_Q25,Actual_Q75,RL_Reward
2010-12-14,0,0.0,0.0,-0.007476098215818679,0.00740750375919141,0.9917566086131723
2010-12-16,0,0.0,0.0,-0.005130766632836113,0.00740750375919141,0.9919625786087056
2010-12-20,0,0.0,0.0,-0.007476098215818679,0.006258482193222431,0.9917031281669922
2010-12-22,0,0.0,0.0,-0.007476098215818679,0.0058136963721191915,0.9923266493232475
2010-12-27,0,0.0,0.0,-0.007476098215818679,0.006258482193222431,0.9920460167539343
2010-12-29,0,0.0,0.0,-0.005130766632836113,0.007320601588066246,0.992235183581546
2010-12-31,0,0.0,0.0,-0.0076507476598206,0.00846912850318207,0.9908760678939458
2011-01-04,0,0.0,0.0,-0.005130766632836113,0.007320601588066246,0.9929024104109323
2011-01-06,0,0.0,0.0,-0.003066758710918805,0.007320601588066246,0.9927370634984797
2011-01-10,0,0.0,0.0,-0.003066758710918805,0.00846912850318207,0.9918957746639789
2011-01-12,0,0.0,0.0,-0.003066758710918805,0.00846912850318207,0.9920628078133356
2011-01-14,0,0.0,0.0,-0.00042888684606084927,0.009726711637855648,0.9910807291462745
2011-01-19,-1,-0.0015786069266274156,-0.0010180899494435303,-0.0020824911744354645,0.009220386923957555,0.9912406696410377
2011-01-21,-1,-0.0014735286974041143,-0.0009376315681796116,-0.0020743884269674943,0.009220386923957555,0.9913445454569451
2011-01-25,1,0.0006643446357260136,0.0008425914337142832,-0.0076550946461058055,0.006449415053675686,0.992102115117529
2011-01-27,1,0.0016971083953453293,0.0016979207829956368,-0.0076550946461058055,0.006449415053675686,0.9913788693519785
2011-01-31,1,0.00046349514740745535,0.0006244005250174813,-0.0076550946461058055,0.006449415053675686,0.9905378646345305
2011-02-02,1,0.0006397009216642898,0.0007792065978641242,-0.0076550946461058055,0.009523283584266405,0.9900504708538511
2011-02-04,1,0.0003276815132648613,0.0004739744186241446,-0.0076550946461058055,0.009523283584266405,0.990265242263371
2011-02-08,1,0.0003271680378821131,0.00045548456169333326,-0.006155460214067633,0.009523283584266405,0.9908427306679022
2011-02-10,1,0.0015133475332603074,0.0015737530674948784,-0.0076550946461058055,0.010922378799992371,0.9892514409662906
2011-02-14,1,0.0016856734709359438,0.001690179614224797,-0.009596653041395054,0.0042233096260640155,0.9894172903560486
2011-02-16,1,0.0004751844770208116,0.0005979018637161217,-0.0075743197659638856,0.010427035944548009,0.9899444210998978
2011-02-18,1,0.00037885983680249405,0.000517264613573378,-0.0075743197659638856,0.010922378799992371,0.9892511841034665
2011-02-23,0,0.0,0.0,-0.007857074599864133,0.010922378799992371,0.9890203253977249
2011-02-25,0,0.0,0.0,-0.007857074599864133,0.010427035944548009,0.9895427005769449
2011-03-01,1,0.0005540893971703728,0.0005621324099452666,-0.006959491223811839,0.008004627623052638,0.9914175627835075
2011-03-03,1,0.00044939564098193593,0.0005365417343173483,-0.006959491223811839,0.010728590700827515,0.9908835468034747
2011-03-07,0,0.0,0.0,-0.006196300198146343,0.010728590700827515,0.991339092876078
2011-03-09,0,-8.754302194654748e-06,5.44812007977068e-05,-0.006196300198146343,0.008004627623052638,0.9918410192280068
2011-03-11,-1,-0.0004256430701163035,-0.00036889475822323846,-0.006196300198146343,0.006949698532613837,0.9923170223865412
2011-03-15,-1,-0.00045954693634276365,-0.0003827838685547927,-0.004127950750526302,0.006949698532613837,0.993016918970689
2011-03-17,1,1.3533561804382292e-05,0.00017738381741185677,-0.002823304773389981,0.006949698532613837,0.9932966504736553
2011-03-21,1,0.0007172392500413583,0.0007517016670520236,-0.004127950750526302,0.006949698532613837,0.9924377152474235
2011-03-23,-1,-0.0003496419003476018,-0.00023751967128512823,-0.002166441185085791,0.01025916716639458,0.9920666100265894
2011-03-25,1,0.0003665743132118478,0.0003717477798324101,-0.002166441185085791,0.01025916716639458,0.9916888875767094
2011-03-29,1,0.0007042411382572946,0.0007640856079895259,-0.002166441185085791,0.011072617152565719,0.9912265854532151
2011-03-31,1,0.0025563334858946184,0.0029657592667755458,-0.002166441185085791,0.010016893152958964,0.9917831257136533
2011-04-04,1,0.0013268819746016403,0.0014312057995116523,-0.002823304773389981,0.010016893152958964,0.9913866593141876
2011-04-06,1,0.0013747010012025154,0.0015119985946939639,-0.003062476978096908,0.010016893152958964,0.9908426931536239
2011-04-08,0,0.0,0.0,-0.0017926956113514603,0.010016893152958964,0.991071175220415
2011-04-12,0,0.0,0.0,-0.003062476978096908,0.011479867046424104,0.9898870435392004
2011-04-14,0,0.0,0.0,-0.005652980619505788,0.011479867046424104,0.9898705790317535
2011-04-18,-1,-0.0015779434153317606,-0.0012107994536164537,-0.004109833413293213,0.00999797964647279,0.9910386949043641
2011-04-20,0,0.0,0.0,-0.004109833413293213,0.009450913326622096,0.9921861283232055
2011-04-25,0,0.0,0.0,-0.007240916420564668,0.007424224302032838,0.9922910821949514
2011-04-27,1,0.002126484230552405,0.0023489226126560177,-0.007240916420564668,0.0046760021346545924,0.9925300037149293
2011-04-29,1,0.0025510938058884358,0.002817664204901061,-0.007240916420564668,0.0046760021346545924,0.992865607771373
2011-05-03,1,0.0020033538173288242,0.002162233069348802,-0.009072044970440021,0.007424224302032838,0.9906081726313211
2011-05-05,1,0.0023612718854300017,0.002612052136547377,-0.007562714308975173,0.005309431176505872,0.9910288820079675
2011-05-09,1,0.0014435783588601326,0.0015366021291507944,-0.007562714308975173,0.007467567583745477,0.9905143080578115
2011-05-11,1,0.0010920335513093559,0.0011030715809004566,-0.006866712438846167,0.005309431176505872,0.9913681252226575
2011-05-13,1,0.0009564098835080909,0.0009935468448281051,-0.006866712438846167,0.006911835323280023,0.9906136081090084
2011-05-17,0,0.0,0.0,-0.007949433025284518,0.007932794063330202,0.9894057000867458
2011-05-19,0,0.0,0.0,-0.007949433025284518,0.009469655882251475,0.9892298778864167
2011-05-23,0,0.0,0.0,-0.0056816215899660235,0.010149554936102714,0.9892690266760373
2011-05-25,0,0.0,0.0,-0.00929547273665669,0.010019219973627628,0.9879501099449209
2011-05-27,1,0.001295580255143669,0.0014019044174248805,-0.00929547273665669,0.007889349075838506,0.9883750921168174
2011-06-01,1,6.325794205338023e-05,0.0001542068638813356,-0.007388993187440663,0.008816796746972116,0.9902230039423174
2011-06-03,1,0.00021482532726677561,0.00028763039592770423,-0.005882104450150015,0.009764499718403987,0.9896390139512922
2011-06-07,1,0.00034460811108140844,0.00039022113628354744,-0.0043560675034911185,0.009764499718403987,0.9900842430759201
2011-06-09,-1,-0.00016134397174724316,-3.902035262555133e-05,-0.00413169751489879,0.009764499718403987,0.9900580799478104
2011-06-13,-1,-0.0006596279614221886,-0.00048321070282279245,-0.00413169751489879,0.009803839592678429,0.9905103253755019
2011-06-15,-1,-0.0007277344004450871,-0.0005470800716479277,-0.00413169751489879,0.009803839592678429,0.9907768916690991
2011-06-17,-1,-8.15071419053858e-05,-1.5308768337580662e-05,-0.0032488750523199162,0.011005077927588695,0.9907488749781008
2011-06-21,1,0.0004642707050488198,0.0004701069389081427,-0.0032488750523199162,0.011005077927588695,0.9903935593409223
2011-06-23,-1,-0.0010563704406638676,-0.0008667438597907706,0.0012755493338804768,0.011749700021112927,0.9909756106282178
2011-06-27,-1,-0.0009778402438850742,-0.0008060461142037074,0.0012755493338804768,0.011749700021112927,0.9906215814330053
2011-06-29,-1,-0.0005006197653163672,-0.0003676639347435145,-0.0045437145958341415,0.011749700021112927,0.9902379646110154
2011-07-01,1,0.00033632648686658564,0.0003745414217502372,-0.005612347796302507,0.010029551330930513,0.9909498749540889
2011-07-06,1,0.0009485169494885775,0.001003593259799977,-0.007589877514230921,0.00773489204706328,0.990622595093508
2011-07-08,1,0.0012496854329519186,0.0013908469351820774,-0.0094496720535855,0.00773489204706328,0.9864939985666626
2011-07-12,0,0.0,0.0,-0.011881829485091026,0.008285779317534759,0.9783805996128042
2011-07-14,0,0.0,0.0,-0.020785675136258334,0.008285779317534759,0.9751588677674611
2011-07-18,1,0.0015504873832521632,0.0016262461858101082,-0.020785675136258334,0.0084424353780851,0.9732061883971553
2011-07-20,1,0.0028109062233547767,0.003081606274905191,-0.020785675136258334,0.007462805465325594,0.9737073794189858
2011-07-22,0,0.0,0.0,-0.02462738780653869,0.005626994999804852,0.9720215353246711
2011-07-26,0,0.0,0.0,-0.02462738780653869,0.011596084699311959,0.9705349906235167
2011-07-28,-1,-0.00018068979859439622,-0.00013370318142095586,-0.02448068105498182,0.02089754210452542,0.9693840201850755
2011-08-01,1,0.0016525670174961286,0.0017381834395395572,-0.02448068105498182,0.026213966719989844,0.9677963768432112
2011-08-03,-1,-0.0003751412122973128,-0.00020530042964943008,-0.02448068105498182,0.026213966719989844,0.968178837729335
2011-08-05,-1,-0.005306750957111193,-0.004523067902226409,-0.017753697099751147,0.026213966719989844,0.9702422829676095
2011-08-09,-1,-0.002916578542084532,-0.002450559275525774,-0.015677787932492852,0.026213966719989844,0.9771103825553328
2011-08-11,-1,-0.0010661844272522323,-0.0008503398503243467,-0.015677787932492852,0.022511165621444607,0.979945476325632
2011-08-15,-1,-0.001014425583357382,-0.0007626474354449763,-0.013593095676456071,0.019465330764665997,0.9817308937854371
2011-08-17,0,0.0,0.0,-0.013593095676456071,0.019465330764665997,0.981937544716108
2011-08-19,0,0.0,0.0,-0.009610682432400847,0.019465330764665997,0.9830014277659296
2011-08-23,0,0.0,0.0,-0.017753697099751147,0.011056878843360655,0.9814252667382476
2011-08-25,0,0.0,0.0,-0.017753697099751147,0.00825538073220837,0.9815444334075655
2011-08-29,0,0.0,0.0,-0.017753697099751147,0.007859552122335934,0.9833445800777292
2011-08-31,0,0.0,0.0,-0.020790278594901773,0.007859552122335934,0.981907847104002
2011-09-02,0,0.0,0.0,-0.027583821083538067,0.007859552122335934,0.9794259877875016
2011-09-07,-1,-0.007317480029007587,-0.0066633285318407325,-0.027583821083538067,0.007859552122335934,0.9781741014431099
2011-09-09,-1,-0.006930112121777841,-0.006310424070693387,-0.02784982793913121,0.007975400047161818,0.9759203665384197
2011-09-13,0,0.0,0.0,-0.03228251316734185,0.00814760158300857,0.9727361663589956
2011-09-15,0,0.0,0.0,-0.03228251316734185,0.009635996657631853,0.9721616003186078
2011-09-19,0,0.0,0.0,-0.03291643449152558,0.014890329734553747,0.9707033504908987
2011-09-21,1,0.00022885188308775353,0.0002996738444713331,-0.03228251316734185,0.018716566151550134,0.9721213298274592
2011-09-23,0,0.0,0.0,-0.02784982793913121,0.024283378422224323,0.9735643042846468
2011-09-27,0,0.0,0.0,-0.02784982793913121,0.02583161371935927,0.9722660049986521
2011-09-29,0,0.0,0.0,-0.021315627130630628,0.031249624737375394,0.9707791621048067
2011-10-03,-1,-0.007108906979376851,-0.006308542961210069,-0.014320641084008094,0.031249624737375394,0.9726670853559485
2011-10-05,-1,-0.005852888984271396,-0.005189373101926388,-0.015975111455531786,0.025896853313354305,0.9735046878342513
2011-10-07,0,0.0,0.0,-0.010967551077599422,0.02489309864523359,0.9767859827139563
2011-10-11,0,0.0,0.0,-0.00894018636540984,0.023323116816766964,0.9800188061175498
2011-10-13,-1,-0.0031567259945861673,-0.002784435935898536,-0.010967551077599422,0.023323116816766964,0.9780833206036479
2011-10-17,-1,-0.003067027149548586,-0.0027258809490462513,-0.010967551077599422,0.023323116816766964,0.9784640172349324
2011-10-19,-1,-0.001665151219251352,-0.0015137407911894715,-0.014595025151220216,0.01841361167442421,0.9795308162296694
2011-10-21,-1,-0.0011058834080262037,-0.000986509267836016,-0.02195530745462279,0.013965689797326916,0.9794595471677089
2011-10-25,-1,-0.0006856844722394508,-0.0006131013975025043,-0.02195530745462279,0.012498287865732097,0.9803049806017237
2011-10-27,1,0.001968501978044164,0.002241329709926544,-0.025799424658969144,0.009037683182411644,0.9829023707334851
2011-10-31,1,0.0011462636191611362,0.0013030660322004592,-0.02195530745462279,0.010390350000037369,0.9833014275003343
2011-11-02,1,0.0004900252343350476,0.0005305054020997387,-0.019259338061922454,0.010390350000037369,0.9839017997974029
2011-11-04,0,0.0,0.0,-0.019259338061922454,0.009687782489951542,0.9841609081723868
2011-11-08,0,0.0,0.0,-0.019259338061922454,0.009517433600199573,0.9833830841994202
2011-11-10,0,0.0,0.0,-0.019259338061922454,0.01294016585157127,0.983141207571631
2011-11-14,0,0.0,0.0,-0.019259338061922454,0.009517433600199573,0.984127002911093
2011-11-16,0,0.0,0.0,-0.014949238995926937,0.015711755354788394,0.9834874922157367
2011-11-18,0,0.0,0.0,-0.011421360929341054,0.018006235117719295,0.98368292738037
2011-11-22,0,0.0,0.0,-0.009987562012369496,0.020749325903543767,0.9834287499492627
2011-11-25,0,0.0,0.0,-0.008184704515369715,0.020749325903543767,0.9846394410842054
2011-11-29,0,0.0,0.0,-0.008987669104489771,0.020749325903543767,0.9850305253812329
2011-12-01,0,0.0,0.0,-0.008987669104489771,0.018006235117719295,0.9865787211713563
2011-12-05,0,0.0,0.0,-0.009899409045886777,0.018006235117719295,0.9864863285146512
2011-12-07,0,0.0,0.0,-0.009899409045886777,0.011955511438614277,0.9876086181886665
2011-12-09,0,0.0,0.0,-0.009899409045886777,0.00895959688318515,0.9892323225592214
2011-12-13,0,0.0,0.0,-0.008987669104489771,0.00895959688318515,0.989548944110802
2011-12-15,1,0.002438051210071993,0.0029505781009838685,-0.008987669104489771,0.006861663067385912,0.9907183114279106
2011-12-19,1,0.0019063844485162921,0.0022779972415426274,-0.008510366801609614,0.006861663067385912,0.9910653124899836
2011-12-21,0,0.0,0.0,-0.008510366801609614,0.004557769602528377,0.9918396170023089
2011-12-23,0,0.0,0.0,-0.008510366801609614,0.00895959688318515,0.990076215046555
2011-12-28,0,0.0,0.0,-0.005973693901096784,0.010453149287751205,0.9898192382562528
2011-12-30,0,0.0,0.0,-0.007876306327752823,0.009404739582413462,0.9897866516450438
2012-01-04,0,0.0,0.0,-0.00526515106765549,0.009404739582413462,0.9902428902396939
2012-01-06,0,0.0,0.0,-0.00526515106765549,0.012066608221742312,0.9895515266442874
2012-01-10,0,0.0,0.0,-0.00526515106765549,0.012066608221742312,0.9894909967291291
2012-01-12,0,0.0,0.0,-0.005399902909300552,0.012066608221742312,0.9899590796171591
2012-01-17,0,0.0,0.0,-0.006598879807482287,0.011221396589391332,0.9905624337668864
2012-01-19,0,0.0,0.0,-0.00503640300686709,0.00886039896380637,0.9913241833047706
2012-01-23,0,0.0,0.0,-0.006598879807482287,0.00886039896380637,0.9900725173937351
2012-01-25,0,0.0,0.0,-0.007855331071757647,0.007613547596938367,0.99114829249456
2012-01-27,0,0.0,0.0,-0.007855331071757647,0.007613547596938367,0.9913872744698895
2012-01-31,0,0.0,0.0,-0.009813018729873245,0.00711268558798421,0.9920868407072279
2012-02-02,0,0.0,0.0,-0.009813018729873245,0.007577832443477079,0.9910522329561953
2012-02-06,1,0.0017723541278184133,0.0022282301483611293,-0.00676483136445726,0.007577832443477079,0.9913953468394882
2012-02-08,0,0.0,0.0,-0.00676483136445726,0.007577832443477079,0.9918307896746451
2012-02-10,0,0.0,0.0,-0.005946509429293625,0.009150361305419429,0.9915021769810431
2012-02-14,1,0.0016999553266985358,0.0018685237309873782,-0.006012904211863808,0.009150361305419429,0.9914885236438957
2012-02-16,1,0.0008320417583692114,0.0008391912539059678,-0.00696401571216781,0.009150361305419429,0.9911810713687864
2012-02-21,1,0.0004343304335256349,0.00046348098236791786,-0.006012904211863808,0.010262803750543807,0.9921425751582416
2012-02-23,1,4.458685919340343e-05,0.00015423039085239818,-0.007088955865112307,0.008961181509223995,0.9914662559274805
2012-02-27,0,0.0,0.0,-0.007088955865112307,0.008961181509223995,0.9909842996014941
2012-02-29,0,0.0,0.0,-0.006012904211863808,0.008961181509223995,0.9915661637360802
2012-03-02,-1,-0.0010234440167294692,-0.000748076008120791,-0.006012904211863808,0.01325347404521293,0.9901455654500109
2012-03-06,-1,-0.0005507900896242786,-0.00035302764675847805,-0.0042486410663260974,0.010652388850095462,0.99087120535028
2012-03-08,-1,-0.0008171133704931524,-0.0005992956417184374,-0.0055785358562576905,0.010652388850095462,0.9906030254326068
2012-03-12,-1,-0.00037330702604614833,-0.00019082724902471184,-0.009478461054587176,0.007853501661654915,0.990446035545871
2012-03-14,1,3.963089000036927e-05,0.0001413317502424727,-0.009478461054587176,0.007853501661654915,0.9905780964355941
2012-03-16,1,0.00018340763267464625,0.00023989530133991136,-0.006792047386167057,0.010095274895533734,0.9902569428095817
2012-03-20,1,0.0005021703704976782,0.0005111634275634523,-0.010488880418481214,0.007875152602840274,0.9902000088015314
2012-03-22,1,0.0007791635753496867,0.0009172910466463602,-0.003941166673302143,0.007875152602840274,0.9916770023557445
2012-03-26,1,0.0008848939870744149,0.0009975660601633833,-0.006503339140671788,0.007544080845649196,0.9914972102942754
2012-03-28,1,0.0007604023860065327,0.0008416429293016995,-0.008212524847291578,0.008777898164726787,0.991010414769426
2012-03-30,1,0.0015994774427941264,0.0017922222562393978,-0.008212524847291578,0.007141853186308986,0.992192091047058
2012-04-03,1,0.0018104584981303421,0.0020738094038006156,-0.008212524847291578,0.006957472263239592,0.9923915922013115
2012-04-05,1,0.0009206493493431432,0.0009879747190356804,-0.006135972629640419,0.006957472263239592,0.9927461869420977
2012-04-10,1,0.00010568628616599933,0.00013887965691171031,-0.002265536899784669,0.007609910203771962,0.9934014887840533
2012-04-12,1,0.0004251088517515029,0.00043885276937435805,-0.002265536899784669,0.006957472263239592,0.9938552069602125
2012-04-16,1,0.0004064118718328926,0.00045317791400584483,-0.00565508724126065,0.005916222201216919,0.9940627538793798
2012-04-18,-1,-0.0004694691477133884,-0.0002866361891664008,-0.0057426871809144135,0.005916222201216919,0.993845460546794
2012-04-20,-1,-0.0006937711354037646,-0.0004469933906345154,-0.006361625442384619,0.005339771461984358,0.9927978421585008
2012-04-24,-1,-0.0008200557948615534,-0.0005580684391292048,-0.0057426871809144135,0.006006074797791939,0.9924100951113345
2012-04-26,-1,-0.000418771986484372,-0.00023263156629085206,-0.00565508724126065,0.005339771461984358,0.993079598771681
2012-04-30,-1,-0.0003699902417325123,-0.00019402728314319302,-0.0057331361622301015,0.005339771461984358,0.9924916129562518
2012-05-02,1,0.00046485333261885373,0.00048168981334580487,-0.00628597144265199,0.005339771461984358,0.9913292770200718
2012-05-04,1,5.483478946283915e-05,0.0001229722437527234,-0.007289037938872286,0.005339771461984358,0.9903948380262538
2012-05-08,-1,-0.0003257289021465279,-0.0001414858777980169,-0.007289037938872286,0.006787511864243354,0.9895177647650467
2012-05-10,1,0.0005627116671072679,0.0005702268704131867,-0.008316222181029967,0.010680613603174727,0.9884347488834739
2012-05-14,1,0.00013555746684838698,0.00020492675575701597,-0.00946549835541801,0.012695973719166968,0.9870720745919762
2012-05-16,1,0.00023407903934288018,0.0002483793089545006,-0.01286462757377361,0.01583044515932123,0.9860972507846039
2012-05-18,-1,-0.0007176499933375172,-0.0005920359906997311,-0.008422081011657487,0.01583044515932123,0.9871835790448247
2012-05-22,1,0.00016060662492269236,0.00019583211095501002,-0.008763598756819464,0.012695973719166968,0.9882010390620539
2012-05-24,1,0.00010039193290629973,0.00014067211920297138,-0.01286462757377361,0.012695973719166968,0.9870707213990872
2012-05-29,1,0.00046378105731780434,0.0004651021010492814,-0.01286462757377361,0.007249664239163933,0.9878140683527976
2012-05-31,-1,-0.000857432339867655,-0.000676824934535594,-0.008912931009875147,0.008634344475129795,0.9889735051599795
2012-06-04,-1,-0.0016134761872197193,-0.0013423275989326044,-0.007718518350374189,0.01583044515932123,0.9878739751607728
2012-06-06,0,0.0,0.0,-0.007718518350374189,0.008634344475129795,0.989460305227936
2012-06-08,0,0.0,0.0,-0.007567422105156594,0.006239739245411208,0.9902566221766271
2012-06-12,0,0.0,0.0,-0.007567422105156594,0.005190198575900076,0.9915437863183058
2012-06-14,-1,-0.0007145624718333235,-0.0005467110365431592,-0.006180574727113521,0.006239739245411208,0.9917366729007194
2012-06-18,1,0.00017900286382297798,0.0001937869268617522,-0.006180574727113521,0.009117696745667165,0.9910136419701265
2012-06-20,1,2.3428622378630126e-05,2.8203593353477572e-05,-0.0060525082463080155,0.009117696745667165,0.9909836902155649
2012-06-22,-1,-0.0007842987435468223,-0.0006934884081313212,-0.0041690432561601425,0.009117696745667165,0.9919634686671045
2012-06-26,-1,-0.0010172798564402788,-0.0009028316988414141,-0.003057538355364794,0.009117696745667165,0.9919367617138928
2012-06-28,-1,-0.0005581541005573181,-0.000500844492442087,-0.003057538355364794,0.009293871203249404,0.991737870897882
2012-07-02,1,0.0006932698548019242,0.000783496236307623,-0.004502743086816025,0.005053570342983556,0.9933063779715624
2012-07-05,-1,-0.00017092057327094907,-0.00010727174787678303,-0.0060525082463080155,0.005888579365855727,0.9923044202996957
2012-07-09,-1,-8.301319210963077e-05,-3.6717823285620796e-05,-0.007491554670556851,0.005888579365855727,0.9921574498780172
2012-07-11,-1,-0.000637608679167409,-0.0005264853180448976,-0.009187699033651539,0.005888579365855727,0.9914373830178503
2012-07-13,1,0.0003510424263005515,0.00037116068556692825,-0.009187699033651539,0.002340016791564715,0.9926855600552659
2012-07-17,1,0.00104294977526509,0.0011243499107898385,-0.009187699033651539,0.0,0.9927417777880851
2012-07-19,1,0.0006897989858178273,0.0007434700833979471,-0.009187699033651539,0.0010995662669419826,0.9932957325476152
2012-07-23,1,0.000428884937555128,0.0004548201375324554,-0.009187699033651539,-0.00029774400565162756,0.9933579207284601
2012-07-25,1,0.0005020971056421387,0.0005048946682203704,-0.009187699033651539,0.000701399726289746,0.9931193908504975
2012-07-27,1,0.0004903131157368116,0.0005004839828378072,-0.007574692015814965,0.001586145467644574,0.9936123510376295
2012-07-31,-1,-0.0003650730561797712,-0.00024736229272051373,-0.00468181461728043,0.0032037654458112208,0.9941224341994087
2012-08-02,1,0.00029123123222827744,0.00030321234202914337,-0.006116970895960179,0.001586145467644574,0.9944640917003388
2012-08-06,-1,-0.00038274469809444767,-0.00031927857080430333,-0.004470340602542505,0.0032037654458112208,0.9949269412155604
2012-08-08,-1,-0.0015907514137182216,-0.0013766748259013196,-0.0016909609457202324,0.004869172414150914,0.9958581723245334
2012-08-10,-1,-0.001346691272976118,-0.0011795260290938438,-0.002193711650318717,0.006393923559230288,0.9953292787974223
2012-08-14,-1,-0.002253640541600138,-0.0019283025123712741,-0.0018724406943301467,0.006393923559230288,0.9949752253998358
2012-08-16,-1,-0.0015573805542284293,-0.0013444483123470742,-0.0018724406943301467,0.007286818232769549,0.9943528273735072
2012-08-20,-1,-0.0017845684770358059,-0.001549585330153201,-0.0012658346232684082,0.007286818232769549,0.9935537478591412
2012-08-22,-1,-0.000318428624007443,-0.000317196392181413,-0.003753815140498317,0.006816379044136699,0.9934444656765808
2012-08-24,-1,-0.00020761048991593237,-0.00018838705858626126,-0.003753815140498317,0.006480291726345431,0.9936729100200619
2012-08-28,-1,-0.00021271943896181183,-0.00020273786365708826,-0.004955331564928355,0.00477437488570047,0.9931530184971683
2012-08-30,-1,-0.0015460037264394438,-0.001326530399487223,-0.003753815140498317,0.006083097460920591,0.9930257192547177
2012-09-04,-1,-0.0006671409480375713,-0.0005823919622085778,-0.006070666173099259,0.006083097460920591,0.9925515425587847
2012-09-06,-1,-0.000174790474381215,-0.00017087121337517488,-0.010796875485723572,0.004708109221574045,0.9918092275716596
2012-09-10,-1,-0.00023660135025386765,-0.00021249705458834103,-0.010796875485723572,0.003785362985569462,0.992477873293857
2012-09-12,1,0.00014287687120173495,0.00018497331446071507,-0.010796875485723572,0.004609809907251766,0.9921201897458715
2012-09-14,1,0.0006914448566088696,0.0007982064136614601,-0.012130216815744941,0.002614211661057487,0.9920235919889941
2012-09-18,1,0.0001562129808041597,0.0001916367629697635,-0.010796875485723572,0.00454651781202241,0.9921759060937714
2012-09-20,-1,-0.0006502089435172813,-0.0005932438966127811,-0.0092746133225344,0.0058269555111060975,0.9927251004624873
2012-09-24,-1,-0.0005238906823366882,-0.0005022920759832289,-0.009876202353679977,0.0058269555111060975,0.9923030108451208
2012-09-26,-1,-0.0011007018643016421,-0.00099743325560104,-0.009111069002459102,0.0058269555111060975,0.9928846422899722
2012-09-28,-1,-0.0008573085802968193,-0.0008167870113272658,-0.008051050198347235,0.00454651781202241,0.9931532361082904
2012-10-02,-1,-0.0007285112164214475,-0.0007173952925393932,-0.006905966142065074,0.00454651781202241,0.993496530202402
2012-10-04,-1,-0.0017580679447692683,-0.001615878216264073,-0.005475038214654958,0.0063828923066395205,0.9934721406364333
2012-10-08,-1,-0.0019565180152934947,-0.0017680498234955077,-0.0068090931371165425,0.0063828923066395205,0.9929730816272606
2012-10-10,-1,-0.0020282620933248464,-0.0017752708339753129,-0.008251579875395761,0.004531162441842786,0.99242842485204
2012-10-12,0,0.0,0.0,-0.0074739348078138625,0.004531162441842786,0.9926482940221381
2012-10-16,0,0.0,0.0,-0.009687270902542027,0.00020721094978307363,0.9917636821949299
2012-10-18,0,0.0,0.0,-0.009687270902542027,0.0022147072298666914,0.9918689552233483
2012-10-22,0,0.0,0.0,-0.008243117498374877,0.0022147072298666914,0.9922038833201916
2012-10-24,0,0.0,0.0,-0.007952498483529285,0.0030291758876161614,0.9921298910927446
2012-10-26,0,0.0,0.0,-0.007952498483529285,0.004059238436390259,0.9918872608924647
2012-11-01,-1,-0.0012143370036843786,-0.001116393085234879,-0.007952498483529285,0.0026263398148735828,0.9925362368540652
2012-11-05,-1,-0.0011630770772508325,-0.0010486324386585622,-0.007952498483529285,0.002605647489639191,0.9930793458094783
2012-11-07,0,0.0,0.0,-0.005345392606914934,0.002605647489639191,0.9936093456498859
2012-11-09,0,0.0,0.0,-0.004136054462712514,0.002605647489639191,0.99472210320015
2012-11-13,-1,-0.003146788682645422,-0.0028222520667181674,-0.005125837316572148,0.002605647489639191,0.9941793106538205
2012-11-15,-1,-0.005242717626187384,-0.004622054046152842,-0.004136054462712514,0.002605647489639191,0.994391114792471
2012-11-19,0,0.0,0.0,-0.004136054462712514,0.002605647489639191,0.9955202277636058
2012-11-21,0,0.0,0.0,-0.0022847774406367506,0.004031503069662766,0.9947754806563638
2012-11-26,0,0.0,0.0,-0.0022847774406367506,0.004031503069662766,0.9947308649941444
2012-11-28,0,0.0,0.0,-0.0022847774406367506,0.003975254594620053,0.9945036022111138
2012-11-30,0,0.0,0.0,-0.004441531927285558,0.008166287178337976,0.993860656633988
2012-12-04,0,0.0,0.0,-0.004441531927285558,0.008166287178337976,0.993681108786166
2012-12-06,0,0.0,0.0,-0.004441531927285558,0.008166287178337976,0.9934388063458836
2012-12-10,0,0.0,0.0,-0.0025500142614390685,0.008691848605439773,0.9931302638867068
2012-12-12,-1,-0.0015519673503739866,-0.0015356417953970977,-0.000631085929455746,0.008691848605439773,0.992554878546264
2012-12-14,-1,-0.0012617866076797507,-0.0012129952970370188,0.000523335205633851,0.008691848605439773,0.9925072867922253
2012-12-18,-1,-0.00027535315266495955,-7.728559008947193e-05,-0.0006110347544587469,0.007017358822747609,0.9941662588709034
2012-12-20,1,0.0003993655070475625,0.0007093888032486582,-0.0006110347544587469,0.006082815638166265,0.9954083227111564
2012-12-24,1,0.0007714513524299996,0.0010813179538934803,-0.001417632547861547,0.0060401495766008425,0.9955131682478902
2012-12-27,1,0.0007042912795436593,0.0010027709650668611,-0.001417632547861547,0.005469391524240998,0.996238729280249
2012-12-31,1,0.0005205269689052718,0.0007585557414727602,-0.001417632547861547,0.005469391524240998,0.9958032590613342
2013-01-03,1,0.00026441089715702204,0.0003854200663146985,-0.0026237758085646615,0.005308844402803223,0.9943747701327502
2013-01-07,1,0.0006090083005788141,0.0007899658256178744,-0.0036654859819169805,0.004411871655758378,0.9938306722652002
2013-01-09,1,0.0008152686658198318,0.0010098425001887313,-0.0038883027821662195,0.004411871655758378,0.9936948282359268
2013-01-11,1,0.0010011351651939109,0.001228817894286389,-0.0038883027821662195,0.005488852224666003,0.9929735351971509
2013-01-15,1,0.001331390403905525,0.0015900916556182015,-0.0038883027821662195,0.006098531677875855,0.992503443013031
2013-01-17,1,0.001713603877176732,0.0020405328713827358,-0.0038883027821662195,0.006098531677875855,0.9924486089916328
2013-01-22,1,0.0016960733545827327,0.0020508467364984176,-0.0038883027821662195,0.007098647831264506,0.9919277201668879
2013-01-24,1,0.0020568649539814484,0.0024613010510292875,-0.006298938271160372,0.006698404449915329,0.9918963663292854
2013-01-28,1,0.001730094885205407,0.0020582775527279835,-0.008888070836841264,0.006698404449915329,0.9909096759058306
2013-01-30,1,0.001718521808325143,0.0020651673275740474,-0.008888070836841264,0.005525179605026329,0.9909114230433752
2013-02-01,1,0.0006122486628277595,0.0008450290577010785,-0.004368888602762875,0.005525179605026329,0.9921730490021204
2013-02-05,1,0.0005119362460777355,0.0007349396624761505,-0.002359183851162928,0.006698404449915329,0.9923493841250544
2013-02-07,1,0.00042029572004796006,0.0006366101470444166,-0.0005124973176687636,0.006258466837515529,0.9931484021864673
2013-02-11,1,0.0018343904860139706,0.0023084063974391326,-0.003274674115054156,0.004793988563508017,0.9940239818266527
2013-02-13,1,0.0024059759282093387,0.002925224901970425,-0.003274674115054156,0.004281466125312248,0.9945298598397657
2013-02-15,1,0.002094910435747276,0.0025090210876973183,-0.003490490763823317,0.004281466125312248,0.9935280900298373
2013-02-20,1,0.0028614518711040093,0.0033570987092045156,-0.0062462256837738945,0.003508050082604615,0.9931004884458214
2013-02-22,1,0.0024562884842626283,0.0028732695871049214,-0.006698000072429564,0.004281466125312248,0.9928556412202918
2013-02-26,1,0.0014943542725887253,0.0017835718563980266,-0.004523716133220525,0.004796170450787463,0.9938505864621776
2013-02-28,1,0.0007779443452904459,0.0009539157903746939,-0.003478397286250924,0.004796170450787463,0.994858223269213
2013-03-04,1,0.0008263786899320505,0.0009355781300816727,-0.003478397286250924,0.004749001486657149,0.994973762217661
2013-03-06,1,0.0012304827083901915,0.001413612216373888,-0.003491503970614647,0.004749001486657149,0.9945015057908975
2013-03-08,1,0.0014666938822946395,0.001707523377231895,-0.003491503970614647,0.0056298281240668045,0.9942803579313607
2013-03-12,1,0.0008111334876669977,0.0009217765265186929,-0.003668984216655556,0.0056298281240668045,0.9941979749057763
2013-03-14,1,0.0013354917206755512,0.00155324049838061,-0.003668984216655556,0.00502466333847571,0.9943990611282404
2013-03-18,1,0.001553056255862227,0.0018300188009063435,-0.003668984216655556,0.00502466333847571,0.9940062200919031
2013-03-20,1,0.000736210469486348,0.0008734456735937052,-0.002937250091597346,0.00502466333847571,0.9935162640360604
2013-03-22,1,0.0004866684321992926,0.0005761699377151543,-0.002937250091597346,0.004946711654235472,0.9935997287659764
2013-03-26,0,0.0,0.0,-0.002937250091597346,0.004946711654235472,0.993377458960967
2013-03-28,0,0.0,0.0,-0.003986405189246602,0.004946711654235472,0.992676213765346
2013-04-02,1,0.0013052893390038524,0.0015393606735233962,-0.003986405189246602,0.0062229586268017735,0.9923670433630732
2013-04-04,1,0.0015114343717187516,0.0017354831353747113,-0.005746298823209511,0.004566566325632098,0.9929564667709485
2013-04-08,1,0.0011712443157541209,0.0012718934024808638,-0.005746298823209511,0.004566566325632098,0.9926045410678668
2013-04-10,1,0.0007374149874159171,0.0007692121690137815,-0.004921122750878856,0.006984901293577206,0.9917161642507353
2013-04-12,1,0.00012679301577176453,0.0002657232231009766,-0.004921122750878856,0.00893056422708201,0.9910829120827295
2013-04-16,1,0.0007258836142808112,0.0007693322364612178,-0.003387858940362494,0.01120584903000757,0.9916473399629472
2013-04-18,-1,-0.0002842522276912629,-0.00010371121773094605,0.0004119948474168452,0.01120584903000757,0.9919988601499149
2013-04-22,-1,-0.0003241828532631074,-0.00015498952060142548,0.0009490837044586272,0.01120584903000757,0.9923050252616503
2013-04-24,1,4.038634821686756e-05,0.00015979519606400955,-0.0016687631832014071,0.01120584903000757,0.9911517767125301
2013-04-26,-1,-0.0006850719704488947,-0.0005072257659567512,-0.0013422342011055164,0.01120584903000757,0.990384501576559
2013-04-30,0,-8.179553329828158e-05,2.2502057283485446e-05,-0.004240088576491537,0.00893056422708201,0.9901701976680576
2013-05-02,-1,-0.0004998725397565213,-0.0003437435849400739,-0.004240088576491537,0.00893056422708201,0.9901839362824133
2013-05-06,-1,-0.00033156018402325774,-0.00014976332432348085,-0.007674745575512286,0.01120584903000757,0.9887891549109757
2013-05-08,1,8.868155406171845e-05,0.00021821513931974743,-0.007674745575512286,0.007769797252268318,0.9893118701572262
2013-05-10,1,0.0007807271152121405,0.0008626214587799878,-0.007674745575512286,0.006200519695436609,0.9894371250910599
2013-05-14,1,0.0016376205485076631,0.0017235876094623083,-0.011416000274237338,0.004659239364064029,0.9889426595460009
2013-05-16,1,0.002270614196562034,0.002475666498130177,-0.011416000274237338,0.0011914703992811479,0.9878149090547894
2013-05-20,1,0.002353665690494555,0.0025782551013247643,-0.011416000274237338,0.0011914703992811479,0.9875400071553767
2013-05-22,1,0.0013425529354865275,0.0014090511321384442,-0.01791836667090607,-0.0010250613977481463,0.986914163791796
2013-05-24,-1,-0.0005719355084214687,-0.00044343617835125587,-0.011416000274237338,0.00893984775264237,0.9872663465039817
2013-05-29,-1,-0.001250153539183868,-0.0010097421760764888,-0.007540755793357216,0.011717910624785773,0.9870464054015702
2013-05-31,-1,-0.0014249695160346856,-0.0011812889430203235,-0.006635357539864591,0.014432895074920472,0.9861355782595299
2013-06-04,0,0.0,0.0,-0.004683350129392298,0.014432895074920472,0.9870096796385533
2013-06-06,-1,-0.00028433007521768013,-0.0002282730015755483,-0.004805346316197856,0.014432895074920472,0.987352399365249
2013-06-10,-1,-0.0005038381380364402,-0.00044205850415137587,-0.004805346316197856,0.017747287281172253,0.9859690673018187
2013-06-12,-1,-0.0012149701540437614,-0.0010501167710942104,-0.004805346316197856,0.019312009788316757,0.9849471961256424
2013-06-14,-1,-0.0005302339506057254,-0.00046354578211536726,-0.006830907094248299,0.017747287281172253,0.9858489822584354
2013-06-18,-1,-6.628271682883083e-05,-6.106512419284908e-05,-0.006830907094248299,0.017747287281172253,0.9859604573051528
2013-06-20,-1,-0.002232205731911325,-0.001971556881733303,-0.004603727249756443,0.017747287281172253,0.9878063986515103
2013-06-24,-1,-0.00046727748981688404,-0.00038345173610216114,-0.004603727249756443,0.014432895074920472,0.9901650962097479
2013-06-26,1,4.157702247027618e-05,0.00012629649783300458,-0.005948730803526635,0.007159731505748896,0.9903376720414923
2013-06-28,1,0.000830005233077665,0.0008505243675317211,-0.006830907094248299,0.007086789006071112,0.9904838852853243
2013-07-02,1,0.0013790680623463137,0.0014238332848608014,-0.008467696122019766,0.003404624483259982,0.9903713471403783
2013-07-05,1,0.001166987443554516,0.0012510230141295053,-0.009590363974550951,0.0037731654768878666,0.9905093698340663
2013-07-09,1,0.0016364401448849212,0.0018265252353485562,-0.008037086985950962,0.00242697387317902,0.9916554974722672
2013-07-11,1,0.0020526241018856465,0.00230852636171657,-0.008037086985950962,0.0020494865978533993,0.9925507080562953
2013-07-15,1,0.002123558472485147,0.002433460010134236,-0.009522879688880345,0.00242697387317902,0.9920794768892494
2013-07-17,1,0.002172170595385756,0.002476001153840773,-0.010679738525745542,0.0020494865978533993,0.9911593398810774
2013-07-19,1,0.0015776418819989724,0.001756151698482962,-0.012778490136308955,0.001358168343536186,0.9892377244652267
2013-07-23,1,0.0010417468926181544,0.0011007899472872226,-0.012778490136308955,0.0021723335957293606,0.9884698911489991
2013-07-25,1,0.0006010485439705521,0.0006184587638499668,-0.01091787526723422,0.0014806201932115967,0.9899474753046806
2013-07-29,1,0.0006924122063972986,0.0007500181897479303,-0.010715422410222402,0.0021723335957293606,0.9901371281198884
2013-07-31,0,-1.265629297066606e-05,2.337846096935445e-05,-0.0097835514324464,0.0016883472835707782,0.9904011803745411
2013-08-02,-1,-0.0005074598191046182,-0.00039764005669476406,-0.010715422410222402,0.002401888813212948,0.9903387829636452
2013-08-06,-1,-0.0010428689106838516,-0.0008843606790034598,-0.011113336596858092,0.005778446369162254,0.9893403464905495
2013-08-08,-1,-0.0016309161551256671,-0.0013977635385587035,-0.011404951558866283,0.007201939753021444,0.9884437539875127
2013-08-12,-1,-0.0019967305533312553,-0.0016818262914619715,-0.011404951558866283,0.008377290572773116,0.9876629265335461
2013-08-14,-1,-0.003161923896703129,-0.0027002013474175437,-0.00997512927878716,0.009916582288956009,0.9879961240434576
2013-08-16,-1,-0.004824539852083009,-0.004168840002186655,-0.006295891651858267,0.009916582288956009,0.9888663603114795
2013-08-20,-1,-0.004307282481939286,-0.0037373401387332467,-0.005718108904286199,0.009916582288956009,0.9881338210015571
2013-08-22,-1,-0.004059636611431173,-0.003533654865221883,-0.009248589471511364,0.009916582288956009,0.9879140104944895
2013-08-26,-1,-0.0028253483364381314,-0.0024567345815875,-0.011404951558866283,0.008169426605949364,0.9880406202261709
2013-08-28,-1,-0.0034564591786226586,-0.003055862957980826,-0.011404951558866283,0.009687266071086158,0.9876042802772482
2013-08-30,-1,-0.003739569312394951,-0.0032942169674897515,-0.011635164250975645,0.009687266071086158,0.9878415611319726
2013-09-04,-1,-0.0033732387015007652,-0.0029861613458008612,-0.00629854951717329,0.009687266071086158,0.9884321391804035
2013-09-06,-1,-0.0027713001431801635,-0.0024649134186634633,-0.006449604408997718,0.008162275855600663,0.9891345349289516
2013-09-10,-1,-0.0018956394144616104,-0.0016612269765896826,-0.012358424728490492,0.005606456674247188,0.989924594275247
2013-09-12,-1,-0.00148967934646408,-0.001286504328281216,-0.012358424728490492,0.005606456674247188,0.9892628654400238
2013-09-16,-1,-0.0008361266125238434,-0.0007304768793012342,-0.012358424728490492,0.007705977965442089,0.9892500612210235
2013-09-18,1,0.0001138300291111425,0.00014358831775236218,-0.012358424728490492,0.007705977965442089,0.9901135076720435
2013-09-20,-1,-0.0005234362462926548,-0.00045422684104287186,-0.005205992365980448,0.009344052562628045,0.9900497708664299
2013-09-24,-1,-0.0018511401095172362,-0.0016126281817743975,-0.0022071027125138473,0.010366293469140217,0.9901991396021053
2013-09-26,-1,-0.001066882229017224,-0.0009318460997621133,-0.002975675009478823,0.010030230711030805,0.989987524493944
2013-09-30,-1,-0.0006627346984831194,-0.000615797987981601,-0.002527234300885801,0.012588657391067563,0.989470646247353
2013-10-02,1,0.000246854589105544,0.00037415170501051403,-0.002975675009478823,0.010030230711030805,0.9899118334679051
2013-10-04,1,0.00013415914910164007,0.00030513105890642763,-0.002975675009478823,0.010030230711030805,0.9906588896245039
2013-10-08,0,-0.00011971190087033785,6.084968094191849e-05,-0.002975675009478823,0.010030230711030805,0.9909198338639705
2013-10-10,1,0.0010584077730992252,0.0013943358587710248,-0.0037781131896204795,0.00602090519938143,0.990986358625198
2013-10-14,1,0.000949721622379207,0.0012239229836356748,-0.0059003353765285605,0.0031331505378052204,0.9908616303643559
2013-10-16,1,0.0009565417155382455,0.001188802216011297,-0.006733891843571392,0.0031331505378052204,0.9912653720786332
2013-10-18,1,0.0014348018237003365,0.0016464669684856993,-0.006733891843571392,0.0026295753060197784,0.9916153075138406
2013-10-22,1,0.001506208654756577,0.0017106791012500996,-0.006733891843571392,0.0024275708509633896,0.9917612539762224
2013-10-24,1,0.0005880264366281873,0.0006744539152823278,-0.006699486542842562,0.0026295753060197784,0.9926455590955692
2013-10-28,1,0.0013201863698301505,0.001522298177054221,-0.006733891843571392,0.0024275708509633896,0.9930679217311379
2013-10-30,1,0.0010022865496914324,0.0011265946775439455,-0.0072543919378654405,0.0026295753060197784,0.99227789560728
2013-11-01,1,0.00021326531111989533,0.0002457910999587533,-0.00903596650142208,0.0034398040227328324,0.9915291055455026
2013-11-05,-1,-0.00020300276982711268,-0.00016279614424632462,-0.0072543919378654405,0.006495583646440217,0.9913384104178212
2013-11-07,-1,-0.0002766849237812922,-0.0002351745273183429,-0.006699486542842562,0.006495583646440217,0.9921405095425817
2013-11-11,-1,-0.002149918985152252,-0.0017931421387781259,-0.006103359256048795,0.006495583646440217,0.9921448612538225
2013-11-13,-1,-0.001039814735647075,-0.0008953931515388216,-0.007231195600829607,0.004570866986237274,0.9916406604981576
2013-11-15,-1,-0.000517152650245496,-0.0004915233175614684,-0.006669066731116904,0.004570866986237274,0.9915864860631444
2013-11-19,-1,-0.0004426553489538005,-0.0003710030417957166,-0.006669066731116904,0.006413021863331028,0.9914592113259502
2013-11-21,1,0.0006231615629573961,0.0008583644021006087,-0.008937424933603045,0.004570866986237274,0.9912808588588691
2013-11-25,1,0.00022866004555789448,0.000390642841427094,-0.006756972552893375,0.006413021863331028,0.9911763873275483
2013-11-27,1,0.0004346821425180278,0.0006663943376204961,-0.005601256656614467,0.004718220954264841,0.9924316519356047
2013-12-02,1,0.0005701307922732773,0.0008322551327500357,-0.0039692981903981924,0.004196711170164063,0.9935759722329437
2013-12-04,1,0.0016044515330784351,0.001977785062662652,-0.0039692981903981924,0.004134803662347557,0.9937346012773586
2013-12-06,1,0.0019781028361427902,0.002418781374715008,-0.005145509349255376,0.0041839216516900805,0.9933019588454924
2013-12-10,1,0.002253851920729784,0.002723615771966327,-0.005601256656614467,0.004651096016006876,0.9922482270333778
2013-12-12,1,0.0010818670258844207,0.0014122530001163176,-0.005145509349255376,0.004651096016006876,0.993463774865401
2013-12-16,1,0.0005264914795022057,0.0007349254953723529,-0.0034353906810282624,0.0074167984490227075,0.9931625839199337
2013-12-18,1,0.0008842730943166063,0.001124129867853394,-0.0034353906810282624,0.006200955759237908,0.9933086541670072
2013-12-20,-1,-0.00024493244983816076,-0.000175307413160441,-0.0022283163511493767,0.007438776233275408,0.9935525805185528
2013-12-24,1,0.00019641177936304943,0.00031393638989344014,-0.00382746106731399,0.006200955759237908,0.9932633867784273
2013-12-27,1,0.00012649330269874832,0.00021434465946613317,-0.005895840227423796,0.00782072867694718,0.9919021166335157
2013-12-31,-1,-0.00011702162307670138,-9.383562082276544e-05,-0.005895840227423796,0.009877798002245773,0.9905617095020447
2014-01-03,1,0.000449749984111245,0.000548445919623259,-0.008947199020133623,0.00782072867694718,0.9909386350134246
2014-01-07,1,4.536888476346319e-05,5.294944408749456e-05,-0.008947199020133623,0.009877798002245773,0.9900950817349448
2014-01-09,-1,-0.0016090177135438537,-0.0012825656460648863,-0.003999559018077089,0.011421623138896081,0.9893938948230638
2014-01-13,-1,-0.0014746550968979602,-0.0011948724241550722,-0.0024700225838575384,0.011421623138896081,0.9890030459017464
2014-01-15,-1,-0.0007393376330592813,-0.0005464269819766329,-0.0037007334076883417,0.011421623138896081,0.9897995148806312
2014-01-17,-1,-0.00026086316110744646,-0.00013837126335739056,-0.0036676492889540467,0.011421623138896081,0.9901447546470553
2014-01-22,-1,-0.0003136184528212279,-0.0001522400888190033,-0.007025724186631948,0.010300023374725404,0.9904558428352287
2014-01-24,-1,-0.0014208635183648975,-0.0011239966687994329,-0.0026203413902136682,0.010300023374725404,0.9911087109718609
2014-01-28,-1,-0.0011983196515132888,-0.0009129172040020593,-0.0021917401089063047,0.00877744796183748,0.9920905863224044
2014-01-30,-1,-0.00019653660454351424,-6.467984783117175e-05,-0.0020670890016248277,0.008532162545744734,0.9935196365308083
2014-02-03,1,0.0002121813500695353,0.0002542981646625925,-0.0016509924640948168,0.010300023374725404,0.9928759791021345
2014-02-05,1,0.0012977501818986223,0.0014320877584324005,-0.001933702055507432,0.00877744796183748,0.9937468012464353
2014-02-07,1,0.0026035278085659898,0.0029329538144210283,-0.004062393381308092,0.004105948416543726,0.9934254356313676
2014-02-11,1,0.0036590369147564365,0.004212282762505006,-0.004062393381308092,0.0026549581673453036,0.9932643042347171
2014-02-13,1,0.0029330801306714028,0.0033534543339869853,-0.004062393381308092,0.00271718860019869,0.9937070821295559
2014-02-18,1,0.0027788678985386376,0.003058801685272779,-0.004062393381308092,0.002723518082219209,0.9938898707593574
2014-02-20,1,0.002715131434828901,0.0030193926812268376,-0.004417945601648147,0.0034107594414071424,0.9927416080782707
2014-02-24,1,0.0021932025692494713,0.0023973383346279635,-0.006508344070919933,0.0034107594414071424,0.9926340691564867
2014-02-26,1,0.0026430182814806452,0.0029352025388474003,-0.008395003883279814,0.0034107594414071424,0.9914298788152736
2014-02-28,1,0.002126993325602693,0.002304890945710491,-0.008395003883279814,0.0034107594414071424,0.9917099572617757
2014-03-04,1,0.002919095715398691,0.0031643639357246,-0.008395003883279814,0.002723518082219209,0.9923742997585064
2014-03-06,1,0.002463530979077027,0.002743347239770734,-0.006508344070919933,0.002723518082219209,0.9928016756746633
2014-03-10,1,0.0015482003546356702,0.0017253090202819755,-0.004089178554590185,0.0034081253939532005,0.9936880292262081
2014-03-12,1,0.002131615326586854,0.0024222973403198117,-0.006053301033495098,0.0034081253939532005,0.9927936429805405
2014-03-14,1,0.0023295358702813103,0.0027005936340895355,-0.006839589387639246,0.0034026104989694824,0.9919994635444159
2014-03-18,1,0.0025812469867908697,0.003006381129051458,-0.006839589387639246,0.005544328625946099,0.9916398905085868
2014-03-20,1,0.001550120863563627,0.00178041535085273,-0.006839589387639246,0.005544328625946099,0.9927831262087776
2014-03-24,1,0.0020927212591010775,0.0023745314655997875,-0.006839589387639246,0.006259029017256417,0.9929088513213274
2014-03-26,1,0.0019911631303185604,0.0023128335761591692,-0.006554334532244295,0.006259029017256417,0.9937684368155877
2014-03-28,1,0.0019396607176097069,0.002235906546980141,-0.006554334532244295,0.006259029017256417,0.9932309454551291
2014-04-01,1,0.0017661109769997485,0.0019840682691885593,-0.006554334532244295,0.005965374645651715,0.9933114331385294
2014-04-03,1,0.0016673137732438406,0.0017770815813730385,-0.006554334532244295,0.007891264715301131,0.9932123664209502
2014-04-07,1,0.001238095784807575,0.001293859869977934,-0.005988320190710372,0.007891264715301131,0.9937413812774268
2014-04-09,1,0.0014679333798091692,0.0015505217970604,-0.0014512346908331084,0.007891264715301131,0.9938223616942925
2014-04-11,1,0.000477937119946075,0.0005304440378770055,0.0009531283353126008,0.009311052284020122,0.9939448179716966
2014-04-15,1,0.000460980875403085,0.0005323304943654842,-0.00045770082422462254,0.009311052284020122,0.9939836345760056
2014-04-17,1,0.00041575449513492216,0.0004812720504099873,0.0008542336694679249,0.009117587125419708,0.9943548485833632
2014-04-22,1,0.0006045877025523457,0.0006699930951893312,-0.00045770082422462254,0.007229501179074267,0.9945803385375831
2014-04-24,1,0.000769909036504603,0.0008061571173293727,-0.0019181730785328933,0.00576628292897614,0.995075352989294
2014-04-28,1,0.0003551141970900486,0.0004604760682282141,-0.00045770082422462254,0.005210413725682773,0.9952649403530311
2014-04-30,1,0.0009205633470746735,0.0009446356361107078,-0.0019181730785328933,0.005210413725682773,0.995118085597684
2014-05-02,1,0.0014482616193253744,0.0015449898811213693,-0.0019181730785328933,0.004322373151127202,0.9957743010685414
2014-05-06,1,0.0017079094705921617,0.0018484976290629239,-0.0019181730785328933,0.00420353121067279,0.9958813383139273
2014-05-08,1,0.0018557845899015673,0.001955202196658234,-0.0025472911866614954,0.0037400656554752,0.9955689188183593
2014-05-12,1,0.002192541750562882,0.00228874767357909,-0.0039693444913278505,0.003627820285434785,0.9946845543956955
2014-05-14,1,0.0019291885132286845,0.0019956168667869647,-0.0039693444913278505,0.0036453362144865642,0.9950464321247166
2014-05-16,1,0.0015832752063042349,0.0016057872277067675,-0.0039693444913278505,0.003627820285434785,0.9952092193479848
2014-05-20,1,0.0018237301306438679,0.0018310339632401078,-0.0026304950816381477,0.003627820285434785,0.995245656416182
2014-05-22,1,0.001385729041526812,0.0014370621218361707,-0.0002716278468303323,0.0037440504233010336,0.9949318396002014
2014-05-27,1,0.0013851210433547115,0.0014355673949521524,-0.002516806983163672,0.0037440504233010336,0.9948370560966643
2014-05-29,1,0.0013192358946564212,0.0013584529762567352,-0.0002716278468303323,0.004778468412213436,0.994867000336529
2014-06-02,1,0.0014911625387551762,0.00151932265550391,-0.0008061397274723538,0.006251439883826784,0.9946908869346325
2014-06-04,1,0.0013759181832338234,0.0014388816139713318,-0.002516806983163672,0.006251439883826784,0.994432202999034
2014-06-06,1,0.0014128435333597973,0.0014856560153919042,-0.002516806983163672,0.004498229104222637,0.9953282997993432
2014-06-10,1,0.0005002227053550095,0.000640816231343076,-0.0013340310918049706,0.004498229104222637,0.9963854893558588
2014-06-12,1,0.0005958485972120737,0.000723648760700307,-0.0013340310918049706,0.004498229104222637,0.9963790564105799
2014-06-16,1,0.0008317562721427785,0.0009102532646309241,-0.0005251337984096136,0.005681277880673021,0.9962298122023907
2014-06-18,1,0.0004746577382716737,0.000646345340391604,-0.0016681813574567072,0.005343517627947052,0.9961760876333142
2014-06-20,1,0.0011700947964473087,0.001262810659986878,-0.0035192577801188814,0.004197394935772025,0.9962473844529748
2014-06-24,1,0.0016093857202880543,0.0016133531520884064,-0.0016681813574567072,0.004205469488871016,0.9962366679054577
2014-06-26,1,0.00149843463039376,0.001558509809486927,-0.0036790695094396854,0.004205469488871016,0.995897656839992
2014-06-30,1,0.0017006282238997484,0.0017945163117433116,-0.0036790695094396854,0.004205469488871016,0.9955662569512588
2014-07-02,1,0.0021350978346604747,0.002360874698521559,-0.0039455232832473364,0.005343517627947052,0.9949600828888375
2014-07-07,1,0.002206699421657372,0.0024817758649336914,-0.004096723673015371,0.005847001986947453,0.9946922645364279
2014-07-09,1,0.0017835652399449228,0.001985262853010153,-0.005832417203684772,0.005847001986947453,0.9945992477608753
2014-07-11,1,0.0019285833294214456,0.002151655871652851,-0.005832417203684772,0.005847001986947453,0.9943437838177736
2014-07-15,1,0.0020997723991244407,0.0023238793369243574,-0.005832417203684772,0.005539162911355037,0.9944413346178882
2014-07-17,1,0.0016149823612275718,0.0017608396720843462,-0.005832417203684772,0.006635819366006572,0.99404369999981
2014-07-21,1,0.001561753145405805,0.0017133526293509926,-0.0024736047968032934,0.0072239317117356126,0.9941499338031569
2014-07-23,1,0.0015774327031031331,0.0017293266568258567,-0.0024736047968032934,0.0072239317117356126,0.9941428930508258
2014-07-25,1,0.002077634763409772,0.002301178522004197,-0.0024736047968032934,0.006128997622156937,0.9942709269437204
2014-07-29,1,0.002267424873491442,0.0024828401496872652,-0.0024736047968032934,0.005154258188993245,0.994720718490509
2014-07-31,1,0.0017603548602924501,0.001848170886402229,-0.0008437198675361236,0.004615663550051255,0.9955189782481377
2014-08-04,1,0.0019160031785188131,0.0020368007298402118,-0.00042690792028280344,0.004615663550051255,0.9960689917821353
2014-08-06,1,0.0015602983465269912,0.001604186143197543,-0.00042021854828850084,0.005154258188993245,0.9958556223607252
2014-08-08,1,0.001763071930240469,0.0018430644513534793,-0.00042021854828850084,0.004672844289859241,0.9958602730648223
2014-08-12,1,0.001463383419182507,0.0014694431365218862,-0.002171738305912427,0.004614826186348455,0.9943058227959971
2014-08-14,1,0.0011030691432042787,0.0011599970230693549,-0.002171738305912427,0.0031111276407227266,0.993536155905237
2014-08-18,1,0.0017451066636846111,0.0017840017013676182,-0.004871685585644694,0.0031111276407227266,0.9931884327215853
2014-08-20,1,0.0017777774166161722,0.001824573836707409,-0.007500778409854334,0.0021776241336756634,0.9923609126306189
2014-08-22,1,0.0014228623594630323,0.0014360878269041148,-0.0072417570555905995,0.0021776241336756634,0.9924817767129565
2014-08-26,1,0.0011782579571237596,0.00121164653851972,-0.007500778409854334,0.0010131148842794178,0.9919685025227252
2014-08-28,1,0.0008552013189891308,0.0009405643856361954,-0.007500778409854334,0.0028480820335603854,0.9915927289933881
2014-09-02,1,0.0012745560868383252,0.001303744616955184,-0.007500778409854334,0.0006659347202289294,0.9911621504448513
2014-09-04,1,0.0006685921507336887,0.0008216254782739782,-0.007500778409854334,0.0006952728877407064,0.9920681237409644
2014-09-08,1,0.000994908992818355,0.0011015434051822586,-0.007500778409854334,0.0009159593197720342,0.9920217170296673
2014-09-10,-1,-0.0007914029515817889,-0.00047024494768648027,-0.0072417570555905995,0.001921547908789547,0.9935225581274165
2014-09-12,-1,-0.002157975143862471,-0.001695962125454111,-0.005354355091166703,0.003644326065426782,0.9951067070209899
2014-09-16,-1,-0.0021320929380969265,-0.0016730069074989255,-0.004464835109472554,0.004693364305866552,0.9940623246449919
2014-09-18,-1,-0.003084839307174806,-0.002527657504650558,-0.0035681554675676035,0.004902506068551119,0.9934735039159331
2014-09-22,-1,-0.003394629448060376,-0.00279467023958768,-0.0035681554675676035,0.006515695756293275,0.9921222899548751
2014-09-24,-1,-0.003720161256875805,-0.003098345461009522,-0.002638849999108376,0.006515695756293275,0.9916016861314791
2014-09-26,-1,-0.0033399600217922086,-0.002773681858476507,-0.002638849999108376,0.006591984658778893,0.991542561717544
2014-09-30,-1,-0.0031556638951718667,-0.0026629533414444352,0.0002819367073846654,0.00818535852724523,0.9909387814508412
2014-10-02,-1,-0.0026580065311379852,-0.002260951542913191,-0.0011436617009616121,0.00818535852724523,0.9912879111193104
2014-10-06,-1,-0.002439640245858024,-0.0020445141983678732,-0.0011436617009616121,0.011157118902483516,0.9900161813340382
2014-10-08,-1,-0.0017112798114519703,-0.0014278628379947103,-0.0011436617009616121,0.010366445681897273,0.9905171915089508
2014-10-10,-1,-0.0016032033812636453,-0.001335569266604681,-0.003950024930864909,0.010366445681897273,0.9905479233109517
2014-10-14,-1,-0.0003472705552025066,-0.0002120363445596296,-0.003950024930864909,0.010366445681897273,0.9917076235284381
2014-10-16,-1,-0.00029122256506984096,-0.00017393076497838243,-0.003950024930864909,0.00818535852724523,0.9920343349083957
2014-10-20,0,-2.8769041475790354e-06,9.125596640095638e-05,-0.003950024930864909,0.006394751756650111,0.9927117108546495
2014-10-22,1,0.000245091189640184,0.0003059068889736509,-0.008182042958284251,0.006394751756650111,0.9922647733552917
2014-10-24,1,0.0003449142421644213,0.0003858319364495155,-0.003950024930864909,0.006394751756650111,0.9926355452728896
2014-10-28,1,0.0008571375096442123,0.0008955645564545962,-0.003950024930864909,0.006436846479385839,0.9926238841899807
2014-10-30,1,0.0002721368618730813,0.0003581227593446695,-0.003950024930864909,0.00861868631459406,0.992019027593925
2014-11-03,1,0.0016135067658528696,0.0017003600143038254,-0.003950024930864909,0.006436846479385839,0.993123291404411
2014-11-05,1,0.0012802223010590368,0.0013212225222735798,-0.0039201706217948705,0.006436846479385839,0.9932809360885028
2014-11-07,1,0.0009523661725349153,0.0009672485228556715,-0.0035038575588099818,0.007868482233841036,0.9930097659248486
2014-11-11,1,0.0016704556581364008,0.0018199551868189575,-0.0032494077460498605,0.006436846479385839,0.9935350114158794
2014-11-13,1,0.0012060557978285508,0.0012843850029024858,-0.0032494077460498605,0.0074337603667416815,0.9932171886336257
2014-11-17,1,0.0010921103784356347,0.0011709737482026342,-0.0032494077460498605,0.0074337603667416815,0.9930599297680234
2014-11-19,1,0.0006434320408809557,0.0006822210862071242,-0.000821435609045821,0.007868482233841036,0.9928220927408017
2014-11-21,1,0.0010462582008720616,0.0011257858381164354,-0.0008167497068287616,0.007868482233841036,0.9924769769998935
2014-11-25,1,0.0011082718415239554,0.0012028739357561069,-0.00426791658106532,0.007633034731570816,0.9923444240796742
2014-11-28,1,0.001642896920030054,0.0017939067736114948,-0.00426791658106532,0.005938499712687717,0.9929444228344254
2014-12-02,1,0.001880364347145442,0.002070472833697605,-0.005088130175436778,0.005001445740367782,0.9920550305939829
2014-12-04,1,0.0017394755251062444,0.0019333795734202824,-0.00426791658106532,0.00814635890058572,0.9913892832417868
2014-12-08,1,0.0017668815094718426,0.0019443038758803054,-0.0026912523738598184,0.007014462169113592,0.991842341382428
2014-12-10,1,0.0020106689649526006,0.002211845505521293,-0.00426791658106532,0.007014462169113592,0.991677117298961
2014-12-12,1,0.0017259955594127103,0.0018924520632995555,-0.00426791658106532,0.007805543203714372,0.9917131699671652
2014-12-16,1,0.0010817161787828728,0.0011267906251358456,-0.0026912523738598184,0.010590306886299581,0.991877537833406
2014-12-18,1,0.001963815942135111,0.0021534297487186805,-0.00426791658106532,0.010590306886299581,0.9919053499403451
2014-12-22,1,0.002711111540994718,0.003032766834967596,-0.00426791658106532,0.010590306886299581,0.9916701257542547
2014-12-24,1,0.002416308915494253,0.0026814735672102694,-0.001925710184183359,0.01092623547639024,0.9917648368591664
2014-12-29,1,0.0022511831961592966,0.0024958840043716266,-0.002607762123918642,0.01092623547639024,0.991214256933865
2014-12-31,1,0.0014266306820985525,0.001583518167651087,-0.004393597907167462,0.01092623547639024,0.9907564817865301
2015-01-05,1,0.002564447570825872,0.002879128438040321,-0.004393597907167462,0.009969368344437075,0.9920872947329625
2015-01-07,1,0.0030200073352277955,0.0033987464318716806,-0.006245690425586866,0.009969368344437075,0.9916818023494841
2015-01-09,1,0.003033197867598921,0.003435124704157533,-0.007830823474692546,0.009969368344437075,0.9898805545748177
2015-01-13,1,0.0031470743917036926,0.0035631853358512244,-0.006647471492027549,0.009668200789658264,0.9904283261815124
2015-01-15,1,0.0036806254511353486,0.004143994939625259,-0.006979458038487986,0.009432298219666655,0.9898735392929251
2015-01-20,1,0.00368088050891337,0.004144061533149615,-0.006401941165080709,0.008119926399835048,0.9904627239447371
2015-01-22,1,0.004533961727176828,0.0051049210896810015,-0.006979458038487986,0.008119926399835048,0.9898333941844517
2015-01-26,1,0.005027901539692211,0.005674737303143044,-0.007830823474692546,0.008119926399835048,0.9882070149033914
2015-01-28,1,0.00514972521940111,0.005813123440260516,-0.008568462908731825,0.006197234040627966,0.9880572049433163
2015-01-30,1,0.004030935250410633,0.0045611878498289455,-0.006979458038487986,0.009836888258802644,0.9893981740298277
2015-02-03,1,0.003306352794132229,0.0036521158222454263,-0.006979458038487986,0.009836888258802644,0.9889956919491071
2015-02-05,1,0.0023270398770647896,0.002477675696832922,-0.008224139542639699,0.008610978348605944,0.9886194035481375
2015-02-09,1,0.0008895808844832326,0.0009406166198126815,-0.0047408470091339135,0.009710398795532713,0.9901974006563188
2015-02-11,1,0.00034388754584363556,0.0005132658416800106,-0.0047408470091339135,0.01135611775083948,0.989220999975276
2015-02-13,1,0.00035107484399254734,0.0005472611631475979,-0.0038020282642175812,0.01135611775083948,0.9889556375619184
2015-02-18,1,1.7412622138315327e-05,0.0002858569606614251,-0.0038020282642175812,0.011751621359794304,0.988295102333032
2015-02-20,-1,-0.0004702680314957997,-0.00013503005629815457,-0.0028932765875832587,0.012965170832644127,0.9886218910518554
2015-02-24,-1,-0.0016643859867851625,-0.0011785652189499252,-0.0028932765875832587,0.012965170832644127,0.9895843473357799
2015-02-26,-1,-0.0021314634057155017,-0.0016043236486357518,-0.0038020282642175812,0.012965170832644127,0.9889991344265437
2015-03-02,-1,-0.0009617717019804555,-0.0005660624850379362,-0.0038020282642175812,0.010495403846161145,0.9896326071687367
2015-03-04,-1,-0.0011486750954861485,-0.0007522924123014897,-0.005960521211770818,0.010495403846161145,0.9888890806225923
2015-03-06,-1,-0.002024016017592771,-0.0015248043951804392,-0.0043095614264448,0.010495403846161145,0.9890350362599092
2015-03-10,-1,-0.0011818503858099822,-0.0008435870351925504,-0.005960521211770818,0.009337706916601924,0.9887155693317684
2015-03-12,0,-0.0001410443315281168,6.5270022147467e-05,-0.009300769858269574,0.0074672467107107345,0.9888459406916974
2015-03-16,1,0.001101286837834772,0.0011407012161846267,-0.009300769858269574,0.005977216534322804,0.9896506619026398
2015-03-18,1,0.0017750128841477284,0.0018291587033807165,-0.010817535796937146,0.005970494538335967,0.9897567182445155
2015-03-20,1,0.0025982494165352216,0.002741057552681226,-0.010817535796937146,0.004507126005792396,0.9907224883758514
2015-03-24,1,0.0020974411985827755,0.0021891206280747937,-0.009300769858269574,0.005970494538335967,0.990931807419842
2015-03-26,1,0.000850031925279699,0.0009123547875097143,-0.007660168905251273,0.005970494538335967,0.9921333375757222
2015-03-30,1,0.00224564555759076,0.0024275992248788437,-0.007660168905251273,0.005679474425950904,0.9927554232043247
2015-04-01,1,0.001232205187715929,0.0012670426834912644,-0.008206852536838087,0.005679474425950904,0.9919535346688441
2015-04-06,1,0.0014516753330708803,0.0014720039371012058,-0.008206852536838087,0.005605489892943415,0.9919631986436777
2015-04-08,1,0.0010879419045273495,0.0010951410289716532,-0.008206852536838087,0.0052890148341381725,0.9915483580911705
2015-04-10,-1,-0.0001912261507109116,-1.1255366808631266e-05,-0.0025057405220862868,0.006234465555868256,0.9912224707628274
2015-04-14,-1,-0.0012265652852309077,-0.0009268296578451671,-0.003211031476268425,0.007032812560435293,0.9898396213890128
2015-04-16,-1,-0.0015551830263527586,-0.0011786225730074213,-0.003562322521363785,0.007152744396825754,0.9890310351794792
2015-04-20,-1,-0.0015922783208241408,-0.0012461447643832134,-0.009172060918147023,0.007730334583809159,0.9883091377762597
2015-04-22,-1,-0.0007271403494414297,-0.00048792388988488087,-0.009172060918147023,0.007152744396825754,0.9892354900357799
2015-04-24,1,2.1616145562290646e-05,0.00014023594893604655,-0.009172060918147023,0.007152744396825754,0.9894095766387118
2015-04-28,1,0.0005143782118074954,0.0005651805118744146,-0.009712869666176906,0.007730334583809159,0.9885614559578701
2015-04-30,-1,-0.001087612259620447,-0.0008358543660662109,-0.008273808336386695,0.007730334583809159,0.9892419949512977
2015-05-04,-1,-0.00048658182528602033,-0.00031535650929485014,-0.010468741431362429,0.010209360903302583,0.9881943165155417
2015-05-06,-1,-0.0015404659080992538,-0.0012658496709912264,-0.010468741431362429,0.010209360903302583,0.9885328428049559
2015-05-08,-1,-0.00030574350656355914,-0.00016171700066323213,-0.010468741431362429,0.0035801724540731137,0.9902491569776988
2015-05-12,-1,-0.001573242892440729,-0.0012374338062625403,-0.008273808336386695,0.0038680900798834976,0.9912485291436803
2015-05-14,-1,-0.0011062712123404404,-0.0008588142318320133,-0.006340227380866638,0.00551206373166405,0.9916889578296528
2015-05-18,-1,-0.0006286914321428016,-0.0004785011581345647,-0.0050654173437089806,0.0050063878709257995,0.9920205135483116
2015-05-20,-1,-0.0009538672239499564,-0.0007477571846641572,-0.004038979976450113,0.007403872898927378,0.9910222486335157
2015-05-22,-1,-0.0010002534202695733,-0.0007962654917346585,-0.009165818147771489,0.007403872898927378,0.9904639740619222
2015-05-27,-1,-0.0012619093533166109,-0.0009766788317145186,-0.009843035379827654,0.006279977210874997,0.9913337308304849
2015-05-29,-1,-0.0014351358567600088,-0.0011831039284733742,-0.006576865915156858,0.0067310760779809055,0.9915154021237234
2015-06-02,-1,-0.0011785348242319225,-0.0009804019589455164,-0.006576865915156858,0.006279977210874997,0.9925218879230319
2015-06-04,-1,-0.0022981168222859644,-0.00196429882712799,-0.004646387287419574,0.0067310760779809055,0.9920563344527888
2015-06-08,-1,-0.0022064486996037393,-0.0018927111426138067,-0.004646387287419574,0.007469251191120135,0.9913102479001964
2015-06-10,-1,-0.0013714227494726013,-0.0011954815667440757,-0.006244556037599649,0.0067310760779809055,0.9916111280215689
2015-06-12,-1,-0.0005396812815570618,-0.00046845700564984163,-0.006244556037599649,0.006279977210874997,0.9925572202245302
2015-06-16,1,0.000323731096843859,0.00041297182577607056,-0.006244556037599649,0.0067310760779809055,0.9924878208108635
2015-06-18,1,0.0014033481070267154,0.001658447044488082,-0.006244556037599649,0.005504277881789994,0.9931413580008983
2015-06-22,1,0.0008499517933469411,0.0010462122112267491,-0.004842881349025125,0.006060969700332965,0.993770061838675
2015-06-24,-1,-2.9894150409780214e-05,-1.153566165107121e-05,-0.004842881349025125,0.0068219924061821684,0.9935099781647105
2015-06-26,1,0.00012168436642163847,0.0001646525706638026,-0.004455435371878192,0.006086507736341471,0.9940145406087535
2015-06-30,-1,-0.0003413817512146084,-0.0003318155757689684,-0.0021764306250076867,0.006086507736341471,0.994691238039095
2015-07-02,-1,-0.0004327173690823757,-0.00033189456022239815,-0.0021764306250076867,0.005774977474412066,0.9953461082319707
2015-07-07,1,0.00020968958969639977,0.00023220475670559688,-0.0033690749770467782,0.005774977474412066,0.9953715169018005
2015-07-09,1,3.3218558516007687e-05,5.845040740474546e-05,-0.002222339417007756,0.005774977474412066,0.9954915644700975
2015-07-13,1,0.0002885329163631722,0.0003102852355559782,-0.002222339417007756,0.006780327539375209,0.9952560137339859
2015-07-15,1,0.0003511563152442278,0.00035125622360226755,-0.002222339417007756,0.006780327539375209,0.9949662027200848
2015-07-17,-1,-0.00016250234068890045,-5.995950274009093e-05,-0.0013088224290237172,0.006780327539375209,0.9954066771750358
2015-07-21,-1,-0.000154935617121255,-4.600311294944561e-05,-0.0009590605922616023,0.006926373315356234,0.994759564864342
2015-07-23,1,0.0004904932485020657,0.000507009563372869,-0.0013088224290237172,0.006552597294622557,0.9943850771863998
2015-07-27,-1,-0.00036929744398067605,-0.0003606276663384346,-0.0037297910286680537,0.006552597294622557,0.9904652302609803
2015-07-29,-1,-0.001902341024777658,-0.001566156481222845,-0.004653135260354116,0.007973114762660985,0.9876183473144616
2015-07-31,-1,-0.0012364779984212766,-0.0009813896464960826,-0.004653135260354116,0.008087322100994682,0.9871571964477068
2015-08-04,-1,-0.0017967862197800937,-0.0017335217284471455,-0.015793181535817286,0.006552597294622557,0.9858788522296125
2015-08-06,1,0.0005789072504702662,0.0006917079953469811,-0.015793181535817286,0.006959227367300609,0.986136744374393
2015-08-10,1,0.0011057043223263458,0.0013290736736312743,-0.017282594117062303,0.008840205492263447,0.9848118021846608
2015-08-12,1,0.0023226729174547884,0.0027749139625352012,-0.017282594117062303,0.006770923447492117,0.9842156766127167
2015-08-14,1,0.002024580588151354,0.0024173766205435737,-0.017282594117062303,0.009321058454341028,0.9830232815812836
2015-08-18,1,0.0026523854903761895,0.0030663226660006147,-0.017282594117062303,0.012973981555381457,0.9824890170734791
2015-08-20,1,0.000491808872527511,0.0008711941537713408,-0.016535367237488018,0.012973981555381457,0.9833865367492725
2015-08-24,1,0.00204439765459151,0.0025777788361652705,-0.010592632130090181,0.012973981555381457,0.9867641418977517
2015-08-26,1,0.004311141270988427,0.004958483550193158,-0.008837690089175914,0.010687961293360181,0.9891040291686234
2015-08-28,1,0.005268263117135654,0.006012720888962282,-0.009526318792444848,0.008838018206761495,0.9895616103925463
2015-09-01,1,0.00344312187714301,0.0038881835619384336,-0.004693795504497643,0.010687961293360181,0.9905036299926702
2015-09-03,1,0.0017235466796197765,0.00212002993632402,-0.004693795504497643,0.010690363576688393,0.9897053989411742
2015-09-08,1,0.0030680086151583267,0.003409175901397842,-0.004693795504497643,0.010089825832046359,0.9910543695592936
2015-09-10,1,0.0008089175668481186,0.0010472104989064346,0.001925083928544769,0.010089825832046359,0.9907396023840763
2015-09-14,1,0.0023070170479902027,0.002779453651379147,0.0039282302334507245,0.010089825832046359,0.9926213306338239
2015-09-16,1,0.003530015231027135,0.00417588592259468,-0.008680986356340934,0.008245577950083963,0.9931848611342035
2015-09-18,1,0.005996339552078631,0.006769391834152479,-0.008680986356340934,0.00866258023814245,0.9928053153699776
2015-09-22,1,0.003676126615480632,0.004270644410209341,-0.008680986356340934,0.008663380999251853,0.9922299318547007
2015-09-24,1,0.0050950260271200335,0.005688101131923976,-0.0076790507018828676,0.008663380999251853,0.9923146699330724
2015-09-28,1,0.0042010256096430875,0.0046168854083870735,-0.005997514741854851,0.008663380999251853,0.9923763228042876
2015-09-30,1,0.006752148423086604,0.007625256677169921,-0.007062032764110882,0.006283437098208444,0.9914853542674421
2015-10-02,1,0.006742273023897238,0.007578350998911194,-0.0076790507018828676,0.004881174397777243,0.989798018872712
2015-10-06,1,0.006343735821923587,0.007113879174163163,-0.008272878417234588,0.004881174397777243,0.9889239554108646
2015-10-08,1,0.006336120713514566,0.0070918020205746005,-0.008272878417234588,0.006428432178270984,0.9889291589762654
2015-10-12,1,0.005278960885773683,0.006085751283025602,-0.011534757598449807,0.00337362627463118,0.987132518656831
2015-10-14,1,0.005376740319231915,0.005951917099743456,-0.007686192765347913,0.008780286475161575,0.9882851477742367
2015-10-16,1,0.0061562575330285085,0.006837130565374444,-0.007686192765347913,0.003898232580696346,0.9878640618069469
2015-10-20,1,0.0055819583833598835,0.0061280298539552955,-0.007062032764110882,0.008780286475161575,0.9887968420769183
2015-10-22,1,0.004832791274314111,0.005253750459888578,-0.005946138205162399,0.009752351338578217,0.9893853290401653
2015-10-26,1,0.003771164916382243,0.003988908051805559,-0.0045061461666138225,0.011445049442534166,0.9893264092884467
2015-10-28,1,0.0030466860189421303,0.003165165734247847,-0.0039043494010164576,0.012465233645069145,0.9890007555931772
2015-10-30,1,0.0017790740718764463,0.0018272509021917602,-0.0033014668602282986,0.013249667971820178,0.9884667983803164
2015-11-03,1,0.0025790091387714997,0.0026765188915110665,-0.0033014668602282986,0.012465233645069145,0.9891058066160867
2015-11-05,1,0.002675369835456797,0.002787283339151767,-0.006971773897090873,0.013249667971820178,0.9877091364491063
2015-11-09,1,0.0017256810612634062,0.0017706945591507168,-0.003831073977065396,0.013249667971820178,0.9891116664459141
2015-11-11,1,0.0020399115093647684,0.0020586574820033897,-0.006807704118173295,0.013249667971820178,0.9890539491324116
2015-11-13,1,0.0012261274552867654,0.0013454382560814772,-0.006807704118173295,0.015415944542832412,0.9883970287655363
2015-11-17,1,0.002380361049422324,0.0023808533373028623,-0.006807704118173295,0.015819968616304865,0.9887652570628576
2015-11-19,1,0.00010327490611185643,0.00023446469368283154,-0.009152916257861743,0.015819968616304865,0.9878572206619611
2015-11-23,1,0.003335526202753748,0.003460621785631662,-0.009152916257861743,0.012032068524997233,0.9885691483891652
2015-11-25,1,0.0037962356744251306,0.004004638790835974,-0.009152916257861743,0.011140799703996932,0.9890222035180931
2015-11-30,1,0.002774593241154342,0.002791218265780025,-0.006416791325253753,0.012178710501442173,0.9900119000123035
2015-12-02,1,0.000211639757088904,0.00031894153072687764,-0.00561388544824383,0.012178710501442173,0.9909754153683733
2015-12-04,1,0.00018018823907957516,0.0002866338044206224,-0.00561388544824383,0.012178710501442173,0.9913108319312299
2015-12-08,-1,-0.0009465878591453014,-0.0006931208025465728,-0.006109677857627141,0.012178710501442173,0.9906420738945864
2015-12-10,-1,-0.0020256347657230693,-0.0016367344965754066,-0.006109677857627141,0.012178710501442173,0.9900493210910883
2015-12-14,-1,-0.0015320137902072905,-0.0011832490174845636,-0.008018560550927785,0.011556926474168172,0.9908841518169859
2015-12-16,-1,-0.0006910613481506419,-0.00042019615594804274,-0.011120064412460391,0.010043275245922297,0.9907727776302929
2015-12-18,-1,-0.00244967084274942,-0.0019496832290081907,-0.011120064412460391,0.010043275245922297,0.9904693325895851
2015-12-22,-1,-0.0023922817596756995,-0.0019169034570575788,-0.011120064412460391,0.011556926474168172,0.9894255908274873
2015-12-24,-1,-0.0022243440836574547,-0.001772255643003923,-0.011120064412460391,0.011684076810329775,0.9881847892484559
2015-12-29,-1,-0.0012743229100487543,-0.000919068168030068,-0.014787915025311278,0.0038657148547097844,0.9874721804200169
2015-12-31,-1,-0.0018551703130071204,-0.0014324605934297268,-0.014787915025311278,0.011722271423970067,0.9862422202362949
2016-01-05,-1,-0.002090970359513969,-0.0016611686955614188,-0.014787915025311278,0.0124681176449637,0.9855562247500861
2016-01-07,-1,-0.003763547439198785,-0.003118354719306559,-0.014787915025311278,0.0124681176449637,0.9838084590023016
2016-01-11,-1,-0.0033522489419977246,-0.0028104112376849334,-0.016095065317978,0.012381173632282954,0.9830480195790587
2016-01-13,-1,-0.004905909351380131,-0.004126949825557289,-0.019575548994764356,0.015144907679678413,0.9818145937163485
2016-01-15,-1,-0.0012992916216066025,-0.0009609713428743356,-0.019575548994764356,0.015144907679678413,0.9815138388847522
2016-01-20,-1,-0.0023813707997228355,-0.001908788712105427,-0.015600873477290294,0.015144907679678413,0.9823504321651603
2016-01-22,-1,-0.0008832676108930833,-0.0006310166817095925,-0.015600873477290294,0.014297356111256296,0.9828844238589387
2016-01-26,-1,-0.0012097482796846284,-0.0008515173416329736,-0.016680864508351226,0.01197611929419019,0.9839742546044832
2016-01-28,-1,-0.0025341844252939165,-0.002006890411387603,-0.01463533593028371,0.014297356111256296,0.984425910503517
2016-02-01,-1,-0.001957547611495829,-0.0015080965675700188,-0.01463533593028371,0.01197611929419019,0.9841691720825979
2016-02-03,-1,-0.0015287590852929652,-0.0010612912827879998,-0.008191333444868387,0.01197611929419019,0.9849853245898099
2016-02-05,-1,-0.0025485245865596133,-0.002007699155765157,-0.008191333444868387,0.014274805007403666,0.9838299472205045
2016-02-09,-1,-0.0038183386114843767,-0.0031933049616360175,-0.005038863891253707,0.014274805007403666,0.9843569056753441
2016-02-11,-1,-0.0039307822255726325,-0.003326622856572655,-0.004638025268459222,0.014274805007403666,0.9848806314662407
2016-02-16,-1,-0.0030719478348872915,-0.002567818301895128,-0.004638025268459222,0.015406759667720597,0.985333749234278
2016-02-18,-1,-0.003056348120280079,-0.0025491096360575815,-0.002835833563298545,0.01757615135853059,0.9843548070921577
2016-02-22,-1,-0.002660146697741696,-0.0021906298673010052,-0.005456867621199484,0.01757615135853059,0.9848624063600512
2016-02-24,-1,-0.0027927019194247784,-0.0023651551805167516,-0.005343414173187625,0.01757615135853059,0.9850972672780218
2016-02-26,-1,-0.0018699290916370191,-0.0016150759745959587,-0.00469150584479393,0.015406759667720597,0.9859593094648852
2016-03-01,-1,-0.00018111656507199987,-9.11876232373735e-05,-0.00469150584479393,0.015085459073018507,0.9871948284582861
2016-03-03,1,0.0008128700992696329,0.0008574464822896585,-0.00478793673285375,0.013244008466508196,0.9880141004168832
2016-03-07,1,0.0004602535413914064,0.0004887978974946872,-0.00478793673285375,0.01137127703051245,0.991169906164676
2016-03-09,-1,-0.00036484376040376546,-0.0002792350151728869,-0.00478793673285375,0.00957988598991321,0.9915708623547708
2016-03-11,1,0.0008105685700925595,0.0009176950098143276,-0.0075730343353846916,0.007648831634214463,0.991452163202316
2016-03-15,1,0.0016852265492282065,0.0019001597770844539,-0.008239525799336803,0.005506534080207,0.9909105844141419
2016-03-17,1,0.002400491674797959,0.002714526292473754,-0.00958144740559529,0.00474295510759885,0.9900818428651399
2016-03-21,1,0.001680840247498477,0.001889565469323014,-0.007938564095999598,0.005506534080207,0.990837093799005
2016-03-23,1,0.0013065801443259669,0.0014273432755966555,-0.010600527564797959,0.005506534080207,0.9893495969363345
2016-03-28,1,0.0009959243408895109,0.0010369326933964407,-0.010600527564797959,0.0077635119614296805,0.9888512256691727
2016-03-30,1,0.0018935785605772068,0.0020772966635302704,-0.013832274509171093,0.005506534080207,0.9879296272287906
2016-04-01,1,0.0021640526273428063,0.0023908913599978714,-0.013832274509171093,0.00474295510759885,0.9876592174867518
2016-04-05,1,0.0010340251286337658,0.0010534271644498585,-0.013832274509171093,0.006522647904658224,0.9879027251557173
2016-04-07,1,0.0009334282653513594,0.0009401918765256104,-0.011416849209226438,0.009770556790392907,0.987359701435296
2016-04-11,-1,-0.0001997942939276455,-6.259858852182429e-05,-0.009795385798149741,0.010900521593465166,0.9877229960385868
2016-04-13,-1,-0.00032670279463251436,-0.0002306941498491553,-0.009795385798149741,0.010900521593465166,0.9878340211677155
2016-04-15,-1,-3.4682885103898476e-05,-1.174857172722368e-06,-0.009795385798149741,0.009770556790392907,0.9887801988861981
2016-04-19,1,0.0010129556560950375,0.0011579130839142204,-0.010478467011357856,0.009770556790392907,0.988639622426512
2016-04-21,-1,-0.0001754731124915433,-0.00014337694423089136,-0.010901250947543373,0.009770556790392907,0.9891243090542626
2016-04-25,1,0.0007306097960680829,0.0008690150859230682,-0.010901250947543373,0.007888078227484285,0.9902003428074829
2016-04-27,-1,-0.0004044958927150378,-0.00036539839322986,-0.009019337968225955,0.00864914886148376,0.9907719899040761
2016-04-29,-1,-0.0008468614796124632,-0.0007720440302288592,-0.008020619844616248,0.00864914886148376,0.9904580843018902
2016-05-03,-1,-0.00042641172071822644,-0.00038025229068629684,-0.010901250947543373,0.007888078227484285,0.9899612172322423
2016-05-05,1,0.0003336176586066724,0.0003357566158418922,-0.012103173649614687,0.006344637386098903,0.9899720711261731
2016-05-09,1,0.0012244170979105573,0.0014126547982348532,-0.012830998560660847,0.004249012541482049,0.9897359658667785
2016-05-11,1,0.0011475968925664449,0.0013627031239965203,-0.012103173649614687,0.004532395259205094,0.9905845253897265
2016-05-13,1,0.0002485608968127033,0.00029752293994130604,-0.010901250947543373,0.005098806956291287,0.9909235563607024
2016-05-17,1,0.0001926350093208236,0.00023726807670402397,-0.008020619844616248,0.005098806956291287,0.9913574548523539
2016-05-19,-1,-0.0003421848238308766,-0.000338574274050432,-0.0017584090652204335,0.006344637386098903,0.9915711400900821
2016-05-23,1,0.0004798529556589876,0.0006467073188132468,-0.0017584090652204335,0.007233057261921763,0.9919195831233011
2016-05-25,1,0.0009777978056499034,0.0011836686467987074,-0.003616277336889583,0.005022544104481407,0.99224930820949
2016-05-27,1,0.000696871582417866,0.0008711207302425602,-0.003616277336889583,0.0042592878944646174,0.992164465260195
2016-06-01,-1,-0.0007515384306783681,-0.000667413351841737,-0.0002865394969802683,0.009036728840527596,0.9910217463024673
2016-06-03,-1,-0.0015839449560004185,-0.0014053148842584733,-0.00027083628665860196,0.009901596327696636,0.991316568584059
2016-06-07,-1,-0.0026956333042376804,-0.002368027838428437,-5.0673607634676076e-05,0.011630761987784483,0.9907941012138444
2016-06-09,-1,-0.002083901133519265,-0.0018112972254537441,-0.0010990483569560741,0.013074613131519211,0.990303075207928
2016-06-13,-1,-0.002297362227451376,-0.0019409391654662926,-0.0010990483569560741,0.013074613131519211,0.9903161497481735
2016-06-15,-1,-0.001298317963896663,-0.0011054762045014767,-0.0017795241049915014,0.013074613131519211,0.9905511324291761
2016-06-17,-1,-0.0005267737941239283,-0.0005041880076713331,-0.003894854229844406,0.009943448081372609,0.9906863297185121
2016-06-21,-1,-0.0010623276597557453,-0.0009014520040972029,-0.003894854229844406,0.010064148532336543,0.9905809341073145
2016-06-23,-1,-0.00027615134338462795,-0.0002679469563234161,-0.0019476462476681225,0.010064148532336543,0.9906412778541622
2016-06-27,-1,-0.0005358994953978544,-0.0005081932740208243,-0.0025479407066842635,0.010064148532336543,0.9906581127442112
2016-06-29,1,0.0005058282715681533,0.0005115661466026572,-0.006573390181205453,0.007546638098553907,0.9916326865364418
2016-07-01,0,-0.00015037063134083696,2.30703396770329e-05,-0.006573390181205453,0.009472374948723198,0.9908922338197336
2016-07-06,0,-0.00017327110302215408,1.8596648887805856e-05,-0.012892202203164577,0.007546638098553907,0.9910405059541926
2016-07-08,1,1.4631406719832376e-05,0.00014809785499915733,-0.005794538979037618,0.006604155288640651,0.9923853819860902
2016-07-12,1,0.00037262600314030684,0.00048094537297906797,-0.005794538979037618,0.007546638098553907,0.9919450243842947
2016-07-14,1,7.419109416991447e-05,0.0001859742052658908,-0.009992962040459335,0.007546638098553907,0.9918476083125828
2016-07-18,-1,-0.0012063304083096609,-0.0009136145319770339,-0.005114450477099211,0.007546638098553907,0.9923533854324367
2016-07-20,-1,-0.0004066156979333997,-0.00024227525524322507,-0.009992962040459335,0.0029839502691290927,0.9923179422614727
2016-07-22,1,0.0007030289582484899,0.0007407423233557718,-0.009992962040459335,0.001607508831993825,0.9920124250282385
2016-07-26,1,0.0006528652727512288,0.0007379470452469846,-0.008471323759726531,0.0023317053389445216,0.9922461186495671
2016-07-28,1,0.00029629106997169414,0.00029680957755583105,-0.007585321165054965,0.0023317053389445216,0.9931144191779242
2016-08-01,1,0.001338176260351377,0.001467485588870474,-0.007585321165054965,0.001607508831993825,0.9933843528005389
2016-08-03,1,0.0011054912096548396,0.0012413575793599058,-0.006849719775013276,0.002123977183586384,0.9940989029715213
2016-08-05,1,0.0012727100293962366,0.0014696414314694982,-0.006849719775013276,0.003743678814941944,0.9940284202328364
2016-08-09,1,0.0024918394926636174,0.002914403876057143,-0.006849719775013276,0.004210432494106658,0.9939772505316044
2016-08-11,1,0.001357703137313821,0.0015899986469655911,-0.006849719775013276,0.004210432494106658,0.9921508902881137
2016-08-15,1,0.0012550056672908875,0.0014566033417567968,-0.007585321165054965,0.0043888426850443064,0.9902500104299119
2016-08-17,1,0.0008776070672072131,0.0010495298126938233,-0.006849719775013276,0.006487689118164965,0.9902280237661919
2016-08-19,1,0.000975816869277665,0.001208386247962101,-0.005533564619325932,0.008719379869955583,0.9897255523506377
2016-08-23,1,0.0006317826961732168,0.000869618578425223,-0.004837143624804897,0.009122100264485155,0.9895026001791567
2016-08-25,1,0.0010662228047187312,0.0013280428764845494,-0.003778737736170739,0.010277499545298614,0.9891717534354668
2016-08-29,1,0.0010015394589350125,0.0012282411827222442,-0.003778737736170739,0.010277499545298614,0.9892952569867816
2016-08-31,1,0.0005322806426474316,0.0006393857641805944,-0.0056997841974057465,0.010277499545298614,0.9882553464382937
2016-09-02,1,0.00028091657060193905,0.0003181641866842629,-0.012776660903335492,0.010277499545298614,0.9866537181874462
2016-09-07,1,0.0008922219320087032,0.0010211554719586815,-0.016414025449752942,0.009787182678920037,0.9857345426393822
2016-09-09,-1,-0.001334615313078472,-0.001216028799647515,-0.01177766512083813,0.009787182678920037,0.9880086037219233
2016-09-13,-1,-0.002667699004067353,-0.002332135848303353,-0.009367681129699044,0.008979547189025472,0.9895306369765672
2016-09-15,-1,-0.0010824562064328485,-0.0009951292137714944,-0.009367681129699044,0.008979547189025472,0.9896329185324122
2016-09-19,-1,-0.0012256548857895206,-0.0010421778204349216,-0.011479522582328247,0.006140519962386627,0.9901236067228003
2016-09-21,-1,-0.0008102783236464817,-0.0006517028855187099,-0.011479522582328247,0.004864283701043449,0.9908532100707379
2016-09-23,1,0.0005235747463513032,0.000555754020478215,-0.011479522582328247,0.002711622959194228,0.9915962849945481
2016-09-27,1,0.000839518896545863,0.000996143090476778,-0.011479522582328247,0.0011845231609857014,0.9917759757131897
2016-09-29,1,0.0010768895003582181,0.0013005946391170878,-0.011479522582328247,0.0011845231609857014,0.9908694930489576
2016-10-03,-1,-0.0005395817835594846,-0.0005104067586813577,-0.00744825861449066,0.005725347212258568,0.991090442429198
2016-10-05,-1,-0.002127922793200082,-0.0018936585436561439,-0.006699066192632781,0.005725347212258568,0.9921418418625234
2016-10-07,-1,-0.002793250695490695,-0.0024710473929300467,-0.0033341657719095676,0.005725347212258568,0.9921561183474517
2016-10-11,-1,-0.003091021606933834,-0.002696807797738489,-0.0033341657719095676,0.005725347212258568,0.9916423519201332
2016-10-13,-1,-0.001989744260370779,-0.001731995878990715,-0.007019727531308215,0.0030420573503435284,0.9910198673701253
2016-10-17,-1,-0.0020472025512583425,-0.0018148146055319723,-0.004304684557702292,0.009454383046843658,0.9894494882665557
2016-10-19,-1,-0.002088275499978225,-0.001850790378044339,-0.007019727531308215,0.009454383046843658,0.9878908383732192
2016-10-21,-1,-0.0030095221861623474,-0.0026027831052035846,-0.009881872552217397,0.009454383046843658,0.9872797390448091
2016-10-25,-1,-0.0036877256518251167,-0.0031555692205913147,-0.009881872552217397,0.012166377294293268,0.9862346528429775
2016-10-27,-1,-0.004167984120230141,-0.0035378845490710202,-0.008413433538885955,0.009454383046843658,0.9875449350554406
2016-10-31,-1,-0.0022059616458993195,-0.0018210925884038383,-0.008413433538885955,0.0062420004232636266,0.9888471275804508
2016-11-02,-1,-0.0026245259911818093,-0.002211871569240304,-0.010078917424840773,0.0062420004232636266,0.9883492172840455
2016-11-04,-1,-0.0022216928264546707,-0.0018786500729737832,-0.010078917424840773,0.009264683126607755,0.9881329193174392
2016-11-08,-1,-0.0012999420602775444,-0.0010871758107931424,-0.010078917424840773,0.009201607908337836,0.9883016930446561
2016-11-10,-1,-0.0027909813911672627,-0.0024227559618310297,-0.0052114179587453395,0.010213523104486295,0.9892958025863963
2016-11-14,-1,-0.0009045564057388034,-0.0007394723636540916,-0.0052114179587453395,0.008627610957391937,0.9911856510563618
2016-11-16,-1,-0.002774750692470224,-0.0024059711548930205,-0.0052114179587453395,0.008627610957391937,0.9918244877408113
2016-11-18,-1,-0.0023622647642074,-0.002124674715502637,-0.0020017932885435736,0.00946365220480546,0.9909968203128637
2016-11-22,-1,-0.001252660166956237,-0.0011742319156812287,-0.004552623459338934,0.009352436179075142,0.9910859912886704
2016-11-25,-1,-0.001099449988211594,-0.0010638759476992309,-0.001096795241346277,0.009352436179075142,0.9911665196708872
2016-11-29,-1,-0.0002929358158284103,-0.0002293569366702105,-0.002993931581064028,0.008878319157919461,0.9924520094246081
2016-12-01,-1,-0.0009478667475863601,-0.0009478157390666605,0.00021089688606163015,0.009352436179075142,0.9917731260772698
2016-12-05,-1,-0.0007607933297200053,-0.000757336658053912,-0.000632378779905917,0.00946365220480546,0.9911810121722336
2016-12-07,-1,-0.0007357168944567161,-0.0007162042734604721,0.0,0.009352436179075142,0.9917889828832415
2016-12-09,0,-3.8479307232333984e-05,5.801420765924961e-05,-0.003850264573476562,0.00931019944115223,0.991814842658048
2016-12-13,1,0.0005439629857583689,0.0007396089594233282,-0.006361169526015552,0.009316850598684472,0.9915630341926611
2016-12-15,1,0.0002957898391623272,0.00042662835175618545,-0.006495428117420025,0.009316850598684472,0.9914346913121843
2016-12-19,1,0.0014415034390415297,0.001725597562935341,-0.008481298489335142,0.008495511223392522,0.9921971880521719
2016-12-21,1,0.0017593909783948033,0.0021596913900885275,-0.006495428117420025,0.008639471317803444,0.9930014136521802
2016-12-23,1,0.0018279893446033698,0.0021993648762086227,-0.008481298489335142,0.008639471317803444,0.9919579542490256
2016-12-28,1,0.001678148982409752,0.0020219955773571018,-0.008481298489335142,0.008639471317803444,0.9916118941864067
2016-12-30,1,0.0031264542838738826,0.0037057887457485417,-0.008481298489335142,0.00502729855423187,0.9915953175049683
2017-01-04,1,0.002506552451318606,0.0029565304003255077,-0.008481298489335142,0.00502729855423187,0.9916150425897805
2017-01-06,1,0.002679711823865588,0.0031567479819528503,-0.008867723139733566,0.00502729855423187,0.9911372065342346
2017-01-10,1,0.0016510869960012428,0.001960484195454635,-0.007886284102308265,0.00847938348711871,0.9913853936946834
2017-01-12,1,0.001695486907968787,0.0019908401683924526,-0.008432403870487184,0.008433525511032429,0.9913875333671771
2017-01-17,1,0.001616599048047384,0.0018928006492404752,-0.00872692522695475,0.005570879421440574,0.9915665315965858
2017-01-19,1,0.0014167177945963085,0.0016749366210338794,-0.00796914067214231,0.0065855183920849065,0.9918491294368023
2017-01-23,1,0.0017742238382922888,0.0020828916623162226,-0.00796914067214231,0.0065855183920849065,0.9918526147559612
2017-01-25,1,0.000930068869647225,0.0011280372901817893,-0.007565798555299885,0.008520412330024223,0.9919578531354227
2017-01-27,1,0.0005910783358292294,0.0007479018816642453,-0.007565798555299885,0.008520412330024223,0.9922363454746275
2017-01-31,1,0.0009230610535890908,0.0011575963053882306,-0.003998700166222976,0.0065855183920849065,0.9928848013495593
2017-02-02,-1,-0.0003610469044446654,-0.0002984491870406129,-0.003998700166222976,0.004941200767489562,0.9931336817901039
2017-02-06,-1,-0.0008901551326640966,-0.0007465532873299454,-0.0019418862387065787,0.006138174048508225,0.9931201825202425
2017-02-08,1,0.0011386297899500138,0.0012303853997336835,-0.007771953533264136,0.004803873830389922,0.9932604086968103
2017-02-10,1,0.0008883425042979068,0.001028878691013839,-0.007623156892601033,0.004803873830389922,0.9933858335915401
2017-02-14,1,0.0008344470391257065,0.0010110655192367437,-0.003998700166222976,0.006138174048508225,0.9925659316178916
2017-02-16,1,0.0006970711328242553,0.0009703951500718013,-0.0031124674260773902,0.004986208140764253,0.9929123244084753
2017-02-21,1,0.0011762160752791565,0.0015054067711688997,-0.003329083803963742,0.00399274743926154,0.993281956889431
2017-02-23,1,0.0012416554544929129,0.0015652234326459006,-0.001727898695472656,0.00399274743926154,0.9938845212954945
2017-02-27,1,0.0005550104956466577,0.0007186403890202081,-0.0034417969682293634,0.003041850605942723,0.9935967041596017
2017-03-01,-1,-0.00020773274407318438,-0.00019679264444407812,-0.005299752974282564,0.0033264625595033387,0.9933994229658205
2017-03-03,-1,-0.0008640213089390338,-0.000757376396735412,-0.0025546158311909196,0.0035292951002624915,0.9938008515881109
2017-03-07,-1,-0.0005160607416612414,-0.00045745124979155007,-0.004757299080590732,0.0032529606741017528,0.9938651964934783
2017-03-09,-1,-0.001442760985424882,-0.0013019767470034583,-0.00214321661710624,0.0032529606741017528,0.9950690998041786
2017-03-13,-1,-0.0018344130715100175,-0.0016181039851581249,-0.001727898695472656,0.0032600054141227776,0.9951156677984784
2017-03-15,-1,-0.0008302801219849025,-0.0007238304556065559,-0.00214321661710624,0.0032600054141227776,0.9961458183281994
2017-03-17,-1,-0.0005952304433955906,-0.0005006099344231866,-0.003178374194990082,0.0040127176662299825,0.9952789711030212
2017-03-21,1,0.0007847056804003653,0.0009038706609700842,-0.004483475701549557,0.0040127176662299825,0.9951613165417478
2017-03-23,-1,-0.00043535005244176706,-0.00034767608895464746,-0.004970010673507044,0.0032600054141227776,0.9951357538918861
2017-03-27,1,0.0016064896873036931,0.0016999999181727126,-0.004970010673507044,0.0040127176662299825,0.9937610156337406
2017-03-29,1,0.0011333245723602068,0.0011369884750428983,-0.004970010673507044,0.0033993422018731914,0.9938464117327215
2017-03-31,1,0.00012121176308231774,0.00014749797227028887,-0.004970010673507044,0.004752602595091433,0.993306591835053
2017-04-04,1,0.0014580485050890394,0.0015419284341361087,-0.005058894618595694,0.004752602595091433,0.9931393204224244
2017-04-06,-1,-0.00023983464109910118,-9.178812722090578e-05,-0.005058894618595694,0.007516054888592246,0.9924935815459206
2017-04-10,1,0.0010791094233421731,0.0011767976366713509,-0.005972875853641965,0.007516054888592246,0.9922511854989675
2017-04-12,0,-1.0530684107212416e-05,0.00010099978856703529,-0.005058894618595694,0.007516054888592246,0.9928558196004668
2017-04-17,0,-9.770696398785604e-05,7.028211421028003e-05,-0.005058894618595694,0.004595807911203231,0.9937354691394727
2017-04-19,1,0.00011975232442418439,0.0002486441806903166,-0.005058894618595694,0.004595807911203231,0.9936027493871826
2017-04-21,-1,-0.0006286892371757093,-0.0004100071880225744,-0.004222343393184114,0.007516054888592246,0.9934543191347075
2017-04-25,1,0.000983424071541163,0.0009863563255158789,-0.003984762152834484,0.006960959632970008,0.9946914795493972
2017-04-27,1,0.00020281175215504442,0.00034780804622097997,-0.0027503217662740637,0.006960959632970008,0.9947961595817627
2017-05-01,1,0.000991169462330796,0.0010303330927894888,-0.0027503217662740637,0.00396919635731971,0.9954384256684702
2017-05-03,1,0.00048368732718118466,0.0005731472523157841,-0.0015734378459325868,0.00526106112495682,0.9955390688919815
2017-05-05,1,0.0015232755239133716,0.0015850986180789826,-0.0015734378459325868,0.00526106112495682,0.9947727823090406
2017-05-09,1,0.0011586700477007245,0.001186752234202065,-0.0011852678264916397,0.006913810025284508,0.9941932229368253
2017-05-11,1,0.0010957374892769899,0.0011091867495644408,-0.0015238827596400827,0.007018502079660421,0.9939285781054774
2017-05-15,1,0.0017465591368808397,0.0019209674017052123,-0.002664770332015616,0.007018502079660421,0.9932698527586463
2017-05-17,1,0.0010490432355657153,0.0011103600641986166,-0.001441177088863723,0.007170862999546281,0.9935875867399182
2017-05-19,1,0.0016252402431315904,0.0017824653760511327,-0.001441177088863723,0.007147853976285355,0.9938533634465335
2017-05-23,1,0.0019426686241393707,0.0021327458009727774,-0.002664770332015616,0.007147853976285355,0.9935966152393055
2017-05-25,1,0.002420586923794519,0.002734033785256311,-0.0037130318914762373,0.007147853976285355,0.9930765857294593
2017-05-30,1,0.0022536875482930584,0.0025330646614251605,-0.004400747610539858,0.007147853976285355,0.9924739587913928
2017-06-01,1,0.0023736293334405633,0.0026732281866268586,-0.004671810948919088,0.0071240906232617005,0.9925684518799681
2017-06-05,1,0.0031990840314537147,0.003561180225694177,-0.005727206978863028,0.005315119491289791,0.9931477932162412
2017-06-07,1,0.0033086193019848786,0.0036935690759628426,-0.005727206978863028,0.004261258905275469,0.9924799679902159
2017-06-09,1,0.003514597423804636,0.0039020100512158233,-0.0066273572299992865,0.0029946142794618916,0.9921137123761656
2017-06-13,1,0.0027824781674544697,0.003048911531218497,-0.005727206978863028,0.004261258905275469,0.9930257106872938
2017-06-15,1,0.0030862248068815406,0.003417395007346434,-0.005727206978863028,0.004261258905275469,0.9925029647823133
2017-06-19,1,0.002956613201581846,0.0032157492778098866,-0.005727206978863028,0.0029946142794618916,0.9923956621169311
2017-06-21,1,0.0018095345140927083,0.0019447073788355258,-0.005414217265802252,0.004729396627417209,0.9928898775218686
2017-06-23,1,0.0016279052619615412,0.0016852233598943105,-0.005407883532892496,0.004729396627417209,0.9931733673571387
2017-06-27,1,0.0010257373949935354,0.0010482448827803727,-0.005407883532892496,0.0070838877124488895,0.9925854277116063
2017-06-29,1,0.0006391400995046216,0.0007129067421585288,-0.005848333948207128,0.008731957351416336,0.991500333356956
2017-07-03,1,0.0011655518331751945,0.0012045594914230926,-0.005843857384396683,0.007347843882943841,0.9918971016055207
2017-07-06,1,2.641697545503822e-05,0.00013212404039984684,-0.005843857384396683,0.007347843882943841,0.9930582902516636
2017-07-10,-1,-0.0005540981728079602,-0.00036334309466832246,-0.005407883532892496,0.007347843882943841,0.9933248798276954
2017-07-12,-1,-0.00039449445974990493,-0.00022901462997800372,-0.005407883532892496,0.00567975650907368,0.9934385548403868
2017-07-14,0,-3.146386258447761e-05,7.004032009761096e-05,-0.005843857384396683,0.0039753962179479635,0.9937215948523922
2017-07-18,1,0.0004422120787290556,0.00047894173754660233,-0.005843857384396683,0.0039753962179479635,0.9934041328343489
2017-07-20,1,0.0010653313055975625,0.001109284150204622,-0.005843857384396683,0.003406753662462899,0.9934465383771135
2017-07-24,1,0.0008847804335923195,0.000906366482872726,-0.00598840402733492,0.005225329934876933,0.9930663793844545
2017-07-26,1,0.0005901334069780479,0.0006362298920069482,-0.005295747667853045,0.003406753662462899,0.9941644042926548
2017-07-28,1,0.0008762405881709533,0.0008775927198916829,-0.005090724410878428,0.002515948615257573,0.9950873559523189
2017-08-01,0,-2.051016553178273e-05,0.0001414006967562714,-0.005090724410878428,0.002515948615257573,0.9952764481409354
2017-08-03,-1,-0.00047069857762664993,-0.0002495898680560985,-0.003978545373848153,0.002515948615257573,0.995645587859576
2017-08-07,0,-0.00010155080992104207,3.5662721015966385e-05,-0.003384204754361952,0.003406753662462899,0.9955426132689174
2017-08-09,0,-4.835375887592445e-05,7.028004926736713e-05,-0.003384204754361952,0.0037875832394960954,0.9953711751038914
2017-08-11,-1,-0.00047201069541661386,-0.0002985736962216227,-0.0026205786833497736,0.005958366417283308,0.9952979279762144
2017-08-15,1,0.0001586570571830809,0.0002498320463987926,-0.005090724410878428,0.0037629352525784918,0.9948466158387916
2017-08-17,1,3.657857557012661e-06,0.00013228699394337272,-0.003384204754361952,0.0037629352525784918,0.9951682836606421
2017-08-21,1,2.1517988623245853e-06,0.00013456016086683427,-0.003384204754361952,0.0023095835339570128,0.9953886495474161
2017-08-23,0,-2.468121279219996e-05,0.00010699087259581625,-0.005161496070256282,0.0023095835339570128,0.9951869757851669
2017-08-25,-1,-0.00047404535729527733,-0.0002834042578498002,-0.004100924937251164,0.0029313288117036973,0.995294144983757
2017-08-29,-1,-0.0009723312418444749,-0.0007087019296987173,-0.0043279976585799875,0.0029313288117036973,0.9952792883409413
2017-08-31,-1,-0.0007751934997786503,-0.0005461289170573627,-0.0043279976585799875,0.0036699203256429116,0.9951895219937237
2017-09-05,-1,-0.0007534223334006772,-0.0005178921780858004,-0.0043279976585799875,0.0029313288117036973,0.9955181348619034
2017-09-07,-1,-0.00027161937018287065,-0.00010672059413640493,-0.0043279976585799875,0.0033244426886804984,0.9951284886000817
2017-09-11,0,-0.00010352798358993987,4.583999532260791e-05,-0.006548409256275171,0.0032124306189230825,0.9947617608491739
2017-09-13,-1,-0.0013412209130355774,-0.001022932335058695,-0.00210068040540829,0.004436088622974006,0.9957219596422295
2017-09-15,-1,-0.000665794135267919,-0.0004656540118033516,-0.00210068040540829,0.004436088622974006,0.995622114019658
2017-09-19,-1,-0.0011198507160924487,-0.0008697729207204206,-0.00210068040540829,0.004436088622974006,0.9958035451263348
2017-09-21,-1,-0.001132355602500185,-0.0009090027886364667,-0.00210068040540829,0.004436088622974006,0.9958613778331112
2017-09-25,-1,-0.0014330660613114754,-0.0011578883164642271,-0.0018322565976173434,0.004436088622974006,0.9958040517212681
2017-09-27,-1,-0.0012140362565480896,-0.0010090263558502196,-0.0018322565976173434,0.004860112754922237,0.9952036056945099
2017-09-29,-1,-0.0013194659718976341,-0.0010846356519060522,-0.0018322565976173434,0.004860112754922237,0.9950411684560427
2017-10-03,-1,-0.001388634916090091,-0.0011528178004521373,-0.0012326621965192482,0.005422012172300567,0.9945832328974131
2017-10-05,-1,-0.0007483734528974499,-0.000592109622074169,-0.003365715540591423,0.005422012172300567,0.994055788932517
2017-10-09,-1,-0.001276540987354802,-0.001049425841177733,-0.0012326621965192482,0.006922815838212949,0.9935569045268022
2017-10-11,-1,-0.0007724420562366329,-0.0006191246222208495,-0.0012326621965192482,0.008065765555829827,0.9926182156218338
2017-10-13,-1,-0.0001691414206205849,-0.0001059028376685374,-0.003320352269216506,0.007095928135438392,0.99294509434531
2017-10-17,-1,-0.00042119897653747584,-0.00033069467693070136,-0.0023437336273972797,0.007095928135438392,0.9928785307699154
2017-10-19,-1,-0.0006630410565359989,-0.0005440747848156432,-0.0023437336273972797,0.007095928135438392,0.9922145114354751
