JNU-Tangyin/eata/results/Batch4_SP500/Batch4_SP500-STX.csv
Date,Action,Predicted_Q25,Predicted_Q75,Actual_Q25,Actual_Q75,RL_Reward
2010-12-14,0,0.0,0.005392427399340719,-0.010401128650253081,0.005551504502507223,0.9940105437096743
2010-12-16,0,0.0,0.0,-0.008929600810915027,0.005773680571449188,0.9918587397225368
2010-12-20,0,0.0,0.0,-0.010401128650253081,0.005773680571449188,0.9896459984894833
2010-12-22,0,0.0,0.0,-0.01105220009436004,0.003967459428201228,0.9872316231986529
2010-12-27,0,0.0,0.0,-0.01105220009436004,0.003967459428201228,0.9872002342954997
2010-12-29,0,0.0,0.0,-0.010947757357799168,0.00744531592989686,0.9865717453339408
2010-12-31,0,0.0,0.0,-0.013010681519022573,0.013106595237423236,0.9854957675507099
2011-01-04,0,0.0,0.0,-0.011266352659823443,0.014178717143894718,0.9850536016194659
2011-01-06,0,0.0,0.0,-0.011266352659823443,0.014178717143894718,0.985038213364412
2011-01-10,0,0.0,0.0,-0.004791255716421143,0.014178717143894718,0.9860915187834718
2011-01-12,0,0.0,0.0,-0.002583357489090046,0.014178717143894718,0.9868781542745906
2011-01-14,-1,-0.00212244220913469,-0.001686802818381465,-0.002583357489090046,0.014178717143894718,0.9876968322260842
2011-01-19,-1,-0.003644739119403699,-0.0029903085408507033,-0.0039032089210221154,0.008789086188104134,0.9886598041652666
2011-01-21,-1,-0.0038908321981775394,-0.003259990525938399,-0.0039032089210221154,0.008789086188104134,0.9908322259004271
2011-01-25,-1,-0.003304665856872405,-0.0027564335535823583,-0.007737214081211566,0.004886176915322418,0.9888425531749593
2011-01-27,-1,-0.0017989932319937276,-0.0014829562941704746,-0.007737214081211566,0.0036600037899349163,0.9902929124551555
2011-01-31,-1,-0.002036673111670337,-0.0016704044314765968,-0.010108852467882696,0.002051515233201672,0.989830235698097
2011-02-02,-1,-0.0028170848251099175,-0.0022850224334483773,-0.010108852467882696,0.0036600037899349163,0.9894730246395094
2011-02-04,-1,-0.0017765606626070779,-0.0013979969556523367,-0.011749581703955195,0.0036600037899349163,0.984744474672282
2011-02-08,-1,-0.0010192566854245768,-0.0008929596611546709,-0.017110097895928687,0.0029453100960515617,0.982691606819729
2011-02-10,-1,-0.0009015093414186824,-0.0007944916955577604,-0.017110097895928687,0.005104396469543884,0.9817847845345173
2011-02-14,-1,-0.002076168038607381,-0.0017957755965785408,-0.01995600617446152,0.005104396469543884,0.9806527927671602
2011-02-16,-1,-0.001773906082307048,-0.0015924643040502455,-0.017110097895928687,0.007692533791994309,0.9798450393199865
2011-02-18,-1,-0.0014405650545715465,-0.0013034179654533788,-0.017110097895928687,0.012064767935793695,0.9789361876158461
2011-02-23,-1,-0.0038482923694298315,-0.003413338040608146,-0.012482144111340594,0.013240090048951002,0.9817145973546538
2011-02-25,-1,-0.0033027120598823397,-0.002927671780827321,-0.012482144111340594,0.02052171130167644,0.9793719600662346
2011-03-01,-1,-0.004879299998503825,-0.004293521121811902,-0.010867165395261632,0.02052171130167644,0.9805073846632941
2011-03-03,-1,-0.0029645515646890995,-0.0027076383720388815,-0.012482144111340594,0.024817268576182303,0.9800863582989617
2011-03-07,-1,-0.0010169447958544608,-0.0009987946249638484,-0.012482144111340594,0.024817268576182303,0.9820948659239663
2011-03-09,-1,-0.00041594768243591903,-0.00031845535809188583,-0.010867165395261632,0.018032146294949362,0.9837664148312774
2011-03-11,-1,-0.0011312178481553657,-0.001079641475137179,-0.008382788071926297,0.02481985856625059,0.9806926608045262
2011-03-15,-1,-0.0017982769205718769,-0.0017405100500418236,-0.005135232299860111,0.02481985856625059,0.9810190626040363
2011-03-17,-1,-0.0013232318521552134,-0.0013056399426549774,-0.003453219434113902,0.02515503125271984,0.9799371035957586
2011-03-21,-1,-0.0004985022246466199,-0.00033313951990747556,-0.0034078679249825855,0.030629679557018456,0.9793217000398583
2011-03-23,-1,-0.003681559746588968,-0.0032551172795512013,-0.00275801080766493,0.030629679557018456,0.9777262712793335
2011-03-25,-1,-0.0013208684950230206,-0.0012721545729413152,-0.0040670843256965655,0.0246817944319207,0.9811817138068483
2011-03-29,-1,-0.001070847816056554,-0.0010533247518275893,-0.0040670843256965655,0.0246817944319207,0.9810668226766516
2011-03-31,-1,-0.0005294966056730048,-0.00035989020871190396,-0.005135232299860111,0.021090592803803022,0.9828808701224658
2011-04-04,-1,-0.0012075309328069314,-0.0011872550432352018,-0.00540916915304169,0.01725468813197247,0.9844781637056931
2011-04-06,-1,-0.0007143843555213288,-0.0006697890045294607,-0.006962035982991375,0.01725468813197247,0.9842152201870356
2011-04-08,-1,-0.0009693385025211252,-0.0009491292321978551,-0.006962035982991375,0.014131187607716382,0.9872936151611922
2011-04-12,1,0.0001803726182402641,0.00031249149325316696,-0.009162218357462901,0.014131187607716382,0.9870314427997438
2011-04-14,1,0.0016991161667192956,0.0021139406308271166,-0.009970197230293135,0.008509645018260178,0.9891123642122363
2011-04-18,1,0.0012181342421967827,0.0014430008453284664,-0.010617118294570554,0.004290628432198778,0.9894118799220033
2011-04-20,1,0.002035408596399814,0.0024073148497867295,-0.012541084890175568,0.0030759682163308834,0.9884492539938077
2011-04-25,1,0.001778297055971225,0.0020810100881825753,-0.012541084890175568,0.004921137871494588,0.9873050711938665
2011-04-27,1,0.0018216928475192004,0.0022084231377286316,-0.012541084890175568,0.008061799523574135,0.9872364307007472
2011-04-29,1,0.001599802989929611,0.002003300554456236,-0.013334478486275666,0.008061799523574135,0.9873582660251365
2011-05-03,1,0.0009829461189489745,0.0013316367246467647,-0.013334478486275666,0.01052246394056163,0.9864663177305583
2011-05-05,1,0.001234575339343455,0.0016358161222103469,-0.014627144389514471,0.01052246394056163,0.9859918548187658
2011-05-09,1,0.0012538914298170414,0.001592045593807139,-0.017407434086452827,0.0005484427877350965,0.985347292504237
2011-05-11,1,0.001117794516857589,0.0014366191202411518,-0.014627144389514471,-0.0027942806515727095,0.9866832996773969
2011-05-13,1,0.001249743983023016,0.0015984333956364726,-0.01419227308140735,-0.0030211710549107487,0.9866246642577537
2011-05-17,1,0.0008016146010269252,0.0011198570050930563,-0.01419227308140735,0.0005484427877350965,0.9848776767759873
2011-05-19,1,0.0008649195857751687,0.0012085352658062591,-0.021056763774892948,-0.0030211710549107487,0.9841560630302328
2011-05-23,1,0.0012706834649567002,0.001664560842788518,-0.021056763774892948,0.00026707140169093986,0.9838352769840805
2011-05-25,1,0.0016658851021040847,0.002137995942991423,-0.021056763774892948,0.00952959497771647,0.9817380351605856
2011-05-27,1,0.0006860019654903522,0.0009886180685207534,-0.022009099406407336,0.00952959497771647,0.981399622878241
2011-06-01,1,0.0008189732866296251,0.0011700448688089105,-0.021056763774892948,0.00952959497771647,0.9827378336458249
2011-06-03,1,3.055044110190355e-05,0.00021664580496264744,-0.011577936647786733,0.013887013746990676,0.9817642899179065
2011-06-07,-1,-0.0003300283414422167,-0.00019921654080462498,-0.008834243829731,0.013887013746990676,0.9820758864307614
2011-06-09,0,-0.0001688591477094698,2.410582329917142e-06,-0.008834243829731,0.01842364289340346,0.9806998358649021
2011-06-13,-1,-0.0008738778043745181,-0.0008433820278518826,-0.01072931028207397,0.01842364289340346,0.9802978328010588
2011-06-15,-1,-0.003848218642794365,-0.003487683992397937,-0.009129460361492241,0.017243966393259057,0.9824161885846567
2011-06-17,-1,-0.004275913814379874,-0.0039026554108628165,-0.008579955301125684,0.017243966393259057,0.9828858767990514
2011-06-21,-1,-0.002337304477901098,-0.0022400360191149413,-0.008579955301125684,0.017243966393259057,0.9837256359880169
2011-06-23,1,9.783888133064892e-05,0.0002151007342466714,-0.009129460361492241,0.017243966393259057,0.9811402848546416
2011-06-27,-1,-0.0009677230023007905,-0.0009420675310062906,-0.007165263768667915,0.017243966393259057,0.9815785224948619
2011-06-29,-1,-0.00018831338918615993,-0.0001190169412355007,-0.009129460361492241,0.01489877424160108,0.981372306517577
2011-07-01,1,0.0006263046418828579,0.0008014696817123518,-0.01072931028207397,0.0096072362820878,0.9824560894295645
2011-07-06,1,0.0002943565268470576,0.00043859956620025505,-0.018979183790050782,0.0096072362820878,0.9794028464474834
2011-07-08,1,0.0009339478438409716,0.0011504417179895045,-0.026907559302453008,0.0060664755811840184,0.9783384645157757
2011-07-12,1,0.000830447707992444,0.000862991502110346,-0.03067593825633035,0.007893081843424975,0.9728143356220246
2011-07-14,1,0.0008385410553844345,0.0008867430199132529,-0.03067593825633035,0.007893081843424975,0.9708878139820394
2011-07-18,-1,-0.0009491504501805395,-0.0006079863403254813,-0.03067593825633035,0.01681818653001855,0.970602601172804
2011-07-20,-1,-0.0009414587298976816,-0.0006054405739902736,-0.03445721426443162,0.01295669859617713,0.9696050710565035
2011-07-22,-1,-0.001733131044624076,-0.0012596002966185173,-0.03993241295094834,0.009265777835523112,0.9693253259500552
2011-07-26,-1,-0.0009130277951748492,-0.0005241309657689052,-0.03993241295094834,0.01295669859617713,0.9665370759004425
2011-07-28,-1,-0.0025367603316509826,-0.001990665693807678,-0.03993241295094834,0.015406800390585123,0.9667037289765485
2011-08-01,-1,-0.0032730028730835574,-0.002656445237340632,-0.03993241295094834,0.024879033942829854,0.9639395367650905
2011-08-03,-1,-0.00587376986069287,-0.004931505341064334,-0.024709259454419985,0.024879033942829854,0.9668621649497537
2011-08-05,-1,-0.008454885069159443,-0.007149352229338291,-0.031477973161368085,0.024879033942829854,0.9660589962014471
2011-08-09,-1,-0.00971212674282585,-0.008281409673770787,-0.02259226684814321,0.024879033942829854,0.9687074267826407
2011-08-11,-1,-0.008603587472987579,-0.0073332057288133645,-0.025907929240702142,0.01997000117357645,0.9700132893433743
2011-08-15,0,0.0,0.0,-0.025907929240702142,0.015991737537798117,0.9710758388199626
2011-08-17,0,0.0,0.0,-0.01848426621743003,0.020627605807801184,0.9713011818334244
2011-08-19,0,0.0,0.0,-0.011801403223997597,0.020627605807801184,0.9762616142798086
2011-08-23,0,0.0,0.0,-0.021307515412075914,0.015991737537798117,0.9774003807507152
2011-08-25,-1,-0.008476232697748984,-0.0074096671659224945,-0.024764264584421686,0.013984002824545896,0.9764290148775087
2011-08-29,-1,-0.00543822221421972,-0.004742831454567652,-0.024764264584421686,0.013984002824545896,0.9773012394061082
2011-08-31,-1,-0.005340164072744517,-0.0047462357953088966,-0.02730700697187126,0.013984002824545896,0.9746924783852325
2011-09-02,-1,-0.007678117597521086,-0.006845416778574691,-0.028024250951408217,0.013984002824545896,0.9728921727003911
2011-09-07,-1,-0.004334507178279446,-0.004002652114827222,-0.028024250951408217,0.015568482123350933,0.9726034810973032
2011-09-09,-1,-0.0035023233474424167,-0.003362564573604871,-0.028024250951408217,0.017982950912810398,0.9715042143672449
2011-09-13,-1,-0.0020000641068627597,-0.001897837412340113,-0.028024250951408217,0.024651005275613938,0.9706788390727482
2011-09-15,-1,-0.0004469693871104722,-0.0001295330521992648,-0.028024250951408217,0.024651005275613938,0.9702467034441664
2011-09-19,-1,-0.0008889475159875607,-0.0006457096941392993,-0.03317335913915791,0.024651005275613938,0.9699327134282683
2011-09-21,-1,-0.002479185448611017,-0.0024713822723517217,-0.03317335913915791,0.03730569955367668,0.9680313123336298
2011-09-23,-1,-0.0038477242307751723,-0.003653794300960714,-0.011156674396731554,0.047398472228164616,0.965176387698957
2011-09-27,-1,-0.0014848271187298016,-0.0013817361882583897,-0.014251903810080907,0.03912279772433766,0.9678129301141083
2011-09-29,-1,-0.0031090095343977455,-0.003056337570109499,-0.0029349890522465715,0.04348150614517443,0.9678918576712061
2011-10-03,-1,-0.00713538843148037,-0.006631499227373986,-0.0013336186256896533,0.04348150614517443,0.9699427921720702
2011-10-05,-1,-0.004150124967463081,-0.003978362572664724,-0.0013336186256896533,0.03732046442666644,0.9730050896109443
2011-10-07,-1,-0.0025463855238588022,-0.002522170894003344,-1.1554889348039431e-05,0.03732046442666644,0.9722576968506325
2011-10-11,-1,-0.0009548107543934697,-0.0007659615995605024,-0.0029349890522465715,0.03732046442666644,0.9739847047815275
2011-10-13,1,0.0015735451767331322,0.00212941959053356,-0.005163990175678812,0.02911852691768824,0.974569141314401
2011-10-17,1,1.1760937237000665e-05,0.0003698637961800932,-0.005163990175678812,0.02911852691768824,0.9747004527087265
2011-10-19,1,0.002275877716323843,0.0028996113337647136,-0.010903471259176555,0.025098593492210122,0.9771917553261091
2011-10-21,1,0.00593302663307457,0.007035292985086281,-0.01569119911763413,0.02277687890917744,0.9781571785823314
2011-10-25,0,0.0,0.0,-0.01569119911763413,0.02277687890917744,0.9784825790161349
2011-10-27,0,0.0,0.0,-0.020380348772430588,0.012104214209524074,0.9781657905615941
2011-10-31,0,0.0,0.0,-0.020380348772430588,0.025098593492210122,0.9746701821027643
2011-11-02,0,0.0,0.0,-0.020380348772430588,0.025098593492210122,0.9743659382904847
2011-11-04,1,0.012401611936382922,0.014008667850857654,-0.025164206488810993,0.02277687890917744,0.9718163126146808
2011-11-08,1,0.010252303327405485,0.011460629538269176,-0.020380348772430588,0.02277687890917744,0.972743016717826
2011-11-10,1,0.00989323882574888,0.011124837724301184,-0.020380348772430588,0.024756956468137213,0.9727026910311595
2011-11-14,1,0.011200318352661331,0.012739816947625604,-0.026859952431808897,0.01949675778807105,0.9719312306627297
2011-11-16,1,0.009292109380377089,0.010501483039364965,-0.026859952431808897,0.01949675778807105,0.9725640430234616
2011-11-18,1,0.0071050940521706196,0.008062526360027935,-0.022889009212287138,0.01949675778807105,0.9753781583421256
2011-11-22,1,0.007848577997496988,0.009013119523607994,-0.022889009212287138,0.026341531881794937,0.9742449505608803
2011-11-25,1,0.005842612232937756,0.006733054630253324,-0.013827756070615397,0.026341531881794937,0.9770590164715306
2011-11-29,1,0.010264926797876078,0.011815922390305725,-0.021465112260609084,0.01486881278811253,0.9777903687444004
2011-12-01,1,0.011344964766605289,0.012989037098805821,-0.021465112260609084,0.014652202077360274,0.9773540467992454
2011-12-05,1,0.010161136294040057,0.011644899009294867,-0.016163800998628665,0.014652202077360274,0.9812370380525942
2011-12-07,1,0.008467113411120886,0.009794914043697275,-0.016163800998628665,0.022694018098252965,0.9800042930882047
2011-12-09,1,0.008644215125006346,0.01005233685379972,-0.008142776286402753,0.022394722913612566,0.9819088436286095
2011-12-13,1,0.00647024429462427,0.007590697909320908,-0.005866005681883504,0.022839143198633352,0.9824008009480248
2011-12-15,0,0.0,0.0,-3.539458862860398e-05,0.022839143198633352,0.9813166611311844
2011-12-19,0,0.0,0.0,0.002337025001972087,0.022839143198633352,0.9815842442642279
2011-12-21,0,0.0,0.0,-3.539458862860398e-05,0.022394722913612566,0.9831466809409983
2011-12-23,0,0.0,0.0,-0.0006478661872083352,0.022394722913612566,0.9835304012927855
2011-12-28,1,0.0018123349547974864,0.001924888625484691,0.001751329878519418,0.022839143198633352,0.9840000539187713
2011-12-30,1,0.002776404404027308,0.0028972511154114703,0.001751329878519418,0.022394722913612566,0.9860123120632162
2012-01-04,1,0.0038438701433765217,0.004139044055515273,0.003047018480910401,0.022394722913612566,0.9826783434847758
2012-01-06,1,0.006992895285758662,0.007747992035694902,0.0013912120283079848,0.017986982968430116,0.985755471079711
2012-01-10,1,0.006655449409475454,0.0073159466086666885,0.003047018480910401,0.013397428138349115,0.9866724575949296
2012-01-12,1,0.005111763589938786,0.00521712976330184,0.0005702561555097619,0.012068949272790182,0.985734824369665
2012-01-17,1,0.006006620189508221,0.006382264859627802,0.0005702561555097619,0.013397428138349115,0.9853293028059824
2012-01-19,1,0.005972597761669597,0.006301062062131142,-0.001999076924578003,0.014558409894606694,0.98334174791675
2012-01-23,1,0.0068882065476669335,0.007513627394348092,-0.00578203054986954,0.014558409894606694,0.9832317135816159
2012-01-25,1,0.0063377336440039195,0.006833452961628434,-0.0068969185307292446,0.021976326290103283,0.9819879682948345
2012-01-27,1,0.006095058279609835,0.00638204358055784,-0.010057303197288729,0.015791024555161202,0.9821270621626172
2012-01-31,1,0.007315101425833265,0.007881156358224794,-0.011241137318298282,0.015791024555161202,0.9804416831620816
2012-02-02,1,0.009739775532886859,0.01056513206321073,-0.011241137318298282,0.015791024555161202,0.9826590994803164
2012-02-06,1,0.010270301052661664,0.011178065730627035,-0.012648275268869306,0.01395142489960835,0.9819005989842134
2012-02-08,1,0.01097676347248055,0.012042664935892494,-0.012648275268869306,0.015791024555161202,0.9811558836666995
2012-02-10,1,0.009239215685535684,0.010011664489298227,-0.01203757203812245,0.015791024555161202,0.9821914710122002
2012-02-14,1,0.008163349563892554,0.008673910939417384,-0.015249246732845851,0.01395142489960835,0.9817641926997139
2012-02-16,1,0.00764043525519486,0.007985956730861065,-0.017002469474270438,0.01387178811293886,0.9822512078877872
2012-02-21,1,0.007346509110462274,0.007762477797730703,-0.017002469474270438,0.01387178811293886,0.9829050598607852
2012-02-23,1,0.005958775417068112,0.006053169126476202,-0.017002469474270438,0.01387178811293886,0.982752136435743
2012-02-27,1,0.0015099805362038116,0.0021790490838541204,-0.01155245189398369,0.01323861986571495,0.9845076532187017
2012-02-29,1,0.001765160793044755,0.0022777888093232015,-0.01155245189398369,0.012640208082519687,0.9852238226411723
2012-03-02,1,0.0034881352242834055,0.0037263522986007947,-0.01155245189398369,0.007079045381714893,0.9864262190033962
2012-03-06,1,0.0030481774718618014,0.00329702542215883,-0.006383154295721899,0.007079045381714893,0.9865444118608129
2012-03-08,1,0.005163901542405871,0.005277241254832063,-0.01594688015130406,0.004897338112168179,0.9831803992555699
2012-03-12,1,0.003051710254029674,0.003333315426820785,-0.017029389642801637,0.004897338112168179,0.9823169830638235
2012-03-14,1,0.0033615270372892485,0.0034940861789711725,-0.011615083398929768,0.006389405745679611,0.9811849296405074
2012-03-16,0,0.0,0.0,-0.006383154295721899,0.0185161885456478,0.9807221535600951
2012-03-20,0,0.0,0.0,-0.00788971805145941,0.032309572093398395,0.9785586909854089
2012-03-22,0,0.0,0.0,-0.00895423836738611,0.01914910380931029,0.9799534968185646
2012-03-26,0,0.0,0.0,-0.00895423836738611,0.020980370778703086,0.9790765009843337
2012-03-28,0,0.0,0.0,-0.0054962059518740124,0.032309572093398395,0.978228882052968
2012-03-30,0,0.0,0.0,-0.00895423836738611,0.03741024086155512,0.9744863278647969
2012-04-03,0,0.0,0.0,-0.00895423836738611,0.037143243756151814,0.974145773139753
2012-04-05,0,0.0,0.0,-0.010357240897412743,0.037143243756151814,0.9752275492324001
2012-04-10,0,0.0,0.0,-0.009757697047199978,0.037143243756151814,0.9764237722557086
2012-04-12,0,0.0,0.0,-0.009757697047199978,0.03126446022395706,0.977260423787993
2012-04-16,0,0.0,0.0,-0.01270178368348797,0.021655255463025328,0.9790711146380952
2012-04-18,0,0.0,0.0,-0.01270178368348797,0.018066546360919748,0.9802239508619625
2012-04-20,1,0.0036155688278578036,0.003759249649722931,-0.026974922786338083,0.018066546360919748,0.9761370217464973
2012-04-24,1,0.004174179641705386,0.004244753648967951,-0.031129732026284548,0.021655255463025328,0.9725235981483539
2012-04-26,0,0.0,0.0,-0.031129732026284548,0.020210527081683267,0.9724907984186913
2012-04-30,0,0.0,0.0,-0.031129732026284548,0.01229089697638589,0.9742234621755761
2012-05-02,1,0.004272609994553986,0.004279340570387269,-0.03477962453718385,0.005792577980828318,0.9717459928883381
2012-05-04,1,0.0014377776233080726,0.0018008970526639024,-0.03842818919718042,0.010139345727178412,0.9714356415871254
2012-05-08,0,0.0,0.0,-0.03842818919718042,0.01899366495865621,0.9703292233614119
2012-05-10,0,0.0,0.0,-0.04298420362603009,0.01899366495865621,0.9684411947597227
2012-05-14,0,0.0,0.0,-0.04298420362603009,0.021498115443596155,0.9663104096145828
2012-05-16,0,0.0,0.0,-0.04298420362603009,0.024727671747900862,0.9658640830985801
2012-05-18,0,0.0,0.0,-0.035762778353117315,0.024727671747900862,0.9703771833505347
2012-05-22,0,0.0,0.0,-0.0301458117133514,0.024457679720043222,0.9729759951119058
2012-05-24,0,0.0,0.0,-0.035762778353117315,0.02711560383792988,0.9705740541614565
2012-05-29,0,0.0,0.0,-0.0301458117133514,0.02805931896670432,0.9711564412581764
2012-05-31,0,0.0,0.0,-0.02176438869918517,0.02805931896670432,0.9709575730131703
2012-06-04,0,0.0,0.0,-0.009453376020057282,0.028620532572006526,0.9719011948702225
2012-06-06,0,0.0,0.0,-0.009453376020057282,0.02805931896670432,0.9739327136029204
2012-06-08,1,0.0006281976874777167,0.0006673850075973266,-0.006620517457075482,0.02805931896670432,0.9754213493421696
2012-06-12,0,0.0,0.0,-0.006620517457075482,0.027249342883131404,0.9771868201570735
2012-06-14,0,0.0,0.0,-0.005772770156946404,0.02411774580325723,0.9780060617762573
2012-06-18,0,0.0,0.0,-0.005772770156946404,0.02714265275704189,0.9770531825834593
2012-06-20,0,0.0,0.0,-0.005857346012550236,0.02812283091293761,0.9766674193928289
2012-06-22,0,0.0,0.0,-0.00748777338654371,0.02441478675022688,0.9801897976745717
2012-06-26,0,0.0,0.0,-0.00748777338654371,0.023043491638792456,0.9816556317810747
2012-06-28,0,0.0,0.0,-0.005970251270720177,0.02441478675022688,0.980092968954466
2012-07-02,0,0.0,0.0,-0.00658377963337691,0.023043491638792456,0.9821655366061917
2012-07-05,0,0.0,0.0,-0.009030744808478125,0.016243628778006513,0.9826129147172761
2012-07-09,0,0.0,0.0,-0.009030744808478125,0.024249821254700443,0.9817211606700658
2012-07-11,0,0.0,0.0,-0.006484575078031649,0.024249821254700443,0.9817785773417419
2012-07-13,0,0.0,0.0,-0.006484575078031649,0.02812283091293761,0.9809161820458797
2012-07-17,0,0.0,0.0,-0.006484575078031649,0.023320082497597816,0.9830048198766314
2012-07-19,0,0.0,0.0,-0.004706737078000499,0.016621210971407965,0.9836529164752598
2012-07-23,0,0.0,0.0,-0.0036388796225007318,0.023804900364692523,0.9824968983525143
2012-07-25,1,0.00011057738736786982,0.00012711479730788655,-0.002343988334462479,0.023804900364692523,0.9818666113009648
2012-07-27,1,0.002185708557207006,0.0024501373653581077,-0.005522392136367572,0.016621210971407965,0.984925959227563
2012-07-31,1,0.003234551210066097,0.0036925788506689114,-0.005529608853919724,0.016621210971407965,0.9855770936327487
2012-08-02,1,0.0021769052668008807,0.002479890702957992,-0.005529608853919724,0.016621210971407965,0.9839356316253866
2012-08-06,1,0.0038015641542986415,0.004300141766275597,-0.0061765751664790425,0.013089611033095172,0.9856657745457563
2012-08-08,1,0.003651986491634401,0.0040884017243945706,-0.007222525376021034,0.012378030289876774,0.9851975399826682
2012-08-10,1,0.005146791193495133,0.005773383413375523,-0.018369354784876297,0.005754837878703448,0.9831296904086878
2012-08-14,1,0.005029957973111774,0.005734843203708713,-0.018369354784876297,0.008771749580203693,0.9833684999622638
2012-08-16,1,0.005189117233942347,0.005873782396476983,-0.018369354784876297,0.008692771364288754,0.9836794266002358
2012-08-20,1,0.004744436579241083,0.005325411379675278,-0.023879674563697176,0.005966482320144579,0.9843251542271807
2012-08-22,1,0.004991292536647852,0.005591946208370483,-0.023879674563697176,0.005966482320144579,0.9840703226455916
2012-08-24,1,0.00424402361515865,0.004784308770653271,-0.011521505952596475,0.008692771364288754,0.9852600759390197
2012-08-28,1,0.002616573528026478,0.0028430076693749333,-0.019513962307117973,0.008692771364288754,0.9851699654831869
2012-08-30,1,0.0012046563980194825,0.001204660746298321,-0.019513962307117973,0.011045940705467978,0.9844675684364873
2012-09-04,1,0.002224659461085695,0.0024662004202114065,-0.023879674563697176,0.008692771364288754,0.9837987131664762
2012-09-06,1,0.0022367179715128355,0.0025364102202753195,-0.019513962307117973,0.008692771364288754,0.9845613592401325
2012-09-10,1,0.0006728840071705249,0.0008005784223476349,-0.009359262074186019,0.008692771364288754,0.9867165667067118
2012-09-12,1,0.0008915952583416286,0.0010491273630587401,-0.01654175950067246,0.007651727980096454,0.985018702653401
2012-09-14,1,0.0018477774340798997,0.0021673877751384133,-0.01654175950067246,0.006205660122414154,0.9849864617067576
2012-09-18,1,0.0016222055601272495,0.0019698282650010817,-0.014258370037328515,0.008191339366585105,0.9858326714690022
2012-09-20,1,0.0023839290154337393,0.00284485922178772,-0.014843465277404756,0.006205660122414154,0.9856882939262419
2012-09-24,1,0.003887901596957614,0.004595702566444362,-0.014843465277404756,0.005471734867743578,0.9862049370339256
2012-09-26,1,0.0023417364797047114,0.002745105417824009,-0.014843465277404756,0.0018503876241886966,0.986591187069862
2012-09-28,1,0.002231871251079472,0.002632131469782725,-0.013861693327095725,0.0018503876241886966,0.9884826129913575
2012-10-02,1,0.002388100957887091,0.002858660309712889,-0.013861693327095725,0.0018503876241886966,0.9874907206948718
2012-10-04,1,0.0020914466901760117,0.0025230662463468618,-0.013861693327095725,0.0071633529876917,0.9865535724194954
2012-10-08,1,0.0011496200573858167,0.0013842852980101112,-0.014843465277404756,0.013292660338475822,0.9837720367107394
2012-10-10,-1,-0.0012863520472115616,-0.0010836057873168912,-0.009477302898582235,0.013292660338475822,0.9849557864453706
2012-10-12,-1,-0.0009641271828041641,-0.0007939095575713838,-0.015338802468321405,0.013292660338475822,0.9834446850073671
2012-10-16,-1,-0.0011794835894773845,-0.000985034059285733,-0.018154844147672197,0.011092001915817445,0.982318560318652
2012-10-18,-1,-0.0026133877537415774,-0.002184644431435722,-0.018154844147672197,0.011092001915817445,0.9830022393776345
2012-10-22,-1,-0.0027095249598117037,-0.002221092522502568,-0.018154844147672197,0.009171636834092447,0.9828315208688311
2012-10-24,-1,-0.004151509637362079,-0.003433147653568471,-0.01737906509498762,0.011299019966471964,0.9823057034061925
2012-10-26,-1,-0.0031299632928563593,-0.0026126380946483144,-0.01912640291390663,0.009171636834092447,0.9807488929007234
2012-11-01,-1,-0.0023352905996294514,-0.0019019211763435914,-0.01737906509498762,0.005612642134299949,0.9823842714345573
2012-11-05,-1,-0.002174965978596912,-0.0017555224674914065,-0.01737906509498762,0.009171636834092447,0.9813542416347572
2012-11-07,-1,-0.0028948065004525446,-0.0023580287824438457,-0.016798649445292316,0.010007811782018119,0.9814239416805458
2012-11-09,-1,-0.0028165905593098236,-0.002313062503822462,-0.01169896773451001,0.012797156956730133,0.981494733851195
2012-11-13,-1,-0.002880610707410158,-0.0023918563386410006,-0.01169896773451001,0.012797156956730133,0.9807759868088471
2012-11-15,-1,-0.004378450402463599,-0.0036955261974891077,-0.007499575382672869,0.012797156956730133,0.9825136159616273
2012-11-19,-1,-0.004022603464618863,-0.003395268403804769,-0.007499575382672869,0.020131415327037636,0.9800322865150766
2012-11-21,-1,-0.005414565593423971,-0.004559811190447309,-0.006415508015864921,0.023314591540223483,0.9786279451784743
2012-11-26,-1,-0.003933380049379876,-0.0033154609635249626,-0.006415508015864921,0.023259056754089392,0.9800994470089627
2012-11-28,-1,-0.0051911553179996095,-0.004456729266730743,-0.005584719848196218,0.023259056754089392,0.9818494269082447
2012-11-30,-1,-0.0048182574579840026,-0.004202242743076937,-0.004097970514787289,0.023259056754089392,0.9813980564354574
2012-12-04,-1,-0.003420860781736098,-0.0029055688523670275,-0.005584719848196218,0.023259056754089392,0.98161896714988
2012-12-06,-1,-0.0011947695477972147,-0.0009692293750933536,-0.005584719848196218,0.014773098897195672,0.985649064251584
2012-12-10,-1,-0.0006207205875702402,-0.0005217133832069651,-0.004097970514787289,0.014773098897195672,0.9836704248671084
2012-12-12,-1,-0.002183000339159554,-0.0018886093082479617,-0.004097970514787289,0.014773098897195672,0.9848219632136956
2012-12-14,-1,-0.0019206990999785464,-0.0016660372306421967,-0.0035394797200864287,0.016876239313675767,0.9831784604375405
2012-12-18,-1,-0.00030163093118478363,-0.00018778145986630284,-0.004877552590519769,0.016876239313675767,0.9854675644545473
2012-12-20,0,0.0,0.0,-0.004877552590519769,0.016876239313675767,0.9832307726747761
2012-12-24,0,0.0,0.0,-0.0048812424303476985,0.016876239313675767,0.9816801197228351
2012-12-27,1,0.0008384948324985795,0.0009424450974364584,-0.003304987247470255,0.016876239313675767,0.9817768890702532
2012-12-31,1,0.0020388025261350463,0.002421523990637933,-0.003304987247470255,0.015924962377725563,0.9787406432267586
2013-01-03,1,0.0034311273119646025,0.004042378610619626,-0.003304987247470255,0.011335990826132528,0.9816121389434219
2013-01-07,1,0.0043134839376510956,0.005129088982065185,-0.003304987247470255,0.011335990826132528,0.981931345352884
2013-01-09,0,0.0,0.0,-0.0016031225461450908,0.011335990826132528,0.9827222051835015
2013-01-11,1,0.006364143909305486,0.007477411873254739,-0.0016031225461450908,0.015676977847658657,0.9836587683859465
2013-01-15,1,0.007763737405179034,0.009091806252421952,-0.005763058607168267,0.01028652091505046,0.9833379870019541
2013-01-17,0,0.0,0.0,-0.009481370013701005,0.00970659958546169,0.983134092365926
2013-01-22,1,0.010110604344730312,0.011688431421169876,-0.010947116548337358,0.005257010242714294,0.9805862807339237
2013-01-24,1,0.009174621579592864,0.010607309018239728,-0.010947116548337358,0.004404904288594375,0.9816480743499615
2013-01-28,0,0.0,0.0,-0.012666172360926422,0.004079207696289436,0.983332418889284
2013-01-30,0,0.0,0.0,-0.010947116548337358,0.006836194759709698,0.9866201941085443
2013-02-01,1,0.004425249617273459,0.005100799519274954,-0.010947116548337358,0.006836194759709698,0.986992566806952
2013-02-05,1,0.0035364823127465718,0.003968186160143553,-0.010947116548337358,0.01110874750147999,0.9860278332148118
2013-02-07,1,0.004490140895483043,0.005054552268632918,-0.012666172360926422,0.00940133226339513,0.9851734542904211
2013-02-11,1,0.004447994659937149,0.005043881179891065,-0.011493776205665869,0.01110874750147999,0.9836961756612154
2013-02-13,1,0.004048847179945197,0.0045316003742425955,-0.010074034320094783,0.016022807998004478,0.9837152892065204
2013-02-15,1,0.00371540651244629,0.004185301286943795,-0.010258996380365632,0.016022807998004478,0.983640922403217
2013-02-20,1,0.002710010062346133,0.0031201616307595607,-0.010258996380365632,0.016319353950524605,0.9844280596012898
2013-02-22,1,0.001982334148175844,0.002261095541768624,-0.009573321206388319,0.016319353950524605,0.9846057895072952
2013-02-26,1,0.0017890235272573101,0.0020292275371266407,-0.003438764860666687,0.01742633504295727,0.9851994728721567
2013-02-28,1,0.0018290031618970904,0.0020439176544227973,-0.004619463519016995,0.017576064080222432,0.9850521889508225
2013-03-04,1,0.0014618104911480784,0.001600908528397384,-0.005449290580441302,0.017576064080222432,0.9848044731680358
2013-03-06,1,0.0020131871324560926,0.0021972260156745416,-0.007543566060980161,0.016319353950524605,0.9855400845748148
2013-03-08,1,0.0006832710049673232,0.0007457916359483673,-0.007543566060980161,0.016319353950524605,0.9851902821788681
2013-03-12,1,0.003383022663826108,0.003671293848076804,-0.007543566060980161,0.016319353950524605,0.9868967895232948
2013-03-14,1,0.0032361045983989034,0.003503064622390946,-0.012109467781638683,0.013997768353125821,0.9854591182763969
2013-03-18,1,0.0023360304273671627,0.0024356870105427613,-0.012109467781638683,0.015708911934094058,0.9840282077374618
2013-03-20,1,0.0019261631096972077,0.0019960538762620076,-0.013613431495914529,0.013806124446792677,0.9838949208721113
2013-03-22,1,0.0013372471012962355,0.0013964030282486261,-0.013419600399467116,0.01515248935322974,0.9837080909549416
2013-03-26,1,0.0023731386047573613,0.0024400021639095,-0.013419600399467116,0.01515248935322974,0.983288080556211
2013-03-28,1,0.002836947795160221,0.0030020941330509477,-0.013419600399467116,0.013684531555282285,0.9842636047664738
2013-04-02,1,0.0027120062581901696,0.0028822945606103542,-0.013419600399467116,0.013696974378940944,0.9841771845269558
2013-04-04,1,0.0027479131290117148,0.0029201510847838693,-0.013419600399467116,0.01515248935322974,0.9812866083912339
2013-04-08,1,0.0022197927245606636,0.002298037064279695,-0.006720011695320929,0.018331240964449495,0.9803302732480792
2013-04-10,1,0.002820265899201841,0.0029211733196379125,-0.006720011695320929,0.01515248935322974,0.9820316465333189
2013-04-12,1,3.6526318612345975e-06,0.0003209091998908788,-0.004109816399078468,0.01515248935322974,0.9812683717587193
2013-04-16,-1,-0.0006406533348150012,-0.00025335720995322566,-0.004109816399078468,0.014559772968751803,0.9825707345847497
2013-04-18,-1,-0.002614763263812702,-0.0019694989757881253,-0.0013272258057567023,0.014559772968751803,0.9834036113308262
2013-04-22,-1,-0.001461047961111013,-0.0009832206980152796,-0.004109816399078468,0.015289083092242667,0.9836938290361251
2013-04-24,-1,-0.001526933735364976,-0.0009403547361855594,-0.004109816399078468,0.014715811522007701,0.9846866944633222
2013-04-26,-1,-0.0025218069532405196,-0.001767682555496447,-0.003678750059553924,0.01622832224497791,0.9835978885299863
2013-04-30,-1,-0.001126142143263137,-0.0006290826264656148,-0.0011835370259151877,0.01622832224497791,0.9837280275795638
2013-05-02,1,0.0027319598335869277,0.0028140596197560033,-0.0038622345398447067,0.01522200383046323,0.9873246894910664
2013-05-06,1,0.003673350614662096,0.0038731741837329317,-0.0038622345398447067,0.01522200383046323,0.9884654787269601
2013-05-08,1,0.0030461074971030303,0.00304855055318365,-0.005728026013085783,0.01522200383046323,0.9870760659484463
2013-05-10,1,0.0011190895544904613,0.001354880146807397,-0.0038622345398447067,0.01522200383046323,0.9892339046874891
2013-05-14,1,0.0024352645272600042,0.0024642813477180254,-0.003911259510058191,0.01522200383046323,0.9894247494086189
2013-05-16,1,0.0022109287160010423,0.002238034516451071,-0.003920419273666098,0.01522200383046323,0.9892254830480954
2013-05-20,1,0.002230400233587369,0.0022387918734349537,-0.0026840721190535127,0.01522200383046323,0.9895886506218851
2013-05-22,1,0.0028556375546613206,0.002932983538087614,-0.006538942349621036,0.011150971033910596,0.9881000674442836
2013-05-24,1,0.0029981232112684312,0.003097670336416434,-0.013522397227655898,0.009518124973452273,0.9870557343704065
2013-05-29,1,0.003881651104326085,0.004124994133647518,-0.013522397227655898,0.009518124973452273,0.9862440426107659
2013-05-31,1,0.0029683106595333945,0.0030902636488026433,-0.009705057505842616,0.01181742293114547,0.9853047503199448
2013-06-04,1,0.005114709459525895,0.005636692414247455,-0.009705057505842616,0.009518124973452273,0.9856519438134668
2013-06-06,1,0.004227664083648176,0.004593279554005603,-0.006538942349621036,0.010494428305591278,0.9865850294397212
2013-06-10,1,0.0044848525216768,0.004946488959900132,-0.006538942349621036,0.010494428305591278,0.9866172758699282
2013-06-12,1,0.00405909305090115,0.004480423407690016,-0.00590707624379772,0.01129193136728123,0.9870979807082854
2013-06-14,1,0.005364643620512106,0.0061210027602736465,-0.00559997828240383,0.01129193136728123,0.9876586321665476
2013-06-18,0,0.0,0.0,-0.00559997828240383,0.008610578468541226,0.9878055309988395
2013-06-20,0,0.0,0.0,-0.0027931290049779886,0.011160007180773583,0.989297840939347
2013-06-24,0,0.0,0.0,-0.0027931290049779886,0.011160007180773583,0.9888543125779985
2013-06-26,1,0.002567041817568142,0.002656622192850026,-0.00559997828240383,0.008610578468541226,0.987634448903349
2013-06-28,1,0.004044297762131864,0.0043386865108327455,-0.015615592304998436,0.006617844766686227,0.9868434874744512
2013-07-02,1,0.0044653357087281855,0.004852505945964692,-0.015615592304998436,0.006617844766686227,0.9861347978338547
2013-07-05,1,0.004707693025175523,0.005136228967101597,-0.016950989414346022,0.006617844766686227,0.9850003000936105
2013-07-09,1,0.004424310842835411,0.004800089907379518,-0.016950989414346022,0.005370762954723873,0.9842722085868476
2013-07-11,1,0.004272371780760351,0.004580852890847017,-0.016950989414346022,0.005370762954723873,0.9834951924248133
2013-07-15,1,0.0031598922634589904,0.003195221686399443,-0.016950989414346022,0.00631021473079895,0.9835969792807427
2013-07-17,1,0.0022706117862376965,0.0023986258526677616,-0.016950989414346022,0.00631021473079895,0.9836666921678447
2013-07-19,1,0.0021619894112454765,0.002338450885161241,-0.01988246797450686,-0.00212723122917991,0.9819093377960129
2013-07-23,0,0.0,0.0,-0.016950989414346022,0.001985100712448921,0.9843362589687906
2013-07-25,0,0.0,0.0,-0.012302461299283859,0.011642053794845815,0.9865316244652301
2013-07-29,-1,-0.001417198918599105,-0.0013196409849440364,-0.008133475617421271,0.011642053794845815,0.9890319477207338
2013-07-31,-1,-0.003987578129464819,-0.003130789214559908,-0.008815217463716118,0.00991291114909306,0.9884209457763854
2013-08-02,-1,-0.0023837399455868555,-0.00184567082198081,-0.008815217463716118,0.007882643740935296,0.9890011437024937
2013-08-06,-1,-0.0026818124753392545,-0.0021483904336925047,-0.0059324611652587945,0.00991291114909306,0.9883156376670047
2013-08-08,-1,-0.002650856221410914,-0.0020890813172517214,-0.005108505491311863,0.009187238332743953,0.9890449658915869
2013-08-12,-1,-0.002732074658249194,-0.0021338332402217816,-0.005108505491311863,0.00991291114909306,0.9875771395868165
2013-08-14,-1,-0.0033364829328080344,-0.0026482089449167924,-0.011060250995788072,0.00991291114909306,0.9866746335148517
2013-08-16,-1,-0.004484419267259955,-0.0037111454881566695,-0.00388103884804773,0.012260946929458923,0.9867813732775574
2013-08-20,-1,-0.004108245387138868,-0.0034111202565703727,-0.0009402896008561272,0.010566925975734824,0.986781536969716
2013-08-22,-1,-0.003613546139871424,-0.0029570597828148283,-0.002819758600671961,0.009244495454936212,0.9880919318710872
2013-08-26,-1,-0.003708967288149299,-0.003039378462495415,-0.00782100093536212,0.010566925975734824,0.9868720436084234
2013-08-28,-1,-0.005306272045950731,-0.00442078219027706,-0.00782100093536212,0.014952949312994542,0.985550832778177
2013-08-30,-1,-0.004920722311836454,-0.004159257744844943,-0.002819758600671961,0.014952949312994542,0.9857195274459777
2013-09-04,-1,-0.005147261281820909,-0.0042764477018797115,-0.002819758600671961,0.018556218667718973,0.9844122725024145
2013-09-06,-1,-0.005565910231593566,-0.004602421827183681,-0.007165073996497042,0.018556218667718973,0.9843603763748816
2013-09-10,-1,-0.005024278238025809,-0.004052056986749033,-0.009143399913250486,0.011193141836429669,0.986329039502899
2013-09-12,-1,-0.005511814301866061,-0.004524020237077234,-0.007091472654666238,0.018108708860440123,0.9849729633256167
2013-09-16,-1,-0.0038347771385411115,-0.0031249858135493956,-0.007091472654666238,0.02112499002829088,0.9850736069560745
2013-09-18,-1,-0.003406877202828815,-0.0027389949415196897,-0.007594468179145047,0.02164492057964411,0.9849289064835074
2013-09-20,-1,-0.003586025073887398,-0.0029085771298497827,-0.007594468179145047,0.022330084926804643,0.9828947742146183
2013-09-24,-1,-0.0016380285506711976,-0.0013226266212973759,-0.007594468179145047,0.022330084926804643,0.9832485480930039
2013-09-26,1,0.0007115321908630896,0.0007786921904709422,-0.007594468179145047,0.02164492057964411,0.9856819313203797
2013-09-30,1,0.0012948484013144454,0.001453988474949869,-0.007594468179145047,0.022330084926804643,0.9853423541174376
2013-10-02,1,0.002083045917701766,0.0022543964313218832,-0.008266668948892995,0.022330084926804643,0.9849450777091435
2013-10-04,1,0.002022665001222942,0.0021992322608064096,-0.01001442737308324,0.022330084926804643,0.9843823588200871
2013-10-08,1,0.001006216547088325,0.0010304516312445128,-0.009555524905821159,0.022330084926804643,0.9845120434753268
2013-10-10,1,0.002039240178955717,0.002217796233465774,-0.016118886912047315,0.013390130505898244,0.9843441896635671
2013-10-14,1,0.0033410995191294106,0.003742391911819103,-0.016118886912047315,0.013390130505898244,0.9840194622134157
2013-10-16,1,0.004033639867752153,0.004554799250109972,-0.016118886912047315,0.012875721066493028,0.9843738813359743
2013-10-18,1,0.005734138457503338,0.006518269216880686,-0.01766549111923715,0.012875721066493028,0.9832858863030961
2013-10-22,1,0.00469367210727953,0.005301489810281932,-0.016118886912047315,0.012875721066493028,0.9835642201181154
2013-10-24,1,0.004838749457796327,0.005540162263387547,-0.014060893616259906,0.01303534592843342,0.9844305887233222
2013-10-28,1,0.00530583635893913,0.00603505747471624,-0.014060893616259906,0.010527682524630723,0.9851480896359507
2013-10-30,1,0.004910228372344858,0.005575209513155243,-0.010093453024649491,0.007880692832100484,0.9879876814285593
2013-11-01,1,0.004405115070794531,0.004979494799041303,-0.006606279245542893,0.007933901119413948,0.9886975935165946
2013-11-05,1,0.003853385188114682,0.004356747472665795,-0.004462520961486067,0.007933901119413948,0.9895031505184099
2013-11-07,1,0.0033000782081432983,0.0037856964320979805,-0.0030407886667048094,0.012093780000192244,0.989723586139584
2013-11-11,1,0.0029606311977037718,0.003297683716351618,-0.0030407886667048094,0.007933901119413948,0.9902510802855322
2013-11-13,1,0.0027642314765619676,0.0029891058524886835,-0.005257285522028099,0.006588830842785706,0.989533209244008
2013-11-15,1,0.003327537538790483,0.0036947478314579407,-0.003424030846752479,0.007933901119413948,0.9904212547632714
2013-11-19,1,0.003437185266207793,0.003917853490132413,-0.0028445134866285906,0.01100070698401824,0.9901085637906731
2013-11-21,1,0.0038070007805790325,0.004352149533895223,-0.003086138956199906,0.013033978792533615,0.9876956032590827
2013-11-25,1,0.004177968264929475,0.004793610130567695,-0.003086138956199906,0.013033978792533615,0.9875662505502556
2013-11-27,1,0.004492893911512363,0.005147026719400068,-0.003424030846752479,0.013033978792533615,0.9869591405666529
2013-12-02,1,0.005306184102013282,0.006092660438617237,-0.004426069262558585,0.012863328156693945,0.9865477080213855
2013-12-04,1,0.005470791830614519,0.006294393460183777,-0.005855852710121722,0.018084613371373067,0.9851530490700549
2013-12-06,1,0.006407483874424649,0.007349893996479777,-0.005855852710121722,0.018084613371373067,0.9851261548878438
2013-12-10,1,0.006334040534722248,0.007301818755368688,-0.005855852710121722,0.018084613371373067,0.9842894333540624
2013-12-12,1,0.004043998758582173,0.004601182006459722,-0.0036956270118535736,0.018084613371373067,0.9860812051343285
2013-12-16,1,0.004106156889848701,0.004521781290802643,-0.0036956270118535736,0.018084613371373067,0.9859946701110626
2013-12-18,1,0.003810444935555994,0.004072848006809168,-0.0029786720142166044,0.01449440701095606,0.987140834402565
2013-12-20,1,0.005850958695499472,0.006402183239149328,-0.0031986972890682922,0.0102054885953832,0.9896268027053026
2013-12-24,1,0.005770253783805794,0.0063083811972330425,-0.004803272467742087,0.0102054885953832,0.9874446638382133
2013-12-27,1,0.005003510786262801,0.005375587090888785,-0.00712845216167619,0.0102054885953832,0.9824890689379276
2013-12-31,1,0.00473159258839702,0.0051124515099046555,-0.00922162677221218,0.0102054885953832,0.9811270007169587
2014-01-03,1,0.004983681745962268,0.005405881237991708,-0.00922162677221218,0.008565631297037215,0.9806224625219593
2014-01-07,1,0.005737888400887044,0.0062289801989857535,-0.01858530668146159,0.007026329405529261,0.9794056873051761
2014-01-09,1,0.004114662310981906,0.0042776195801922335,-0.012089651019239481,0.006590139504782302,0.9816940230619535
2014-01-13,1,0.004004552926542735,0.004136724511450826,-0.012218090182382726,0.006899465267189153,0.9810592830744487
2014-01-15,1,0.005244168965142484,0.0055684667513490205,-0.012218090182382726,0.00289889629868789,0.9814327865261085
2014-01-17,1,0.005027582559688064,0.005305028854618154,-0.012218090182382726,0.00289889629868789,0.981164500316179
2014-01-22,1,0.003925463766868255,0.003971796421879994,-0.014660395292962881,0.006899465267189153,0.9805722132422643
2014-01-24,1,0.0015661576163254563,0.0018480111766886443,-0.011237041453483212,0.007963608328818013,0.9827169825404531
2014-01-28,-1,-0.002606289143089942,-0.0018641675541215003,-0.010294500586813249,0.008780889937332677,0.986970462951521
2014-01-30,-1,-0.0016648636805120394,-0.0010319119572601073,-0.009495901406971239,0.007963608328818013,0.9888643084110013
2014-02-03,-1,-0.0025726260598873,-0.0018999055842371887,-0.008728717226450444,0.008780889937332677,0.9892651439589201
2014-02-05,-1,-0.004871521687196781,-0.003882331849536656,-0.008728717226450444,0.008780889937332677,0.9876948762819951
2014-02-07,-1,-0.004432912350272286,-0.0035186022160595457,-0.009495901406971239,0.011813874937973853,0.9870172277316657
2014-02-11,-1,-0.004444769860825239,-0.003551217520128359,-0.008728717226450444,0.015200727495708964,0.9867705775635749
2014-02-13,-1,-0.004680206010972295,-0.0037385683487099843,-0.009804790991515185,0.015200727495708964,0.9860819359315024
2014-02-18,-1,-0.004617324732134072,-0.003695165290988577,-0.009804790991515185,0.017076549619759615,0.9848902301675467
2014-02-20,-1,-0.0037712141967918256,-0.003006771957239522,-0.006185807587758732,0.017076549619759615,0.985097924986113
2014-02-24,-1,-0.0028341663550608626,-0.0021952589110123552,-0.009167188548684129,0.017076549619759615,0.9858542927913891
2014-02-26,-1,-0.0014745332708551123,-0.001078558768407638,-0.006179240895328056,0.017076549619759615,0.9849625486379836
2014-02-28,-1,-0.0013795312778345878,-0.0009834915032942858,-0.009785090914223159,0.017076549619759615,0.9848018856514897
2014-03-04,-1,-0.0014308403941555629,-0.0009739333808909552,-0.009785090914223159,0.017294094154158012,0.9839265425108447
2014-03-06,-1,-0.0033438273071916174,-0.002708799301015855,-0.005051447522474142,0.017294094154158012,0.9855376093232064
2014-03-10,-1,-0.002785454198209563,-0.0022640485140895707,-0.006179240895328056,0.015578410455674872,0.9854918340850246
2014-03-12,-1,-0.0020814401204314516,-0.0016653050091788005,-0.006045241176115941,0.012263738825260235,0.9858911531431294
2014-03-14,-1,-0.001654627879078491,-0.0013657091645951575,-0.009465468085293423,0.012263738825260235,0.9854216725111068
2014-03-18,-1,-0.0006833492189916834,-0.0004753784494006169,-0.009465468085293423,0.011654189209249767,0.9860120984554585
2014-03-20,-1,-0.00019048533701558027,-1.435420716465745e-05,-0.009465468085293423,0.01151361993656156,0.9869389028599717
2014-03-24,1,0.00022147073696844843,0.0003034111979080642,-0.0039422058974795645,0.01151361993656156,0.9876833288100404
2014-03-26,1,0.001748525788974841,0.0018340864769441083,-0.011115328544354423,0.0056561294084886485,0.9885314467457765
2014-03-28,1,0.0010352493843849863,0.001059837626338396,-0.01269047360353322,0.0056561294084886485,0.9879261240509605
2014-04-01,1,0.0019181763170109667,0.0019687806523782632,-0.017664860263667356,0.003111207366264604,0.987841732989479
2014-04-03,1,0.0012732435852744453,0.0013664333736344535,-0.020370824543129926,0.0034541121562715474,0.9862122755567074
2014-04-07,-1,-0.0002533721416633529,-1.0431265450131476e-05,-0.012041177961582642,0.0034541121562715474,0.9879311020840368
2014-04-09,1,0.00047889741779727247,0.0006092947328394502,-0.014905304144489975,0.0013607419231863242,0.9873213084159806
2014-04-11,-1,-0.0012327831960408464,-0.0009076760011423793,-0.011338771903326352,0.004851051494841997,0.9893212693136239
2014-04-15,-1,-0.00084907903122808,-0.0005197335052520642,-0.011338771903326352,0.005537755085044472,0.9892141642839093
2014-04-17,-1,-0.00039115895829240177,-0.00012374904882290366,-0.011338771903326352,0.005537755085044472,0.9892868096078649
2014-04-22,-1,-0.00042947118356560505,-0.00016012423075799213,-0.014760846557504342,0.005759491033687383,0.9881088542473914
2014-04-24,-1,-0.001574836336545011,-0.0011883725303000715,-0.011338771903326352,0.0065727370568039525,0.9889313806668936
2014-04-28,-1,-0.002305420125311055,-0.0018612036389758365,-0.007864317408823557,0.008862453198313892,0.9881131026506448
2014-04-30,-1,-0.002365897807237235,-0.0019162857715249101,-0.00578509952481733,0.007090614177755038,0.9895988176490439
2014-05-02,-1,-0.0029150010807293646,-0.002453628235199916,-0.005055135996179421,0.008862453198313892,0.9905079935004869
2014-05-06,-1,-0.003757169671993308,-0.0031795649687245977,-0.0046275196318687865,0.008862453198313892,0.9904034974485448
2014-05-08,-1,-0.005289666085455632,-0.004474627108749744,0.0008381058065609724,0.010922021636643565,0.9880370949669728
2014-05-12,-1,-0.004017225959784761,-0.003422825114081801,-0.002771326829266515,0.010922021636643565,0.9890382605499913
2014-05-14,-1,-0.0022620605522540495,-0.001920806170671887,-0.0046275196318687865,0.009037536187969266,0.9911726852445835
2014-05-16,-1,-0.0009224183336797398,-0.0008451725178083361,-0.002771326829266515,0.010922021636643565,0.9904099126592976
2014-05-20,-1,-0.0009851351801035398,-0.0009119219348414412,-0.0013960645001399848,0.012873328639251903,0.9905499244656077
2014-05-22,-1,-0.0004713931827734614,-0.00045079194999200593,-0.0046275196318687865,0.012873328639251903,0.9907803901224697
2014-05-27,1,0.0008901707796161982,0.0010666530689485898,-0.0050469462766164295,0.01060801281504083,0.9922229168984266
2014-05-29,1,0.0009414951324674129,0.0011507018630458,-0.0050469462766164295,0.012873328639251903,0.9918764506464164
2014-06-02,1,0.0020796626094977807,0.0025117285373708097,-0.0050469462766164295,0.010854161816062047,0.9921131882164027
2014-06-04,1,0.001781268307043441,0.0021489483369400335,-0.002931279267306879,0.013691590956214663,0.9908061700196151
2014-06-06,1,0.0031352430880878996,0.0037018754752998367,-0.005081216061533361,0.00644360253667222,0.9917347810259396
2014-06-10,1,0.0033039434078640773,0.0039745897581491794,-0.004700143759454722,0.00644360253667222,0.9921921630094381
2014-06-12,1,0.0032912860718361985,0.003974833384302512,-0.003828426037319319,0.010085923466368786,0.9924070446117864
2014-06-16,1,0.0043236986413834185,0.005139321558132024,-0.003828426037319319,0.005456111061272643,0.9930160361495554
2014-06-18,1,0.004287528992997032,0.005015839840017005,-0.004700143759454722,0.0044184849981107575,0.9907828503712653
2014-06-20,1,0.002103172403524974,0.0023183578600060734,-0.003828426037319319,0.0044184849981107575,0.9912978530453159
2014-06-24,1,0.0024055664536545224,0.002727251363878256,-0.0035735420295788323,0.007123449040170053,0.9912170242981392
2014-06-26,1,0.0020170329363133335,0.002201113120007659,-0.0035735420295788323,0.006135994760726949,0.9914961049222922
2014-06-30,1,0.00115556769470303,0.0011712522261163017,-0.003828426037319319,0.006135994760726949,0.9911556755929908
2014-07-02,1,0.0024615793852353243,0.002627979047696093,-0.004700143759454722,0.006135994760726949,0.9910917804040212
2014-07-07,1,0.0021534281769952945,0.002266363764012642,-0.004989155123193678,0.007132861200688578,0.9907633390719737
2014-07-09,1,0.0017894393438048157,0.0018540893367419,-0.007164493324376461,0.007132861200688578,0.9896982157156935
2014-07-11,1,0.0021804749164822668,0.0022971036336105,-0.007164493324376461,0.004945048298649949,0.9900741779213016
2014-07-15,1,0.0021673231987394737,0.0022922118294935586,-0.007164493324376461,0.004945048298649949,0.9898770619082945
2014-07-17,1,0.0022555181623604564,0.0024326513885714303,-0.006412998234833853,0.0069269043796692615,0.99151511495058
2014-07-21,1,0.0017988178863386326,0.0019320941552305269,-0.004186206346905795,0.007955456800506458,0.9920250975201312
2014-07-23,1,0.0021555093707351937,0.002347986755513732,-0.004186206346905795,0.0069269043796692615,0.9923667863609504
2014-07-25,1,0.002539827324200377,0.002815037310197715,-0.004186206346905795,0.007955456800506458,0.9922620346923972
2014-07-29,1,0.0012702149516556304,0.0012807862766936956,-0.003861900836300043,0.008191122939805156,0.9918246367946014
2014-07-31,1,0.0005929396563415471,0.0006857147475986623,-0.0021943522366490295,0.008620390974952909,0.99251222992119
2014-08-04,1,0.0007270521827540883,0.0007877598824037761,-0.0021943522366490295,0.008143110122974782,0.9923089998827191
2014-08-06,-1,-0.0007660915884445687,-0.000507299170927304,-0.001802431435616615,0.008143110122974782,0.9928106185953274
2014-08-08,-1,-0.00014592520808645191,-1.4156995077925093e-05,-0.0012299558146095717,0.008143110122974782,0.9927993710665394
2014-08-12,1,0.00010910804870888595,0.0001713234610695393,-0.0012299558146095717,0.008143110122974782,0.9923125282629481
2014-08-14,1,0.0008832977392386426,0.0009096447623989704,-0.0026861384332027994,0.007918852962994076,0.9933763185089278
2014-08-18,1,0.0019849914957973886,0.00224074019951207,-0.005282509988953737,0.0072745661910934055,0.992128026824792
2014-08-20,1,0.002004676371573892,0.002239730149336247,-0.005282509988953737,0.008061942308043326,0.9915165669042447
2014-08-22,1,0.002843583045722522,0.0032544277255678726,-0.008627351725609878,0.0072745661910934055,0.9899545681953649
2014-08-26,1,0.0030232694530117187,0.003467647650544804,-0.012031280274432088,0.0072745661910934055,0.9894030943449401
2014-08-28,1,0.0028796054301537255,0.003224501689201187,-0.012152453789655189,0.006993240396191919,0.9887828950547117
2014-09-02,1,0.0028475102477168875,0.0032073186835780225,-0.012039245185959356,0.006993240396191919,0.9893806822551356
2014-09-04,1,0.0016793083347211395,0.0018061193423001246,-0.012647875889928398,0.007298705769716756,0.9881908460589323
2014-09-08,1,0.0022652792772317773,0.002512142488082755,-0.012647875889928398,0.008105056967505268,0.9880657891443929
2014-09-10,1,0.002345486523297591,0.002622768000240823,-0.014597768747929129,0.008607644724978688,0.9863863295052286
2014-09-12,1,0.002176578361187536,0.002430963767485841,-0.017288571095922942,0.008607644724978688,0.9847868909786114
2014-09-16,1,0.0007047727867281076,0.000706201730611767,-0.017288571095922942,0.008607644724978688,0.9847828737075721
2014-09-18,1,0.00039228496485053997,0.00047776313915893505,-0.017288571095922942,0.008176174860393737,0.984817928617228
2014-09-22,-1,-0.001056873139241443,-0.0007945409529535213,-0.014960517937469837,0.00932044000266276,0.9853084637564654
2014-09-24,-1,-0.001958270711711106,-0.0015312427935389686,-0.016363970849093936,0.00932044000266276,0.9845075068620541
2014-09-26,-1,-0.0027191699628585607,-0.002183516023414944,-0.014960517937469837,0.012410788408391105,0.9821111945439144
2014-09-30,-1,-0.002941516592642527,-0.0023451373268509757,-0.014960517937469837,0.013570010250177416,0.9816152487138322
2014-10-02,-1,-0.003908232486284078,-0.003212875166286526,-0.012198207165259971,0.013833924089154116,0.9828028915584539
2014-10-06,-1,-0.0029708668343582153,-0.0024335023146268677,-0.012198207165259971,0.022309337088074897,0.9803588389300598
2014-10-08,-1,-0.002532136184787964,-0.002041267850435359,-0.008799506085204141,0.018079675867405817,0.9827114512935768
2014-10-10,-1,-0.004049976054002457,-0.003368168563088591,-0.008799506085204141,0.018079675867405817,0.9825247460125764
2014-10-14,-1,-0.005309990731517776,-0.004502857910145474,-0.002734290228602405,0.018079675867405817,0.983034453847572
2014-10-16,-1,-0.00475289317195059,-0.0040655795522616285,-0.0024858650488224204,0.018079675867405817,0.9835187122633111
2014-10-20,-1,-0.003924493312378699,-0.0033242509127709005,-0.0024858650488224204,0.018692769560076053,0.9838908915029533
2014-10-22,-1,-0.0034286448608987614,-0.002906944485857863,-0.001543970788377605,0.014038288653377527,0.9853523984132202
2014-10-24,-1,-0.0010213151326868531,-0.0007700902362327057,-0.0024858650488224204,0.012515610390604568,0.9890182450365158
2014-10-28,1,0.00027609599176014045,0.00032033779125049266,-0.0024858650488224204,0.013143905512955405,0.9892455079516875
2014-10-30,1,0.00020076577401451637,0.00028642003504725173,-0.0024858650488224204,0.012736508123228898,0.9896547407380164
2014-11-03,1,0.002105929458263578,0.002243897374020183,-0.002771005570316061,0.010794663621113063,0.991423294782038
2014-11-05,1,0.002302715941077941,0.002518546287845766,-0.004815940373708505,0.010794663621113063,0.9907018480130905
2014-11-07,1,0.001446713384228374,0.001587577009475771,-0.002450131255471188,0.010794663621113063,0.9922552452916623
2014-11-11,1,0.0012260052343674634,0.0013054636655678257,-0.004338845692968614,0.010794663621113063,0.9914740873891351
2014-11-13,1,0.001176973132442283,0.0012366745163441065,-0.00748765753108355,0.010794663621113063,0.9907348902322278
2014-11-17,1,0.0021808163765028687,0.0023942171313784824,-0.00748765753108355,0.004392520162158609,0.991132684428018
2014-11-19,1,0.002470769479836778,0.0027182228464128627,-0.00748765753108355,0.007077251505158501,0.9885405253205902
2014-11-21,1,0.003119981081116531,0.0035240262162376766,-0.006991282653328167,0.006439158031404221,0.9892124217092363
2014-11-25,1,0.003504781583165394,0.003952899044227491,-0.006991282653328167,0.004392520162158609,0.98976476089709
2014-11-28,1,0.0032921106390198917,0.003691715319698385,-0.00748765753108355,0.004392520162158609,0.9893039113284261
2014-12-02,1,0.0040855563225769,0.004616622316305793,-0.008771325016472247,0.0035951686235974924,0.9886292355237442
2014-12-04,1,0.0033842813155128024,0.003825560911935669,-0.00748765753108355,0.0035951686235974924,0.9894409732980676
2014-12-08,1,0.003441127694616564,0.0038805713428904584,-0.008231194020723663,0.0035951686235974924,0.9880988497107518
2014-12-10,1,0.0025489829341402166,0.0028355912840633624,-0.007485996349755457,0.007736343022937251,0.9881239422898447
2014-12-12,1,0.0020207113346420815,0.002254224907571701,-0.007485996349755457,0.007736343022937251,0.9880157148463548
2014-12-16,1,0.0016604252896803952,0.00185328545234112,-0.009005378054266364,0.007736343022937251,0.9867938780442652
2014-12-18,1,0.0037565835090188635,0.004217963293644269,-0.009005378054266364,0.00412694097311743,0.9880274028318019
2014-12-22,1,0.003958120460993353,0.00441263848524189,-0.009005378054266364,0.003625043633240042,0.9879644468440634
2014-12-24,1,0.003908263470181926,0.0043526287906643325,-0.01181057421131303,0.003625043633240042,0.9841446690888137
2014-12-29,1,0.0023032790069314113,0.0024940476875605876,-0.015606702276007293,0.00683023936939877,0.9835276954365562
2014-12-31,1,0.0014893302607736298,0.001567820187011698,-0.022694253404950314,0.008612732778125735,0.9822400724577611
2015-01-05,1,0.0010037317369882004,0.0010046729952102131,-0.022694253404950314,0.01608951114877299,0.9807309280730073
2015-01-07,1,0.0007488439711377411,0.000756752288604348,-0.008697985632376903,0.01608951114877299,0.9815045735144072
2015-01-09,1,0.0018037366497687096,0.001971294210248808,-0.011103058249672556,0.010571811012984773,0.9823823188845198
2015-01-13,1,0.0011517405696189822,0.0012471818963926918,-0.005375116455544849,0.010571811012984773,0.983052644642622
2015-01-15,1,0.000122997494005311,0.00014737286633692372,-0.00362680951523422,0.011207986881687115,0.983915808391872
2015-01-20,1,0.0005598547778033453,0.0005967923815853828,-0.004428500387666104,0.010482207173683396,0.9846218994230802
2015-01-22,1,0.0012341061340689044,0.001399017090254107,-0.004428500387666104,0.011207986881687115,0.9846719280623945
2015-01-26,-1,-0.0011212029296252012,-0.0009849580743425566,-0.004428500387666104,0.011207986881687115,0.986589637548282
2015-01-28,-1,-0.002156634293886647,-0.0018797880682359077,-0.004428500387666104,0.011207986881687115,0.9873256511434179
2015-01-30,-1,-0.0025775200646996213,-0.0022611274701440642,-0.00311953480735959,0.011026844707344037,0.9891464603941772
2015-02-03,-1,-0.0010032615297698574,-0.0008707991830235124,-0.008624592908310998,0.008498690400762133,0.9894518289611697
2015-02-05,-1,-0.00045368442353320524,-0.00037910554730832585,-0.01116901351132541,0.007356945581185964,0.988927845735704
2015-02-09,-1,-0.0010080026273092903,-0.0008253526670678359,-0.011547160248967184,0.007212027443511487,0.9874177483065327
2015-02-11,-1,-0.0006760011255225547,-0.0005438895531149738,-0.011547160248967184,0.006448467043055517,0.9878632593967958
2015-02-13,-1,-0.000872582081848406,-0.0006616915848796804,-0.01301090831041468,0.006448467043055517,0.9871178495479371
2015-02-18,-1,-0.001302968000267122,-0.001038686102097452,-0.015928563657957744,0.007212027443511487,0.9851715835033262
2015-02-20,-1,-0.0011026405360791312,-0.0008430222626356302,-0.015928563657957744,0.007291873749711627,0.9849224456923573
2015-02-24,-1,-0.001754177280792366,-0.001428653412961901,-0.01301090831041468,0.007291873749711627,0.9850352364245979
2015-02-26,-1,-0.0024531930637984155,-0.00199543813663288,-0.016059815156852737,0.007212027443511487,0.9846820411243999
2015-03-02,-1,-0.0018940338268088205,-0.001515843384710064,-0.016122056703569497,0.006098523651200714,0.9845685958788225
2015-03-04,-1,-0.0033882537698156066,-0.0028594001959612947,-0.015733729333762464,0.006098523651200714,0.9862330058615072
2015-03-06,-1,-0.004599739252612057,-0.003878536291905731,-0.01432222464649904,0.006402476272372179,0.9866099436378764
2015-03-10,-1,-0.0068660146894081306,-0.005811412018892378,-0.012334879191965468,0.008746519108498153,0.9873241113741782
2015-03-12,-1,-0.007000851257567716,-0.005920559806518651,-0.012334879191965468,0.014838449336353924,0.985378533798281
2015-03-16,-1,-0.0063098125903810285,-0.005351521006978459,-0.009902781871926735,0.013147843698578295,0.9863540655200235
2015-03-18,-1,-0.005919873884826238,-0.005018084789432805,-0.009902781871926735,0.013147843698578295,0.9875555046646786
2015-03-20,-1,-0.004059748458365734,-0.003479163726385827,-0.009902781871926735,0.01617165064963429,0.9861662195985766
2015-03-24,-1,-0.0043796613336454255,-0.0037906385529185463,-0.009225411687745998,0.01617165064963429,0.986266896156126
2015-03-26,-1,-0.005166072101881554,-0.004504904486108679,-0.007280545845767875,0.01617165064963429,0.9867019609551877
2015-03-30,-1,-0.004042058569876201,-0.0036183790137785787,-0.007033843410129267,0.016866810846185264,0.9866675753155818
2015-04-01,-1,-0.004688292201421517,-0.004184106271435448,-0.007033843410129267,0.016866810846185264,0.9861208933661418
2015-04-06,-1,-0.004605818149720508,-0.0040634158782626405,-0.007082403544252956,0.016866810846185264,0.986410354956008
2015-04-08,-1,-0.0040427848434217185,-0.0035762251731850984,-0.008485304380830175,0.01617165064963429,0.9858116452866686
2015-04-10,-1,-0.002507129704099263,-0.0022308009819990192,-0.008485304380830175,0.014639886504060428,0.9870995350046954
2015-04-14,-1,-0.0017028189764404745,-0.0015694721664484598,-0.011013994431656406,0.014639886504060428,0.9867270930444558
2015-04-16,-1,-0.0012708021786821708,-0.0012060137573923612,-0.008932051465131947,0.014476472083635082,0.9868335266643389
2015-04-20,1,0.0005287762505574482,0.0007041440384824784,-0.009694774788727522,0.009061359095501733,0.9890511378515585
2015-04-22,1,0.00043438405197483926,0.0006305874538136934,-0.010122341871166726,0.009061359095501733,0.9878417327109449
2015-04-24,1,0.0006117744582239338,0.0008395063742074457,-0.010122341871166726,0.010616966957530501,0.9876119813582067
2015-04-28,1,0.0013671877839823876,0.001736403807567145,-0.011445055376679794,0.010526018726856098,0.9871449833557104
2015-04-30,1,0.001014889265723162,0.0013050846138129974,-0.011165634193959472,0.013829728188608614,0.9867514958706353
2015-05-04,1,0.0013787762497045224,0.0017247715278899845,-0.011165634193959472,0.009177220448138748,0.9873750569306883
2015-05-06,-1,-0.00019490476259880775,-7.935573542718148e-05,-0.010122341871166726,0.009177220448138748,0.9884898745867825
2015-05-08,1,0.00012274954004779865,0.00025484252820202934,-0.011165634193959472,0.007603203395768781,0.9879668269934023
2015-05-12,-1,-0.0005354430414239967,-0.0005085348765087014,-0.010717178111218039,0.009177220448138748,0.9875743990560989
2015-05-14,1,0.001269540687955542,0.0016555395841062572,-0.013165645908134958,0.009001209071634703,0.9872603676245194
2015-05-18,1,0.0013798041458865501,0.0018124332930448876,-0.013165645908134958,0.009001209071634703,0.9873801785166889
2015-05-20,1,0.0004282548693849346,0.0007469370182181854,-0.009176477702409761,0.013371237475736514,0.9886794187754883
2015-05-22,1,0.0010831200695783228,0.0014788006094495743,-0.013165645908134958,0.01062240303076173,0.988390068014606
2015-05-27,1,0.000643617357803627,0.0009455925487944745,-0.013165645908134958,0.007591342566962482,0.988343610149774
2015-05-29,1,0.0007595007851463256,0.001063776013396533,-0.014007070196249107,0.0029410287542467016,0.9879421335114096
2015-06-02,1,0.0003534800263674222,0.0005663733338389546,-0.02041737470982182,0.0014362392743766297,0.9859666880452619
2015-06-04,1,0.000627510846096334,0.0009448572486622878,-0.016137633994493313,0.003541999073333351,0.9865960448443548
2015-06-08,-1,-0.0004167441555913749,-0.0002791061243547585,-0.016137633994493313,0.010358371428285563,0.9863022386410103
2015-06-10,-1,-0.0005360612143551291,-0.00047917080262309457,-0.021448403121232563,0.003541999073333351,0.9858081109074787
2015-06-12,-1,-0.00022685600750297778,-0.00010171113741385947,-0.021448403121232563,0.0029006773321385024,0.9865863074343955
2015-06-16,0,-8.308076312767246e-05,9.062062016920822e-05,-0.021448403121232563,0.007822997712429778,0.9851535550483602
2015-06-18,-1,-0.0007521549546881956,-0.0007256474975561094,-0.021448403121232563,0.007822997712429778,0.9852557524291735
2015-06-22,-1,-0.0014736151624592084,-0.001318974155083717,-0.021448403121232563,0.007376625047563571,0.985818072862468
2015-06-24,-1,-0.003082620062723142,-0.002709921649551533,-0.020931922240384326,0.009019253433686938,0.9855744745970813
2015-06-26,-1,-0.0031462884462612737,-0.002856760904249561,-0.015972755206422717,0.012261523737535973,0.9857352014147462
2015-06-30,-1,-0.004408541579831629,-0.004012723972987999,-0.007999670779914342,0.012522487681928804,0.9858325995441514
2015-07-02,-1,-0.0035975623813603455,-0.0033019959635508514,-0.009905327304835034,0.013767283564554996,0.9845239849672726
2015-07-07,-1,-0.003395031164764055,-0.0031410923274470827,-0.007999670779914342,0.01376279351879337,0.9854205687249772
2015-07-09,-1,-0.004106175943318717,-0.0038083368273477353,-0.007064145010566115,0.01376279351879337,0.9857142165306022
2015-07-13,-1,-0.0038042352500836153,-0.0035314057658035708,-0.00914525350832582,0.017683652522872264,0.9830909719927925
2015-07-15,-1,-0.002347275586535246,-0.002278253002324931,-0.00914525350832582,0.01376279351879337,0.9843939000221619
2015-07-17,-1,-0.0019265645651759442,-0.0018731657530667994,-0.00914525350832582,0.013739012169905609,0.9847120098674202
2015-07-21,-1,-0.0017258733185190236,-0.0017038400225875907,-0.008322921557992824,0.013739012169905609,0.9847709169341959
2015-07-23,-1,-0.0013616632183594685,-0.0012926968262198324,-0.011172740768587043,0.012514560565632885,0.983786368856319
2015-07-27,-1,-0.002370851008108691,-0.002221602163377812,-0.011172740768587043,0.012132171299860436,0.9838725553424914
2015-07-29,-1,-0.00137011556147687,-0.0013012148707119613,-0.01403468810898275,0.012132171299860436,0.9826271966459325
2015-07-31,-1,-0.0012944944811678892,-0.001165238385023743,-0.011754466719455105,0.012687436107039537,0.9822208103375153
2015-08-04,-1,-0.0006578039580863605,-0.0006078608440181825,-0.015618162424374967,0.012687436107039537,0.9816302701897665
2015-08-06,-1,-0.0005595825956938927,-0.000532316047822529,-0.01593568030808049,0.012687436107039537,0.9815522147942595
2015-08-10,-1,-0.00040081363646911084,-0.00039116633042339023,-0.01593568030808049,0.012687436107039537,0.9822083520650375
2015-08-12,1,0.00030605683345059605,0.00045157775937565734,-0.016693546503783366,0.012687436107039537,0.9815780639733519
2015-08-14,1,0.0002615783458393146,0.00036435633605457515,-0.016693546503783366,0.010605187241423198,0.9814996090773918
2015-08-18,-1,-0.00023455278274783602,-0.0002150834038068381,-0.016693546503783366,0.011529071967968124,0.981492666990986
2015-08-20,-1,-0.0025291191139588517,-0.002230393646234373,-0.018818122761651068,0.011529071967968124,0.9815348663669842
2015-08-24,-1,-0.0036246480380564446,-0.003161740182260168,-0.01963957758139096,0.012233570680217385,0.9797818036268465
2015-08-26,-1,-0.002927793925620269,-0.0025778766060187705,-0.016693546503783366,0.012193417888032316,0.9817148060707779
2015-08-28,-1,-0.0007949265189860043,-0.0007128878751801357,-0.020804967231104445,0.010184959312686578,0.9820659902484608
2015-09-01,0,-4.3071571818135615e-05,3.789965681181526e-05,-0.020804967231104445,0.010184959312686578,0.9794725083232307
2015-09-03,-1,-0.0005055459673553443,-0.00048186882840157096,-0.02625730228427346,0.010184959312686578,0.978163871702761
2015-09-08,-1,-0.0002714758019924453,-0.00020486731757019162,-0.021198407107163995,0.011343676943314592,0.9774509072365751
2015-09-10,1,0.00044758016588715313,0.0007074119826842374,-0.021198407107163995,0.014969854291230334,0.9766595778664032
2015-09-14,0,-0.0001365383687747177,2.6443876212299024e-05,-0.021198407107163995,0.01636076620785905,0.976770173634269
2015-09-16,1,0.0004979785385676469,0.0007538042339021924,-0.021198407107163995,0.01636076620785905,0.9763745201698669
2015-09-18,-1,-0.0010962455649403224,-0.0010379038878367214,-0.021198407107163995,0.01636076620785905,0.972893156823368
2015-09-22,-1,-0.0021338151035831606,-0.0020698124813042897,-0.019457817005520402,0.01636076620785905,0.9748876965479429
2015-09-24,-1,-0.0015099415755825255,-0.0014791117254921032,-0.022215851607521323,0.022392256683013517,0.9712723659623361
2015-09-28,-1,-0.0035904808548255602,-0.003315720402082456,-0.024377729703720173,0.025277326367872152,0.9693226234279058
2015-09-30,-1,-0.0010925848344307356,-0.001033790302337682,-0.024377729703720173,0.022392256683013517,0.9723614614483473
2015-10-02,-1,-0.0022287045236556603,-0.0021251735155288125,-0.023490652880375183,0.022392256683013517,0.973246475400948
2015-10-06,1,0.00025700257027903525,0.0005144380425053262,-0.023490652880375183,0.02165668604993397,0.9736476326490132
2015-10-08,1,0.0014952709561814265,0.0019041719238880846,-0.03342390382721253,0.006299483150696958,0.9735266697473118
2015-10-12,1,0.001361439257032456,0.0016868100681953877,-0.03342390382721253,0.0020523009874549455,0.9733749308583727
2015-10-14,1,0.001094410335958857,0.0014242868654050164,-0.03672447494803094,0.0020523009874549455,0.9719794012208569
2015-10-16,-1,-0.0029993956596213586,-0.002811078451012126,-0.03342390382721253,0.0020523009874549455,0.9759169776484501
2015-10-20,-1,-0.0034725425906261933,-0.0032488275776913567,-0.03342390382721253,0.008064789764721931,0.9746092034863674
2015-10-22,-1,-0.002646114873962407,-0.002520065178689035,-0.03036136524491374,0.0063680519083340915,0.9780729325009716
2015-10-26,-1,-0.0023274235923355325,-0.002225005249392638,-0.01765130821472203,0.004951199823822113,0.9814295064209976
2015-10-28,-1,-0.0027521347905448672,-0.0025656214905585076,-0.01765130821472203,0.0085093544178721,0.981052085951493
2015-10-30,-1,-0.0033360516982980128,-0.0031051418229824422,-0.01270803964627797,0.010254984616600052,0.9803916773627784
2015-11-03,-1,-0.0012153911242424437,-0.0011900718770571736,-0.01765130821472203,0.0085093544178721,0.9801209018597641
2015-11-05,-1,-0.0022682499410445088,-0.0021669382555223474,-0.01581550695661005,0.010254984616600052,0.9800845626678623
2015-11-09,-1,-0.002169189026570153,-0.0021142740778406837,-0.014867206091679474,0.015033416226589205,0.9790801471185792
2015-11-11,-1,-0.0037854257200233333,-0.0035446880031193566,-0.012281618475513541,0.015033416226589205,0.9799005642702093
2015-11-13,-1,-0.006778409490067286,-0.00614326112858976,-0.008030875838832503,0.015033416226589205,0.9797150967142448
2015-11-17,-1,-0.006419262218775493,-0.005781180813457925,-0.0038381056110250128,0.015570752283303832,0.9800566807716785
2015-11-19,-1,-0.0067983599957839695,-0.006045805852078839,-0.008067649466317248,0.015570752283303832,0.9797087777958247
2015-11-23,-1,-0.00590514348545143,-0.00528597350564345,-0.008067649466317248,0.017318398365394234,0.9786899431382755
2015-11-25,-1,-0.005953027221005216,-0.005326630253345318,-0.001042083380471028,0.017913496287403696,0.977501714997389
2015-11-30,-1,-0.005180745555190873,-0.004592589174785977,-0.001042083380471028,0.017318398365394234,0.9790899171449593
2015-12-02,-1,-0.006114866350321381,-0.005431309062010614,-0.0010509267854727383,0.017318398365394234,0.9813436704033012
2015-12-04,-1,-0.005475431931531824,-0.004908821387250761,-0.0010509267854727383,0.015912330821630686,0.9830329928376004
2015-12-08,-1,-0.004001897079172606,-0.0036436404042918093,-0.007629234943735495,0.014366924138429452,0.9833558290630715
2015-12-10,-1,-0.0030436595181877277,-0.002802359645140013,-0.016671237870200733,0.012238225118780524,0.9806500281599496
2015-12-14,-1,-0.005308419641222232,-0.004811348574652911,-0.01444897485472469,0.012238225118780524,0.9823883576454497
2015-12-16,-1,-0.003850247765146248,-0.0035246775393920097,-0.01806008388444403,0.008053015033880482,0.9810615933656596
2015-12-18,-1,-0.003543992524691033,-0.0033096516792913565,-0.023915748483798235,0.008053015033880482,0.9801825695078237
2015-12-22,-1,-0.0015516506366872358,-0.001499751458278533,-0.03487906941753727,0.0035961297620737366,0.9787482914277209
2015-12-24,0,-0.00010361565657517784,0.00017586679862356333,-0.03692640062088863,0.0035961297620737366,0.9752819925767287
2015-12-29,1,0.000492628133033454,0.0008554742416338557,-0.03692640062088863,0.0010192024803599748,0.9740057767472022
2015-12-31,1,0.0002627074405014534,0.0005779154547582767,-0.03692640062088863,0.008619462579414957,0.968588741121917
2016-01-05,1,0.00035448985550426697,0.000689995483244219,-0.03936839284034285,0.01843717181260457,0.963267065173078
2016-01-07,-1,-0.0005290400748427787,-0.0002980963079107751,-0.03692640062088863,0.036808589108881525,0.962343948662631
2016-01-11,-1,-0.0025591205446858353,-0.0025384379082245886,-0.03523507973183631,0.036808589108881525,0.9637658972156059
2016-01-13,-1,-0.0034221214760846064,-0.003216565009495455,-0.038101651984298796,0.036808589108881525,0.9620441543338318
2016-01-15,-1,-0.003647037013296559,-0.0034005111726059085,-0.03534230015234935,0.04724376025620645,0.9614855438278838
2016-01-20,-1,-0.0047350884579543855,-0.0043808860268486184,-0.03307422613361408,0.04724376025620645,0.9607297937274093
2016-01-22,-1,-0.004490334637917561,-0.0042484013980999945,-0.03307422613361408,0.04724376025620645,0.960157254896761
2016-01-26,-1,-0.004226361871342526,-0.004033194006278426,-0.03307422613361408,0.0384478175866177,0.9623850104454585
2016-01-28,-1,-0.005086171041448667,-0.0047769005300104216,-0.03307422613361408,0.0384478175866177,0.9621599460986197
2016-02-01,-1,-0.0012095988557559426,-0.0010300347900421797,-0.03307422613361408,0.030874619173768457,0.96581104371459
2016-02-03,-1,-0.0008185889978705838,-0.0005804010247996393,-0.021802261056862643,0.028618645614709472,0.9695893706597118
2016-02-05,1,8.685598559258882e-05,0.0004304582487428749,-0.015632832048066564,0.027733796787258153,0.9716814683333254
2016-02-09,-1,-0.0011498949384498775,-0.0009294516752291097,-0.0073515720429645414,0.027733796787258153,0.9729824422763668
2016-02-11,-1,-0.0021333378966772636,-0.0021254212381354104,-0.005443742783327898,0.028618645614709472,0.9727727108138593
2016-02-16,-1,-0.0004712451395803434,-0.00031371054356166,-0.013041945003183392,0.025555325424186426,0.9751705790171652
2016-02-18,1,0.0011766469773018243,0.0015691915472263625,-0.013041945003183392,0.024351293240520294,0.977212234655113
2016-02-22,1,9.150262407029623e-05,0.00027583522448575875,-0.0073515720429645414,0.024351293240520294,0.9787374283568288
2016-02-24,1,0.0002627647119258817,0.0005865716268954383,-0.0073515720429645414,0.024351293240520294,0.9780003818424731
2016-02-26,1,0.0004645221105251927,0.0007655967259970381,-0.013041945003183392,0.02226521231113379,0.9768237832378717
2016-03-01,1,0.0028304289535705605,0.0035552267937063106,-0.009980140014127899,0.021206782180195623,0.979796233679448
2016-03-03,1,0.00476292692780712,0.005819433613860675,-0.021210991545264506,0.012988868901122034,0.9803802433727539
2016-03-07,1,0.005661650737050657,0.006864965033151373,-0.021210991545264506,0.011399355787304872,0.9802847901726512
2016-03-09,1,0.004511245966067758,0.005522297542737795,-0.020656621075661873,0.012988868901122034,0.9803901747414393
2016-03-11,1,0.004213043788488639,0.0049764056633233925,-0.020656621075661873,0.011399355787304872,0.9801798217007005
2016-03-15,1,0.002752103091067549,0.0032806370460625976,-0.01870919835813203,0.011399355787304872,0.9808003063751372
2016-03-17,1,0.0035200242329372503,0.004196993993864626,-0.024465289268978833,0.009733399381749993,0.9738058646400664
2016-03-21,1,0.004953332521770645,0.005837988972544181,-0.024465289268978833,0.008478039420522181,0.9747000404821037
2016-03-23,1,0.00365894374198213,0.004365626008630533,-0.02093996370425292,0.008478039420522181,0.9773254808226673
2016-03-28,1,0.0023090867379351432,0.0027877775246610247,-0.01870919835813203,0.008882477695998472,0.9779639294256979
2016-03-30,1,0.0038055492000512734,0.00458738937684402,-0.01870919835813203,0.01280015489709067,0.9768925489103258
2016-04-01,1,0.0029717467933615136,0.0035854900630123217,-0.01870919835813203,0.01280015489709067,0.9725642206365216
2016-04-05,1,0.002228248504408121,0.0027289461009715912,-0.03645387476367043,0.01280015489709067,0.9686425097107831
2016-04-07,1,0.0016186974036675678,0.0019400855009577185,-0.03645387476367043,0.01280015489709067,0.9687258461030926
2016-04-11,1,0.0018467936949491301,0.0020481435800086757,-0.0479277040988154,0.008716746657267545,0.9681804291702736
2016-04-13,1,0.0013174106115577092,0.001489002255934897,-0.0479277040988154,0.01280015489709067,0.9676546356110565
2016-04-15,-1,-0.00314478568232541,-0.002794949731796813,-0.01997469148000641,0.01405859312928659,0.9748580397694214
2016-04-19,-1,-0.0031185633049434372,-0.002793865294223782,-0.018953367157629738,0.01714408646508842,0.9743827982423485
2016-04-21,-1,-0.0029494369502419534,-0.002643007523204761,-0.018953367157629738,0.021772031105887643,0.9730824657912952
2016-04-25,-1,-0.000999243201539333,-0.0009846695818287055,-0.018953367157629738,0.019500850873895338,0.973970202259796
2016-04-27,-1,-0.0003497763864262557,-0.0003419310194282861,-0.018953367157629738,0.019500850873895338,0.9743611573197368
2016-04-29,-1,-0.003945315464137346,-0.0035315982211187955,-0.007963898743987858,0.019500850873895338,0.9786460781073163
2016-05-03,-1,-0.006626731744601244,-0.0059499985755184755,0.0011039601231408796,0.021772031105887643,0.9789731033272502
2016-05-05,-1,-0.005022654567323644,-0.0045763064044311115,0.0012862223131250802,0.021772031105887643,0.9800061547929837
2016-05-09,-1,-0.007771296771855434,-0.006906398965682562,0.0037212577876469992,0.025973039183141693,0.9776367693442802
2016-05-11,-1,-0.007126926085330295,-0.006395778393915584,0.003564826771922486,0.025973039183141693,0.9798710875382712
2016-05-13,-1,-0.006524490048401572,-0.005843268295453057,-0.004559981894117798,0.025973039183141693,0.9796659537966298
2016-05-17,-1,-0.004594843968027935,-0.0042065412073533015,-0.004559981894117798,0.022144045002932163,0.9820201182492905
2016-05-19,-1,-0.0022743098057045274,-0.00221631163830329,-0.004559981894117798,0.020799695419692565,0.9837960926534326
2016-05-23,-1,-0.0013871215287626756,-0.0013013452031515743,-0.0024521589997607016,0.020799695419692565,0.9838450491029064
2016-05-25,-1,-0.0004389208029672531,-0.00024104443515642645,-0.0024521589997607016,0.020799695419692565,0.9845142557506931
2016-05-27,0,-0.00013643513612205738,8.86675173555942e-05,-0.0075304948105512776,0.020799695419692565,0.9776805490684526
2016-06-01,1,0.0009676790801888056,0.001265713287253794,-0.0075304948105512776,0.02390744866588177,0.973900858277332
2016-06-03,1,0.0003547168534783293,0.00041226530176636085,-0.014216887244414958,0.019603977517831783,0.9740676772078822
2016-06-07,1,0.0013910170969415262,0.0015700289696343349,-0.017140113568974668,0.01742738131322562,0.9735468196267411
2016-06-09,1,0.0007614522310223466,0.0008480849811483933,-0.015129835510328805,0.01742738131322562,0.9737195001557217
2016-06-13,-1,-0.002252707792429339,-0.0018912082884228283,-0.0014296539982119663,0.019603977517831783,0.9708055930305509
2016-06-15,-1,-0.003124998077641177,-0.0025908185132329153,-0.004376975274788588,0.019603977517831783,0.9690194703611843
2016-06-17,-1,-0.002593405337483583,-0.0021115522148268517,-0.010837903938149856,0.020153172908164044,0.9680182651226803
2016-06-21,-1,-0.002560294273594434,-0.0020190295503927395,-0.010837903938149856,0.019228001956130458,0.9685381464640144
2016-06-23,1,0.000789140356083035,0.0008510703184247961,-0.010837903938149856,0.018740876962931217,0.9687681967340812
2016-06-27,-1,-0.004674276713150283,-0.004101896134105854,-0.004651573268735928,0.025736073315088877,0.972547793112271
2016-06-29,1,0.0013354569676643714,0.00155757721043432,-0.006463830856660037,0.017129409004735266,0.9799041340766687
2016-07-01,1,5.375471710636603e-05,0.00013661736186487027,-0.006463830856660037,0.01704442299625708,0.9794842627279309
2016-07-06,-1,-0.001094069638180318,-0.0008482692599692184,-0.006463830856660037,0.01704442299625708,0.9789767163716212
2016-07-08,1,0.0012937006827919723,0.0014960665056632878,-0.006463830856660037,0.01883689310116278,0.9784704710765092
2016-07-12,1,0.005977552868524406,0.006918624858737661,-0.006463830856660037,0.017182250401854126,0.983393602671297
2016-07-14,1,0.00534054019535196,0.006141258756096311,-0.006463830856660037,0.017182250401854126,0.982860884934774
2016-07-18,1,0.00569182645076991,0.006455951173024147,-0.005554904914130292,0.01704442299625708,0.984453030357443
2016-07-20,1,0.006353502006705632,0.00724213041449386,-0.007806103252785574,0.015494636492638643,0.9839558181633835
2016-07-22,1,0.008429439284355496,0.009694352091917546,-0.007806103252785574,0.01451605212059928,0.9851467511831472
2016-07-26,1,0.010143350491756797,0.011728941744813013,-0.012802102552318827,0.014291067106269904,0.9855056888756067
2016-07-28,1,0.010590894814984432,0.012277179441608412,-0.014874206833122966,0.014291067106269904,0.9853427912549639
2016-08-01,1,0.009649976315268002,0.011129348262937174,-0.008281502678004921,0.014501932425244002,0.9854176004524346
2016-08-03,1,0.008832221687682815,0.010327463864748759,-0.005554684603532351,0.014501932425244002,0.9880654027763771
2016-08-05,1,0.009547633203680878,0.011038193480796512,-0.005554684603532351,0.012566622844907182,0.9883836086763964
2016-08-09,1,0.010056961267262958,0.011630997242286924,-0.005554684603532351,0.014291067106269904,0.986590938961016
2016-08-11,1,0.009960823011303549,0.011618480765000033,-0.005623143513808301,0.014291067106269904,0.9872254503862281
2016-08-15,1,0.009259694745279483,0.010719023317859212,-0.005623143513808301,0.013153158527571226,0.9872011301778069
2016-08-17,1,0.008244741639499072,0.00948679303645059,-0.005349342424319847,0.012187319985340957,0.988543568352246
2016-08-19,1,0.00911961325155268,0.010513676571523474,-0.005623143513808301,0.012187319985340957,0.9868258688328152
2016-08-23,1,0.00853006995023632,0.00981122437290077,-0.005623143513808301,0.01328011956304472,0.9860407438872808
2016-08-25,1,0.007879358427409217,0.009014404959685376,-0.005623143513808301,0.012187319985340957,0.9864962950629531
2016-08-29,1,0.0098036652066381,0.01120403988139032,-0.005623143513808301,0.013613094051648643,0.9859164923920314
2016-08-31,1,0.01095521607944856,0.012630847054108963,-0.0065202233237837935,0.013613094051648643,0.984719251992019
2016-09-02,1,0.0101184600860111,0.011604138443856372,-0.0065202233237837935,0.017188809017186127,0.9846954233605653
2016-09-07,1,0.009372172163684179,0.010400973916198385,-0.0065202233237837935,0.011087797191344563,0.9865745657584248
2016-09-09,1,0.008284537378164574,0.009130926158613138,-0.008675946568219484,0.011087797191344563,0.9866976632984827
2016-09-13,1,0.007970476728364413,0.008766718459545122,-0.008675946568219484,0.008517651090942026,0.9835565769367812
2016-09-15,1,0.008486375794934753,0.009408363091853276,-0.008675946568219484,0.0047390927187167635,0.9831214093102493
2016-09-19,1,0.008391032890092322,0.009371877444748166,-0.006075405287338834,0.0047390927187167635,0.983609123710924
2016-09-21,1,0.006314254615262567,0.0067629730982897585,-0.006075405287338834,0.0047390927187167635,0.9849886941584536
2016-09-23,1,0.003362374274378374,0.0035449270059686117,-0.006847369525644473,0.008240358759941146,0.9854141047461036
2016-09-27,1,0.00537654928598858,0.005475387907179937,-0.008179593584213862,0.002512775945930675,0.9858203800363109
2016-09-29,1,0.0027278989738475984,0.0031014370694963725,-0.008862162269131687,0.0047390927187167635,0.9867750389439243
2016-10-03,1,0.002421797882781548,0.0028723594806197,-0.008862162269131687,0.003949102626803542,0.9877131780233064
2016-10-05,1,0.0022011118245037443,0.0026642452197164802,-0.017288075122894,0.002512775945930675,0.9857591174107715
2016-10-07,1,0.0014026326093421182,0.0019258672623489583,-0.014596970645501983,0.003949102626803542,0.9863770959242218
2016-10-11,-1,-0.0012311745642677747,-0.0004763908162821479,-0.008862162269131687,0.00587038848420148,0.9882098208075226
2016-10-13,-1,-0.0014276004566039402,-0.0006546670905164722,-0.008862162269131687,0.010361946659329933,0.9860317193275143
2016-10-17,-1,-0.001428929952201547,-0.0006989442948548107,-0.008862162269131687,0.017282151857778837,0.9836577322976525
2016-10-19,-1,-0.00257013378944794,-0.0017068484781257078,-0.006679410029830928,0.017282151857778837,0.9845106990434819
2016-10-21,-1,-0.0013338983532452538,-0.0007217120007428552,-0.005086155155266979,0.017508017665824605,0.9846767733584779
2016-10-25,-1,-0.001357282288301801,-0.0007818493925788668,-0.005086155155266979,0.017508017665824605,0.9833307352212788
2016-10-27,-1,-0.0007394745649083258,-0.0003077815274419558,-0.0038494601849761315,0.015150611646374525,0.9845191837814566
2016-10-31,-1,-0.001512686016846848,-0.0009406947079987329,-0.0038494601849761315,0.015150611646374525,0.9841405476948271
2016-11-02,-1,-0.005423244616334337,-0.00426033695733429,-0.0027121795721584854,0.016425933137886574,0.9815186843013298
2016-11-04,-1,-0.005335549744866134,-0.004174338181158057,0.00024875418920161543,0.019990228052518433,0.980775292370419
2016-11-08,-1,-0.003372184175550497,-0.002470150142059052,0.0010832776447776693,0.019990228052518433,0.9827609197721113
2016-11-10,-1,-0.0011427076646333475,-0.0005434988184338811,-0.0010898432097170608,0.0163779330927529,0.9848912707752449
2016-11-14,1,0.0010784349351538021,0.001390589775671417,-0.004028242593925792,0.013914513296363562,0.9856490833139038
2016-11-16,-1,-0.003171307961596293,-0.001994975466239474,-0.004028242593925792,0.013914513296363562,0.9843945910282499
2016-11-18,1,0.0011241809957594894,0.0015394779882682314,-0.011398530965799847,0.010834995256830056,0.9842350590829352
2016-11-22,1,0.00023766329824832485,0.0007638912622122368,-0.00649314956769232,0.00824642759955245,0.9857026371417579
2016-11-25,-1,-0.0007921750563897301,-0.00010259776474487317,-0.00649314956769232,0.00824642759955245,0.9857321705524824
2016-11-29,0,-0.000363243439144717,0.00025222182312778486,-0.011226363985705045,0.008083140720409039,0.9853467259616342
2016-12-01,1,0.0002644825478513603,0.0006204643934115597,-0.011226363985705045,0.00704291021379728,0.9873113741440783
2016-12-05,1,0.0009617342326730061,0.0012586163560907632,-0.013210473950852532,0.004684827981003533,0.9861791054025167
2016-12-07,1,0.002723079465846039,0.00275610575448497,-0.014500952048440941,0.003888814357328273,0.9863732069381353
2016-12-09,1,0.0015918007476517862,0.001743807129449586,-0.013050048651059572,0.003888814357328273,0.986765266188236
2016-12-13,1,0.0037096485365821015,0.003892822210311452,-0.014500952048440941,0.003087791480401413,0.9869248620001044
2016-12-15,1,0.0037237009492174,0.00396667362514689,-0.013050048651059572,0.003406504723526623,0.9881211634364979
2016-12-19,1,0.0016234492023715608,0.0016538944923381025,-0.013050048651059572,0.003888814357328273,0.9897826525218175
2016-12-21,1,0.0014179744186606233,0.0014915410344172276,-0.013050048651059572,0.003669323904936142,0.9896394540153814
2016-12-23,0,-0.00012767470937302358,0.00025603490182740684,-0.013050048651059572,0.0045469472697194585,0.983881399671993
2016-12-28,1,0.00031173268507298337,0.0005068557377096366,-0.011728675014570488,0.007873922602362016,0.9827972549657098
2016-12-30,-1,-0.0002708656823321694,-2.1899655398623097e-05,-0.011136445786719329,0.010158446434517004,0.9832556285898383
2017-01-04,0,-8.286984738443861e-05,0.00019356098564853237,-0.008905739781550496,0.009477204444293313,0.9848126981166816
2017-01-06,-1,-0.0008006296183915467,-0.00044625298424524136,-0.008905739781550496,0.011623664764324615,0.9835211765674041
2017-01-10,-1,-0.0020324667558085366,-0.001517606174494068,-0.004067881257912962,0.013881704293316931,0.9832616055755076
2017-01-12,-1,-0.002723279602342685,-0.0021549573208417385,0.0007701744607746905,0.013881704293316931,0.9830115954492066
2017-01-17,-1,-0.0027843799494229734,-0.002191211088381393,9.899627603976067e-05,0.016526355647182318,0.9819029854874274
2017-01-19,-1,-0.003695011223288677,-0.00298831569330724,9.899627603976067e-05,0.016526355647182318,0.9820145184866216
2017-01-23,-1,-0.002634083304092308,-0.00214133178471248,-0.0008423870939896813,0.016526355647182318,0.9820625562589212
2017-01-25,1,0.00201516580577967,0.0020664208110216533,-0.0028919450479625393,0.012750903977187434,0.989797804985003
2017-01-27,1,0.0032701693603600017,0.00348826833663299,-0.0028919450479625393,0.009477204444293313,0.9913344101690504
2017-01-31,1,0.0049665903990303685,0.005550710622546358,-0.0028919450479625393,0.01131816917838853,0.9904093399987848
2017-02-02,1,0.004619574814794218,0.00512584228524076,-0.0028919450479625393,0.010974636031521734,0.9903121965250752
2017-02-06,1,0.004572314843807429,0.005066150614746747,-0.005182854851515078,0.00831850889316844,0.9911536093381919
2017-02-08,1,0.004741452755291213,0.005266782508819212,-0.005815790128132766,0.006601380423376555,0.9900291496703052
2017-02-10,1,0.004676911492140837,0.00515766978253197,-0.005815790128132766,0.006601380423376555,0.9901124206932167
2017-02-14,1,0.005666113677517111,0.006311493680809783,-0.009077285778663333,0.006601380423376555,0.9900598269348194
2017-02-16,1,0.005100330197999513,0.005648190067255757,-0.007976544472206309,0.006513068703605081,0.9903044641015158
2017-02-21,1,0.005593727828373119,0.006304601746547466,-0.009722827164542069,0.006499406531704352,0.9878417057019279
2017-02-23,1,0.0051347160265799874,0.005744089643966337,-0.009722827164542069,0.007624612345334465,0.9881876365209149
2017-02-27,1,0.005418854791038684,0.006090347675848239,-0.009722827164542069,0.006527466545573739,0.987733567268153
2017-03-01,1,0.006463672652290595,0.00727132680479204,-0.009722827164542069,0.006527466545573739,0.9882445527605406
2017-03-03,1,0.005647841613663789,0.0063040461810832515,-0.011107161604666481,0.00784126325670605,0.9869663061983353
2017-03-07,1,0.0035639605302111394,0.003795079204038234,-0.014501178668969453,0.008332272138909903,0.987101772202437
2017-03-09,1,0.002287894283545193,0.0023412017756687916,-0.009145852309210379,0.008332272138909903,0.9887223713505744
2017-03-13,1,0.0025489648196947703,0.002615234679457546,-0.009145852309210379,0.009268153496573974,0.9882796517010629
2017-03-15,1,0.0015006788169840924,0.0016102418110679373,-0.009145852309210379,0.011668308330257112,0.9871098010334465
2017-03-17,1,0.0011456302496679921,0.0012996620696757823,-0.008899989511649515,0.011668308330257112,0.9871191922963585
2017-03-21,-1,-0.0011981443169704308,-0.0007511088048482489,-0.0005701687804561414,0.011668308330257112,0.9888524732823695
2017-03-23,-1,-0.0009655084801738509,-0.0005427944207669895,-0.004130908608252332,0.009703030713487094,0.9894421529601384
2017-03-27,-1,-0.001390147340554904,-0.0009136513768493806,-0.0010336804281412917,0.015094882862441502,0.9873991976138322
2017-03-29,-1,-0.001881416936259057,-0.0013039045430105433,-0.004130908608252332,0.015094882862441502,0.9830347248508023
2017-03-31,-1,-0.0018111489023339617,-0.0012468764701770297,-0.0036423153288688338,0.013427287739205988,0.9855629499994913
2017-04-04,-1,-0.0012101423508105974,-0.0007746662312513389,-0.0010336804281412917,0.008420590275790101,0.986605815774791
2017-04-06,-1,-0.00036371271560354114,-9.464045382059699e-05,-0.0010336804281412917,0.01373183958781294,0.9860210852951529
2017-04-10,1,0.0012539809865366527,0.0012638814650170172,-0.0036423153288688338,0.0067081940879952185,0.9867525080958465
2017-04-12,1,0.0016319781650004398,0.0016741274558804576,-0.0036423153288688338,0.006563886712726053,0.9879672931876718
2017-04-17,1,0.0019528819001570189,0.002076351071759376,-0.0017044566888306757,0.007733109331130746,0.9874530734368293
2017-04-19,1,0.0016790994039948414,0.0017491912452254894,-0.004507462594075376,0.010657145220066845,0.9849676691819778
2017-04-21,1,0.0013712125644692829,0.001400132548595069,-0.0017044566888306757,0.010657145220066845,0.985093191650572
2017-04-25,1,0.0025968338986309273,0.0027989524067822086,-0.0034596984161765227,0.006628868808079195,0.9868276392679101
2017-04-27,-1,-0.0007512929373445757,-0.0004950497252716658,-0.0015180663893255572,0.0071263523325514975,0.9908855935819737
2017-05-01,-1,-0.0005112025829868348,-0.0003147289132586185,-0.0015180663893255572,0.009225559904547652,0.9897190845225194
2017-05-03,1,7.672548062156689e-05,0.0001705895523995733,-0.005818480408096294,0.009225559904547652,0.9891098220148125
2017-05-05,1,0.0002774079166007531,0.00038224671361345233,-0.013743948780588686,0.008170099496927598,0.9886628862379503
2017-05-09,1,0.0002937786837882581,0.0003464849544271033,-0.006749949530999394,0.008170099496927598,0.9891951671722993
2017-05-11,-1,-0.00014576143910425502,-3.054716929008994e-05,-0.0057245465489484115,0.009225559904547652,0.988713862785219
2017-05-15,-1,-0.00038647358952112714,-0.00018349565049961087,-0.010377788336218014,0.008170099496927598,0.9883404375875393
2017-05-17,-1,-0.0012936529051706192,-0.0009835769486194216,-0.010377788336218014,0.007706109121090416,0.9896994470126187
2017-05-19,-1,-0.0011128721493730582,-0.0008260404278052857,-0.010377788336218014,0.008170099496927598,0.9893918870346924
2017-05-23,-1,-0.0012928825390660199,-0.0009711816381279232,-0.014049636311226906,0.00961875778565116,0.9881909981381164
2017-05-25,-1,-0.0013972448038964299,-0.001037598085527422,-0.014049636311226906,0.011917654903403567,0.9875738127126936
2017-05-30,-1,-0.0010247550811974008,-0.0007386040956064965,-0.016338514392759046,0.009249932645862106,0.9854980940991194
2017-06-01,-1,-0.0015967663106628068,-0.0012260057679030418,-0.018104795050607282,0.011917654903403567,0.9843240140236041
2017-06-05,-1,-0.002563395217724417,-0.00204914583176009,-0.011475388360038263,0.011917654903403567,0.9858831777452894
2017-06-07,-1,-0.0031199286626883765,-0.0025106566766136497,-0.018104795050607282,0.011917654903403567,0.9835674841823213
2017-06-09,-1,-0.0029029648750501374,-0.0023232950468871864,-0.018104795050607282,0.011917654903403567,0.9832719072926188
2017-06-13,-1,-0.003541306291393392,-0.002859657806725008,-0.009382568608161185,0.012989193853076305,0.9828891890936323
2017-06-15,-1,-0.0036009562068012916,-0.002935723349541244,-0.009642966281116515,0.015258025110271639,0.9808548797482498
2017-06-19,-1,-0.0019239065194581854,-0.0015850437759682748,-0.012886059773870492,0.015258025110271639,0.9810080666648633
2017-06-21,-1,-0.0013800569577568072,-0.001156827733575382,-0.007642990182582256,0.012284728752353112,0.9817337390172002
2017-06-23,-1,-0.0005962601058286324,-0.00048110247704861986,-0.007642990182582256,0.010704829111143774,0.9824975931735722
2017-06-27,-1,-0.0015494801256503892,-0.0013409470035596247,-0.014640470818163769,0.010704829111143774,0.9799826273083645
2017-06-29,-1,-0.0017266263321551814,-0.0015011730803662423,-0.00732859538090511,0.009086737734950601,0.9817513099102189
2017-07-03,-1,-0.0017761351528698816,-0.001551802971170686,-0.00732859538090511,0.01083534051053785,0.9806882939108563
2017-07-06,-1,-0.0021476294675032933,-0.001892389469386738,-0.0004119447389092743,0.010602345625146791,0.9827428204553792
2017-07-10,-1,-0.0013044768953298308,-0.001172689043522854,-0.004663470551725517,0.009086737734950601,0.9843463517693459
2017-07-12,-1,-0.0007533150948554932,-0.0006830939886169803,-0.011120027931578732,0.005140989447875481,0.9850264685403742
2017-07-14,-1,-0.0007912869436066045,-0.0007157966891790106,-0.011120027931578732,0.005140989447875481,0.9855022554139086
2017-07-18,-1,-0.0010302376434511069,-0.0009277172878496944,-0.009176674025127542,0.007115063172316342,0.9854071544539437
2017-07-20,-1,-0.0006763536489081071,-0.000621547618053804,-0.012525280460035149,0.006347547751278397,0.9845308754054914
2017-07-24,-1,-0.00016715315904476403,-0.00012788275431500852,-0.012525280460035149,0.006347547751278397,0.9846981491330797
2017-07-26,-1,-0.0020592908251781737,-0.0018659752240181545,-0.009176674025127542,0.007115063172316342,0.9873167385238991
2017-07-28,-1,-0.001892160139614013,-0.0017101918277427977,-0.009176674025127542,0.007573911354040015,0.9873719384760442
2017-08-01,-1,-0.001750288264315945,-0.00156389266854853,-0.009176674025127542,0.006500497145186288,0.9882200266715994
2017-08-03,-1,-0.0014180510210309023,-0.0012864702059301684,-0.009176674025127542,0.006500497145186288,0.9884207496592058
2017-08-07,-1,-0.0014657695931784092,-0.0013231490806468607,-0.009176674025127542,0.0077729885774568625,0.9866802763770834
2017-08-09,-1,-0.0018678461505618176,-0.0016788272365891254,-0.00540599719968282,0.0077729885774568625,0.9869723030903262
2017-08-11,-1,-0.0023309584529885357,-0.002053269374961568,-0.008926839491813051,0.007480915452364402,0.9876718940419233
2017-08-15,-1,-0.0022170918232722655,-0.0019650541935847645,-0.006037891558094555,0.007900801234834175,0.985436235538218
2017-08-17,-1,-0.002585443163171203,-0.002289238706720563,-0.004085065526947978,0.013018111976817601,0.9855406354863261
2017-08-21,-1,-0.0024407682143404155,-0.002177720913939467,-0.005679942529932546,0.013018111976817601,0.9840355699881037
2017-08-23,-1,-0.0023677433458032695,-0.0021199673793696775,-0.001944097072242274,0.00904749848365767,0.9862178640812111
2017-08-25,-1,-0.002144900164391616,-0.0019270967685304538,-0.005679942529932546,0.014369721775591347,0.9850358931759078
2017-08-29,-1,-0.0018953074191059081,-0.0017143649743064746,-0.009264758737249136,0.014369721775591347,0.9847206242053197
2017-08-31,-1,-0.0014358651649276485,-0.0013316935111847752,-0.009264758737249136,0.014369721775591347,0.9844960391883235
2017-09-05,-1,-0.0006025613984289423,-0.0005928162224131491,-0.009264758737249136,0.014369721775591347,0.9847769997081552
2017-09-07,-1,-0.000663602711165293,-0.0006554557298942332,-0.0067071888957514845,0.014369721775591347,0.9852301489327517
2017-09-11,-1,-0.001183386617709349,-0.0011340530425695378,-0.004796444694391842,0.014369721775591347,0.9866898990520527
2017-09-13,-1,-0.00029434690549877087,-0.00023311968457127554,-0.006372664715774312,0.00701908160230305,0.989199863554252
2017-09-15,1,0.0005189837223757225,0.0007486326313464186,-0.006372664715774312,0.00701908160230305,0.989493505058517
2017-09-19,-1,-0.000738161579675186,-0.0007121418322545244,-0.006372664715774312,0.00701908160230305,0.9904387785374593
2017-09-21,-1,-0.00042623860362143404,-0.0004152349975070054,-0.006372664715774312,0.006529244323480951,0.9907330921527
2017-09-25,-1,-0.0001385412597258116,-7.164859104908929e-05,-0.004796444694391842,0.008983208592171154,0.986905228099152
2017-09-27,1,0.00011392111876272384,0.00021634517134495087,-0.006372664715774312,0.006529244323480951,0.9863500280683694
2017-09-29,1,6.486184767413229e-05,0.00015009858106366386,-0.007828265031107373,0.004895018259604237,0.9852413411755304
2017-10-03,1,0.0003938739443254676,0.0005221203206009959,-0.007828265031107373,0.004663103455040172,0.9863452512364469
2017-10-05,1,0.000612134696781282,0.0007879871868382202,-0.007828265031107373,0.004663103455040172,0.9863342903656775
2017-10-09,1,0.0003828684625726407,0.0005081051370647738,-0.008547115395311299,0.008138155620118877,0.9847444732110776
2017-10-11,1,0.00037744827730234624,0.0005141112654515438,-0.009798824139626393,0.010599025305294607,0.9840849357358279
2017-10-13,1,0.0007859858776905289,0.0009804341750661403,-0.009798824139626393,0.010501406269814322,0.9842224776469243
