JNU-Tangyin/eata/results/Batch4_SP500/Batch4_SP500-CDE.csv
Date,Action,Predicted_Q25,Predicted_Q75,Actual_Q25,Actual_Q75,RL_Reward
2010-12-14,0,0.0,0.005298666701849888,-0.028278341893570702,0.014448582049027573,0.9771542443011774
2010-12-16,1,0.003184884527519777,0.003185047010791536,-0.028278341893570702,0.014448582049027573,0.9738261502359882
2010-12-20,1,0.0031784708339861073,0.0031816891895943434,-0.03477139132842648,0.012410788965917015,0.9726794570018665
2010-12-22,0,0.0,0.0,-0.03306555178240188,0.006575554101226814,0.9728201799441345
2010-12-27,0,0.0,0.0,-0.03306555178240188,0.004764128064896282,0.9732161715785425
2010-12-29,0,0.0,0.0,-0.03900189191616431,0.004394760490380323,0.9706257406409844
2010-12-31,1,0.00322233321178563,0.003235007037267295,-0.03900189191616431,0.004394760490380323,0.9694031936094879
2011-01-04,0,0.0,0.0,-0.03306555178240188,0.006194846177840728,0.9711512857845501
2011-01-06,0,0.0,0.0,-0.027907710649231955,0.01427306266818863,0.9719886223842931
2011-01-10,0,0.0,0.0,-0.027907710649231955,0.022874476965820477,0.9708391824419631
2011-01-12,1,0.001461130397085372,0.001951148849733072,-0.027907710649231955,0.00865485676310426,0.9755110192975435
2011-01-14,0,0.0,0.0,-0.018974946752164754,0.02205118413438001,0.9777442940476523
2011-01-19,0,0.0,0.0,-0.01171579774294429,0.02205118413438001,0.9784476703665795
2011-01-21,0,0.0,0.0,-0.005058472842091346,0.02538048311342246,0.9785000333683707
2011-01-25,1,0.0009662341121570145,0.0010596205110209374,-0.005720671754422409,0.0291295375884803,0.9759717393913102
2011-01-27,-1,-0.006130362335789754,-0.004819354421234696,-0.005720671754422409,0.0291295375884803,0.9768952930012451
2011-01-31,-1,-0.004624729889966286,-0.0035868316195002453,-0.0013660243944117513,0.03684795462137633,0.9720187804568111
2011-02-02,-1,-0.0030400281037164384,-0.0021763568778059433,-0.0010601446423173936,0.03684795462137633,0.9726457489238981
2011-02-04,-1,-0.002413989639361663,-0.0016807656153694948,-0.0010601446423173936,0.03684795462137633,0.9734538149842443
2011-02-08,0,-8.605495057821826e-05,0.00032529693121224846,-0.008007537449368805,0.03362041926454408,0.9745905133722919
2011-02-10,-1,-0.001898767689903186,-0.0012732070701919008,-0.008007537449368805,0.03684795462137633,0.9703730037187576
2011-02-14,-1,-0.0010032513113000785,-0.0004333087943956904,-0.01961703563365201,0.03684795462137633,0.9696738193264887
2011-02-16,-1,-0.0005295691915829836,-1.823048541180726e-05,-0.022900339878509098,0.03684795462137633,0.9679608653206512
2011-02-18,1,0.002218636450814879,0.0023860726746342993,-0.022900339878509098,0.04286421056871443,0.9647772056744515
2011-02-23,1,0.0016565108052884272,0.001905578385874292,-0.02058108438112439,0.04286421056871443,0.9657314872666843
2011-02-25,1,0.0009136924269147549,0.0013425978844145028,-0.019655219749167833,0.04286421056871443,0.967417068738755
2011-03-01,1,0.0080111717507697,0.00856588521676028,-0.022900339878509098,0.026738124835550738,0.9715062571865898
2011-03-03,0,0.0,0.0,-0.022900339878509098,0.023203487448422547,0.9724953560075342
2011-03-07,1,0.004308999382187441,0.004984990423979722,-0.022900339878509098,0.023203487448422547,0.9719445218236702
2011-03-09,1,0.007011731693026512,0.007517303010187912,-0.020704708879788394,0.029348690311044954,0.9703810921513699
2011-03-11,1,0.006231277170715203,0.006479574288316837,-0.01651788565233705,0.020261167328244824,0.9748461723621862
2011-03-15,0,0.0,0.0,-0.01889148845301629,0.020261167328244824,0.9749444857689088
2011-03-17,-1,-0.0012564951662414636,-0.0005154494930913701,-0.018215713870371634,0.020261167328244824,0.9733994815096625
2011-03-21,1,0.004689748423145097,0.004709475957205964,-0.02219417571887513,0.01712127420768462,0.9767362828629893
2011-03-23,1,0.0058046821512893094,0.005912869665503969,-0.02219417571887513,0.01630519267544509,0.977420287378083
2011-03-25,1,0.004919219654654303,0.004941588897140946,-0.02523521618416057,0.01630519267544509,0.9763933027890991
2011-03-29,1,0.004346562283959821,0.004366236434027685,-0.02219417571887513,0.01642170294995382,0.9769917958399991
2011-03-31,1,0.007179181551631113,0.007786870668424252,-0.02219417571887513,0.015771219534093203,0.9772240110190634
2011-04-04,1,0.006587524153095322,0.007086512088521044,-0.028010252163577557,0.014357441132791443,0.9737349151592177
2011-04-06,1,0.00895319955946821,0.009885732695932386,-0.03205040735456825,0.008828344024471187,0.9726777275424701
2011-04-08,0,0.0,0.0,-0.03205040735456825,0.008828344024471187,0.974143544161684
2011-04-12,0,0.0,0.0,-0.03743973769560211,0.008828344024471187,0.9746215462642259
2011-04-14,1,0.00030344351686470525,0.0005554873678543076,-0.02885440801365264,0.008828344024471187,0.9787484866625649
2011-04-18,0,-0.00026316521561253314,5.600730892194093e-05,-0.02885440801365264,0.010064135090748102,0.979441933738703
2011-04-20,-1,-0.0004177202567749558,-1.7853499603287092e-05,-0.02885440801365264,0.007524069594330684,0.9803318630043293
2011-04-25,0,-0.0002476404599708362,3.5162134820952294e-05,-0.020203473841063843,0.0020745364839135027,0.9820052416673604
2011-04-27,1,0.002588854230705883,0.002682376986955585,-0.020203473841063843,0.00033379400058479935,0.9801236516593713
2011-04-29,1,0.002774756351580224,0.0030694022884956017,-0.020203473841063843,0.00246734803499838,0.9785632112599869
2011-05-03,-1,-0.002497290970247374,-0.0020142257436816554,-0.013178901097182522,0.007932179784154125,0.9826582628605571
2011-05-05,-1,-0.003510802345384389,-0.003007847128657978,-0.013178901097182522,0.007932179784154125,0.9837119267559828
2011-05-09,-1,-0.0032476547336422685,-0.0027996849883555478,-0.011768785713010238,0.00221057321385465,0.9854024990762713
2011-05-11,-1,-0.006291729414804887,-0.005426471120799061,-0.011768785713010238,0.007932179784154125,0.9849059657262045
2011-05-13,0,0.0,0.0,-0.014100663298032778,0.007932179784154125,0.9822496310213117
2011-05-17,0,0.0,0.0,-0.020343563867691164,0.007932179784154125,0.979611137958827
2011-05-19,-1,-0.007780703366847942,-0.0067088296595232315,-0.020343563867691164,0.002898838866246341,0.9813245634352991
2011-05-23,-1,-0.006380620498123294,-0.005612637815523956,-0.020343563867691164,0.022478403471692582,0.9776466253671071
2011-05-25,-1,-0.004688805888891627,-0.004073070747450248,-0.020343563867691164,0.011038246367002963,0.9799727558542289
2011-05-27,0,0.0,0.0,-0.027224066054249648,0.006728648048997319,0.9792695176707553
2011-06-01,0,0.0,0.0,-0.020343563867691164,0.015713858740216823,0.980208142010206
2011-06-03,-1,-0.008830629461949333,-0.007504223404992891,-0.01513687544279338,0.015713858740216823,0.9822758922259602
2011-06-07,0,0.0,0.0,-0.01513687544279338,0.022478403471692582,0.9785898793829542
2011-06-09,0,0.0,0.0,-0.01239211601821413,0.021926428454873914,0.9806004137215099
2011-06-13,0,0.0,0.0,-0.0116799925726478,0.027552012770416516,0.9799233333653276
2011-06-15,0,0.0,0.0,-0.011635107735016014,0.027552012770416516,0.9806853477401097
2011-06-17,-1,-0.01394731138763692,-0.011872228664298623,-0.007184514448861949,0.030755950940124246,0.9731000992716692
2011-06-21,-1,-0.010320777859410981,-0.008702560000665776,-0.011716551711717834,0.022945139075462098,0.9779002924580731
2011-06-23,-1,-0.01026126417801193,-0.008687942799379882,-0.012257461505318767,0.030698264477256237,0.9758514119452388
2011-06-27,0,0.0,0.0,-0.007633208451933724,0.030698264477256237,0.9792352477047114
2011-06-29,0,0.0,0.0,-0.012257461505318767,0.030698264477256237,0.9792302716254032
2011-07-01,0,0.0,0.0,-0.011919438305436353,0.031026310475349775,0.9777198268411754
2011-07-06,0,0.0,0.0,-0.011919438305436353,0.019048690472592826,0.9804526141048484
2011-07-08,0,0.0,0.0,-0.01590828410938522,0.019048690472592826,0.9747188292271555
2011-07-12,0,0.0,0.0,-0.01590828410938522,0.019048690472592826,0.9688591633505427
2011-07-14,-1,-0.0034869957189351034,-0.00303555083644803,-0.01590828410938522,0.019048690472592826,0.9694301490411643
2011-07-18,-1,-0.0006319080281675546,-0.0005017472071456054,-0.01590828410938522,0.019048690472592826,0.9693854811322196
2011-07-20,0,0.0,0.0,-0.021155275891587756,0.012487280598906683,0.968782215430675
2011-07-22,0,0.0,0.0,-0.031010269883897875,0.011905260318370511,0.9669295915235551
2011-07-26,0,0.0,0.0,-0.031010269883897875,0.030732864914635283,0.9644268854176647
2011-07-28,0,0.0,0.0,-0.017126874910716045,0.030732864914635283,0.9645566164718792
2011-08-01,0,0.0,0.0,-0.014889682658803497,0.028927993137159047,0.964634213007014
2011-08-03,0,0.0,0.0,-0.017238508763646028,0.028927993137159047,0.9639761529208457
2011-08-05,0,0.0,0.0,-0.010462771631884714,0.03131575231820949,0.9677847735696413
2011-08-09,0,0.0,0.0,-0.007785129571562966,0.029804171721414335,0.9754379548069679
2011-08-11,1,0.0029433294094507977,0.003626793364328074,-0.010462771631884714,0.028927993137159047,0.9767920644006539
2011-08-15,1,0.006409836909540169,0.007663890828015475,-0.012853181258201216,0.02379547813217218,0.9784429698990085
2011-08-17,1,0.003839427577619382,0.004696866300020071,-0.013308613205309277,0.02379547813217218,0.9786697407004088
2011-08-19,1,0.0034446937023615413,0.004241512721917494,-0.013308613205309277,0.01920583455300715,0.9816208693309311
2011-08-23,1,0.0053793135841626125,0.006478429016764896,-0.013308613205309277,0.014869582147263041,0.9831254520439897
2011-08-25,1,0.006168421112666336,0.007399727102141169,-0.016365773946776976,0.013172068249556041,0.9764230886147299
2011-08-29,1,0.008876956095459868,0.010559987911904406,-0.016365773946776976,0.005080122538714808,0.9743817197112657
2011-08-31,1,0.008952925613025759,0.010672854379246999,-0.020052198082219863,0.0025256225752698465,0.9716046727469247
2011-09-02,1,0.008928463905416323,0.010536655164634662,-0.02605555724197792,0.002110872736925793,0.9709308773301358
2011-09-07,1,0.008692651469767762,0.01006918183862202,-0.02605555724197792,0.002110872736925793,0.9693396999999937
2011-09-09,1,0.007211563479107034,0.008374526403352171,-0.02605555724197792,0.0025256225752698465,0.9688436895617449
2011-09-13,1,0.0072005646659818725,0.008412790483708417,-0.02605555724197792,0.005508568359221156,0.966919589895651
2011-09-15,1,0.0053952775223378765,0.0063227104842587135,-0.018681929222566528,0.01599783206711839,0.9685032250124096
2011-09-19,0,0.0,0.0,-0.029023585174927615,0.026763194943084392,0.9665050730833983
2011-09-21,0,0.0,0.0,-0.04297745402017362,0.026763194943084392,0.9647698914435883
2011-09-23,0,0.0,0.0,-0.018681929222566528,0.026763194943084392,0.9712557497359109
2011-09-27,-1,-0.002796211944271503,-0.00249736783779975,-0.018681929222566528,0.030799492024687507,0.9691048647842975
2011-09-29,0,0.0,0.0,-0.016329388273771152,0.03903588313383574,0.9682683375147351
2011-10-03,0,0.0,0.0,-0.016246448024910307,0.03903588313383574,0.967474144862011
2011-10-05,0,0.0,0.0,-0.015498988940731194,0.03086543353990492,0.9685934451459582
2011-10-07,0,0.0,0.0,-0.00772612710486307,0.031030417605578686,0.9698626261784207
2011-10-11,0,0.0,0.0,-0.0031221145764942595,0.031030417605578686,0.9695136159410227
2011-10-13,0,0.0,0.0,-0.0031221145764942595,0.031030417605578686,0.9679777879217311
2011-10-17,0,0.0,0.0,-0.0026253796997762705,0.033273231763216976,0.9695816485448568
2011-10-19,0,0.0,0.0,-0.0026253796997762705,0.033273231763216976,0.970684250858886
2011-10-21,0,0.0,0.0,-0.01376202041102895,0.033273231763216976,0.9696082600734633
2011-10-25,0,0.0,0.0,-0.01746634173018954,0.0219622891279994,0.9721307073380364
2011-10-27,0,0.0,0.0,-0.025668225344716793,0.015369297999223448,0.9737122563370609
2011-10-31,0,0.0,0.0,-0.01746634173018954,0.018424637772257373,0.9742196059928038
2011-11-02,1,3.12409597860952e-05,0.00021815786451234297,-0.01597613710003557,0.020829604586069528,0.9719889491650067
2011-11-04,1,0.0012711613875909284,0.0013355281462531184,-0.019925569126959992,0.01299758055605066,0.9730723695238196
2011-11-08,1,0.0031787334878560563,0.003358396570165247,-0.019925569126959992,0.01299758055605066,0.9755629455542792
2011-11-10,1,0.0030233003090260144,0.0033157599661165337,-0.019925569126959992,0.015602254807207432,0.9762538695777481
2011-11-14,1,0.0032567865359667486,0.00354361373028209,-0.027425261330690134,0.01139882178313617,0.9744123882444073
2011-11-16,1,0.0024845695641541885,0.0026121787189129536,-0.03206770215697032,0.010080395896957108,0.9727780009847801
2011-11-18,1,0.001719210034439609,0.0017957120635484912,-0.031957115929466755,0.011833874570829071,0.9721191155199608
2011-11-22,1,0.000850864890200291,0.0009310177429586079,-0.029035551272917938,0.018137319381788534,0.9714865215761356
2011-11-25,1,0.00040142849514910223,0.0004264441474502196,-0.02051124778895111,0.018137319381788534,0.9738807004783313
2011-11-29,1,0.0016409553126390717,0.0017621916695256356,-0.029035551272917938,0.010461693026071176,0.9719407599452217
2011-12-01,1,0.00309389561657318,0.0034122893876982396,-0.029035551272917938,0.010461693026071176,0.9749720914103798
2011-12-05,1,0.002432135186187613,0.0026411194166375013,-0.029035551272917938,0.01810148057239821,0.9740170784147257
2011-12-07,1,0.004400786715726365,0.005038003216891769,-0.029035551272917938,0.013119308860839157,0.9739008351321617
2011-12-09,1,0.004970281062984535,0.005720226839420018,-0.027697418684487163,0.013119308860839157,0.9744520106928118
2011-12-13,1,0.0015379243975741565,0.0018175512631669513,-0.016521032086313666,0.01814750753075637,0.9777003946938925
2011-12-15,1,0.00014134548181734229,0.0002488607108368287,-0.011274609003866053,0.01814750753075637,0.9797843880548035
2011-12-19,-1,-0.0009411060559802953,-0.0008504256610297719,-0.006185075638321055,0.01814750753075637,0.980899736237919
2011-12-21,1,0.0013555876387295524,0.0016116312605743083,-0.006185075638321055,0.01531333646712142,0.9829933503359758
2011-12-23,1,0.0009487547776587555,0.0011145550065985784,-0.008042944486896285,0.01814750753075637,0.979639471000474
2011-12-28,-1,-0.004015361274156831,-0.0033900099416704034,-0.005840754474211736,0.02365288514847392,0.9809548828137944
2011-12-30,-1,-0.0019253170796354386,-0.0016114486255438118,-0.008042944486896285,0.020116709900495862,0.9807741911907308
2012-01-04,1,0.0007056426041579253,0.0007327421955004984,-0.008042944486896285,0.01531333646712142,0.9821314878660226
2012-01-06,1,0.0015256068114405652,0.001788716690879277,-0.009512084948733995,0.01531333646712142,0.9823186583339806
2012-01-10,1,0.0013371902447996084,0.0014777966891841294,-0.009512084948733995,0.0143856085406114,0.9838126343384616
2012-01-12,1,0.0011070460439834792,0.001184147396389421,-0.011932677169772286,0.014139896904062046,0.9836987279303235
2012-01-17,-1,-0.00014872909095841913,-0.00011194237950433915,-0.009512084948733995,0.014139896904062046,0.9846595789645798
2012-01-19,1,0.0013168546768084714,0.0015343836225104107,-0.009512084948733995,0.014139896904062046,0.9837804738030976
2012-01-23,1,0.002415688440206269,0.002824551228841856,-0.009512084948733995,0.014139896904062046,0.9820781560545649
2012-01-25,1,0.004284947606120628,0.004919719057419445,-0.008674228550886872,0.00815775536250608,0.9852590288571405
2012-01-27,1,0.0052652549422866,0.006092593763103933,-0.012255998246295278,0.005816250511298699,0.9842031193556228
2012-01-31,1,0.003725908460289729,0.004413852213489973,-0.01130048768714971,0.00815775536250608,0.9806704222879524
2012-02-02,1,0.003924047014668041,0.004551898803877157,-0.012788644930919626,0.005816250511298699,0.9791741857253929
2012-02-06,1,0.0036064344720709326,0.004204594339290681,-0.022991601853930378,0.005816250511298699,0.9765760048208324
2012-02-08,1,0.0029730086442579166,0.003384960356375885,-0.022991601853930378,0.007094126394392763,0.9758262283136044
2012-02-10,1,0.0017437691802981987,0.0020204498594651897,-0.027516232086479686,0.008201861516180523,0.976258354565815
2012-02-14,1,0.0016491057806462383,0.0019100606953286036,-0.031764925025378525,0.012559703166475167,0.9725770140264014
2012-02-16,1,0.0009970020176109252,0.0010897495651008263,-0.031764925025378525,0.008201861516180523,0.9737837526788055
2012-02-21,1,0.0014534937583325289,0.0014917360724252403,-0.031764925025378525,0.006546331826662229,0.9756052903948779
2012-02-23,1,0.0002968405440074113,0.0005415911676805712,-0.031764925025378525,0.005939148605428372,0.9745731479273773
2012-02-27,-1,-0.002427289911342813,-0.0017884230275310251,-0.028860984222496437,0.01113863375458076,0.9755050261968606
2012-02-29,0,0.0,0.0,-0.026548251818852328,0.008201861516180523,0.979983306006766
2012-03-02,0,0.0,0.0,-0.02103324779243991,0.005939148605428372,0.9822419872291204
2012-03-06,0,0.0,0.0,-0.01760473492794231,0.009495250051389157,0.9824934221175822
2012-03-08,-1,-0.0026834697046785798,-0.002137171815932728,-0.021466181463876396,0.005939148605428372,0.9818608869427728
2012-03-12,0,0.0,0.0,-0.01760473492794231,0.0035598650777337254,0.9824974849849297
2012-03-14,-1,-0.006758883176140404,-0.005577591390974419,-0.015923322329906432,0.0035598650777337254,0.9849650788260931
2012-03-16,0,0.0,0.0,-0.015923322329906432,0.0035598650777337254,0.9826517094941014
2012-03-20,0,0.0,0.0,-0.017851216873418993,0.005972687628346765,0.9812776210452056
2012-03-22,0,0.0,0.0,-0.015923322329906432,0.009978776629254999,0.9823873378047149
2012-03-26,-1,-0.0029874246099183197,-0.0025400412008373795,-0.017851216873418993,0.0007393292627650334,0.9835453632526883
2012-03-28,-1,-0.0033334559582189937,-0.002876851332763784,-0.016747967412996098,0.004862793634036621,0.9828232994642138
2012-03-30,-1,-0.0023645503297263643,-0.0020925947445873316,-0.016747967412996098,0.008654621705452628,0.982058325130068
2012-04-03,-1,-0.0016849283737056194,-0.001577382739428931,-0.016747967412996098,0.005554984084763812,0.9829294149535662
2012-04-05,-1,-0.0037055711008535507,-0.003325654626966946,-0.015931251526331444,0.005554984084763812,0.9833619629644037
2012-04-10,-1,-0.003207920708612031,-0.002932453658828068,-0.029551348280553724,0.005554984084763812,0.9808269594081446
2012-04-12,-1,-0.0018445552116120062,-0.0017080739839066702,-0.029551348280553724,0.005554984084763812,0.9821904416981944
2012-04-16,-1,-0.004234625897817669,-0.003781388076249368,-0.029551348280553724,0.005554984084763812,0.9827097495283126
2012-04-18,-1,-0.00456355727427845,-0.004053363990205122,-0.031840064309080165,0.0039481986448675205,0.982213511241189
2012-04-20,-1,-0.005471443273061039,-0.004773645212972936,-0.031840064309080165,0.0039481986448675205,0.9812251846192638
2012-04-24,-1,-0.0054233088965386375,-0.004817807398399061,-0.029551348280553724,0.005910836737945328,0.9786830657105826
2012-04-26,-1,-0.0025915939356551997,-0.0024528664708591175,-0.029551348280553724,0.005910836737945328,0.9773550162960152
2012-04-30,-1,-0.0030428926251185374,-0.002800482609077367,-0.029551348280553724,0.006890002692407453,0.9773285323516757
2012-05-02,-1,-0.0031590695786257676,-0.002969192494029004,-0.02794649520535263,0.002117320567360818,0.9778335257365143
2012-05-04,-1,-0.004568103507932904,-0.004238379724109825,-0.026993717202816084,0.014005567831541594,0.9759454849493638
2012-05-08,-1,-0.008487350869525965,-0.007537788206146167,-0.018220292964047573,0.016445098258654138,0.9767988074618954
2012-05-10,-1,-0.009466168718501183,-0.008319789103662524,-0.018220292964047573,0.016445098258654138,0.9773724733524514
2012-05-14,-1,-0.011680541472696893,-0.010253599919146287,-0.017078557766242834,0.021209037107453012,0.9758372464663101
2012-05-16,-1,-0.01207126838441996,-0.010706980586105034,-0.012727947774647547,0.021209037107453012,0.9762867930874476
2012-05-18,-1,-0.01207094871967309,-0.010721016852237641,-0.011718721088667287,0.021209037107453012,0.9774769584438668
2012-05-22,-1,-0.012289550948427857,-0.010768055631265816,-0.011718721088667287,0.018287688860161227,0.979831038289471
2012-05-24,-1,-0.01049239919398343,-0.009253333807961815,-0.011718721088667287,0.014021441246299001,0.9787929845285652
2012-05-29,-1,-0.00859341654420785,-0.00768279049122423,-0.012861560765235647,0.010963284249276513,0.980779829276049
2012-05-31,-1,-0.00933479136719068,-0.008348923986591275,-0.012861560765235647,0.014021441246299001,0.9794745922261292
2012-06-04,-1,-0.004670144126738452,-0.004295707984307258,-0.012861560765235647,0.014021441246299001,0.9819653045554063
2012-06-06,-1,-0.003651968868514897,-0.003393095838828366,-0.015024581195967321,0.014021441246299001,0.9803131489915465
2012-06-08,-1,-0.004213249723795068,-0.0038558288014373726,-0.018755823221879537,0.014021441246299001,0.9782656550168523
2012-06-12,-1,-0.0032072804839264326,-0.0030202546732483564,-0.018755823221879537,0.0063798387538361225,0.9783572886869824
2012-06-14,-1,-0.002484405906077003,-0.002430146446280463,-0.018755823221879537,0.0053946222347700905,0.9787049075402068
2012-06-18,-1,-0.0012949133281910808,-0.0010637447212366348,-0.020511472853226485,0.006010538458601155,0.9781154074116809
2012-06-20,-1,-0.0007260432401527291,-0.0003761651081063829,-0.020511472853226485,0.006010538458601155,0.9777313432092579
2012-06-22,-1,-0.003337048301129242,-0.0032522302614798396,-0.020511472853226485,0.01179212412974469,0.9793301948348282
2012-06-26,-1,-0.003085943934099498,-0.00306293681953265,-0.020511472853226485,0.020721986209950298,0.9783533739944339
2012-06-28,-1,-0.0029384241523678096,-0.002894382681112621,-0.017704514441341482,0.020231759921606175,0.979033381225577
2012-07-02,-1,-0.0018497475746905552,-0.0016515917048305867,-0.020511472853226485,0.0181594267852803,0.979431542212301
2012-07-05,-1,-0.0015124860215917039,-0.0013128394454361132,-0.021307544844403666,0.013871690009448642,0.9808485543281933
2012-07-09,-1,-0.0029618568308428317,-0.0029464399059454085,-0.017349046977842918,0.0181594267852803,0.9789377186997226
2012-07-11,-1,-0.003365280831354342,-0.0032858875916385215,-0.005612045484435058,0.020460850030960084,0.9772717376104261
2012-07-13,-1,-0.0022928385641051855,-0.002009684416827374,-0.005612045484435058,0.02215291793936646,0.9752929245097727
2012-07-17,-1,-0.0020779242355209054,-0.0017313308679984276,-0.0037736288652189835,0.02215291793936646,0.9763197828053429
2012-07-19,-1,-0.0020743228428942383,-0.0017912337429009037,-0.0020820136871095895,0.02577635933953406,0.9748716352356144
2012-07-23,-1,-0.0018287147485680005,-0.0014610146038773178,0.0002300523521966229,0.02577635933953406,0.9765495865501129
2012-07-25,-1,-0.0005889691258696291,-9.019265009776881e-05,0.004446021272637338,0.02099023196941389,0.9772696899422991
2012-07-27,0,-0.00011172402147427299,0.00036498112079187553,8.231888448008331e-05,0.02099023196941389,0.9781529752958888
2012-07-31,0,-0.00011625191626383276,0.0003904683006112598,8.231888448008331e-05,0.02099023196941389,0.9785808669820076
2012-08-02,0,-0.0004146052647701036,7.1121181291827415e-06,-0.003253209769598194,0.02099023196941389,0.9798694713210067
2012-08-06,1,0.0024458642920629744,0.0032134355522596995,-0.003253209769598194,0.023791022129086715,0.9817261505866669
2012-08-08,1,0.00413201219794025,0.005093667493362113,-0.003253209769598194,0.023613580147923037,0.9845575359329729
2012-08-10,1,0.006624465495942209,0.007950744763827608,-0.0055418735476881024,0.019101281297434002,0.9858051928162413
2012-08-14,1,0.00557984758778551,0.006698365487998835,-0.001359299201903788,0.019101281297434002,0.9861465682867875
2012-08-16,1,0.008786159845264162,0.01041495216114554,-0.001359299201903788,0.023826067771932045,0.9836743592772716
2012-08-20,1,0.008961843615695329,0.010570841274856024,-0.001359299201903788,0.023826067771932045,0.9841398519735475
2012-08-22,1,0.010080864048174366,0.011847052473167287,-0.001359299201903788,0.023826067771932045,0.9839377717330624
2012-08-24,1,0.009870534568304263,0.011579066689241559,-0.001359299201903788,0.023826067771932045,0.9818871578256908
2012-08-28,1,0.008796780528645642,0.010250331551208532,-0.001359299201903788,0.023826067771932045,0.9823270152446343
2012-08-30,1,0.008150557124338764,0.009506887306679248,0.0015517103260961071,0.02610708154954175,0.9809476273852389
2012-09-04,1,0.01143325542655928,0.013326194549867268,-0.002000007629394531,0.016571760549130968,0.9809964738816401
2012-09-06,1,0.011119892992341611,0.012843235828079363,-0.00891397687942996,0.018497890364413308,0.9788646900180205
2012-09-10,1,0.011434764734798371,0.013185486409110376,-0.0118506754527047,0.011877855260774114,0.9790658921463967
2012-09-12,1,0.011850285074933593,0.013653452135487734,-0.0118506754527047,0.01199201172619537,0.9783780230327876
2012-09-14,1,0.015414712119820363,0.017615730536547695,-0.01336013410343238,0.011137590679977515,0.9791434617572413
2012-09-18,1,0.015698893978106185,0.017986238721274424,-0.01336013410343238,0.01199201172619537,0.9788990684009922
2012-09-20,1,0.015675147100177825,0.017949438919729204,-0.016349891321695148,0.015114888993204536,0.978298913145128
2012-09-24,1,0.013415711029595049,0.015318145116444894,-0.01336013410343238,0.019102988212845687,0.9801825824325968
2012-09-26,1,0.01203682604221078,0.01363146477602074,-0.013575250758985231,0.019102988212845687,0.9785790220416334
2012-09-28,1,0.010789037124092443,0.01209583146016735,-0.013575250758985231,0.019102988212845687,0.9791895444097221
2012-10-02,1,0.010074349068652797,0.01126020326041919,-0.011453728959082678,0.024033498949082376,0.9796471675670478
2012-10-04,1,0.009355673909447436,0.010318957585831713,-0.013575250758985231,0.021594402615098967,0.9794672499841199
2012-10-08,1,0.008470185024118886,0.009172330356009893,-0.01839615795080576,0.024033498949082376,0.9720427091833315
2012-10-10,1,0.007660399348568129,0.008212093807033399,-0.02313092923161761,0.024033498949082376,0.9699526112523176
2012-10-12,1,0.007856733527051568,0.008467773304340313,-0.02490468029912886,0.022679367413986525,0.9694779138239839
2012-10-16,1,0.008768193748022304,0.009511103280828822,-0.02586610510083021,0.018651611034480403,0.9673505883527853
2012-10-18,1,0.008060738279391223,0.008726447417334401,-0.02533304353939753,0.02354087282738162,0.9679418304483915
2012-10-22,0,0.0,0.0,-0.02533304353939753,0.02107861502309527,0.9711099772411591
2012-10-24,0,0.0,0.0,-0.02313092923161761,0.02107861502309527,0.9718022550866154
2012-10-26,1,0.009089798936728665,0.01005261415803054,-0.02533304353939753,0.02107861502309527,0.9695701290768683
2012-11-01,1,0.010216396644913266,0.011290220674855078,-0.02533304353939753,0.006921018254507213,0.9694788310232672
2012-11-05,1,0.008275888096990114,0.009085297282451154,-0.02256715655872224,0.009240643608095832,0.9722887002427595
2012-11-07,1,0.00570901630802742,0.006162481842415624,-0.02256715655872224,0.005091014242585455,0.9792331330393679
2012-11-09,0,0.0,0.0,-0.018947068912081408,0.01631227795419978,0.9811984904544073
2012-11-13,0,0.0,0.0,-0.017548064545389583,0.021063940591020108,0.9814512449065392
2012-11-15,-1,-0.0028868588621905017,-0.002698044453048275,-0.014646678423205129,0.021063940591020108,0.9812953273076422
2012-11-19,0,0.0,0.0,-0.017494010225605518,0.01631227795419978,0.982238764864098
2012-11-21,0,0.0,0.0,-0.014826506126503203,0.01631907366000409,0.9824111594673643
2012-11-26,0,-0.00022145563738729438,0.00039535080778893995,-0.011310005155251726,0.02103684068980438,0.9830366141119496
2012-11-28,-1,-0.000764132262153841,-0.0001010293216499817,-0.01027334375535708,0.014941041243786644,0.9848399836397811
2012-11-30,-1,-0.003070280894012516,-0.0019960535032378787,-0.01027334375535708,0.02103684068980438,0.9830994648963989
2012-12-04,-1,-0.005090007745241105,-0.003665507676074883,-0.01027334375535708,0.021873175531381413,0.9803607280829463
2012-12-06,0,0.0,0.0,-0.01027334375535708,0.021873175531381413,0.9800698822283151
2012-12-10,0,0.0,0.0,-0.011698792241319911,0.01720491187337326,0.9818735099363047
2012-12-12,0,0.0,0.0,-0.011698792241319911,0.01720491187337326,0.9808143995628528
2012-12-14,0,0.0,0.0,-0.01027334375535708,0.01720491187337326,0.9821357899468591
2012-12-18,0,0.0,0.0,-0.009216230563537382,0.01720491187337326,0.9820571080951621
2012-12-20,0,0.0,0.0,-0.010400848041084714,0.014957311844179286,0.9816296905018735
2012-12-24,0,0.0,0.0,-0.01525264467396191,0.01447386431790015,0.980140459654936
2012-12-27,0,0.0,0.0,-0.01825325339127457,0.01447386431790015,0.9794262219639754
2012-12-31,0,0.0,0.0,-0.01825325339127457,0.01223787482025026,0.9808775642278782
2013-01-03,0,0.0,0.0,-0.01525264467396191,0.012088809245005999,0.9836624478664616
2013-01-07,0,0.0,0.0,-0.01065125177062061,0.012088809245005999,0.9841008549371821
2013-01-09,0,0.0,0.0,-0.008709573993503155,0.013973914723309886,0.9838071054919869
2013-01-11,0,0.0,0.0,-0.008709573993503155,0.012941570038404503,0.9854403308432405
2013-01-15,-1,-0.004782148578347752,-0.003846604807396781,-0.01065125177062061,0.013973914723309886,0.9813894626818634
2013-01-17,-1,-0.0037271382938267226,-0.0029847886227520213,-0.013095997189664574,0.013973914723309886,0.9802233880928729
2013-01-22,-1,-0.005053513368845793,-0.004166270990628629,-0.025527475587924595,0.012941570038404503,0.9777159126081527
2013-01-24,-1,-0.0069778187670412,-0.005860844340616114,-0.013095997189664574,0.014589409406590882,0.9784518797211259
2013-01-28,-1,-0.008655226690694505,-0.0073162797291170326,-0.008035871034236053,0.014589409406590882,0.9778977974775777
2013-01-30,-1,-0.007011192858141738,-0.006001236198660151,-0.010984122543308751,0.014589409406590882,0.9782733255627876
2013-02-01,-1,-0.006376988525846271,-0.0055275776083596045,-0.020571750149079644,0.01370613029692976,0.9773909580846795
2013-02-05,-1,-0.00536961431509416,-0.004678471182532141,-0.020571750149079644,0.01370613029692976,0.9756557807324386
2013-02-07,-1,-0.003966250907527431,-0.003448706460801118,-0.020571750149079644,0.009428098603786699,0.976448079398019
2013-02-11,-1,-0.0011309605368431505,-0.001069425047102255,-0.020571750149079644,0.008056925358206813,0.9765128063382855
2013-02-13,-1,-0.004490088412799445,-0.004204126575610048,-0.019976743485564937,0.007987535466899582,0.980688737219335
2013-02-15,-1,-0.004154400727876393,-0.003919261806947087,-0.018976023179338223,0.007987535466899582,0.9818795756007047
2013-02-20,-1,-0.008700067503182678,-0.007860497966191262,-0.00947147684199306,0.007987535466899582,0.9848398463564517
2013-02-22,-1,-0.007520384082870826,-0.0068278915001601485,-0.013794365352195342,0.007987535466899582,0.9855983176979901
2013-02-26,-1,-0.006640158029977094,-0.006127272521488416,-0.013794365352195342,0.006981020732481712,0.9864393174601195
2013-02-28,-1,-0.006910828652034063,-0.0063414954162847505,-0.008780858285514526,0.006981020732481712,0.9868860025781526
2013-03-04,-1,-0.008152854666770853,-0.007483498739338713,-0.008780858285514526,0.006981020732481712,0.9862380694253521
2013-03-06,-1,-0.005173206334199763,-0.004880170031365901,-0.013794365352195342,0.00437291405650974,0.986200473239048
2013-03-08,-1,-0.0061410099458033465,-0.005740129201388165,-0.016679826643524406,0.00437291405650974,0.9855883341202067
2013-03-12,-1,-0.005552470482831144,-0.005221509491966743,-0.016679826643524406,0.004402910239870165,0.9841391530250543
2013-03-14,-1,-0.005318041655595743,-0.005113305668036289,-0.019860636520775167,0.0031604192285814518,0.982843920793509
2013-03-18,-1,-0.004351812110878514,-0.004223003072819018,-0.025680244500842865,0.0015781282482868648,0.9796712203497349
2013-03-20,-1,-0.0031939005297207303,-0.003049728068256939,-0.032668987607592265,0.0015840014990374698,0.9740347438330366
2013-03-22,-1,-0.004153906087118157,-0.004090493854532385,-0.032668987607592265,0.004321524542256791,0.9737995012574486
2013-03-26,-1,-0.0032220477181121748,-0.0030634180556762774,-0.032668987607592265,0.011397549741697217,0.9691236510177212
2013-03-28,-1,-0.0013714921304563805,-0.0008724834213349314,-0.03651044566459284,0.021404247401969334,0.9655138325213819
2013-04-02,-1,-0.003652360272466288,-0.0035777180639707763,-0.032668987607592265,0.023407489625321593,0.9658484276281432
2013-04-04,-1,-0.002886170884190011,-0.0028140591314384706,-0.025680244500842865,0.021404247401969334,0.9696136913284426
2013-04-08,-1,-0.006002724725474628,-0.005610681535790809,-0.02358769174017368,0.021404247401969334,0.9692571857618394
2013-04-10,-1,-0.00443933155083343,-0.004173737742216735,-0.032668987607592265,0.021404247401969334,0.967792441129541
2013-04-12,-1,-0.007747910393729318,-0.0070832810657577875,-0.025134006737762053,0.021404247401969334,0.9676648936178115
2013-04-16,-1,-0.010009874386074398,-0.009138732329900225,-0.02229052329270005,0.021404247401969334,0.9705783532701907
2013-04-18,-1,-0.01145660929546176,-0.010472769255711766,-0.02229052329270005,0.020303630601384265,0.974652512380552
2013-04-22,-1,-0.010770449032173345,-0.009881786727515917,-0.02752587865815636,0.020303630601384265,0.9721745454206537
2013-04-24,-1,-0.00745348050573398,-0.00691587941371357,-0.03126141845726331,0.0147569726338549,0.9761918180958163
2013-04-26,-1,-0.009843882514302165,-0.009042244419305212,-0.027470170991927445,0.0060247153951033874,0.9790148188333037
2013-04-30,-1,-0.0076223741731448295,-0.007081202810304171,-0.027470170991927445,0.003001366691315186,0.9799503418693872
2013-05-02,0,0.0,0.0,-0.03126141845726331,0.007785755365149556,0.975078612453391
2013-05-06,0,0.0,0.0,-0.03126141845726331,0.010588233892227282,0.9726958887874623
2013-05-08,-1,-0.0037521985915582525,-0.0035710940026707333,-0.03103375225990017,0.005379908898912487,0.9765120583965304
2013-05-10,-1,-0.005029667326461729,-0.004693343513208121,-0.03103375225990017,0.011985253165444836,0.9758207393474284
2013-05-14,-1,-0.006513173594117006,-0.005970706353174352,-0.03103375225990017,0.016900943978140022,0.9749144544421211
2013-05-16,-1,-0.0065359579162054355,-0.006038963987303403,-0.024874763608722816,0.017304513518646376,0.9749200411497753
2013-05-20,-1,-0.003798531925473837,-0.0036677036473134945,-0.023945561666055267,0.01682541580481274,0.9790455432954112
2013-05-22,-1,-0.005378474220729316,-0.005082628138418892,-0.023945561666055267,0.01682541580481274,0.9772635621112739
2013-05-24,-1,-0.0038496397570641962,-0.0037829013104886877,-0.028188826921519444,0.017304513518646376,0.9746797730981387
2013-05-29,-1,-0.0029994582156257364,-0.002991093081741721,-0.03141229207090631,0.01682541580481274,0.9735844182878156
2013-05-31,-1,-0.00223178909593498,-0.0021635843782153697,-0.028188826921519444,0.017304513518646376,0.9703760287363725
2013-06-04,-1,-0.0016987140517663163,-0.001552697733428234,-0.033550423253487394,0.01682541580481274,0.9706628829093082
2013-06-06,0,-0.00023880327325040396,0.0001942035843992074,-0.033550423253487394,0.017304513518646376,0.968973380848175
2013-06-10,-1,-0.0007757873892749057,-0.00040698118444854763,-0.0328072316468083,0.017304513518646376,0.9702951612207203
2013-06-12,-1,-0.0005160385540470343,-8.78624308323602e-05,-0.0328072316468083,0.017382409495406505,0.9688163029140554
2013-06-14,-1,-0.00041253502032927614,-5.8216738242293075e-06,-0.0328072316468083,0.015165965100519502,0.9683545501821039
2013-06-18,-1,-0.0016437576228297526,-0.0014753572695196723,-0.0328072316468083,0.01877337516167714,0.9660525529578574
2013-06-20,-1,-0.0037440830618510577,-0.0036078333967561396,-0.026788645366754658,0.027618446281182,0.9675261127228505
2013-06-24,-1,-0.003829265645657332,-0.003703748964484097,-0.02480204489929662,0.0484758110646369,0.9661913687975578
2013-06-26,-1,-0.005193385198395009,-0.004941117385343885,-0.02480204489929662,0.0484758110646369,0.9665416666364678
2013-06-28,1,0.00045652794753399113,0.0009644757701589828,-0.02480204489929662,0.015165965100519502,0.9727800570376393
2013-07-02,-1,-0.0013417185115288353,-0.0010207756148932485,-0.014638978709675633,0.015165965100519502,0.9759421872071504
2013-07-05,-1,-0.0009795249352508343,-0.0005778522514254994,-0.014638978709675633,0.008456150374689494,0.9768996663509831
2013-07-09,-1,-0.0027909657552955603,-0.0027408352667111706,-0.014638978709675633,0.008456150374689494,0.976115934650151
2013-07-11,-1,-0.001181982977827466,-0.0008918371101779096,-0.014638978709675633,0.008456150374689494,0.9754444076353042
2013-07-15,-1,-0.002967648223364963,-0.002895837782291589,-0.01263223628102287,0.039661059543836134,0.9720942561729564
2013-07-17,-1,-0.0009087083021980949,-0.0006798862404685836,-0.010806651797739092,0.03936976864273751,0.9739736762314609
2013-07-19,1,0.0009709508195668152,0.001482456395046723,-0.01263223628102287,0.03936976864273751,0.9718276323433053
2013-07-23,1,0.003271018767525748,0.004064955263248458,-0.015039411149076858,0.03936976864273751,0.971239277255155
2013-07-25,1,0.0015629715866455846,0.002048068679628338,-0.015039411149076858,0.03936976864273751,0.9706506987961718
2013-07-29,1,0.0022047621530041084,0.002919601970335207,-0.012409797407258547,0.04481564859169919,0.9695478354275725
2013-07-31,1,0.001961216358597356,0.002624333636182098,-0.024537374664498006,0.04481564859169919,0.9656605341239058
2013-08-02,1,0.0014628489834719494,0.002084767158539809,-0.024537374664498006,0.04481564859169919,0.9652871960342254
2013-08-06,0,-0.00026155574179237634,0.00011932379244292352,-0.021431498623146753,0.04481564859169919,0.9680744853065619
2013-08-08,1,0.0029558034595245962,0.0037953388090082277,-0.024537374664498006,0.04455823033751213,0.9681225037098806
2013-08-12,1,0.006047862731965358,0.007313164017980231,-0.025245457798364387,0.03055255909969399,0.9691451000373753
2013-08-14,1,0.007381887038227175,0.008828558749911345,-0.03384704341845287,0.009069464138906462,0.967376306134777
2013-08-16,1,0.008696228351065354,0.010307665321446693,-0.03384704341845287,0.0054639280933411905,0.969602552133822
2013-08-20,1,0.009291942040099237,0.01098461001805321,-0.025245457798364387,0.01226038214042174,0.9688610629235233
2013-08-22,1,0.007745267819083241,0.009123062268375014,-0.025245457798364387,0.0054639280933411905,0.9673869480204113
2013-08-26,1,0.008845636322084913,0.010375252544337184,-0.03065161812831154,0.001900874694375425,0.9656418433042558
2013-08-28,1,0.005552791693029243,0.006581601873890916,-0.02404449960414831,0.0054639280933411905,0.9708235475154151
2013-08-30,1,0.005278600313768074,0.0063449941133885725,-0.02404449960414831,0.0054639280933411905,0.9715830810539625
2013-09-04,1,0.004349835246527515,0.0051615393929462065,-0.02404449960414831,0.0022576905149883685,0.9705371078595103
2013-09-06,1,0.0032628767841998488,0.0037680494031281497,-0.022293918310664098,-0.0021460794621066728,0.9739091139183572
2013-09-10,1,0.0006404302134719278,0.000676157065652822,-0.02369519294092271,0.0022576905149883685,0.9752692358423487
2013-09-12,-1,-0.0008690168917195808,-0.0007633519403562706,-0.020803865061607345,0.0022576905149883685,0.9785711733705574
2013-09-16,1,0.00014628300513318417,0.0002890462578520056,-0.0224118159442635,0.002608743081474363,0.9762909262701239
2013-09-18,1,0.0032888524464655864,0.003771162053130138,-0.0224118159442635,-0.0021460794621066728,0.9785932886613173
2013-09-20,1,0.0009403891929013165,0.0011971478247145343,-0.020803865061607345,0.01122295072384636,0.982442206539862
2013-09-24,-1,-0.0011015738241385942,-0.0010545015605079283,-0.013748428009380281,0.019465391353331946,0.9829147604136008
2013-09-26,-1,-0.0009712246012515503,-0.0009647824926767686,-0.013748428009380281,0.024543535916150713,0.9808147608879195
2013-09-30,-1,-0.0014328522448761052,-0.0013942520158877155,-0.012245557270321976,0.024543535916150713,0.9813747712660541
2013-10-02,-1,-0.0031202362859094513,-0.002816459860947573,-0.007344187145465603,0.024543535916150713,0.9803084815567239
2013-10-04,-1,-0.004299543195160957,-0.0037987592869606333,-0.023774727969495663,0.024543535916150713,0.9779506860321944
2013-10-08,-1,-0.005152514097088622,-0.004505849243578134,-0.009668962670160392,0.028261589403062563,0.9782594973996537
2013-10-10,-1,-0.004180724134645412,-0.0037332280499051745,-0.023774727969495663,0.028261589403062563,0.9737794569336935
2013-10-14,-1,-0.00413590203907304,-0.003612308917364894,-0.01037644065762492,0.024848445924435855,0.975338998874515
2013-10-16,-1,-0.003647225507755967,-0.0031812016438921035,-0.01326346318625836,0.024848445924435855,0.9762883077610629
2013-10-18,-1,-0.0015102920284398695,-0.0013467846566365088,-0.02017998469712111,0.024848445924435855,0.9764254709168441
2013-10-22,1,0.0008360560591662259,0.0010009438564532681,-0.023729356916154944,0.007912984721917461,0.9780611965090571
2013-10-24,1,0.0005153943055310164,0.0006692123875432591,-0.023729356916154944,0.005201935599811012,0.980425365309152
2013-10-28,1,0.0009272196675838229,0.001161292997089271,-0.023729356916154944,0.006056084824639011,0.9799921235964507
2013-10-30,-1,-0.0001172652837265227,-8.259152618099112e-05,-0.02337735878773232,0.006038944169424255,0.9804855005199061
2013-11-01,-1,-0.002389930666052962,-0.002145469478243886,-0.019317842512609172,0.01083970214439918,0.9793644054916318
2013-11-05,-1,-0.0012957556633819984,-0.0011837877735511738,-0.019317842512609172,0.01083970214439918,0.9789034563073084
2013-11-07,-1,-0.005111600726825863,-0.004508095947463555,-0.019317842512609172,0.01083970214439918,0.9817765441538036
2013-11-11,-1,-0.005436608510239772,-0.004677457348039953,-0.019317842512609172,0.013221868462477698,0.9795316413525377
2013-11-13,-1,-0.006334188278815733,-0.0054356506748138795,-0.02337735878773232,0.013221868462477698,0.9777445477641641
2013-11-15,-1,-0.007110900929781628,-0.006008624199692562,-0.02337735878773232,0.01083970214439918,0.9798518135644012
2013-11-19,-1,-0.004423392330817234,-0.003923838781389295,-0.020691736418288163,0.01083970214439918,0.9799687267966791
2013-11-21,-1,-0.006946015799478785,-0.00600793037525208,-0.017358474915118622,0.01083970214439918,0.9804143505035299
2013-11-25,-1,-0.006747237894835086,-0.0058219864174715846,-0.017358474915118622,0.011923371355907465,0.9791145156937194
2013-11-27,-1,-0.008211174979855,-0.00704365788892632,-0.013385766401974912,0.02189133408859921,0.9770925286333608
2013-12-02,-1,-0.008322077211158692,-0.007218744644502957,-0.013385766401974912,0.018184718633995133,0.9787904418716067
2013-12-04,-1,-0.0068356969156733475,-0.005885097924915172,-0.013385766401974912,0.018184718633995133,0.9790062672300611
2013-12-06,-1,-0.007488809042393149,-0.006553324314609242,-0.009522101406023222,0.018184718633995133,0.979106306130049
2013-12-10,-1,-0.003263742580665998,-0.002912647931980491,-0.017358474915118622,0.013780926093757351,0.9810798366860377
2013-12-12,-1,-0.0036042445246349496,-0.003367893011552323,-0.010632125355893477,0.01857847190445073,0.9810372349890845
2013-12-16,-1,-0.004157727596859485,-0.003797984449565574,-0.017358474915118622,0.02072993352438851,0.9786511501394133
2013-12-18,-1,-0.0055520144308337915,-0.004992026401032861,-0.008943068836314315,0.02072993352438851,0.9782521856684264
2013-12-20,-1,-0.00586723122717547,-0.005269157373364029,-0.007684147752848049,0.02072993352438851,0.978448587115388
2013-12-24,-1,-0.0047806976161002355,-0.004265667324226348,-0.014107725043473553,0.019450859180116423,0.9789336319399919
2013-12-27,-1,-0.0035805869559756036,-0.00310657404240624,-0.021974297511692973,0.018761526936194,0.97843119835366
2013-12-31,-1,-0.002082069866879699,-0.0019513884853205592,-0.015347634128236943,0.018761526936194,0.9799520830782349
2014-01-03,1,0.0008036797418648374,0.0012078328803763292,-0.02055031557329754,0.016231014667324208,0.9806359219367188
2014-01-07,1,0.002105821132931258,0.0027671545162784405,-0.021974297511692973,0.016231014667324208,0.9791736376465522
2014-01-09,1,0.0008260374490081488,0.0014041398980013573,-0.015067593179091999,0.018761526936194,0.9812781021516302
2014-01-13,1,0.003200337486062101,0.00414709149753604,-0.015067593179091999,0.021279098619618325,0.9788705798012459
2014-01-15,1,0.0029777352670911383,0.0038747448404850104,-0.015067593179091999,0.021286290572201206,0.9769653294278141
2014-01-17,1,0.004071362935891597,0.005193895423643711,-0.015067593179091999,0.02626433198428145,0.9741011606437493
2014-01-22,1,0.002168777551057023,0.002844773270320088,-0.02055031557329754,0.03086016949661927,0.9706593756434116
2014-01-24,1,0.0018587420570267132,0.0024374752423258353,-0.015067593179091999,0.03086016949661927,0.9719939918975821
2014-01-28,1,0.0015300385555480796,0.0021024733613147113,-0.0160064822967015,0.03086016949661927,0.9726063727723568
2014-01-30,1,0.001113310749419257,0.001660233591901503,-0.0160064822967015,0.03086016949661927,0.9730605274884776
2014-02-03,-1,-0.0005482677541552174,-0.0003129614321843937,-0.00878768778487264,0.03086016949661927,0.9729634378453211
2014-02-05,-1,-0.002040407553063764,-0.0019837313814322576,-0.006376359715212672,0.03086016949661927,0.9733171009822
2014-02-07,-1,-0.0007927728609496916,-0.0007048052902826553,-0.01937099833876367,0.02637091316785111,0.971927590136334
2014-02-11,1,0.004542668287335482,0.005633640629832792,-0.01937099833876367,0.02169131494543357,0.9739406717916299
2014-02-13,1,0.0027031801101124004,0.003311887644028002,-0.011292249199307203,0.020006066372798254,0.9777466618429722
2014-02-18,1,0.004436619449890437,0.005174328876203825,-0.015572829534366226,0.01809731796354295,0.9780604048327038
2014-02-20,1,0.0036934825994656053,0.004319974341306902,-0.015572829534366226,0.014125326202192914,0.9805101635086099
2014-02-24,1,0.0025594375554367395,0.002994100392605839,-0.020883738873969618,0.014125326202192914,0.9774879059634866
2014-02-26,1,0.00047014814089026727,0.0005859357708933408,-0.020883738873969618,0.014125326202192914,0.9773349329502676
2014-02-28,1,0.0009128277595184109,0.0010682284483818658,-0.020883738873969618,0.014646365441591487,0.9765644320959357
2014-03-04,1,0.0011290462349906071,0.0012895484973228974,-0.029378058276683286,0.014306070218465928,0.9754148481194383
2014-03-06,1,0.0016373957374843048,0.0018547118778823777,-0.029378058276683286,0.014223858942098377,0.9744852400294083
2014-03-10,-1,-0.00018307431190639297,-0.0001513472173876168,-0.021215407462245726,0.014223858942098377,0.9763358440141291
2014-03-12,1,0.0006911564848497902,0.0008578187260840551,-0.021215407462245726,0.015209801429254264,0.9766985036287169
2014-03-14,1,0.0013919273018940335,0.001734039306461079,-0.02389928673651818,0.015209801429254264,0.9748852902767146
2014-03-18,1,0.004092233205584493,0.004913600114725198,-0.023931207660541992,0.01351914469190003,0.9759867223524105
2014-03-20,1,0.0029283836843829927,0.0035580194614214357,-0.022567034366217525,0.005399018932393111,0.9772284244612731
2014-03-24,1,0.0005043553416967635,0.000826323096622849,-0.02140233810402092,0.015209801429254264,0.9803725456736367
2014-03-26,-1,-0.001787426019421973,-0.0017856406043600926,-0.02083072214418284,0.015209801429254264,0.9839473102588964
2014-03-28,-1,-0.001302535241346584,-0.0012508998214428065,-0.02140233810402092,0.004670261307375794,0.984513332288993
2014-04-01,-1,-0.001448657513266141,-0.0014361207274364517,-0.02083072214418284,0.00814330565581422,0.9852809550511179
2014-04-03,-1,-0.00368852036377904,-0.0032494517435622044,-0.018260161041461085,0.00814330565581422,0.9858260480548795
2014-04-07,-1,-0.0038403501313337097,-0.0034628367437464823,-0.016432052714884612,0.00814330565581422,0.9860250489230115
2014-04-09,-1,-0.0025936225758158363,-0.0023312896440199093,-0.021412978412028858,0.001166154154806212,0.985293681671193
2014-04-11,-1,-0.004590700390465206,-0.004135872610848576,-0.016432052714884612,0.0023341789649895858,0.9862746205804542
2014-04-15,-1,-0.005308273835379247,-0.004731880842164958,-0.014570899493901147,0.006526623787177742,0.9865350754003707
2014-04-17,-1,-0.006511763523447936,-0.00576533580561504,-0.013039406553424565,0.006526623787177742,0.986980186214389
2014-04-22,-1,-0.00538529593981126,-0.004793909821267497,-0.014570899493901147,0.006526623787177742,0.986393974704595
2014-04-24,-1,-0.005702242961017929,-0.005046970293571741,-0.014570899493901147,0.0069788709824002634,0.9864758075653276
2014-04-28,-1,-0.007449644566603315,-0.006548855034427668,-0.01892579671786522,0.0069788709824002634,0.9841974774943996
2014-04-30,-1,-0.004877062415293762,-0.0043708910499802535,-0.02764761341196789,0.0006591820363943978,0.9839933719447314
2014-05-02,-1,-0.00596673329491873,-0.005234847073737793,-0.02764761341196789,0.0006591820363943978,0.9846619193685
2014-05-06,-1,-0.005077906742356635,-0.004616412140496492,-0.02764761341196789,0.001602554893431177,0.9849981863488041
2014-05-08,-1,-0.008492266680212631,-0.007519941637611888,-0.01333727813272325,0.0076940550888265295,0.9830942581147458
2014-05-12,-1,-0.007590713901410135,-0.006729651554615322,-0.01333727813272325,0.00932655569266986,0.9824758934637425
2014-05-14,-1,-0.008221028548642678,-0.007237847944451304,-0.01333727813272325,0.011630580351479873,0.9801150147534731
2014-05-16,-1,-0.008791511564715943,-0.007724396190554343,-0.017503161718732414,0.011630580351479873,0.9793760207492282
2014-05-20,-1,-0.008198585373277209,-0.007286264450860072,-0.008478120665818784,0.02219586839966363,0.9780451887321829
2014-05-22,-1,-0.006458426810672329,-0.005881526039188433,-0.01011093339390054,0.023490338519256127,0.9757073461930363
2014-05-27,-1,-0.010178071803454905,-0.009145570383885464,-0.006487801628478489,0.02562999841052347,0.9759103051019512
2014-05-29,-1,-0.010575229175983024,-0.00957455647801448,-0.001485882679779476,0.02643602022200548,0.9748306618848427
2014-06-02,-1,-0.010096264743611486,-0.009196602918271077,0.0008389454153705212,0.02643602022200548,0.9740411033977037
2014-06-04,-1,-0.011453410324577392,-0.010272935117947243,0.0012613463503828126,0.02643602022200548,0.9725900182988858
2014-06-06,-1,-0.006469917370027689,-0.005990608586538074,-0.001067390264680227,0.02562999841052347,0.977165839420048
2014-06-10,-1,-0.004882291295731136,-0.004585210027629872,-0.0077491606292923055,0.02643602022200548,0.9768947226666675
2014-06-12,-1,-0.0023324308388953164,-0.002303444139668849,-0.008653107559136945,0.027364933529257927,0.9771425270290568
2014-06-16,-1,-0.003138536904759999,-0.0030518214222880202,-0.012807403001912212,0.027364933529257927,0.9741450463682187
2014-06-18,-1,-0.00064863389585979,-0.0004088551499714108,-0.012807403001912212,0.02904367044896919,0.9743174274478343
2014-06-20,1,0.0007891614122852476,0.0011652563089315105,-0.020774594383713565,0.027367573252691613,0.9764851355483916
2014-06-24,1,0.0010003907961227438,0.0013616991912900574,-0.021816543214634974,0.02475070635592275,0.9761495966315531
2014-06-26,1,0.001577890259786678,0.0019508277745227723,-0.021991308679572892,0.025025675760953235,0.9746576486488773
2014-06-30,1,0.002289896299229554,0.0027101540442694225,-0.021991308679572892,0.015699887687835458,0.9744277760553657
2014-07-02,1,0.0027813099633409444,0.0033319998146289064,-0.026259858630492287,0.013167445523856076,0.9727417362924295
2014-07-07,1,0.0029388776819142238,0.003696586491049396,-0.02471659142993632,0.009307677675200623,0.9732218667718973
2014-07-09,1,0.003935250139047478,0.004827246051848285,-0.02471659142993632,0.009307677675200623,0.9733675536859893
2014-07-11,1,0.006372191373244948,0.007761284956357811,-0.028025530723552728,0.009307677675200623,0.9722067978633654
2014-07-15,1,0.0032297713447189615,0.00418318397538882,-0.02172308116869047,0.03052207601337397,0.9760551554059171
2014-07-17,1,0.005467941166118182,0.006698797367320911,-0.023094288444111696,0.0033375160863211516,0.9752669291163362
2014-07-21,1,0.0032378775015771783,0.004052125695143935,-0.023094288444111696,0.01350836102335281,0.9758956588847183
2014-07-23,1,0.0023838706503147788,0.003133119345232496,-0.021680971876689756,0.01350836102335281,0.9773994667829827
2014-07-25,1,0.003649309972373621,0.004621502792685667,-0.022877413687173064,0.005323509965641918,0.9777323337579663
2014-07-29,1,0.0035467699387686023,0.0045609907208224495,-0.02285111354107072,0.013570058556498805,0.9763549926004821
2014-07-31,1,0.0009219798005112116,0.0014512708393918802,-0.01665747303792566,0.013570058556498805,0.9781695602820836
2014-08-04,1,0.00015208445955914012,0.0006353931316755643,-0.01665747303792566,0.0176998136799609,0.978505626149567
2014-08-06,1,0.0023817468249972638,0.0031706564638255223,-0.02285111354107072,0.007364517349696783,0.9783053193952633
2014-08-08,1,0.0037670289312905555,0.004824467281950228,-0.022946103606636126,0.005323509965641918,0.9796590837233113
2014-08-12,1,0.005561483288177768,0.006833389964083614,-0.02658509266954351,0.0010190126503729598,0.9783424370335825
2014-08-14,1,0.0030394274334895094,0.003830281318215505,-0.02658509266954351,0.0043325469139542895,0.9800037587058402
2014-08-18,1,0.0025988525467262307,0.003161566133093722,-0.02658509266954351,0.0010190126503729598,0.9820544749729165
2014-08-20,1,0.0027654398144875917,0.0034281031419514745,-0.02724213340985511,0.0010190126503729598,0.9800601305302918
2014-08-22,1,0.0015012865919020269,0.0019676118812025616,-0.02865698076878607,-0.0029220519851598367,0.9764454414414774
2014-08-26,1,0.002142947359631324,0.0026956491344440232,-0.02865698076878607,-0.0029220519851598367,0.9763149893586346
2014-08-28,1,0.0009234262907151767,0.0012458221351101023,-0.02865698076878607,-0.0029220519851598367,0.9767053829397538
2014-09-02,1,0.0010801193491028803,0.0014973068623021799,-0.03293614277676255,-0.0064805937951072645,0.9730054754429688
2014-09-04,-1,-0.0014083637767606325,-0.0013788603683775585,-0.03160697132237671,-0.005506576466720653,0.9748224900539721
2014-09-08,-1,-0.0025972620735452744,-0.002390906576219074,-0.03293614277676255,-0.005506576466720653,0.9729342057071948
2014-09-10,-1,-0.0041500821328539555,-0.0037385674981915184,-0.03498788812277916,0.0036075174583987094,0.9698133649622931
2014-09-12,-1,-0.004541051632640811,-0.004114036351958891,-0.038828895829225496,-0.0051605863915710065,0.9676952749082354
2014-09-16,-1,-0.004575031258946047,-0.004157816010448902,-0.038828895829225496,0.016355000980034,0.9627313608329872
2014-09-18,-1,-0.007189775333099037,-0.006419535030354912,-0.038828895829225496,0.02449595506780802,0.9612068907895365
2014-09-22,-1,-0.011354039168744714,-0.010180215646918823,-0.03619919090336353,0.02449595506780802,0.9618341868529681
2014-09-24,-1,-0.00973330602765313,-0.008765076870452984,-0.0489153838152663,0.025424643645384888,0.9577158911950198
2014-09-26,-1,-0.011208517814321677,-0.010025958123179999,-0.0489153838152663,0.025424643645384888,0.9562656960694053
2014-09-30,-1,-0.01636489723617293,-0.014484151241898282,-0.04377892321887854,0.04173581576789734,0.9547737348128256
2014-10-02,-1,-0.01514282618968468,-0.013447056962573315,-0.04948592402788028,0.04173581576789734,0.9533489007483789
2014-10-06,-1,-0.016631591617757346,-0.0147784025990251,-0.04948592402788028,0.04560071229081275,0.949944343653807
2014-10-08,-1,-0.015557563080499059,-0.013824005816131558,-0.06737564857693079,0.04173581576789734,0.949199478128311
2014-10-10,-1,-0.01951223020786481,-0.0173042919585384,-0.05786243493746459,0.052929575369196034,0.9451201095390545
2014-10-14,-1,-0.014487574426312483,-0.01288678252166723,-0.06737564857693079,0.052929575369196034,0.9446114495369479
2014-10-16,-1,-0.012668662518317664,-0.011119920848245705,-0.06737564857693079,0.04560071229081275,0.9492263887645257
2014-10-20,-1,-0.016443895272990183,-0.014373605116737917,-0.05786243493746459,0.052929575369196034,0.9470497986847112
2014-10-22,-1,-0.01848149414042544,-0.01616823999410677,-0.05786243493746459,0.06014580922027842,0.945454366474329
2014-10-24,-1,-0.017565528604974366,-0.01535903568162783,-0.05786243493746459,0.06014580922027842,0.944601983159185
2014-10-28,-1,-0.015128648365684425,-0.013365800001588032,-0.05786243493746459,0.07803925200876524,0.944194354719811
2014-10-30,-1,-0.018085392982008824,-0.016062929817634193,-0.06737564857693079,0.07803925200876524,0.9422633433860403
2014-11-03,-1,-0.014809649785117137,-0.013281137624609163,-0.07029602129410242,0.07803925200876524,0.941677599524806
2014-11-05,-1,-0.020542660546497296,-0.018325532626214114,-0.026881956305322863,0.07803925200876524,0.9432516730851123
2014-11-07,-1,-0.013050781008697256,-0.011832614841168725,-0.026881956305322863,0.04773066084513537,0.9518326955328539
2014-11-11,-1,-0.010800553891801115,-0.009979622371393123,-0.019537925739187365,0.04773066084513537,0.9548087333926302
2014-11-13,-1,-0.010121696470125043,-0.009432873406773665,-0.019537925739187365,0.04773066084513537,0.9542744032498299
2014-11-17,-1,-0.0042248044418192994,-0.004142941178630595,-0.026881956305322863,0.04270285920807438,0.9571620794323085
2014-11-19,-1,-0.0036339877034784786,-0.0034224186168553316,-0.026881956305322863,0.04270285920807438,0.9584157140005868
2014-11-21,-1,-0.001652185411611278,-0.0011525496135504764,-0.026881956305322863,0.03952723364783879,0.9592226433203481
2014-11-25,1,0.0008749387163968715,0.0016436158200544108,-0.026881956305322863,0.03952723364783879,0.9602279127833685
2014-11-28,-1,-0.002488383737130041,-0.0020950088221802607,-0.019537925739187365,0.03952723364783879,0.9627240137508457
2014-12-02,-1,-0.0009296645039396931,-0.00026809650465274776,-0.016615574211909703,0.03330430074346946,0.970485197451144
2014-12-04,-1,-0.0016520221628363405,-0.001232477925164725,-0.008731659700216152,0.03424658844484557,0.9700024466897298
2014-12-08,0,-0.00013359354544517426,0.0006368208793523958,-0.014618121300934409,0.03937547520165395,0.9677389140611209
2014-12-10,1,0.0019252889426084412,0.002915033843643221,-0.008173278803772055,0.03860080170044814,0.9706932059882263
2014-12-12,1,0.0018117235263332828,0.002722981374465514,-0.014618121300934409,0.04327301697951635,0.9659960477262624
2014-12-16,1,0.0031925249169072896,0.004333898394957979,-0.014618121300934409,0.040319564546662176,0.9654587416303817
2014-12-18,1,0.004975025168635546,0.006336945144358144,-0.008173278803772055,0.04327301697951635,0.966820604291386
2014-12-22,1,0.004558348823937454,0.0057899677067527865,-0.008173278803772055,0.04327301697951635,0.9660354866693222
2014-12-24,1,0.006051987709259561,0.007405899430949676,-0.01647835321844636,0.040319564546662176,0.9663857013333941
2014-12-29,1,0.006899833965243859,0.008490198068468083,-0.01647835321844636,0.040319564546662176,0.9663105872783256
2014-12-31,1,0.007940793639277046,0.00971156547464195,-0.01647835321844636,0.04327301697951635,0.964224444937997
2015-01-05,1,0.011322960907297817,0.013659591083301127,-0.01647835321844636,0.04327301697951635,0.9663045780905931
2015-01-07,1,0.011908966316769826,0.01424992088158432,-0.012193946388562815,0.04327301697951635,0.9655985526499857
2015-01-09,1,0.013882052453295712,0.016540856324036235,-0.02540782872487862,0.04073539366144599,0.9652493019327896
2015-01-13,1,0.013237530728784728,0.01578140500083788,-0.02540782872487862,0.03768579879881153,0.9664242348227464
2015-01-15,1,0.011722837721600706,0.014007361807905502,-0.01521829545538268,0.03718336149896551,0.9699725181303382
2015-01-20,1,0.01656463307862095,0.019518542609477725,-0.02540782872487862,0.02737185390432169,0.9715828883777404
2015-01-22,1,0.016203930781569023,0.01907061733392596,-0.03414551359510634,0.02737185390432169,0.9656754648757929
2015-01-26,1,0.015086291108089058,0.01778006387005046,-0.03414551359510634,0.02737185390432169,0.9647911464016469
2015-01-28,1,0.013759451929275307,0.016190340671164108,-0.031178093130298137,0.01784688662621459,0.9686137668748364
2015-01-30,1,0.015125646604793371,0.017692917223784396,-0.031178093130298137,0.022954952226897512,0.9697387649890679
2015-02-03,1,0.015696362981656067,0.018262598466525077,-0.03414551359510634,0.01715214573615288,0.9662986424395681
2015-02-05,1,0.018712459826826927,0.021639110767887985,-0.03970690585291534,0.010004159447514087,0.9606223898273991
2015-02-09,1,0.018556507221660287,0.02143829335296342,-0.05035333076150281,0.007895102612898518,0.956235669202095
2015-02-11,1,0.015854538235244218,0.018255146688085856,-0.05035333076150281,0.011370179749583147,0.9603554536893164
2015-02-13,1,0.014830608049978886,0.01682765366636811,-0.05035333076150281,0.011370179749583147,0.9597661034199488
2015-02-18,1,0.013263432946400228,0.015083388395515936,-0.05104929493666854,0.015263319726345606,0.957568679582047
2015-02-20,1,0.008112518352188658,0.009187435620170652,-0.0499808974841124,0.02787583798276347,0.9612531605155198
2015-02-24,1,0.0038163131754273536,0.004083386661817042,-0.04138098391958789,0.02787583798276347,0.9631321059779171
2015-02-26,1,0.004197220769054928,0.004512126874193575,-0.04138098391958789,0.02787583798276347,0.9610899742827598
2015-03-02,1,0.005164255652744421,0.005476395577834219,-0.04224108539392897,0.014353756033835081,0.9599501974109576
2015-03-04,1,0.0036857212012548985,0.0038422757179594805,-0.038822400664330355,0.014353756033835081,0.9609018138987425
2015-03-06,-1,-0.0034607814754046657,-0.002572230855021709,-0.03568505680797779,0.025227717801651638,0.9620925950729404
2015-03-10,-1,-0.005813792497079516,-0.004837611825904526,-0.02830203843422541,0.025227717801651638,0.966050561774367
2015-03-12,-1,-0.0019123659022222722,-0.0015409139060098105,-0.02830203843422541,0.020869813665008688,0.9668933081894077
2015-03-16,-1,-0.0009064439404484817,-0.0005266209431308733,-0.02830203843422541,0.02982712393227873,0.9667379251666267
2015-03-18,-1,-0.0011755005315609642,-0.0006571823367699842,-0.02830203843422541,0.02982712393227873,0.9657640070892249
2015-03-20,1,3.132570225328202e-05,0.000390239115517163,-0.022489279406548966,0.020869813665008688,0.9697908963607387
2015-03-24,1,0.0006184801858590235,0.0009186118900210477,-0.02830203843422541,0.0187662836322008,0.967514977112917
2015-03-26,-1,-0.00384989906740761,-0.0028371434691377147,-0.02830203843422541,0.02982712393227873,0.9655446764238034
2015-03-30,-1,-0.00664935308195101,-0.005324572625621943,-0.022138027968782684,0.03667960471799145,0.9636146068323274
2015-04-01,-1,-0.01120511291381265,-0.00905149434971607,-0.02705550602322781,0.03667960471799145,0.9625855432625952
2015-04-06,-1,-0.005222696909119711,-0.004007998178516343,-0.02705550602322781,0.03667960471799145,0.9648736678743268
2015-04-08,-1,-0.007090938049559909,-0.005642148951385973,-0.03476341063387648,0.03667960471799145,0.9625241139837115
2015-04-10,-1,-0.006627656793967302,-0.00519367523057445,-0.03476341063387648,0.03667960471799145,0.9626398082849835
2015-04-14,-1,-0.0016920035626154621,-0.0010311738571679885,-0.03476341063387648,0.019015336915366235,0.9652725156807784
2015-04-16,-1,-0.0018504848343951878,-0.001122616281759553,-0.02705550602322781,0.01888060148826967,0.9714800986110518
2015-04-20,-1,-0.0010532151245782459,-0.00047876333501571493,-0.02705550602322781,0.01888060148826967,0.9714623136795117
2015-04-22,-1,-0.002111759613811176,-0.0015501961655836332,-0.014543525082355813,0.02403181503619879,0.969492247409192
2015-04-24,-1,-0.006392067424781587,-0.005096483373704128,-0.009301251918315111,0.01888060148826967,0.9730472321175428
2015-04-28,-1,-0.0032640526854006233,-0.002333003386290143,-0.022002746113132396,0.0159525846390463,0.9770459002753875
2015-04-30,-1,-0.0064017336878563055,-0.005105344074000271,-0.005434816681078,0.01888060148826967,0.976437669712531
2015-05-04,-1,-0.005269705923512221,-0.004084561481581732,-0.005434816681078,0.0159525846390463,0.978481532200165
2015-05-06,-1,-0.006206033831777131,-0.005016063181626538,-0.004527376567841728,0.0159525846390463,0.9808002833765012
2015-05-08,-1,-0.00517526144543994,-0.004105318660487217,-0.008167047559441946,0.0123853862792334,0.9818885933895406
2015-05-12,-1,-0.004380001318647862,-0.0034144324707605323,-0.011337323564908882,0.0123853862792334,0.979818982877128
2015-05-14,-1,-0.002497930017849838,-0.0018223516476625324,-0.011337323564908882,0.010773695456411207,0.9814242433226154
2015-05-18,-1,-0.0020526901918775592,-0.0014191159576489,-0.011337323564908882,0.0123853862792334,0.9807966495653349
2015-05-20,-1,-0.0021914357986210753,-0.0016434994092800518,-0.008206797649459556,0.018831030734759613,0.9794640250655773
2015-05-22,-1,-0.0032834071958112933,-0.002576811535869164,-0.014245759280352797,0.018831030734759613,0.9761101275071181
2015-05-27,-1,-0.005156957373658505,-0.004251435567276184,-0.007272857476211544,0.018831030734759613,0.9777664988762113
2015-05-29,-1,-0.0017342943336501853,-0.0013457178843299,-0.009772372738538787,0.0123853862792334,0.9798309003016833
2015-06-02,-1,-0.0006591966028480847,-0.0004529913154004252,-0.01298313239057331,0.018831030734759613,0.9766822857382443
2015-06-04,1,0.00027928396309095753,0.00030128213297090603,-0.01796556711188565,0.024670003635456884,0.9731112761282646
2015-06-08,1,5.5423869441963684e-05,0.00013117359992732136,-0.031353015055541354,0.027843672812057872,0.9677420469372255
2015-06-10,-1,-0.0012911759903947804,-0.0009898598854659205,-0.031353015055541354,0.024670003635456884,0.9694786201263071
2015-06-12,1,0.0013285685072825788,0.0016292796597945345,-0.03390410899214124,0.030783950973079406,0.9641284906096069
2015-06-16,1,0.002508150838720172,0.0029644610082290223,-0.036630522337558875,0.02967120180031221,0.9610105684469485
2015-06-18,1,0.0061772541518689515,0.0070481134688498434,-0.04029730241358251,-0.005174644567264038,0.9609160459372498
2015-06-22,1,0.0028457831693108285,0.0032348110940989766,-0.04029730241358251,0.002208765506560041,0.9613527107713085
2015-06-24,1,0.0033826641585516,0.003950193446062299,-0.05116062417888929,-0.0001364024877577863,0.9565640973162299
2015-06-26,1,0.0033841482819707827,0.00403792361925344,-0.05116062417888929,0.004116549096553074,0.9570146974129898
2015-06-30,1,0.006015111193528627,0.007242716882307404,-0.05116062417888929,-0.006701122186925318,0.9575974410692041
2015-07-02,1,0.004922955339633687,0.006023907677696664,-0.05116062417888929,-0.006701122186925318,0.9581539161652788
2015-07-07,1,0.0033754841523063175,0.0041791929979475865,-0.05116062417888929,-0.006701122186925318,0.9609065368298144
2015-07-09,1,0.0028086205265859384,0.00365348246926584,-0.06323305335948959,-0.006701122186925318,0.9589051824039175
2015-07-13,1,0.003728827352135961,0.004605863867064491,-0.06669858057062258,-0.006701122186925318,0.9556344703388819
2015-07-15,-1,-0.0018547723342363983,-0.001724699089290522,-0.06669858057062258,0.0011570390749580913,0.957283052832409
2015-07-17,-1,-0.0059455092839690755,-0.005226640657278495,-0.07358600166313023,0.015142881209220728,0.956125814132094
2015-07-21,-1,-0.0068421371953373816,-0.006060188838890138,-0.07358600166313023,0.015142881209220728,0.9544367063582501
2015-07-23,-1,-0.009211610162244437,-0.008288778985113331,-0.06669858057062258,0.037181947070291585,0.953995698424585
2015-07-27,-1,-0.010401030382098882,-0.00927300630897663,-0.07908325169369479,0.037181947070291585,0.9473462109294005
2015-07-29,-1,-0.013656853669917077,-0.011933089520877429,-0.07908325169369479,0.037181947070291585,0.9459449495747567
2015-07-31,-1,-0.017820776110159343,-0.015392697428251206,-0.07908325169369479,0.05451016945412249,0.942008042521367
2015-08-04,-1,-0.01878789528325056,-0.016370645908459172,-0.07293587220345545,0.05451016945412249,0.9448009677189586
2015-08-06,-1,-0.020687479257191173,-0.018197370372680904,-0.06418428237317993,0.05451016945412249,0.945376506193485
2015-08-10,-1,-0.01806021251707972,-0.01595437241994286,-0.055018354306889256,0.05132728325297225,0.9489822066218817
2015-08-12,-1,-0.013289230986763878,-0.011813270957791819,-0.05969291503883724,0.04868433051016198,0.9499806611503243
2015-08-14,-1,-0.014362499391623875,-0.012823786450025897,-0.05435324119122892,0.05132728325297225,0.9522029783020517
2015-08-18,-1,-0.01631086629990956,-0.014474050145267078,-0.050327441383313014,0.05132728325297225,0.9533457985753915
2015-08-20,-1,-0.013640601514348889,-0.011996214458752378,-0.050327441383313014,0.049862954500638726,0.955266178550474
2015-08-24,-1,-0.020675130894583844,-0.018192600385698237,-0.04896161173642168,0.049862954500638726,0.9591714515603649
2015-08-26,-1,-0.02108940412867396,-0.01874636432226341,-0.04790938136910688,0.052951336593020176,0.9551136466708919
2015-08-28,-1,-0.015402198721449545,-0.013674023936091862,-0.05075046019385108,0.035865594040392,0.95957115017276
2015-09-01,-1,-0.016631406864216262,-0.014839687591979133,-0.05075046019385108,0.035865594040392,0.959039485340824
2015-09-03,-1,-0.017846530552599275,-0.016079658602761032,-0.04896161173642168,0.049862954500638726,0.956158631774222
2015-09-08,-1,-0.014535301172671435,-0.013218182861288985,-0.04896161173642168,0.035865594040392,0.9571330923615151
2015-09-10,-1,-0.017686705208522627,-0.016052685993056554,-0.03290733437638132,0.035865594040392,0.958520515632343
2015-09-14,-1,-0.016047785870489883,-0.014499587030762068,-0.04104125599395377,0.032751540597597224,0.9579440314658871
2015-09-16,-1,-0.011709399012944773,-0.010632812727323658,-0.04104125599395377,0.027154271807601514,0.9597713086306209
2015-09-18,-1,-0.00955962082904828,-0.008925407709732457,-0.04246790977507041,0.02845930217460524,0.9568778982847721
2015-09-22,-1,-0.014503137858008018,-0.013174390915932631,-0.03926278450902736,0.03174188715933086,0.9573546976441545
2015-09-24,-1,-0.009445631434343186,-0.00881428797190368,-0.04423697226724989,0.02807300148411395,0.9591133535955545
2015-09-28,-1,-0.014628814631865151,-0.01331509452613983,-0.03926278450902736,0.02807300148411395,0.9602473036539979
2015-09-30,-1,-0.011998394209221781,-0.011079660054249044,-0.03926278450902736,0.02807300148411395,0.9615240265587087
2015-10-02,-1,-0.007621027619988156,-0.0072797474089486836,-0.04350486184667907,0.02614195260747126,0.964684013028428
2015-10-06,-1,-0.0048147095753450445,-0.004735290690881171,-0.04350486184667907,0.02807300148411395,0.9637784292690595
2015-10-08,-1,-0.006168395447447764,-0.006148691609708742,-0.04975167243160819,0.02807300148411395,0.9639527562909532
2015-10-12,-1,-0.007158234039895318,-0.0069981755819727215,-0.04975167243160819,0.02807300148411395,0.9642067899219411
2015-10-14,-1,-0.003927446363160364,-0.00368414217836822,-0.04975167243160819,0.021849294052403375,0.9673241319890207
2015-10-16,-1,-0.004070639281753111,-0.003927152042777946,-0.04350486184667907,0.016718734317691754,0.9727429979184078
2015-10-20,-1,-0.0027737354473499924,-0.0023217911575495603,-0.04975167243160819,0.016718734317691754,0.9713554966201516
2015-10-22,-1,-0.0026822013878812284,-0.0021598085535561758,-0.0349822083850642,0.02076923409862696,0.9724228440770313
2015-10-26,-1,-0.0029199519065081126,-0.002391605797079135,-0.031482173573657984,0.01748798748980504,0.9731214990078523
2015-10-28,-1,-0.0019155596470503877,-0.0012248425318482766,-0.031482173573657984,0.023455280187913836,0.9702447913176165
2015-10-30,-1,-0.003984348709861927,-0.0035554267688564043,-0.03141456857263712,0.024147517810551026,0.970385165890623
2015-11-03,-1,-0.0014683542707603111,-0.0006908894375717849,-0.03481660776234995,0.024147517810551026,0.9700031556859321
2015-11-05,-1,-0.0018512982687349596,-0.0010250010871282328,-0.03141456857263712,0.027507856574085277,0.9671174224610213
2015-11-09,1,0.000868823766831053,0.002347047479348335,-0.03141456857263712,0.025278559346667995,0.9683399068718054
2015-11-11,0,-0.0005551794633128927,0.0005985469018210694,-0.02683239453652768,0.025278559346667995,0.9685524834369282
2015-11-13,1,0.0006137210079591466,0.001937002129121776,-0.03481660776234995,0.025278559346667995,0.9659548804352428
2015-11-17,0,-0.0009051871567786461,0.00019985146596498667,-0.02683239453652768,0.03076561916095702,0.9645624980380352
2015-11-19,1,0.0020568483493036676,0.0035915652502784817,-0.03481660776234995,0.04335315294266343,0.9604155026562192
2015-11-23,1,0.00029958066906546604,0.0015663011628808893,-0.03435269232673567,0.04335315294266343,0.9602469574590985
2015-11-25,1,0.003108343455048292,0.0047310992430539215,-0.03435269232673567,0.03043491112534924,0.9630183446094597
2015-11-30,1,0.0026864543247846614,0.004177931228087143,-0.03506395101839826,0.03043491112534924,0.9624737897539846
2015-12-02,1,0.004217116655266005,0.006010833393580373,-0.03255512432395087,0.027397620562216018,0.9633847657986983
2015-12-04,1,0.0071127314621693,0.009153040135233607,-0.03477474458446353,0.01839345113275863,0.9649095864616711
2015-12-08,1,0.003699486826879055,0.005159986136286889,-0.03255512432395087,0.02195462773781752,0.9691332026049365
2015-12-10,1,0.0036548808426332146,0.0050706125334792984,-0.03702617573631705,0.02195462773781752,0.9658293649221166
2015-12-14,0,-0.00023166913078580503,0.00046785088640341477,-0.03702617573631705,0.02195462773781752,0.9654304782952963
2015-12-16,1,0.004346251678827784,0.005638585978824933,-0.040411686529544716,0.012043752526034214,0.9667095686121454
2015-12-18,1,0.0032799999401355077,0.004406734246107862,-0.040411686529544716,0.012043752526034214,0.9676205431237946
2015-12-22,1,0.002772165982093476,0.003772278089831587,-0.040411686529544716,0.0026595719384628963,0.9687656283960258
2015-12-24,1,0.0015964778322341657,0.002295702373905406,-0.040411686529544716,0.012636457107722814,0.9677508716889229
2015-12-29,-1,-0.0011153713796236279,-0.0009641770853566408,-0.03702617573631705,0.013823515976075777,0.9663932947686781
2015-12-31,-1,-0.0006078307013327676,-0.000319906604114352,-0.03702617573631705,0.013823515976075777,0.964192511305924
2016-01-05,0,-6.464809020735661e-05,0.0004804825809428101,-0.03709558197240533,0.02423087185498839,0.9612960723758535
2016-01-07,1,1.370703845555662e-05,0.00047462241165647547,-0.03709558197240533,0.05030703194502902,0.9563079592875854
2016-01-11,-1,-0.0030009719779173372,-0.002972377766957009,-0.02985065130081817,0.05030703194502902,0.9564395556375851
2016-01-13,-1,-0.004216651217244905,-0.00411463776030237,-0.014259005281898638,0.06346264441309654,0.9553427611776716
2016-01-15,-1,-0.009241635241545396,-0.008433432141997139,-0.014259005281898638,0.06642975020071873,0.9513953750974191
2016-01-20,-1,-0.011915621278335235,-0.010673140497532126,-0.00923830182723491,0.07351489057806733,0.9487648774962092
2016-01-22,-1,-0.009333473342948694,-0.008698749699949868,-0.00923830182723491,0.07351489057806733,0.9486068809741615
2016-01-26,-1,-0.008550985701496847,-0.007892105779263196,-0.01298673182141751,0.07351489057806733,0.950588107824022
2016-01-28,-1,-0.006795063907055189,-0.0061696500568516836,-0.01242112124644473,0.06642975020071873,0.9545113064537695
2016-02-01,-1,-0.0021290036214840244,-0.0021050783764737287,-0.015348814425554221,0.06642975020071873,0.9559287783928877
2016-02-03,-1,-0.003160711807500929,-0.002868411393444603,-0.00534507856634784,0.07183101396826166,0.9533435577458476
2016-02-05,1,0.002679674877099824,0.0032351783069233713,-0.00534507856634784,0.0904929465373529,0.9566851400306808
2016-02-09,1,0.003922057051637755,0.0048938344197213685,-0.00534507856634784,0.0904929465373529,0.9566489194154022
2016-02-11,1,0.00761362742441452,0.00903617947831235,-0.00534507856634784,0.05933094585753777,0.9600918497766572
2016-02-16,1,0.007963621548844156,0.009221991822536692,-0.012440784431443051,0.049901574521541675,0.9638656423597395
2016-02-18,1,0.014821268033951233,0.017161004296374658,-0.012440784431443051,0.0378371501042623,0.9649236033148064
2016-02-22,1,0.01045093153659623,0.011939443270631062,-0.0009061006147221941,0.0378371501042623,0.9670584636107424
2016-02-24,1,0.009997572178276095,0.011473347220248634,0.001943689337899646,0.0378371501042623,0.9637871273899247
2016-02-26,1,0.011632802480103947,0.013472360569920069,0.0012182624373871381,0.0378371501042623,0.9632826006069528
2016-03-01,1,0.014664576687217323,0.016971977981633954,0.0016587765534890053,0.037778041789591814,0.9659777063562275
2016-03-03,1,0.018367974352149465,0.02100667288165938,-0.0066092963732497945,0.03082744511809701,0.9699155516063417
2016-03-07,1,0.0210060411434774,0.023916697551318804,-0.010948384935488479,0.03082744511809701,0.9718124183990731
2016-03-09,1,0.020075820587361612,0.023001307114245875,-0.0066092963732497945,0.03082744511809701,0.9763986854574006
2016-03-11,1,0.02153069652968577,0.024637157930492162,-0.0066092963732497945,0.03082744511809701,0.9736521339625652
2016-03-15,1,0.019524132495300446,0.02232344651065158,0.0019249897221646297,0.03216464632416704,0.9762129013947697
2016-03-17,1,0.022874747123418613,0.026042716476614016,-0.0035595836875639986,0.030916696472661966,0.9750855421737398
2016-03-21,1,0.023620424828160812,0.02680197238093074,-0.0035595836875639986,0.033184085621592196,0.9720140780336791
2016-03-23,1,0.019722009887186538,0.022368930878936606,-0.0035595836875639986,0.033184085621592196,0.9756303235146877
2016-03-28,1,0.018862414640493368,0.021212203293977307,-0.0066092963732497945,0.033184085621592196,0.973165013173124
2016-03-30,1,0.020273495200936124,0.02288893650080854,-0.0035595836875639986,0.032694024559631586,0.9744892066790676
2016-04-01,1,0.018373730683346627,0.020604838528369036,-0.0029211131134759673,0.03563228896903686,0.9730006437195183
2016-04-05,1,0.018055863115953905,0.020179646290242825,-0.003158087873177294,0.03563228896903686,0.9713091796383451
2016-04-07,1,0.01800029857728078,0.020030907407754303,-0.011531342789489325,0.03563228896903686,0.9682958335241416
2016-04-11,1,0.020183680812236926,0.02249714423590793,-0.03648355104296687,0.03563228896903686,0.9652915974737104
2016-04-13,1,0.019259384593580817,0.0212943002751471,-0.03648355104296687,0.03686430250632958,0.9658455970136464
2016-04-15,1,0.01907799960937418,0.021160619959174662,-0.011531342789489325,0.03686430250632958,0.9678846445142529
2016-04-19,1,0.02063809160818919,0.02276346783885836,-0.02909544330823781,0.034181820336463886,0.9683299077817341
2016-04-21,1,0.02013499004928965,0.022286037907329692,-0.02909544330823781,0.034181820336463886,0.966065459652163
2016-04-25,1,0.017716570779408202,0.01948435664671651,-0.0095584884732402,0.034181820336463886,0.9685704254495925
2016-04-27,1,0.018335686609815816,0.02014664543165772,-0.030564988094219498,0.03686430250632958,0.9636309314309129
2016-04-29,1,0.02378629125242526,0.026501193839756753,-0.041974045865364816,0.03292179194683858,0.9631734131241494
2016-05-03,1,0.01964897393473458,0.021593145419381746,-0.031646848558672384,0.033714051947256185,0.9657533403604345
2016-05-05,1,0.01780854588357648,0.019466654909003598,-0.011760745788007955,0.03546099733870647,0.9640750837776298
2016-05-09,1,0.014088601957570049,0.015043637118478812,-0.007949230979548173,0.033714051947256185,0.967659637341598
2016-05-11,1,0.01789136604581262,0.019583389888631855,-0.007949230979548173,0.033714051947256185,0.9666974242283001
2016-05-13,1,0.019376456349657515,0.021138377517543,-0.01520028402100925,0.03313066074807568,0.9655474343151051
2016-05-17,1,0.018196012035572747,0.019740802543070604,-0.01520028402100925,0.037010607240061985,0.9639479403002058
2016-05-19,1,0.014514900879906402,0.0155046058018254,-0.01520028402100925,0.037010607240061985,0.9672236421957005
2016-05-23,1,0.013781474231510544,0.014538888259843789,-0.025605111033912498,0.03867448005867389,0.964472889965015
2016-05-25,1,0.010929013394889458,0.011251841762443437,-0.01520028402100925,0.034895282623838106,0.9706708606549027
2016-05-27,1,0.006863578799525561,0.007165433089344627,-0.007949230979548173,0.03915644395974369,0.9718864156985988
2016-06-01,1,0.006987149343912287,0.007273656342625845,-0.01260928701530514,0.04760575454204812,0.9707500892572295
2016-06-03,1,0.007591686050872936,0.008009608975511636,-0.01260928701530514,0.04760575454204812,0.9726765941550041
2016-06-07,1,0.0032120892648633908,0.004389991064547988,-0.007118743034069826,0.0497086178996894,0.9694433066097061
2016-06-09,1,0.0022174252256282065,0.0036617937633160865,-0.017398555792475998,0.0497086178996894,0.967280825143891
2016-06-13,1,0.0001328539491408584,0.0019444511082990987,-0.017832120016800165,0.0497086178996894,0.9678908503408165
2016-06-15,0,-0.0008994131857867167,0.0011502686688752454,0.0010751378078006774,0.0497086178996894,0.9673489784060455
2016-06-17,0,-0.0017649895633705262,0.00036466234818233623,0.006060013081148821,0.0497086178996894,0.9685332593243727
2016-06-21,0,-0.00152979020033037,0.0004517702821926761,0.00014706703327254343,0.0497086178996894,0.9668700649771487
2016-06-23,0,-0.0005835611420497528,0.0011326362687140365,0.00014706703327254343,0.05093547240924136,0.9644820782745279
2016-06-27,1,0.0008500629787925908,0.0023756773499964733,-0.017896235935287413,0.05093547240924136,0.9643140444762375
2016-06-29,1,0.0034130571925340063,0.00447803916306168,-0.0029416101152429826,0.05066544638802826,0.9640447016810249
2016-07-01,1,0.003820642075120156,0.004935190213022477,-0.0029416101152429826,0.04875326471565226,0.9648790478916178
2016-07-06,1,0.00792567099415938,0.00845997716753899,-0.008229218666833113,0.04463901921705685,0.9683991214398531
2016-07-08,1,0.00896298994112527,0.00930677944527653,-0.005250592333189096,0.042668894902451224,0.9719842384100256
2016-07-12,1,0.009775138746387805,0.00977900775329221,-0.0004795506072082045,0.042668894902451224,0.9738174527431557
2016-07-14,1,0.01066800457008358,0.010696853856761038,-0.0037853292751159526,0.02550300501073746,0.9765809677331491
2016-07-18,1,0.009519562549024385,0.009775410948477713,-0.009882740920854791,0.02550300501073746,0.9764211389272125
2016-07-20,1,0.00404780866925256,0.004954259885588397,-0.009882740920854791,0.02550300501073746,0.9803148093293673
2016-07-22,1,0.006965257008090456,0.007435315625895542,-0.011540182252835015,0.021407304564562614,0.980700342636122
2016-07-26,1,0.00879076737728411,0.008799574697443205,-0.011540182252835015,0.014788260022717607,0.981997229580964
2016-07-28,1,0.012583306513906987,0.013226234779232184,-0.012848110226642563,0.011898464593013367,0.9777037449397564
2016-08-01,1,0.012065963131303264,0.012500202160303502,-0.012848110226642563,0.011126893841802784,0.9789603778161963
2016-08-03,1,0.012022845475868783,0.012509082950132151,-0.015926831329874276,0.011126893841802784,0.975310142950321
2016-08-05,1,0.009868578553589783,0.009938371803935378,-0.01352717951025891,0.015307793381472435,0.9757251557452996
2016-08-09,1,0.011543030155833836,0.01206228436808878,-0.01352717951025891,0.02330763933591948,0.970896671021257
2016-08-11,1,0.011217394479794786,0.011753272558549488,-0.01892874431257786,0.02330763933591948,0.9661008976351255
2016-08-15,1,0.008930042681179685,0.008969342840465116,-0.025347266880780067,0.02330763933591948,0.9628819680265661
2016-08-17,1,0.006990548341692538,0.007223294176093216,-0.022453151485216438,0.02330763933591948,0.9647645010225402
2016-08-19,1,0.0060773305471475275,0.006385394096252503,-0.01262108321647179,0.019674601328909993,0.9674126096064051
2016-08-23,1,0.003674020270564091,0.0042986102333794915,-0.0070870456675468565,0.0246214494455609,0.967031561303953
2016-08-25,1,0.0003384188024473742,0.001363832980696447,-0.011295170226153829,0.019674601328909993,0.9706183696035258
2016-08-29,1,0.0013972351576452785,0.0022703501394795975,-0.025778406516454716,0.013581124081361725,0.9690078041787764
2016-08-31,0,-0.0005815437546338245,0.0003831254511652269,-0.02158553029081045,0.01909986981003456,0.9711207243736715
2016-09-02,1,0.0014139426030759612,0.0021140514070154166,-0.02158553029081045,0.007264499147544774,0.9731959775326274
2016-09-07,1,0.004056689733637376,0.004459692384320783,-0.025778406516454716,0.007264499147544774,0.9713955047658138
2016-09-09,1,0.0013866576300651896,0.0019474862192573623,-0.02158553029081045,0.012588387314972476,0.9764625771449955
2016-09-13,-1,-0.003282797304485672,-0.0020875842568179935,-0.02158553029081045,0.012588387314972476,0.9795187535696782
2016-09-15,-1,-0.00431266506096797,-0.0029099526369242264,-0.02158553029081045,0.012588387314972476,0.9786088801859624
2016-09-19,-1,-0.00343403064762456,-0.0021965079099348197,-0.024116517964850398,0.016121659510866818,0.9765997544025496
2016-09-21,1,0.0005954004243254286,0.0011635750873128738,-0.024116517964850398,0.01885366261074068,0.9763338023748342
2016-09-23,-1,-0.003045405499021248,-0.0019605513865513734,-0.02007580497109048,0.01885366261074068,0.9780864461840358
2016-09-27,-1,-0.006477482736486531,-0.0049281938483417415,-0.011617286582653197,0.022161145776634493,0.9787304653609061
2016-09-29,-1,-0.007930588526687944,-0.006114073592851184,-0.011617286582653197,0.018980891041680277,0.9783472489998697
2016-10-03,-1,-0.007074435415705863,-0.0054668732742796915,-0.011862607437321504,0.018980891041680277,0.977691326669899
2016-10-05,-1,-0.008681147115216975,-0.007036305345990484,-0.011445337039109355,0.018980891041680277,0.981746457731139
2016-10-07,-1,-0.008286378067968756,-0.006682303406458498,-0.011862607437321504,0.01846540823616149,0.9816431580408735
2016-10-11,-1,-0.010972965323400244,-0.008922317329043325,-0.011862607437321504,0.01846540823616149,0.9824094740549071
2016-10-13,-1,-0.009623201765983726,-0.00776860650104217,-0.012417242730609228,0.017414764170994163,0.9812614471065508
2016-10-17,-1,-0.012088147482599862,-0.009836065785311605,-0.012417242730609228,0.013193832790256687,0.9797012283251288
2016-10-19,-1,-0.011745481149371774,-0.009424782016136495,-0.012417242730609228,0.009514607582798353,0.9806823672921481
2016-10-21,-1,-0.012615033264714987,-0.010224352758842406,-0.011901394099977699,0.013193832790256687,0.9782901491242382
2016-10-25,-1,-0.010411531578095025,-0.008437932500733457,-0.011901394099977699,0.018086594708066377,0.976872214993232
2016-10-27,-1,-0.011391153613197357,-0.009300375425777392,-0.011901394099977699,0.018086594708066377,0.9741548096997833
2016-10-31,-1,-0.010519268245320304,-0.008604707432847684,-0.007893126190899928,0.02150820986222232,0.9731296292964553
2016-11-02,-1,-0.010347977611635915,-0.008475586162531029,-0.01441766484750754,0.02150820986222232,0.9737125972168091
2016-11-04,-1,-0.009432037932343412,-0.00775257037088791,-0.010128157348397537,0.02678413755766532,0.9698097833912972
2016-11-08,-1,-0.010396788123882846,-0.008595953366255089,-0.012168798641008968,0.02678413755766532,0.9678048963653696
2016-11-10,-1,-0.013908562214569176,-0.011694883960525619,-0.01505177069865749,0.02678413755766532,0.9674402999933375
2016-11-14,-1,-0.016282975519649707,-0.013825067467915425,-0.010287332910886952,0.029954158649062312,0.9666106954305392
2016-11-16,-1,-0.014280834080448085,-0.012146719427061557,-0.02134197645438228,0.02678413755766532,0.9657904913907185
2016-11-18,-1,-0.012305776870459964,-0.010479156389323908,-0.02134197645438228,0.025510654634172535,0.966502934780478
2016-11-22,-1,-0.008547191471684158,-0.007287073126729174,-0.02134197645438228,0.017603704936342085,0.9704775924143162
2016-11-25,-1,-0.009533435485804124,-0.008301129906832384,-0.02134197645438228,0.01990495360156839,0.9723082197863839
2016-11-29,-1,-0.007449593619056415,-0.006525423234040111,-0.02134197645438228,0.01990495360156839,0.9722024212344462
2016-12-01,-1,-0.008951652165360832,-0.007822378365844559,-0.023568739526260783,0.022880534495028405,0.9673548343213185
2016-12-05,-1,-0.002563585126244222,-0.00236565799881905,-0.023568739526260783,0.01990495360156839,0.9687477040734479
2016-12-07,-1,-0.001804894447207368,-0.001750303454566859,-0.03576773705983936,0.021651936679350624,0.9630818264380551
2016-12-09,-1,-0.007330092337427653,-0.006434474615197356,-0.014618348771318502,0.030306621920456717,0.9634410768196187
2016-12-13,-1,-0.003162636072789135,-0.0029010327737237188,-0.014618348771318502,0.021651936679350624,0.9672708333248364
2016-12-15,-1,-0.008012227970445644,-0.007204155984387181,-0.00491162225763976,0.030306621920456717,0.9678685584331741
2016-12-19,-1,-0.004818996823015525,-0.004566320084326448,-0.009373461674019859,0.030306621920456717,0.9690936333173273
2016-12-21,-1,-0.00345369246422012,-0.0034146809860002144,-0.0075918515975444256,0.038382718820182016,0.9663004448984414
2016-12-23,-1,-0.003415069416753317,-0.003355174884139273,-0.0075918515975444256,0.038382718820182016,0.9672071632613358
2016-12-28,-1,-0.0017708088515184378,-0.001486871978599649,-0.014508071431241621,0.038382718820182016,0.9672917736810095
2016-12-30,-1,-0.001281080333197821,-0.0008631215378351652,-0.0075918515975444256,0.026335741830748945,0.9712728046949373
2017-01-04,1,0.002176079751033829,0.003057089293147246,-0.009883249706127535,0.020452070996828522,0.9754743803818328
2017-01-06,1,0.0036850556779449684,0.0047718156417986945,-0.0071506328166609495,0.01966407150395996,0.9821445487673869
2017-01-10,1,0.004784748766820283,0.005955620999313455,-0.009883249706127535,0.01966407150395996,0.9814172669046958
2017-01-12,1,0.004652355679131469,0.005798695097840068,-0.013438731750972016,0.01966407150395996,0.977199686304052
2017-01-17,1,0.00656568140518665,0.007913142039398895,-0.013438731750972016,0.019168504928725162,0.9783713213010973
2017-01-19,1,0.004079227241280356,0.004950918768125834,-0.011641611226670774,0.019168504928725162,0.9793264921126852
2017-01-23,1,0.007035402348125967,0.008381211009728853,-0.018713816312601734,0.015818782775189992,0.9784127999723156
2017-01-25,1,0.004161679667288018,0.0049584160306179546,-0.018713816312601734,0.015818782775189992,0.979312290397221
2017-01-27,1,0.004781221734701795,0.005777578454288286,-0.018713816312601734,0.012348194175368263,0.9792327774983443
2017-01-31,1,0.007873530090063342,0.009489602098811872,-0.018713816312601734,0.007196369112460214,0.9782037332754362
2017-02-02,1,0.005668944047292056,0.006777603497284495,-0.021946220631838955,0.012523173122519908,0.9762828938204934
2017-02-06,1,0.005511531933312607,0.006441904806147818,-0.027965269934072404,0.005410788155416424,0.9732960176052837
2017-02-08,1,0.006085686413967276,0.007123420800318028,-0.027965269934072404,-0.0003081206355679176,0.9729162652543188
2017-02-10,1,0.003376328505422232,0.004093724099714802,-0.023845571618067846,0.007196369112460214,0.9773296102022471
2017-02-14,1,0.0040637981143134645,0.0049882367027414025,-0.027965269934072404,0.014139826093392609,0.9714670049843007
2017-02-16,1,0.0026570866179769677,0.0032985851777516573,-0.027965269934072404,0.014139826093392609,0.9719214276453835
2017-02-21,1,0.0018160794834097727,0.002225571205501589,-0.024428585597446987,0.007196369112460214,0.9742834363706442
2017-02-23,1,0.0009528571861338735,0.0012602150548966086,-0.018279875625077692,0.010597705843138374,0.9756256256939084
2017-02-27,-1,-0.0003839446590953303,-0.000252198765854585,-0.01407281390363063,0.014139826093392609,0.976109374729033
2017-03-01,-1,-0.0018320436385371552,-0.0016287720420831082,-0.018279875625077692,0.012958923672027327,0.9756671879967085
2017-03-03,-1,-0.0029449469802314953,-0.0026524211802732628,-0.01407281390363063,0.013274749464203246,0.9782961118414392
2017-03-07,-1,-0.006120374765060082,-0.005424644622905516,-0.009127797066322114,0.023862535740154088,0.9790608925331216
2017-03-09,-1,-0.006514223993002522,-0.005842060273270834,-0.007874800537242233,0.023862535740154088,0.9794541285874879
2017-03-13,-1,-0.0046312510068842695,-0.004146602555285818,-0.007874800537242233,0.019350420148236486,0.9797792796925289
2017-03-15,-1,-0.0011075614098112869,-0.001064827548608066,-0.007575750277974386,0.019350420148236486,0.9827403087774025
2017-03-17,-1,-0.002099803472203963,-0.0019828071439904746,-0.004547215982579449,0.019350420148236486,0.9823316402296361
2017-03-21,-1,-0.0017443258438534818,-0.0017047135048277153,-0.004547215982579449,0.019350420148236486,0.9795134061581312
2017-03-23,-1,-0.0019296276766291366,-0.0018385772435094362,-0.0016583638807704316,0.019350420148236486,0.9793696750518246
2017-03-27,-1,-0.00071095159224886,-0.000635419515067053,-0.004547215982579449,0.01634596492674814,0.9804271620496869
2017-03-29,-1,-0.0012597803854342855,-0.0012404988675535156,-0.004547215982579449,0.019350420148236486,0.9773518486003727
2017-03-31,-1,-0.00034425927307498593,-0.00019838925980108628,-0.004790028590447885,0.01973934144824802,0.9765765807867731
2017-04-04,1,0.0011380790254878336,0.0014483324872177526,-0.020746313931472755,0.01634596492674814,0.9769191476426555
2017-04-06,-1,-0.0005261654995308747,-0.00043478969299256377,-0.020746313931472755,0.01973934144824802,0.9737305096276239
2017-04-10,-1,-0.00037059011927901024,-0.00015913936291647637,-0.020746313931472755,0.014923162396477797,0.9761054801204408
2017-04-12,1,0.0029536217579415854,0.0032211718292967225,-0.020746313931472755,0.016214861216959663,0.9771270790763011
2017-04-17,1,0.0035692768351078766,0.003950188322245924,-0.020746313931472755,0.018526214105173976,0.9765492258005363
2017-04-19,1,0.0024845436620267386,0.0028348749071617206,-0.020298041556598513,0.02578659458269914,0.9780680846412102
2017-04-21,1,0.0016010273890454366,0.0016719122574663473,-0.020746313931472755,0.02578659458269914,0.9768336195472829
2017-04-25,1,0.0010997878863450283,0.0011695457185352922,-0.021455950206670796,0.02578659458269914,0.9761745951597959
2017-04-27,-1,-0.0008321274034699878,-0.0006039680288524822,-0.020298041556598513,0.02578659458269914,0.9787997153616407
2017-05-01,1,0.0013373981834296192,0.0015916347646000397,-0.020298041556598513,0.024989477072209252,0.9786761987990322
2017-05-03,-1,-0.00015053152658463847,-9.019158993059517e-05,-0.016107234704463298,0.024989477072209252,0.9797189941012402
2017-05-05,-1,-0.0006954684475256276,-0.0005297255094451632,-0.015087859589036207,0.01973688617314023,0.982036715686704
2017-05-09,1,0.0004335727019091308,0.0005168531110608429,-0.015087859589036207,0.024989477072209252,0.979792414852272
2017-05-11,-1,-0.00046150445699098634,-0.00018164030611435387,-0.015087859589036207,0.01973688617314023,0.9813522274343158
2017-05-15,1,0.0009146872462491134,0.0010149693190370174,-0.016107234704463298,0.015792393991878987,0.9809072569845958
2017-05-17,1,0.0008322997679650151,0.0009834785542290618,-0.024289305473038085,0.011463659269440797,0.9784884368500957
2017-05-19,0,-0.00017827926178703535,0.00012449559814558663,-0.021807990490951314,0.011288748365216192,0.9788773749949379
2017-05-23,1,1.0793261532069266e-05,0.00022664522541115386,-0.01876139961980277,0.009032256225994555,0.9805624578982101
2017-05-25,1,0.0008069566507470473,0.0009587754174244713,-0.01876139961980277,0.010322616985440482,0.980424448431423
2017-05-30,1,0.0018455140820200274,0.002002499275887733,-0.015715256829529255,0.009032256225994555,0.9826082848176538
2017-06-01,1,0.0018440944069547098,0.002079123993291362,-0.01648723002338958,0.010322616985440482,0.9794463309202358
2017-06-05,1,0.002364983532732055,0.0027564808116905346,-0.021807990490951314,0.010322616985440482,0.9785582880516177
2017-06-07,1,0.004114938298459414,0.004719122668946876,-0.026661889942922245,0.010322616985440482,0.9781193551476993
2017-06-09,1,0.005207934680779777,0.0060897773880580295,-0.03186733243684943,0.011196433612635691,0.9759843068871791
2017-06-13,1,0.003349719506481879,0.003912187184747165,-0.025735151857629746,0.011196433612635691,0.9782881290875617
2017-06-15,1,0.0013751450996944002,0.0018105981530553111,-0.021927949138939626,0.013576375483841722,0.9803375337109544
2017-06-19,1,0.0005596047987006252,0.0008084593090870528,-0.014005486739305925,0.01564935106503042,0.9797235432187354
2017-06-21,1,3.817930159025283e-05,0.00019364890787686243,-0.014005486739305925,0.01564935106503042,0.9791937241136964
2017-06-23,1,0.0019406106067936864,0.0024261638624438445,-0.024624096754861446,0.013452062002909262,0.9790729715657528
2017-06-27,1,0.001291791945328133,0.0016734464589508837,-0.024624096754861446,0.01709758209793888,0.9775883692731072
2017-06-29,1,0.002296804112485392,0.0028862651301856303,-0.024624096754861446,0.01709758209793888,0.9757449905276941
2017-07-03,1,0.001335767793027264,0.001825391798986641,-0.014005486739305925,0.017574537328126454,0.9766193882881663
2017-07-06,-1,-0.0010491879833816455,-0.0010272672569151074,-0.022827864753827472,0.017574537328126454,0.975067157415388
2017-07-10,-1,-0.001347915113981951,-0.0012724572054028124,-0.0179110845395302,0.014015785039022715,0.9763715296368731
2017-07-12,-1,-0.0010899682548376438,-0.0010100487968164654,-0.0179110845395302,0.014015785039022715,0.976730932195039
2017-07-14,-1,-0.0005009921297677636,-0.0004994955523675065,-0.015696928187542744,0.013113292466306273,0.979299960111569
2017-07-18,-1,-0.00016685729166929228,-0.00014723605707269759,-0.015696928187542744,0.011069759947593662,0.9807668513838327
2017-07-20,-1,-0.0003232502348452518,-0.0002035249543172034,-0.01713105798980921,0.011317595779589412,0.9795954046656861
2017-07-24,-1,-0.0006449483421807213,-0.0005007526088462518,-0.015696928187542744,0.011476580856318603,0.97831200567615
2017-07-26,1,0.00016555881472445593,0.00030076560385966386,-0.015696928187542744,0.009997865255005272,0.9799503709538925
2017-07-28,-1,-0.00432866548170311,-0.0035320611204214115,-0.012559468287567842,0.00793442586857787,0.9856700207104162
2017-08-01,-1,-0.004616285182506681,-0.0037040371153538253,-0.012559468287567842,0.006366268581576643,0.9833218677823299
2017-08-03,-1,-0.005916876472504058,-0.004951796152560346,-0.010172209703322853,0.009997865255005272,0.9832547206014094
2017-08-07,-1,-0.005956156999422706,-0.005084898227250413,-0.0065400389577934225,0.015576084128688224,0.9807209656735774
2017-08-09,-1,-0.005949189482144172,-0.0050479785032057425,-0.0065400389577934225,0.015887792820279033,0.9807655816386375
2017-08-11,-1,-0.005900719747176989,-0.004994714195994636,-0.009943645322580928,0.015887792820279033,0.980430917594189
2017-08-15,-1,-0.006661283764057371,-0.005667932900681122,-0.009943645322580928,0.025669951821315408,0.9778837222872828
2017-08-17,-1,-0.005848671239536387,-0.004991464297374552,-0.007008609507428031,0.015887792820279033,0.97946276566306
2017-08-21,-1,-0.003862478818920005,-0.003192742365436344,-0.008889751373729125,0.012675292231739346,0.9828063951154102
2017-08-23,-1,-0.0033610606998168684,-0.0027842328337128125,-0.009943645322580928,0.012675292231739346,0.9827715475593536
2017-08-25,-1,-0.002435511646323234,-0.002058474400411049,-0.009136436247091304,0.013870196171314549,0.9822203977259576
2017-08-29,1,0.0002997608099236862,0.00035554908575462707,-0.009136436247091304,0.012675292231739346,0.9854833244807868
2017-08-31,1,0.0012758582449736993,0.0014495014031971976,-0.007918043427795285,0.01048780027411252,0.9870675160254366
2017-09-05,1,0.0049246401849503945,0.005754769521930221,-0.007918043427795285,0.010591703171309457,0.9878395055216013
2017-09-07,1,0.0055283037300500925,0.006470208039996638,-0.009136436247091304,0.01126346331111239,0.986141328076074
2017-09-11,1,0.0031564849805786315,0.003651626223561794,-0.007918043427795285,0.01588547659072335,0.9863559165272807
2017-09-13,1,0.004204890493334085,0.004875296400084237,-0.007918043427795285,0.012215002231120094,0.986158873382624
2017-09-15,1,0.0038472393756583245,0.004402043824392021,-0.009663802415342895,0.012215002231120094,0.9852241285330229
2017-09-19,1,0.003201286699521476,0.00360384852083771,-0.013449508497523459,0.012215002231120094,0.9837036119154424
2017-09-21,1,0.002250079636111465,0.0025230501284373664,-0.013449508497523459,0.012215002231120094,0.9837505629043369
2017-09-25,1,0.002001419755649156,0.002136534343461557,-0.013449508497523459,0.008478281701526914,0.9840329555368702
2017-09-27,1,0.0024055173297119576,0.002660142884353977,-0.013449508497523459,0.009060433756568374,0.9836060337835211
2017-09-29,1,0.0021518375168707456,0.002364719452629383,-0.017384621222334924,0.011953411202020696,0.9789314227921458
2017-10-03,1,0.004572123176418382,0.005221715792008472,-0.020355563301654382,0.009060433756568374,0.9783476815428254
2017-10-05,1,0.004402245987053849,0.00509787548859319,-0.01640885416951217,0.004805869147224752,0.9795396035231233
2017-10-09,1,0.005112940100627359,0.005925674249481252,-0.01640885416951217,0.004805869147224752,0.9798044166319467
2017-10-11,1,0.0034971657053864155,0.004074470880528422,-0.011404903755387719,0.004035576935482301,0.9831119771878672
2017-10-13,1,0.002488355848762007,0.0029077194586677752,-0.017724748747772547,0.004035576935482301,0.9819884328443128
2017-10-17,1,0.0017465151999421617,0.0021408574600558614,-0.013694347122697742,0.004035576935482301,0.9836362450631858
2017-10-19,1,0.0005967893426298048,0.0008071557276496926,-0.010105821977548144,0.006082371991092869,0.9844719665771059
2017-10-23,1,0.00018330745855598058,0.000300810828511664,-0.010105821977548144,0.008428647031221669,0.9828234561390577
2017-10-25,1,0.00012675271408614107,0.00022530355383501826,-0.010105821977548144,0.010005314352445234,0.9820270919840071
2017-10-27,-1,-0.0016476380234335005,-0.0016468102092322993,-0.009556105397569395,0.008682738403086216,0.986505645166081
2017-10-31,-1,-0.001617390753705937,-0.0016045663872866725,-0.009142195081247946,0.0072219254371188755,0.9874607856230347
2017-11-02,-1,-0.0029675092657646014,-0.002756232541432987,-0.008619678791126725,0.0072219254371188755,0.9876468237214104
