JNU-Tangyin/eata/results/Batch4_SP500/Batch4_SP500-ES.csv
Date,Action,Predicted_Q25,Predicted_Q75,Actual_Q25,Actual_Q75,RL_Reward
2010-12-14,0,0.0,0.0,-0.0021974843636244587,0.001960521711317751,0.9959112473164805
2010-12-16,0,0.0,0.0,-0.001722174763112431,0.002586694432263937,0.9967089578763072
2010-12-20,0,0.0,0.0,-0.0021974843636244587,0.003847392408719728,0.9956768675409517
2010-12-22,0,0.0,0.0,-0.0021974843636244587,0.004342916106997161,0.995312204840888
2010-12-27,1,0.00037458269793568975,0.00040969776019834556,-0.0016332758888513068,0.0059683062587328126,0.9949987345853509
2010-12-29,1,0.0006712301977164993,0.0006771007267333682,-0.001931890210410227,0.0059683062587328126,0.9945082957232825
2010-12-31,1,0.0005774147462384673,0.0005797524639883673,-0.0016332758888513068,0.0059683062587328126,0.9945088478764181
2011-01-04,0,0.0,0.0,-0.0016021186866815571,0.006869054376088195,0.9934055494857386
2011-01-06,-1,-0.00023420475170475184,-0.00011848294513362744,-0.0006030444409785283,0.006869054376088195,0.9940251601476889
2011-01-10,-1,-0.00012275890172226396,-2.4780691226145295e-05,-0.0006030444409785283,0.006869054376088195,0.9941722137301401
2011-01-12,-1,-0.00042971380137594306,-0.00027249582165229675,-0.0006030444409785283,0.006869054376088195,0.9940228859097774
2011-01-14,0,-2.110766811806085e-05,7.910735741939906e-05,-0.0022659521171019418,0.005811853249961224,0.9941668445173962
2011-01-19,1,8.009172863008554e-05,0.00018280497075911167,-0.0016021186866815571,0.004811644406425462,0.9952152191566326
2011-01-21,1,0.00021180840722629545,0.00030045425742027506,-0.002029910273278776,0.004505489448912512,0.9952373304488531
2011-01-25,0,0.0,0.0,-0.00370864135532149,0.0028372319346164506,0.9956558455455012
2011-01-27,0,0.0,0.0,-0.0036379791748901774,0.0028372319346164506,0.995693211756732
2011-01-31,0,0.0,0.0,-0.003974598249311229,0.0028372319346164506,0.9950556487465534
2011-02-02,0,0.0,0.0,-0.003974598249311229,0.0035692007473350448,0.9957474559211577
2011-02-04,0,0.0,0.0,-0.00440593628799945,0.004543199555694863,0.99486007002179
2011-02-08,0,0.0,0.0,-0.00440593628799945,0.006130804680874182,0.9937693640145692
2011-02-10,0,0.0,0.0015939162625940512,-0.005136484391609309,0.006130804680874182,0.9936743040973338
2011-02-14,1,0.0005782558338005505,0.0006929987036331238,-0.00548433964768087,0.006130804680874182,0.9924550259857015
2011-02-16,1,0.000825038111851987,0.0008883101060739068,-0.006143195369081745,0.00796202225245834,0.9913871312465904
2011-02-18,0,0.0,0.0,-0.006143195369081745,0.00868817057378355,0.990800564887455
2011-02-23,1,0.00018305698108127467,0.00033601196368654326,-0.006143195369081745,0.00868817057378355,0.9910037098209635
2011-02-25,1,0.000679119953203571,0.0007606889827868329,-0.006143195369081745,0.00796202225245834,0.9917463100776932
2011-03-01,1,0.0012242251171661936,0.0012320065280430111,-0.00733278798310865,0.00796202225245834,0.9917017982264665
2011-03-03,0,0.0,0.0,-0.00733278798310865,0.00868817057378355,0.9911032551980826
2011-03-07,0,0.0,0.0,-0.0054035951947415005,0.008328451005350727,0.9916160534549959
2011-03-09,1,0.0009024396835362322,0.0009504638429117921,-0.0054035951947415005,0.005829069374729127,0.9925870883877468
2011-03-11,1,0.0016350670932156284,0.001691879416098165,-0.0054035951947415005,0.005829069374729127,0.9927240750108297
2011-03-15,0,0.0,0.0,-0.004230997055109187,0.005829069374729127,0.9935493349229091
2011-03-17,0,0.0,0.0,-0.004230997055109187,0.004073614449830608,0.9943215706268191
2011-03-21,0,0.0,0.0,-0.005061175381529696,0.001813230711301982,0.9943884144702804
2011-03-23,1,0.0008383994164516595,0.0008769578048048231,-0.005061175381529696,0.005214851912682046,0.9933545078851345
2011-03-25,1,0.0009265255558256046,0.000991474961628054,-0.005061175381529696,0.00650453533423255,0.9929532376130769
2011-03-29,1,0.0010669157940806362,0.0011543827526014018,-0.004230997055109187,0.00650453533423255,0.9932797021451064
2011-03-31,1,0.0013377171757361968,0.001465404369751394,-0.0036352135546846073,0.00650453533423255,0.9937849464358502
2011-04-04,1,0.00128159813839589,0.0013710471482793584,-0.0036352135546846073,0.006274119317307005,0.9940925081078764
2011-04-06,1,0.001265644167310456,0.0013591399137325324,-0.004026503686334254,0.006274119317307005,0.9937105640487918
2011-04-08,1,0.001032349732177909,0.0011037952794407063,-0.0033125201413712812,0.006274119317307005,0.9941414942182615
2011-04-12,1,0.0002384421751005984,0.0002963103146366576,-0.00041944054038189714,0.00650453533423255,0.9940214069004392
2011-04-14,0,-4.245047218041475e-05,4.3902331298754856e-05,0.0009208190280082737,0.006726369870334181,0.9937372623488565
2011-04-18,-1,-0.0003996436592865424,-0.00026723389972102107,0.0009208190280082737,0.007309207939557971,0.9939939899416776
2011-04-20,1,0.0003600093865428728,0.00039587524259132904,1.2004362896545526e-06,0.006726369870334181,0.9951904511265397
2011-04-25,1,0.00029040821519211904,0.00037595990145082835,-0.001588223868936422,0.006371064512967497,0.9947154569399668
2011-04-27,1,0.0011612133777572533,0.0012173621361901107,-0.0022955342919385325,0.004529023562871448,0.9951975093020732
2011-04-29,1,0.0012975306947839718,0.0013466923794790908,-0.0029912580485674765,0.0015484882814531626,0.9951149580422173
2011-05-03,1,0.001045530879322716,0.0010502325708635519,-0.004575966391020949,0.0020484144850207546,0.9944131922651348
2011-05-05,1,0.0007608022398896553,0.0007767313666335178,-0.004575966391020949,0.0020484144850207546,0.994203642096144
2011-05-09,1,0.0009053031201067607,0.0009127426275675885,-0.006203459730433847,0.002089970684660432,0.9935817032571628
2011-05-11,0,0.0,0.0,-0.006203459730433847,0.0020857194550421565,0.9940570037975806
2011-05-13,0,0.0,0.0,-0.006805272195434941,0.0013865664229696546,0.9943034751186127
2011-05-17,1,0.0013917249567549162,0.0014519676225200704,-0.006805272195434941,0.0013865664229696546,0.9939722904328425
2011-05-19,1,0.0011607543013016236,0.001172896327131302,-0.006805272195434941,0.004119459570730698,0.9931131466560721
2011-05-23,1,0.000605064526898808,0.0006469970542930742,-0.005266754207351799,0.004314289610913893,0.9937444086294248
2011-05-25,1,0.0002868252450811591,0.0003805318110478197,-0.007574811044915156,0.004314289610913893,0.9931565937503702
2011-05-27,-1,-0.0002214211609052582,-6.822683247637425e-05,-0.006125079622179632,0.004887201094877815,0.993025188572954
2011-06-01,0,0.0,0.0,-0.0052093966681184545,0.004815798067324089,0.9933946951909041
2011-06-03,0,0.0,0.0,-0.0030038150703478386,0.006872891481093473,0.9935001298921714
2011-06-07,-1,-0.0015387856383903664,-0.0012094628574212658,-0.0029478613968857035,0.006872891481093473,0.9938548148615856
2011-06-09,-1,-0.0011941079694602669,-0.0009295535453445359,-0.004149198244003194,0.006872891481093473,0.9940891249964411
2011-06-13,-1,-0.0012543856370505163,-0.0009954945710753903,-0.004149198244003194,0.009855048890977162,0.9931445109659243
2011-06-15,-1,-0.001183789969926294,-0.0009449683701940495,-0.00505830362372223,0.009855048890977162,0.9929300930497438
2011-06-17,-1,-0.00024335436511513592,-0.00013924276576769506,-0.006175383550150177,0.004707872643561572,0.9928964988646081
2011-06-21,1,4.847639286471861e-05,0.00013171890454997563,-0.006175383550150177,0.006234036160973198,0.9927937317180301
2011-06-23,-1,-0.0005055582973724655,-0.0003620931573697747,-0.004149198244003194,0.007105461456951955,0.9929660301564749
2011-06-27,1,0.0004748343715026467,0.00048367630499622,-0.00505830362372223,0.006234036160973198,0.9928967276442731
2011-06-29,1,0.0005309606186277948,0.0005464450447806199,-0.006290992658965589,0.0047521209954256155,0.9925645280880679
2011-07-01,0,0.0,0.0,-0.007956816771830444,0.0047521209954256155,0.9924101430715958
2011-07-06,0,0.0,0.0,-0.010437391142305213,0.0047521209954256155,0.9909616612263438
2011-07-08,0,0.0,0.0,-0.012499908641159824,0.007006217325095281,0.9893295505112052
2011-07-12,0,0.0,0.0,-0.014431213195730232,0.007006217325095281,0.9855497279558931
2011-07-14,0,0.0,0.0,-0.015874884866502965,0.007284603987963568,0.9828536105307908
2011-07-18,0,0.0,0.0,-0.014431213195730232,0.007598504651864922,0.98217760239119
2011-07-20,0,0.0,0.0,-0.014431213195730232,0.007300772256294899,0.9823121852295469
2011-07-22,0,0.0,0.0,-0.015453824131156018,0.004746439913714271,0.9816686048190026
2011-07-26,-1,-0.0003581341245019952,-0.0002502377568371526,-0.015453824131156018,0.007300772256294899,0.9809636556424451
2011-07-28,-1,-0.000874676258950432,-0.0006993784450278314,-0.015453824131156018,0.012439964116473464,0.9794672907691129
2011-08-01,-1,-0.0003766874617057371,-0.00030864607728605796,-0.015106760122074578,0.019237681619802407,0.9793155140951008
2011-08-03,-1,-0.0016289566752738863,-0.0013981779682795013,-0.010794930424536992,0.019237681619802407,0.9804060953878454
2011-08-05,-1,-0.0028141534442309183,-0.002396937055259731,-0.010794930424536992,0.019237681619802407,0.981139061780789
2011-08-09,-1,-0.003250277478181276,-0.0027898511745402064,-0.010406084372742838,0.01179870187523248,0.9852985400875232
2011-08-11,-1,-0.001600267177573869,-0.0013683411285064118,-0.010406084372742838,0.007186345127155101,0.9875983403437881
2011-08-15,-1,-0.001160561039034455,-0.000981133638192974,-0.01019183777618187,0.00775190455842723,0.9884148021320723
2011-08-17,-1,-0.0012675771307351755,-0.001073105135534652,-0.01019183777618187,0.010321289520237429,0.9877590069508456
2011-08-19,-1,-0.002016955842934754,-0.0017444554123423437,-0.00603662195581396,0.010321289520237429,0.9886122355948256
2011-08-23,-1,-0.0010455721335241473,-0.0009027828581711563,-0.008304595721595458,0.009886782542824072,0.9891800235493924
2011-08-25,1,0.0006823254274589837,0.0007803335887683874,-0.008304595721595458,0.009886782542824072,0.9898742732284903
2011-08-29,1,0.0008413692877335797,0.0009503435467675976,-0.008304595721595458,0.009886782542824072,0.9903137559371308
2011-08-31,1,0.0006857194794019947,0.0007586763114626693,-0.01158673331313043,0.010321289520237429,0.9891999220724268
2011-09-02,-1,-0.00029416766202299525,-0.0002246589278595242,-0.014136158171306503,0.010321289520237429,0.9874401039862597
2011-09-07,-1,-0.0008881502376960938,-0.0007472332977724067,-0.017387831104134836,0.01004668049429514,0.9867844917120926
2011-09-09,-1,-0.0011274262547711351,-0.0009378284757148442,-0.014136158171306503,0.010917229328144696,0.9862280279151119
2011-09-13,-1,-0.0009209637572802894,-0.0007996665945603084,-0.016995728755254895,0.011530447709395614,0.9848584963135171
2011-09-15,1,7.599797863899716e-05,9.422105393276883e-05,-0.016995728755254895,0.011444862478948149,0.9851163080565539
2011-09-19,1,0.001056597682762329,0.0012214999273441375,-0.016995728755254895,0.011444862478948149,0.98423480050861
2011-09-21,1,0.0011189021205742936,0.001314812641762375,-0.015044516883517014,0.0120671335803594,0.9848251511444657
2011-09-23,1,0.0012900698587157674,0.0015157916273869348,-0.013053222269694341,0.011760731756304064,0.9861657710853345
2011-09-27,1,0.0015841281280406854,0.0018266654992179668,-0.014234396449502947,0.011371256947745524,0.9856204955774825
2011-09-29,1,0.000259045705037542,0.00035060278436461594,-0.013053222269694341,0.012407699798938385,0.9849701097086874
2011-10-03,-1,-0.0005094030551485559,-0.000490932334080043,-0.0068222433018515286,0.012407699798938385,0.9871316255397433
2011-10-05,-1,-0.0009569706278165763,-0.0009011266875835904,-0.0027219337728290505,0.014004891098700888,0.9860746349950169
2011-10-07,1,0.00036262469519467226,0.0004885646608821471,-0.004877747327896862,0.014004891098700888,0.9872132675490712
2011-10-11,1,0.0007540934302207806,0.0009335778111374132,-0.004175979649310042,0.012407699798938385,0.9892531305827446
2011-10-13,1,0.0011863107975795993,0.0013850492215172487,-0.007914693272949346,0.014004891098700888,0.9882711495828671
2011-10-17,1,0.0008802070292009993,0.0010374482858746194,-0.007914693272949346,0.015238938810058783,0.9874303620421991
2011-10-19,1,0.0010105147214165878,0.0011729816727066166,-0.011599259948611485,0.015238938810058783,0.9866249507175062
2011-10-21,1,0.001297001167035308,0.0014838749719475377,-0.01260697672748863,0.016207417630425307,0.9857924706916531
2011-10-25,0,0.0,0.0,-0.01260697672748863,0.016207417630425307,0.9856633643737915
2011-10-27,0,0.0,0.0,-0.01674253327118721,0.013597182378010924,0.9865443517043196
2011-10-31,1,0.0006896519643096561,0.0007781040293451662,-0.01674253327118721,0.013597182378010924,0.9862880507480588
2011-11-02,1,0.000384297757964948,0.0004271679527473749,-0.01260697672748863,0.013597182378010924,0.9869774352963603
2011-11-04,1,0.0006998430031497202,0.000782096229899745,-0.015059836831779255,0.009929532851648049,0.9870515784165722
2011-11-08,1,0.0008369054515629671,0.0009739711266242947,-0.015059836831779255,0.009929532851648049,0.9870629320539928
2011-11-10,1,0.0009163620946533464,0.0010850493384250426,-0.015059836831779255,0.009929532851648049,0.9867772323136527
2011-11-14,1,0.0007786587457180578,0.0009025006257271196,-0.012181238715309541,0.009730083011979153,0.9881130132972896
2011-11-16,0,0.0,0.0,-0.01063312533027176,0.00957989955631334,0.9884080794174267
2011-11-18,0,0.0,0.0,-0.00756293680512621,0.007480697483942615,0.9893767976571491
2011-11-22,0,0.0,0.0,-0.005363771280853893,0.009321950338507776,0.9897132372101608
2011-11-25,0,0.0,0.0,-0.002977304245776045,0.010599712545930994,0.9902672854953111
2011-11-29,0,0.0,0.0,-0.002977304245776045,0.010599712545930994,0.9908272079734668
2011-12-01,0,0.0,0.0,-0.004754451023580644,0.01054651169933005,0.9917157682854626
2011-12-05,0,0.0,0.0,-0.005363771280853893,0.01054651169933005,0.9912352488371294
2011-12-07,0,0.0,0.0,-0.005173429449257994,0.01054651169933005,0.9914941908937857
2011-12-09,0,0.0,0.0,-0.005173429449257994,0.009105356791516198,0.992886195544024
2011-12-13,-1,-0.0007171164652529619,-0.0006637982993553833,-0.006633643742690936,0.005113645418632254,0.9932481308716344
2011-12-15,-1,-0.0007606708401592736,-0.0007232174582063206,-0.005173429449257994,0.0037523853640674624,0.9942951434347356
2011-12-19,-1,-0.001064087549094953,-0.0010454096656494106,-0.005186366634062989,0.0037523853640674624,0.9937693799698468
2011-12-21,-1,-0.0005778161697676091,-0.0005297514490342247,-0.005186366634062989,0.002452023441997997,0.9934139294912777
2011-12-23,-1,-0.0005530313386650563,-0.0005349049494019491,-0.005186366634062989,0.002399258152343783,0.9934664481797326
2011-12-28,-1,-0.000774241681125789,-0.0007357664723746344,-0.007568792089790894,0.002399258152343783,0.9924745388117533
2011-12-30,-1,-0.0004345907226663446,-0.0004277462732862588,-0.007568792089790894,0.002399258152343783,0.9926091858653865
2012-01-04,-1,-0.0003199387737989834,-0.00025362175803061483,-0.0033407944457967747,0.0041339463004231,0.9932919065980285
2012-01-06,-1,-0.00030858872571637056,-0.0002273777996875448,-0.0033407944457967747,0.005578613508371773,0.9930601257407222
2012-01-10,-1,-0.00086857665207886,-0.0008614508184776179,-0.0017242401902218532,0.00611931806967634,0.9931401418877351
2012-01-12,-1,-0.001480041637446312,-0.0013498964536869781,-0.0030960742659707583,0.00611931806967634,0.9928926662960301
2012-01-17,-1,-0.000896116405010281,-0.0008836317865042051,-0.0047365745372074716,0.00611931806967634,0.9926796375899316
2012-01-19,-1,-0.0009707642736905901,-0.0009405497202379285,-0.0030520893739393734,0.010339111614884175,0.9917121592942351
2012-01-23,1,8.539778059588412e-05,0.00028892028211026225,-0.003408215673216148,0.007256284909990952,0.9930895895719212
2012-01-25,1,0.0006978211964544172,0.0009860245345724742,-0.0047365745372074716,0.00611931806967634,0.9933042997603002
2012-01-27,0,-3.002554933971991e-05,0.00010388244044093423,-0.004693503415640193,0.005578613508371773,0.9942240958484309
2012-01-31,1,8.290361114387872e-05,0.0002280152556174161,-0.004693503415640193,0.005618050891703027,0.9936212296820917
2012-02-02,1,5.1508724421882746e-05,0.00015559968733326927,-0.004693503415640193,0.004277659323222022,0.9940283581685434
2012-02-06,1,0.0005720838915086127,0.0007805835041134423,-0.0053650243359967984,0.004484185765877714,0.9929353558466416
2012-02-08,1,0.0011063761320735243,0.0014160710524384048,-0.0053650243359967984,0.009871734401634396,0.9923468128114025
2012-02-10,0,0.0,0.0,-0.003609864731474886,0.009871734401634396,0.9923383687831973
2012-02-14,0,0.0,0.0,-0.003609864731474886,0.01187191946343862,0.9911143904611613
2012-02-16,0,0.0,0.0,-0.0053650243359967984,0.00779417491697128,0.9924589814378942
2012-02-21,0,0.0,0.0,-0.0053650243359967984,0.00779417491697128,0.9923387514935311
2012-02-23,1,0.0010091659177551718,0.0013287832449194199,-0.004609580881085031,0.00779417491697128,0.9927541569384715
2012-02-27,-1,-0.0003637720141880938,-0.000272043129732201,-0.00274202132958981,0.010143485988182474,0.9918045019981725
2012-02-29,-1,-0.0009514511790131465,-0.0007658461995888696,-0.00274202132958981,0.009366159720914969,0.9923926931079464
2012-03-02,-1,-0.00017050284028035596,-0.00013518245292156692,-0.0029090210183012263,0.009366159720914969,0.992257632004215
2012-03-06,0,0.0,0.0,-0.002251709120809806,0.008803244990341023,0.9931885870746218
2012-03-08,0,-1.4298929922361443e-05,3.494527292167236e-06,-0.0039305158950293205,0.007453573300188144,0.9936541705509576
2012-03-12,0,0.0,0.0,-0.005191797341897517,0.005670720494930467,0.9929079727707287
2012-03-14,0,0.0,0.0,-0.004607710001208037,0.0020457393313822163,0.9942968695211892
2012-03-16,0,0.0,0.0,-0.0039305158950293205,0.005670720494930467,0.9940513120381728
2012-03-20,0,0.0,0.0,-0.0039305158950293205,0.0042358394548877515,0.9940910499698145
2012-03-22,0,0.0,0.0,-0.0041582682515961195,0.008039071344925746,0.9932103855865404
2012-03-26,0,0.0,0.0,-0.005833384656658054,0.0042358394548877515,0.9932702788510946
2012-03-28,0,0.0,0.0,-0.0041582682515961195,0.005252616061078137,0.9933160436947195
2012-03-30,0,0.0,0.0,-0.0041582682515961195,0.0037647399409236303,0.9936351128825838
2012-04-03,1,1.0,1.0,-0.0041582682515961195,0.0037647399409236303,0.49990483431280813
2012-04-05,0,0.0,0.0,-0.0038014544235391422,0.004970848333335964,0.9922596725838294
2012-04-10,1,3.9729027735922295e-05,8.251079729559473e-05,-0.0036573176001291983,0.007200845413863327,0.9929005820699611
2012-04-12,0,0.0,0.0,-0.002039530347384166,0.007979971019843718,0.992683929168369
2012-04-16,0,0.0,0.0,-0.0036573176001291983,0.0069599229549677805,0.9926976384373766
2012-04-18,0,0.0,0.0,-0.006686279044991595,0.0069599229549677805,0.9921221360697762
2012-04-20,0,0.0,0.0,-0.007350508090287072,0.004970848333335964,0.9923819340407958
2012-04-24,0,0.0,0.0,-0.005142854730123115,0.0069599229549677805,0.9915162812274874
2012-04-26,1,0.0011504839563939257,0.0012675447084651253,-0.005142854730123115,0.0069599229549677805,0.9918075782827672
2012-04-30,1,0.0009752651313959891,0.001047554776640077,-0.005142854730123115,0.007979971019843718,0.9915498878451344
2012-05-02,1,0.0009365211670076123,0.000985702808420677,-0.007350508090287072,0.0069599229549677805,0.9908935453889823
2012-05-04,-1,-0.0002583272641947355,-0.00016079894033581743,-0.005725593404116634,0.008172635253045986,0.9919489669211765
2012-05-08,1,0.00012044962736042087,0.0001649852821677497,-0.005725593404116634,0.008485800330926836,0.9915676697516386
2012-05-10,1,0.00039945900183776644,0.00040083995614923173,-0.005725593404116634,0.00854406635202321,0.9915413554576283
2012-05-14,-1,-0.00010520577464277154,-3.414626667247366e-05,-0.004791651475983303,0.00854406635202321,0.9919319971059474
2012-05-16,-1,-0.000429109842264075,-0.00035648668245483514,-0.0006751496957023242,0.010890972350771164,0.9917420766530808
2012-05-18,-1,-0.000819304213619956,-0.0007182935046399126,0.0009639442932793835,0.010890972350771164,0.9914667326446318
2012-05-22,1,0.0004369739383660622,0.0004971200448978959,-0.0006751496957023242,0.00835599787050845,0.9931151921299451
2012-05-24,1,0.0007197999862214261,0.00082625959507572,-0.0023082678613474657,0.00835599787050845,0.992433508281777
2012-05-29,1,0.00041114483446859254,0.0004249714984978785,-0.0038379832227796906,0.00835599787050845,0.9920547624361559
2012-05-31,-1,-0.00016356927534951366,-7.929144037292467e-05,-0.0023082678613474657,0.008807642817264063,0.9926960986068495
2012-06-04,-1,-0.0001864283595516263,-8.086928550996519e-05,-0.0006751496957023242,0.008807642817264063,0.9925449343191766
2012-06-06,1,0.00030654457735470393,0.0003701679972090404,-0.0023082678613474657,0.007967284904661873,0.992966892909878
2012-06-08,1,0.0006318473366827905,0.000663752165562126,-0.003424133074690902,0.007708901953356759,0.9931809934686949
2012-06-12,1,4.681154683970889e-05,0.00019184718723118166,-0.003424133074690902,0.007708901953356759,0.9930321179409715
2012-06-14,1,0.0012327701802059185,0.0012806669935036686,-0.003424133074690902,0.007708901953356759,0.992818576111872
2012-06-18,1,0.0018434978164380436,0.0020016105089508984,-0.0038379832227796906,0.007708901953356759,0.9926727637209237
2012-06-20,1,0.000771960275157464,0.0007743762144945036,-0.0021944759386775597,0.007708901953356759,0.9929475846026294
2012-06-22,1,0.00046129872741329774,0.0005031957468948446,-0.0036454954511891983,0.007708901953356759,0.9928236565569268
2012-06-26,1,0.0008209884739912536,0.0008380500567940321,-0.003878681069586616,0.006696796933566351,0.992906824983331
2012-06-28,1,0.001147276512265478,0.0012087730521668906,-0.003878681069586616,0.006696796933566351,0.9925774710098286
2012-07-02,1,0.0017697688161138001,0.0019348103436550028,-0.005956746712086242,0.00591883974931379,0.9919645099693642
2012-07-05,1,0.0010698355150860503,0.0011144701590908525,-0.005956746712086242,0.00591883974931379,0.9915050768370165
2012-07-09,1,0.0004913868905254617,0.0005339535530879656,-0.005956746712086242,0.006866955053446991,0.9913499939253396
2012-07-11,1,0.0012227367952620666,0.0013357449824925552,-0.005956746712086242,0.006866955053446991,0.9914809526095154
2012-07-13,1,0.0017677771327005046,0.0019399700143288366,-0.006633488711797356,0.006347474220451152,0.9918507189896938
2012-07-17,1,0.0017910413419659043,0.0019477437666436317,-0.0066472645763225435,0.005534803434885413,0.9920362052457333
2012-07-19,1,0.0019714374078576946,0.002141769669435022,-0.00669964098900056,0.003819457197298866,0.9916638471665394
2012-07-23,1,0.001310380013601717,0.001400174450423898,-0.006354594296371741,0.003819457197298866,0.9924249670326408
2012-07-25,1,0.0009720464501319048,0.0010212341896535236,-0.006354594296371741,0.003683519273268758,0.9925067904505108
2012-07-27,1,0.001058876101658041,0.0011155582401365988,-0.00669964098900056,0.003683519273268758,0.992441135524702
2012-07-31,1,0.00105618052044086,0.0011484970377572267,-0.006354594296371741,0.002093628937384561,0.9939515171312707
2012-08-02,1,0.000933922108934481,0.0010343128178029177,-0.006033591446947054,0.0003951618462733241,0.9946525345638774
2012-08-06,1,0.0009528129131864916,0.0010316082939901333,-0.006033591446947054,0.00019759529553112085,0.9945444582570911
2012-08-08,1,0.00060574528064886,0.0006171738488694448,-0.006354594296371741,0.002093628937384561,0.9938586315159059
2012-08-10,1,0.0007731557567975363,0.0008135374253131622,-0.0060510502511730594,0.001709606551494144,0.9943454566544803
2012-08-14,1,0.00024042699512448316,0.0002758955906296362,-0.0060510502511730594,0.001709606551494144,0.994416250945111
2012-08-16,1,0.00013100855574025552,0.00014487616153352614,-0.006619776075158049,0.002480506436587104,0.9932551810550753
2012-08-20,-1,-7.323962120179279e-05,-1.5737522852867652e-05,-0.00914639514076309,0.001709606551494144,0.992740150862286
2012-08-22,-1,-0.0002649133910212653,-0.00020656107784054558,-0.008791449520111199,0.002653151032269857,0.9931171638721028
2012-08-24,-1,-0.000320378176569041,-0.00026576956760013455,-0.006510313675911298,0.004991100524567406,0.9927507937652008
2012-08-28,-1,-0.0005135906827877261,-0.000407381494178169,-0.006510313675911298,0.004991100524567406,0.992757816605993
2012-08-30,-1,-0.001513326305921394,-0.0013122174282621125,-0.0057137817371659995,0.007289995149343153,0.992454533395344
2012-09-04,-1,-0.001307302258008971,-0.0011186741911489218,-0.0057137817371659995,0.007289995149343153,0.9921860584531718
2012-09-06,-1,-0.0008185103812926295,-0.0007120663617426912,-0.004722558574211115,0.004991100524567406,0.9931225923949912
2012-09-10,-1,-0.0008500390222371924,-0.0007419859189197995,-0.004722558574211115,0.007289995149343153,0.9928960465769521
2012-09-12,-1,-0.0012703215778915253,-0.0011252740844211798,-0.001968937531798022,0.008241342786006578,0.9924749700986248
2012-09-14,-1,-0.0010138295361572262,-0.0008980424389568003,-0.004447023590812387,0.007289995149343153,0.9939040592864522
2012-09-18,-1,-0.0017485742703706713,-0.001560037401870541,-0.0010350283037843142,0.008241342786006578,0.9938566767399355
2012-09-20,-1,-0.0014109582552932433,-0.0012663411564261201,-0.0010350283037843142,0.008520681318947624,0.9934560565961207
2012-09-24,0,0.0,0.0,-0.0026403149318095054,0.008241342786006578,0.994800476267281
2012-09-26,0,0.0,0.0,-0.004447023590812387,0.008241342786006578,0.9940144458617554
2012-09-28,0,0.0,0.0,-0.003921636099483473,0.007806174259858975,0.9943595166003675
2012-10-02,0,0.0,0.0,-0.003921636099483473,0.007806174259858975,0.9945492638524117
2012-10-04,-1,-0.0005806232720126784,-0.0004886651044676677,-0.004487932504862097,0.007806174259858975,0.9940988445394869
2012-10-08,-1,-0.0007810036958041087,-0.0006303781565587612,-0.0050744741029336345,0.005375354676658454,0.9934184810988519
2012-10-10,-1,-0.001217125291180697,-0.000975522493217123,-0.004487932504862097,0.0044080754471922815,0.9942172195248848
2012-10-12,-1,-0.0009340388121289686,-0.0007856339592666349,-0.004111799130524474,0.00525481595169611,0.9939133506029136
2012-10-16,-1,-0.0005453370687430401,-0.0004444393974442809,-0.004948031163204545,0.0044080754471922815,0.9940036581981192
2012-10-18,1,0.00024746568379032817,0.0002526619381914657,-0.004948031163204545,0.003965494345953192,0.9937996840176432
2012-10-22,-1,-0.0005324463940655611,-0.0004192871726077844,-0.005346490612229814,0.003965494345953192,0.9940690921166532
2012-10-24,-1,-0.0012100909147507869,-0.0010309148738009886,-0.004346925259601964,0.0044080754471922815,0.994457749287851
2012-10-26,-1,-0.0005932915776564337,-0.000507898478358331,-0.004852282534126568,0.005027390961323087,0.9937875858282318
2012-11-01,-1,-6.966916834110511e-05,-6.207644867251401e-05,-0.004852282534126568,0.005027390961323087,0.993266166223001
2012-11-05,-1,-0.00029428428794791374,-0.00026448781412163154,-0.0046646416999096794,0.004660618190208339,0.9936785416590701
2012-11-07,-1,-0.000869796542456051,-0.0008178972889437419,-0.00432865158697692,0.007171352077943383,0.9939509683739379
2012-11-09,-1,-0.0007963267614157656,-0.0007708381352477754,-0.00432865158697692,0.007171352077943383,0.9939516652025763
2012-11-13,0,0.0,0.0,-0.003991520172468196,0.008001394503902297,0.9936515505005052
2012-11-15,0,0.0,0.0,-0.00432865158697692,0.008001394503902297,0.9928553796225177
2012-11-19,0,0.0,0.0,-0.00432865158697692,0.009991059026215403,0.9923939082066251
2012-11-21,-1,-0.001168178879870104,-0.0010705844435890993,-0.00432865158697692,0.009991059026215403,0.9923985909942212
2012-11-26,-1,-0.0005058821378566654,-0.000502152798918793,-0.004878953564496638,0.008001394503902297,0.9928012052839061
2012-11-28,-1,-0.0007902053909367008,-0.0007372460710026776,-0.004878953564496638,0.005906187528386428,0.9930829691148649
2012-11-30,-1,-0.0002138656573940206,-0.00020503440645700785,-0.005631622478794415,0.005906187528386428,0.9926676313498541
2012-12-04,-1,-0.0003983727301505729,-0.000391889034362814,-0.005631622478794415,0.010083295606561828,0.9917981351280107
2012-12-06,1,0.0009125011071612434,0.0011381708570891184,-0.006539122062585503,0.005906187528386428,0.9921927834402585
2012-12-10,1,0.0009212106848788711,0.0011514620234131115,-0.006539122062585503,0.005906187528386428,0.9920236384380441
2012-12-12,1,0.0016143524478553352,0.001957218669032189,-0.006539122062585503,0.0035219000811378895,0.9919924388279695
2012-12-14,1,0.0002863064846896173,0.00041831021908862476,-0.005537846976275669,0.0035219000811378895,0.9934144966510621
2012-12-18,1,0.0011275149112436476,0.0013576742310027297,-0.005631622478794415,0.0008344277724103048,0.9937977296284596
2012-12-20,1,0.0010182802597110542,0.0012577177563580658,-0.005537846976275669,0.0035219000811378895,0.9929426557087447
2012-12-24,1,0.0008560150910354011,0.001062439497834607,-0.005398038166575,0.003854397814443871,0.9932038510917917
2012-12-27,1,0.0002866041989570497,0.0003863441214753393,-0.004209524901902475,0.00621096262327442,0.9931394959878004
2012-12-31,1,0.0008705242774179827,0.001054966792922221,-0.0032464082768816375,0.009005602132056097,0.9936111178866859
2013-01-03,0,0.0,0.0,-0.0032464082768816375,0.009005602132056097,0.9937876561165224
2013-01-07,0,0.0,0.0,-0.0032464082768816375,0.009005602132056097,0.9940731634115637
2013-01-09,0,0.0,0.0,-0.002268790927454227,0.009005602132056097,0.9942967616674107
2013-01-11,0,0.0,0.0,-0.0018039472990562465,0.009005602132056097,0.9946517895622465
2013-01-15,0,0.0,0.0,-0.001531879709919253,0.009005602132056097,0.9948089510371734
2013-01-17,0,0.0,0.0,-0.001531879709919253,0.009005602132056097,0.9946249802201195
2013-01-22,1,0.0004045776377917573,0.00043986317662518597,-0.0018039472990562465,0.005527192092781939,0.995272703683427
2013-01-24,1,0.00038645583229023224,0.00041942514215969343,-0.002455541880378856,0.009005602132056097,0.9945787374226214
2013-01-28,1,0.0005024405442967978,0.0005310475247388612,-0.0050300516760700305,0.005527192092781939,0.994484949172981
2013-01-30,1,0.0011979142083775004,0.0013333369992657928,-0.0050300516760700305,0.004029424890031426,0.9949203624632584
2013-02-01,1,0.0013806178950921824,0.0015476086296239927,-0.0022513180348904824,0.004765904014699101,0.9949673559864495
2013-02-05,1,0.001135872701293943,0.0012531696673476734,-0.0012452772558274648,0.0060163445128262735,0.9950023322825975
2013-02-07,0,0.0,0.0,-0.0031838611372079486,0.0060163445128262735,0.9945931544528771
2013-02-11,0,0.0,0.0,-0.005272911277136927,0.0060163445128262735,0.9940686294744306
2013-02-13,0,0.0,0.0,-0.005272911277136927,0.0060163445128262735,0.9937205040592667
2013-02-15,0,0.0,0.0,-0.005272911277136927,0.0060163445128262735,0.993860035825942
2013-02-20,0,0.0,0.0,-0.0031838611372079486,0.0060163445128262735,0.9943528740587014
2013-02-22,0,0.0,0.0,-0.002710217742226965,0.005354558539334537,0.9950985789240238
2013-02-26,0,0.0,0.0,-0.002584174593383452,0.00600698571521147,0.9953281443961214
2013-02-28,0,0.0,0.0,-0.002584174593383452,0.006591370393074686,0.9949853043197391
2013-03-04,0,0.0,0.0,-0.002710217742226965,0.004853917547923414,0.9955011807665944
2013-03-06,1,0.0021598133026192543,0.0024193585141060103,-0.003260222267708921,0.004853917547923414,0.9955247934679424
2013-03-08,1,0.0018025679119926753,0.0020091633204907203,-0.002695134038238177,0.005231130839833383,0.9958542330941438
2013-03-12,1,0.00149721461149905,0.0016420853972684774,-0.002695134038238177,0.005544712105775882,0.9956053515237717
2013-03-14,0,0.0,0.0,-0.002695134038238177,0.005797514169391275,0.9950030747252764
2013-03-18,0,0.0,0.0,-0.002695134038238177,0.0063060400626635035,0.993826671141725
2013-03-20,0,0.0,0.0,-0.0031379090962221456,0.0063060400626635035,0.9932300529537814
2013-03-22,0,0.0,0.0,-0.003544661326001939,0.0066449325384693725,0.9921311479691196
2013-03-26,0,0.0,0.0,-0.003544661326001939,0.0068672222274582,0.9920962817669228
2013-03-28,0,0.0,0.0,-0.003544661326001939,0.006368961005672993,0.9927106100759662
2013-04-02,1,0.002165658441936965,0.002317990248051861,-0.002357926544136032,0.006368961005672993,0.9933951723027474
2013-04-04,1,0.0016471109983467308,0.001678172896178375,-0.002357926544136032,0.006711746538957816,0.9930144167034624
2013-04-08,1,0.0016518152819661076,0.001666389184028622,-0.004552204507733608,0.006711746538957816,0.992378631338656
2013-04-10,1,0.0017876609429376676,0.0018184222969366412,-0.008459651058904706,0.006711746538957816,0.9922102000154719
2013-04-12,1,0.0017073964717584447,0.0017162772561033692,-0.010066649450634183,0.006711746538957816,0.9912457762421281
2013-04-16,1,0.0019128888011591082,0.0019699283451158085,-0.008459651058904706,0.006711746538957816,0.992124563935929
2013-04-18,1,0.0016017856438942874,0.0016090904038802078,-0.00820300354256882,0.006745273398918174,0.9919961660138968
2013-04-22,1,0.0018522102531150619,0.0018878442511081936,-0.006610851088718154,0.006745273398918174,0.992882242794697
2013-04-24,1,0.001925777509821156,0.0019619762839248236,-0.00820300354256882,0.006161789703980356,0.9922815319241677
2013-04-26,1,0.0019380596384838765,0.002014182181088707,-0.009554863750240335,0.006161789703980356,0.9911370790513456
2013-04-30,1,0.0019750308729056987,0.00203947723882452,-0.010770156588433447,0.005455608238389618,0.9899662204241674
2013-05-02,1,0.002342893155278873,0.0024799897272504623,-0.010770156588433447,0.00564501934446382,0.989802273849105
2013-05-06,1,0.0016694653954170767,0.0017052942919184315,-0.009554863750240335,0.00564501934446382,0.9902860551873875
2013-05-08,1,0.0017285646360756792,0.001794245505890063,-0.009072745750979723,0.00564501934446382,0.9902091136979575
2013-05-10,1,0.0007004170386548762,0.0008210306571831809,-0.008847578550024597,0.00761191310763322,0.9905554618934805
2013-05-14,1,0.0013761386605218038,0.0013764599764129043,-0.009346439144713461,0.005096931794254459,0.9899255823272101
2013-05-16,1,0.001277997207639429,0.0013020818861718473,-0.009346439144713461,0.0054345898486392935,0.9899783304675789
2013-05-20,1,0.0013210874498280557,0.0013601642059042655,-0.009346439144713461,0.0054345898486392935,0.9899430781662713
2013-05-22,1,0.00013265731694618555,0.000298924775422523,-0.010313144328400792,0.0054345898486392935,0.9876413535665004
2013-05-24,-1,-0.0014308733004147595,-0.0011351168256753634,-0.008949167378015795,0.00806326217172412,0.9878937246627809
2013-05-29,-1,-0.0021555408354385643,-0.0017949708119428683,-0.008519553312363162,0.010449151576827046,0.9875270439009057
2013-05-31,-1,-0.0024168594335427455,-0.00200850150888838,-0.007661929200212034,0.011699252020446669,0.9872032339234618
2013-06-04,-1,-0.002801760286164431,-0.0023418946651916177,-0.008667513779715644,0.011699252020446669,0.9869531307155139
2013-06-06,-1,-0.002722409079887778,-0.0022724607200727866,-0.007834364698757623,0.010383524773545849,0.9873549734030874
2013-06-10,-1,-0.002523818212602387,-0.0020807157166963185,-0.006879436558483357,0.01063111324500348,0.9870660002669837
2013-06-12,-1,-0.003622153358510065,-0.0030347882314396475,-0.0036061209582323567,0.012554523781932052,0.9861857607597532
2013-06-14,-1,-0.002210303014695694,-0.001844041954687185,-0.0036061209582323567,0.012554523781932052,0.9867637710885215
2013-06-18,-1,-0.001782134995445574,-0.001460391108599144,-0.004995735321499119,0.012554523781932052,0.987292975991328
2013-06-20,-1,-0.0042419615672176884,-0.003644133915075603,-4.3723600333527425e-05,0.015414608335353084,0.9882339890348417
2013-06-24,-1,-0.003378623588239672,-0.0029159599480709023,-4.3723600333527425e-05,0.012554523781932052,0.9894351905109144
2013-06-26,-1,-0.0022194914052134688,-0.0018992258085841064,-0.0030183006562109647,0.01063111324500348,0.9905096200464196
2013-06-28,-1,-0.0016583192194658436,-0.0013917745866157882,-0.0035834296534610318,0.007132951794017235,0.9915471094874783
2013-07-02,-1,-0.0024323982503230658,-0.0020822707385674,-0.003406969496594272,0.01073132846818131,0.9914893947139259
2013-07-05,-1,-0.0024581906027936256,-0.002109320810768745,-0.003406969496594272,0.01262865332282307,0.9909758685876383
2013-07-09,-1,-0.0014605241700601558,-0.0012265300271092213,-0.004412242949957805,0.007037233805842375,0.9915923908666668
2013-07-11,-1,-0.0006903184627877542,-0.0005364838254712631,-0.004412242949957805,0.006891644812428699,0.992108585911653
2013-07-15,1,0.00028174188005479386,0.0003190464348231571,-0.00679556941505999,0.00487272683627831,0.9923672114457172
2013-07-17,1,0.0001297801265351754,0.00017266447175195174,-0.009688219110628386,0.00487272683627831,0.9916476477419054
2013-07-19,1,0.0006973164054049695,0.0007035421607485038,-0.0100769893140787,0.0019811662316248707,0.9908643275057579
2013-07-23,1,0.0008138756441154441,0.0008509974042427324,-0.0100769893140787,0.0019811662316248707,0.9907419417716309
2013-07-25,1,0.0005621615582762733,0.000609225129859513,-0.0100769893140787,0.002251289399013748,0.9909484296256466
2013-07-29,1,0.0004055847271567328,0.0004420394370279887,-0.0100769893140787,0.006329099339378461,0.9904095967816647
2013-07-31,1,0.0004884160571030915,0.000521783109161615,-0.0100769893140787,0.002251289399013748,0.9908981315141951
2013-08-02,1,0.0006051177421317804,0.0006482595133781117,-0.0100769893140787,0.0002830572760038005,0.9916648678728937
2013-08-06,-1,-0.0001256441989722081,-9.689199864043241e-05,-0.0100769893140787,0.001902705345006237,0.9921792617562912
2013-08-08,1,0.00023607106971935336,0.00024371765133889039,-0.0100769893140787,-0.0001862578604701932,0.9922971332650932
2013-08-12,-1,-0.0001813814281002597,-0.00014848577954917802,-0.010028140673047893,0.004562718121986853,0.9924407594007065
2013-08-14,-1,-0.0010444750980068396,-0.0009079664870479232,-0.010200666163872956,0.004562718121986853,0.9926121122841876
2013-08-16,-1,-0.002096857082537163,-0.0018413248864687874,-0.006215390838580019,0.005143713271517878,0.9935239673132251
2013-08-20,-1,-0.001423540043114427,-0.001277645298816724,-0.006215390838580019,0.005143713271517878,0.9921016042000251
2013-08-22,-1,-0.001448938758494662,-0.0012653373019524254,-0.006215390838580019,0.004407799117823017,0.9923694431970408
2013-08-26,-1,-0.0013775264132522066,-0.00120117016052028,-0.005004903109727415,0.004407799117823017,0.9927498686272785
2013-08-28,-1,-0.001297034495652442,-0.0011497890532862335,-0.005153820061461732,0.004407799117823017,0.992492487972913
2013-08-30,-1,-0.0012352283589233933,-0.001113607413468068,-0.005153820061461732,0.004407799117823017,0.9924856982903467
2013-09-04,-1,-0.0013284552418757474,-0.001220406824850858,-0.004642345512018335,0.0034749014261050803,0.9930445474740469
2013-09-06,-1,-0.0016099288804346278,-0.0014668521427582606,-0.004642345512018335,0.0034749014261050803,0.9927909111363603
2013-09-10,-1,-0.0009195286094360628,-0.0008460546490388786,-0.005197894919830718,0.0029243663812967167,0.9930189325037267
2013-09-12,-1,-0.0015528572977590136,-0.0014238265561916977,-0.004547969267911843,0.004538281633032993,0.9926270776161747
2013-09-16,-1,-0.000873334056789963,-0.000850363187610862,-0.004642345512018335,0.004542567456262593,0.9924789405905456
2013-09-18,1,0.0006353829753491837,0.0008047170754805415,-0.005683151895234247,0.004542567456262593,0.9932303135677423
2013-09-20,1,0.0003496046860396241,0.0005015853660661779,-0.004642345512018335,0.005843932951652564,0.9932004233921976
2013-09-24,1,0.0007005851869813367,0.0008998069291554146,-0.004642345512018335,0.005843932951652564,0.9933349004800753
2013-09-26,1,0.0003761766849474219,0.0005020681206842493,-0.003094750124342547,0.007547250633470871,0.9932249492292641
2013-09-30,1,0.00024941596888565753,0.0003549101652127054,-0.0022044515161662804,0.00845881902641587,0.9927435821706271
2013-10-02,1,0.00017856720568348148,0.0002384032064688833,-0.003904345213894669,0.00845881902641587,0.9924005908200111
2013-10-04,-1,-0.00011388493294560835,-8.183250397063462e-05,-0.005956278322913499,0.00845881902641587,0.992180260010417
2013-10-08,1,3.1756326145123114e-05,9.637751076341469e-05,-0.005024587267463236,0.00764815053409382,0.9925933174578715
2013-10-10,1,0.0011288501958229252,0.0013559383561093836,-0.005956278322913499,0.00764815053409382,0.9925780885488817
2013-10-14,1,0.0006229892310609178,0.0007931646431098031,-0.005024587267463236,0.00764815053409382,0.9930373323881369
2013-10-16,1,1.987379046483892e-05,5.784904247004226e-05,-0.005024587267463236,0.005752464376266476,0.9934339181842636
2013-10-18,1,0.0001780210600251694,0.00017920352392496001,-0.005024587267463236,0.005752464376266476,0.9934896008597051
2013-10-22,1,0.0003754904057342905,0.0003953198512151397,-0.005956278322913499,0.004311036829134308,0.9934345469075571
2013-10-24,1,0.0005032585439236965,0.0005344578329048188,-0.008106960666957222,0.003981782791690052,0.9932144942682747
2013-10-28,1,0.00092073362570173,0.0010156876279864215,-0.008106960666957222,0.0034915415574119546,0.9934554053412381
2013-10-30,1,0.0008466109980580495,0.0009477902133177358,-0.00899173436945316,0.0034915415574119546,0.9931130366760522
2013-11-01,-1,-0.00021187946429531278,-0.00013109206542164323,-0.007751608992015279,0.0034915415574119546,0.9938529853743523
2013-11-05,1,0.0002570661624527037,0.0002834382988854642,-0.007751608992015279,0.0034741719603839064,0.9939588809477081
2013-11-07,1,0.00041990435972522793,0.0004909230698792687,-0.005667608124846222,0.0034741719603839064,0.9940664875826548
2013-11-11,-1,-0.0013149176462768438,-0.0010313578811038194,-0.0070986365817124995,0.0034741719603839064,0.9941623006852852
2013-11-13,-1,-0.0010929252294258913,-0.000865678688118837,-0.006082789339098572,0.0034741719603839064,0.9942574971875144
2013-11-15,1,0.0001706022750720628,0.00019964447200198986,-0.006082789339098572,0.0033992785913776165,0.9943368031184083
2013-11-19,1,5.388283369205779e-05,6.078403690841306e-05,-0.005575798025235175,0.003681566255002242,0.9941039769385338
2013-11-21,-1,-0.0007615592746250885,-0.0006125199207376415,-0.005207831837198896,0.004259157979052982,0.9944453805766191
2013-11-25,-1,-0.0011112167718630396,-0.0009227818491255118,-0.003597572479936838,0.004259157979052982,0.9945922930215597
2013-11-27,-1,-0.0011639713270430896,-0.001019206522468853,-0.00296450618781347,0.004259157979052982,0.995230955481831
2013-12-02,-1,-0.0007686312628685492,-0.0007174441013755664,-0.002417948007199841,0.004528530706142569,0.9951264589983758
2013-12-04,1,7.117969023569671e-06,0.00010874108580255975,-0.004872156940589063,0.004528530706142569,0.9945262740295834
2013-12-06,1,0.00035975945760211914,0.0004947429833688084,-0.0035192975404874293,0.004528530706142569,0.9951537492504289
2013-12-10,1,0.00032748502700069657,0.0005093616065508003,-0.002417948007199841,0.0045637176356711886,0.9954257805078022
2013-12-12,1,0.0008147236542682683,0.001067809242918485,-0.0033942794396581207,0.0045637176356711886,0.9948643708323995
2013-12-16,1,0.000906698523144082,0.001147373320885965,-0.004418827698651728,0.004277138974650101,0.9947519426365546
2013-12-18,1,0.0011975819106805068,0.0014602891306841836,-0.0033942794396581207,0.00436411254523254,0.9950439986103654
2013-12-20,1,0.001375607724845122,0.001684349526060943,-0.001783695899772548,0.005073697967246659,0.9947405113044467
2013-12-24,1,0.0017073358558672732,0.002076249640305897,-0.004806758315190856,0.005073697967246659,0.9935483625304804
2013-12-27,1,0.0012083461608703616,0.0014589580631399236,-0.004806758315190856,0.007183470844620514,0.9933115603169596
2013-12-31,1,0.0016591768654697693,0.0020004734393717673,-0.004806758315190856,0.008619797058163155,0.9926020786088556
2014-01-03,1,0.0006449938683617952,0.0008167963813228498,-0.004431704012702929,0.008619797058163155,0.9928535147521835
2014-01-07,1,0.0006316584761033611,0.0007571383459038965,-0.005111931165329238,0.007477204252278766,0.9927778194982603
2014-01-09,1,5.30276572483242e-05,6.973705632410356e-05,-0.005653285208557014,0.00863255812005656,0.992315246748997
2014-01-13,1,0.0004716490441110539,0.0005236641976100107,-0.00502583860508705,0.009224547290417096,0.9925657689496831
2014-01-15,1,3.998124797104892e-05,6.114643300702749e-05,-0.003830021995520919,0.009224547290417096,0.992331175946179
2014-01-17,1,0.0005743979270388619,0.0006226577961199462,-0.003830021995520919,0.009224547290417096,0.9927698822718635
2014-01-22,1,0.0010750126854280433,0.0011788416900620777,-0.00502583860508705,0.007585002385267176,0.992896022435134
2014-01-24,1,8.122357191732627e-05,0.00011617845427329507,-0.003962469527572974,0.007585002385267176,0.9934525418966226
2014-01-28,1,0.00031915990340081055,0.0003480272305181125,-0.00455178569951167,0.0068507010998681405,0.9938456705866283
2014-01-30,1,0.0005925074002197132,0.0006079991758163266,-0.004735170646569796,0.0068507010998681405,0.9941012661172364
2014-02-03,1,0.0007736374288400407,0.0008190013400619098,-0.004735170646569796,0.006388646942939901,0.9940387600877627
2014-02-05,0,-0.00010796227202563923,1.3944929801098529e-06,-0.005423181201243216,0.006388646942939901,0.9937518896350378
2014-02-07,1,0.0002477368769221043,0.00030339223663713945,-0.005459954467735937,0.0058767053254516295,0.9939229674235192
2014-02-11,1,0.0018461231840477405,0.002087476299070269,-0.005459954467735937,0.00536168840516309,0.993922848169232
2014-02-13,1,0.0016040615109675182,0.0017575670827121273,-0.005459954467735937,0.0058767053254516295,0.9933515380368816
2014-02-18,1,0.0017866684154224958,0.0019811409837087422,-0.005459954467735937,0.00536168840516309,0.9935227952372028
2014-02-20,1,0.0015361308541256907,0.001687636177663258,-0.0057710795251209816,0.00536168840516309,0.9928436366120439
2014-02-24,1,0.0010972962778914804,0.0011797725127522317,-0.0057710795251209816,0.006564725987925389,0.9926356343944922
2014-02-26,1,0.0009925902836606525,0.0010702823399137832,-0.0057710795251209816,0.006564725987925389,0.9926347214285177
2014-02-28,1,0.0009536616780124748,0.0009980071190203508,-0.0057710795251209816,0.006564725987925389,0.9928901769340192
2014-03-04,1,0.0006216062152545655,0.00062255841016403,-0.0057710795251209816,0.007671726110748513,0.9926545116558411
2014-03-06,1,0.0004690150538225712,0.0004994223370298529,-0.004680561948442444,0.007671726110748513,0.9931067175153938
2014-03-10,1,0.0002948938800685896,0.000303997183528362,-0.0035306061276911974,0.007671726110748513,0.9935075633717267
2014-03-12,1,0.0006086752188517418,0.0006264228855006806,-0.0011168235475457232,0.007671726110748513,0.9939349909682074
2014-03-14,1,0.0016255103733179201,0.0018146206774605795,-0.0039153635802218366,0.005031749089794287,0.9947523369056293
2014-03-18,1,0.0019675196431145703,0.002215330801317102,-0.0039153635802218366,0.007671726110748513,0.9941656339443095
2014-03-20,1,0.001072393890058847,0.0012122326740242493,-0.0009328466775587043,0.007671726110748513,0.9947318755638208
2014-03-24,1,0.001797968747755874,0.002054827570196728,-0.0039153635802218366,0.004827598403857643,0.9950388573882423
2014-03-26,1,0.001442725628845569,0.0016397210859141107,-0.0009328466775587043,0.006591642712220168,0.9948718578109467
2014-03-28,1,0.0014587433512045782,0.0016276111763876186,-0.0007665405980616823,0.007272818203580965,0.9945066903913391
2014-04-01,1,0.0014876639943406638,0.0016523717839237268,-0.0007665405980616823,0.006557490545505892,0.9951728169302466
2014-04-03,1,0.0013221975663469418,0.0014603712991972657,-0.002519788240285091,0.006557490545505892,0.9940198762986797
2014-04-07,1,0.0012610877827721999,0.0013901506804760927,-0.003855403048602615,0.007272818203580965,0.9932094448835161
2014-04-09,1,0.0014799054726165584,0.0016255418014586302,-0.004350326344252269,0.007272818203580965,0.9924629208874125
2014-04-11,1,0.001665733941532212,0.0018704217953399611,-0.006411585605076259,0.007272818203580965,0.9912364831997176
2014-04-15,1,0.0020447416689583784,0.0022712583592058,-0.006411585605076259,0.006772159386106699,0.9917022676414063
2014-04-17,1,0.0015489969321811937,0.0016940139673282959,-0.004736692943420881,0.007272818203580965,0.9917511191143056
2014-04-22,1,0.0012353644918086037,0.0013194257615616672,-0.0063583543324867734,0.007272818203580965,0.9910583177808128
2014-04-24,1,0.0012731159022034296,0.0013235306628556947,-0.0063583543324867734,0.006772159386106699,0.9913885161289236
2014-04-28,1,0.0016701845641338311,0.001756194412419354,-0.007105833913232966,0.004371062616010028,0.9916933116815886
2014-04-30,1,0.0015464400913854847,0.0016189736566031214,-0.007105833913232966,0.004371062616010028,0.9917123643279396
2014-05-02,1,0.0006714538178562591,0.0006949331159930084,-0.004968109046139783,0.005298982358540953,0.9928892625293421
2014-05-06,1,0.0005819048919196327,0.000642938759600005,-0.004222469207861841,0.004371062616010028,0.9937032123207441
2014-05-08,1,0.0006583480408447527,0.0007001061731743265,-0.0029048573925982146,0.004371062616010028,0.9943801225831178
2014-05-12,-1,-0.0003645576232685401,-0.00021581475097304296,-0.0023197926219657877,0.004371062616010028,0.9957732436967769
2014-05-14,1,9.507270385578689e-05,0.00018146299825867716,-0.0029048573925982146,0.002542697158345027,0.9951459181797677
2014-05-16,1,0.0003921463507451751,0.0004399077188290788,-0.0023197926219657877,0.005253431986207578,0.9950464894029176
2014-05-20,-1,-0.00031566255134476035,-0.0001891869976640294,-0.0023197926219657877,0.006648229726647813,0.9945854928208356
2014-05-22,-1,-0.00021700851657844992,-9.29346113543438e-05,-0.0029570391798241654,0.006648229726647813,0.9945532356371952
2014-05-27,-1,-0.0005056453305252076,-0.00035273289065582575,-0.0029424519737894115,0.006648229726647813,0.9944061787059003
2014-05-29,-1,-0.001177947987454464,-0.000906248373876425,-0.0029424519737894115,0.006648229726647813,0.9942095350235852
2014-06-02,-1,-0.0008324646612456497,-0.0006155621101828447,-0.0029424519737894115,0.006648229726647813,0.9941117401914042
2014-06-04,-1,-0.0009326155137256161,-0.0007028740586351393,-0.004654170713231736,0.006648229726647813,0.9930441117066998
2014-06-06,-1,-0.0007210849694158087,-0.0005251331758581108,-0.006928788165480825,0.0058229804473184715,0.993009302543236
2014-06-10,-1,-0.0012188423307980393,-0.000950045898133479,-0.004766745677058418,0.0058229804473184715,0.9928494314545686
2014-06-12,-1,-0.0009160799944011359,-0.00070727869706132,-0.0046334436895693444,0.00534096335922267,0.9932923774027322
2014-06-16,0,-3.700141590791338e-05,3.969096298103947e-05,-0.00686660709449365,0.005038533180885645,0.9932643436892514
2014-06-18,1,0.00039061624566629063,0.00046468103154253924,-0.007759110503997661,0.0036683339377664805,0.994246617528839
2014-06-20,1,0.00012809388364555974,0.00021052508013469077,-0.007359204541530439,0.005038533180885645,0.994001772070895
2014-06-24,1,0.00040882945731823817,0.0004391376611786262,-0.007359204541530439,0.0036683339377664805,0.9941544017356104
2014-06-26,1,0.0005055485597485263,0.0005282377621084282,-0.007359204541530439,0.0034046704529331288,0.99405870734505
2014-06-30,1,0.0006857919597697023,0.0007057769443394757,-0.009259566067716567,0.0034046704529331288,0.993227471275812
2014-07-02,-1,-0.0003550166100903636,-0.00021835504152249648,-0.009259566067716567,0.0034046704529331288,0.9926409877216511
2014-07-07,-1,-0.00024362664570100144,-0.000163522279238935,-0.009259566067716567,0.0034046704529331288,0.9923692530991546
2014-07-09,1,1.617082791519811e-05,5.058830872011227e-05,-0.012367968498439273,0.0023666359863430825,0.9914065014589729
2014-07-11,1,3.215907780321076e-05,5.527919548271061e-05,-0.012367968498439273,0.0034224759468201296,0.9903103374955253
2014-07-15,-1,-0.0004401679218925054,-0.0003500226732608453,-0.01017926980321136,0.0023666359863430825,0.9910661384266536
2014-07-17,-1,-0.0009513960485298855,-0.0007886382691081776,-0.01017926980321136,0.005617560160810828,0.9907821150747277
2014-07-21,-1,-0.0007019733171648636,-0.0005591605315642735,-0.01017926980321136,0.003424710611983083,0.9911510676808085
2014-07-23,-1,-0.0007070195847586652,-0.0005723654566136536,-0.01017926980321136,0.008364817471865843,0.9903899915886545
2014-07-25,-1,-0.0009414567535155921,-0.0007644215822796677,-0.01017926980321136,0.008364817471865843,0.9905304477183765
2014-07-29,-1,-0.0010839701670808401,-0.0008556768872834937,-0.009798780366057141,0.005111160202726455,0.9911741438567712
2014-07-31,-1,-0.0028400725939518555,-0.0024061214383180704,-0.003029239833386547,0.008036280422504184,0.9916133212992922
2014-08-04,-1,-0.0032616482647108364,-0.002800431861686845,-0.001481971309514093,0.008036280422504184,0.9911575109036874
2014-08-06,-1,-0.003784892923969642,-0.003309234099087787,0.00011208107834481397,0.008036280422504184,0.9910171431297355
2014-08-08,-1,-0.0020612605227664916,-0.0018043850857184696,-0.00028393209164246844,0.007237420964118838,0.9929475304360948
2014-08-12,-1,-0.0028916070969645198,-0.002485086033202008,-0.0015667109104703114,0.007237420964118838,0.9921248191116478
2014-08-14,-1,-0.0017291349046693752,-0.0014911076578997306,-0.00566787643980201,0.0068614428340230006,0.9928130023284373
2014-08-18,-1,-0.001659162818255417,-0.0014217178966714904,-0.00566787643980201,0.007237420964118838,0.991908479042596
2014-08-20,-1,-0.0005761337374490627,-0.0004819976709370543,-0.007864169634752068,0.005670325855603497,0.9927500867651742
2014-08-22,-1,-0.0004045618047535787,-0.0003380768547816387,-0.008123526111533176,0.005670325855603497,0.9920896785627173
2014-08-26,-1,-0.0007372796910476824,-0.000624669248911592,-0.007864169634752068,0.005670325855603497,0.9923633724246812
2014-08-28,-1,-2.9007292729763188e-05,-3.6401889274447055e-06,-0.007864169634752068,0.003251917820092016,0.9925864415212252
2014-09-02,1,7.102661945235614e-05,8.274271081414245e-05,-0.006175372688105291,0.002373161077753823,0.993270086006581
2014-09-04,1,0.0003577555893686929,0.0003974215160787843,-0.006175372688105291,0.0030934786858313945,0.9928472519644785
2014-09-08,1,0.001129808602091919,0.0013169771500108256,-0.006175372688105291,0.0030934786858313945,0.9931986744451036
2014-09-10,1,0.00024927725828952275,0.00030100629102487915,-0.004077634968657851,0.004575531089784294,0.9931112777673227
2014-09-12,-1,-0.0006163431390950285,-0.0005561100980210052,-0.004077634968657851,0.00623332615671496,0.9929521516706954
2014-09-16,1,0.0006083455597718807,0.0007352517770341468,-0.004077634968657851,0.006956608077661462,0.9931385345440514
2014-09-18,1,0.0007687434672153984,0.0009616867288435005,-0.004077634968657851,0.006956608077661462,0.9929184774938878
2014-09-22,1,0.0004874493988979304,0.0006408379183649947,-0.00247125833014485,0.008631537926020115,0.9925635936594083
2014-09-24,-1,-0.00037042715840339283,-0.0003536282479961199,-0.0006760557691313965,0.008631537926020115,0.9921742449265842
2014-09-26,-1,-0.00021707123074383224,-0.00019117990834931827,-5.643272354138197e-05,0.008631537926020115,0.9921230620656025
2014-09-30,-1,-0.00021194112061445684,-0.0001790871528221244,0.0,0.008631537926020115,0.9917428923319295
2014-10-02,-1,-0.00015350146481533965,-0.00012868294500084353,-0.0007203096789915382,0.008631537926020115,0.9911675907562297
2014-10-06,1,0.00054107639054145,0.0006309569033360158,-0.0007203096789915382,0.00725704733220977,0.991758873185242
2014-10-08,1,0.0016650517228078959,0.0019211529348641169,-0.0017792574442622524,0.00725704733220977,0.9918469718995888
2014-10-10,1,0.0010487900704921952,0.001180494778807627,-0.0017792574442622524,0.00952756354111799,0.9901599184629585
2014-10-14,1,0.0020242621878563817,0.0022985418574642054,-0.003097251865791107,0.006876583779608753,0.9910189050286897
2014-10-16,1,0.0013132740947036762,0.001477741334718164,-0.003920310238529312,0.006876583779608753,0.9903642317329778
2014-10-20,1,0.002061456948242296,0.0023128249758391614,-0.0046862112515787015,0.006876583779608753,0.9902581585351495
2014-10-22,1,0.0021358139890668296,0.0024098571811978827,-0.003920310238529312,0.006926024881765651,0.990522757137811
2014-10-24,1,0.002428910579729357,0.002734972601318433,-0.003920310238529312,0.007159378401509576,0.9904406557738551
2014-10-28,1,0.002560484185071885,0.002891430019016309,-0.0074162778950423065,0.007159378401509576,0.989811232213988
2014-10-30,1,0.002775377249889695,0.0031152666931996004,-0.005071526668950051,0.007159378401509576,0.9903597539003428
2014-11-03,1,0.002751034788487017,0.003079462492476294,-0.005071526668950051,0.008520126475165615,0.9901435943997285
2014-11-05,1,0.003867967734607936,0.004373439771000667,-0.005071526668950051,0.007159378401509576,0.9909635788201894
2014-11-07,1,0.004029305948676622,0.004601766037598655,-0.004449228592693796,0.007159378401509576,0.992603360659514
2014-11-11,1,0.0036785547560302,0.004184670654274226,-0.005083111422073424,0.007159378401509576,0.992410035616598
2014-11-13,1,0.0027718087584014503,0.0031589608220835897,-0.005083111422073424,0.007159378401509576,0.9932794760093537
2014-11-17,1,0.002930583768155351,0.0033474819245407884,-0.005083111422073424,0.006697782612474758,0.9937665329667671
2014-11-19,1,0.003450177821854158,0.003956669824958209,-0.005083111422073424,0.008520126475165615,0.9924330484209953
2014-11-21,1,0.0031694634974293277,0.0035825714626098563,-0.005083111422073424,0.0076386478860335,0.9922972002020899
2014-11-25,1,0.002311396094858761,0.0025875518670706848,-0.0005108744276956514,0.0123100438851589,0.9918100359406714
2014-11-28,1,0.003085002362975986,0.0034631440505045455,-0.0005108744276956514,0.01188005441369424,0.9921378914715097
2014-12-02,1,0.0033028986357370705,0.0037016369768988087,-0.0053499112036600165,0.01188005441369424,0.9899732849590566
2014-12-04,1,0.0033045766464520243,0.0036817050744025917,-0.008245892706177618,0.01188005441369424,0.9896284949929088
2014-12-08,1,0.003294477490436605,0.0036470384392850736,-0.008245892706177618,0.01211141312901031,0.9897345307755354
2014-12-10,1,0.0030878015545868975,0.0034268547228417136,-0.008245892706177618,0.01211141312901031,0.989682560302431
2014-12-12,1,0.002542069405961629,0.0027991055026274476,-0.004415850830854683,0.01211141312901031,0.9899251016596371
2014-12-16,1,0.0022885211224934884,0.0025056602578664355,-0.0029074079257702954,0.013412307352549797,0.989454764314596
2014-12-18,1,0.0036042279569096147,0.004006170817422691,-0.003266628976424687,0.009520169563573311,0.990689076661951
2014-12-22,1,0.002777674521273593,0.0029779198598854093,-0.0034619245075068372,0.009520169563573311,0.9904573916764975
2014-12-24,1,0.003515592617951279,0.003769803078330724,-0.0034619245075068372,0.008418041790835535,0.9917200651781758
2014-12-29,1,0.003439660605445915,0.003613329345661041,-0.0034619245075068372,0.006728509033924007,0.9918627320226019
2014-12-31,1,0.0021177373886059406,0.0021802783180767506,-0.002958637386784925,0.007506533109051989,0.9932549775247635
2015-01-05,1,0.001594237967812004,0.001617690753589632,-0.0027169742550392927,0.008451369938511215,0.9933236555334727
2015-01-07,1,0.0022363190434470975,0.0023255109829229932,-0.002958637386784925,0.008451369938511215,0.9930179780792251
2015-01-09,1,0.0016846769895736133,0.0017007194207756882,-0.0034619245075068372,0.008451369938511215,0.9908147464816155
2015-01-13,1,0.0020035454239132884,0.0020973183335657834,-0.004608333456180758,0.009130578962375298,0.988641147241107
2015-01-15,1,0.0027900631792165884,0.002979772044472252,-0.011454489217989717,0.007506533109051989,0.9871930928323999
2015-01-20,1,0.002625808338781715,0.002776391659438454,-0.011454489217989717,0.00798291451577943,0.9866229622867062
2015-01-22,1,0.002886239435153288,0.003086180047211122,-0.011454489217989717,0.006343551491805933,0.9868222332091872
2015-01-26,1,0.0027661543589575788,0.002933609930832839,-0.011454489217989717,0.0107036512456727,0.9866694219049935
2015-01-28,1,0.002634296459067477,0.0027951622246038038,-0.014563253288847862,0.0107036512456727,0.9854375503195494
2015-01-30,1,0.002572580455050104,0.002740401837726458,-0.01571346406029054,0.00565088164935371,0.9850499645828595
2015-02-03,1,0.0022788931720649753,0.00235590001624101,-0.01571346406029054,0.004828297151041473,0.9847092711545191
2015-02-05,1,0.001723425627222787,0.001762928596615903,-0.020327912374072717,0.004828297151041473,0.9834878918762886
2015-02-09,-1,-0.0002611190468929793,-3.7776657884781915e-05,-0.01571346406029054,0.005578780776303692,0.9863900059974015
2015-02-11,-1,-0.00048233609204672873,-0.0002149151372691716,-0.013923337814292992,0.005578780776303692,0.9878998875012166
2015-02-13,-1,-0.0024942053314060382,-0.0019728629858348015,-0.011513457107865133,0.008259908014273695,0.9885589877473548
2015-02-18,-1,-0.0017316001722965713,-0.0012790311945019442,-0.011513457107865133,0.008259908014273695,0.9888257860023218
2015-02-20,-1,-0.0020100426666542198,-0.0015131283304948954,-0.011513457107865133,0.008259908014273695,0.9886271228944066
2015-02-24,-1,-0.0017015052633369246,-0.0012303200046068926,-0.01297693572062936,0.007478332015538319,0.9884347742671363
2015-02-26,-1,-0.0026063023741170564,-0.0020537910471090503,-0.011359521809987526,0.007478332015538319,0.9889829033113088
2015-03-02,-1,-0.003683481550429727,-0.0030207423847624817,-0.007146771059697379,0.009357199857264999,0.9892205269304942
2015-03-04,-1,-0.0034776244340830823,-0.0028810185760040014,-0.0049429154748314155,0.009357199857264999,0.9898063935537934
2015-03-06,-1,-0.004542651229074915,-0.0038105378238870663,-0.0042979888304121566,0.008326746887647996,0.9911535361113233
2015-03-10,-1,-0.003820779356542672,-0.0032130318591757495,-0.0049429154748314155,0.008326746887647996,0.9913307433489807
2015-03-12,-1,-0.0037618660424149734,-0.0031341378355609134,-0.005550803269063136,0.008326746887647996,0.9915654501557705
2015-03-16,-1,-0.0031644913977407763,-0.0026504338985279636,-0.005550803269063136,0.008326746887647996,0.9914937158127922
2015-03-18,-1,-0.002397579541320939,-0.001971848530212271,-0.005226614647817487,0.006163635277683186,0.9928340362489716
2015-03-20,-1,-0.0020920560428166366,-0.0017194203383436872,-0.0065528779184352084,0.008320028787714862,0.9925273535607418
2015-03-24,-1,-0.0021592564321853943,-0.0017871220549629573,-0.0065528779184352084,0.005179757374648475,0.9927728327114451
2015-03-26,-1,-0.0025760307136714787,-0.002175458452738881,-0.0037572802523895893,0.008320028787714862,0.9922987879602659
2015-03-30,-1,-0.0020022720448665252,-0.0016746866329460965,-0.0065528779184352084,0.008320028787714862,0.9923222648696257
2015-04-01,-1,-0.0014292833711761098,-0.001211497742332685,-0.0085889651648745,0.008320028787714862,0.9911802441948067
2015-04-06,-1,-0.0012613655197787892,-0.0010591188035521135,-0.0085889651648745,0.009146629020017819,0.9909388952518398
2015-04-08,-1,-0.0018240281001920518,-0.0015502041078277436,-0.009180125770754463,0.009146629020017819,0.9902893439139693
2015-04-10,-1,-0.0023492351394821306,-0.0019669492204240514,-0.009180125770754463,0.009146629020017819,0.9903742647889896
2015-04-14,-1,-0.002479771078838357,-0.002088405872168071,-0.007937123785835632,0.005339913944781891,0.9912236494161651
2015-04-16,-1,-0.002208076963970385,-0.0018650503883514682,-0.009180125770754463,0.009146629020017819,0.9901807217205205
2015-04-20,-1,-0.0019214196377031348,-0.0016265299237189158,-0.009180125770754463,0.01002728243345364,0.9898309041302537
2015-04-22,-1,-0.003075876600509253,-0.002615806108997223,-0.007937123785835632,0.01002728243345364,0.9900979796468264
2015-04-24,-1,-0.001966674865295055,-0.0016761335800397372,-0.007937123785835632,0.0065217327336578425,0.9912859856210603
2015-04-28,-1,-0.0016317413182738503,-0.001400527464288192,-0.0062979736408874136,0.0044649485159952325,0.9919711881966526
2015-04-30,-1,-0.0026918153308627757,-0.0023502774351333603,-0.003297673841383996,0.0065217327336578425,0.9925138074898318
2015-05-04,-1,-0.0020057505202188404,-0.0017596150640994883,-0.004991292362505126,0.0044649485159952325,0.9928349539396117
2015-05-06,-1,-0.0032825147280382758,-0.0028793148662316958,-0.0047787992110549255,0.0044649485159952325,0.9930795999021557
2015-05-08,-1,-0.0028849905346542124,-0.002512525896835595,-0.006340264141376138,0.0033117643996390562,0.9933055255944223
2015-05-12,-1,-0.002704141432914459,-0.0023483676182710434,-0.006340264141376138,0.0007603483718930752,0.9936597624108092
2015-05-14,-1,-0.0019022579474729524,-0.0017086868081621464,-0.006340264141376138,0.0007603483718930752,0.9938057426284918
2015-05-18,-1,-0.0010560414128948756,-0.0009699172972456974,-0.006340264141376138,0.0,0.9938665500666412
2015-05-20,-1,-0.00022168854682163853,-0.00013309496202658133,-0.006340264141376138,0.0014460178663159456,0.9931674873816242
2015-05-22,1,0.00012810235152244738,0.00030927278667817006,-0.008690358939063645,0.0014460178663159456,0.9924523754370538
2015-05-27,-1,-0.0009927394622517819,-0.0009407054667095999,-0.011723198102566014,0.0014460178663159456,0.9922690456335918
2015-05-29,-1,-0.0006439955188868988,-0.0006269327560823856,-0.011723198102566014,0.0014460178663159456,0.9921171470276664
2015-06-02,-1,-0.000801065370657255,-0.0007963809774901093,-0.01089848202790215,0.0014460178663159456,0.9923146777951042
2015-06-04,-1,-0.0017231618155525018,-0.0015957219640136792,-0.008446403125197774,0.006148491016748019,0.9922376898565202
2015-06-08,-1,-0.0022170350475749136,-0.0020376342136333827,-0.004751774736120882,0.008029837259162242,0.9918537642684611
2015-06-10,-1,-0.0015893307742695297,-0.0015291579742617882,-0.006701931693631331,0.008029837259162242,0.991484460818457
2015-06-12,-1,-0.0013709624521040442,-0.0013508963223437878,-0.005484076840092518,0.006148491016748019,0.9920863777437696
2015-06-16,-1,-0.0007361353651371217,-0.0006628306200309418,-0.005484076840092518,0.006148491016748019,0.9920665569739742
2015-06-18,0,-0.00012090198712699177,4.89874976380188e-05,-0.006547012121919953,0.0063652649915965295,0.991775065991597
2015-06-22,-1,-0.0004788835378873508,-0.0003543627657004657,-0.006353903468164616,0.0063652649915965295,0.9921398195186493
2015-06-24,-1,-0.0009646772379393757,-0.0009013184333630329,-0.005731136499856434,0.007112582065242115,0.9923038815935808
2015-06-26,-1,-0.0003703245458098192,-0.00020498456569112422,-0.005731136499856434,0.007112582065242115,0.9921070167967088
2015-06-30,-1,-0.0005091079234677567,-0.000342859878276042,-0.0045441857466848225,0.007112582065242115,0.9922110077205463
2015-07-02,-1,-0.0005358529578112635,-0.0004737205499488891,-0.0045441857466848225,0.009144635133518101,0.991884491328992
2015-07-07,1,0.00022709600809365382,0.0003981946372107008,-0.005731136499856434,0.007112582065242115,0.9925793869841748
2015-07-09,-1,-0.0008058500705700568,-0.0007678408461908585,-0.0016849702942497951,0.007112582065242115,0.9923865477793988
2015-07-13,1,7.419144241685129e-05,0.0002113395910700398,-0.0016849702942497951,0.007112582065242115,0.9926361405641212
2015-07-15,1,0.000441056138026602,0.0006146872879061635,-0.0016849702942497951,0.008327318470794421,0.9926408016704888
2015-07-17,1,0.0008450485766108065,0.001098832369447177,-0.0015350670947913217,0.007708215805495773,0.9933432137116598
2015-07-21,1,0.00028293665641741333,0.0004175545414358573,0.0013716700693273479,0.007948083064083768,0.9929382026621106
2015-07-23,-1,-0.00018515750370715889,-0.0001620875418079685,0.0016706856979461367,0.007948083064083768,0.9931945525476665
2015-07-27,1,5.446004132202037e-05,0.00010319327758529415,-0.0014600329068057327,0.007708215805495773,0.9915588000368097
2015-07-29,-1,-2.3934296502669203e-05,-2.1368216635883612e-05,-0.0024459700265968116,0.007948083064083768,0.9893945704298011
2015-07-31,1,0.0009365970726761467,0.0010760216717165694,-0.0035780040908492553,0.007708215805495773,0.9902853521962309
2015-08-04,1,0.0006475411181689713,0.0007744415192925541,-0.007439549848865873,0.007708215805495773,0.9887412145534699
2015-08-06,1,0.0009990167733820027,0.0011695199566068453,-0.007439549848865873,0.007708215805495773,0.9888139584657247
2015-08-10,1,0.0016052955062563867,0.001911453553405142,-0.012301224237319795,0.007948083064083768,0.9877100811088653
2015-08-12,1,0.0020674176044765697,0.0024157265477675726,-0.013717239738591472,0.006957546171256745,0.9870636328614752
2015-08-14,1,0.002011447785034915,0.0023386121686320956,-0.013717239738591472,0.0071383113175107985,0.9869816140272001
2015-08-18,1,0.001817094165518352,0.0020957043010028254,-0.013717239738591472,0.00747031654035402,0.9870781885777113
2015-08-20,1,0.0021051926687901115,0.0024474860209113746,-0.013717239738591472,0.009949131123690898,0.9858634625718447
2015-08-24,1,0.0008639734075271703,0.001052705179791436,-0.01020500811475437,0.009949131123690898,0.9882967794381904
2015-08-26,1,0.0007897151530990288,0.0009703379991496846,-0.008357696277401367,0.009504894698681548,0.9901885486922428
2015-08-28,1,0.000630334940421363,0.0007696273224502298,-0.008357696277401367,0.009504894698681548,0.9901056388259302
2015-09-01,-1,-0.0006732235748697261,-0.0006507784808072936,-4.989414264051169e-05,0.010539068749441674,0.9903203538096135
2015-09-03,-1,-0.00041412546826995845,-0.0004085044289463413,-0.002647963055802778,0.012105944390083655,0.9896347188108406
2015-09-08,-1,-0.00018242542729382012,-0.00013309136200822912,-0.002647963055802778,0.011715372450608283,0.9902917127006564
2015-09-10,-1,-0.0007558489473032647,-0.0007332990288984861,-4.989414264051169e-05,0.012087120402574142,0.9901697396762639
2015-09-14,-1,-0.0006687308536552309,-0.0006216646013707008,-0.0017175042526965491,0.011715372450608283,0.9901443514882534
2015-09-16,1,4.736962185769805e-05,0.00013367224063900876,-0.004381795451137289,0.011715372450608283,0.990422713684486
2015-09-18,1,0.0003692359661287033,0.0005039090883386594,-0.0017175042526965491,0.01140804634529264,0.9910929647643107
2015-09-22,1,7.441758101019859e-05,0.00010792591825151071,-0.004381795451137289,0.01140804634529264,0.9908040697321945
2015-09-24,1,0.000769042013683898,0.0009153123662297819,-0.004381795451137289,0.011715372450608283,0.9910568942334113
2015-09-28,1,0.0006934427801796555,0.0007792556802440608,-0.00461471793890363,0.01140804634529264,0.9906357127412428
2015-09-30,1,0.0020259103885166404,0.0023078721589717185,-0.005886702065144332,0.01097660922333607,0.9910979658948229
2015-10-02,1,0.00185673364807112,0.0021309194926935567,-0.00461471793890363,0.00864863233377475,0.9919778517320151
2015-10-06,1,0.001698060861817367,0.0019398856436429507,-0.004381795451137289,0.00833670943215123,0.9925252375422468
2015-10-08,1,0.0023851211209725545,0.0027474841275028777,-0.004213579052145608,0.006762972286190466,0.9932172335969748
2015-10-12,1,0.002327581912307317,0.0026798436579744695,-0.004213579052145608,0.006468330356458536,0.9914685820200461
2015-10-14,1,0.0022204800110963673,0.002552195237785578,-0.0030415173068141232,0.00833670943215123,0.9905031085110837
2015-10-16,1,0.0025187305657734128,0.0028654385519602667,-0.005872959195970571,0.006468330356458536,0.9897270238821895
2015-10-20,1,0.002688533399529555,0.0030726540340885507,-0.010532474376726787,0.007452783642955438,0.987744550159295
2015-10-22,1,0.0026847099905168217,0.0030415805049495365,-0.010532474376726787,0.008925629945224688,0.9873924363074731
2015-10-26,1,0.001908542785317977,0.0021170323194337755,-0.0066599502757206325,0.008925629945224688,0.9878739397925399
2015-10-28,1,0.0008115782151247431,0.00082778595132198,-0.0066599502757206325,0.008925629945224688,0.9880522890221063
2015-10-30,1,0.0005710265881339451,0.0005929234384174727,-0.0066599502757206325,0.008925629945224688,0.9879156416618742
2015-11-03,1,0.0010452317009155944,0.0010756594522997568,-0.008767426917625214,0.008407875207766655,0.987141981125538
2015-11-05,1,0.0009739073107071889,0.001031465432286184,-0.008767426917625214,0.009996069626439005,0.9856798163316765
2015-11-09,0,-4.539244071863531e-05,1.273055746966263e-05,-0.008323544887416105,0.011621626111162874,0.9877566450397618
2015-11-11,1,0.0005991185126971856,0.0006148061787940929,-0.008767426917625214,0.008407875207766655,0.9871451026545229
2015-11-13,-1,-0.0009254718914494384,-0.0006925010976736434,-0.006580922806083533,0.008407875207766655,0.9882661306099174
2015-11-17,-1,-0.0007575890810389597,-0.0005672807522490451,-0.005800786960215794,0.0092154256907737,0.9886599805906607
2015-11-19,-1,-0.00022640767611311653,-6.217393279367786e-05,-0.006580922806083533,0.00892760021326677,0.988327809299167
2015-11-23,1,0.0001922646659469646,0.0002659235402076313,-0.007710302729597349,0.010796727863348551,0.9879858084389662
2015-11-25,0,-2.2604347942163622e-05,5.118073212849285e-05,-0.005845107114834553,0.010933254177663903,0.9877156403786536
2015-11-30,1,5.5527096713337844e-05,0.00015086261905812337,-0.005845107114834553,0.010933254177663903,0.9881631888045923
2015-12-02,-1,-0.0009248632927537373,-0.0007203447428487337,-0.005845107114834553,0.010933254177663903,0.9884274299438768
2015-12-04,1,0.00030243868829063047,0.00033745239487596165,-0.004110950796823755,0.010796727863348551,0.9896357481637682
2015-12-08,1,0.00039318858905426884,0.00041936303513800586,-0.005516653387037293,0.009621677832173412,0.9898378467220369
2015-12-10,-1,-0.0014670208479296482,-0.0012132732186462335,-0.004344871753038353,0.009621677832173412,0.9910836673177351
2015-12-14,-1,-0.001253005889246977,-0.0010143974835400951,-0.004344871753038353,0.009621677832173412,0.9912300922469967
2015-12-16,1,0.0003421764237667797,0.0003780493063691684,-0.0062281439215388186,0.005408502612790203,0.9925283683304501
2015-12-18,0,-5.464943321476778e-05,1.4170331396676114e-05,-0.0062281439215388186,0.005408502612790203,0.9917299889706609
2015-12-22,1,0.0006555912456900613,0.0007292330229768945,-0.0062281439215388186,0.005408502612790203,0.9913318130402216
2015-12-24,1,0.0010774003498719856,0.0011795457849725782,-0.0062281439215388186,0.005408502612790203,0.9919056168917882
2015-12-29,1,0.001276401982058246,0.0014200750930733362,-0.0062281439215388186,0.00939705429293413,0.9912216653055321
2015-12-31,1,0.0008737329655044976,0.0009823699911582948,-0.004344871753038353,0.011530529548676194,0.9907397743257099
2016-01-05,1,0.0013664760585498236,0.0015757839010253414,-0.000682208419331122,0.012057963195937821,0.9907178663098957
2016-01-07,1,0.0012705210365503705,0.0014776805050620099,-0.005250848063251849,0.012057963195937821,0.9900252196782554
2016-01-11,1,0.0013408880483183072,0.0015688852883148628,-0.005952237578998235,0.012057963195937821,0.989513511263924
2016-01-13,1,0.0015727341548778724,0.001837401410383654,-0.009404187595041056,0.012057963195937821,0.9885531962426314
2016-01-15,1,0.0006805175075625432,0.0007140858443284674,-0.008033784433211823,0.012057963195937821,0.9884988013940164
2016-01-20,1,4.117632660185816e-05,0.00012019747648697634,-0.0062649129208505626,0.012057963195937821,0.9896895704455024
2016-01-22,1,0.0004110362599694417,0.0004411057733730644,-0.005171847243230264,0.011778435093779821,0.990534427379977
2016-01-26,-1,-0.0003743191876304175,-0.0001592451291515571,-0.005171847243230264,0.011778435093779821,0.9900986423751615
2016-01-28,1,0.0003753545587908666,0.0004930981503981625,-0.0062649129208505626,0.011224309156207172,0.9891652365469344
2016-02-01,1,0.0013417607053395897,0.001357275287167633,-0.0075721011661940354,0.009112750392175854,0.9899948130955721
2016-02-03,1,0.0014316006896905535,0.0014851489692293159,-0.0075721011661940354,0.007149964535027083,0.9906918609222279
2016-02-05,1,0.0007910560701515931,0.0008938057261532195,-0.0062649129208505626,0.009342008979509467,0.990433657502926
2016-02-09,1,0.0008494251075536579,0.0009329430062974389,-0.0024521775369352296,0.009342008979509467,0.9909164188249261
2016-02-11,1,0.0003264809006237307,0.0004563597197766941,-0.0024521775369352296,0.009342008979509467,0.991531564752308
2016-02-16,1,0.0002515446130777663,0.00038523929056112475,-0.0001901225169891654,0.009342008979509467,0.9920254614183635
2016-02-18,1,0.0009170259238145996,0.0009490992717068414,0.0007077599173345737,0.009342008979509467,0.9925076551218446
2016-02-22,1,0.0017616309230430545,0.0018744621602629847,-0.0001901225169891654,0.008139589504189299,0.9928188769125003
2016-02-24,1,0.00289563646328308,0.0032308554716510016,-0.0001901225169891654,0.007831892685958694,0.9933933237268214
2016-02-26,1,0.001709385793093363,0.0018705277863600104,-0.0011004428271368491,0.007831892685958694,0.9948418334093113
2016-03-01,1,0.0013168672994710263,0.0014284470349639395,-0.00012722718062197633,0.00844654249126364,0.9945865303304385
2016-03-03,1,0.00173181601344697,0.0019166060375205966,-0.0009016103388234691,0.008479315073152761,0.9945115314612166
2016-03-07,1,0.0025918568418212594,0.0028877398024760494,-0.0018926275596512596,0.007831892685958694,0.9940444184422635
2016-03-09,1,0.0029480532521497173,0.0032869900271586,-0.0026261200841245762,0.004477132151683245,0.993780144181447
2016-03-11,1,0.0029936808861234093,0.0033782621417542185,-0.0026261200841245762,0.005258262221456462,0.9937983696105883
2016-03-15,1,0.003032901168655436,0.0034191974279984324,-0.0033893814063123266,0.005258262221456462,0.993124351935537
2016-03-17,1,0.0038489616677623295,0.004360343797219241,-0.0033893814063123266,0.0031986191049103536,0.9928278280689778
2016-03-21,1,0.003192340207151194,0.0035845458945200585,-0.0026261200841245762,0.005064092800620289,0.9934865813331039
2016-03-23,1,0.0030181592494503326,0.003333994587572081,-0.004519042583937486,0.0016300682683135306,0.9917252739936987
2016-03-28,1,0.0026424191454879715,0.0029001578651792954,-0.004519042583937486,0.005027706077722684,0.9920715024158664
2016-03-30,1,0.0031554083473801396,0.00350448409941452,-0.004519042583937486,0.005027706077722684,0.9919189495515289
2016-04-01,1,0.0032792627977322854,0.003631706812439445,-0.004519042583937486,0.004995657007186308,0.9919763447841382
2016-04-05,1,0.00112889534363629,0.001155786409218373,-0.002724059692037304,0.0068104515698093416,0.9936050552155066
2016-04-07,1,0.001542196826807113,0.0016387413590871628,-0.0020651192592938566,0.006942985504316077,0.993389990141184
2016-04-11,1,0.0005853924948103604,0.0006659047703251131,-0.0020651192592938566,0.0071260668508193355,0.9934809865451052
2016-04-13,0,-6.142730611217789e-06,0.00015274474624886046,-0.0020651192592938566,0.0071260668508193355,0.9938265009818821
2016-04-15,1,0.0010841513020646227,0.0011093363965469494,-0.002673949608060865,0.006942985504316077,0.9937938396032789
2016-04-19,1,0.001111606386291089,0.0011355477970810724,-0.0033873295687801884,0.0068104515698093416,0.9927465750147929
2016-04-21,-1,-0.0007920944338985476,-0.0005555501344436259,-0.002673949608060865,0.007016906682126521,0.9934091911381357
2016-04-25,-1,-0.0002499137420367791,-9.896695244805269e-05,-0.004168698478728289,0.006920759470517389,0.992865248039545
2016-04-27,-1,-0.0005340327452931187,-0.00029545187597285584,-0.004827875523688232,0.006920759470517389,0.9928772279114294
2016-04-29,1,0.00013871898151919255,0.0002613325702487645,-0.004827875523688232,0.00779231096871877,0.9924186168351016
2016-05-03,1,0.0004464236696319233,0.0005233537697199743,-0.004827875523688232,0.00563853395543697,0.9925692109234625
2016-05-05,-1,-0.00032493344775305676,-6.4978439747601e-05,-0.004827875523688232,0.00563853395543697,0.9924188930315941
2016-05-09,-1,-0.00035240773743807946,-0.00010195507464378696,-0.00623256551482324,0.004797532795663209,0.9925988235184436
2016-05-11,1,0.00029145214751173307,0.000389525633574372,-0.00623256551482324,0.009146340356625579,0.9916326436525014
2016-05-13,-1,-0.00030267050081755507,-9.294558864732076e-05,-0.00623256551482324,0.009146340356625579,0.9917421609393778
2016-05-17,-1,-0.0013984402676713342,-0.0010723243154007528,-0.00623256551482324,0.009146340356625579,0.9920476455842266
2016-05-19,-1,-0.001321012631200567,-0.0010362178154611052,-0.004150674258922421,0.007177325689654911,0.9929477971388744
2016-05-23,-1,-0.0023326934063628464,-0.0019314898930068447,-0.002377809828334712,0.007177325689654911,0.9932460695784896
2016-05-25,-1,-0.002571654979703742,-0.0021168684801043955,-0.0031755434553646022,0.005426676317581519,0.9936843122385369
2016-05-27,-1,-0.0019065503259752177,-0.0015429388483121785,-0.0031755434553646022,0.007316269247879028,0.9926232908895731
2016-06-01,-1,-0.001843846388255338,-0.0014658622349685518,-0.003746537982426995,0.007316269247879028,0.9928495677796222
2016-06-03,-1,-0.0015730589989060555,-0.0012191354865008332,-0.003746537982426995,0.007316269247879028,0.9924939763674092
2016-06-07,-1,-0.001942249576293243,-0.0015500218136350248,-0.0032580423868336784,0.009223764430288734,0.9920426883152955
2016-06-09,-1,-0.0010419426177847306,-0.0007588415632738007,-0.003746537982426995,0.005075183814728529,0.9925297209616781
2016-06-13,-1,-0.0012803060285493813,-0.00095724460785199,-0.00451887974681303,0.005075183814728529,0.9916022095064488
2016-06-15,-1,-0.001429556006364008,-0.0011098048388035555,-0.00451887974681303,0.005307376087173407,0.9917198232422851
2016-06-17,-1,-0.0010490899501585111,-0.0007853160130082283,-0.00451887974681303,0.005226941544148297,0.9917329888799679
2016-06-21,-1,-0.0005503627554301058,-0.00038303422125324254,-0.00451887974681303,0.005226941544148297,0.991822221677734
2016-06-23,-1,-0.0004741954497994509,-0.00036188789484511253,-0.003460281734175414,0.007832808377633399,0.9914057296857657
2016-06-27,1,0.0014615661102016903,0.0016286796121006432,-0.004131025485819929,0.004337685735177018,0.9927490084319706
2016-06-29,1,0.0009228351210066011,0.0009826414179756218,-0.0053997392749621145,0.00449597984700519,0.9924531787164986
2016-07-01,1,0.0015261401236202066,0.0016588905224316553,-0.0053997392749621145,0.005236283831179052,0.9929548976399213
2016-07-06,1,0.001388233542794405,0.0014616335907668564,-0.00953529909413637,0.00449597984700519,0.992020166289961
2016-07-08,1,0.0009919152694858335,0.0010109821660420504,-0.00953529909413637,0.00449597984700519,0.9921272082084672
2016-07-12,-1,-0.00012778534970384623,-3.4432392475850036e-05,-0.009238992443498644,0.00449597984700519,0.9936029781514014
2016-07-14,1,9.428830168506358e-05,0.00013583850026893462,-0.004740032790354257,0.003889324238606879,0.9941786346964072
2016-07-18,1,0.0006698145402305089,0.0007318482332487589,-0.009238992443498644,0.002346864855294648,0.9936975786087495
2016-07-20,-1,-0.000251589209391714,-0.00013961646277158658,-0.009706800185652661,0.0038924383342837975,0.9927669006722745
2016-07-22,1,0.000311151931851782,0.0003783967685654897,-0.011535508783802276,0.0038924383342837975,0.9921221883855117
2016-07-26,0,-7.613337860052022e-05,1.978807308541567e-05,-0.011535508783802276,0.0038924383342837975,0.9921830498429102
2016-07-28,1,0.0003003676905006899,0.00030062431148095245,-0.010678988346719227,0.002241509110746413,0.9928131305564261
2016-08-01,1,0.0011869223132047538,0.0013295757103728592,-0.015297120012386855,0.0017521402906943882,0.9924422649325877
2016-08-03,1,4.476133128007118e-05,6.709322859102042e-05,-0.012508523440767307,0.002241509110746413,0.9928555115267897
2016-08-05,-1,-0.0004874795825551614,-0.0004103145687514246,-0.008177531756131945,0.0038360721432233115,0.9925059832671941
2016-08-09,1,5.041636675132595e-05,7.989700464366899e-05,-0.008177531756131945,0.004364734144002992,0.9920494154029847
2016-08-11,1,0.00012250637522913873,0.0001433672767467682,-0.012533216002083679,0.004364734144002992,0.9906089189605682
2016-08-15,-1,-0.00020540620012805268,-0.00020377045298552765,-0.011912662689393198,0.004816602088293185,0.9898305442551573
2016-08-17,-1,-0.0004531869026865589,-0.00041619429606324157,-0.008177531756131945,0.004364734144002992,0.9907077590163779
2016-08-19,-1,-0.0005441893585293181,-0.0005189226832910944,-0.0064789498166646755,0.00535636464335902,0.9914228427533086
2016-08-23,-1,-0.0004750268453532144,-0.0004703407516237218,-0.003958444773608703,0.007581790589856646,0.9907484772092143
2016-08-25,-1,-0.00119475370400123,-0.001053020814170615,-0.003958444773608703,0.007581790589856646,0.9900025617093594
2016-08-29,-1,-0.001888323884844886,-0.0016595169265563542,-0.003958444773608703,0.007581790589856646,0.9901719385494664
2016-08-31,-1,-0.0022058487061814317,-0.0019341348483503077,-0.004061245994055742,0.007581790589856646,0.990426598739946
2016-09-02,-1,-0.001982974772759338,-0.0017203945271395617,-0.009483095189127745,0.007400617489019424,0.9906975165263906
2016-09-07,-1,-0.0012964071587005907,-0.0011427708351129853,-0.010420572523145783,0.00684075278229148,0.9905360580995323
2016-09-09,-1,-0.002383484884987415,-0.0021118769293524734,-0.009483095189127745,0.00684075278229148,0.9917819112047767
2016-09-13,-1,-0.0027924807720009475,-0.0024086182131008715,-0.009483095189127745,0.006244819477583572,0.9923908121125726
2016-09-15,-1,-0.0023717835915487368,-0.0020534106075029467,-0.009483095189127745,0.007400617489019424,0.991300781237083
2016-09-19,-1,-0.0015333245119242985,-0.0013362166395392476,-0.009483095189127745,0.00684075278229148,0.991566419343506
2016-09-21,-1,-0.000564677844786708,-0.0004958435301635042,-0.009483095189127745,0.006771940878856806,0.9920310659898223
2016-09-23,1,5.3224729815179147e-05,7.051065453958266e-05,-0.009483095189127745,0.003808654383876803,0.9923840251568414
2016-09-27,-1,-0.0003176038831081747,-0.00031419821806598293,-0.006314659235285702,0.0038809667872694545,0.9930568855038161
2016-09-29,-1,-0.0007747094965789333,-0.000719738702306142,-0.005824633361995715,0.0038809667872694545,0.9933225598214815
2016-10-03,-1,-0.00169040568971049,-0.0015213131976378534,-0.0024275013809163712,0.006344101622555238,0.9929870941753907
2016-10-05,-1,-0.002360883943935179,-0.0021176400745278553,-0.003544664735814952,0.006344101622555238,0.9923946570670451
2016-10-07,-1,-0.003038479949102401,-0.0026639767935708334,-0.003153567077311358,0.006344101622555238,0.992485791035808
2016-10-11,-1,-0.003494817942577552,-0.003054751930111152,-0.0024275013809163712,0.010924468329551617,0.9912858071013078
2016-10-13,-1,-0.0027151619800186806,-0.0023258364945967797,-0.004651340386484934,0.005801961524438608,0.9910320749364647
2016-10-17,-1,-0.002363448975560225,-0.0020205682062640973,-0.0073866826301317735,0.003700253421230578,0.9913552660084587
2016-10-19,-1,-0.0018710223026868198,-0.0016122743667489124,-0.007781847653060807,0.003700253421230578,0.9906702611469266
2016-10-21,-1,-0.0016242381169172455,-0.0014127903492550248,-0.007781847653060807,0.004664054176302359,0.9903167457671892
2016-10-25,-1,-0.0011287554439905647,-0.0009959624456705334,-0.007781847653060807,0.005867788867903791,0.989947296049664
2016-10-27,-1,-0.001557295361526417,-0.001359498374994519,-0.009538783634075473,0.008907438334892187,0.9888901942635965
2016-10-31,-1,-0.0001387406758818134,-0.00012677551162859635,-0.009538783634075473,0.008907438334892187,0.98850556689609
2016-11-02,-1,-0.0012396642267539027,-0.0011226041598247133,-0.009098595028189986,0.008907438334892187,0.9877784828897881
2016-11-04,-1,-0.0015937425581360838,-0.0014232724230360309,-0.009098595028189986,0.011920363104499343,0.9870301225529796
2016-11-08,0,-4.27546727951968e-06,3.114876252747345e-05,-0.009098595028189986,0.008337404944168252,0.9876678212084031
2016-11-10,-1,-0.0015623503837482898,-0.001417605376252849,-0.007322602483802712,0.00931036513562647,0.9891184948713757
2016-11-14,-1,-0.002355686696605755,-0.0021003144201285863,-0.003073645292816101,0.010231592062115822,0.9884040750654098
2016-11-16,-1,-0.001094425562019667,-0.001065632594303986,-0.003073645292816101,0.010231592062115822,0.9880622353928468
2016-11-18,-1,-0.0012041319628208324,-0.0011592409661291805,0.000737467235679123,0.011386313395465971,0.9872275617016575
2016-11-22,-1,-0.00024568789647108136,-0.0001236461662197727,-0.0026561669227985526,0.011386313395465971,0.9879164476186317
2016-11-25,1,0.00018761220650700798,0.00039002800001506006,-0.00014733664080246732,0.010231592062115822,0.9891658872217008
2016-11-29,1,0.000777795778749709,0.0010431388935913763,-0.002484284083646293,0.009336577557882223,0.9899649518980345
2016-12-01,-1,-0.0013159205581791907,-0.0012527620396577683,-9.004236108504725e-05,0.010231592062115822,0.9903070379867878
2016-12-05,-1,-0.0005791020251898167,-0.0005505818569473702,-0.0017608024542153599,0.009336577557882223,0.9911954068426995
2016-12-07,1,0.0003116921293303514,0.00047653725000539905,-0.0017608024542153599,0.008978504732724591,0.9925388743785107
2016-12-09,1,0.0007447272134642071,0.000960189188204852,-0.005388169127758634,0.008978504732724591,0.9922972760618242
2016-12-13,1,0.0016445761867944714,0.002021567192601846,-0.005388169127758634,0.008978504732724591,0.9920737773258904
2016-12-15,1,0.0010710897763822778,0.0013495094786538488,-0.003498160475430733,0.008978504732724591,0.9933359296449601
2016-12-19,1,0.0017978416870449816,0.0021633919726315714,-0.005388169127758634,0.0037227223627283113,0.9935917885336089
2016-12-21,1,0.0020204441850639222,0.0024546200247348975,-0.004874004669682212,0.0037222524735203346,0.9934626007920511
2016-12-23,1,0.0019457752721903905,0.0023204158456535673,-0.004874004669682212,0.0009980504355764342,0.9932746392880454
2016-12-28,1,0.001278674163608932,0.0015381854958647345,-0.004829123137029373,0.003646056951344976,0.9939356074023822
2016-12-30,1,0.001645406996298311,0.0019568735989080664,-0.004619024166032925,0.003646056951344976,0.9940903506494948
2017-01-04,1,0.001813857468917223,0.00216023904294565,-0.004829123137029373,0.004311914591566379,0.9932162487197556
2017-01-06,1,0.0015758616907437632,0.0018606673136185817,-0.004829123137029373,0.005076571698660616,0.9930874079013607
2017-01-10,1,0.0009006029134345198,0.001090113824014422,-0.003837779668015834,0.007597448229410653,0.9935445347058689
2017-01-12,1,0.0013742420572767805,0.0016052704998412199,-0.004619024166032925,0.006622118268821486,0.99364095791966
2017-01-17,1,0.0014929506148993233,0.0017275614405487228,-0.004829123137029373,0.0048270967816200026,0.9937106424075616
2017-01-19,1,0.0010433100676150921,0.0012178422741651255,-0.004619024166032925,0.006622118268821486,0.9938202367744139
2017-01-23,1,0.0005451806590642397,0.0006221703063027855,-0.0037489864405348635,0.007389854572178785,0.9933935074223114
2017-01-25,1,0.0002081954868897242,0.00022904757977181364,-0.0027143152339378675,0.010099540286462858,0.9926636479405773
2017-01-27,1,0.00033629993976069675,0.00039305529262526496,-0.0027143152339378675,0.011984339152334047,0.9921555476970464
2017-01-31,1,0.0012126116732431962,0.0013975726866770058,-0.0038598310193982874,0.010099540286462858,0.9927628773318309
2017-02-02,1,0.0006705850449935833,0.0007216926055112311,-0.0038598310193982874,0.009147106555068856,0.9931780664400236
2017-02-06,1,0.0008568366339838468,0.0009473432406103638,-0.0038598310193982874,0.009147106555068856,0.993434629007507
2017-02-08,1,0.0014928834438720133,0.0016778236525987456,-0.005261401491325316,0.007412491283789611,0.9929522275655056
2017-02-10,1,0.001557456450644929,0.0017749752969139737,-0.0038598310193982874,0.007412491283789611,0.9932642703444502
2017-02-14,1,0.0015473206091848163,0.0018005655129890216,-0.0027143152339378675,0.009147106555068856,0.9930995136011443
2017-02-16,1,0.0019744103498389844,0.002305318320792353,-0.003178213477369061,0.007412491283789611,0.9930010001342534
2017-02-21,1,0.0019973228698750784,0.0022961054432740725,-0.005261401491325316,0.007412491283789611,0.9925280429152032
2017-02-23,1,0.0023381682535587754,0.0026586873727188964,-0.005261401491325316,0.005978848802766732,0.9931763311792414
2017-02-27,1,0.0021374873106654534,0.0023890921786430927,-0.0058773193931385016,0.005726483198165313,0.9935128067072571
2017-03-01,1,0.0016021990135452928,0.0017426971055099056,-0.005733282344836629,0.005726483198165313,0.9935027887005016
2017-03-03,1,0.0014492788462330194,0.0015578809661377414,-0.0071995557227495215,0.005703075878465533,0.993575924792589
2017-03-07,1,0.0013420190660555402,0.0014147170764770276,-0.0071995557227495215,0.005703075878465533,0.9935581157381491
2017-03-09,1,0.001068014337313133,0.0011570960659628596,-0.00252064757545609,0.005726483198165313,0.9942123546935607
2017-03-13,1,0.0015097540359870864,0.0016675401462382402,-0.0035285234146842453,0.005171929454422863,0.9943808298258595
2017-03-15,1,0.00214616706083503,0.002390852499286291,-0.0035285234146842453,0.004831304732030225,0.994450354871545
2017-03-17,1,0.001869998676838844,0.0020740541033015094,-0.002849025848469168,0.004831304732030225,0.9945554372811158
2017-03-21,1,0.0023198482302252818,0.0025926866820511875,-0.0029515132862492125,0.003182681866746298,0.9948629033829347
2017-03-23,1,0.002060888277652048,0.0022805459692250385,-0.0036006134047603267,0.003471583099420518,0.9947449632167004
2017-03-27,1,0.0023229500360170264,0.0026193658974914534,-0.002704366765899583,0.003008617551985524,0.9951059060507267
2017-03-29,1,0.0014125267477666692,0.0015282656351517585,-0.002704366765899583,0.003008617551985524,0.9955295867183374
2017-03-31,1,0.0010108504080927633,0.0010525272805017747,-0.0035984265030297026,0.002602687903906633,0.9954652260386272
2017-04-04,1,0.0016881796797521172,0.001887004748322674,-0.0035984265030297026,0.002602687903906633,0.995223704088562
2017-04-06,1,0.0012540192990058634,0.0013118557240555224,-0.0035984265030297026,0.0019761015568698567,0.99553071138432
2017-04-10,1,0.0005094249085936754,0.0005881570070757815,-0.0043354922606173435,0.003606361335432272,0.9955465628295583
2017-04-12,1,0.0009387589866451891,0.0009634519258646272,-0.0043354922606173435,0.003606361335432272,0.995749706282128
2017-04-17,1,0.0008879350166486714,0.0009298012703006835,-0.0035984265030297026,0.003939818197591361,0.9960730148135901
2017-04-19,1,0.0005487422021519521,0.0006138281443200705,-0.0035984265030297026,0.004292881952151505,0.9958167176193222
2017-04-21,1,0.0006097610590568206,0.0006669716209645148,-0.0027018654892861146,0.003939818197591361,0.996131085908939
2017-04-25,1,0.0010141515808485687,0.0010333555842766831,-0.0027018654892861146,0.004988946768301671,0.9955612812312966
2017-04-27,-1,-0.0003985481703363263,-0.0001584574109029657,-0.002055927560847799,0.006467884779115224,0.9951258912964968
2017-05-01,-1,-0.0005487404495071531,-0.00031689210562076305,-0.001898589640494593,0.006467884779115224,0.9951312488744767
2017-05-03,-1,-0.0002947616484422121,-0.00012099939043825388,0.00011759361801725319,0.006620300041900494,0.9946268604236872
2017-05-05,1,0.00016318635574946331,0.0002624228587442303,-0.0014674486288137412,0.006620300041900494,0.9950782137787965
2017-05-09,1,0.0002484046543594742,0.00031340429113573985,-0.0014674486288137412,0.0067329286225170076,0.9951666181233417
2017-05-11,0,-8.08310368465915e-06,0.00011477822170332476,-0.0014837344947292073,0.0067329286225170076,0.9948876342352507
2017-05-15,1,0.0007662629249596977,0.0007825466247725069,-0.0016060965573857066,0.006628253396136472,0.9953744876008597
2017-05-17,1,0.0006160697627399687,0.0006321792758847829,-0.0013234235210847157,0.0051453978789881335,0.9959489460837077
2017-05-19,1,0.0006541395633141466,0.0006578011083316188,-0.0013234235210847157,0.006628253396136472,0.9952537824720697
2017-05-23,1,0.0008703125584142441,0.0008710356329414756,-0.0016014324916008545,0.0045496108134497485,0.9959045061054409
2017-05-25,1,0.0013474992017761178,0.0014258947906604282,-0.002073037280964625,0.0034220540003641435,0.9958613626279801
2017-05-30,1,0.0009921087401543994,0.0010232756766004646,-0.002073037280964625,0.0045496108134497485,0.9954839845292366
2017-06-01,1,0.0014049048923912815,0.0014867321413834249,-0.007214422548597546,0.002806377934676115,0.994793966611255
2017-06-05,1,0.0008120229244030598,0.0008467346021648305,-0.007214422548597546,0.002806377934676115,0.9948173844407489
2017-06-07,1,0.0012863462615811143,0.0013427495391026255,-0.007214422548597546,0.0013971825548550682,0.9946065568611457
2017-06-09,1,0.0011915599520751932,0.0012434852153061044,-0.006000097693143792,0.0010500260799702651,0.9949780221390412
2017-06-13,1,0.0006598009258703746,0.0007048067417437426,-0.006000097693143792,0.0016806789639521253,0.9951451012241933
2017-06-15,1,0.0006485925013243513,0.0007085886481262166,-0.006000097693143792,0.0010500260799702651,0.9950868529628059
2017-06-19,1,0.0003736453675955503,0.0004818277827861564,-0.005113187041417233,0.001415279994059094,0.9958918403493131
2017-06-21,1,0.00015624287999399213,0.0002964897531206239,-0.005113187041417233,0.0023278732159012798,0.9954925219986074
2017-06-23,1,0.00021411484543022897,0.00031410097720505954,-0.005113187041417233,0.0034588869914936875,0.9950075947550411
2017-06-27,0,-5.9380266814705737e-05,7.826262160885332e-05,-0.004445809491708039,0.0034588869914936875,0.995304608998807
2017-06-29,-1,-0.0009358708701029553,-0.0006976496658995981,-0.0031672393586194315,0.0034588869914936875,0.9960598220117365
2017-07-03,-1,-0.0008376914852571681,-0.0006402831230010235,-0.0027388975512329925,0.003927921060193109,0.9959228001155551
2017-07-06,-1,-0.001186809806979511,-0.0009418453167763006,-0.0021653759717631662,0.00455712752828271,0.9952349184069854
2017-07-10,-1,-0.0015800071583550322,-0.0012703841379182244,-0.002240716868676825,0.005354500355758799,0.9947348137164078
2017-07-12,-1,-0.001416572896067709,-0.0011365880630818132,-0.0031672393586194315,0.005354500355758799,0.9943406015365747
2017-07-14,-1,-0.0011107410783929553,-0.0008834983008737631,-0.0039007912960104816,0.005944930704112063,0.9940830761946208
2017-07-18,-1,-0.0005591319080957952,-0.0004346369856859274,-0.0039007912960104816,0.006726948332907582,0.9937976593116141
2017-07-20,1,0.0001381214068360156,0.0001680498474917848,-0.004422451461372316,0.005651978473181399,0.9941098351656644
2017-07-24,-1,-0.0004145701640256003,-0.00030784171393124956,-0.0039007912960104816,0.006726948332907582,0.9944101816256375
2017-07-26,-1,-0.00022449443474497298,-0.00013945549617157445,-0.0031672393586194315,0.005366956294348614,0.9947947592185875
2017-07-28,-1,-0.0004874264928190674,-0.00037777858217564477,-0.0017435110625932753,0.005366956294348614,0.9948255916058714
2017-08-01,-1,-0.000847455663221208,-0.0006496294342565115,-0.0017435110625932753,0.005366956294348614,0.9949028560553053
2017-08-03,1,0.00011624877118352245,0.00018048312501641345,-0.0029680736243954467,0.004395471862712493,0.9956556317380999
2017-08-07,1,0.0005651789315090018,0.0005918295551396618,-0.0029680736243954467,0.004395471862712493,0.9956322570554582
2017-08-09,1,7.692016540469546e-05,0.0001250647704982664,-0.0029680736243954467,0.005276761048495717,0.9955561790040763
2017-08-11,1,0.00040759087923918563,0.0004239944834529328,-0.0017435110625932753,0.005276761048495717,0.9955710898476177
2017-08-15,1,0.0008547493945240353,0.0009257046834916343,-0.003923907684976049,0.0039040622911324856,0.9946878572952003
2017-08-17,1,0.0006157158128469888,0.0006504179523217716,-0.003208867928147441,0.004959770298943187,0.9944559096784282
2017-08-21,1,0.000681712450931939,0.0007055051785459507,-0.003923907684976049,0.0038891624543856787,0.9940055994078147
2017-08-23,1,0.0006364291687637946,0.0006397706348360601,-0.004406476749953916,0.003406175257469931,0.9939010760724354
2017-08-25,1,0.0005220322312995773,0.0005327014649179384,-0.0048714164386687644,0.004959770298943187,0.9929416349003262
2017-08-29,1,0.0008166224431262763,0.0008702442456134953,-0.005757186181468667,0.004959770298943187,0.9921141606977262
2017-08-31,1,0.0004625358423281994,0.00046891784716184806,-0.005757186181468667,0.004959770298943187,0.9922554572377033
2017-09-05,1,0.0006786141620159342,0.0007238443442890622,-0.0048714164386687644,0.0028846954982604117,0.9926058272396387
2017-09-07,1,0.0008866221888584375,0.0009696325197934446,-0.004406476749953916,0.0028846954982604117,0.9926826862177389
2017-09-11,1,0.0011306464923333292,0.0012181023805556772,-0.004406476749953916,-0.00016376565658750888,0.9928284082601361
2017-09-13,0,-8.291430816067993e-07,4.996990541579786e-05,-0.0032909375135352584,0.003146691824999731,0.9939358525775737
2017-09-15,1,0.00038229805608625076,0.00038520131572882335,-0.003142493767400735,0.003146691824999731,0.9941800321995427
2017-09-19,-1,-0.0004883942993123809,-0.0003729025024546046,-0.003142493767400735,0.005736423429739103,0.9946546726008079
2017-09-21,-1,-0.001019690293144027,-0.0008219704191549456,-0.003142493767400735,0.0067327898559990254,0.9942298147084535
2017-09-25,-1,-0.0009577074282789809,-0.0007638262836445961,-0.0026778906269068117,0.005736423429739103,0.9950978778240092
2017-09-27,-1,-0.0016301905826386618,-0.0013694033223895369,-0.002267723333615634,0.005736423429739103,0.9955848010607732
2017-09-29,-1,-0.0017120792612366252,-0.0014350961265437922,-0.00174094973988301,0.0067327898559990254,0.9952485791756932
2017-10-03,-1,-0.0017700739421619605,-0.001492444562025695,-0.00174094973988301,0.0067327898559990254,0.9949551289306208
2017-10-05,-1,-0.001247969358295264,-0.0010527174388442308,-0.0014423226739257418,0.006720582932260921,0.9951395252211437
2017-10-09,-1,-0.0014624456061665073,-0.0012434355361881453,-0.0006036360114690296,0.006720582932260921,0.9947035424939975
