JNU-Tangyin/eata/results/Batch4_SP500/Batch4_SP500-MSI.csv
Date,Action,Predicted_Q25,Predicted_Q75,Actual_Q25,Actual_Q75,RL_Reward
2010-12-14,0,0.0,0.0006278410720809009,-0.004693892170041411,0.005807644245967134,0.9881678914577833
2010-12-16,0,0.0,0.0,-0.004693892170041411,0.005807644245967134,0.9896460793900091
2010-12-20,0,0.0,0.0,-0.007350283119436045,0.005807644245967134,0.9884379015933269
2010-12-22,0,0.0,0.0,-0.008403603935030141,0.0018739767514628241,0.989049375522975
2010-12-27,1,8.92595431397487e-05,0.00010283510506952704,-0.008403603935030141,0.003329878180579003,0.9875500379654044
2010-12-29,1,0.0015437105219265675,0.0016139825479732138,-0.009586652003050446,0.006147792838907399,0.9860901765977539
2010-12-31,1,0.0015562504742512727,0.001730630781720005,-0.010094582447704432,0.006147792838907399,0.9853901299321881
2011-01-04,0,0.0,0.0,-0.010616383779963583,0.003839405287861435,0.98882320024463
2011-01-06,0,0.0,0.0,-0.010616383779963583,0.007676374160754696,0.9881981745153546
2011-01-10,0,0.0,0.0,-0.010616383779963583,0.011871864044614157,0.987591909576219
2011-01-12,0,0.0,0.0,-0.009985626720077866,0.011871864044614157,0.9877265585416624
2011-01-14,0,0.0,0.0,-0.009985626720077866,0.008187595602706753,0.9879882176170763
2011-01-19,0,0.0,0.0,-0.007918606191892323,0.008187595602706753,0.9888692639558673
2011-01-21,-1,-0.003274387351545063,-0.002814675739740282,-0.0078029547568487035,0.008187595602706753,0.9889117016022992
2011-01-25,-1,-0.002658271641647643,-0.002322958710466039,-0.011283189445200181,0.005108580539305454,0.9894395963978755
2011-01-27,-1,-0.0024774814524705056,-0.002185733939515051,-0.00853689842300941,0.005108580539305454,0.9897148961004892
2011-01-31,1,0.003976611773042626,0.004317712601660648,-0.00853689842300941,0.005108580539305454,0.989733917742714
2011-02-02,1,0.0033576614886566495,0.003586387756953766,-0.0078029547568487035,0.013183579418288715,0.9884417827280474
2011-02-04,0,0.0,0.0,-0.0078029547568487035,0.00617908293775346,0.9890909397944264
2011-02-08,1,0.0023971617036794932,0.002679697249069709,-0.007714926063722508,0.00617908293775346,0.9888671533513119
2011-02-10,1,0.001916571256355242,0.002140534218263594,-0.007740626215850787,0.013895617457515483,0.9874719015217241
2011-02-14,1,0.004016796685312549,0.004419830545413497,-0.00868210807796427,0.013895617457515483,0.9866201613678268
2011-02-16,0,0.0,0.0,-0.00868210807796427,0.014213504629642696,0.986462888085834
2011-02-18,0,0.0,0.0,-0.00868210807796427,0.014213504629642696,0.9857651968190866
2011-02-23,1,0.001250937495807011,0.0013846253554120926,-0.0037504132619900184,0.015124295221926192,0.9870889462569415
2011-02-25,1,0.0019069875468150127,0.002107972367528123,-0.006470094026830876,0.01689215585436166,0.9861267488144932
2011-03-01,1,0.001766327175551371,0.001966130645235864,-0.0037504132619900184,0.01689215585436166,0.9871597089022839
2011-03-03,1,0.002822074195729686,0.0031039566204911348,-0.0037504132619900184,0.012173797536333957,0.9894095587290717
2011-03-07,1,0.0023120037570260217,0.0024822595188849785,-0.00616882725267993,0.012173797536333957,0.9888766111175497
2011-03-09,1,0.0025246625059956694,0.0026759946323003368,-0.003716439907651248,0.010941843380578473,0.9906671590303286
2011-03-11,1,0.0023283638793988055,0.0024491285095403336,-0.003716439907651248,0.010150208782341606,0.9922426460322967
2011-03-15,1,0.001642736652230949,0.0016769336543598005,-0.0024228681454939818,0.010150208782341606,0.9924267913427368
2011-03-17,1,0.0015984896413186616,0.0016064813543050387,-0.003502412344970912,0.009879711438490599,0.9924422663367989
2011-03-21,1,0.001984484370791145,0.002013959087124303,-0.005526744564638921,0.007524345273656028,0.9925480922800864
2011-03-23,1,0.002887666808840007,0.003024275671177989,-0.005526744564638921,0.004439497164031187,0.993108945322359
2011-03-25,1,0.002807793867008645,0.0029375152450843867,-0.0036905593305795225,0.0036948915160054277,0.9948518794367992
2011-03-29,1,0.0031425268999237628,0.0033280302755452555,-0.005526744564638921,0.003358861781602609,0.9937925227201316
2011-03-31,1,0.0034100311346295874,0.003667473562439792,-0.006790325119926989,0.003358861781602609,0.9895271910994635
2011-04-04,1,0.0028773998329637528,0.0030503689544654202,-0.007824868004524812,0.003358861781602609,0.9894649411065279
2011-04-06,1,0.0024396719939828284,0.002519203518735763,-0.008310370637996377,0.00529007753301333,0.9887353657918981
2011-04-08,1,0.0011112541084250774,0.0012569887221668037,-0.007824868004524812,0.008060833440670467,0.9885082558872273
2011-04-12,1,0.0010741093664551648,0.0012183390789908214,-0.006794971495264394,0.010183192694613916,0.9884587950524245
2011-04-14,1,0.0013747953526655585,0.0014567353075314016,-0.008356458583928396,0.010183192694613916,0.9882674068578905
2011-04-18,0,-1.5323841375386167e-05,0.0003002529179758419,-0.007981262812785831,0.010183192694613916,0.9884635865317712
2011-04-20,0,-3.2147723284790515e-05,0.00029829192937719565,-0.007981262812785831,0.011810001993439158,0.9884793866916154
2011-04-25,-1,-0.0008394467552084977,-0.0003557778773385014,-0.009180534017937747,0.011810001993439158,0.9879571110360469
2011-04-27,-1,-0.0007875886349040138,-0.0003645511989386833,-0.007981262812785831,0.011810001993439158,0.9882063378080106
2011-04-29,1,0.0011163238042443107,0.0012852763760405114,-0.007024800364829673,0.011810001993439158,0.9916248931851571
2011-05-03,0,0.0,0.0,-0.007024800364829673,0.011810001993439158,0.990804848917003
2011-05-05,0,0.0,0.0,-0.007024800364829673,0.009652765944753679,0.9906728641176357
2011-05-09,1,0.0016835822592731367,0.001862723573708603,-0.007024800364829673,0.006668424400229788,0.9920835346178726
2011-05-11,1,0.002927126023599056,0.0029821158631451426,-0.0089101456078113,0.005250233497239251,0.9914957271205372
2011-05-13,0,0.0,0.0,-0.007024800364829673,0.005250233497239251,0.9917640277964995
2011-05-17,1,0.0020132242723740405,0.002061711660606253,-0.008462345545350507,0.006607296150632211,0.9912813539729055
2011-05-19,1,0.0019658165495625886,0.0019782616732978817,-0.008462345545350507,0.00550247846106747,0.9915920765290684
2011-05-23,1,0.0009621689931807051,0.0010813868123328882,-0.002905346055668213,0.006607296150632211,0.9915908917957722
2011-05-25,1,0.0011467641939649422,0.0012322743386810895,-0.009470505388764781,0.006607296150632211,0.9907905235998928
2011-05-27,1,0.0030863917479455063,0.0033896863445390863,-0.009470505388764781,0.00550247846106747,0.9911181462703232
2011-06-01,0,0.0,0.0,-0.006559751231267385,0.004555539152839429,0.9922186402944059
2011-06-03,0,0.0,0.0,-0.005370575558135084,0.004555539152839429,0.9929571945403556
2011-06-07,0,0.0,0.0,-0.008031154701563199,0.00398817978496934,0.9919019947627562
2011-06-09,0,0.0,0.0,-0.008031154701563199,0.005961105421194113,0.99189782020175
2011-06-13,0,0.0,0.0,-0.0113942616769768,0.005961105421194113,0.9905824426838482
2011-06-15,0,0.0,0.0,-0.009470505388764781,0.005961105421194113,0.9905860927011916
2011-06-17,0,0.0,0.0,-0.009470505388764781,0.0042769941654485655,0.9907303088041729
2011-06-21,0,0.0,0.0,-0.009470505388764781,0.0042769941654485655,0.991379195320299
2011-06-23,0,0.0,0.0,-0.007173806081054518,0.008004678203804343,0.9914994481327958
2011-06-27,0,0.0,0.0,-0.007173806081054518,0.00854637836618823,0.9911965905549176
2011-06-29,1,7.16635458457792e-05,7.61203908194459e-05,-0.009251067868351122,0.009618605077896417,0.9877504300308259
2011-07-01,1,0.00046703085319708645,0.0006379175241837426,-0.015498139233353869,0.00854637836618823,0.9857502878157841
2011-07-06,0,0.0,0.0,-0.016087448112590004,0.00854637836618823,0.985680340052995
2011-07-08,0,0.0,0.0,-0.020929619170873142,0.008768130015779967,0.9838133999612283
2011-07-12,-1,-0.0043317772592560535,-0.003538527258077759,-0.021846196216725296,0.011080654821397168,0.9810021162531387
2011-07-14,-1,-0.0018484278416387005,-0.0014907079802130095,-0.025152652115369076,0.011080654821397168,0.9802285137516026
2011-07-18,-1,-0.00284710691844682,-0.0023282183074686083,-0.025152652115369076,0.013448924337734003,0.9792822486309675
2011-07-20,-1,-0.0027413338095334905,-0.0022320441681945528,-0.025152652115369076,0.013448924337734003,0.9795445220012695
2011-07-22,0,0.0,0.0,-0.029104396893197,0.013448924337734003,0.978454832450912
2011-07-26,0,0.0,0.0,-0.029104396893197,0.014320224713060008,0.9778054424330779
2011-07-28,0,0.0,0.0,-0.025335057061221605,0.01144003675738068,0.9806096567549792
2011-08-01,-1,-0.0013067197383362524,-0.0009929602436038396,-0.01061284426321089,0.014320224713060008,0.9818172851484697
2011-08-03,-1,-0.0018232248606982427,-0.001442541107104678,-0.002470421198737682,0.015250345655713878,0.9816742773537692
2011-08-05,-1,-0.002659558247124298,-0.0021634654457737823,-0.007608619438395567,0.014320224713060008,0.9826351931378876
2011-08-09,-1,-0.0034702807255302974,-0.002909258969176807,-0.007547216172624315,0.014320224713060008,0.9840180486252611
2011-08-11,-1,-0.003706320048833116,-0.0031501981174283126,-0.007547216172624315,0.011499977111816407,0.9848270470973515
2011-08-15,-1,-0.0028669550320544112,-0.0024546350476146814,-0.007547216172624315,0.012231344208589788,0.9846751755785889
2011-08-17,-1,-0.0024303831940330712,-0.00208898389979093,-0.007547216172624315,0.017516232505520785,0.9819380148905165
2011-08-19,-1,-0.0033492989682345044,-0.002909961708872654,-0.0064241069074371425,0.018585856559328547,0.9826342533365378
2011-08-23,-1,-0.0022078658426627866,-0.001920694484472608,-0.008264365346802792,0.017516232505520785,0.9833709590805549
2011-08-25,-1,-0.002307174103637827,-0.002007104836729712,-0.01169509640813556,0.017516232505520785,0.9822410563141666
2011-08-29,-1,-0.0016194684118831636,-0.0013993407426249568,-0.01169509640813556,0.017970439879856574,0.9823606851690835
2011-08-31,-1,-0.0011516183171217083,-0.0009761052846323802,-0.013133847234406911,0.014766129860382544,0.9821455790051234
2011-09-02,-1,-0.002132130970148022,-0.0018418752393277848,-0.013767200726588545,0.014766129860382544,0.982069717034263
2011-09-07,0,0.0,0.0,-0.013767200726588545,0.018177049600213373,0.9818878453357333
2011-09-09,-1,-0.004567644157210935,-0.003981710346041116,-0.01315619926693164,0.019948478682335916,0.9806158555595249
2011-09-13,-1,-0.002893023063838057,-0.002534449554148029,-0.01315619926693164,0.02019498998177595,0.9811574002972273
2011-09-15,0,0.0,0.0,-0.01315619926693164,0.018177049600213373,0.9833777829106659
2011-09-19,0,0.0,0.0,-0.01315619926693164,0.0142913866206672,0.9836464308395565
2011-09-21,0,0.0,0.0,-0.012969756306558526,0.016405082125983884,0.9837168837989761
2011-09-23,0,0.0,0.0,-0.011510575572382688,0.018177049600213373,0.9840468347678711
2011-09-27,1,0.001924341628534869,0.0021659305895645052,-0.012969756306558526,0.016405082125983884,0.9836470944474393
2011-09-29,1,0.0023921993608445715,0.002754433837026564,-0.011510575572382688,0.016405082125983884,0.984092084390181
2011-10-03,0,0.0,0.0,-0.010578760367306506,0.018170221385568147,0.9842860470723994
2011-10-05,0,0.0,0.0,-0.01078365369468789,0.015946330689064394,0.9844446347432669
2011-10-07,0,0.0,0.0,-0.01078365369468789,0.015946330689064394,0.9849372247038689
2011-10-11,1,0.0031907735901931544,0.003616010988886846,-0.01078365369468789,0.013155145670537619,0.9859320708750346
2011-10-13,1,0.0014156842752490301,0.0016761425510737975,-0.011604978013529535,0.013155145670537619,0.9850396658004498
2011-10-17,1,0.0015448139687013617,0.0018330859591255005,-0.011185070535679503,0.015946330689064394,0.9846159055189134
2011-10-19,1,0.0018761168656597877,0.002240153905048953,-0.011185070535679503,0.013155145670537619,0.9849179112002812
2011-10-21,1,0.002422974404173679,0.0028403927531580266,-0.011415134157381514,0.011505506647222854,0.9855193595299828
2011-10-25,1,0.0019697105365638484,0.0023149870646296273,-0.011415134157381514,0.011505506647222854,0.9857966363045028
2011-10-27,1,0.0026563581433516844,0.0030984077352870045,-0.013925276427384177,0.010590061137622902,0.9855939022836482
2011-10-31,1,0.0024799525318487405,0.002863032177151059,-0.013925276427384177,0.010590061137622902,0.9854651469646751
2011-11-02,1,0.0017059438313600833,0.001979836975196152,-0.011415134157381514,0.010590061137622902,0.9864434678750091
2011-11-04,1,0.0018060406345493897,0.0020822251923735035,-0.007065005274365616,0.008934664821224517,0.9877662565705337
2011-11-08,1,0.0018287624320712608,0.0021196719376294364,-0.007065005274365616,0.008934664821224517,0.9878929735722489
2011-11-10,1,0.0017696358900443675,0.002085521443372161,-0.005628827114215349,0.007971626072108566,0.9895074510505758
2011-11-14,1,0.0020038569056913067,0.002323661129065486,-0.008136488985726567,0.005804754887071184,0.9897610756992692
2011-11-16,0,0.0,0.0,-0.007269849187136969,0.005598753779243411,0.9905810454140916
2011-11-18,1,0.0013610181185255373,0.0016140619279884374,-0.0061594850099877495,0.0037277539931289895,0.9913441723816396
2011-11-22,1,0.0007999718735153833,0.0009864797007169512,-0.002361284449710792,0.005472604450325884,0.9922853521221783
2011-11-25,1,0.00038910266811639863,0.0005061140362063712,-0.0011237727951937282,0.006625266271123623,0.9926293379913149
2011-11-29,1,0.0008986266428411022,0.001076265279650792,-0.002361284449710792,0.005472604450325884,0.9934171356475177
2011-12-01,0,0.0,0.0,-0.0031631261314847446,0.004306840881260022,0.9948516111613793
2011-12-05,0,0.0,0.0,-0.005739194129633923,0.004306840881260022,0.9946704510218345
2011-12-07,0,0.0,0.0,-0.005739194129633923,0.005472604450325884,0.9942760232172637
2011-12-09,0,0.0,0.0,-0.0064771427405686055,0.004649011711886759,0.9940296198981163
2011-12-13,0,0.0,0.0,-0.004472700585621258,0.004649011711886759,0.9947975945170511
2011-12-15,0,0.0,0.0,-0.0029545693141275102,0.0065460242603241365,0.9946877164265937
2011-12-19,0,0.0,0.0,-0.0029545693141275102,0.006817991636350374,0.99369733236423
2011-12-21,0,0.0,0.0,-0.004472700585621258,0.006817991636350374,0.9935054055516147
2011-12-23,1,0.0013201521657405786,0.0014651097121519204,-0.005739194129633923,0.006817991636350374,0.990947071193086
2011-12-28,1,0.00025828653520739884,0.0005328611964108232,-0.004472700585621258,0.008172121614439445,0.990968121797837
2011-12-30,-1,-0.0012671110199077413,-0.0008415020677407276,-0.0029545693141275102,0.008956516791240774,0.9904372346666457
2012-01-04,-1,-0.0021484614845020565,-0.0016172314802303564,-0.0029545693141275102,0.008956516791240774,0.9900329168702561
2012-01-06,-1,-0.0021047811158968694,-0.001602025400297168,-0.0050655630901217585,0.009817532177011309,0.9886136573029076
2012-01-10,-1,-0.002547071936055156,-0.0019825601634283927,-0.002759719803474184,0.010014620581959954,0.988333679640742
2012-01-12,-1,-0.0031749567311853896,-0.0024985954915038187,-0.004014493751292975,0.010385987393753562,0.9870857633611713
2012-01-17,-1,-0.0015609673907850674,-0.0011225893998140768,-0.006968414746960983,0.01045228549444458,0.9876600042009774
2012-01-19,-1,-0.0012076357157562426,-0.0007527345085329674,-0.006968414746960983,0.010542291713752016,0.987422938540984
2012-01-23,-1,-0.0014454037294435319,-0.0009670058493621058,-0.006968414746960983,0.011183390217552363,0.9856322176314778
2012-01-25,-1,-0.0018930449513224366,-0.0014683629304653078,-0.0059282264153136125,0.011183390217552363,0.9886017639502273
2012-01-27,-1,-0.0026382712134165568,-0.002027341574121331,-0.0059282264153136125,0.01313516583928509,0.9887449411867698
2012-01-31,-1,-0.0017420848500186968,-0.0012848342016798494,-0.006202308980584607,0.01313516583928509,0.9895015151924588
2012-02-02,-1,-0.0016181601684394067,-0.0012653372284172658,-0.005912334707032461,0.015010741861581342,0.9891215009153209
2012-02-06,-1,-0.0005985395084476425,-0.00039913071891554985,-0.003963140539092119,0.014921012729645376,0.9900387142929152
2012-02-08,1,0.0004000785908839937,0.00040516802372014333,-0.003963140539092119,0.014921012729645376,0.9903090879785453
2012-02-10,1,0.0006921126033759884,0.0007374832329091437,-0.005912334707032461,0.01313516583928509,0.9900760340611763
2012-02-14,1,0.0002482595502845124,0.00030042000479874227,-0.003963140539092119,0.011660360807761068,0.9907136018114034
2012-02-16,1,0.0005710291958470079,0.0006290396619808038,-0.003963140539092119,0.004405929443511433,0.9920899234931128
2012-02-21,1,0.0010115911527596709,0.0010298811590903761,-0.002468668240159857,0.0029934456974075978,0.9939361773949807
2012-02-23,1,0.0006549698248415308,0.0006884069645150311,-0.0020584449123513034,0.0029934456974075978,0.9943040782111803
2012-02-27,1,0.00026465056745335444,0.0004033028899434179,-0.0020337844878459124,0.003897612981750278,0.994724493025024
2012-02-29,1,0.0007026590470430455,0.0007029542670878872,-0.0020337844878459124,0.004652838008214036,0.993905782502003
2012-03-02,1,0.0010671212835627738,0.001122339578065583,-0.0020337844878459124,0.0040093825161707725,0.9945917571608879
2012-03-06,1,0.001683143116705447,0.0018402613770082572,-0.0015377657375334366,0.003656438926005735,0.9953485032851641
2012-03-08,1,0.0014701350061788142,0.0015942047789077353,-0.0024798132474951502,0.003656438926005735,0.9945632233054358
2012-03-12,1,0.0006996930853218537,0.0007117386947531527,-0.0024798132474951502,0.003656438926005735,0.9946991405121246
2012-03-14,0,0.0,0.0,-0.0024798132474951502,0.003935277546063031,0.9944978248217313
2012-03-16,0,0.0,0.0,-0.006305972365080758,0.003935277546063031,0.9936778983537112
2012-03-20,-1,-0.00011048611047897311,-0.00010191054903278623,-0.009411549691739615,0.0040093825161707725,0.9920799410126317
2012-03-22,1,0.0008078187772503532,0.0008255083693589707,-0.009411549691739615,0.0040093825161707725,0.9918590963576805
2012-03-26,0,0.0,0.0,-0.009479027253511563,0.0036467527171122776,0.9919839886249119
2012-03-28,0,0.0,0.0,-0.008502165028090796,0.0036467527171122776,0.9901360327789223
2012-03-30,0,0.0,0.0,-0.008502165028090796,0.0025148031874880463,0.9899747331096117
2012-04-03,1,0.0004995151514005002,0.0006306894180135779,-0.008502165028090796,0.004323497834388915,0.9894310849585828
2012-04-05,0,0.0,0.0,-0.008502165028090796,0.004323497834388915,0.9895517560608229
2012-04-10,-1,-0.0005034435053213505,-0.0003433354357147046,-0.00543045328820624,0.005380496603407011,0.9909154659191813
2012-04-12,-1,-0.00021321483663186587,-6.407175671602157e-05,-0.006504162654025766,0.0028671361104940785,0.9902371697585745
2012-04-16,0,0.0,0.0,-0.006504162654025766,0.005380496603407011,0.9897278108215277
2012-04-18,0,0.0,0.0,-0.006115406254004376,0.005172011327549221,0.9909166572777073
2012-04-20,0,0.0,0.0,-0.009008580934642216,0.005172011327549221,0.9894001308248216
2012-04-24,0,0.0,0.0,-0.007774834172806099,0.005380496603407011,0.9888389710450417
2012-04-26,0,0.0,0.0,-0.010438908293437025,0.005380496603407011,0.990907057992713
2012-04-30,0,0.0,0.0,-0.010438908293437025,0.005962069408576509,0.9903013336588071
2012-05-02,0,0.0,0.0,-0.012647747507759034,0.005698991102513412,0.9895377851519989
2012-05-04,0,0.0,0.0,-0.018389708613547752,0.005698991102513412,0.9889611668068504
2012-05-08,0,0.0,0.0,-0.018389708613547752,0.006594694472696257,0.9868416052188307
2012-05-10,0,0.0,0.0,-0.018389708613547752,0.007556995088167266,0.9868413544936306
2012-05-14,0,0.0,0.0,-0.018389708613547752,0.008916211008455115,0.9862961301589854
2012-05-16,-1,-0.0014327400301893576,-0.0010517522142854383,-0.018389708613547752,0.008916211008455115,0.9866465526202345
2012-05-18,0,0.0,0.0,-0.011363770236954675,0.013704641873723049,0.9862784716837928
2012-05-22,-1,-0.0019257909992094842,-0.0015997063182662252,-0.012304275527271877,0.008916211008455115,0.9863826140245906
2012-05-24,-1,-0.002197099799343403,-0.0018281285316618955,-0.012304275527271877,0.009321728833446691,0.986363854347617
2012-05-29,-1,-0.0013270334788234683,-0.0010595078424571521,-0.01471659479912497,0.008994612669400827,0.9859160669762344
2012-05-31,0,0.0,0.0,-0.012304275527271877,0.008994612669400827,0.9864429866528743
2012-06-04,0,0.0,0.0,-0.012304275527271877,0.011668840634165794,0.9857092978854674
2012-06-06,0,0.0,0.0,-0.012304275527271877,0.008994612669400827,0.9867806571860318
2012-06-08,0,0.0,0.0,-0.012304275527271877,0.008994612669400827,0.9867702543269729
2012-06-12,1,3.1176361746436396e-05,5.8093354847473685e-05,-0.012304275527271877,0.007135165412377209,0.9872466871015864
2012-06-14,-1,-0.0007145909830726742,-0.0005777727646850152,-0.010844664069229919,0.008994612669400827,0.9870004900986201
2012-06-18,-1,-0.0011323441527384174,-0.0008142186906058493,-0.01297438318444931,0.008871167927396516,0.9876040643488171
2012-06-20,-1,-0.00159719957674409,-0.0012609447372428312,-0.011785594933116764,0.012767030695233687,0.9865654536758508
2012-06-22,-1,-0.0016259991697265717,-0.0013091263874511,-0.015969057559206534,0.012767030695233687,0.9859314666554508
2012-06-26,-1,-0.002499918179543848,-0.002067168361151335,-0.013788013465826858,0.017336425899024045,0.9845278135808965
2012-06-28,-1,-0.0024397456060095014,-0.0020506553973800162,-0.013788013465826858,0.017336425899024045,0.9844008679582006
2012-07-02,-1,-0.0020393185775855324,-0.0017039187312791388,-0.013085606330959672,0.014005062301123333,0.985521963820556
2012-07-05,-1,-0.001440338152688837,-0.0011792570458710426,-0.013085606330959672,0.011384067446070213,0.9863570040741821
2012-07-09,-1,-0.00233833617383111,-0.001981589879914201,-0.013085606330959672,0.011384067446070213,0.9867176935764369
2012-07-11,-1,-0.0023854287052144205,-0.002073363706729682,-0.009474741919716641,0.014005062301123333,0.9865358521210598
2012-07-13,-1,-0.0016072848632658556,-0.0014094921940043087,-0.009474741919716641,0.011384067446070213,0.9869354482210754
2012-07-17,-1,-0.0018936969497205607,-0.0016538470657204412,-0.009474741919716641,0.00906204507991595,0.9872852573481088
2012-07-19,-1,-4.496299815939034e-05,-3.5076430064312166e-05,-0.009474741919716641,0.006360874591945829,0.9882288985601427
2012-07-23,-1,-0.0014213050616813131,-0.0012570556241494257,-0.006707939547772233,0.006360874591945829,0.9896366026229458
2012-07-25,1,0.000683842197057159,0.0008212804591003304,-0.006190160221556756,0.005750065886513081,0.9925701130065736
2012-07-27,1,0.0007951513669405501,0.0009799061450113914,-0.00523955620472152,0.004772032418114754,0.9929603157390571
2012-07-31,1,0.0012473363992247873,0.0014900976199348145,-0.00523955620472152,0.0026830262579018113,0.9933318229890199
2012-08-02,1,0.0004962959517526314,0.0005735847563988523,-0.00523955620472152,0.004772032418114754,0.992903644208118
2012-08-06,1,0.0002048437934768601,0.0002562676049256953,-0.004215138433447926,0.0030021870931776404,0.9937693316297898
2012-08-08,1,0.0005941430515295008,0.0006976919349242364,-0.0038172060906801046,0.0030021870931776404,0.9935463047487794
2012-08-10,1,0.0007514518897803885,0.0008733304281520494,-0.0038172060906801046,0.002493056668401004,0.9935951168390698
2012-08-14,1,0.000477957495371012,0.0005658968755477945,-0.002989238674106693,0.0037648467223427,0.9941152071257483
2012-08-16,1,0.0009662350679826053,0.0011370748499517922,-0.0028285729449965646,0.004840968477650039,0.9939989565711742
2012-08-20,1,0.0006722174566785287,0.0007876259913967034,-0.0038172060906801046,0.004840968477650039,0.993552863837113
2012-08-22,1,0.0006775622772807195,0.0008146989896697749,-0.004620462988858149,0.007469651432251392,0.9927884883990423
2012-08-24,1,0.0006731788762545465,0.0008071277213445608,-0.007211901538031766,0.008945048230282741,0.9904228384719002
2012-08-28,1,0.0004197048739639534,0.0004922526087993267,-0.007823393688649379,0.008945048230282741,0.9895939363491659
2012-08-30,-1,-0.00020181789735371938,-0.00014678591565451185,-0.007211901538031766,0.008945048230282741,0.9898998226305163
2012-09-04,1,0.0001404827423769995,0.00015096170680095405,-0.007211901538031766,0.008945048230282741,0.9896653752861978
2012-09-06,1,0.0008108223113538253,0.0008743069300589056,-0.007211901538031766,0.008945048230282741,0.9905343799722373
2012-09-10,1,0.0008031741301434965,0.00089893650351075,-0.007211901538031766,0.008945048230282741,0.9904616559812135
2012-09-12,1,0.0011322907178525291,0.0012681889285403143,-0.00802386882652334,0.008945048230282741,0.9900085417203871
2012-09-14,1,0.0016719529222480585,0.0018640676812755493,-0.00802386882652334,0.003826881286242254,0.9907806550765127
2012-09-18,1,0.0021964645319734084,0.0025649759687121337,-0.007422470234925117,0.006553069681499567,0.9910182059842715
2012-09-20,1,0.0022506755984484433,0.002628809529922942,-0.006601347416874822,0.004821508434320005,0.9915860132029035
2012-09-24,1,0.003221729800002209,0.0037412658397362767,-0.006601347416874822,0.004011547087706515,0.9932657376569567
2012-09-26,1,0.002389878395348396,0.002770671772854326,-0.006601347416874822,0.004821508434320005,0.9922160988819175
2012-09-28,1,0.0025461871275355282,0.0029567303509103002,-0.007669142474451389,0.004821508434320005,0.9898737593526534
2012-10-02,1,0.0018634531565755712,0.0021243896817947153,-0.007669142474451389,0.006925382458966863,0.9887691642980548
2012-10-04,1,0.002055360276440316,0.0023335658775174247,-0.00844082894205064,0.0059251049591456635,0.9885679007700275
2012-10-08,1,0.0017694437029176458,0.0020047555858700183,-0.007105248478934177,0.008721565006234938,0.9885398237859323
2012-10-10,1,0.0006158996954086904,0.0006277080152026169,-0.007105248478934177,0.008721565006234938,0.9887005708550657
2012-10-12,1,0.0009666808708254112,0.001058514764833433,-0.007105248478934177,0.008721565006234938,0.9884836747375495
2012-10-16,1,0.0014693333883635507,0.001620543638923812,-0.008066915906526698,0.006268616969979426,0.9886945785542909
2012-10-18,1,0.0015959249115846423,0.0018067776009839378,-0.008066915906526698,0.00850708623527586,0.9887373622308887
2012-10-22,1,0.0011205619346190555,0.0012388576547263579,-0.005309341360789755,0.008871334881018307,0.9890770250875855
2012-10-24,1,0.0014643212290952425,0.0015757564661218822,-0.0033047477551164774,0.008871334881018307,0.9904674038544363
2012-10-26,1,0.002366284258686143,0.0026902732025328715,-0.0033047477551164774,0.00824996617314159,0.9925960913822862
2012-11-01,1,0.0030848088113811585,0.0034732729001404074,-0.0033047477551164774,0.0075846296454446325,0.9936723968224664
2012-11-05,1,0.0026745289105314088,0.002988236259640548,-0.003293314612739068,0.006087310199162934,0.994060501161882
2012-11-07,1,0.002518368494025805,0.0027806634048495637,-0.003293314612739068,0.006087310199162934,0.9935802384017952
2012-11-09,1,0.002575277362569624,0.0029002645617068647,-0.002836828074583191,0.006087310199162934,0.9939887005192222
2012-11-13,1,0.0022183300352831767,0.002450978985252601,-0.0032416047673215504,0.003223179364526797,0.9941668108937954
2012-11-15,1,0.0018575902548846526,0.0020372216347175295,-0.003815213726332595,0.003223179364526797,0.9942999728269055
2012-11-19,1,0.001820942379010059,0.0019685659019250605,-0.003815213726332595,0.005042313773461101,0.9941899879816755
2012-11-21,1,0.0018781839146038975,0.0020169629616925725,-0.0042526147264463415,0.005042313773461101,0.9936045605910417
2012-11-26,1,0.002369452903958215,0.002580335958819062,-0.004543888055317825,0.0038120450933170555,0.9939459014573133
2012-11-28,1,0.002429360303403365,0.002668906031309954,-0.004543888055317825,0.0038120450933170555,0.9939228267044147
2012-11-30,1,0.001756593133272096,0.0018484028503308759,-0.005035531293831413,0.00567584500737588,0.9921381021854243
2012-12-04,1,0.0009744802244201843,0.0010243773856001214,-0.005035531293831413,0.00948867842500727,0.9919563615247501
2012-12-06,1,0.0013516959855566226,0.001361769032029483,-0.004388758519065271,0.00633268071644461,0.9927990314634266
2012-12-10,1,0.001015104718368737,0.0010617801884123413,-0.005035531293831413,0.006491029498844555,0.9921708756001252
2012-12-12,1,0.0014218473238225074,0.0014913966587469553,-0.005035531293831413,0.00955101234319691,0.9915753725635464
2012-12-14,1,0.00041999656591535175,0.0005344455989414774,-0.0038569114541846727,0.00955101234319691,0.9916090593842039
2012-12-18,1,0.0015929174936798736,0.0017115372264942274,-0.0038569114541846727,0.009359866602643822,0.9922597021008077
2012-12-20,1,0.0013438653365301554,0.001404930102029995,-0.0038569114541846727,0.009359866602643822,0.9917078743178375
2012-12-24,1,0.0013778957263400583,0.001461539902480817,-0.0026659027041287114,0.009359866602643822,0.9918792853745254
2012-12-27,1,0.0011595043555523996,0.0011885211818911511,-0.0026659027041287114,0.007810202270737704,0.9921313527272106
2012-12-31,1,0.0013343723975595006,0.0013623466881928883,-0.0026659027041287114,0.00707258182784482,0.9939776657263973
2013-01-03,1,0.0014653739164976818,0.0015290148661273035,-0.002671039516595291,0.00707258182784482,0.994008413206341
2013-01-07,1,0.001694614085836977,0.001791674322369311,-0.003143535701583522,0.007530574603984389,0.9932258534690128
2013-01-09,1,0.0011489473099895308,0.0011602126419040946,-0.003143535701583522,0.008520983602383875,0.9929560431643777
2013-01-11,1,0.001791482963867629,0.0018979791143564299,-0.003143535701583522,0.007530574603984389,0.993481868722816
2013-01-15,0,0.0,0.0,-0.003143535701583522,0.007530574603984389,0.9932845302024651
2013-01-17,0,0.0,0.0,-0.003143535701583522,0.007302582947483584,0.9932196064297211
2013-01-22,0,0.0,0.0,-0.003143535701583522,0.007302582947483584,0.9935518325260468
2013-01-24,0,0.0,0.0,-0.003611430604534847,0.008607230929201357,0.9928501215637178
2013-01-28,0,0.0,0.0,-0.004459098910629575,0.008607230929201357,0.991787653489311
2013-01-30,0,0.0,0.0,-0.0035710899256324443,0.009812964080902688,0.9907762569968158
2013-02-01,0,0.0,0.0,-0.002934470268739036,0.009812964080902688,0.9909167364544359
2013-02-05,1,0.0017609037470965724,0.0018257678109439629,-0.0015854227962077496,0.008124546489176224,0.9921778041009381
2013-02-07,1,0.001827533173480232,0.0019164247645133451,-0.0015854227962077496,0.007534264325820959,0.992708026358285
2013-02-11,1,0.0024227479756793084,0.0026280244700418176,-0.003821655976282966,0.006234711616879658,0.9925411459515935
2013-02-13,1,0.0019256414792127835,0.002027323527599295,-0.003821655976282966,0.006234711616879658,0.9928142378849333
2013-02-15,1,0.0020847046404237355,0.002199989656434537,-0.006370619731818905,0.006234711616879658,0.9923243312234846
2013-02-20,1,0.002268251756129683,0.002444153251918828,-0.004799077242931975,0.006234711616879658,0.992803721702182
2013-02-22,1,0.0021321509747147986,0.002249740706749241,-0.0033536736499823554,0.006234711616879658,0.9930671268061975
2013-02-26,1,0.0014961845767841092,0.0015363772864899186,-0.0033536736499823554,0.0038945194169354457,0.994325635535427
2013-02-28,1,0.0019528848727575943,0.00203632123535966,-0.0033536736499823554,0.003863151239012006,0.9951158429729865
2013-03-04,1,0.002220825415383021,0.002363882453933709,-0.0045059838653298085,0.0023389582384008762,0.9950731356984615
2013-03-06,1,0.0021523342675641164,0.002263840161272929,-0.005061438848220916,0.00211797217270294,0.9945157869059769
2013-03-08,1,0.0015075679095792772,0.0015168070319548956,-0.005043044792556362,0.0027708936890374998,0.9945587633637518
2013-03-12,1,0.0010196728118891255,0.0010922395040643784,-0.0045059838653298085,0.0074059751547441485,0.9941577404592055
2013-03-14,1,0.0012508673806342929,0.0012710402073339237,-0.005043044792556362,0.0074059751547441485,0.9934422252650142
2013-03-18,1,0.0005241768888094897,0.0006413745607739365,-0.005043044792556362,0.007574769935169081,0.991697859610357
2013-03-20,1,0.0006401964162111485,0.0007559138881315248,-0.006805157309463158,0.0074059751547441485,0.9907629943349171
2013-03-22,1,0.0016924495464794246,0.0017214818457095497,-0.006805157309463158,0.0074059751547441485,0.9911007137034054
2013-03-26,1,0.001404493665100397,0.001430967725376725,-0.012115150096944877,0.0074059751547441485,0.9868177486102016
2013-03-28,0,0.0,0.0,-0.012115150096944877,0.007313157589950803,0.9867473488733733
2013-04-02,0,0.0,0.0,-0.012115150096944877,0.007574769935169081,0.9862465510700733
2013-04-04,1,0.0013225793482998234,0.0013385008445994738,-0.012115150096944877,0.008289917755160428,0.9858998144285426
2013-04-08,1,0.0010190305546741395,0.001061947468623976,-0.012115150096944877,0.007886388430576801,0.985946185255441
2013-04-10,1,0.0017211588177964798,0.0017624506902385287,-0.012115150096944877,0.007091052194560628,0.9865548875287731
2013-04-12,1,0.0002513928810993532,0.0002878274854187059,-0.007746776002533712,0.007091052194560628,0.9869438620013307
2013-04-16,1,0.00045273922891861244,0.0005733669381770483,-0.0056001998531463905,0.007091052194560628,0.988519440990558
2013-04-18,-1,-0.0005870430059534709,-0.00035148311069116347,-0.004454561223013586,0.007335755932827692,0.989447542494154
2013-04-22,0,-4.465609624176387e-05,0.00011005155932189729,-0.004454561223013586,0.007134085565515787,0.9893506066149568
2013-04-24,1,0.0007679586992480078,0.0008395307610062858,-0.005334826145686877,0.007134085565515787,0.993161994329463
2013-04-26,1,0.0011483185288921338,0.001182400391215394,-0.005334826145686877,0.007045484027566408,0.9934247131894234
2013-04-30,1,0.0010026870523701494,0.0010647896392887606,-0.005334826145686877,0.007045484027566408,0.9933966940547244
2013-05-02,1,0.0008682977826210926,0.0009347295660727192,-0.005334826145686877,0.006063654330051153,0.993882250882271
2013-05-06,1,0.0008840986719482817,0.0009427038558951326,-0.005334826145686877,0.005476677521517639,0.9939603852986708
2013-05-08,1,0.0002510730965916716,0.00042774699943770963,-0.005932194812631804,0.006077998787036206,0.9927930814786284
2013-05-10,0,0.0,0.0,-0.006162329820169051,0.006077998787036206,0.9928490967017808
2013-05-14,0,0.0,0.0,-0.006162329820169051,0.005476677521517639,0.9934466035039262
2013-05-16,-1,-0.0013329709532449306,-0.0011249562741175037,-0.006162329820169051,0.005476677521517639,0.993188636551167
2013-05-20,0,0.0,0.0,-0.006162329820169051,0.004264523632611907,0.9932121325850553
2013-05-22,0,0.0,0.0,-0.006162329820169051,0.004264523632611907,0.9924183615730253
2013-05-24,1,0.0006260147492567161,0.0008324002957536922,-0.006162329820169051,0.0042706738869190625,0.9922405197830134
2013-05-29,1,0.001211172100650479,0.0013349014551469582,-0.006162329820169051,0.006080870014725139,0.9912420162476718
2013-05-31,1,0.0007867749871007251,0.000964533394217253,-0.004858549976147868,0.006322541255117206,0.9916643109528583
2013-06-04,0,0.0,0.0,-0.004858549976147868,0.006322541255117206,0.991608985799824
2013-06-06,0,0.0,0.0,-0.004226839111047183,0.006322541255117206,0.9923818014972298
2013-06-10,-1,-0.000436783637990697,-0.00025485313527957875,-0.004077253409289513,0.006322541255117206,0.9925746439683755
2013-06-12,-1,-0.0005671634688053847,-0.00037978413736594087,-0.004030660230960064,0.007922391735879504,0.9919234535014357
2013-06-14,-1,-0.0002624808412561482,-0.00010620154892935243,-0.004030660230960064,0.007344169700592942,0.9922879517133851
2013-06-18,1,0.0003607368960441287,0.0004133151760400012,-0.004030660230960064,0.00724427987690507,0.9925042100139567
2013-06-20,-1,-0.0010085401377267322,-0.0007873416552776965,-0.0013817143802983792,0.008265530938808566,0.9933851205540472
2013-06-24,-1,-0.0009551186107972621,-0.0007334290513849782,-0.001059377384474869,0.008265530938808566,0.9936906061028429
2013-06-26,0,-5.399278222488528e-05,6.801055433418155e-05,-0.002426544970260041,0.006289244647221249,0.9908513713204017
2013-06-28,-1,-0.0001768582605911656,-0.00017602059744974307,-0.004152426979652995,0.004971131285260963,0.9909122382729442
2013-07-02,-1,-0.00031850408977351636,-0.00029817810259974035,-0.0019064507395388916,0.007233429846642105,0.9907500912222487
2013-07-05,0,-1.1271069278832516e-05,1.0989263150082033e-05,-0.001059377384474869,0.008265530938808566,0.9905519736370061
2013-07-09,-1,-0.00023240671398095736,-0.00021540864106354355,-0.00011420434844839556,0.008265530938808566,0.9903101777666607
2013-07-11,1,6.062485241113226e-05,8.95884388424855e-05,-0.00011420434844839556,0.008265530938808566,0.9906860152856494
2013-07-15,-1,-0.00019124411498063287,-0.00017429659085294662,0.00029670752363160276,0.006785020391282709,0.9909821645441411
2013-07-17,1,0.00022573337762650083,0.00029042178203035824,-0.00011420434844839556,0.007286531501190952,0.990986765603373
2013-07-19,1,0.0002084747105035659,0.00025468321658307994,-0.0004236738543164269,0.006462303922164493,0.990621442340459
2013-07-23,1,0.0002747179343312341,0.00033982231880412545,-0.0013493190736038117,0.006462303922164493,0.990623734203668
2013-07-25,-1,-0.0008084465280706878,-0.0007486023144449276,-0.0007879712926266481,0.006462303922164493,0.9939366535666304
2013-07-29,-1,-0.0003126483505209751,-0.0003020079646220281,-0.0007879712926266481,0.0070424948355879945,0.9938236239005234
2013-07-31,-1,-0.00012175402647057965,-0.00010910700549521772,-0.0013493190736038117,0.005751689853174376,0.9940461460488726
2013-08-02,1,8.210815678649669e-05,0.00011502605761604046,-0.003239729518924535,0.004812414542217345,0.9948348915458604
2013-08-06,1,0.00011254043659816455,0.0001554673640687057,-0.0033981733876460737,0.004812414542217345,0.9947514266052628
2013-08-08,1,0.00023284304917615452,0.0002938667613524294,-0.0033981733876460737,0.004812414542217345,0.9950568723278245
2013-08-12,1,0.00032368430926184506,0.0004082257955340686,-0.0035484578141790997,0.004817351266977702,0.9941306520750586
2013-08-14,1,0.00041423364724597233,0.0005270343745792115,-0.0035484578141790997,0.004812414542217345,0.9942709143374533
2013-08-16,1,0.00012865041536771422,0.00018215354073416914,-0.0033981733876460737,0.004817351266977702,0.9947435466243217
2013-08-20,1,0.00035738225040285893,0.0004561528264524186,-0.0033981733876460737,0.005528546320989149,0.9936760782015464
2013-08-22,1,0.0002486229033543412,0.0003212850631063097,-0.003239729518924535,0.007261757051514106,0.9938349384872636
2013-08-26,1,0.00025234624794418317,0.0003317963929399909,-0.003289252293499563,0.006382466516551529,0.9940097705919505
2013-08-28,1,0.0004131417421688711,0.0005197840666328472,-0.0025511873491969594,0.006382466516551529,0.9945102689032176
2013-08-30,1,0.0003728259248682516,0.0004866884113808499,-0.0021521941372575322,0.006382466516551529,0.9944424933962083
2013-09-04,1,0.0001796637731608255,0.00024365335904087579,-0.0021521941372575322,0.007474632549144135,0.9934075667726164
2013-09-06,1,0.0005018206499345886,0.0006229703603738087,-0.0023132551268399823,0.008491838617405684,0.9931499658616304
2013-09-10,-1,-6.130659278290749e-05,-6.127588826847964e-05,-0.0025304213504576158,0.007474632549144135,0.9930525349572843
2013-09-12,1,0.00041017255404563407,0.000500450569681363,-0.0033047084298079917,0.008491838617405684,0.9921507781381114
2013-09-16,1,0.000304409242073948,0.00035515584627251556,-0.0033047084298079917,0.008714515310648057,0.992002048307402
2013-09-18,1,0.0009517856254608156,0.001069203249712683,-0.003915562721407521,0.007548858113558259,0.9924120088840975
2013-09-20,1,0.0012238665778365244,0.0013874541691166918,-0.003915562721407521,0.0035035199539480543,0.9928878457740637
2013-09-24,1,0.0008616553036441691,0.0009692093023163947,-0.003915562721407521,0.004248818320032348,0.9925339976237092
2013-09-26,1,0.0006709254862184472,0.0007440234859202739,-0.003915562721407521,0.006670115525513529,0.9911295392706214
2013-09-30,1,0.0005981162931557165,0.0006694622951041995,-0.003915562721407521,0.007865853602407945,0.9907951935385111
2013-10-02,1,0.0009435238584542659,0.0010453164807272815,-0.004979690616591417,0.006483087228212719,0.9916093737807161
2013-10-04,1,0.00128464864181834,0.0014452406537758748,-0.004979690616591417,0.00500448205105915,0.9919086737308931
2013-10-08,1,0.0005934016624943015,0.0006716106225642666,-0.002523953321926143,0.005367893652133971,0.9928801489946864
2013-10-10,1,0.0011884511026348835,0.001358703054696786,-0.002197980814690237,0.0047656106453545025,0.9939202615949903
2013-10-14,1,0.0011206772911069088,0.0012541833920948458,-0.002197980814690237,0.005367893652133971,0.9937042393483878
2013-10-16,1,0.0009958866954864567,0.001133560431810991,-0.0018740335741684881,0.006108055316733141,0.9936847745430338
2013-10-18,1,0.0010179727023297807,0.0011589108428100823,-0.0008787894898092156,0.006553729570668403,0.9931986284196165
2013-10-22,1,0.0007831900520660736,0.0008806403484038352,-0.002131427466669915,0.006553729570668403,0.9932038563721706
2013-10-24,1,0.0013297173820753486,0.0014865921549001675,-0.002131427466669915,0.006553729570668403,0.994249836842877
2013-10-28,1,0.0011566842202130785,0.0012896216355725296,-0.0015443864364870171,0.006430360062137629,0.9946077922841768
2013-10-30,1,0.0009596019521545783,0.0010514854030559007,-0.0015443864364870171,0.006430360062137629,0.9948561695180185
2013-11-01,1,0.0008995487594262047,0.0009734650687354717,-0.0015964622210810733,0.006430360062137629,0.9947120244592251
2013-11-05,1,0.0009602987080936053,0.001050607054356009,-0.0023542081684724053,0.006430360062137629,0.9942535350435525
2013-11-07,1,0.0009309038966869682,0.0010256035231610756,-0.0015964622210810733,0.00790940266197699,0.9936492928203909
2013-11-11,1,0.0009305469116119785,0.00098674382792768,-0.0033404788188391727,0.006147450406501378,0.9936647405575707
2013-11-13,1,0.0012908925797652092,0.001403361982439868,-0.003951971808233739,0.0049156767215995795,0.9934792072041851
2013-11-15,1,0.0018285728158487428,0.002048867465126566,-0.003951971808233739,0.0046566873241583795,0.9939528206844772
2013-11-19,1,0.0012807647142909482,0.001420266267608117,-0.0033404788188391727,0.005024516592683555,0.9943575298374405
2013-11-21,1,0.0015291306294109373,0.0016946652779057632,-0.003904883125641349,0.0046566873241583795,0.9944847974719229
2013-11-25,1,0.0015374958352912472,0.0017146093708504684,-0.003904883125641349,0.0047721077379773045,0.9939550888996834
2013-11-27,1,0.001385381314003211,0.0015368787265717095,-0.003904883125641349,0.0047721077379773045,0.9942341941650059
2013-12-02,1,0.001506358150609597,0.001688477461376066,-0.003904883125641349,0.0046566873241583795,0.9944858171225699
2013-12-04,1,0.0013045467935973846,0.001457488846522445,-0.003904883125641349,0.0046566873241583795,0.9940846568071426
2013-12-06,1,0.0017630647909519601,0.0019826412319473513,-0.0043436139539061065,0.0040425854023806145,0.9945203572919563
2013-12-10,1,0.0015047146021112399,0.0016997113458943433,-0.003177408781775172,0.004263335833559056,0.9947104899762298
2013-12-12,1,0.0014135376806450142,0.001591647940537661,-0.0037908581778463655,0.004263335833559056,0.9946019662135818
2013-12-16,1,0.000534185260902123,0.0006155223458296149,-0.0043436139539061065,0.004269916376294006,0.9936215031285577
2013-12-18,1,0.0006791428496666768,0.0007556465784951242,-0.0043436139539061065,0.004173613836776047,0.9938616261302585
2013-12-20,1,0.00036702231444447604,0.00043404500799310854,-0.004487975491880687,0.0045029417476282795,0.9916442340788859
2013-12-24,1,0.0007792688796138472,0.000815999343691465,-0.006441696060286223,0.004173613836776047,0.991377092719761
2013-12-27,1,0.0007109263391769579,0.0007375699404368445,-0.006441696060286223,0.004173613836776047,0.9913362606979634
2013-12-31,1,0.0007923326938030643,0.0008431777175933046,-0.0066907640605245716,0.005237098487535519,0.9905823363299308
2014-01-03,1,0.0003865504699423226,0.0003882920248800586,-0.01023358369487014,0.005237098487535519,0.9899199366808195
2014-01-07,1,0.0003947928027859903,0.0003993859434719734,-0.01023358369487014,0.005237098487535519,0.990038681966348
2014-01-09,1,0.000349110449861966,0.0003690920796949425,-0.01023358369487014,0.009298606550739792,0.9892916307039729
2014-01-13,0,-1.6773706896177644e-05,5.343347227105083e-05,-0.006946968361817957,0.009298606550739792,0.9896837313782343
2014-01-15,-1,-0.00016785137517605526,-7.500199371006399e-05,-0.00265299398833447,0.008965358247159268,0.9902170990847088
2014-01-17,-1,-0.00012066995763302968,-2.9755931317897112e-05,-0.00265299398833447,0.008965358247159268,0.9904146962114143
2014-01-22,-1,-0.000267076729734344,-0.0001556139069847593,-0.00265299398833447,0.007600152375001143,0.9922253652609238
2014-01-24,-1,-0.0007821385610940333,-0.0006021531758386345,-0.002020841118073949,0.005207370015226663,0.9934596824121764
2014-01-28,-1,-0.0008222251715215911,-0.0006356566004087655,-0.002020841118073949,0.005889838754202951,0.9931007877472228
2014-01-30,-1,-0.000602135384224755,-0.0004487129889685075,-0.0016087549334824905,0.005751127511096405,0.9934602748335
2014-02-03,-1,-0.0010557654621906592,-0.0008617814822327657,-0.0010889640828656152,0.007014258968381187,0.9942252066346361
2014-02-05,-1,-0.0009915581667348191,-0.000804313179956265,-0.001110129142500789,0.007014258968381187,0.9940467379071447
2014-02-07,-1,-0.0005049914719732754,-0.00037357516871938613,-0.002020841118073949,0.004758292053089097,0.995313980381048
2014-02-11,-1,-0.0002861687947953969,-0.0002046340272640331,-0.003194226642255352,0.00448784246074474,0.9946831450045823
2014-02-13,-1,-5.590664500562526e-05,-2.3364814581499938e-05,-0.005561757426048045,0.003830270590356885,0.9942824993429611
2014-02-18,-1,-0.00024205531614550794,-0.00017618230637626625,-0.005561757426048045,0.004758292053089097,0.992890534702691
2014-02-20,-1,-0.000228112391957142,-0.00016137180985816298,-0.0038095448650127144,0.005751127511096405,0.9930128407589912
2014-02-24,-1,-0.0005310705940415222,-0.000421918953511251,-0.005561757426048045,0.005751127511096405,0.9924937981732254
2014-02-26,0,-2.6582206617977797e-05,6.423886862864467e-06,-0.006933220086460566,0.0051330987911485096,0.9920355945882705
2014-02-28,1,8.851241666854245e-05,0.00010140711781793171,-0.009151304727708537,0.00259215999499899,0.9919185518752489
2014-03-04,-1,-0.00020971772243785118,-0.000132523734923197,-0.009151304727708537,0.00259215999499899,0.9922656386052745
2014-03-06,-1,-8.214157147528299e-05,-4.075494040015439e-05,-0.009151304727708537,0.0024193624480270226,0.9925702049369665
2014-03-10,0,-8.822050434370159e-06,1.7298909219749602e-05,-0.01160097483029107,0.002715867992595411,0.9919985689846771
2014-03-12,1,0.00026649153858737895,0.00028100545734539644,-0.009151304727708537,0.005597417335969723,0.9924106675772303
2014-03-14,-1,-0.0010444884991172817,-0.0008701226843036024,-0.009876240640934056,0.005597417335969723,0.9918620292036969
2014-03-18,-1,-0.0005196113312568894,-0.0003983317845761888,-0.009876240640934056,0.003388532919190257,0.9929966882409013
2014-03-20,1,0.00037489314705479315,0.0003840280787637912,-0.009876240640934056,0.002715867992595411,0.9934603228259671
2014-03-24,-1,-0.00040658426143970456,-0.0003148097380098579,-0.009566038110144316,0.003388532919190257,0.9931812301220879
2014-03-26,-1,-0.0007485509060361789,-0.0006169204435430921,-0.007165384029997243,0.003388532919190257,0.9938179680938494
2014-03-28,-1,-0.0008957526171347158,-0.0007509853664330989,-0.006805385865350144,0.003388532919190257,0.9938925204803499
2014-04-01,-1,-0.0004969555004497085,-0.0003972856672565517,-0.006805385865350144,0.003388532919190257,0.9936354678917383
2014-04-03,-1,-0.0006536157657736003,-0.0005354882867865801,-0.008296506101155036,0.005117831849448077,0.9908587710180948
2014-04-07,-1,-0.0006702973536735033,-0.000565378036750079,-0.006805385865350144,0.006631965884116844,0.9908814721059644
2014-04-09,-1,-0.00019293241065457294,-0.00015937521587276938,-0.006805385865350144,0.00705665809921362,0.9907962684331686
2014-04-11,-1,-0.0006687116423457769,-0.0006009479690257453,-0.0028024524818799357,0.008463792274439285,0.9916400386335941
2014-04-15,-1,-0.000834006395854791,-0.0007164153452350176,-0.0028024524818799357,0.008463792274439285,0.9918929273981089
2014-04-17,-1,-0.0003406052862442386,-0.00030708344563758585,-0.0054206996417226795,0.008463792274439285,0.9914117195602679
2014-04-22,-1,-0.000361176970526607,-0.0003207221479596479,-0.004782268774281632,0.008208426166345508,0.9918148696712792
2014-04-24,-1,-0.0009220625885844364,-0.0008115529929255687,-0.004260954061852385,0.008208426166345508,0.9915320234148126
2014-04-28,-1,-0.0008124521425710296,-0.0007197056415760369,-0.002307406277939236,0.008208426166345508,0.9916873177799123
2014-04-30,-1,-0.0005444357544396976,-0.0004739632669937936,-0.002307406277939236,0.006178848693095084,0.9924883091206974
2014-05-02,1,0.001419713601139141,0.0016323730275010718,-0.0014523389866153956,0.006077233001497263,0.9950464377095788
2014-05-06,1,0.0004628391657769803,0.0005233174580555997,-0.002307406277939236,0.005555391345454326,0.9950205810972965
2014-05-08,1,0.0006034534799155577,0.0006811825736575724,-0.002307406277939236,0.005555391345454326,0.9952574321353198
2014-05-12,1,0.0006986578350078607,0.0007936336626551057,-0.0019788737584874056,0.00553876833473691,0.9956726613945059
2014-05-14,1,0.0006344689936701681,0.0007498935835022504,-0.004260954061852385,0.00553876833473691,0.9952303240570284
2014-05-16,1,0.00021948216599266708,0.00024276425663345862,-0.0019788737584874056,0.00553876833473691,0.995750640391066
2014-05-20,1,0.0006082830238080116,0.000723606205867237,-0.0012350081786844803,0.004994689451827184,0.9962479855659248
2014-05-22,1,0.0007041680225894943,0.0008288676180248989,-0.0009735940878772128,0.004994689451827184,0.9963607582719689
2014-05-27,1,0.0006274478158854586,0.0007463289652681563,-0.0012350081786844803,0.0015391871917307567,0.9963253693146743
2014-05-29,1,0.00030206157994631326,0.00034727063815054315,-0.0015736616099927734,0.0015391871917307567,0.996411171289741
2014-06-02,1,0.0005899925296518043,0.0006830953711174828,-0.0028092415130056806,0.0011617834859229174,0.9963682053580692
2014-06-04,1,0.000747814104919731,0.0008658812661504818,-0.0015736616099927734,0.0014983424051076529,0.996716333669622
2014-06-06,1,0.0005622724014316101,0.0006319879282314475,-0.002565835647181444,0.0014983424051076529,0.9967708032110816
2014-06-10,1,0.0004858978127492466,0.000545366706944029,-0.0028092415130056806,0.0036484580993932604,0.9958745104587974
2014-06-12,1,0.0002129237910092453,0.0002468980226936721,-0.002565835647181444,0.0036484580993932604,0.9964066108748078
2014-06-16,1,0.0004612187508520224,0.0005341349377128838,-0.0028092415130056806,0.001735438447197314,0.9961463525764269
2014-06-18,0,-3.0350697618176502e-05,4.53688831798258e-06,-0.0037370016592913717,0.0028877137101359085,0.9955893166257118
2014-06-20,1,0.00016662932104717656,0.00017574227582522204,-0.0037370016592913717,0.0034333243978134113,0.9953180783098023
2014-06-24,1,0.00015874120820660235,0.0001614615630477966,-0.003418307714357918,0.004032510524832203,0.9951664879073164
2014-06-26,-1,-0.0004741077953553392,-0.0003453857093176196,-0.004872473015915479,0.004032510524832203,0.9947776063290074
2014-06-30,-1,-0.0005421163145671879,-0.00041474721125008365,-0.006880848144934623,0.004032510524832203,0.9945796029777855
2014-07-02,1,0.00040478316860002037,0.0004484021434510246,-0.007637784556361698,0.0033774105651129685,0.993882031483154
2014-07-07,1,0.00023642303245997192,0.0002446717804451718,-0.007637784556361698,0.0033774105651129685,0.9939849790461194
2014-07-09,1,0.00021059127357690992,0.00023443239736338598,-0.007637784556361698,0.002869075765902428,0.9926756854491028
2014-07-11,-1,-0.0001302475943680064,-0.00011016588022054105,-0.007637784556361698,0.0033774105651129685,0.9923254773038065
2014-07-15,-1,-0.0001877829199407312,-0.0001593419609827636,-0.00725479500472601,0.0033774105651129685,0.9924050808378602
2014-07-17,-1,-0.0008135902611125839,-0.0006957546606161441,-0.00725479500472601,0.0039990437303900495,0.9924177258493834
2014-07-21,-1,-1.3637734397473739e-05,-1.2809401459596188e-05,-0.00760295507180002,0.0024565509367651924,0.9923950875019547
2014-07-23,-1,-6.752679773389651e-05,-6.722868546640453e-05,-0.00760295507180002,0.003522954180967224,0.9921697566743181
2014-07-25,-1,-0.00022844628870335253,-0.00022138992044603683,-0.007451885694711275,0.003522954180967224,0.9923211563952248
2014-07-29,-1,-0.00044274868202572016,-0.00040302729861584654,-0.007768593119251073,0.0027487499719992432,0.9921436754629611
2014-07-31,-1,-0.0008589327866970337,-0.0007702458102563555,-0.007768593119251073,0.0027487499719992432,0.9924660319551513
2014-08-04,-1,-0.00039866154759054184,-0.00037166308322748024,-0.007768593119251073,0.0007334812665448296,0.9923718018948838
2014-08-06,-1,-0.0025159061802183134,-0.0021733820537740995,-0.007451885694711275,0.0007523579044500638,0.9948309527704402
2014-08-08,-1,-0.0011979560733630808,-0.0010636852208858985,-0.007451885694711275,0.0007523579044500638,0.9937179342463792
2014-08-12,-1,-0.001235888105690736,-0.0011286984311744141,-0.0068286636921974534,0.001310496476646778,0.9937668059884144
2014-08-14,-1,-0.0016855213259862347,-0.0014982931282739003,-0.005537222303705097,0.001310496476646778,0.9941021460658849
2014-08-18,-1,-0.002170092265842502,-0.0019072666827732103,-0.003870855540249501,0.002818041881269181,0.9940829466879054
2014-08-20,-1,-0.0018390688834505197,-0.0016001890944281473,-0.003870855540249501,0.002147896161602615,0.9945772137449062
2014-08-22,-1,-0.0018469075533355888,-0.001629657181242322,-0.0032814748471439205,0.002147896161602615,0.9948766153714224
2014-08-26,-1,-0.002229020926882057,-0.0019667840921404993,-0.0021072415909930303,0.0026106089421324705,0.9950263891271219
2014-08-28,-1,-0.002701931766762175,-0.002373293291300476,-0.0015903097146294084,0.003900676024905133,0.9937462820148323
2014-09-02,-1,-0.002523815528907457,-0.002236137299890536,-0.0015903097146294084,0.003900676024905133,0.9939473349038823
2014-09-04,-1,-0.0030132515401437576,-0.0026280895037252006,-0.0021072415909930303,0.003900676024905133,0.9924361366394894
2014-09-08,-1,-0.0012297620394815622,-0.0010608990789354208,-0.0021072415909930303,0.003900676024905133,0.9944262562298697
2014-09-10,-1,-0.0017027592200482508,-0.0014830416809872818,-0.0027422526858995773,0.004402992691805801,0.9929093696242738
2014-09-12,-1,-0.0013689553279823538,-0.00119060928798742,-0.006551844449533922,0.003900676024905133,0.991420316565603
2014-09-16,-1,-0.0016174405220466211,-0.001391726012893431,-0.010699244068438864,0.003784587598719386,0.991105826655452
2014-09-18,-1,-0.0014951176670812433,-0.0012808331133304118,-0.010699244068438864,0.00405472741324856,0.9909041597137331
2014-09-22,-1,-0.001411246537004846,-0.0012266327845280233,-0.010699244068438864,0.007231590239180614,0.9892042783175709
2014-09-24,-1,-0.0009678529120861828,-0.0008798365646398658,-0.012849707661401128,0.00818675810131118,0.9879586638330947
2014-09-26,1,0.00011443671001099223,0.0001785906934254453,-0.012849707661401128,0.00818675810131118,0.9885822760876393
2014-09-30,1,0.0002680445379886639,0.0003769885683584683,-0.012849707661401128,0.01004948637810319,0.9877550470484286
2014-10-02,-1,-0.0005428470956205675,-0.0005275876114059966,-0.004098584919789294,0.01004948637810319,0.9890421282946681
2014-10-06,-1,-0.00038484663292756625,-0.0003620068203238413,-0.004098584919789294,0.01004948637810319,0.9890120538830957
2014-10-08,-1,-0.0003714348622428037,-0.00036406253491229145,-0.004098584919789294,0.01004948637810319,0.9874680170266661
2014-10-10,-1,-0.0016426183865316296,-0.0015099215971174757,-0.0019949380837372293,0.010383239918785718,0.9876982436192017
2014-10-14,-1,-0.0016649355622929967,-0.001538016447092839,-0.0025496007070627495,0.010383239918785718,0.9880433095756701
2014-10-16,-1,-0.001164488191126003,-0.0011065565173510807,-0.0021844681507346736,0.011379669145409988,0.9879655530805029
2014-10-20,0,-6.686959127336284e-05,1.2917674261491596e-05,-0.0021844681507346736,0.011379669145409988,0.9893734928707517
2014-10-22,1,0.0002445478492465883,0.00038289271904224905,-0.0011500972464723086,0.010383239918785718,0.9905472469828124
2014-10-24,1,0.0007362661080120257,0.0009388669614905218,-0.0034002096389197426,0.009718942560998334,0.9908750263071863
2014-10-28,1,0.0016325924384714967,0.001967102385519323,-0.0034548094178749444,0.008498577572138417,0.9915609801344039
2014-10-30,1,0.0016941679415843648,0.002038757489154444,-0.0034548094178749444,0.008498577572138417,0.9916224709919315
2014-11-03,1,0.0016427249541899297,0.0019494727822741424,-0.004249819482034919,0.008498577572138417,0.9915455180054019
2014-11-05,1,0.001665513313741139,0.001982271024234303,-0.0034548094178749444,0.0038987615020140746,0.9944134927961199
2014-11-07,1,0.0015763980800832383,0.001880245669055279,-0.003136390834373482,0.0028688749702359224,0.9954289758447454
2014-11-11,1,0.0013518113367596662,0.0016380824591102849,-0.003098326153369733,0.0028688749702359224,0.9945958588333027
2014-11-13,1,0.0017909326119568327,0.002131072674260273,-0.0037772411341081055,0.0023342975842249648,0.9938605034895336
2014-11-17,1,0.0022146800287225913,0.0026080899142696245,-0.004249819482034919,0.0004972830837898826,0.9934464630406475
2014-11-19,1,0.002502912259430336,0.002935989489875484,-0.004249819482034919,0.001412400200531057,0.9913733526762111
2014-11-21,1,0.002309554561825765,0.0027311796127064396,-0.0032984678520730708,0.004612809351019871,0.9914594547723836
2014-11-25,1,0.002557607150499539,0.003019352220203962,-0.00320580339211412,0.005995477486531548,0.9916292109600928
2014-11-28,1,0.002513670384158071,0.0029532804493633577,-0.00320580339211412,0.005995477486531548,0.9916578517429006
2014-12-02,1,0.0022596860548884075,0.002648960376101299,-0.003968083522280144,0.005995477486531548,0.9912708175409177
2014-12-04,1,0.0020085485655959084,0.00235205485466301,-0.006480569742538109,0.005995477486531548,0.9900476177372134
2014-12-08,1,0.0019118625724007592,0.0022256907986216543,-0.007111161204685594,0.005995477486531548,0.9897153731688094
2014-12-10,1,0.0012825789348251979,0.00153839104549484,-0.006480569742538109,0.006040697177927636,0.9902711093127762
2014-12-12,1,0.0006976987994625495,0.0008761575281729181,-0.006480569742538109,0.006040697177927636,0.9904743401174109
2014-12-16,1,0.0002467903392372497,0.0003432769017213364,-0.005782898401708834,0.006040697177927636,0.9904011516537434
2014-12-18,1,0.0018994016103457453,0.0022067786701188293,-0.005782898401708834,0.005995477486531548,0.992269869303476
2014-12-22,1,0.002309574576434257,0.002639739211938292,-0.005782898401708834,0.005725989302562931,0.9922075449467092
2014-12-24,1,0.002723786414742536,0.003122462168994872,-0.005782898401708834,0.0037668053507423915,0.9923201380577031
2014-12-29,1,0.00237573258567997,0.0026346789400045444,-0.008464576691989911,0.0022551348578437923,0.990923748020377
2014-12-31,1,0.002174296817356913,0.002436827001021253,-0.009291130601427453,0.0022551348578437923,0.9904965369434844
2015-01-05,1,0.0008470141469131614,0.0009099079718062281,-0.006230399657089851,0.004999700162464298,0.9914400981963617
2015-01-07,1,0.000441446046665506,0.0004429354978755346,-0.00546687957697725,0.004999700162464298,0.9919156432436596
2015-01-09,1,0.0005410663698426768,0.0005587575127732608,-0.00546687957697725,0.007330214271099913,0.9900939476556289
2015-01-13,1,8.158714907433185e-05,0.000111006638800424,-0.0021850760303297363,0.0073919938868649325,0.9903035943337015
2015-01-15,-1,-0.00047890077356875743,-0.00037003883676501947,-0.0006247715625571225,0.010147961169400197,0.9896171336273321
2015-01-20,-1,-0.0004621281560360681,-0.0003326496739224177,-0.0013933794351162748,0.007446859237217862,0.9896440208607853
2015-01-22,0,-5.959883960841709e-05,4.605480749379759e-05,-0.0014057384667089095,0.007446859237217862,0.9901282761556083
2015-01-26,-1,-0.00020562171360263056,-7.04695724603965e-05,-0.0036874495973085826,0.007446859237217862,0.9895063286819962
2015-01-28,-1,-0.0012637159200221482,-0.0010010776638436291,-0.0015219328789215143,0.007539965972037147,0.9901696134912586
2015-01-30,-1,-0.0011406683199856886,-0.0009581038555512856,-0.0015219328789215143,0.010631720051751581,0.9901626799433488
2015-02-03,-1,-0.00043798427190662996,-0.00032487455887069626,-0.007363882330575796,0.007539965972037147,0.9906250465302685
2015-02-05,-1,-0.0003507415133406926,-0.0002582280981291791,-0.007516670223604804,0.007539965972037147,0.9896954020441388
2015-02-09,1,0.001177988488974439,0.001274176062817736,-0.008205499495677724,0.005470735006593214,0.9910778496004204
2015-02-11,1,0.0014163285454116593,0.0015491346456515808,-0.008205499495677724,0.0008422017758744932,0.9910097411003257
2015-02-13,1,0.0017288422809807601,0.001891454038567279,-0.008205499495677724,0.0008422017758744932,0.9910235118325103
2015-02-18,1,0.0013263470722660816,0.001435657632138238,-0.007855254839401686,0.00486950533005631,0.9905077904125374
2015-02-20,1,0.0020624038748194937,0.0023110756254695643,-0.007855254839401686,0.00486950533005631,0.9902939643871652
2015-02-24,1,0.0013015464550956747,0.0014351355216112947,-0.007516670223604804,0.00486950533005631,0.9910385249644025
2015-02-26,1,0.0007544606062459728,0.0007559185655275319,-0.007855254839401686,0.0018752173737484473,0.9912073097844405
2015-03-02,1,0.0009671490268494017,0.0010069470924716404,-0.007553181520758721,0.0018752173737484473,0.9914111199242884
2015-03-04,1,0.0004857007982787827,0.0004975239419155303,-0.004828188803297236,0.004234967585144588,0.9923317354478763
2015-03-06,-1,-0.0010277782175611427,-0.0007406780476575966,-0.006069081299906634,0.0018577340764638242,0.9899341120578895
2015-03-10,-1,-0.0020250459255246713,-0.001609057235382957,-0.004828188803297236,0.007048978295141662,0.9900849035980056
2015-03-12,-1,-0.002125708636865847,-0.0017121207814564021,-0.004641844765333361,0.007048978295141662,0.9900402046422413
2015-03-16,-1,-0.0009283623111273169,-0.0007098141937762164,-0.005538236460504865,0.0048972496848244534,0.9906036276577379
2015-03-18,-1,-0.00044497342291637356,-0.0002840278281221003,-0.004641844765333361,0.0035816386285400614,0.9918486190349248
2015-03-20,-1,-0.00026492828776153427,-0.0001504513573061705,-0.005717950233075712,0.0035816386285400614,0.9910747044612752
2015-03-24,-1,-0.00010717938231867728,-5.643527683982488e-05,-0.003440435268447793,0.004266777614346965,0.9911108419923202
2015-03-26,-1,-0.00040527812410792605,-0.0003207993082086556,-0.005567323600175999,0.004266777614346965,0.9910257394923473
2015-03-30,1,0.00011788527025853406,0.00013545511254202424,-0.005805670080057047,0.004266777614346965,0.991201348204967
2015-04-01,1,0.0002185374018438263,0.0002258813108412857,-0.009761072165803634,0.0036309319550270613,0.9906115823149726
2015-04-06,-1,-0.0025651236105926354,-0.0022308316606261687,-0.004517326162039665,0.006669050407018379,0.9933505219013581
2015-04-08,-1,-0.0019375672284453038,-0.001657132550845234,-0.005805670080057047,0.0036309319550270613,0.9926695569085835
2015-04-10,-1,-0.0016908485586417045,-0.0014632922066851572,-0.005805670080057047,0.006669050407018379,0.9912659286250585
2015-04-14,-1,-0.0017245031741549349,-0.0015152094454092,-0.007810225114477821,0.006669050407018379,0.9908491165844323
2015-04-16,-1,-0.0015834599719730643,-0.0014024960845980907,-0.007810225114477821,0.007054354262254127,0.9903821443182577
2015-04-20,-1,-0.0020667032596402186,-0.0018138621266393599,-0.006814744329586878,0.007294336928946079,0.9906184272117688
2015-04-22,-1,-0.0017192709647897973,-0.0015156525917771647,-0.006814744329586878,0.007294336928946079,0.9908680217947546
2015-04-24,-1,-0.0020149594727835425,-0.0017862323978811187,-0.005580645480078986,0.007294336928946079,0.991410632338104
2015-04-28,-1,-0.001995469083945888,-0.0017634359038475492,-0.006814744329586878,0.007194362249653547,0.9915693171902233
2015-04-30,-1,-0.0024619608369782346,-0.0021695522690547645,-0.006814744329586878,0.008931189218281487,0.9913228667021923
2015-05-04,-1,-0.001914227487661807,-0.0016905735340889507,-0.00783261936380761,0.009248253820842715,0.9913764842641496
2015-05-06,-1,-0.003148689726165799,-0.002744483117765338,-0.00783261936380761,0.009248253820842715,0.9924024585352353
2015-05-08,-1,-0.0026308732189502483,-0.0022608278114747303,-0.00840723488885942,0.001224872961039783,0.9938604988331828
2015-05-12,-1,-0.0032827320586340915,-0.0028254404759729523,-0.00783261936380761,0.00595310375876215,0.9939435198512446
2015-05-14,-1,-0.0019513735307702168,-0.001732333199649266,-0.00840723488885942,0.0019942039176822184,0.9935914721118584
2015-05-18,-1,-0.00120415642022211,-0.0011073316798880979,-0.008044475912414415,0.004201571052605024,0.9939817517657584
2015-05-20,-1,-0.00128195415396187,-0.0011894020234970923,-0.008044475912414415,0.004975569573146123,0.9937063313474012
2015-05-22,-1,-0.0010383018600067125,-0.0009906532391846306,-0.008044475912414415,0.005714125832807604,0.992500952778144
2015-05-27,-1,-0.001504257097325102,-0.0013841998247380452,-0.008044475912414415,0.005714125832807604,0.99231792215727
2015-05-29,-1,-0.001973956324680658,-0.001760212440586559,-0.006295113093852846,0.004975569573146123,0.9931262213772174
2015-06-02,-1,-0.0018198678628415519,-0.001616939445192413,-0.0066278893012746525,0.004201571052605024,0.992838944119614
2015-06-04,-1,-0.001832249994946514,-0.0016390780472357433,-0.004162833420283544,0.004110279888048117,0.9933168368889724
2015-06-08,-1,-0.0022631450835785384,-0.0020048336108306527,-0.00396774178666289,0.004580404826724128,0.993177434050794
2015-06-10,-1,-0.0021156520380168947,-0.0018610750206581109,-0.005237642655944295,0.004110279888048117,0.9931433961463031
2015-06-12,-1,-0.002302147477976183,-0.0020425793215360036,-0.00396774178666289,0.004839929001853268,0.992394045067479
2015-06-16,-1,-0.0015513082210448514,-0.001413040417255841,-0.00396774178666289,0.004776183615063068,0.9926582743662474
2015-06-18,-1,-0.001323768956808072,-0.0012184796155268302,-0.005237642655944295,0.004776183615063068,0.9925179759281318
2015-06-22,-1,-0.0012206842840306025,-0.0010895973043409536,-0.002527130748957431,0.004776183615063068,0.9931150826197546
2015-06-24,-1,-0.0020582730521925456,-0.0018107032296470413,-0.004030503734641596,0.004776183615063068,0.9930718569283494
2015-06-26,-1,-0.001754263339159106,-0.0015743247200066938,-0.005637211102009865,0.005409703573254584,0.9921971767649649
2015-06-30,-1,-0.002141163068839822,-0.00191696383043368,-0.004030503734641596,0.007097706068217218,0.9923935121162758
2015-07-02,-1,-0.0010444126872728098,-0.0010368120260736769,-0.004030503734641596,0.007097706068217218,0.9923567305909955
2015-07-07,-1,-0.0006503474228328786,-0.0005664686545344333,-0.004432106366749588,0.007760953379022868,0.992334416929772
2015-07-09,-1,-0.0004612127937725881,-0.00034397678495292966,-0.00370678694656416,0.00829993500954291,0.989857967327454
2015-07-13,1,0.0002269850548153211,0.0004232358899373867,-0.00370678694656416,0.007034257911582716,0.9909760853549697
2015-07-15,1,0.000709319510561234,0.0009948105882669825,-0.004473003290199323,0.007760953379022868,0.9900238235227524
2015-07-17,1,0.0004943635339194779,0.0007232004123216298,-0.0038169631438874627,0.00829993500954291,0.9899599141009645
2015-07-21,1,0.0009382398806218424,0.0012313332638626585,-0.0038169631438874627,0.007760953379022868,0.9900891868821824
2015-07-23,1,0.0007935666644605004,0.001082987239643128,-0.004615066401424076,0.007760953379022868,0.989245276613629
2015-07-27,1,0.0006547713290919516,0.0009178190644205591,-0.006451637419567754,0.007669742006329605,0.9879180365718714
2015-07-29,1,0.0009250376976448227,0.0011833317801212867,-0.006451637419567754,0.007669742006329605,0.9861031006783789
2015-07-31,1,0.0008919236020262764,0.001117865189428813,-0.006451637419567754,0.008259945265372805,0.9854769303853811
2015-08-04,1,0.0009394885525950251,0.0011657828700308006,-0.007289800171269132,0.008232182049314044,0.9852440463094329
2015-08-06,1,0.0026254666519178816,0.003098785570767166,-0.007289800171269132,0.008232182049314044,0.9879600131580372
2015-08-10,1,0.00282605124768805,0.0033485028663048358,-0.007289800171269132,0.014772675947584583,0.9854289381141244
2015-08-12,1,0.003391017029128921,0.003989365772362249,-0.008530531038628105,0.012081321419789941,0.9855516122408775
2015-08-14,1,0.0031490434440197834,0.0036957042628365444,-0.015928177006268023,0.012081321419789941,0.9842438294689662
2015-08-18,1,0.003290742158991962,0.003844850935072486,-0.015928177006268023,0.012081321419789941,0.9843934391564481
2015-08-20,1,0.002695366978124253,0.003191612466458563,-0.008632223751585757,0.012081321419789941,0.985424068831662
2015-08-24,1,0.0018055633792649628,0.0021899092504323843,-0.00594853585331864,0.012081321419789941,0.987294794754962
2015-08-26,1,0.0016121380288116847,0.0018387072419119152,-0.0043137877408183384,0.012081321419789941,0.9888343615705878
2015-08-28,1,0.0016077067275162005,0.0018634365443865358,-0.0066435177810452335,0.012081321419789941,0.9879448571520371
2015-09-01,1,0.00132850378134519,0.0015390715241478015,-0.0066435177810452335,0.013666295469314676,0.9878188821817053
2015-09-03,1,0.0015769305566982002,0.0018071573999460919,-0.007023820818390566,0.012121888347628496,0.987737788286262
2015-09-08,1,0.003412691453255405,0.0038810920753954525,-0.007306769837514462,0.00997544804812741,0.9892798158344518
2015-09-10,1,0.002539465041680814,0.00287801076531371,-0.007023820818390566,0.008865086025874089,0.9902594070338968
2015-09-14,1,0.0018072152097014342,0.0020545775391788163,-0.007023820818390566,0.009446429283364637,0.9911913748774435
2015-09-16,1,0.0018449480411127728,0.0020815409199038517,-0.007023820818390566,0.009446429283364637,0.9907314249866965
2015-09-18,1,0.0018220037685129703,0.0020540100569651884,-0.007023820818390566,0.009446429283364637,0.9907947761527949
2015-09-22,1,0.0014004394284034358,0.0015606069127798777,-0.0059794063763445645,0.009446429283364637,0.9908740353837394
2015-09-24,1,0.0019092205269752504,0.002147977448037263,-0.0059794063763445645,0.009446429283364637,0.9909726483710489
2015-09-28,1,0.001594993889254849,0.0017523835623045245,-0.005738126068024012,0.008865086025874089,0.9923352139614653
2015-09-30,1,0.0019410938992456988,0.0021725589549446583,-0.005097843945672308,0.00839064212294144,0.9929719910526045
2015-10-02,1,0.0019601906944667177,0.0021711177773553365,-0.004347686817603866,0.006963463229211578,0.993383063056616
2015-10-06,1,0.0018412876205244912,0.0020403716632374403,-0.003596800689550328,0.00839064212294144,0.9940060566445209
2015-10-08,1,0.002100354743975701,0.00234270598908215,-0.003789151331154482,0.008449472442465161,0.9887611873512616
2015-10-12,1,0.002123879058597498,0.002345244796016464,-0.0033433068967638406,0.008449472442465161,0.9893599160357827
2015-10-14,1,0.0015417817558451112,0.0016818446259760345,-0.0015339950585696125,0.008942917710883357,0.9889074928392189
2015-10-16,1,0.001512660414855121,0.00163117718816396,-0.0033433068967638406,0.008942917710883357,0.9884587175614307
2015-10-20,1,0.0015050882088990976,0.0016114228749035523,-0.0025637211300898045,0.01173176117091362,0.9876662418489282
2015-10-22,1,0.001968295501641896,0.0021375251847222626,-0.0025637211300898045,0.011418715544296769,0.987703354546209
2015-10-26,1,0.0013950091750098267,0.0014714159776602774,-0.0025637211300898045,0.011418715544296769,0.9876930226177278
2015-10-28,1,0.0013077806790383801,0.0013534813500284996,-0.0034551181907108365,0.011418715544296769,0.9876001345267262
2015-10-30,1,0.001107319873541711,0.0011368919485781827,-0.0033964351638368813,0.011418715544296769,0.9876666751681801
2015-11-03,1,0.001352801024261181,0.0013863259313033728,-0.0033964351638368813,0.010060184819346597,0.9882566034755724
2015-11-05,1,0.00048735740777273355,0.00054973404906415,-0.0033964351638368813,0.010060184819346597,0.9927373882251396
2015-11-09,1,0.0003190753422830699,0.0004032611031937384,-0.004383071759321811,0.008169471014147002,0.9916094142640335
2015-11-11,1,0.001260248644156844,0.001315113117985111,-0.0060053924902174,0.004453540331933157,0.9923223993235268
2015-11-13,1,0.00017415769458305907,0.00028997268247116877,-0.006443791821471784,0.004453540331933157,0.9923818940859978
2015-11-17,1,0.0009448676556709964,0.0009682648152035574,-0.006443791821471784,0.004231548855963287,0.9926646118747784
2015-11-19,1,0.0008762842319248494,0.00094209241372326,-0.009452469710211544,0.0013105786362146668,0.9920963153014634
2015-11-23,1,0.0005513323612227118,0.0006595113405756944,-0.009452469710211544,0.004231548855963287,0.9915750376872715
2015-11-25,1,0.00031426111793119246,0.00044435988491400933,-0.009452469710211544,0.005112972189257596,0.9915998157533682
2015-11-30,-1,-0.0002387434360419967,-1.1531774539363807e-05,-0.009452469710211544,0.005893479070252095,0.9915695826000315
2015-12-02,1,8.731709831983123e-05,0.0002418728153873383,-0.011033626172895605,0.005893479070252095,0.9909664663646518
2015-12-04,1,0.0002620461129767025,0.00039804465155461914,-0.011333917014218636,0.005112972189257596,0.9906828951737668
2015-12-08,-1,-0.0008974616368436048,-0.000615252759119945,-0.012651440682349866,0.005112972189257596,0.9908856763485493
2015-12-10,-1,-0.0010120928076187267,-0.0007305539341012482,-0.012651440682349866,0.005112972189257596,0.9909800366235798
2015-12-14,-1,-0.001882366879275403,-0.0014756785010069805,-0.013930219298884647,0.005893479070252095,0.9902585758837648
2015-12-16,-1,-0.0014773512042328906,-0.0011079220542758081,-0.01433548924512497,0.0028719988953735134,0.9900921651431446
2015-12-18,-1,-0.0021181190079963908,-0.0017009444933686238,-0.013062084289737664,0.0028719988953735134,0.9906310336336824
2015-12-22,-1,-0.0014125731258872105,-0.0010808350198081426,-0.013062084289737664,0.0028719988953735134,0.9900333341989358
2015-12-24,-1,-0.0015582363201219044,-0.0012156951658887235,-0.013062084289737664,0.006256104011115773,0.9894029176414689
2015-12-29,-1,-0.0005122263691613471,-0.0003539673558076302,-0.013062084289737664,0.006499008617647401,0.9883508769339764
2015-12-31,-1,-0.0011489391498781133,-0.0009126760739310953,-0.013062084289737664,0.007812948069875432,0.9875463410099424
2016-01-05,-1,-0.0016192455213381604,-0.0013550618747066032,-0.013062084289737664,0.008468368650756215,0.9865757394913784
2016-01-07,-1,-0.002667118741003086,-0.0022781064972304636,-0.01043167274890685,0.008468368650756215,0.9865750974004672
2016-01-11,-1,-0.002423440023029416,-0.0020767862690295935,-0.011864400327096233,0.008468368650756215,0.9863360453293265
2016-01-13,-1,-0.003604157571324468,-0.0030697455074128153,-0.011864400327096233,0.007892301768227947,0.9868637035733666
2016-01-15,-1,-0.005359874552609281,-0.004554206975192171,-0.010187768215867001,0.013906204202622686,0.9850900358224159
2016-01-20,-1,-0.005075994486224826,-0.004370666903959007,-0.007963066630160198,0.02024929239248445,0.9840552402505777
2016-01-22,-1,-0.004060597550825884,-0.003489314896658862,-0.007963066630160198,0.01932962822618019,0.9842273819158777
2016-01-26,-1,-0.003620206119944786,-0.0030860294956942544,-0.007963066630160198,0.02576777483220075,0.980881129944983
2016-01-28,-1,-0.002569996752013661,-0.0021872895148691606,-0.007963066630160198,0.022040089199450212,0.9809718008882428
2016-02-01,0,-2.0268694304675496e-05,2.198916180344164e-05,-0.013290588033800602,0.01932962822618019,0.980683424275998
2016-02-03,-1,-0.0010574727231524555,-0.0009510755787880723,-0.010187768215867001,0.01932962822618019,0.9827229395498825
2016-02-05,-1,-0.0029030792432932773,-0.0025258051151486136,-0.00500309970762274,0.01932962822618019,0.9835532080612032
2016-02-09,-1,-0.0028510337348453974,-0.0024976856218951746,-0.004165681408244793,0.01932962822618019,0.9836415649242534
2016-02-11,-1,-0.0037281045729283284,-0.0032702847757766695,-0.0012249964270892111,0.01932962822618019,0.9841773152549412
2016-02-16,-1,-0.002285630001585821,-0.0019833527891699307,-0.0012249964270892111,0.012709991420311026,0.9865678447846358
2016-02-18,-1,-0.0012941432780715254,-0.0011423228339130255,-0.00031587456004865297,0.010942479555364724,0.9877028767119294
2016-02-22,-1,-0.00028548915100141075,-0.00024675781811060526,-0.001139498893550032,0.008337552543328006,0.9891961053676491
2016-02-24,1,0.002674444116623116,0.003034174015624337,-0.0033809181998850123,0.007493246717848565,0.9930225765199437
2016-02-26,1,0.003299846354258165,0.003749180875988427,-0.00378070038724643,0.005833832866727782,0.9930269818078608
2016-03-01,1,0.0020178526103501833,0.0023064176501925533,-0.001139498893550032,0.008093476936510309,0.9952265367325801
2016-03-03,1,0.0019101284605587054,0.0021922716405610113,-0.0010345151509805867,0.008337552543328006,0.9947950962340051
2016-03-07,1,0.0018231504942719532,0.0020974545799283626,-0.0010345151509805867,0.008337552543328006,0.9946002620414847
2016-03-09,1,0.0016880225493333587,0.0019137188954616985,-0.0033809181998850123,0.008337552543328006,0.9937689863191254
2016-03-11,1,0.001657837870731765,0.001893186360228363,-0.003667739810540803,0.008337552543328006,0.9937254228037916
2016-03-15,1,0.002021932889590416,0.002312192177135467,-0.003667739810540803,0.008093476936510309,0.9941146894153697
2016-03-17,1,0.0026021289471645542,0.002998438171916242,-0.003667739810540803,0.007493246717848565,0.9944269444834163
2016-03-21,1,0.002572867460150615,0.0029447231781156383,-0.0017932804452010904,0.006079342983302123,0.9947803744722248
2016-03-23,1,0.0025370738043354437,0.0029128263036939505,-0.004970641407389325,0.005118378068702784,0.9946467034933916
2016-03-28,1,0.002502896820946624,0.0028591904005073714,-0.0017932804452010904,0.005118378068702784,0.995134068215872
2016-03-30,1,0.0034842143386558085,0.004010482724389828,-0.0017932804452010904,0.004553038151337775,0.9956471529340852
2016-04-01,1,0.003247769908543972,0.0036475374090404397,-0.004970641407389325,0.0038699408090777827,0.9952029130359256
2016-04-05,1,0.0030367132114622595,0.003419488824704939,-0.004970641407389325,0.004385854221212912,0.9946639735275677
2016-04-07,1,0.0030798142276716517,0.0035187413563161647,-0.004970641407389325,0.0038699408090777827,0.9948226260128344
2016-04-11,1,0.0025782908230942334,0.002915005792976839,-0.005999449949845575,0.004072499452068046,0.9926882324116436
2016-04-13,1,0.0032317054659196944,0.003708235504501407,-0.007860718901618897,0.0037668030760743217,0.9917737946793981
2016-04-15,1,0.00359184049099446,0.004146891308378916,-0.007860718901618897,0.0037668030760743217,0.990773261573558
2016-04-19,1,0.003576393235992206,0.004119992256694724,-0.009372281812263617,0.0034281286032134617,0.9900630197463235
2016-04-21,1,0.00302478636829724,0.003482015343480167,-0.010067323233439745,0.0034281286032134617,0.9901506538063579
2016-04-25,1,0.0031695307378861036,0.003642244541161502,-0.010067323233439745,0.003042165970432091,0.9901689782694243
2016-04-27,1,0.003395014599352565,0.00389758138389784,-0.010067323233439745,0.003042165970432091,0.9893252376555909
2016-04-29,1,0.0031109896874107756,0.003583946040950887,-0.010067323233439745,0.003042165970432091,0.9901474284683883
2016-05-03,1,0.0023203824773564176,0.0026238232559794537,-0.0076360027553084445,0.0018240873219392988,0.9911450550142855
2016-05-05,1,0.0018596353429578367,0.0020882262395859027,-0.006337073004809643,0.0018240873219392988,0.9914053142435936
2016-05-09,1,0.00014453372992729934,0.00017355863031929153,-0.006337073004809643,0.0018240873219392988,0.993993779246952
2016-05-11,1,9.560820407071074e-05,9.725430596538978e-05,-0.006337073004809643,0.0018240873219392988,0.9938321102060529
2016-05-13,-1,-0.000255236501868974,-0.00016370673378820615,-0.007539801006232796,0.0009009934588604573,0.9937403690710117
2016-05-17,-1,-0.00023102228205668638,-0.00017642900620468756,-0.006388493928895657,0.0021760286304328023,0.9939730465006363
2016-05-19,-1,-0.0007617297243102874,-0.0006450363220959711,-0.005330446293179648,0.003982555152898751,0.9942831879523759
2016-05-23,-1,-0.0005704404480133128,-0.000489710948395346,-0.006973224879503887,0.0044014793822507794,0.993221392629734
2016-05-25,-1,-0.0006778404158818849,-0.0005564152175593481,-0.006973224879503887,0.0044014793822507794,0.9934292886763506
2016-05-27,-1,-0.0010613007293573673,-0.0008526981610597838,-0.00814290553943938,0.0044014793822507794,0.9901676527455889
2016-06-01,-1,-0.0020188045669056174,-0.0016449893202977778,-0.00814290553943938,0.006864521856273485,0.989334348807259
2016-06-03,-1,-0.002250053649179437,-0.0018530158972245258,-0.00814290553943938,0.008868707073960631,0.9882799385669525
2016-06-07,-1,-0.002817254137130707,-0.0023276006447813424,-0.008223743593876936,0.008868707073960631,0.987606808939603
2016-06-09,-1,-0.0033196903297427836,-0.002721414657592211,-0.008223743593876936,0.008868707073960631,0.9874173992623995
2016-06-13,-1,-0.004573175989619909,-0.0037994408611173413,-0.0059359324677644015,0.010179700914103893,0.9869798197146508
2016-06-15,-1,-0.0038237833770292436,-0.003173947262729975,-0.0059359324677644015,0.010179700914103893,0.9875793585378314
2016-06-17,-1,-0.003644236858572718,-0.0030430476696124663,-0.004272326038274295,0.010179700914103893,0.9878015278340695
2016-06-21,-1,-0.0030409819723487726,-0.0025440504705863403,-0.0029547567036960383,0.008868707073960631,0.9885266014845194
2016-06-23,-1,-0.002320289288151307,-0.001956941241558325,-0.0029547567036960383,0.00984331884501696,0.98867455085899
2016-06-27,-1,-0.005248631497168023,-0.004499481542166178,-0.0011412721961680723,0.00984331884501696,0.9897975125378992
2016-06-29,-1,-0.004989561050783457,-0.004222703048885824,-0.0011412721961680723,0.008727837200249708,0.99031847913628
2016-07-01,-1,-0.00448755757125224,-0.0037672095982409807,-0.002424160590646806,0.006823506180820109,0.9917602686564807
2016-07-06,-1,-0.0052020999380082205,-0.00436069404724031,-0.002424160590646806,0.006412022167950834,0.9917150199765253
2016-07-08,-1,-0.0038244735066834765,-0.0032157360147699503,-0.0011412721961680723,0.007493385161641882,0.9905260911352954
2016-07-12,-1,-0.0032448202732002418,-0.00272346181324487,-0.0011412721961680723,0.006412022167950834,0.9911634374124113
2016-07-14,-1,-0.002494748279367014,-0.002113113400826237,-0.0011412721961680723,0.007493385161641882,0.9909470593055246
2016-07-18,-1,-0.0009580735306340427,-0.0008921973576657334,-0.0011412721961680723,0.010790505121294938,0.9905296237563125
2016-07-20,-1,-0.00026922635327787236,-0.00021068630861875622,-0.000586094000400641,0.010790505121294938,0.9909833754266673
2016-07-22,-1,-0.0008209050037213506,-0.0007390852054898109,0.000992310846438805,0.007921241628341803,0.9910021948402202
2016-07-26,-1,-0.0008024245581085266,-0.0007193703657809234,0.0017225987397060435,0.007921241628341803,0.9908692016557367
2016-07-28,-1,-0.00027957581344135296,-0.00025320111445464654,0.0011868049998911307,0.006536842783526196,0.9919036337531987
2016-08-01,-1,-0.00012493091745600148,-0.0001236188380366868,0.0010688850619017618,0.006536842783526196,0.9922312375365543
2016-08-03,-1,-0.0003099318665182506,-0.0002842973015662148,0.0010688850619017618,0.006021958810811119,0.9925096447161134
2016-08-05,1,0.001798339249439348,0.0020669852944791866,0.0006482552090850734,0.005013226603708475,0.9956871173731349
2016-08-09,1,0.0019632332208282333,0.002273207880681952,0.0001943182461842895,0.004641053901526986,0.9956145035319457
2016-08-11,1,0.002529983184295633,0.002923461082171225,-0.002616920267183621,0.004223583980992611,0.9951683033172196
2016-08-15,1,0.002425473595869492,0.0028000698482973704,-0.002616920267183621,0.004223583980992611,0.9953305491785024
2016-08-17,1,0.0024811490448993488,0.0028678715119228953,-0.0039754597621059,0.004641053901526986,0.9946582597399042
2016-08-19,1,0.0029729764010122976,0.0034569322437048257,-0.005721176997616146,0.003321495712769505,0.9941234685632919
2016-08-23,1,0.0034427000057526006,0.004017751039658703,-0.006846601968213997,0.003321495712769505,0.9934304013518389
2016-08-25,1,0.0034160404664211686,0.003976911075128526,-0.006846601968213997,0.005078550571832641,0.9933593024361436
2016-08-29,1,0.0033112578139228334,0.003840675633167575,-0.006846601968213997,0.005172296484968375,0.9933508714962759
2016-08-31,1,0.0031501114882147895,0.0036545726167714608,-0.005858912263091759,0.006095223226042755,0.9936998857383428
2016-09-02,1,0.00367565349585952,0.004262230714339807,-0.008384442731071378,0.005620628358084044,0.9928855771659036
2016-09-07,1,0.0037127983630301717,0.004311191116240025,-0.009146406319403593,0.005620628358084044,0.9922672961417025
2016-09-09,1,0.003222913920955246,0.0037618095314001085,-0.007481901253323686,0.005620628358084044,0.9933599875248598
2016-09-13,1,0.002770566349698178,0.003224563376236142,-0.007481901253323686,0.005021106386265659,0.9935621821101238
2016-09-15,1,0.0028573679250977605,0.003333871721132158,-0.007817430923003575,0.004143277962341946,0.9936757371441651
2016-09-19,1,0.002847379563699142,0.0033365845245422773,-0.007817430923003575,0.005021106386265659,0.9935288630410969
2016-09-21,1,0.0026953936886111893,0.0031459146836077955,-0.0069594658963249454,0.005021106386265659,0.9937908289818003
2016-09-23,1,0.0026971765066529686,0.003138974555517396,-0.0069594658963249454,0.004143277962341946,0.993718777910676
2016-09-27,1,0.002658407656070378,0.0030780659398691955,-0.0069594658963249454,0.004292721920047168,0.993265410313534
2016-09-29,1,0.0022966789357617445,0.002590486520076789,-0.00823828912069513,0.0027975739853828173,0.992945910850936
2016-10-03,1,0.001242237093913069,0.0013716207847491318,-0.006542128803859395,0.0027975739853828173,0.9939808622499019
2016-10-05,1,0.0010067219490137464,0.0011172572422321501,-0.006542128803859395,0.0027975739853828173,0.9939715022683742
2016-10-07,1,0.0008852745206586301,0.0009594627393827587,-0.006542128803859395,0.0027975739853828173,0.9909310349229242
2016-10-11,1,0.00018296428699172938,0.0002277255100733212,-0.004851498950562654,0.0076285839165483454,0.990363267933209
2016-10-13,0,-3.669624559052433e-05,3.470704640209734e-05,-0.004041689307532724,0.0076285839165483454,0.9906643880229913
2016-10-17,0,-3.1781189878548336e-05,3.0120053728652918e-05,-0.003664771729709705,0.00960590568614567,0.9904370746179335
2016-10-19,1,0.0003674853603443278,0.000375413302254131,-0.004041689307532724,0.011157906309993958,0.9893564121644979
2016-10-21,1,8.951340287018488e-05,0.0001455628346172095,-0.0044737336223624954,0.011157906309993958,0.9892325885120984
2016-10-25,1,8.158987986195382e-05,0.0001520473684543284,-0.004085375794390347,0.0072440635449150925,0.9896491890964558
2016-10-27,-1,-0.00045162494111862446,-0.0003053536550350631,-0.003664771729709705,0.009462665718233922,0.9896798307370587
2016-10-31,-1,-0.0007717491276065816,-0.0005953210698116644,-0.002386103001736705,0.009462665718233922,0.9899962527320771
2016-11-02,-1,-0.001869652480457779,-0.0015220832183256154,-0.002468591324569695,0.009462665718233922,0.9893699028630412
2016-11-04,1,0.0006801783051353458,0.000715570261654977,-0.0019034599500716526,0.009462665718233922,0.9919503945971229
2016-11-08,1,0.0012869385953523538,0.0013125197386663675,-0.0019034599500716526,0.009920784683093877,0.9923568232145329
2016-11-10,1,0.0014651924736609912,0.0015199923328699603,-0.002641730420751368,0.009920784683093877,0.9922269426379998
2016-11-14,1,0.0019043194230474346,0.0020143477792563098,-0.0028724427384091778,0.008053847511228108,0.992442205757067
2016-11-16,1,0.00023436836333083156,0.0004798913006715754,-0.002742377176157209,0.007003367006520098,0.9936470363100957
2016-11-18,1,0.00025611298545527746,0.0004601947644093089,-0.0019803640559575893,0.007003367006520098,0.993636985115356
2016-11-22,1,0.0007139874200521005,0.0008399612454037141,-0.0020928548667864507,0.007003367006520098,0.9937456568268476
2016-11-25,1,0.0005863762250827233,0.0007503510308169435,-0.003425686527028784,0.0064549502566805216,0.9938248287217925
2016-11-29,1,0.0007106026453154388,0.0008397584779376257,-0.003798224986973359,0.0064549502566805216,0.9935669218081411
2016-12-01,0,-0.00011154054699378667,9.443476690300921e-05,-0.002554574167963655,0.0064549502566805216,0.9948014611460729
2016-12-05,1,0.0006577396348511049,0.0007768778269674603,-0.002554574167963655,0.0064549502566805216,0.9952780503960466
2016-12-07,1,0.0014360910041588215,0.0014709447369449585,-0.003425686527028784,0.0029052703096818628,0.995704805602934
2016-12-09,1,0.0009949321304441976,0.0010772397840194403,-0.003425686527028784,0.0029052703096818628,0.99594608402168
2016-12-13,1,0.001199268440680692,0.00125512103043193,-0.003798224986973359,0.0029052703096818628,0.9958240919205861
2016-12-15,1,0.0010403923930864152,0.0011188354536237725,-0.003951506291434623,0.0018925588320368857,0.9954193624236419
2016-12-19,1,0.0014426559152314663,0.0014472937573216985,-0.003951506291434623,0.0026452826331566097,0.9950649645961558
2016-12-21,1,0.0011523760311956594,0.0011972972983847912,-0.003951506291434623,0.002685249007205931,0.9951390718162912
2016-12-23,1,0.0005593997125724086,0.000689078702580341,-0.0021612616118603834,0.0037961490163651536,0.9939839182401566
2016-12-28,1,0.0015228379468904042,0.0016405147691273226,-0.004593295226675827,0.0037961490163651536,0.9930145653701913
2016-12-30,1,0.0013807314286067981,0.001474442338622546,-0.008879642545210642,0.0037961490163651536,0.9916466594769832
2017-01-04,1,0.0018261402024354486,0.00201139109038842,-0.008879642545210642,0.0037961490163651536,0.9910838969173693
2017-01-06,1,0.001525997921709648,0.0016647769039004432,-0.00843039984729239,0.006432839045647179,0.9914875547922374
2017-01-10,1,0.0013997162937780035,0.0015180667910232124,-0.00936380139466386,0.00834155938321419,0.9885807803843032
2017-01-12,1,0.0012983865465585694,0.0014181195325781257,-0.009348291837521278,0.00834155938321419,0.9885155933412185
2017-01-17,1,0.0007194024451720973,0.0007745663592985306,-0.006323583294953921,0.00834155938321419,0.9892724432741555
2017-01-19,1,0.0012200695408329481,0.0013441733907244196,-0.008648890536323872,0.00784329313621868,0.9890907885878152
2017-01-23,1,0.0013984504804204763,0.0015458343165908276,-0.008648890536323872,0.009511105313944595,0.988587794102702
2017-01-25,1,0.002425250567817382,0.002695981536501529,-0.008648890536323872,0.007621374970853233,0.9893441102871953
2017-01-27,1,0.001767682620991801,0.0019775177589738827,-0.008648890536323872,0.008485252340589722,0.989809371258893
2017-01-31,1,0.000708515885706332,0.0007750383318907257,-0.005776851561918817,0.009511105313944595,0.9903017958829582
2017-02-02,1,0.000499809078360015,0.0005012296701855985,-0.004338379341995946,0.008485252340589722,0.990929811680449
2017-02-06,1,0.0006209678902363536,0.0006241977939258913,-0.005776851561918817,0.008485252340589722,0.9907305769301751
2017-02-08,-1,-0.0011490145373923041,-0.0009395647193511749,-0.004338379341995946,0.008485252340589722,0.9927477198352436
2017-02-10,-1,-0.0011323357719987747,-0.0009151264009928784,-0.004302891622077493,0.009016236128170686,0.9926752070339377
2017-02-14,-1,-0.0010674620807326089,-0.0008584788233060309,-0.004302891622077493,0.010810221507236636,0.9907385407271803
2017-02-16,-1,-0.0011628436587789253,-0.000944701658115148,-0.004195099596660339,0.010810221507236636,0.9914362409998553
2017-02-21,-1,-0.00028155867921258646,-0.00017413266704902433,-0.005157707439042778,0.009595155366945666,0.9918770835801447
2017-02-23,-1,-0.00046471422747829534,-0.00035843189306696574,-0.00498059290168628,0.009595155366945666,0.9921525634292592
2017-02-27,-1,-0.0013037309391315107,-0.001043820040050266,-0.004171992092680558,0.0073268721514826605,0.9931189739238099
2017-03-01,-1,-0.0011725786899880702,-0.0009042361368017728,-0.004146688660872682,0.006662249735102032,0.9937881702172113
2017-03-03,-1,-0.0009154557298177028,-0.0006812402464130567,-0.004146688660872682,0.008839810642842432,0.9929563804449257
2017-03-07,-1,-0.0018109627383471835,-0.0014399320311446128,-0.003980192827354444,0.008839810642842432,0.9923672099062244
2017-03-09,-1,-0.0011646632007157012,-0.0008544628276715188,-0.00498059290168628,0.005509221196586355,0.9930612356168133
2017-03-13,-1,-0.00133632759083116,-0.0009971869058555088,-0.00498059290168628,0.0040614749676386955,0.9934120763935838
2017-03-15,1,0.0006296679978556808,0.0007255138667324744,-0.005388862704877239,0.001609312601667882,0.9947536071656844
2017-03-17,0,-6.213199835444978e-05,0.00012342980652646908,-0.006128224992770437,0.0023318905030284597,0.9945666633732254
2017-03-21,-1,-0.00051389656737113,-0.000282859063042757,-0.005481030009813277,0.0040614749676386955,0.9944634521562314
2017-03-23,-1,-0.0009118176878625269,-0.0006105709531811178,-0.005481030009813277,0.005499250968796617,0.994032884340276
2017-03-27,-1,-0.0011239699907830277,-0.0007728649098174956,-0.005481030009813277,0.008766065987532178,0.9932192603036677
2017-03-29,-1,-0.0017480398658980135,-0.0012884555675915365,-0.005481030009813277,0.008766065987532178,0.9929024030342002
2017-03-31,1,0.0009213949240391792,0.0009419971878421062,-0.005481030009813277,0.007951673514537056,0.9937417154242811
2017-04-04,1,0.00046006284331684877,0.00048827452325865534,-0.0047128307510357886,0.007951673514537056,0.9944522887041987
2017-04-06,1,0.00044206722506100627,0.0004617232736339288,-0.0047128307510357886,0.007951673514537056,0.9939173355544425
2017-04-10,1,0.00047657427975660266,0.0004924174240657698,-0.0047128307510357886,0.008250184020776097,0.9930643255881403
2017-04-12,0,-3.90006152030888e-06,4.166700956950321e-05,-0.004583843427173687,0.008775455660335496,0.9928238797969922
2017-04-17,0,-6.071009146118648e-05,5.764073368357187e-06,-0.004583843427173687,0.008250184020776097,0.992753126869385
2017-04-19,1,0.00017249623314953962,0.00020237992723938736,-0.005893392598612135,0.007951673514537056,0.9918684268844093
2017-04-21,1,0.00045336669604603865,0.0004731805970097024,-0.009441370347065976,0.005905208274806551,0.99183022240234
2017-04-25,1,0.0011647377310479079,0.0012802142145599813,-0.009932487952309266,0.0037141114966554333,0.9908184508695435
2017-04-27,1,0.0008971591543604914,0.0009203553837689444,-0.009932487952309266,0.0024591564387194424,0.9912341603671874
2017-05-01,1,0.0012933840855358142,0.0014218303629206066,-0.009932487952309266,0.0037141114966554333,0.9904842329355408
2017-05-03,1,0.0018861296268862958,0.0021524993482575057,-0.009932487952309266,0.009649608010887663,0.9892339941827354
2017-05-05,1,0.000885380836584538,0.000999174464870076,-0.009396735907438312,0.0115316242308631,0.9897764153761144
2017-05-09,1,0.0011984954300442376,0.0013702028294779803,-0.009396735907438312,0.009561273877152351,0.9901899669314582
2017-05-11,1,0.0014190921146872747,0.0016229797962534105,-0.009396735907438312,0.0082078094896678,0.990461539120808
2017-05-15,1,0.001101588071609158,0.0012775689880069102,-0.006462931616630358,0.0082078094896678,0.9910928441760266
2017-05-17,-1,-5.270337773055475e-05,-3.262959761202672e-05,-0.005122548316608536,0.0082078094896678,0.9916944344933093
2017-05-19,-1,-0.0005902712821743932,-0.0005317842201676371,-0.004957495624009326,0.009561273877152351,0.9912038516833387
2017-05-23,-1,-0.0001751001958630904,-0.00015213300514826584,-0.004957495624009326,0.0082078094896678,0.9924793315565102
2017-05-25,-1,-7.093822740293816e-05,-6.177244832860675e-05,-0.004957495624009326,0.011544846064999382,0.9912278872074661
2017-05-30,1,0.00036063142631577466,0.00042418164610474976,-0.0050457140953206765,0.009561273877152351,0.9916237228741829
2017-06-01,1,0.001549531679085628,0.0017534034196545617,-0.005387203730542587,0.006365129904395839,0.9923439030704674
2017-06-05,1,0.0020456400569004406,0.002306309464769308,-0.005387203730542587,0.004868866912463367,0.9927752715071034
2017-06-07,1,0.0013800297288136215,0.0015381781388830087,-0.005387203730542587,0.004868866912463367,0.993144404048017
2017-06-09,1,0.0009652908525737363,0.0010247655814896019,-0.0050457140953206765,0.004963333988294046,0.9929092822584553
2017-06-13,1,0.0011069549457012962,0.001215405172194291,-0.0050457140953206765,0.007225941233040329,0.992407039937228
2017-06-15,1,0.0005255265670881532,0.0005710017761831604,-0.0027638968270379417,0.007225941233040329,0.9930079956543035
2017-06-19,1,0.0019875824283702003,0.002303257214240962,-0.0036383244922196783,0.005069023073969568,0.993766209436033
2017-06-21,1,0.001369618750365012,0.0015445226824679968,-0.0027638968270379417,0.0064633803035388515,0.9936152562413718
2017-06-23,1,0.0018399383504941968,0.0020101159380470288,-0.0027638968270379417,0.0047091470117935534,0.9945870058715187
2017-06-27,1,0.0013240020599058515,0.0014325213245706219,-0.0007478229334981407,0.005249179651552573,0.9946956699645684
2017-06-29,1,0.0010730941389588131,0.0011682153271201578,-0.0007478229334981407,0.005249179651552573,0.994747552754653
2017-07-03,0,-0.00012443772516942378,1.8125155545751213e-05,-0.0015895811083135813,0.00665394589382943,0.9936085307001785
2017-07-06,-1,-0.0004610669549471746,-0.0002824243038069803,-0.0015895811083135813,0.00665394589382943,0.993278969178937
2017-07-10,1,5.417879722420879e-05,0.00017353368809557267,-0.0036137719756950027,0.005249179651552573,0.9935619554203932
2017-07-12,1,0.0005558507409739622,0.0006236948214774346,-0.003650547718246907,0.0042525615166994525,0.9939340388209438
2017-07-14,1,0.0008624011114240823,0.0008665645840187796,-0.004530808486737627,0.005101162860759387,0.9931099775934811
2017-07-18,1,0.0004215685895324159,0.0004909109784190473,-0.007131700393413806,0.005780911436122806,0.9924130847720334
2017-07-20,1,0.0008835636303246653,0.000908121802603783,-0.008761100817320516,0.005101162860759387,0.992397592892145
2017-07-24,1,0.001240486082680048,0.0012730153063328156,-0.008761100817320516,0.0042525615166994525,0.9923985366741302
2017-07-26,1,0.0016833580598559952,0.0017842475091920354,-0.009799557722945792,0.0028336814893808807,0.9920643205997507
2017-07-28,1,0.0009526041080439084,0.0009756590853725226,-0.008021099445067206,0.0031732442435475493,0.9928868068414453
2017-08-01,1,0.0016643598537236463,0.0017750495748529403,-0.008021099445067206,0.0031732442435475493,0.9931322994119115
2017-08-03,1,0.0009533458968849637,0.0009693610498179643,-0.007131700393413806,0.004416259498865657,0.9936669423436257
2017-08-07,1,0.0012489860172328732,0.0013991430326327232,-0.007131700393413806,0.004416259498865657,0.9935358259310192
2017-08-09,1,0.0007792238953541091,0.000846194933262254,-0.008021099445067206,0.004937624946763695,0.9931082276580165
2017-08-11,1,9.972989066426205e-05,0.00014202414808307877,-0.008021099445067206,0.004937624946763695,0.9924231555467496
2017-08-15,1,0.00021165826772397828,0.0002428132163287353,-0.00950642124895085,0.004937624946763695,0.9920193896475543
2017-08-17,-1,-0.00011863923137893028,-5.3591977535693934e-05,-0.00950642124895085,0.005773021980702177,0.9914606403753949
2017-08-21,-1,-8.075671203502631e-05,-1.997680550807501e-05,-0.00950642124895085,0.005773021980702177,0.991477199294165
2017-08-23,1,2.6881290189519958e-05,2.7479716076722653e-05,-0.008491120451353765,0.005773021980702177,0.9915228441449133
2017-08-25,-1,-0.00018662103863199166,-0.00012159918081263154,-0.009741065650541534,0.005773021980702177,0.9910869097127134
2017-08-29,-1,-0.0002896019335053361,-0.0002048094390607177,-0.009741065650541534,0.007582505241801756,0.9906251114563829
2017-08-31,1,4.764048352988654e-05,0.00010554987788269051,-0.009741065650541534,0.0076095561498026425,0.9902950731683575
2017-09-05,-1,-0.000904334457191192,-0.0007138256421606659,-0.008520274430355372,0.008952551014714098,0.9906354463740086
2017-09-07,-1,-0.0010323285380944044,-0.0008303639423635048,-0.007838423312806283,0.008952551014714098,0.9912785975154684
2017-09-11,-1,-0.0006862348678470067,-0.0005297363920008372,-0.006237862886081222,0.008952551014714098,0.9908939550169042
2017-09-13,-1,-0.0011170070267440962,-0.0009159629346425648,-0.005093461959906821,0.005818779699844477,0.9921317498536781
2017-09-15,-1,-0.0008930061749993478,-0.0007547089703582302,-0.004069881922044123,0.004671009998968134,0.9929864789050817
2017-09-19,-1,-0.0005459108945622103,-0.00046309705778349293,-0.005465812111213192,0.004665175845196211,0.9927451814463504
2017-09-21,-1,-0.0009158394195123377,-0.0007918808356650834,-0.0049992182647080495,0.006108773557850006,0.9926664854625225
2017-09-25,-1,-0.001542580724393098,-0.0013508067562161212,-0.002260893392607723,0.006108773557850006,0.9929945389408498
2017-09-27,-1,-0.00164874833428616,-0.0014056663587820586,-0.001809250853885724,0.004665175845196211,0.9936530450830946
2017-09-29,-1,-0.0011993668912416073,-0.001016472128525832,-0.0009368211708013085,0.004665175845196211,0.9939875664462438
2017-10-03,-1,-0.0007090000790680386,-0.0005952926344092069,-0.0009987059612734648,0.003978953304990457,0.9942996143858225
2017-10-05,-1,-0.0008396168872171284,-0.0006903953639992029,-0.0024465477640241923,0.0033942999968798065,0.9942135864073768
2017-10-09,-1,-0.0002306421482540928,-0.00010340785219555639,-0.00283907102298025,0.0033942999968798065,0.9932822266639948
