JNU-Tangyin/eata/results/Batch4_SP500/Batch4_SP500-AVB.csv
Date,Action,Predicted_Q25,Predicted_Q75,Actual_Q25,Actual_Q75,RL_Reward
2010-12-14,0,0.0,0.0,-0.005394539966080388,0.008514374392029097,0.9919766673923281
2010-12-16,0,0.0,0.0,-0.0029326092380934253,0.009803281319362377,0.9924719283274543
2010-12-20,0,0.0,0.0,-0.003673569334059767,0.007058998506731574,0.9929593512030632
2010-12-22,1,37.962370898977994,40.04784508100724,-0.003673569334059767,0.00572071642975646,0.02499733050486132
2010-12-27,1,0.00015196526782481582,0.00026641764460069907,-0.0030942526024919964,0.00572071642975646,0.9933600103106658
2010-12-29,1,0.00030980961847130995,0.00044079158420207295,-0.0030942526024919964,0.0070739986506871185,0.9929694672917049
2010-12-31,1,0.000989143931164499,0.001017515043390513,-0.0038203102875524033,0.00817738628613319,0.9913564084062098
2011-01-04,-1,-0.00042391939499534506,-0.0002017885549085367,-0.0043534608875954225,0.0070739986506871185,0.9921546835813021
2011-01-06,0,0.0,0.0,-0.0043534608875954225,0.007239406936859691,0.9917155542644698
2011-01-10,-1,-0.0005227532823384984,-0.00039350113397389907,-0.002463005299676408,0.00790905105814596,0.9918938003949693
2011-01-12,-1,-0.0001397470752733162,-3.609408846228711e-05,-0.002463005299676408,0.007239406936859691,0.9926296440493501
2011-01-14,0,-6.802169781207628e-05,5.205394979671403e-05,-0.002463005299676408,0.0068995507004255795,0.9929665703044022
2011-01-19,0,-7.924602545139657e-05,3.5137093158186486e-05,-0.002138834287360334,0.005855714701811916,0.9935403914756761
2011-01-21,-1,-0.0002268782061203202,-7.941051963242961e-05,-0.0014449187097315482,0.005855714701811916,0.99365265811732
2011-01-25,1,0.0012539727858335878,0.0013866289837078884,-0.003499786899019425,0.005197290883823348,0.993869807863623
2011-01-27,1,0.0019404067526146629,0.002194469222189838,-0.003499786899019425,0.0037415063204621667,0.9928227503479551
2011-01-31,1,0.0015478753942088014,0.0017104433440260245,-0.003499786899019425,0.0037415063204621667,0.991990729809758
2011-02-02,1,0.0008835128259292249,0.0009316282710899863,-0.002527273862071202,0.005600372312085427,0.9911953056887022
2011-02-04,1,0.0009639658083656147,0.001064294901161362,-0.004760671226961598,0.0037415063204621667,0.9906562664515844
2011-02-08,1,0.0013634174356330858,0.0015343649197220135,-0.004760671226961598,0.006271337475855165,0.9900635374896751
2011-02-10,1,0.0017621998358029573,0.002015323000480884,-0.008607866274587293,0.010464604495645808,0.9886351585421748
2011-02-14,1,0.0011265101568977164,0.0012082287252702826,-0.010144599685477438,0.010464604495645808,0.9881092834763481
2011-02-16,1,0.0009237538810732823,0.000962620949776683,-0.010144599685477438,0.012947745777567823,0.9873546731930529
2011-02-18,1,0.0007058541994513108,0.0007188201969458628,-0.010144599685477438,0.012947745777567823,0.9871911296002862
2011-02-23,-1,-0.00029122526077209347,-0.00012313487125679995,-0.010550544399411195,0.012947745777567823,0.9869064362034828
2011-02-25,1,0.001146316629676463,0.001183476240921717,-0.010550544399411195,0.010464604495645808,0.9877640604461589
2011-03-01,1,0.00041228350403973264,0.0004961048668471479,-0.010144599685477438,0.009559136917653411,0.9902716303071326
2011-03-03,1,0.0006646591220213208,0.0007015360756517733,-0.008122869877653142,0.009559136917653411,0.9910448853346945
2011-03-07,1,0.0002032028183589824,0.00022887883654475622,-0.006450327663058731,0.009559136917653411,0.991659912477004
2011-03-09,1,0.0009880330576906445,0.001064663970798768,-0.006450327663058731,0.005710756497034539,0.9929517930896228
2011-03-11,1,0.0017309242895062328,0.0019517996436590867,-0.006858788381151186,0.004375574996350601,0.9936461939084277
2011-03-15,1,0.0012896109027371013,0.0014564494945151388,-0.006252616988213069,0.004375574996350601,0.994240836753895
2011-03-17,1,0.0010716595928878915,0.001157566019387522,-0.0017919159603689168,0.004280183091767298,0.9948300589782619
2011-03-21,1,0.0011824181364865065,0.001266376054847757,-0.006858788381151186,0.004217113607957666,0.9938092514987641
2011-03-23,-1,-0.00035887495760366403,-0.0001902968984505511,0.0006564080836390185,0.00542458078328463,0.9931103666450527
2011-03-25,1,0.00026630011322513377,0.00034503132095992377,0.0006564080836390185,0.006348980085928349,0.9930274863048308
2011-03-29,1,0.0009892180963360793,0.001055114481982064,0.0006564080836390185,0.0070561058652026274,0.992918969481269
2011-03-31,1,0.0020433037008688636,0.002304492851615765,-0.0017919159603689168,0.0070561058652026274,0.9926420871074835
2011-04-04,1,0.0005816807894512573,0.0006425421258732764,-0.00034287669987134067,0.006909426662298683,0.9925717180038592
2011-04-06,1,0.0010887530638824061,0.0011312694341430415,-0.0007474118264240677,0.007027641874713093,0.992443020585133
2011-04-08,1,0.00021355892759260858,0.00029333582342579856,-0.0003037070872409566,0.007027641874713093,0.9921929894571907
2011-04-12,0,-0.00012192877144457032,2.6023211514135326e-05,-0.0007474118264240677,0.010006415229711386,0.9911583779735322
2011-04-14,1,0.0006415267272807079,0.0006607623157154104,-0.004944695476519325,0.010006415229711386,0.9911706279119437
2011-04-18,1,0.00037954045385877645,0.00044487024704996413,-0.0018639055741828058,0.007027641874713093,0.9922849688773598
2011-04-20,1,0.0014652189495183562,0.0015553819341591795,-0.0018639055741828058,0.0069135882077631045,0.9932171515229596
2011-04-25,1,0.0021792918589096013,0.0023659060647210307,-0.005300443013759122,0.006322792240890357,0.9924243148614523
2011-04-27,1,0.003065365100429791,0.003426396308777038,-0.005300443013759122,0.0053334187869211215,0.9922254456579481
2011-04-29,1,0.0031442897777620186,0.0035293616404578594,-0.004944695476519325,0.0053334187869211215,0.9929983506885026
2011-05-03,1,0.0026867122010814284,0.002955306324060143,-0.005300443013759122,0.0069135882077631045,0.9908019045864542
2011-05-05,1,0.002993294514271216,0.0033239392079523586,-0.006060028485304559,0.009930924415588379,0.9898779076626498
2011-05-09,1,0.0020580464553575433,0.002206799909976101,-0.006060028485304559,0.015162202733446279,0.9892947407703986
2011-05-11,1,0.0018348674517906214,0.0018964243635927046,-0.006060028485304559,0.009930924415588379,0.990222382254282
2011-05-13,0,0.0,0.0,-0.00796969502530846,0.009930924415588379,0.9890734206068773
2011-05-17,0,0.0,0.0,-0.011054401947958325,0.013223838980871302,0.9878736867420784
2011-05-19,1,0.0012446223959752308,0.0013409892023095874,-0.012833562023539519,0.013223838980871302,0.9878619865723136
2011-05-23,0,0.0,0.0,-0.00796969502530846,0.015162202733446279,0.9882101642342875
2011-05-25,1,0.0016432236939749258,0.001747396043034255,-0.010270013273978217,0.013506036831505083,0.9876949651656833
2011-05-27,1,0.0019917084430979585,0.0021239498143570774,-0.010270013273978217,0.008937176689286829,0.9882669355482961
2011-06-01,1,0.0016080280558565642,0.0016650368727268276,-0.00796969502530846,0.004867717712186977,0.9904272928882706
2011-06-03,1,0.001571268344391869,0.001590009222508939,-0.004012918947245007,0.005149487339154925,0.9900823520459184
2011-06-07,1,0.0020135835051060483,0.0021164810888558384,-0.0017659340397031824,0.007908515503413444,0.9905303957906275
2011-06-09,1,0.0021209530853625704,0.0022563526371714975,-0.0017659340397031824,0.009585800122604082,0.9898712253280462
2011-06-13,0,0.0,0.0,-0.0017659340397031824,0.009585800122604082,0.9899405439384852
2011-06-15,0,0.0,0.0,-0.0039020138953830114,0.005365695150260676,0.9899816948124396
2011-06-17,0,0.0,0.0,-0.0023660466146919927,0.009855336062994272,0.9898802045121536
2011-06-21,0,0.0,0.0,-0.0023660466146919927,0.013763716448792176,0.9889181018643017
2011-06-23,0,0.0,0.0,-0.0015566441189789689,0.013763716448792176,0.9898282021399858
2011-06-27,0,0.0,0.0,-0.002891776050618056,0.013763716448792176,0.9892286966808167
2011-06-29,0,0.0,0.0,-0.00949274234527673,0.013763716448792176,0.987841712566932
2011-07-01,0,0.0,0.0,-0.010113043169875088,0.010626458701680946,0.9886983120814665
2011-07-06,0,0.0,0.0,-0.010391192154979988,0.009220698185238775,0.9881105359435379
2011-07-08,1,0.0012841954309801996,0.0013595815640894207,-0.01838059921178016,0.004864137032918922,0.9859243703160044
2011-07-12,1,0.002153560175557845,0.002248625063133766,-0.01838059921178016,0.009220698185238775,0.9809380122207594
2011-07-14,1,0.0006398318379795168,0.0007342997066301092,-0.012491763728931238,0.010626458701680946,0.9808226974309838
2011-07-18,1,0.0005965093424720637,0.0007302086501100132,-0.014668842979986873,0.011472910910733132,0.9798455821837976
2011-07-20,0,0.0,0.0,-0.014668842979986873,0.005717491285074397,0.9813905997165431
2011-07-22,1,0.001800317388314784,0.001982507054979688,-0.021603126107895363,0.003923277812434997,0.9785265431209851
2011-07-26,0,0.0,0.0,-0.021603126107895363,0.008669211344161949,0.9784656841980449
2011-07-28,0,0.0,0.0,-0.019074648943174795,0.011072514948966564,0.9783940399648812
2011-08-01,0,0.0,0.0,-0.019074648943174795,0.01730712997187051,0.9774540299987218
2011-08-03,0,0.0,0.0,-0.017899355504957384,0.01730712997187051,0.9781410418080332
2011-08-05,0,0.0,0.0,-0.01342251140999215,0.01730712997187051,0.9800161989839689
2011-08-09,-1,-0.0016383774177685445,-0.0013430325712013294,-0.009141541314270796,0.01730712997187051,0.9840584980901098
2011-08-11,0,0.0,0.0,-0.01342251140999215,0.015557912296509178,0.9848912773130748
2011-08-15,-1,-0.0005049015466814966,-0.0003370782122169051,-0.009141541314270796,0.01256073448189141,0.9860382607983557
2011-08-17,0,-3.7538092372394556e-05,0.00010847675803022814,-0.014624718341725986,0.01256073448189141,0.9853756484383269
2011-08-19,-1,-0.0020424860815073153,-0.001668497560312993,-0.009141541314270796,0.01256073448189141,0.9867545119416595
2011-08-23,-1,-0.0008922943835543583,-0.0006790718760036435,-0.014624718341725986,0.010865543700823876,0.9853669042963931
2011-08-25,-1,-0.0011691177798227943,-0.0009075529885304737,-0.015374291228409363,0.010865543700823876,0.9848471305821419
2011-08-29,1,0.00013481956287516558,0.00024503781381310824,-0.015374291228409363,0.010186635546019607,0.9853429113730967
2011-08-31,1,0.000311515884693421,0.00042987944658003444,-0.022728378800483316,0.010186635546019607,0.9844119278315538
2011-09-02,-1,-0.00028510891939284035,-0.00010020489440376785,-0.028809019684143653,0.010186635546019607,0.9821174406828936
2011-09-07,1,0.00029337162660539215,0.0004114241613477494,-0.028809019684143653,0.010186635546019607,0.9801810080515486
2011-09-09,-1,-0.0009988523422833112,-0.0007192065104658366,-0.027063983108565018,0.010797062125036018,0.9795450530601281
2011-09-13,-1,-0.00034317065695875927,-0.00017830290037754067,-0.027063983108565018,0.012213142619651318,0.9769021368534005
2011-09-15,-1,-0.0008554289808700619,-0.000665216942468544,-0.027063983108565018,0.013817653452175078,0.9770216245605478
2011-09-19,-1,-0.0016507609342610642,-0.0013941867728031589,-0.027063983108565018,0.015372397990342731,0.9756668257395213
2011-09-21,-1,-0.0038142836182647267,-0.003306032671309126,-0.02486775728827164,0.01913329723811167,0.9767052315368144
2011-09-23,-1,-0.004072384332434821,-0.003542675924656487,-0.022180963994742415,0.024159662950113344,0.977138135605091
2011-09-27,-1,-0.0029747723596326003,-0.0025852006025961043,-0.022180963994742415,0.024159662950113344,0.9774493843139551
2011-09-29,0,0.0,0.0,-0.014598986984860412,0.02897011793944288,0.9760718077995204
2011-10-03,0,0.0,0.0,-0.009196586543255508,0.02897011793944288,0.9780815699816473
2011-10-05,0,0.0,0.0,-0.010819358155413053,0.028328586826031142,0.9770474843380518
2011-10-07,0,0.0,0.0,-0.0041502314685538865,0.024053996533190007,0.9790801652450362
2011-10-11,1,0.0007308079837795407,0.000770295712538898,-0.0011165346659856652,0.02163636758207287,0.9820969227943546
2011-10-13,-1,-0.0017779407795004767,-0.001546345750663415,-0.0011165346659856652,0.02163636758207287,0.9798818525663978
2011-10-17,0,0.0,0.0,-0.0011165346659856652,0.02302600887404547,0.9808461418654477
2011-10-19,0,0.0,0.0,-0.006565986877978003,0.012763061862596986,0.9809982720511877
2011-10-21,0,0.0,0.0,-0.018066624383685403,0.009820618766429652,0.9810545899766915
2011-10-25,0,0.0,0.0,-0.019184136190048256,0.008410039344518503,0.980615972970634
2011-10-27,0,-0.0011805876855973466,0.005734065315931906,-0.020485203483766843,0.008273209148826914,0.9855331555392899
2011-10-31,1,0.0010148715032622622,0.0011819927777457378,-0.020485203483766843,0.009799059076736456,0.9827456441634784
2011-11-02,1,0.00046074929516040056,0.0005462782740647538,-0.01845097390879491,0.009799059076736456,0.9842812855878394
2011-11-04,1,0.0005023631371930057,0.0005885457557805234,-0.01845097390879491,0.008273209148826914,0.9843171222655761
2011-11-08,0,0.0,0.0,-0.01845097390879491,0.009799059076736456,0.9836410145015044
2011-11-10,0,0.0,0.0,-0.01845097390879491,0.01016919809400663,0.9835138507488509
2011-11-14,0,0.0,0.0,-0.018480494390701915,0.009799059076736456,0.984992327474331
2011-11-16,0,0.0,0.0,-0.01263499194141806,0.01280840206051534,0.984077569233191
2011-11-18,0,0.0,0.0,-0.011185115483439305,0.01280840206051534,0.9848623976348839
2011-11-22,0,0.0,0.0,-0.007667836939279929,0.01797917866530571,0.985392214251887
2011-11-25,0,0.0,0.0,-0.005746197799075476,0.019260446098839756,0.9856107876137635
2011-11-29,-1,-0.00022530011783442928,-0.0001729172223900202,-0.007667836939279929,0.019260446098839756,0.9852465249136103
2011-12-01,0,0.0,0.0,-0.005003441521608762,0.01797917866530571,0.9874594686880662
2011-12-05,0,0.0,0.0,-0.006879940164799268,0.01797917866530571,0.9867119155740564
2011-12-07,0,0.0,0.0,-0.013080127882743908,0.018527835310958946,0.986255218456984
2011-12-09,1,0.0012522946204567172,0.001522001506932628,-0.01045152190826944,0.011461676504133178,0.987985152565521
2011-12-13,1,0.0008519545480595183,0.0010889876537029499,-0.01045152190826944,0.011461676504133178,0.9876740481169561
2011-12-15,1,0.0019056958843048644,0.002262930501628029,-0.01045152190826944,0.011280336869749384,0.9881549195493522
2011-12-19,1,0.0011006891943881217,0.0013012583887843454,-0.007653297255421153,0.011280336869749384,0.9883112770027748
2011-12-21,1,0.001471772621950622,0.001717764405867696,-0.007653297255421153,0.010588827926922605,0.9885245898465216
2011-12-23,1,0.001577419236226596,0.0017899605430630211,-0.007653297255421153,0.011829500692046467,0.9881932705092572
2011-12-28,1,0.0003749844847927194,0.00040232027302056694,-0.006108133072871647,0.011829500692046467,0.988718900260718
2011-12-30,1,0.0010379073726756562,0.0011551175445834688,-0.006108133072871647,0.011829500692046467,0.9888593930360275
2012-01-04,1,0.0008076308231486421,0.0009434313306654909,-0.004852052348355209,0.011829500692046467,0.9893868428526614
2012-01-06,1,0.001069907788371625,0.0012626310394505617,-0.004852052348355209,0.010951139068292036,0.9898824063103511
2012-01-10,1,0.0012461120311697646,0.0014675971120670648,-0.006108133072871647,0.010951139068292036,0.9899061229877814
2012-01-12,-1,-0.0004102610200134974,-0.0003334425692567982,-0.006108133072871647,0.010951139068292036,0.9903869586413485
2012-01-17,1,0.0010675161325257247,0.0012286934933794787,-0.00736866547308008,0.00869348499226125,0.9912070158034457
2012-01-19,1,0.0005235133330296009,0.0005886862521440357,-0.0051436242500893705,0.00869348499226125,0.9914792261735108
2012-01-23,1,0.0017950623043492407,0.002106425317556575,-0.008612353589673976,0.00818696147476817,0.9911567701426129
2012-01-25,1,0.0027988097635763542,0.003270161989672114,-0.008612353589673976,0.007035823649392515,0.9919763760619131
2012-01-27,1,0.0027925768551398528,0.0032378489629548528,-0.008612353589673976,0.007048875928901984,0.9910036024251058
2012-01-31,1,0.0031260833956374924,0.0036396589414382455,-0.010038567178754457,0.006581593337607063,0.9901257567690271
2012-02-02,1,0.002964266462481497,0.0033969194017609543,-0.010038567178754457,0.00693975756249793,0.9899884787380074
2012-02-06,1,0.0030632627136498248,0.003528564433881211,-0.009889636913870521,0.00693975756249793,0.9896212409422198
2012-02-08,1,0.0022291621264255174,0.0025473474724286346,-0.009889636913870521,0.007702844118826082,0.9903308985626108
2012-02-10,1,0.001623124438959264,0.0018133461855049963,-0.008250400425125527,0.00824754383459439,0.9894990788367796
2012-02-14,1,0.00016249905888345072,0.0002552837909376807,-0.008250400425125527,0.009202767478887841,0.989456785726096
2012-02-16,1,0.00018162125873299263,0.0002738562420237773,-0.009889636913870521,0.009202767478887841,0.9888757315667639
2012-02-21,0,-8.632524449120321e-05,1.3205709452282369e-05,-0.008250400425125527,0.009202767478887841,0.9897637018710769
2012-02-23,-1,-0.0005019724748610041,-0.0003311499423526535,-0.009889636913870521,0.009202767478887841,0.9892057160856816
2012-02-27,-1,-0.0012863625157339344,-0.0009243979837215426,-0.009889636913870521,0.011072086401788627,0.9892342998687637
2012-02-29,-1,-0.0012040216745155088,-0.0009211024643606465,-0.008667828134328037,0.011072086401788627,0.9896570629794211
2012-03-02,-1,-0.0007054584895558396,-0.0004846468122094497,-0.008667828134328037,0.011513555401583666,0.9894920938787846
2012-03-06,0,0.0,0.0,-0.006997662319267737,0.008699083242641804,0.990907414957275
2012-03-08,0,0.0,0.0,-0.008667828134328037,0.008699083242641804,0.990840440331434
2012-03-12,1,0.0005331342738987338,0.0006119467030690853,-0.009146247515381347,0.006875243797999912,0.9914395273971504
2012-03-14,1,0.0008883020195232811,0.0008892031819350164,-0.008667828134328037,0.00717068755064698,0.9914103117739643
2012-03-16,1,0.0010754083238867342,0.0011363586933492284,-0.006997662319267737,0.008082913672894598,0.991564345460621
2012-03-20,0,0.0,0.0,-0.006342105710198413,0.008082913672894598,0.9918786492981947
2012-03-22,0,0.0,0.0,-0.001465619823552357,0.011859341996012187,0.9919994889128061
2012-03-26,0,0.0,0.0,-0.0027886730048751604,0.007810293263551533,0.9920978710451022
2012-03-28,0,0.0,0.0,-0.001465619823552357,0.00829411448558711,0.992230415553495
2012-03-30,0,0.0,0.0,-0.002522705785800639,0.0071265714347431034,0.9930842713184311
2012-04-03,0,0.0,0.0,-0.0036201417639146133,0.00829411448558711,0.9922653843035278
2012-04-05,1,0.0011763193486514776,0.0012367991615216496,-0.0036201417639146133,0.00829411448558711,0.9925647984927451
2012-04-10,0,0.0,0.0,-0.0017962190967821888,0.011237397888310139,0.9925702824118249
2012-04-12,0,0.0,0.0,-0.003214978827764021,0.00829411448558711,0.9933408346814874
2012-04-16,0,0.0,0.0,-0.0036201417639146133,0.003949929255865077,0.9931156421176514
2012-04-18,1,0.0005272451653734125,0.0006045305375380836,-0.004763405164862092,0.003949929255865077,0.9925864287157203
2012-04-20,0,0.0,0.0,-0.008889968723699739,0.0024323562094513383,0.9917330651854386
2012-04-24,1,0.0007175692992554097,0.0009131574305301905,-0.006151493097593431,0.003920864471128969,0.9913263047216186
2012-04-26,1,0.0020320889945311684,0.002089020262340662,-0.006151493097593431,0.0024323562094513383,0.9910468582155394
2012-04-30,1,0.0015219888110725222,0.0015548632369198757,-0.008387850071773846,0.003920864471128969,0.9903571032019286
2012-05-02,1,0.002128923684807439,0.0021986542429251596,-0.00971285308142567,0.003920864471128969,0.9893376343880846
2012-05-04,1,0.0012623807834597138,0.0012712074430579596,-0.012294221635951084,0.003920864471128969,0.9886668641362011
2012-05-08,1,0.0010736625426221397,0.0011460698107237193,-0.012294221635951084,0.007931567799264062,0.9877506879684814
2012-05-10,1,0.001869086153634843,0.001978008464915409,-0.012294221635951084,0.009626463152814513,0.9870499385715288
2012-05-14,1,0.0005848824409750339,0.0006706419296008517,-0.012294221635951084,0.009626463152814513,0.9871628474150648
2012-05-16,0,0.0,0.0,-0.009882267465754636,0.01117888878176987,0.9871169737042957
2012-05-18,0,0.0,0.0,-0.007774415612962268,0.01117888878176987,0.9884929949510907
2012-05-22,0,0.0,0.0,-0.007774415612962268,0.009626463152814513,0.9896057301323841
2012-05-24,0,0.0,0.0,-0.009882267465754636,0.009626463152814513,0.9883581011465025
2012-05-29,0,0.0,0.0,-0.008445948649217128,0.006682008929569412,0.989356758112121
2012-05-31,-1,-0.001013306696627193,-0.0008182667267143991,-0.006705983930364133,0.006729864547307281,0.9904370991614713
2012-06-04,-1,-0.0025611607106145037,-0.002102549713976132,-0.005085048309138548,0.01117888878176987,0.9897334284001057
2012-06-06,-1,-0.0016167465787498814,-0.0011987087844809992,-0.005085048309138548,0.006729864547307281,0.9917403661054214
2012-06-08,-1,-0.0006695316655976886,-0.0004363005881202549,-0.003926569271003347,0.00621734094054212,0.9921769585724238
2012-06-12,-1,-0.0018950510047214925,-0.0014875539052897498,-0.003926569271003347,0.00621734094054212,0.9925885625574244
2012-06-14,-1,-0.0010877269431498497,-0.000811165657905111,-0.003926569271003347,0.007897722294209495,0.991337130111818
2012-06-18,0,-4.7062609432232494e-05,4.317951853066509e-05,-0.003926569271003347,0.008871864752871966,0.9912406143416854
2012-06-20,1,3.76744023676798e-05,9.478422432765212e-05,-0.003926569271003347,0.008871864752871966,0.9910808161476026
2012-06-22,0,0.0,0.0,-0.003926569271003347,0.008871864752871966,0.9915579601766519
2012-06-26,0,0.0,0.0,-0.005514701354283274,0.008871864752871966,0.9912234180116851
2012-06-28,-1,-0.0002505941134534765,-0.000204399510137838,-0.0056764257806655085,0.007709912840331824,0.991361663124311
2012-07-02,1,0.0006430105289445231,0.0006688937689194454,-0.0056764257806655085,0.006277013931215122,0.9927728780571395
2012-07-05,1,0.0004168517413164364,0.00043492094411417723,-0.007544917726546715,0.006277013931215122,0.9921599260191931
2012-07-09,1,0.00028415597628642965,0.00035098533929447213,-0.007912944474796704,0.005009668387423363,0.992010375186794
2012-07-11,0,-5.881788285549906e-06,8.40516761965467e-05,-0.008039655561262477,0.005009668387423363,0.9915717675870912
2012-07-13,1,0.0007951806690844338,0.0008413855302616733,-0.008039655561262477,0.004421804277917416,0.9928539819772977
2012-07-17,1,0.0011797761407307246,0.0011801721793469708,-0.008245229696871992,-1.524016552740886e-05,0.9925088478572945
2012-07-19,1,0.0009547138857091623,0.0009578354668818775,-0.008245229696871992,0.005009668387423363,0.9925784815063194
2012-07-23,-1,-0.00037510453560111534,-0.00016787948410789582,-0.007986010786780767,0.006277013931215122,0.9933623947393051
2012-07-25,-1,-0.0004253082290938805,-0.00025487681113530494,-0.0058856026031002436,0.006504777060739784,0.9932288115161595
2012-07-27,-1,-0.00030235381043688963,-0.0001525245466984032,-0.005407387857847207,0.006349416776965135,0.9934609710808796
2012-07-31,0,0.0,0.0,-0.005407387857847207,0.003983370258721979,0.9937284566593989
2012-08-02,0,0.0,0.0,-0.005337668147470578,0.003983370258721979,0.994141007317153
2012-08-06,0,0.0,0.0,-0.004455486668002619,0.006745336232716431,0.9941824737257309
2012-08-08,-1,-0.001466510511830507,-0.0012306064714507079,-0.0023751643681382013,0.006745336232716431,0.9951393947307285
2012-08-10,-1,-0.0012661189918369699,-0.0010535403981220114,-0.0032463475571269953,0.0064146485505339945,0.9942238185738356
2012-08-14,-1,-0.0023954540779096744,-0.0020062190099282094,-0.002303833395548337,0.0064146485505339945,0.9943304323150285
2012-08-16,0,0.0,0.0,-0.002303833395548337,0.006178020620570632,0.9948464245765004
2012-08-20,0,0.0,0.0,-0.003090465074216679,0.0038361971604106743,0.9949945299318846
2012-08-22,0,0.0,0.0,-0.00398783921927167,0.0038361971604106743,0.9942646636529038
2012-08-24,0,0.0,0.0,-0.004705903744041126,0.0030492338355334616,0.9940975293553017
2012-08-28,0,0.0,0.0,-0.005960123263015886,0.0030492338355334616,0.9934457332978945
2012-08-30,0,0.0,0.0,-0.004766180695275861,0.006178020620570632,0.9933796862826109
2012-09-04,0,0.0,0.0,-0.004766180695275861,0.006178020620570632,0.9931781439896998
2012-09-06,1,0.00016367319381399695,0.00017091437010370223,-0.004766180695275861,0.0030492338355334616,0.9932804348028881
2012-09-10,-1,-0.0006403244453948738,-0.0005556473029589516,-0.004766180695275861,0.0008895093754340295,0.9943671175382072
2012-09-12,-1,-0.00020067535826034266,-0.00019938942196707013,-0.005960123263015886,0.0031703756710596775,0.9937086270772701
2012-09-14,-1,-0.00011562486723189089,-0.00010767980164387025,-0.008054768201622256,0.0008895093754340295,0.9933074871230738
2012-09-18,-1,-7.239820897538377e-05,-4.027527947734387e-05,-0.008054768201622256,0.0030655502762685664,0.9931939063655847
2012-09-20,-1,-0.0006861703604528187,-0.0006397799699366119,-0.007604474064744286,0.0030655502762685664,0.9935289426962408
2012-09-24,-1,-0.0004965795183624132,-0.0004947748268877743,-0.008054768201622256,0.0056808088435018,0.9930279046591393
2012-09-26,-1,-0.001299952559930959,-0.001185043940512625,-0.007483635429557027,0.0056808088435018,0.9934559969159464
2012-09-28,-1,-0.0006296602716416219,-0.0006223412478361714,-0.007483635429557027,0.0024461676150932705,0.9938310473380173
2012-10-02,-1,-0.00041086065834218505,-0.0003959748353738453,-0.007483635429557027,0.0056808088435018,0.9930209272307435
2012-10-04,-1,-0.0011955611859769365,-0.0010706780077469249,-0.007483635429557027,0.006042010235590475,0.9926508047156438
2012-10-08,-1,-0.001831043374079165,-0.001611142863124294,-0.007483635429557027,0.006042010235590475,0.9926243905850076
2012-10-10,-1,-0.0024469398931498626,-0.002090011122587599,-0.00759712946911881,0.005628625932803617,0.9923552634385784
2012-10-12,-1,-0.0025823112051512427,-0.002278536450785334,-0.006534573676395925,0.005628625932803617,0.9926015452209115
2012-10-16,-1,-0.002008562933703117,-0.001773992409572513,-0.007026675488667302,0.0024461676150932705,0.9921235897668219
2012-10-18,-1,-0.0008795446617797763,-0.0007951968315868386,-0.007026675488667302,0.005628625932803617,0.9921239682798871
2012-10-22,-1,-0.0019031564786197999,-0.0016635776617435446,-0.007026675488667302,0.0019676501781709745,0.9924460782839049
2012-10-24,-1,-0.003033071426448546,-0.002593930252501189,-0.006534573676395925,0.006626315836251366,0.9921456106799379
2012-10-26,-1,-0.0017552897232219538,-0.0015658592009446357,-0.006534573676395925,0.008658673106783709,0.9908622742271391
2012-11-01,-1,-0.0006605405090537016,-0.000598264831965196,-0.007542820929619471,0.006366642003505851,0.9913432026926615
2012-11-05,-1,-0.0010153904387289621,-0.0008834551252953728,-0.007542820929619471,0.008658673106783709,0.9909844981280924
2012-11-07,-1,-0.0013721302316072035,-0.0012143925425976245,-0.007542820929619471,0.009065842399395332,0.9897654734718848
2012-11-09,-1,-0.002032602896220989,-0.0018087053345935585,-0.0071521903495887305,0.009065842399395332,0.9899406943666218
2012-11-13,-1,-0.0024830998149700805,-0.0022017391143952657,-0.007138495081643271,0.009065842399395332,0.9897260118331612
2012-11-15,-1,-0.003525350350281113,-0.003078994116249856,-0.007138495081643271,0.009065842399395332,0.9899851666293428
2012-11-19,-1,-0.003176816767713765,-0.0027729363931984444,-0.007138495081643271,0.007879651608547165,0.9906192986324732
2012-11-21,-1,-0.0034423848098511394,-0.003025847978669735,-0.0030278368123759997,0.009065842399395332,0.9900785302711584
2012-11-26,-1,-0.002157241847885846,-0.0019589305480086404,-0.0030278368123759997,0.008270029734528263,0.9908147627862436
2012-11-28,-1,-0.0011420994036274944,-0.0010654515780880447,-0.006332263192741477,0.0076143807202581435,0.9917564785265561
2012-11-30,-1,-0.0010191661762734279,-0.0009744869365354917,-0.006656958604020156,0.008270029734528263,0.9913726466670318
2012-12-04,-1,-0.0003301452317497939,-0.0003063483417957729,-0.006656958604020156,0.0058071683552495265,0.9920397398645598
2012-12-06,1,0.0010281893242970429,0.0013185007873454538,-0.003575937611186927,0.005376602293157996,0.9939560394800839
2012-12-10,1,0.0003804344392104544,0.0006120072510694429,-0.0014628299943642098,0.005376602293157996,0.9946606975863654
2012-12-12,1,0.0006355921826159326,0.000878833053683038,-0.003017326889779815,0.004669826493152094,0.9945446850868466
2012-12-14,1,0.00011581453976762448,0.0002686629976317096,-0.0014628299943642098,0.005376602293157996,0.9941940828712194
2012-12-18,0,0.0,0.0,-0.003017326889779815,0.005376602293157996,0.9939910748925936
2012-12-20,0,0.0,0.0,-0.003017326889779815,0.004913056222809518,0.9945960732453839
2012-12-24,0,0.0,0.0,-0.0031024877382342816,0.004727889122921153,0.9947489508974388
2012-12-27,0,0.0,0.0,-0.0031024877382342816,0.004371693082220316,0.9952346546753718
2012-12-31,-1,-0.0006296820393453284,-0.0004343040771570399,-0.0031024877382342816,0.0040956134684746025,0.9955736652252585
2013-01-03,0,0.0,0.0,-0.004755096315178701,0.0034803438294929013,0.9924682018138539
2013-01-07,1,0.0007514664911354442,0.0009141979411719269,-0.004755096315178701,0.0036308844121882133,0.992397903704629
2013-01-09,0,0.0,0.0,-0.00592221416448171,0.00368503218474025,0.9913746217429349
2013-01-11,0,0.0,0.0,-0.004755096315178701,0.004727889122921153,0.9907957407149313
2013-01-15,1,0.0014293084125841596,0.00169757740362678,-0.004848366793528234,0.004371693082220316,0.9908503923377479
2013-01-17,1,0.0017177202370099371,0.0020554374890220666,-0.004848366793528234,0.00368503218474025,0.9910263313368913
2013-01-22,1,0.0019868464298263477,0.0023715506722393185,-0.005606705034138286,0.0023992186188814355,0.9907038889435869
2013-01-24,1,0.0017137871706379344,0.0020529403485393897,-0.007144791101244887,0.004444490489225496,0.9901285146816975
2013-01-28,1,0.0013266154872089652,0.0015896152377451796,-0.012591670484080216,0.004444490489225496,0.9895756452064175
2013-01-30,0,0.0,0.0,-0.009528823900311456,0.004444490489225496,0.9897131421205098
2013-02-01,0,0.0,0.0,-0.004896489754735876,0.007494577122475254,0.992509802748398
2013-02-05,0,0.0,0.0,-0.004896489754735876,0.007494577122475254,0.9925190043281
2013-02-07,0,0.0,0.0,-0.005427362190576482,0.0044386768306948175,0.9930786014107713
2013-02-11,0,0.0,0.0,-0.005427362190576482,0.0020825914671613772,0.9934531159401225
2013-02-13,0,0.0,0.0,-0.005427362190576482,0.004702502377734008,0.9927212639014407
2013-02-15,-1,-0.0002889403512018726,-0.00025413448611195065,-0.00707928204144022,0.004702502377734008,0.9919719532024575
2013-02-20,-1,-0.0005059805899640977,-0.0005028380869432961,-0.00707928204144022,0.004702502377734008,0.9919624897740716
2013-02-22,0,0.0,0.0,-0.007009735599091244,0.004702502377734008,0.9921424434083781
2013-02-26,0,0.0,0.0,-0.005653328659780842,0.005466708753565673,0.9928338908617822
2013-02-28,0,0.0,0.0,-0.004656276722558117,0.005466708753565673,0.9933121439512956
2013-03-04,0,0.0,0.0,-0.004656276722558117,0.005466708753565673,0.9934572397123068
2013-03-06,0,0.0,0.0,-0.004656276722558117,0.009013503582957997,0.9920121310997295
2013-03-08,0,0.0,0.0,-0.003189620502867425,0.009670400673696069,0.9922481596753021
2013-03-12,0,0.0,0.0,-0.003189620502867425,0.008570157889141146,0.9927697002783448
2013-03-14,0,0.0,0.0,-0.003189620502867425,0.007129144752268267,0.9933574353315713
2013-03-18,0,0.0,0.0,-0.00260133549183086,0.009161730367796602,0.9926405578738438
2013-03-20,-1,-0.0008812753208982391,-0.0008015120182955187,-0.00260133549183086,0.009161730367796602,0.9914909446386153
2013-03-22,-1,-0.0008852570654232455,-0.0007927767950033294,-0.00260133549183086,0.00830733298547046,0.991690161177392
2013-03-26,-1,-0.000951956082092702,-0.0008364104924076976,-0.0017336021981743444,0.00830733298547046,0.9918923761085896
2013-03-28,-1,-0.00033561159314844484,-0.0003160917459101114,-0.004039353478274034,0.00830733298547046,0.9915381936757331
2013-04-02,1,0.0002231522760521005,0.00031762486234323064,-0.004039353478274034,0.00830733298547046,0.9911634376631572
2013-04-04,1,0.0012678333439311812,0.001471683580341355,-0.007002926221644861,0.006851603915057622,0.9920003238605268
2013-04-08,1,0.0009970382486381535,0.0011080671115221608,-0.007020050142737826,0.006712561130477497,0.9918471482582372
2013-04-10,1,0.0007980019764735006,0.0008543558358928375,-0.007020050142737826,0.007612663794519441,0.9910729141138342
2013-04-12,1,0.000952693739906625,0.0009848240497311405,-0.007020050142737826,0.006648787432300435,0.991390550592626
2013-04-16,1,0.0009549536106052232,0.0010183797528653575,-0.006945413824563913,0.007612663794519441,0.9919290974178141
2013-04-18,-1,-0.00011516326522888534,-3.1896080312108425e-06,-0.0062447797023822155,0.007612663794519441,0.9927560287665725
2013-04-22,1,0.00016637541810214337,0.00022509429814835508,-0.002800252801600056,0.00841863025883412,0.9926098500071345
2013-04-24,1,0.0006362794213308401,0.0006854387159546847,-0.0062447797023822155,0.00841863025883412,0.9915351292149592
2013-04-26,0,-1.4309638544010014e-05,1.934286398630022e-05,-0.002034438073077084,0.00841863025883412,0.9917945626821252
2013-04-30,1,0.0012841363410741348,0.0014598852066484526,-0.0037156934673186195,0.006460975096097249,0.9923826715310147
2013-05-02,1,0.0008316969789220899,0.0009823466877696158,-0.0035246408796788006,0.006460975096097249,0.9917464253266377
2013-05-06,1,0.0003645098846059278,0.000397773958009719,-0.002034438073077084,0.007405984344992053,0.9911099100638004
2013-05-08,1,0.0010942076991844953,0.0012443893686671374,-0.0035246408796788006,0.006022857089766821,0.9915362235369306
2013-05-10,1,0.0010022247712518312,0.0011133440137915927,-0.005851476135617731,0.006022857089766821,0.9913498644658297
2013-05-14,1,0.0021155250001453226,0.002385324381994811,-0.013262613568371256,0.005098401960222121,0.9907441690402241
2013-05-16,1,0.002757201168792676,0.0031531480910206907,-0.013262613568371256,0.005098401960222121,0.9888804712853001
2013-05-20,1,0.003622724835276805,0.00414342300231581,-0.013262613568371256,0.0035192710119222115,0.9887397169077637
2013-05-22,1,0.002884033892060189,0.003300712944296402,-0.013792637150829318,0.002116564511186461,0.9875057029072765
2013-05-24,1,0.0026056750577813205,0.002988530790767766,-0.013792637150829318,0.005072482917299577,0.9861442439260761
2013-05-29,1,0.002330687822939061,0.0026976800649444943,-0.013262613568371256,0.008004018871518944,0.9864004694073942
2013-05-31,1,0.001039790747208892,0.0012326795422352567,-0.011862546850107174,0.01055716059929086,0.9871942850066682
2013-06-04,1,0.002023204796169586,0.0023476235955008948,-0.011862546850107174,0.010000426230663018,0.9876198242133954
2013-06-06,0,0.0,0.0,-0.00953904381137981,0.010000426230663018,0.9877258503043334
2013-06-10,0,0.0,0.0,-0.00953904381137981,0.012377870479274859,0.9868455720116915
2013-06-12,0,0.0,0.0,-0.0046036793112094404,0.01409305917793283,0.9872844768816775
2013-06-14,0,0.0,0.0,-0.005366885875730291,0.012377870479274859,0.9889859367977997
2013-06-18,0,0.0,0.0,-0.005366885875730291,0.012377870479274859,0.9890172653114588
2013-06-20,0,0.0,0.0,-0.004482833682830863,0.012377870479274859,0.9911741351982476
2013-06-24,0,0.0,0.0,-0.004482833682830863,0.005892468606256501,0.9929984444438403
2013-06-26,0,0.0,0.0,-0.004942121210842089,0.0036274512912105048,0.9929467507978026
2013-06-28,-1,-0.0004891636748837356,-0.00038787634367103206,-0.004942121210842089,0.0036274512912105048,0.993135198297364
2013-07-02,1,0.000229554102223643,0.00024235924556730454,-0.005366885875730291,0.0029910084117426485,0.9930275003861896
2013-07-05,1,0.00010962318176560663,0.000127918888058555,-0.005004348990594561,0.0029910084117426485,0.9932351966643973
2013-07-09,1,0.0007370904412992747,0.0008461758423990483,-0.005602288314756646,0.0021198238759898742,0.9940749396483405
2013-07-11,1,0.0015004895231258506,0.0017099672555594093,-0.006001527137034896,0.0008371266014577448,0.9942448283986697
2013-07-15,1,0.0011490939102089986,0.0012989911282459236,-0.006849554926167038,0.0021198238759898742,0.9938787021892064
2013-07-17,1,0.0011916664627072138,0.0013301793451438626,-0.00911770314351996,-0.0009272778934817984,0.9927081058505527
2013-07-19,1,0.0008954713748640015,0.0009306422169236151,-0.011084927663016832,-0.0013493140265450566,0.9909525869040521
2013-07-23,1,0.00039083197317049754,0.0004473861867842156,-0.011084927663016832,-0.0013493140265450566,0.9908248346640663
2013-07-25,0,-4.7346488592399345e-05,2.9629486454794805e-05,-0.009766526145473823,-0.0006576169072679418,0.9913589587438635
2013-07-29,-1,-0.0003752859766854024,-0.0002488900459430952,-0.00924258028133661,0.0007910162294731521,0.9917489133188214
2013-07-31,-1,-0.0015517666088593956,-0.0012665102460926126,-0.00924258028133661,0.0007910162294731521,0.9921205619480394
2013-08-02,-1,-0.0017911379277668039,-0.0015090381554955527,-0.00924258028133661,0.0007910162294731521,0.9924261323864583
2013-08-06,-1,-0.0014119352775165497,-0.0012232968411824735,-0.009678148291931898,0.005443395325789153,0.9914734636566711
2013-08-08,-1,-0.002291563091115974,-0.001955421187567148,-0.009678148291931898,0.008234084287054414,0.9908610453292194
2013-08-12,-1,-0.0023951961993273407,-0.0020429165622158066,-0.009088243859005984,0.009079011656533525,0.9904959796513637
2013-08-14,-1,-0.0034085368379223433,-0.0029456772729465875,-0.006172993443316349,0.01177082710123958,0.9906221369046634
2013-08-16,-1,-0.00522212397206364,-0.0045520710609183255,-0.0036653946922256936,0.01177082710123958,0.9910998254350016
2013-08-20,-1,-0.004768371962182438,-0.004150274805238573,-0.00450418709718379,0.011862982206400733,0.9897897589071745
2013-08-22,-1,-0.003906898146371365,-0.0033936404268561492,-0.005719392012748918,0.009306612583394321,0.990037852166175
2013-08-26,-1,-0.002610784867744829,-0.002310199963685463,-0.008400846910858982,0.007954941188514586,0.9900483636718723
2013-08-28,-1,-0.0032709469920171944,-0.0029028167227792123,-0.007002013198140507,0.010950701678648271,0.9897239779141446
2013-08-30,-1,-0.003253428146125982,-0.002896161907232762,-0.009356706764173323,0.010950701678648271,0.9891324680173301
2013-09-04,-1,-0.002475172303550164,-0.0022428189477288665,-0.007002013198140507,0.009594350165949764,0.9892619185084617
2013-09-06,-1,-0.0023997104404348104,-0.002158290920024221,-0.009776148803443654,0.007148361060207339,0.9890200251206371
2013-09-10,-1,-0.0019448019085123462,-0.001739028035057208,-0.009776148803443654,0.0051469989612617974,0.9897777170150657
2013-09-12,-1,-0.0016535957731013452,-0.001483537337845265,-0.009776148803443654,0.006207730068894726,0.9886070312944847
2013-09-16,-1,-0.0014460461317908186,-0.0013106218029890443,-0.009776148803443654,0.005074689010107237,0.9886221233535437
2013-09-18,-1,-0.00016461038485996365,-0.00015233690944753365,-0.009776148803443654,0.005074689010107237,0.9898143831864171
2013-09-20,-1,-0.0005379549988242952,-0.0005283873372405087,-0.009356706764173323,0.006931431206743658,0.9898450191823326
2013-09-24,-1,-0.0020809477081593667,-0.0018546747567261472,-0.005673568794012898,0.009594350165949764,0.9902895044160535
2013-09-26,-1,-0.0019559021811004617,-0.001754621022626582,-0.005673568794012898,0.006931431206743658,0.9892038108340064
2013-09-30,-1,-0.0014065269099955955,-0.001204260121402703,-0.005673568794012898,0.009890648027954746,0.9881246991598571
2013-10-02,-1,-0.0007082605946977246,-0.0006008736856446677,-0.009393560991681213,0.007502614760944269,0.9881780794354841
2013-10-04,-1,-0.0013312252614715425,-0.0011998436904898256,-0.005673568794012898,0.007502614760944269,0.9886567937170879
2013-10-08,-1,-0.001386228064944304,-0.0012655835557734993,-0.006630673999128825,0.007502614760944269,0.9882129169100178
2013-10-10,1,0.0005492533442131573,0.0007077796212337552,-0.012806738271212485,0.0045318486183158905,0.989287863757829
2013-10-14,1,0.00025828684450332034,0.0003375430748995688,-0.012806738271212485,0.004705070790662506,0.9890232252647171
2013-10-16,1,0.0010567982404141208,0.001248770002505951,-0.012806738271212485,0.004601808664730984,0.9893134043768091
2013-10-18,1,0.0011903457169845275,0.0013827867697334658,-0.013272082279438047,0.0036688470200994614,0.9894909906566398
2013-10-22,1,0.0010585509384497208,0.0011547558650512866,-0.013272082279438047,0.00263662246640378,0.9890500256473176
2013-10-24,1,0.0003619112826659085,0.0004184926908311499,-0.012806738271212485,0.0036688470200994614,0.9907595539080145
2013-10-28,1,0.00029952826933250635,0.00032674125558030797,-0.011245026120560268,0.00263662246640378,0.9921556771788206
2013-10-30,-1,-0.0004574178131965695,-0.0003748892810886409,-0.009484613893207284,0.004209117353968094,0.9920169939471747
2013-11-01,-1,-0.0012977901898229773,-0.001067520593554361,-0.009224356449739795,0.0035671721189131462,0.9923447021943691
2013-11-05,-1,-0.000958679627918922,-0.0008507625969139478,-0.008251731242009033,0.004601808664730984,0.9917882001965985
2013-11-07,-1,-0.00118418330444624,-0.0010523677240279227,-0.007418158073364564,0.005432492554827319,0.9921198569368714
2013-11-11,-1,-0.0017585414807719572,-0.0014616034991269153,-0.00712152949645665,0.005432492554827319,0.9924542465394386
2013-11-13,-1,-0.00047748170450707104,-0.00040916284446580465,-0.007248341085570357,0.004864468029656537,0.9921073326276126
2013-11-15,-1,-0.0010272017490756812,-0.0009007687555963094,-0.00712152949645665,0.004864468029656537,0.9927816530680704
2013-11-19,-1,-0.0015402243173941396,-0.0013522318697066174,-0.006840546848988336,0.007288660881309819,0.9924345869856769
2013-11-21,-1,-0.0009063801965231566,-0.0008255000141044839,-0.0071387210979204675,0.006550431311818878,0.9920346617345531
2013-11-25,-1,-0.001548309760846329,-0.001380605583338621,-0.0071387210979204675,0.006550431311818878,0.9921292844428212
2013-11-27,-1,-0.00010417510447712965,-6.463493994529202e-05,-0.0071387210979204675,0.004505945230201766,0.9930534509111026
2013-12-02,-1,-0.00041590751301344767,-0.0003740551863089883,-0.004315838057226123,0.004505945230201766,0.9935996792142675
2013-12-04,1,0.0005814331411015686,0.0007418966028597963,-0.004315838057226123,0.0034990932629112423,0.994225018766288
2013-12-06,1,0.0008798996383913627,0.0010981155780595562,-0.004829771580000478,0.0034990932629112423,0.9937397972672919
2013-12-10,1,0.0009554374550945954,0.0011805453196272089,-0.004829771580000478,0.002831581410032904,0.993556175229271
2013-12-12,1,0.0002865517338603065,0.0004229502088873037,-0.003764528453068071,0.004505945230201766,0.993956170308649
2013-12-16,1,9.149169653574534e-05,0.00018179235288352477,-0.003727876536600508,0.007455252357150376,0.9935043327661032
2013-12-18,1,0.0005557657240312456,0.0007018341477207414,-0.003727876536600508,0.006628668584962117,0.9942796361527612
2013-12-20,1,1.2036806028365435e-05,6.452668930186905e-05,-0.0031567156362668886,0.004779220319498984,0.9949531001749697
2013-12-24,-1,-0.0003766414261294668,-0.0003567146315235432,-0.003727876536600508,0.004779220319498984,0.994356827801578
2013-12-27,-1,-0.00012144028052287129,-0.00011715881297077472,-0.00735914514303296,0.003721339254484499,0.9938378108108038
2013-12-31,-1,-0.0005113200569244834,-0.0004496144769654209,-0.00735914514303296,0.007455252357150376,0.992149766116771
2014-01-03,1,0.00028176171336718726,0.0003027568174312787,-0.00735914514303296,0.007455252357150376,0.9921895896150195
2014-01-07,1,8.184267189494896e-05,0.0001807615075437665,-0.00735914514303296,0.007488529570955582,0.9921003075818061
2014-01-09,-1,-0.0007236044107520562,-0.0004721058194782548,-0.00735914514303296,0.007569951208700569,0.9916440900511454
2014-01-13,-1,-0.0006684952028777054,-0.0004400806596085165,-0.003207351063844113,0.007893574358592031,0.9916360613920779
2014-01-15,1,6.062009693445173e-05,0.0001845148103437732,-0.006365021073664921,0.007893574358592031,0.9920034427530633
2014-01-17,0,-7.710277080238222e-05,5.593936291916105e-05,-0.0045498844574131374,0.007893574358592031,0.9920209346450507
2014-01-22,-1,-0.0005494185784181416,-0.0003183281006455175,-0.006365021073664921,0.007893574358592031,0.9915402597020693
2014-01-24,-1,-0.0014226694955357488,-0.0010760027511029849,-0.0023471807713822974,0.007893574358592031,0.991972516967825
2014-01-28,-1,-0.001897753499946206,-0.0015081033579376762,-0.0017214066427453602,0.007893574358592031,0.9921587938485301
2014-01-30,1,0.0006079507171562731,0.0006849490095074571,-0.0023471807713822974,0.007893574358592031,0.9937267571258391
2014-02-03,1,0.0009914634843682208,0.0009951075346144413,-0.0023471807713822974,0.007893574358592031,0.9938445903607426
2014-02-05,1,0.0018642377700037328,0.001997629503102288,-0.006117591734779829,0.0054128573492528455,0.9938072010634456
2014-02-07,1,0.002309079174105825,0.0025041353330854483,-0.006117591734779829,0.0042435294842775514,0.9938947083314587
2014-02-11,1,0.004079688992018644,0.004593746317040633,-0.006117591734779829,0.0042435294842775514,0.9936535969106218
2014-02-13,1,0.0032940076607324426,0.0036586894938423946,-0.005466668857588048,0.004445293665706672,0.9945252461864793
2014-02-18,1,0.0031039081171623127,0.0033885354568135738,-0.005466668857588048,0.0042435294842775514,0.9944245534124779
2014-02-20,1,0.0029342423219998384,0.0031981073803008238,-0.005466668857588048,0.004120022444827237,0.9942806768916328
2014-02-24,1,0.002521459343329118,0.0026866441934082176,-0.005466668857588048,0.004212778082753094,0.9941743911891017
2014-02-26,1,0.002422824647643129,0.0026049565186255282,-0.0058594258810121085,0.005659490907397596,0.99344411190737
2014-02-28,1,0.0020504089867462777,0.0021315005999028216,-0.004247577601051291,0.004596890765871062,0.994097579251778
2014-03-04,1,0.0021179592954894467,0.002176358183164134,-0.004247577601051291,0.004596890765871062,0.9941497137830995
2014-03-06,1,0.0025455280574871314,0.002721559061341734,-0.0018522927575171906,0.004596890765871062,0.9953274661754082
2014-03-10,1,0.002221925099127926,0.0023557804685026737,-0.0006899067657567143,0.005659490907397596,0.9952498203355676
2014-03-12,1,0.0031334561638020324,0.003431903486118579,-0.0018522927575171906,0.004596890765871062,0.9951517030715257
2014-03-14,1,0.0033675160336587512,0.0037207609830590353,-0.00370252050424319,0.004166769803012327,0.9945722985085257
2014-03-18,1,0.003588029030752256,0.003994921406038137,-0.00370252050424319,0.007865913890943125,0.9942911654122117
2014-03-20,1,0.002916492015122771,0.0032691577938039197,-0.00370252050424319,0.007865913890943125,0.9944259673509036
2014-03-24,1,0.0033552495158985975,0.0037778125929000027,-0.00370252050424319,0.0055135134700352905,0.9948215199598213
2014-03-26,1,0.0031920061633544192,0.003547620748913849,-0.00370252050424319,0.00463109777624232,0.9954515430605516
2014-03-28,1,0.0030068057414418424,0.0033237098407347104,-0.0012009983695370852,0.007957257472362679,0.9951202015938331
2014-04-01,1,0.0029950710005873698,0.003287194282563888,-0.0025596918058756546,0.0055135134700352905,0.9951614266614811
2014-04-03,1,0.002896086153503386,0.003138562518508182,-0.0025596918058756546,0.005740246783345852,0.9949233970566413
2014-04-07,1,0.0031256602014341395,0.003386664911836223,-0.00370252050424319,0.005740246783345852,0.9946904790768443
2014-04-09,1,0.002770868904503359,0.002959384226274352,-0.002600536429494518,0.007805020209963112,0.9945758886334629
2014-04-11,1,0.002097423563501806,0.0021576150534663523,-0.0015367833502965007,0.008108969238094973,0.9945134808904842
2014-04-15,1,0.0022630211107327685,0.00229832709213422,-0.0022171193796064305,0.005841563126056472,0.9944747755221887
2014-04-17,1,0.001901988404825682,0.0019143413544999224,-0.0015367833502965007,0.008042171128313891,0.9948743074557351
2014-04-22,1,0.001612869311371245,0.0016894472706682974,-0.0022171193796064305,0.008042171128313891,0.9947759166222699
2014-04-24,1,0.0019233359231732936,0.0019354015529705212,-0.0025588478890955367,0.008042171128313891,0.9948691917326152
2014-04-28,1,0.002254782803161835,0.002256761368089687,-0.0025588478890955367,0.005050501015805207,0.9954513412175464
2014-04-30,1,0.0025917734705575924,0.0026822464830797326,-0.0027069925317884775,0.005050501015805207,0.9954727190844583
2014-05-02,1,0.002594448081498442,0.0026994343356351357,-0.0027069925317884775,0.005758880655056498,0.9952799693174744
2014-05-06,1,0.002598564601660482,0.0026995390852115387,-0.002340767723111745,0.004254436863444903,0.9958711438578235
2014-05-08,1,0.0026340664961135764,0.0026929490892647003,-0.0027069925317884775,0.004254436863444903,0.9950987094530295
2014-05-12,1,0.0025115087920812885,0.0025546054929082218,-0.003641696260432634,0.0037488922169804295,0.9941628945616765
2014-05-14,1,0.0021286213565865067,0.0021320778652328706,-0.0034260690727203947,0.0037488922169804295,0.9947826592975338
2014-05-16,1,0.002179370228172558,0.002192768936715006,-0.003641696260432634,0.0037488922169804295,0.9945434868989413
2014-05-20,1,0.0016759966679303013,0.001768732909485811,-0.003447188131491006,0.004254436863444903,0.9945774204078708
2014-05-22,1,0.0012254046443135717,0.0013753969967041375,-0.0013771317150105054,0.004719290446708039,0.9948212533828742
2014-05-27,1,0.0011309548377338879,0.0013135805418442539,-0.0013771317150105054,0.004773791276186367,0.9948677950320932
2014-05-29,1,0.001043107933833574,0.0012111089852704603,-0.0022378971947365368,0.004773791276186367,0.9944135786784307
2014-06-02,1,0.0015931387983813094,0.0016900349021101585,-0.0023260054534160156,0.004773791276186367,0.9945993622693459
2014-06-04,1,0.0014753993276137305,0.00159925155107954,-0.0023260054534160156,0.004773791276186367,0.9946909106451505
2014-06-06,1,0.0014265255539242562,0.0015658511426837984,-0.0017549800711699132,0.004586859707885743,0.9955404618580129
2014-06-10,1,0.0007758691468437732,0.0009675740304550715,-0.0007819961874523037,0.004773791276186367,0.9965261741544764
2014-06-12,1,0.000389216879717078,0.0006456373333489693,8.454585980463938e-05,0.004773791276186367,0.9965432541535857
2014-06-16,1,9.264383962848046e-05,0.0003932397928750524,0.0004000329165244228,0.005311419892480546,0.9962519698309135
2014-06-18,0,-0.00013759464765233194,0.00023422503986641726,8.454585980463938e-05,0.0047865867166593705,0.9963421536039568
2014-06-20,-1,-0.0007055601445669719,-0.00022784036870712146,-1.9670885519678695e-05,0.005311419892480546,0.995631454933036
2014-06-24,-1,-0.0002312819260393902,-4.9301729249592646e-05,-0.0017549800711699132,0.004774667180183913,0.9956592045875404
2014-06-26,-1,-0.000715703930241886,-0.0005988179208040048,-0.0017549800711699132,0.005393697184306602,0.994308064832571
2014-06-30,-1,-0.00025736166180356877,-0.00021856590095815706,-0.0036679910680778526,0.005393697184306602,0.9939122573798985
2014-07-02,1,1.6412133717558854e-05,3.4080071682145516e-05,-0.003750714075977134,0.006153286095422548,0.9927405083820318
2014-07-07,1,0.00022924454736372442,0.00028564933901338097,-0.003750714075977134,0.008398084086832567,0.9925161996568242
2014-07-09,1,0.0002385698230996493,0.00027054219587122096,-0.004645204266797142,0.008398084086832567,0.9921001154679578
2014-07-11,1,0.00041843263052159603,0.00048756114361037323,-0.004645204266797142,0.008398084086832567,0.9919103258199207
2014-07-15,1,0.0006317388812987293,0.0007173629269670489,-0.004645204266797142,0.005758018940306752,0.9923679110638955
2014-07-17,1,0.0006708479149862968,0.0007587414523942619,-0.0065046585610629235,0.008398084086832567,0.9918031817084689
2014-07-21,1,0.00047124953701698906,0.0005202648274566339,-0.004370532174065728,0.009456894282695161,0.991590898579233
2014-07-23,1,0.00018333999299106465,0.000186220772393298,-0.0035560159359599853,0.009456894282695161,0.9914450390525669
2014-07-25,1,0.0003298956012259939,0.0003651884818130035,-0.0035560159359599853,0.006961198665889011,0.992538612753861
2014-07-29,1,5.768633487108124e-05,9.689406375604363e-05,-0.002925014925777077,0.005341801939955386,0.9932494616260746
2014-07-31,-1,-0.0006782842854887109,-0.0005470613893064356,-0.002925014925777077,0.004960769537010297,0.9944021740727524
2014-08-04,-1,-8.655853252499438e-05,-4.042850609207955e-05,-0.002925014925777077,0.004960769537010297,0.9946933051783426
2014-08-06,-1,-0.0003767128737617048,-0.00030491564115793296,-0.002239878209187851,0.004960769537010297,0.9952053844919937
2014-08-08,-1,-0.00026286957641434604,-0.0002053063219492123,-0.0011816181271046263,0.005341801939955386,0.9948531367874105
2014-08-12,-1,-0.0004749416948171822,-0.0003774713232959987,-0.0035214540148221746,0.005341801939955386,0.992704512640656
2014-08-14,1,0.00037043218812772734,0.0004023741457545333,-0.0035214540148221746,0.005009241104720408,0.992143542473507
2014-08-18,1,0.0005339668587745534,0.0005499102260341798,-0.003985343086951212,0.005009241104720408,0.9923210682172617
2014-08-20,1,0.0008364985253006419,0.0008449113612462112,-0.005378610015565605,0.002822597678238046,0.9923158472415633
2014-08-22,1,0.0005678506664821973,0.0005826827993737504,-0.003985343086951212,0.0037682373032514776,0.9928159655011005
2014-08-26,1,0.0005169110098449054,0.0005363074372790233,-0.005378610015565605,0.0037682373032514776,0.9919764624620351
2014-08-28,1,0.0005179650356441978,0.000527503298804151,-0.006392901210733511,0.0037682373032514776,0.9917686453760491
2014-09-02,1,0.0007322904225013947,0.0007360413385213877,-0.006392901210733511,0.0017139396900107881,0.9920935094730687
2014-09-04,1,0.0005234448817081458,0.0005582411681680421,-0.006392901210733511,0.0036166325163875536,0.9919338893844891
2014-09-08,1,0.0010116345718007202,0.0010589668266544274,-0.006392901210733511,0.002587053368093865,0.9921422970531848
2014-09-10,-1,-0.0009103728524462055,-0.000712236623341853,-0.00506902311422232,0.0036166325163875536,0.9933979988053503
2014-09-12,-1,-0.0015493100350448745,-0.0012775096932649182,-0.00444821965831179,0.0038855545909187335,0.9944623779102058
2014-09-16,-1,-0.0016575690781500275,-0.0013514261534224759,-0.0016180495227096036,0.004598374847993303,0.9937433380453595
2014-09-18,-1,-0.001619936060694824,-0.0013659513473879953,-0.0028354698654776043,0.004598374847993303,0.9937369854691329
2014-09-22,-1,-0.0015792788193427728,-0.0013283627011403758,-0.0028354698654776043,0.005483066177506866,0.9934047389557387
2014-09-24,-1,-0.0021644116718084233,-0.00184400492122725,3.56390545835868e-05,0.005483066177506866,0.9934882085237524
2014-09-26,-1,-0.0023581683688675263,-0.002023004018081887,3.56390545835868e-05,0.005483066177506866,0.9935682586339396
2014-09-30,-1,-0.0021122605243779694,-0.0018316458292794463,0.000573274479250193,0.005881789611470622,0.9931932203016622
2014-10-02,-1,-0.0018140009327748431,-0.0015801998121638965,0.000573274479250193,0.006647208461215996,0.9929936946454451
2014-10-06,-1,-0.0017589889705032895,-0.001513404513473284,0.0009041403386382963,0.007742024608098507,0.991916499195655
2014-10-08,-1,-0.0010486139383921508,-0.000893892155482795,0.0009041403386382963,0.007742024608098507,0.992606201234988
2014-10-10,-1,-0.0009497763627674299,-0.0008037188757860506,-0.0023429622800950596,0.007742024608098507,0.9927255182595663
2014-10-14,-1,-0.0003419821748669039,-0.00025475473808064017,-0.003054464013195871,0.007742024608098507,0.9934452796622845
2014-10-16,-1,-0.0005445194132043443,-0.0004458730635639404,-0.003054464013195871,0.008362211417726103,0.9929953267621943
2014-10-20,-1,-0.0002570333986485908,-0.00018908202286864258,-0.005258899927796891,0.009008605603168653,0.9927744423623759
2014-10-22,1,6.433597468812977e-05,8.151361479497574e-05,-0.005792444247471093,0.009008605603168653,0.9926811346331869
2014-10-24,1,0.00011104589970139085,0.00011423242721331609,-0.005792444247471093,0.009008605603168653,0.9927319911513205
2014-10-28,1,0.00011765589994152454,0.00012346211015929235,-0.005258899927796891,0.009008605603168653,0.9931960616492762
2014-10-30,1,9.711859889745682e-05,0.0001500213865433368,-0.005258899927796891,0.00912636992802677,0.9927218023748267
2014-11-03,1,0.000816021031923247,0.0008523532821283946,-0.005258899927796891,0.006586803200698253,0.9939179925058897
2014-11-05,1,0.0006868981745988606,0.0006987365005279482,-0.003955884999065293,0.003488341124908342,0.9945070853871144
2014-11-07,1,0.000621409917271797,0.0006447520244684427,-0.003955884999065293,0.006586803200698253,0.9936815975837741
2014-11-11,1,0.0006560420426222691,0.0006917967702549967,-0.0033679636648581263,0.006559325915602968,0.9940416166227735
2014-11-13,1,0.0007689883549257066,0.000827497519900972,-0.0033679636648581263,0.003488341124908342,0.9943569102908504
2014-11-17,1,0.0005763545521096397,0.000590973136260893,-0.004056169643144594,0.002721356338250501,0.9946104204835599
2014-11-19,1,0.000475617879391762,0.0004817041536137335,-0.0033679636648581263,0.005838911558046919,0.9936274332748379
2014-11-21,1,0.0005592475830819575,0.0005628314395701547,-0.0033679636648581263,0.006724086460694733,0.992613020231374
2014-11-25,1,0.0004458903180993419,0.000461956505587484,-0.005568860660636575,0.006724086460694733,0.992127963841781
2014-11-28,1,0.0010614497055299983,0.0011329792756444147,-0.005568860660636575,0.005838911558046919,0.9931125648247535
2014-12-02,1,0.0012348733229125078,0.0013300053141328263,-0.006397775336246895,0.0037022006049450677,0.9920912542523666
2014-12-04,1,0.001330672656203747,0.0014627242540310487,-0.006397775336246895,0.007287349814489816,0.9914757512315039
2014-12-08,1,0.0015102924185077435,0.0016537756999906474,-0.005847405989849432,0.009559988209742375,0.9915111221251548
2014-12-10,1,0.0017195468897301864,0.001887782786344388,-0.005847405989849432,0.009863140089303685,0.9914341127730166
2014-12-12,1,0.00124376360437408,0.0013314095153029275,-0.005568860660636575,0.009863140089303685,0.9915447946735122
2014-12-16,1,0.00146350741510569,0.0015579081068092737,-0.0012093946385975374,0.011909622551077095,0.9916149133115373
2014-12-18,1,0.0025981183512710556,0.002858828332625848,-0.002759063679621706,0.009863140089303685,0.9918476854071943
2014-12-22,1,0.0030341295961652096,0.0033345040255095856,-0.002220352421542098,0.00982122985442389,0.9924493377804534
2014-12-24,1,0.0027269810844577714,0.0030156659700390307,-8.383551510305438e-05,0.00982122985442389,0.9929108317247947
2014-12-29,1,0.002575801306229826,0.002826203979762313,-0.0018956797795007835,0.00982122985442389,0.9919692406296066
2014-12-31,1,0.0016807508806897058,0.0018140180010785788,-0.0018956797795007835,0.00982122985442389,0.9915573898291001
2015-01-05,1,0.0024143531985561855,0.00264567349098116,-0.002597435491667488,0.008998447084740119,0.9922624069149529
2015-01-07,1,0.003307932778758681,0.0036674285132600832,-0.002597435491667488,0.008717737008831257,0.9928096900413602
2015-01-09,1,0.0037924516398057952,0.004247444289166449,-0.006030699905193751,0.008016472913960187,0.9908755590068808
2015-01-13,1,0.004089853525414454,0.004602349613586211,-0.006030699905193751,0.008077700166518195,0.9909414965475639
2015-01-15,1,0.004325660635598705,0.004844292803910408,-0.01071241020276081,0.008077700166518195,0.9897737246417113
2015-01-20,1,0.003716964713246317,0.004141054930205544,-0.006030699905193751,0.008246489494131294,0.9905234271687798
2015-01-22,1,0.00420753718859654,0.004687492205342836,-0.01071241020276081,0.008137619799215913,0.9891924115179458
2015-01-26,1,0.004383866479866317,0.004905896066292695,-0.011895852990632606,0.009616532280168281,0.9875579650598496
2015-01-28,1,0.003670553824538416,0.004096282595125472,-0.011895852990632606,0.009616532280168281,0.9877002638123841
2015-01-30,1,0.0029233654438167514,0.003273351612518894,-0.00668972635534271,0.01021598645527249,0.9887737700041231
2015-02-03,1,0.0018190220879611809,0.0019598866356697444,-0.00668972635534271,0.01021598645527249,0.9885273348911404
2015-02-05,1,0.001318967389898411,0.0013286887046409918,-0.01151893829112339,0.010898073616356422,0.9870404650679069
2015-02-09,0,-8.699189952669458e-05,7.768959377116172e-05,-0.00668972635534271,0.0112500644223924,0.9884328343705754
2015-02-11,1,2.246556027330469e-05,0.00019612812762583888,-0.00668972635534271,0.011914372446157654,0.9877486846148911
2015-02-13,1,4.695408399003171e-05,0.00021802246809288103,-0.005075042557215883,0.011914372446157654,0.9883232060023683
2015-02-18,0,-1.1957445021528465e-05,0.00020553338489419056,-0.005075042557215883,0.011914372446157654,0.9880650653096534
2015-02-20,-1,-0.0008421186121644235,-0.0005135055347210139,-0.004951494850797727,0.013116446290836664,0.9881408443248212
2015-02-24,-1,-0.0015439832808344413,-0.0011176944566641924,-0.004520772505838733,0.011509693716860375,0.989670608275892
2015-02-26,-1,-0.0022861479551192533,-0.0017775863931098126,-0.004520772505838733,0.011509693716860375,0.9892400860800228
2015-03-02,-1,-0.0015034038505213172,-0.001091207848931839,-0.004951494850797727,0.01125103352222516,0.9893145561516119
2015-03-04,-1,-0.0016708978484553589,-0.0012731193114617625,-0.0058234617783174,0.01125103352222516,0.9888425863723908
2015-03-06,-1,-0.0025471691776156827,-0.0020487265602614707,-0.005014920421364229,0.01125103352222516,0.9898939021594289
2015-03-10,-1,-0.001479141170712359,-0.0011449197704734599,-0.0058234617783174,0.010852318089550478,0.9894270989665277
2015-03-12,-1,-0.0008073757032499741,-0.0005245080243281697,-0.00838180644399095,0.008251695887477676,0.9892320517057209
2015-03-16,-1,-0.0002511711275029766,-5.205737719471979e-05,-0.00838180644399095,0.008251695887477676,0.989387585102595
2015-03-18,1,0.00016067670187555134,0.0003055274769122481,-0.009382955033873883,0.006511429888084407,0.989547798878376
2015-03-20,1,0.0008441345418529531,0.0009157094794591862,-0.009382955033873883,0.006140112340737998,0.9907236156381497
2015-03-24,1,0.000753041257172204,0.00084330170291105,-0.009382955033873883,0.006511429888084407,0.9905888582691349
2015-03-26,0,-3.162034684964655e-05,0.00013180443004953972,-0.0080237956106341,0.006511429888084407,0.9917886714525694
2015-03-30,1,0.0004918028641849317,0.0005423086577026054,-0.005999803101915121,0.006140112340737998,0.9926068289117072
2015-04-01,-1,-0.0003403187369068275,-0.0001833853173987428,-0.006333519298542765,0.006140112340737998,0.991610058588357
2015-04-06,1,0.00020228395059483775,0.0003153790284279321,-0.006333519298542765,0.006511429888084407,0.9910317049014267
2015-04-08,-1,-0.0003493397210465246,-0.0001877314327275774,-0.006333519298542765,0.005113744502916783,0.9907421337038339
2015-04-10,-1,-0.0014869695016815954,-0.001179000303439415,-0.0037086808655493247,0.008301983393844982,0.9906246095061227
2015-04-14,-1,-0.0015612561958354611,-0.001266055165460916,-0.005495095594613225,0.006626365009992547,0.9899544284645091
2015-04-16,-1,-0.001933307482912081,-0.0015763142530494053,-0.004993781877478482,0.008301983393844982,0.9893748297935999
2015-04-20,-1,-0.0021577395997276917,-0.0017797329435844337,-0.004470864547610543,0.008301983393844982,0.9889689257365062
2015-04-22,-1,-0.0016873612980068244,-0.0013581134752421926,-0.004470864547610543,0.007635765044299933,0.9898780589480883
2015-04-24,-1,-0.0012539783873943547,-0.001014939667596163,-0.008041550314073338,0.007635765044299933,0.9894558119160349
2015-04-28,-1,-0.001021254877487505,-0.000824470303628303,-0.009138084515994266,0.009761311863078492,0.9884234537427421
2015-04-30,-1,-0.002632908558832304,-0.0022435628071141075,-0.007172024700452222,0.009761311863078492,0.9895872293968315
2015-05-04,-1,-0.0015278636290522623,-0.0012749855834599327,-0.00784220683804085,0.008339904811349181,0.9899382664505838
2015-05-06,-1,-0.002781610824564333,-0.0024129413408453164,-0.00784220683804085,0.008339904811349181,0.9901741357181086
2015-05-08,-1,-0.0019403735575394183,-0.001649274525935229,-0.00784220683804085,0.0039315317593447766,0.9917695872516491
2015-05-12,-1,-0.0028093077715324933,-0.002399186149383038,-0.007172024700452222,0.003972314532059284,0.9926937591959794
2015-05-14,-1,-0.0018380561248750357,-0.0016021120102669376,-0.004623199916084701,0.003972314532059284,0.9934555165977264
2015-05-18,-1,-0.0013803940051890055,-0.0012403538357463185,-0.003840309111768937,0.003972314532059284,0.9932683780282217
2015-05-20,-1,-0.0017353760907467984,-0.0015203885799261515,-0.003840309111768937,0.010027339752495852,0.992005843260362
2015-05-22,-1,-0.001785918541364472,-0.0015738540569814872,-0.00620303551745629,0.010027339752495852,0.9919071517158458
2015-05-27,-1,-0.0020591401891012643,-0.0017676656464258654,-0.00620303551745629,0.005726998958105521,0.9925307245238426
2015-05-29,-1,-0.0018081648712224537,-0.0015868161730620027,-0.005220771832044293,0.005726998958105521,0.9925996186247678
2015-06-02,-1,-0.0018096245237809,-0.0016661039490333696,-0.005220771832044293,0.004462803174000659,0.9928408535980897
2015-06-04,-1,-0.0023181179654104002,-0.002138085524701735,-0.0031960000414275143,0.0072464114045147614,0.9924118313856973
2015-06-08,-1,-0.0021302468587528272,-0.001985415823764491,-0.0031960000414275143,0.010027339752495852,0.9913965600991721
2015-06-10,-1,-0.001446207758711742,-0.0014190999483106332,-0.004756940807340709,0.010027339752495852,0.9915487029327095
2015-06-12,-1,-0.0014474989539875391,-0.0013977128825283464,-0.004756940807340709,0.0072464114045147614,0.9918406884171407
2015-06-16,-1,-0.00030200828343724664,-0.00015395375904970966,-0.004756940807340709,0.006016759841125438,0.9924656949426935
2015-06-18,1,0.00043122350157229834,0.0006927346446420656,-0.004756940807340709,0.005203350197638016,0.993238721312607
2015-06-22,-1,-0.0005202280538027256,-0.0004166714977607067,-0.003946648445251651,0.005203350197638016,0.9936696242851419
2015-06-24,-1,-0.0013597678937593712,-0.0013128057478482785,-0.003946648445251651,0.006016759841125438,0.9931895968478988
2015-06-26,-1,-0.0008805234090958126,-0.0008427851632116689,-0.0037567638002471387,0.006016759841125438,0.993353184345579
2015-06-30,-1,-0.0012139900074319122,-0.0012080690230894633,-0.0007923201162566073,0.006549515198202276,0.9936055193535754
2015-07-02,-1,-0.001234491563413468,-0.0011586245267575022,-0.0007923201162566073,0.006057150505231901,0.9944071142781866
2015-07-07,-1,-0.00011827911753858092,-2.3955782267677376e-05,-0.0037567638002471387,0.005340163118791196,0.9951758566614489
2015-07-09,-1,-0.00033901492885588034,-0.0002779748621529355,-0.0021001735815595586,0.005340163118791196,0.9951173843677761
2015-07-13,1,0.0002586153277026017,0.00043893893822675924,-0.0021001735815595586,0.006308949934223439,0.9952688054200162
2015-07-15,1,0.00027495965143173095,0.00042950160604822587,-0.0021001735815595586,0.006670687190521666,0.9950780555082827
2015-07-17,1,2.7690433518993057e-05,0.00011079375741799853,-0.0007792642457572154,0.006308949934223439,0.9951062943805016
2015-07-21,-1,-0.0003570859319673388,-0.00035634807412741583,0.0014926653801564224,0.0067597534836548595,0.9944344448139004
2015-07-23,1,0.00011939291611838646,0.00022310674646356684,-0.0007792642457572154,0.006308949934223439,0.9949302129613222
2015-07-27,-1,-9.804993419325363e-05,-3.1324880664863436e-05,-0.002211362203170003,0.006308949934223439,0.9918809400280562
2015-07-29,1,0.00017133346394949725,0.00017474906091028103,-0.005012439535354758,0.006308949934223439,0.9903651981324026
2015-07-31,1,0.00043912602575273574,0.0005159100500558924,-0.005012439535354758,0.006763188054953887,0.9902959429248803
2015-08-04,1,0.0009997754135284453,0.001221080510926254,-0.011146913927870827,0.00622429178659004,0.9891379304369303
2015-08-06,1,0.001382399197340021,0.0016713255725154719,-0.011146913927870827,0.006712171577290465,0.9889639359695701
2015-08-10,1,0.0016036080600678095,0.0019510736290617482,-0.016589756884161193,0.008146415682343162,0.9878645110641256
2015-08-12,1,0.002427084685480636,0.0029322151556814228,-0.016589756884161193,0.0066853676623864645,0.9874543126722778
2015-08-14,1,0.0026042301268939913,0.0031099784747982274,-0.016589756884161193,0.008146415682343162,0.9861559393244139
2015-08-18,1,0.0024086181617153355,0.0028439705574622243,-0.016589756884161193,0.010142962994327357,0.9857779051972405
2015-08-20,1,0.0021612859009490807,0.0025679537215901292,-0.016589756884161193,0.010142962994327357,0.9862600560255858
2015-08-24,-1,-0.00041747239031889245,-0.0003965825251165824,-0.01016809698156272,0.010142962994327357,0.9882724442401734
2015-08-26,1,0.0004151327959590422,0.000584205936225511,-0.01016809698156272,0.00884646514824525,0.9898259622668533
2015-08-28,1,0.0003977554412544178,0.0005460979708405461,-0.010853362472317555,0.00825208777088281,0.9890676617209606
2015-09-01,-1,-0.0013369317951422211,-0.0011906666250319498,-0.006681275970488569,0.009822382141766518,0.9883355121975445
2015-09-03,-1,-0.0007864962083528738,-0.0007161315190777255,-0.006681275970488569,0.009822382141766518,0.9886250317585193
2015-09-08,-1,-0.000702568130294505,-0.0006421261975393418,-0.00623816762041373,0.00884646514824525,0.9893625016391543
2015-09-10,-1,-0.0011282384162775213,-0.0010039192207997806,0.0004572613434907025,0.00884646514824525,0.989102052676712
2015-09-14,-1,-0.00012460684972675264,-9.712462173005581e-05,0.002968701076015744,0.008332239457377766,0.9904378654071109
2015-09-16,1,0.0006268537392326917,0.0007502539730097943,-0.0039904559048399065,0.007584130794967551,0.9912511766734627
2015-09-18,1,0.001206571004969393,0.001417911462829807,-0.0039904559048399065,0.008332239457377766,0.9906279389403075
2015-09-22,1,0.00015520986235979486,0.00016188459623828276,-0.002683852133825977,0.008659601477447602,0.9903836597923303
2015-09-24,1,0.000461280933071428,0.0005421210251819932,-0.00250624678165938,0.008659601477447602,0.9911280206090236
2015-09-28,-1,-0.0005556941120268031,-0.0004472035172266475,-0.002683852133825977,0.008659601477447602,0.9914165866520382
2015-09-30,1,0.001513810068589641,0.0017120751332206116,-0.005562271567583043,0.007002539792962811,0.9926408209106256
2015-10-02,1,0.0016328981704490588,0.0018145803636391952,-0.008812454130853197,0.007002539792962811,0.9916396919620545
2015-10-06,1,0.0013582817994857751,0.0015375280658003303,-0.010379905039575536,0.0072897532779563085,0.9902333948001724
2015-10-08,1,0.002020626537076565,0.0022688698339758716,-0.010379905039575536,0.005516301388198847,0.9905027307614581
2015-10-12,1,0.002072727809704885,0.0023309838502762396,-0.011731901803766825,0.003536384434886451,0.9885782557293958
2015-10-14,1,0.0014031954397866102,0.0015604951181016325,-0.011259800453481832,0.008812600234094185,0.9886514069480634
2015-10-16,1,0.002746217234780683,0.0030925257108591975,-0.011259800453481832,0.003536384434886451,0.989121718496541
2015-10-20,1,0.00256459870814605,0.002864586937263821,-0.011259800453481832,0.004438633522095964,0.9893918969224477
2015-10-22,1,0.0025036424744867337,0.0027684111756928337,-0.011259800453481832,0.006021497311240748,0.9893100521530007
2015-10-26,1,0.0015614725103925715,0.0016393128974451518,-0.01114137088024477,0.008267530226873956,0.9892928319625782
2015-10-28,1,0.0005852211589253567,0.0006370099001618788,-0.007915203623746338,0.008519796482107428,0.9895923607770751
2015-10-30,0,-8.143947382317025e-06,0.00011051370350351392,-0.004560762433193305,0.008519796482107428,0.9901159917788861
2015-11-03,1,0.000649376429893117,0.0006860780771672166,-0.004560762433193305,0.008519796482107428,0.9904475659735918
2015-11-05,1,0.0008042757140759462,0.0008147047425165154,-0.007915203623746338,0.00922290631274842,0.9878606645974957
2015-11-09,-1,-0.0005346173561766266,-0.0004383347058449664,-0.004000484916320165,0.00922290631274842,0.9886879700286333
2015-11-11,-1,-0.0002866552863612495,-0.0001818461207898776,-0.011593306947165203,0.008381060246779596,0.9883496561451227
2015-11-13,-1,-0.001073162379096983,-0.0008513670742636402,-0.011593306947165203,0.008381060246779596,0.9881180520817325
2015-11-17,-1,-0.00043278355721432444,-0.0002726452351993746,-0.011593306947165203,0.010302339708210588,0.987086215323647
2015-11-19,0,-0.00016957193134195417,1.5466652415851274e-06,-0.011593306947165203,0.010302339708210588,0.9870529381820483
2015-11-23,1,0.001063835847088177,0.0010742169382016798,-0.011593306947165203,0.009086216578304135,0.987379418658645
2015-11-25,1,0.0012957065983043503,0.0013726801168311106,-0.011164458767951923,0.010433608337982238,0.9876990784568425
2015-11-30,1,0.0011501284174931586,0.001194077591085131,-0.011164458767951923,0.010433608337982238,0.9875517103759551
2015-12-02,1,0.0010077642629463899,0.0010354983364563113,-0.007496749917071068,0.009129342022991635,0.98895476487068
2015-12-04,1,0.001516785410356692,0.0016231185933716647,-0.007496749917071068,0.009129342022991635,0.9898593886307
2015-12-08,1,0.0008141453896007524,0.0008384410927571646,-0.006682085492038795,0.009129342022991635,0.9900649724742677
2015-12-10,-1,-0.0004535818360616641,-0.0003216226811277926,-0.005038562087917252,0.009129342022991635,0.9905629026161965
2015-12-14,-1,-0.00031055004789745736,-0.00019485573948965713,-0.006682085492038795,0.009129342022991635,0.9901031491917552
2015-12-16,1,0.0009168010193529357,0.0009430472591060809,-0.006682085492038795,0.006282451859535269,0.9912381669414554
2015-12-18,1,0.00039061450518304477,0.00039644099576480163,-0.006682085492038795,0.007031631512389172,0.9895441930017913
2015-12-22,1,0.0007944277574211676,0.0008592113770970213,-0.006682085492038795,0.007031631512389172,0.9891919247734674
2015-12-24,1,0.0010994262605231457,0.0012091818704271255,-0.006682085492038795,0.007031631512389172,0.9887527125088882
2015-12-29,1,0.001576999222887415,0.001755907597680911,-0.01365012925357661,0.0013024566921351463,0.987034226195884
2015-12-31,1,0.0013709529321898786,0.0015109514562899847,-0.01365012925357661,0.004855060050068356,0.9874417616675554
2016-01-05,1,0.0018140608515602545,0.002027561030804896,-0.01365012925357661,0.00408176518718626,0.9881609989155445
2016-01-07,1,0.001454171635402087,0.001635339162769942,-0.014921334164594955,0.004855060050068356,0.9870308360879858
2016-01-11,1,0.001328354221003981,0.001518336387090419,-0.015278985048025894,0.00408176518718626,0.9865600354836227
2016-01-13,1,0.00040352179060792803,0.00045895215876661606,-0.016782062575493896,0.0062958412159693465,0.9858774390157705
2016-01-15,-1,-0.0012249849626432062,-0.0009834660264295895,-0.016782062575493896,0.012774720298697325,0.9851994115708338
2016-01-20,-1,-0.0019291511491256377,-0.0016052636095962739,-0.015278985048025894,0.012617184627414138,0.9866626138975602
2016-01-22,-1,-0.0011190865879692998,-0.000907189229684569,-0.015278985048025894,0.01079715317988287,0.9868485603625019
2016-01-26,-1,-0.0012499292376183576,-0.0009471545793571816,-0.015278985048025894,0.006931998786610229,0.9877364694647373
2016-01-28,-1,-0.002614611870005161,-0.002161969222305404,-0.009331662783234069,0.01079715317988287,0.9882341241973179
2016-02-01,-1,-0.0026148522464930248,-0.0021577636946847317,-0.009331662783234069,0.012617184627414138,0.9868231096123523
2016-02-03,-1,-0.0033504747941050504,-0.0027923050050314003,-0.005123033249168865,0.012617184627414138,0.9870345507278029
2016-02-05,-1,-0.0036274714825521247,-0.0030775413473099187,-0.003715771766694975,0.011408903877069986,0.9884456128837878
2016-02-09,-1,-0.004267614880578802,-0.003683893517517915,-8.525406053384128e-05,0.011408903877069986,0.9887246848419603
2016-02-11,-1,-0.0038449328720848506,-0.003334976621994667,-8.525406053384128e-05,0.011408903877069986,0.9895501164820755
2016-02-16,-1,-0.0030362877419033525,-0.002622857419722687,-0.0005084282606920486,0.007891803220894314,0.9908543752716447
2016-02-18,-1,-0.002597083712937747,-0.002225197861176707,-0.0005084282606920486,0.007891803220894314,0.9906226187086625
2016-02-22,-1,-0.0023725478451646987,-0.0020074499037738896,-0.004448782312591202,0.006451112677784355,0.9909522461952333
2016-02-24,-1,-0.002050612677254956,-0.0018250235804441284,-0.0025651743589914827,0.006451112677784355,0.9908192839117533
2016-02-26,-1,-0.0015406020791510536,-0.0013871966639520958,-0.0019381257794086326,0.006451112677784355,0.9916251934850934
2016-03-01,-1,-0.0002979640237857069,-0.00028576275159478967,-0.0027264394754214693,0.006451112677784355,0.9929274344226796
2016-03-03,1,0.00033886104555982195,0.0004401218787115839,-0.0027264394754214693,0.0065005053059997014,0.9932898679564311
2016-03-07,1,0.0006193527545723847,0.0007791215634191308,-0.0027264394754214693,0.0065005053059997014,0.99328995093152
2016-03-09,1,0.0004557692637662894,0.000567762389952824,-0.0027264394754214693,0.0065005053059997014,0.9933166218489023
2016-03-11,1,0.0013701394265416525,0.0016668680492210085,-0.0027264394754214693,0.006362770515962153,0.9932375904215383
2016-03-15,1,0.0016328769755531475,0.0019744414117362566,-0.005077878444463927,0.006362770515962153,0.9925384967045963
2016-03-17,1,0.0024149829974708424,0.0028756539746527454,-0.0085049373757784,0.0049998745429961555,0.9912194089920638
2016-03-21,1,0.0015555681697720645,0.001869383641971312,-0.0027264394754214693,0.006841972794018442,0.9923094691281009
2016-03-23,1,0.0011437873450442912,0.0013669235513031285,-0.008472107597067216,0.006841972794018442,0.9909151725878158
2016-03-28,1,0.0011324660038032797,0.0013268519837480808,-0.008472107597067216,0.0074949929949002,0.9905262211303498
2016-03-30,1,0.0015188275899654922,0.0018009209140459584,-0.010550290453603738,0.006841972794018442,0.9906453879505581
2016-04-01,1,0.0017145966024566062,0.0020187186539861917,-0.012596402612088676,0.0037649453010715544,0.9900960848371859
2016-04-05,1,0.0009708439655155067,0.0010726025211743784,-0.012596402612088676,0.007081788624787552,0.9893268027400667
2016-04-07,1,0.001011941006797027,0.0011499692811974245,-0.012596402612088676,0.008489683935110353,0.9886155551574816
2016-04-11,1,0.00045243231246659324,0.0004953571882418146,-0.010550290453603738,0.008489683935110353,0.9892381542945268
2016-04-13,1,0.00025951594234056554,0.0003071066835044391,-0.010550290453603738,0.0096588068702545,0.9883490916835105
2016-04-15,1,0.00017661721694512485,0.00024200404627506232,-0.008729301120501732,0.008489683935110353,0.989923085159436
2016-04-19,1,0.0008387290357323578,0.0010332132456878263,-0.010550290453603738,0.008270034722323323,0.9893950860906529
2016-04-21,-1,-0.000205510960132279,-0.0001469271447687071,-0.012578919580373238,0.008270034722323323,0.9893674200422026
2016-04-25,1,0.0005832307825532502,0.0007499122565161741,-0.012578919580373238,0.006937633379324076,0.9902879854758322
2016-04-27,1,0.00022421136416169395,0.000321313099273847,-0.009611738820965565,0.006937633379324076,0.9906243698029403
2016-04-29,-1,-8.511652006247634e-05,-2.9652977352770702e-05,-0.005687074517349153,0.006937633379324076,0.991016995699952
2016-05-03,1,0.00038156097258610434,0.00047135802590640415,-0.009611738820965565,0.006436001276957968,0.9913006179229386
2016-05-05,1,0.0006851594933207348,0.0007466249837524339,-0.013635657088104929,0.004573996522559515,0.9916928493758861
2016-05-09,1,0.0010746360648879031,0.0012031984792045631,-0.01492591095548206,0.0016369517476368372,0.9910242478265556
2016-05-11,1,0.0012259085089895544,0.001449799321871751,-0.013635657088104929,0.0016369517476368372,0.9922604377050301
2016-05-13,1,0.0007886326156502422,0.0009184544367523298,-0.013635657088104929,0.0017132064662192987,0.9927770606413433
2016-05-17,1,0.0006952970204594965,0.0008399569669447829,-0.006985476757796042,0.0017132064662192987,0.9931639852619613
2016-05-19,1,5.194316822625323e-05,0.0001320615410773613,-0.0037737590654551706,0.0034571906915417017,0.9940588706416927
2016-05-23,1,0.0005083182217708449,0.0006809361700801506,-0.0037737590654551706,0.0034571906915417017,0.993995301264054
2016-05-25,1,0.0005401659498138048,0.0007020091486976835,-0.0037737590654551706,0.002999333615188896,0.994057672300295
2016-05-27,1,0.0005581856281451393,0.0007269595189807799,-0.0037737590654551706,0.0034571906915417017,0.9930525356488978
2016-06-01,-1,-0.00020866587593252933,-0.00018229016757411966,-0.0028616215281235327,0.004367385950790261,0.9932390739194035
2016-06-03,-1,-0.0010414442911783936,-0.0009436967686929715,-0.0015893200326162168,0.006914974546590084,0.9933490829575979
2016-06-07,-1,-0.0021641094842219074,-0.0019019111574555192,-0.001151392446091214,0.009938173863137912,0.9928753508062007
2016-06-09,-1,-0.0020793584633181823,-0.0018148036185202867,-0.0018661888588099782,0.01223208177283482,0.9918748995101947
2016-06-13,-1,-0.0025180809594423656,-0.002157640079224696,-0.0025046485360928836,0.01223208177283482,0.9916351514132035
2016-06-15,-1,-0.001707175991191679,-0.001466789885545028,-0.0025861795948432372,0.010138917333735675,0.991868611759966
2016-06-17,-1,-0.0011065134514181153,-0.0009749387794140358,-0.002989386021698481,0.010138917333735675,0.9921164770704715
2016-06-21,-1,-0.0017501028981463372,-0.0014788867858306206,-0.0033210647055703334,0.010138917333735675,0.9921653898392923
2016-06-23,-1,-0.0016642174913120158,-0.0014275560557100455,-0.0033210647055703334,0.010138917333735675,0.9916592841164744
2016-06-27,-1,-0.001891447225997368,-0.0016028579952174775,-0.0033210647055703334,0.007750253138124902,0.9922287568765491
2016-06-29,-1,-0.001896918505720803,-0.0015740736034080991,-0.005639150384603824,0.007750253138124902,0.9919104792515488
2016-07-01,-1,-0.002177359295122748,-0.0017600352445984095,-0.005639150384603824,0.007750253138124902,0.991424657495707
2016-07-06,-1,-0.002236689284022364,-0.001814225994826914,-0.0104329894998812,0.006345080322794339,0.9914621410874571
2016-07-08,-1,-0.0010300996701516675,-0.0007923456496894973,-0.0104329894998812,0.006122012289743134,0.9921958253309555
2016-07-12,-1,-0.000653845190916139,-0.00048491764555446873,-0.0104329894998812,0.0065047487498613304,0.9916124088470242
2016-07-14,-1,-0.0005447028645581748,-0.0004114771784156915,-0.010907223108578236,0.0059927905498940275,0.9913865588402809
2016-07-18,-1,-0.001281048765235717,-0.0010517243124894403,-0.010443656302890012,0.0059927905498940275,0.9915535438311913
2016-07-20,-1,-0.0009698313668603552,-0.0007835412281871699,-0.010966004928444791,0.005933476467492082,0.9911217579638566
2016-07-22,1,0.00035704061886729577,0.0003819871179681551,-0.010966004928444791,0.0055198881713304435,0.99067152026462
2016-07-26,-1,-9.915565323218037e-05,-8.526822415467588e-05,-0.010443656302890012,0.0055198881713304435,0.9912392701630016
2016-07-28,1,9.172691697651641e-06,9.703377813554725e-06,-0.008135292769673948,0.004364106500302455,0.9922745000607058
2016-08-01,1,0.0008161917296841399,0.0009230786826847474,-0.009575828607363555,0.0016083433217254045,0.9921411064555126
2016-08-03,1,0.00036809708395494647,0.0004373679915856779,-0.006673690661877951,0.003539939920036921,0.9929125316443731
2016-08-05,1,0.0004349336502685495,0.0005188140005206376,-0.006137216041982024,0.003539939920036921,0.9932477832267795
2016-08-09,1,0.0015001136224482353,0.0018046862256635762,-0.006137216041982024,0.004151724044298743,0.9926908418609353
2016-08-11,0,-4.43902204868916e-05,2.7758259329722207e-05,-0.006137216041982024,0.004151724044298743,0.9915051450597203
2016-08-15,1,0.0003158867232940096,0.0004070782537851397,-0.007153869274441152,0.004151724044298743,0.9899495404087552
2016-08-17,1,3.100562757303276e-05,8.603135960989785e-05,-0.006137216041982024,0.007033024983215566,0.989713556997267
2016-08-19,-1,-0.00023126578559581862,-0.00018305910252772983,-0.0057865400296723424,0.01159178145101677,0.9896832566582916
2016-08-23,-1,-0.00030213701455082464,-0.0002489455409358956,-0.003709618658987811,0.011846278058993322,0.9890084042271766
2016-08-25,-1,-0.0001649310657684001,-8.857532695129663e-05,-0.0031022851606807783,0.012478350930325802,0.9883016037289492
2016-08-29,-1,-0.00018258768473014634,-0.00012351177540867884,-0.0031022851606807783,0.012478350930325802,0.9886536782294866
2016-08-31,-1,-0.00047812930754982826,-0.0004775640965809415,-0.0038366314944779938,0.012478350930325802,0.9883929913166801
2016-09-02,-1,-0.0006417130787874138,-0.0005953447861495086,-0.01004578148809639,0.012478350930325802,0.9872031550098915
2016-09-07,1,0.0002945682825797523,0.0003484786930113182,-0.014318944562193004,0.011846278058993322,0.9866587034139087
2016-09-09,-1,-0.0019277903920210194,-0.0017553943454064517,-0.008865310545313653,0.011846278058993322,0.988892196374066
2016-09-13,-1,-0.002751679680945927,-0.002416057966555479,-0.008103793316147507,0.009695660962151575,0.9900536356777913
2016-09-15,-1,-0.0010200240845397,-0.0009302161740505891,-0.008103793316147507,0.004332476365230013,0.9912692555823016
2016-09-19,-1,-0.0007368474950990592,-0.0006634325860865784,-0.008103793316147507,0.004332476365230013,0.991597722778263
2016-09-21,-1,-0.0002873459712100015,-0.00023669606584109378,-0.008103793316147507,0.003689306697863105,0.9923610174673141
2016-09-23,1,0.0009805010833424247,0.0011354006387665082,-0.008103793316147507,0.002315224099831404,0.9927909073438422
2016-09-27,1,0.000932387807580302,0.0011574728483308373,-0.00793619392921034,0.0017985170617012165,0.9930024298931529
2016-09-29,1,0.0007869076418468526,0.0010174816399807025,-0.00793619392921034,0.002315224099831404,0.9921323252162764
2016-10-03,-1,-0.000348136791174482,-0.0002946542940725892,-0.00610580229878021,0.004724935203232233,0.9921738473404144
2016-10-05,-1,-0.0018106644709670998,-0.0016798720118211857,-0.002926960445020381,0.004724935203232233,0.9930949268582946
2016-10-07,-1,-0.002168849305975643,-0.0019843196513213237,-0.001550135676153935,0.005929270962704413,0.9925029886896216
2016-10-11,-1,-0.002334734210815015,-0.002084072673745995,-0.0027158709032302705,0.005929270962704413,0.9921606915274506
2016-10-13,-1,-0.0018832283014802,-0.0017002967486852765,-0.006529209743633157,0.005929270962704413,0.99123003150446
2016-10-17,-1,-0.0014888653891793758,-0.001364257147737324,-0.006529209743633157,0.007744611260454115,0.9901894683348044
2016-10-19,-1,-0.0013749221857680537,-0.001250962479046481,-0.008822994326315947,0.009740731524713846,0.9882143275386237
2016-10-21,-1,-0.002029561033832902,-0.00179971489592754,-0.01231165319738632,0.009740731524713846,0.9872943036214069
2016-10-25,-1,-0.0021263975907234224,-0.0018486213476776384,-0.015656631277339742,0.011187893324050043,0.986204999687958
2016-10-27,-1,-0.003282622897885828,-0.0028448010190107644,-0.012951148189045168,0.009740731524713846,0.9871007654977707
2016-10-31,-1,-0.0018890177888840599,-0.0016212730403972774,-0.012951148189045168,0.008511553133085312,0.9875793610644854
2016-11-02,-1,-0.0024281056386032673,-0.0020988043532433297,-0.012951148189045168,0.008511553133085312,0.9879839275941971
2016-11-04,-1,-0.0015380398605034963,-0.001339645484455765,-0.012951148189045168,0.008511553133085312,0.9882304644127686
2016-11-08,-1,-0.00120605695864978,-0.0010508497096488195,-0.012951148189045168,0.008511553133085312,0.9878065704569465
2016-11-10,-1,-0.0022778923203491423,-0.0020159528993997835,-0.007210651273849101,0.008511553133085312,0.9889261793042345
2016-11-14,-1,-0.0010987860304725763,-0.000970884168338239,-0.007210651273849101,0.008039238646077359,0.9900429341869467
2016-11-16,-1,-0.002322951553151695,-0.0020665518395732324,-0.0041419711438385855,0.007179945815630646,0.9919478331310081
2016-11-18,-1,-0.003012221288580151,-0.0027072980545864616,-0.002534521636421405,0.008838731610440586,0.9909687758260932
2016-11-22,-1,-0.002501979472790042,-0.0022871290787232898,-0.002534521636421405,0.008039238646077359,0.9920316792381001
2016-11-25,-1,-0.002680925975588339,-0.002461955052575645,-0.0018612410866434437,0.008039238646077359,0.991959238405215
2016-11-29,-1,-0.001260139129878957,-0.0012398560514892956,-0.002534521636421405,0.00708906452704137,0.9929258472500159
2016-12-01,-1,-0.0012508550024536616,-0.0012408299657567189,-0.0006778317952243716,0.008196013898664313,0.9921482539239777
2016-12-05,-1,-0.00094511121182312,-0.0009217552026015229,-0.002534521636421405,0.008196013898664313,0.9923867147019111
2016-12-07,-1,-0.0002747187851176683,-0.00018313333817720047,0.00038014173054170706,0.008189064084776787,0.9932299066162098
2016-12-09,0,-9.926751294077357e-05,2.8700327294982233e-05,-0.0026446438287156355,0.008189064084776787,0.9927627001647504
2016-12-13,1,0.0004817620395973866,0.0007084598344670245,-0.0031229600794032077,0.008279552958272669,0.992543693575035
2016-12-15,1,9.858143355223565e-05,0.0002476882288792986,-0.0024407373678324773,0.008279552958272669,0.992626881784265
2016-12-19,1,0.001094616473528077,0.0013829602429880454,-0.0041552878379214776,0.006472738869273792,0.9938527575758375
2016-12-21,1,0.0010154201440067479,0.0013446948435443817,-0.0024407373678324773,0.007743267807568368,0.9941278705039254
2016-12-23,1,0.0010428394476937207,0.0013335644131181744,-0.007592592269441638,0.007743267807568368,0.99334551652448
2016-12-28,1,0.001042501760879369,0.0013353875725477524,-0.006586382267427895,0.006593783115695029,0.9937197081605978
2016-12-30,1,0.0019842255140636294,0.002439034369632314,-0.006586382267427895,0.004895574014216676,0.9936666831026577
2017-01-04,1,0.0015957821044457281,0.0019373952469039374,-0.007592592269441638,0.0063102498315618935,0.9913222520945759
2017-01-06,1,0.0022113612518589116,0.0026271825946003755,-0.008067189125748069,0.005116246540462556,0.990715995686807
2017-01-10,1,0.0013905179806523145,0.0016693873736986023,-0.007592592269441638,0.007087681157615863,0.9911632018526029
2017-01-12,1,0.0012664462223920914,0.0015026997618355215,-0.006586382267427895,0.007087681157615863,0.9915068800581175
2017-01-17,1,0.0010100570167679637,0.0011947568059825961,-0.007397662316387428,0.007087681157615863,0.9912007195304217
2017-01-19,1,0.0008879029037691642,0.001065017104089614,-0.006527309494947979,0.007088217485102438,0.9911412875084802
2017-01-23,1,0.0011859442748514719,0.0014048922755675501,-0.006527309494947979,0.007088217485102438,0.9907918207934263
2017-01-25,1,0.0005128135956453644,0.0006344684035463352,-0.004106190542486031,0.007847524712980085,0.9911775205247549
2017-01-27,1,0.0005310956525789289,0.0006565030109338115,-0.00310241853559966,0.007847524712980085,0.991566867189353
2017-01-31,1,0.001135066639301103,0.0013868428792272076,-0.00265801286193962,0.007847524712980085,0.9921236590508395
2017-02-02,1,0.000650072877794569,0.0007209832233931776,-0.002662930706969601,0.007088217485102438,0.9941067976052315
2017-02-06,1,0.0002881574663465366,0.0003055217488270657,-0.0025590515345061005,0.007501819798517679,0.994529279619821
2017-02-08,1,0.0015411752529363393,0.0017815987609476394,-0.00310241853559966,0.003504995629654286,0.9942264697100881
2017-02-10,1,0.001861406207275055,0.002169702732679033,-0.0038930539667291378,0.0018594698031270595,0.9942413462389094
2017-02-14,1,0.001999672614616258,0.0023756713991992286,-0.00310241853559966,0.004397611544308705,0.9934957391042769
2017-02-16,1,0.002462787280596045,0.002934482273651,-0.002662930706969601,0.005705303899834908,0.9935260890316212
2017-02-21,1,0.0027556707058020336,0.003247964639438436,-0.003168358445440074,0.004260073882819508,0.9938341175634816
2017-02-23,1,0.0027512964669175553,0.003221822318885217,-0.003168358445440074,0.003641721197217596,0.994482464327415
2017-02-27,1,0.002215485917528591,0.0025471261452220525,-0.005108150405170605,0.003641721197217596,0.993836220827498
2017-03-01,1,0.001554924457295657,0.0016928120847487815,-0.006191959855649765,0.003641721197217596,0.9935692607481491
2017-03-03,1,0.0009804666520138237,0.001020942742024838,-0.005108150405170605,0.003641721197217596,0.9941392798152762
2017-03-07,1,0.0013422665490313375,0.001443220273544483,-0.005108150405170605,0.003567020758984616,0.9943890182646024
2017-03-09,1,0.0005959042857601846,0.0006095199296243625,-0.000740099579417167,0.003725319810551593,0.9951755964993803
2017-03-13,1,0.0005075985138538552,0.0005163778870845026,-0.000740099579417167,0.004260073882819508,0.994641698227601
2017-03-15,1,0.0016298251725378652,0.0017858841334295107,-0.000740099579417167,0.003725319810551593,0.9962883141750526
2017-03-17,1,0.0016375455225483906,0.0017738413598750312,-0.0019211105600968792,0.0033704847520933646,0.995853758837892
2017-03-21,1,0.0015817280470775427,0.0017024696769493265,-0.0014836937273582664,0.003122957361668529,0.9959502716771886
2017-03-23,1,0.001401358154432752,0.0014783069375403416,-0.0036923925985780266,0.002544205462422351,0.9956411039023063
2017-03-27,1,0.0015683375040472418,0.0017326925424592425,-0.002455284561081173,0.0028401420595448477,0.9953744143318579
2017-03-29,1,0.0010368854997771237,0.0011036241060051652,-0.002581215604391788,0.0028401420595448477,0.9955512171827895
2017-03-31,1,0.0012251982069481117,0.0013398781927510981,-0.002581215604391788,0.006236232592387221,0.9950493078565658
2017-04-04,1,0.0014436658758989378,0.0015907504396444445,-0.003185873424324701,0.006236232592387221,0.9945878196173388
2017-04-06,1,0.0010139794703104583,0.0010356231992766458,-0.003185873424324701,0.008665983709341372,0.9941042467699795
2017-04-10,1,0.0016552840031205526,0.0018275181254887455,-0.003185873424324701,0.00680019416743756,0.9945194931507285
2017-04-12,1,0.0011279523899454045,0.0011429209184431195,-0.003185873424324701,0.00680019416743756,0.9944854486508111
2017-04-17,1,0.0006608901497480869,0.0007602543931768995,-0.002581215604391788,0.0026094244413938524,0.9954461722430689
2017-04-19,1,0.00032556476650075954,0.00047048207518085735,-0.002581215604391788,0.0026094244413938524,0.9953382647751212
2017-04-21,-1,-0.00044419537543207625,-0.00019176201085925333,-0.002581215604391788,0.0049703406026082,0.9953239293471243
2017-04-25,1,0.0005768341210025966,0.0006732500786428037,-0.002581215604391788,0.0039623308533270046,0.9959924086886774
2017-04-27,0,-3.204940143771058e-05,0.00015555849043683587,-0.0014316393027836677,0.0039623308533270046,0.9960814226453971
2017-05-01,1,0.0005155636967591513,0.0006342923298316225,-0.002511226926952147,0.001785587959487111,0.9965505956620595
2017-05-03,1,0.0004690736544559799,0.000558524684721918,-0.002511226926952147,0.001785587959487111,0.9968969370625572
2017-05-05,1,0.0011758438088561437,0.0011811449691890873,-0.002511226926952147,0.001785587959487111,0.9955057883494113
2017-05-09,1,0.0011139016471542439,0.001118246077126554,-0.002511226926952147,0.0031315205379619905,0.994206136481612
2017-05-11,1,0.0007320949341548181,0.0007905724416064335,-0.002836029561630789,0.0038276003544562933,0.994126138985682
2017-05-15,1,0.001364660664654743,0.0014428021840519041,-0.0032081324474320582,0.0038276003544562933,0.9935893212240602
2017-05-17,1,0.0007487519704973732,0.0007771783188165035,-0.002836029561630789,0.004150995121352747,0.9936693725073683
2017-05-19,1,0.0008831799262191829,0.0008832497901060646,-0.0015399068476765485,0.0038276003544562933,0.9939140760923285
2017-05-23,1,0.0007942280953118212,0.0008126151111967629,-0.0035327174544761268,0.003384570868941227,0.9935606342326566
2017-05-25,1,0.0011256631927634632,0.0011879833169871304,-0.0037988929492771203,0.003384570868941227,0.9934427635327057
2017-05-30,1,0.0008898440142189319,0.0009184313382090903,-0.0037988929492771203,0.003384570868941227,0.9933051631207775
2017-06-01,1,0.0009650656179538948,0.0010336157139894384,-0.0037988929492771203,0.003384570868941227,0.9932865216973511
2017-06-05,1,0.0021526762708794943,0.0023306977379107174,-0.0037988929492771203,0.0030117061384725046,0.9945109514060888
2017-06-07,1,0.0012602396151702526,0.001315177958867045,-0.0037988929492771203,0.002208265429595335,0.9946985985890071
2017-06-09,1,0.0011289957848186678,0.001161117083022462,-0.004825653727204593,0.002208265429595335,0.9941440246650652
2017-06-13,1,0.0006095381152167872,0.0006568850132283164,-0.0037988929492771203,0.0030117061384725046,0.9943765744284145
2017-06-15,1,0.0011122457409665537,0.0011423413434066385,-0.0037988929492771203,0.002208265429595335,0.9945359088264876
2017-06-19,1,0.0006433088076887683,0.0007130138319501907,-0.004825653727204593,0.002354489572372935,0.9937660474402333
2017-06-21,1,6.799205610978312e-05,0.00021113737064901633,-0.0030397879008256376,0.003673204594028625,0.9939818664189917
2017-06-23,-1,-0.000212328753052694,-3.329709211732533e-05,-0.004184999041955401,0.004403388967079554,0.9934701196574715
2017-06-27,-1,-0.0003148649560408876,-0.00015741932087742262,-0.0038720484224068507,0.005537792877220217,0.9927561267965423
2017-06-29,-1,-0.000706395817812636,-0.0004861998684134567,-0.003981348007114885,0.00677245494300274,0.9922461475493793
2017-07-03,1,0.0001908381911031586,0.0002656682320111213,-0.003981348007114885,0.005537792877220217,0.9926943974811087
2017-07-06,-1,-0.0011228219966580898,-0.000905425227119469,-0.0049847341492724575,0.005537792877220217,0.9932665775344783
2017-07-10,-1,-0.00144022253047584,-0.0011654374362427434,-0.00331684002976384,0.004403388967079554,0.9938840448679757
2017-07-12,-1,-0.001417113303137307,-0.0011487246939267933,-0.00331684002976384,0.004403388967079554,0.9938480593586551
2017-07-14,-1,-0.0010522816074626927,-0.0008508550498523865,-0.00331684002976384,0.004218372795197813,0.9941263870179833
2017-07-18,-1,-0.0007803007920366464,-0.0006252914376820317,-0.0028879187598289846,0.004218372795197813,0.9941587673693623
2017-07-20,-1,-0.00039654563349224997,-0.0002909770055737316,-0.004296552666872784,0.0032301945002905443,0.9942522527424998
2017-07-24,-1,-0.0006584282894889036,-0.0005196330452566216,-0.004296552666872784,0.0032301945002905443,0.9943698731218958
2017-07-26,-1,-0.0004777946443337672,-0.0003372449819052352,-0.004296552666872784,0.003201069080715257,0.9950590270249488
2017-07-28,-1,-7.539145289450129e-05,-6.958526969463288e-07,-0.004296552666872784,0.002716021916118847,0.9954391992695594
2017-08-01,-1,-0.0007600241694369785,-0.0005565182614679722,-0.004372582737183364,0.002716021916118847,0.9952752300768639
2017-08-03,-1,-0.001703872093387385,-0.0013822599949654827,-0.0036913660317785617,0.003201069080715257,0.9961316919021332
2017-08-07,-1,-0.0008903790209935947,-0.0007208745113993897,-0.004348909232134735,0.0028830390511617944,0.9958400081457291
2017-08-09,-1,-0.000546204591304731,-0.0004375294621697322,-0.0047910733415445555,0.002512067670526867,0.9955832002345492
2017-08-11,-1,-0.0007780736942028946,-0.000639157698783937,-0.0047910733415445555,0.0038115774482726113,0.9950466136651213
2017-08-15,0,-2.6066918090200344e-05,1.1622818066397899e-05,-0.005721562503639311,0.0027850948154209687,0.9946167424784529
2017-08-17,-1,-0.0006711180197611711,-0.0005383142031360208,-0.005721562503639311,0.0027850948154209687,0.9951788982203112
2017-08-21,-1,-0.000817569294297172,-0.000656512565254998,-0.005721562503639311,0.0016985488145391547,0.9954323036401584
2017-08-23,-1,-0.0009886236919593597,-0.0008084545317147048,-0.0055006045220177425,0.0005228826021076575,0.9955397371604363
2017-08-25,-1,-0.0011247280234923578,-0.0009339854552005893,-0.005721562503639311,0.0016985488145391547,0.9951184698804738
2017-08-29,-1,-0.0012772940292801185,-0.0010844386957891158,-0.005646830958386479,0.0016985488145391547,0.9952806716026936
2017-08-31,-1,-0.0010677670062660726,-0.0009093196005925841,-0.005646830958386479,0.0016961198712588444,0.9953629498405204
2017-09-05,-1,-0.0010671180151657124,-0.0009120371420656894,-0.005305281999941417,0.0010397728164857124,0.9955222185079172
2017-09-07,-1,-0.0011319826385886235,-0.0009803090816197307,-0.005109162323934503,0.0024507694605657125,0.9950903976743614
2017-09-11,-1,-0.0007034358589506466,-0.0005910820851228711,-0.005305281999941417,0.0003041002505166134,0.9953726256495679
2017-09-13,-1,-0.0018954296886924764,-0.0016301287110326555,-0.005109162323934503,0.0010334613637324997,0.9961103657601887
2017-09-15,-1,-0.0014464973933408102,-0.0012635820970622281,-0.005109162323934503,0.0024507694605657125,0.9958962528493092
2017-09-19,-1,-0.002010981272374751,-0.0017531097173190797,-0.005109162323934503,0.0029585870552826937,0.9956385802784875
2017-09-21,-1,-0.002071866047115797,-0.001834968735732501,-0.0026550337044971514,0.0032720310946517226,0.9955669485389401
2017-09-25,-1,-0.0022379528500095836,-0.00196167754317703,-0.0015462993538182422,0.0035401575490949643,0.9954827035069038
2017-09-27,-1,-0.001904659354343976,-0.0017104139299544503,-0.0015462993538182422,0.004414003632821263,0.9948843473896657
2017-09-29,-1,-0.0018697903011245872,-0.0016729517396593964,-0.0015462993538182422,0.004782851767835376,0.9946550999820715
2017-10-03,-1,-0.001972465539958689,-0.0017629464283527973,-0.0015462993538182422,0.004782851767835376,0.9946527167396394
2017-10-05,-1,-0.0013554834416613444,-0.0012204156444903726,-0.0022617375316680514,0.004782851767835376,0.9944148696814827
2017-10-09,-1,-0.0018233772593867813,-0.001630606472932859,-0.0015462993538182422,0.005453796176174579,0.9936438294042295
2017-10-11,-1,-0.0014283151127061856,-0.0012827311391053397,-0.0002473862568871941,0.005453796176174579,0.9932625001514382
2017-10-13,-1,-0.0012587008475119738,-0.0011383589963921532,-0.00016343417084866985,0.005422667448467664,0.9934092015753128
2017-10-17,-1,-0.0011800121094274522,-0.0010763632227190796,-0.00016343417084866985,0.005422667448467664,0.9936379124851993
