JNU-Tangyin/eata/results/Batch4_SP500/Batch4_SP500-EIX.csv
Date,Action,Predicted_Q25,Predicted_Q75,Actual_Q25,Actual_Q75,RL_Reward
2010-12-14,0,0.0,0.0,-0.002643067678980296,0.005955105797026429,0.9936642007670569
2010-12-16,0,0.0,0.0,-0.004242196429575671,0.004976735080717139,0.9950769012378616
2010-12-20,0,0.0,0.0,-0.00446819695613008,0.0030482758296400234,0.9946902770419301
2010-12-22,0,0.0,0.0,-0.005612093229918661,0.0030814862707908472,0.9944203523754761
2010-12-27,0,0.0,0.0,-0.006232304854215753,0.0030814862707908472,0.9940669630876354
2010-12-29,0,0.0,0.0,-0.005392212882569467,0.0020933667339187393,0.9945027334876786
2010-12-31,0,0.0,0.0,-0.006232304854215753,0.0020933667339187393,0.9935105750231886
2011-01-04,0,0.0,0.0,-0.006232304854215753,0.0020933667339187393,0.9934166135279233
2011-01-06,0,0.0,0.0,-0.005597041259290981,0.0031533853388787756,0.9934294477107618
2011-01-10,1,0.0017784317350823201,0.0018457717801358595,-0.005392212882569467,0.002613965007584411,0.9937459851334426
2011-01-12,1,0.0016286210815107277,0.0016758605452336494,-0.005392212882569467,0.003657754699306331,0.9937511834920736
2011-01-14,1,0.0012976613958153222,0.0013018070631933116,-0.005392212882569467,0.003657754699306331,0.9940040458459326
2011-01-19,1,0.0005449804645669628,0.0006760710463260308,-0.005392212882569467,0.003657754699306331,0.9944335255060132
2011-01-21,0,0.0,0.0,-0.005392212882569467,0.0042135465077263925,0.9944503636894345
2011-01-25,0,0.0,0.0,-0.00569263662190188,0.003657754699306331,0.9942828438712173
2011-01-27,0,0.0,0.0,-0.005918995417442359,0.0042135465077263925,0.9941129070764533
2011-01-31,0,0.0,0.0,-0.00569263662190188,0.00489442560109926,0.993641283239484
2011-02-02,0,0.0,0.0,-0.00569263662190188,0.005741699728212949,0.9931413330939847
2011-02-04,-1,-0.0019237706180640413,-0.0016092591169236357,-0.005918995417442359,0.00489442560109926,0.9927909665605099
2011-02-08,-1,-0.0023192124904514357,-0.0019162334421620449,-0.005918995417442359,0.005741699728212949,0.9923553495712366
2011-02-10,0,0.0,0.0,-0.006540191600789034,0.0066709359452033195,0.9915577237900634
2011-02-14,0,0.0,0.0,-0.009020489355716425,0.0066709359452033195,0.9892563189949537
2011-02-16,0,0.0,0.0,-0.009649662068995361,0.0066709359452033195,0.9893287525618443
2011-02-18,0,0.0,0.0,-0.009649662068995361,0.009300450476081593,0.9887905128154016
2011-02-23,0,0.0,0.0,-0.00722849604218577,0.009300450476081593,0.9894727006722548
2011-02-25,0,0.0,0.0,-0.004887093652140169,0.009300450476081593,0.9896178810209623
2011-03-01,0,0.0,0.0,-0.009978926728642853,0.007667241567467531,0.9902522889702112
2011-03-03,0,0.0,0.0,-0.009978926728642853,0.005832524261975643,0.9909264101241972
2011-03-07,0,0.0,0.0,-0.005472874004012907,0.006315436649888971,0.9909403170787324
2011-03-09,0,0.0,0.0,-0.005472874004012907,0.005832524261975643,0.9913270630826186
2011-03-11,0,0.0,0.0,-0.0043159409915483225,0.005832524261975643,0.9919476995806781
2011-03-15,0,0.0,0.0,-0.0037318563116501458,0.006315436649888971,0.9923775106517118
2011-03-17,0,0.0,0.0,-0.001294094497689672,0.006743196450847299,0.992620739990145
2011-03-21,-1,-0.0015258462596269527,-0.001269280467244937,-0.0037318563116501458,0.006743196450847299,0.9919685265605811
2011-03-23,-1,-0.0015538956487185151,-0.0012949662360329179,-0.0037318563116501458,0.007765732658564851,0.9914133198088657
2011-03-25,0,0.0,0.0,-0.0043159409915483225,0.007765732658564851,0.9918067487773992
2011-03-29,0,0.0,0.0,-0.003402006537136352,0.010591402711309261,0.9917470417071191
2011-03-31,0,0.0,0.0,-0.0043159409915483225,0.010591402711309261,0.9914947208471454
2011-04-04,-1,-0.0005768836202224597,-0.0005117867972526201,-0.003402006537136352,0.009716227122410829,0.9921145001746956
2011-04-06,1,5.441857087874993e-05,9.632469486578352e-05,-0.005212558241430518,0.009716227122410829,0.9918844685152207
2011-04-08,0,0.0,0.0,-0.0064223295906728674,0.010591402711309261,0.991093279907705
2011-04-12,1,0.000605794671606026,0.0006846988311085846,-0.005212558241430518,0.010591402711309261,0.9921584602970208
2011-04-14,0,0.0,0.0,-0.006121633694742638,0.010591402711309261,0.9921468049142429
2011-04-18,0,0.0,0.0,-0.0051179929949261155,0.007580670362578161,0.9934551355378518
2011-04-20,0,0.0,0.0,-0.006182682693400972,0.002422501232870444,0.993503561865299
2011-04-25,0,0.0,0.0,-0.006047418114457681,0.007580670362578161,0.992881033600727
2011-04-27,0,0.0,0.0,-0.006182682693400972,0.002422501232870444,0.9931024129643785
2011-04-29,1,0.0017762596397142196,0.0020383392202753307,-0.006182682693400972,0.0010133337794312656,0.9926382544520422
2011-05-03,0,0.0,0.0,-0.006365051796888565,0.0010128802004514535,0.9931913543522866
2011-05-05,0,0.0,0.0,-0.006169256814278545,0.0015363762701408102,0.9932775386240692
2011-05-09,0,0.0,0.0,-0.006169256814278545,0.0015363762701408102,0.9939033687346893
2011-05-11,1,0.001976062215673823,0.002272802971260519,-0.006169256814278545,0.002708417194935564,0.9941619116169983
2011-05-13,1,0.0018423763118211995,0.002138792521799074,-0.006169256814278545,0.003081060069750822,0.9945549926029161
2011-05-17,1,0.0016553154380519854,0.0019097342205312718,-0.006658132395537845,0.003081060069750822,0.9940287569225611
2011-05-19,1,0.0016379793881840033,0.0019013568275307148,-0.005364355814654685,0.004036008204523015,0.9943992118721408
2011-05-23,1,0.0015485134285747534,0.0017855432863811325,-0.0034881272621667455,0.0032794992986750074,0.9952369924615097
2011-05-25,1,0.0018050688735453079,0.0020751409045308075,-0.004651472758957476,0.003081060069750822,0.9948160981530895
2011-05-27,1,0.001637061937693776,0.0019012689845348848,-0.004651472758957476,0.004036008204523015,0.9947191624580733
2011-06-01,1,0.0014054822436944331,0.001623106368710394,-0.004541736895914118,0.004036008204523015,0.9947275745841054
2011-06-03,1,0.001081351608093314,0.0012181170559349423,-0.0023591762699137152,0.004036008204523015,0.9950774675010878
2011-06-07,1,0.0007672078415928876,0.0008590194572874472,-0.0023591762699137152,0.0034806895935483003,0.9954633717069965
2011-06-09,1,0.0007031152833692693,0.0007647320251613095,-0.0023591762699137152,0.0034806895935483003,0.995387048894041
2011-06-13,1,0.0006352205160186004,0.0006817917579168878,-0.004349910300838991,0.004169997738561624,0.9943274807873288
2011-06-15,1,4.373558312279987e-06,5.2302787238274516e-05,-0.004349910300838991,0.004169997738561624,0.9944367363443518
2011-06-17,1,0.0005105936075566373,0.000530867302240665,-0.005337202680367324,0.003181133064081624,0.9940225087045725
2011-06-21,1,0.00038706219651252183,0.00039438856253805533,-0.005337202680367324,0.0038133497702430787,0.9937134486251458
2011-06-23,-1,-0.0012110921302953739,-0.0009629263814328613,-0.002649266412139968,0.005551662455007827,0.993280867082413
2011-06-27,-1,-0.0005239389793119218,-0.0003803480639238245,-0.005337202680367324,0.003213222580378511,0.9938233335448742
2011-06-29,-1,-0.0004715901360814345,-0.00034517569409237464,-0.005467783735906348,0.003213222580378511,0.993929455500322
2011-07-01,-1,-0.0003037599971787304,-0.0002033377409531197,-0.006758243935304981,0.003213222580378511,0.9932732578362813
2011-07-06,-1,-0.00031668727667668505,-0.0002172229309607596,-0.007837301959026198,0.0031316049450604215,0.9923367189166297
2011-07-08,-1,-0.0001151648849869745,-2.7556036661004153e-05,-0.009556640318270363,0.0025048084970689865,0.9901776174861907
2011-07-12,-1,-0.0005392557445104123,-0.0003906876994062382,-0.009556640318270363,0.0025048084970689865,0.9871614707891656
2011-07-14,-1,-0.0012460381090110403,-0.000999175141924526,-0.014446202015545197,0.0031316049450604215,0.9848492888826966
2011-07-18,-1,-0.0021674468723429452,-0.001779196743246846,-0.011116199385196418,0.004081063496765446,0.9833332970169503
2011-07-20,0,0.0,0.0,-0.011116199385196418,0.003100949847303068,0.9831644406828567
2011-07-22,0,0.0,0.0,-0.01427267130748587,0.0007586248989762931,0.9835005234183224
2011-07-26,1,0.0002335517057641435,0.0003116258994819734,-0.017268018158212533,0.003100949847303068,0.9819820599880343
2011-07-28,-1,-0.0004531956106731972,-0.0002721369613727381,-0.017268018158212533,0.006822408773632367,0.9813778388537968
2011-08-01,-1,-0.0008691726574452614,-0.0006704859364923731,-0.017268018158212533,0.017454558459800446,0.9807880074656508
2011-08-03,-1,-0.0017534615936094055,-0.0015163064457681002,-0.011658331826153594,0.017454558459800446,0.9815583023497806
2011-08-05,-1,-0.004957441279963723,-0.004241377890181021,-0.011658331826153594,0.017454558459800446,0.982576102437856
2011-08-09,-1,-0.004756251180492879,-0.004054531502758816,-0.01127572049542226,0.017454558459800446,0.985366688733455
2011-08-11,-1,-0.003763161126973223,-0.0032248909224392337,-0.01127572049542226,0.010446381791418994,0.9873418054032236
2011-08-15,-1,-0.002442940003849362,-0.002063937726966539,-0.009440443905748974,0.009634266281193295,0.9886710588922656
2011-08-17,-1,-0.0025180409528959826,-0.002133219827249888,-0.009440443905748974,0.014952386759362106,0.9874057732006591
2011-08-19,-1,-0.0031860577045750597,-0.0027164764175133587,-0.0075218108255762734,0.014952386759362106,0.9872719058403789
2011-08-23,0,0.0,0.0,-0.0075218108255762734,0.01359948050398519,0.9877731924138541
2011-08-25,0,0.0,0.0,-0.009440443905748974,0.013548033986050903,0.9873231145774131
2011-08-29,0,0.0,0.0,-0.009440443905748974,0.013548033986050903,0.98764544006632
2011-08-31,0,0.0,0.0,-0.011336385074708195,0.013985931695333548,0.9864708708110611
2011-09-02,0,0.0,0.0,-0.011336385074708195,0.013985931695333548,0.9863236471495035
2011-09-07,-1,-0.00045895845951395746,-0.0003796088407474479,-0.012216713597404123,0.013548033986050903,0.9869007017510043
2011-09-09,-1,-0.0015107987278274893,-0.0013035791175191015,-0.004766197895676853,0.013985931695333548,0.9859854803936556
2011-09-13,-1,-0.00010852535823817943,-9.769413275602212e-05,-0.005678180989517769,0.015376954386374413,0.9856968202838806
2011-09-15,1,0.0008652227378219033,0.0009545783842602169,-0.012216713597404123,0.013548033986050903,0.9861261152224466
2011-09-19,1,0.0016833216917882371,0.0019363783380568246,-0.012216713597404123,0.01065487191316157,0.9860732572798717
2011-09-21,1,0.0013390222501519543,0.0015513568085344948,-0.009248079407869484,0.014935170846336079,0.9864626095516771
2011-09-23,1,0.0015154154036541613,0.0017519949749958941,-0.005318994459763072,0.018572823268150396,0.9869378461970405
2011-09-27,1,0.001798008471083868,0.0020350117725590924,-0.005318994459763072,0.010811746172018057,0.9878400656765103
2011-09-29,1,0.0024040466877774712,0.002731170436500083,-0.002392707220284807,0.013022141079824585,0.9875607597655249
2011-10-03,1,0.0018782612473229564,0.002187577680896895,-0.0032425237116706935,0.013022141079824585,0.9881895902902978
2011-10-05,1,0.0016184494975102653,0.0018710764209184318,-0.0032425237116706935,0.013022141079824585,0.9885695259905891
2011-10-07,1,0.002696009981541554,0.0030928207515938714,-0.005318994459763072,0.013022141079824585,0.988501697793154
2011-10-11,1,0.002995737650615788,0.0033927015117153378,-0.004432489851121265,0.009173383914244073,0.9897853591139723
2011-10-13,1,0.002471810044117592,0.002831536000385583,-0.004432489851121265,0.011538581316398604,0.9889922545871089
2011-10-17,1,0.002254272700336129,0.0025792852446685794,-0.0038658985590644796,0.011538581316398604,0.9891353069497671
2011-10-19,1,0.002778486901524513,0.003160434219697956,-0.007215879109508718,0.00840560423130253,0.9889012890570718
2011-10-21,1,0.003532608921522823,0.003997787972495381,-0.007215879109508718,0.006637361407260537,0.9891896929253076
2011-10-25,1,0.0032345150335220778,0.003645466860417954,-0.012788875690349106,0.006637361407260537,0.9878642354440593
2011-10-27,1,0.004222562672597163,0.00474886313165283,-0.014227223847173568,0.0029347662758918715,0.9880080774549648
2011-10-31,1,0.00353815619381132,0.003986664177431949,-0.012972563773072569,0.003816916297420667,0.9893842056053302
2011-11-02,1,0.0031425962001933316,0.003538914636495298,-0.009839613897691148,0.006567500010828828,0.9889685110090676
2011-11-04,1,0.0034480771136231503,0.003852403404935379,-0.013558607423615667,0.006567500010828828,0.9887672528019652
2011-11-08,1,0.003962703099600858,0.0044633147634794545,-0.013558607423615667,0.007203295178424712,0.9880389825545757
2011-11-10,1,0.0034001882260946744,0.003817136154143915,-0.013558607423615667,0.007203295178424712,0.9884984771219718
2011-11-14,1,0.002875544476802256,0.0031765204763354745,-0.013558607423615667,0.007146320977540071,0.988910871656481
2011-11-16,1,0.002405565351569965,0.0026742474005710826,-0.011500280987284506,0.007298125041013945,0.9892322109642893
2011-11-18,1,0.002101337198555167,0.0023167986028672415,-0.011500280987284506,0.007298125041013945,0.9891500965765203
2011-11-22,1,0.0010590270353349252,0.0011417897529050211,-0.007341380370434154,0.011108128896488814,0.9886887494671237
2011-11-25,1,0.0005297604129414428,0.0005339053406221106,-0.005202832641265379,0.012600868112072929,0.9889091219647037
2011-11-29,1,0.000993398942624856,0.001073318974386977,-0.006298666083728309,0.012600868112072929,0.9888837318012239
2011-12-01,1,0.0014847695442335332,0.0016107857018526964,-0.006298666083728309,0.01054652011081142,0.9900105122288536
2011-12-05,1,0.0013900089397237759,0.0014724357002736776,-0.006298666083728309,0.009439819082246524,0.9912723317977149
2011-12-07,1,0.0009874708289336022,0.0009914565122488789,-0.006565701304070805,0.009439819082246524,0.9911007568640332
2011-12-09,1,0.0011514140237492828,0.0011895614074829172,-0.004100688957451221,0.007697931586194516,0.9926339163733683
2011-12-13,1,0.0017107549836578224,0.0018703331356618412,-0.004100688957451221,0.005950869273538634,0.9927863571344369
2011-12-15,1,0.0013760114290522984,0.0014644841577309306,-0.003031164859488233,0.003992312843883805,0.9936204942484747
2011-12-19,1,0.0008555241465281437,0.0008566729130278683,-0.003031164859488233,0.003992312843883805,0.9935213717858989
2011-12-21,1,0.0019194873491970798,0.002012975718431545,-0.003702049724201851,0.003155569772267594,0.9943080807896854
2011-12-23,1,0.0017410000576182584,0.0017615498417353328,-0.004512544848461754,0.003155569772267594,0.9937138525807955
2011-12-28,1,0.0006121060685954209,0.0007834662083233872,-0.004512544848461754,0.003155569772267594,0.9937847184661812
2011-12-30,1,0.0005828351039781359,0.0007720470927705366,-0.005468447474018918,0.003155569772267594,0.9936024605664178
2012-01-04,1,0.0006808969011928883,0.000780924415193762,-0.005062145557112775,0.003155569772267594,0.9935620868738575
2012-01-06,1,0.0007144671485152493,0.0007440371008940233,-0.004512544848461754,0.004743055916777622,0.99369932171951
2012-01-10,1,0.0005253358912107502,0.0005760708243323061,-0.004512544848461754,0.004896466631815742,0.9936272305704078
2012-01-12,1,0.0001517802805309174,0.0002690275897868215,-0.004512544848461754,0.004896466631815742,0.9939357419321652
2012-01-17,0,-6.779998203842552e-06,0.00014368768095033982,-0.005062145557112775,0.004896466631815742,0.9934397562925439
2012-01-19,-1,-0.000325483665621315,-0.0001445719413540053,-0.004883171602335092,0.008352123610861066,0.9929166189689366
2012-01-23,1,0.0001387407562531603,0.00025191459211552035,-0.004883171602335092,0.008352123610861066,0.9928959421322495
2012-01-25,1,0.0009185244806984164,0.0009334437583368657,-0.004252183231252991,0.005200498102812724,0.9938086150623671
2012-01-27,0,-0.00015500855295999744,3.4192831225905e-05,-0.0037066399404171624,0.005200498102812724,0.9943620934187556
2012-01-31,0,-7.042604241571136e-05,9.205992418929543e-05,-0.0037066399404171624,0.004010453186459306,0.9946584501331348
2012-02-02,0,0.0,0.0,-0.00305627865570087,0.005204825332828687,0.9938993451458661
2012-02-06,0,0.0,0.0,-0.0021747148596330994,0.004929376057489137,0.9941391594240078
2012-02-08,0,-8.123135809931948e-08,6.979811141897286e-05,-0.003111469735531282,0.004929376057489137,0.994088603168652
2012-02-10,1,0.00028658967923721917,0.0003271530869529436,-0.003111469735531282,0.007049499532927233,0.9931652690587766
2012-02-14,-1,-0.00024290254550457426,-0.00011663754300673902,-0.003111469735531282,0.007049499532927233,0.9928063469492421
2012-02-16,1,0.0003614614452155648,0.00041599791483582996,-0.0032286792785573624,0.005133103715628978,0.9934489365127366
2012-02-21,0,0.0,0.0,-0.003947462411081662,0.004382393876836236,0.9936173304846112
2012-02-23,1,0.000578401798015428,0.000594809465488053,-0.003947462411081662,0.004974772543510019,0.9935366268151579
2012-02-27,0,0.0,0.0,-0.003947462411081662,0.0034315269919085265,0.9937673724539353
2012-02-29,0,0.0,0.0,-0.003947462411081662,0.004974772543510019,0.9926911380689781
2012-03-02,1,0.001007548004866797,0.0010726481549554515,-0.003947462411081662,0.0034315269919085265,0.9937501234869797
2012-03-06,1,0.0011912391710445045,0.001269066183295926,-0.00414067003324518,0.0034315269919085265,0.9936960880202856
2012-03-08,1,0.00045339318389588475,0.00047960357646818026,-0.0030785705188281893,0.00413594708122342,0.9938628737280075
2012-03-12,1,0.0010194368969372067,0.0010511423211451811,-0.004546860410113329,0.0032814688406576416,0.993797423355578
2012-03-14,0,0.0,0.0,-0.004122877409184406,0.0025372065542990044,0.9944645735631752
2012-03-16,0,0.0,0.0,-0.0032929572734577586,0.0032814688406576416,0.9938271652127715
2012-03-20,1,0.0006414788482120145,0.0006647571514463401,-0.0023895420496107722,0.004524598089757364,0.9937457495971412
2012-03-22,1,0.0012345120204901487,0.0013892139141385086,-0.0032929572734577586,0.004636103389138872,0.9932566689679947
2012-03-26,1,0.000889180527097787,0.0009628952678826542,-0.004186414806582561,0.007115500620024361,0.9920168880847069
2012-03-28,1,0.0007233441755000073,0.0007570935457221466,-0.0032929572734577586,0.007115500620024361,0.9929170608420922
2012-03-30,1,0.000982225448313535,0.001082436712763242,-0.0032929572734577586,0.007115500620024361,0.9927003942579491
2012-04-03,1,0.0011855326090896416,0.001325560191559418,-0.004186414806582561,0.006606288298053957,0.9922419321118069
2012-04-05,1,0.0010646966243599615,0.0011783260277284922,-0.004186414806582561,0.006606288298053957,0.9924538464758038
2012-04-10,1,0.00041352934849674095,0.0004327554583123076,-0.0036028293783510745,0.006606288298053957,0.9929633043918581
2012-04-12,1,2.210209415483646e-05,8.366105741906509e-05,-0.003249028257380553,0.009530575597987374,0.9925714132341568
2012-04-16,1,0.0006372341885499567,0.0006408551777081342,-0.0023748990442517036,0.0069362449333227995,0.9934536679332134
2012-04-18,1,0.0002829727448312143,0.00036320695068304913,-0.0034953629648757137,0.006017782549100291,0.9938026455047818
2012-04-20,0,0.0,0.0,-0.0034953629648757137,0.004900772726915351,0.99411737762223
2012-04-24,0,0.0,0.0,-0.0021700753614488644,0.006017782549100291,0.9943448856810333
2012-04-26,0,0.0,0.0,-0.0034953629648757137,0.004900772726915351,0.9946020237594039
2012-04-30,1,0.012248735476785148,0.012254251396020103,-0.0034953629648757137,0.004330544278713747,0.9889273883687584
2012-05-02,1,0.00038782755943749924,0.000443380616540827,-0.0034953629648757137,0.00436400264720423,0.9949706105312852
2012-05-04,1,0.0003125521732922449,0.0003798311161336805,-0.004425895549596735,0.00611815765457174,0.9937475412553723
2012-05-08,0,0.0,0.0,-0.002536294255529324,0.007178709887773115,0.9932961726888055
2012-05-10,0,0.0,0.0,-0.002536294255529324,0.006951873249079849,0.9936234668217117
2012-05-14,0,0.0,0.0,-0.002536294255529324,0.006722291719282455,0.9938863793579196
2012-05-16,0,0.0,0.0,-0.002288893505457603,0.006722291719282455,0.9938773001435064
2012-05-18,1,0.000765332677566,0.000823730394986911,-5.4623908774678945e-05,0.006722291719282455,0.9944903469763815
2012-05-22,1,0.0014906872906772024,0.0016367731292860348,-0.0039358794456621085,0.003910573483498868,0.9949156470015873
2012-05-24,0,0.0,0.0,-0.005512104491172574,0.0035653652615108573,0.9941118295667097
2012-05-29,1,0.0007537096574143357,0.00083203254572304,-0.005512104491172574,0.004681342986856523,0.9935855677914187
2012-05-31,0,0.0,0.0,-0.004120638500209226,0.0053620042281663696,0.9936526556982903
2012-06-04,0,0.0,0.0,-0.001573741873048984,0.005118990586013641,0.9943574150184238
2012-06-06,0,0.0,0.0,-0.005512104491172574,0.003430445765629337,0.9941973776822148
2012-06-08,0,0.0,0.0,-0.005512104491172574,0.003430445765629337,0.9943707893165159
2012-06-12,0,0.0,0.0,-0.005512104491172574,0.004539928275166632,0.9939300683067199
2012-06-14,1,0.001064681668612057,0.0010837616830498343,-0.005512104491172574,0.004539928275166632,0.9941230279859277
2012-06-18,1,0.0013421750940934328,0.0014369284844146521,-0.005797542850074195,0.004539928275166632,0.9933452656886887
2012-06-20,1,0.0006789996345386136,0.0006811333860590286,-0.0033893221042908773,0.004539928275166632,0.9938582914686191
2012-06-22,0,0.0,0.0,-0.001467241742758831,0.004692957461501317,0.9940483124302242
2012-06-26,0,0.0,0.0,-0.004593398451095097,0.004432103738792718,0.9944350206377065
2012-06-28,0,0.0,0.0,-0.004593398451095097,0.004692957461501317,0.993748489641568
2012-07-02,0,0.0,0.0,-0.006047292565933302,0.004692957461501317,0.9933723809964913
2012-07-05,-1,-4.539042965371083e-05,-5.007945849426059e-06,-0.0048417122842108196,0.004692957461501317,0.9928608463268228
2012-07-09,0,0.0,0.0,-0.007104602333259984,0.005444167629549077,0.9918940995177125
2012-07-11,0,0.0,0.0,-0.008438801910865015,0.003610648611915089,0.991666544734069
2012-07-13,0,0.0,0.0,-0.008438801910865015,0.004783827616317456,0.9915354725582675
2012-07-17,0,0.0,0.0,-0.007104602333259984,0.005976265764891891,0.9916800627153439
2012-07-19,1,0.0007816187467912752,0.0008107747177196174,-0.007104602333259984,0.005976265764891891,0.991641718310806
2012-07-23,1,1.4596736705373592e-05,9.805995414853436e-05,-0.0068137305489053375,0.005976265764891891,0.9918025643131383
2012-07-25,0,-2.179706947572527e-05,3.336264262478772e-05,-0.0075661865578010735,0.005976265764891891,0.9914981205757311
2012-07-27,1,0.0010643527508227856,0.00115141158912224,-0.009944906648686094,0.0035189089013701554,0.9919721635880174
2012-07-31,0,0.0,0.0,-0.0075661865578010735,0.0022273176843966925,0.9922590788125341
2012-08-02,0,0.0,0.0,-0.006709247266156069,0.0035189089013701554,0.9931228853414186
2012-08-06,0,0.0,0.0,-0.006450080301461665,0.0032015645791064868,0.9941185979582902
2012-08-08,0,0.0,0.0,-0.005732862792108777,0.004427878723096613,0.9944670933400258
2012-08-10,0,0.0,0.0,-0.005732862792108777,0.002743527404479964,0.994765067975205
2012-08-14,-1,-0.0003611639830375229,-0.00025337123147024646,-0.005732862792108777,0.0020942946467245142,0.9954181506730018
2012-08-16,-1,-0.0007014137693012153,-0.0005508325487246983,-0.004476941412730835,0.002743527404479964,0.9948621344663479
2012-08-20,0,-6.039168613246012e-05,4.037773908959288e-05,-0.004476941412730835,0.004631068617212698,0.9944621736097663
2012-08-22,-1,-0.0008312189052313266,-0.0006373937568906345,-0.000736715446605362,0.004631068617212698,0.9949467268769688
2012-08-24,-1,-0.0008217895151145318,-0.0006325989409787151,5.1769547193459826e-05,0.005299310068456943,0.9948706689007645
2012-08-28,-1,-0.0013130040241329625,-0.0010712901390334192,5.1769547193459826e-05,0.005299310068456943,0.9947285194199398
2012-08-30,-1,-0.0013102731142206213,-0.0010295034688780887,-0.0005072810587127208,0.004347746526913337,0.9951188786047293
2012-09-04,-1,-0.0013573028088789759,-0.0010571739600543958,1.0157000015597988e-06,0.0052718870687707056,0.9949484087545986
2012-09-06,-1,-0.0005314869725507043,-0.0003648481004430395,1.0157000015597988e-06,0.006778932510509337,0.9946281330887929
2012-09-10,-1,-0.0005154524733299874,-0.0003515435987259919,1.0157000015597988e-06,0.006778932510509337,0.9943894542227767
2012-09-12,-1,-0.0004276964068304075,-0.0002752095870862472,-0.002928886186217567,0.006778932510509337,0.9943474911479326
2012-09-14,1,0.00021556921603196807,0.0002840716720231145,-0.0032569342773235734,0.0052718870687707056,0.9950242279084534
2012-09-18,-1,-0.0003010823996598599,-0.00020999893069021313,-0.00288122705849272,0.005303094029520307,0.9951562958807254
2012-09-20,-1,-0.00029559799789224955,-0.0002187073263007436,-0.00288122705849272,0.0066769383873102,0.9945050059903813
2012-09-24,1,0.00025781516578931923,0.0002908052466145102,-0.0032569342773235734,0.006005692336631268,0.99474044547356
2012-09-26,-1,-0.00015345924103593765,-7.405061745794977e-05,-0.0032569342773235734,0.006005692336631268,0.994218480705629
2012-09-28,0,0.0,0.0,-0.0034592297313475137,0.006005692336631268,0.9940259753043744
2012-10-02,1,0.00020702645066666075,0.0002270290331766426,-0.0037331716971227605,0.006599811812295724,0.9937789691281027
2012-10-04,1,0.0010236389231257268,0.0011178977789011086,-0.004134772214341409,0.005170119225515921,0.9940483513427258
2012-10-08,1,0.000872520314541116,0.0009342264428219088,-0.006814933517848912,0.005170119225515921,0.9931657209875163
2012-10-10,0,0.0,0.0,-0.00846015811087391,0.005170119225515921,0.9928603497460282
2012-10-12,1,0.0007108925214688111,0.0007832666181961372,-0.00846015811087391,0.005272857374141946,0.9923908240887238
2012-10-16,0,0.0,0.0,-0.008697471085269417,0.0025752854533932067,0.9928489991283169
2012-10-18,0,0.0,0.0,-0.008697471085269417,0.00025204505928867385,0.9924251108923099
2012-10-22,0,0.0,0.0,-0.007492896440619626,-0.0003777661997023739,0.9927370121367199
2012-10-24,0,0.0,0.0,-0.0074494589305007936,0.0011396087029316114,0.9923331505082774
2012-10-26,0,0.0,0.0,-0.0074494589305007936,0.00016773205496547155,0.9926885007912213
2012-11-01,0,0.0,0.0,-0.0074494589305007936,0.0023223464404236,0.9921666846486545
2012-11-05,0,0.0,0.0,-0.007489553389728952,0.0023223464404236,0.9917738968257332
2012-11-07,0,0.0,0.0,-0.007435722515487058,0.006314721536066184,0.9923150507998186
2012-11-09,0,0.0,0.0,-0.0071912891473832515,0.006314721536066184,0.9927787100690663
2012-11-13,0,0.0,0.0,-0.0071912891473832515,0.004569418858652089,0.9931726249177926
2012-11-15,0,0.0,0.0,-0.006968257933963031,0.007780704567306196,0.9928678650637792
2012-11-19,0,0.0,0.0,-0.005984492111848649,0.007780704567306196,0.9929901091763712
2012-11-21,1,0.3282393730732707,0.32947315484615447,-0.004682657952665716,0.0099584449683329,0.7539603566704705
2012-11-26,1,0.00023181511413232936,0.00027231355596796925,-0.00547581806521574,0.007780704567306196,0.9934586577365644
2012-11-28,1,3.266792470658548e-05,5.394177102014329e-05,-0.006968257933963031,0.007780704567306196,0.9927809765427569
2012-11-30,1,0.0009515303248121207,0.001060700310777863,-0.006968257933963031,0.004810880496908643,0.9931304548704876
2012-12-04,1,0.0001935764135769665,0.00022760679132537002,-0.004750181332412199,0.007739775597853841,0.9931191063402145
2012-12-06,1,0.00018619816005359768,0.00025964058154963646,-0.00547581806521574,0.007739775597853841,0.9921687625646678
2012-12-10,-1,-9.970069682585857e-05,-9.953844938975435e-05,-0.005156522756906397,0.007739775597853841,0.9921092628092716
2012-12-12,0,0.0,0.0,-0.005156522756906397,0.007739775597853841,0.9922087736321931
2012-12-14,0,0.0,0.0,-0.004750181332412199,0.00772460569936741,0.9922606558731164
2012-12-18,0,0.0,0.0,-0.005156522756906397,0.007165387922992322,0.9927895894346349
2012-12-20,0,0.0,0.0,-0.005156522756906397,0.006624263289046929,0.9929518354779203
2012-12-24,0,0.0,0.0,-0.0049121428288001175,0.006624263289046929,0.9931633893858303
2012-12-27,0,0.0,0.0,-0.0048836286649632365,0.007165387922992322,0.9932702850999893
2012-12-31,0,0.0,0.0,-0.0025196774501148878,0.0071998146038410775,0.9930500296009198
2013-01-03,0,0.0,0.0,-0.0025196774501148878,0.007192808632173271,0.9937296098885475
2013-01-07,0,0.0,0.0,-0.0025196774501148878,0.007192808632173271,0.994358528223287
2013-01-09,0,0.0,0.0,-0.0020368385609350562,0.007192808632173271,0.9944240169265136
2013-01-11,0,0.0,0.0,-0.0013820876476806562,0.007192808632173271,0.9942094100530688
2013-01-15,0,0.0,0.0,-0.00558701348658542,0.006654019322117147,0.9944635762904531
2013-01-17,0,0.0,0.0,-0.00558701348658542,0.0074040331621518796,0.9928852598204853
2013-01-22,0,0.0,0.0,-0.005780902308901626,0.007726547078877718,0.992607003438339
2013-01-24,0,0.0,0.0,-0.005604913621313243,0.008104488445981765,0.9923498450883806
2013-01-28,1,0.0005208837404686641,0.0005986868268164778,-0.0062509552137282095,0.008104488445981765,0.9919238212229371
2013-01-30,1,0.0012271781554838608,0.0012462388255979299,-0.0062509552137282095,0.008251477500284687,0.9907882127959198
2013-02-01,1,0.0012990636692730702,0.001380649896934826,-0.0062509552137282095,0.00945092096513322,0.9901880818767812
2013-02-05,1,0.0006382850596322601,0.0007097321362275442,-0.004195908787328043,0.009978951440735535,0.9903014134025308
2013-02-07,1,0.0006160016151745466,0.000656003867445791,-0.0012112905339251925,0.01086109537661313,0.9900687727166533
2013-02-11,1,0.001124872331671331,0.001267529617581165,-0.0015039155432555146,0.01086109537661313,0.9903204797700237
2013-02-13,0,0.0,0.0,-0.0004960365554295777,0.01086109537661313,0.9899469547300633
2013-02-15,0,0.0,0.0,-0.0015039155432555146,0.01001284896772109,0.9913089582167119
2013-02-20,1,0.0003802750090200358,0.00043072604822434757,-0.0004960365554295777,0.01001284896772109,0.9920586381185825
2013-02-22,0,0.0,0.0,-0.0004960365554295777,0.00976756729508279,0.9920976452643302
2013-02-26,0,0.0,0.0,-0.0004960365554295777,0.00976756729508279,0.9926905397862333
2013-02-28,1,0.0009737042059275369,0.0011106132069073154,-0.0015370277285274585,0.005876093671477218,0.9947372459796142
2013-03-04,1,0.00241752739725933,0.0027935974188193556,-0.0015370277285274585,0.004994084187086826,0.9955900039121415
2013-03-06,1,0.0027643656961354873,0.0031833189702359507,-0.00461629070142513,0.004129314811408832,0.9950468829745536
2013-03-08,1,0.0029613077818847486,0.003390068687237473,-0.00461629070142513,0.004129314811408832,0.994765196744846
2013-03-12,1,0.0027785547408621975,0.0031729830638551376,-0.004817706445087999,0.004746814177488867,0.9945246964347656
2013-03-14,1,0.003377858883668118,0.003882520445279453,-0.004817706445087999,0.005149165920252412,0.9937763677685948
2013-03-18,1,0.0030614114836093505,0.0035573968881577748,-0.00461629070142513,0.00624497428733393,0.9941498885179714
2013-03-20,0,0.0,0.0,-0.00461629070142513,0.00624497428733393,0.993955913642552
2013-03-22,0,0.0,0.0,-0.004183876842739323,0.006341338870973977,0.9934964256668914
2013-03-26,0,0.0,0.0,-0.0025854536674262806,0.0071002492177429655,0.9933013644249504
2013-03-28,0,0.0,0.0,-0.0025854536674262806,0.0071002492177429655,0.9932820358850096
2013-04-02,0,0.0,0.0,-0.003514048466007779,0.00896633041506852,0.9930046483426539
2013-04-04,0,0.0,0.0,-0.0024059792418451064,0.00896633041506852,0.9924618013745133
2013-04-08,0,0.0,0.0,-0.004419503757420885,0.0071002492177429655,0.9924644447886747
2013-04-10,0,0.0,0.0,-0.004419503757420885,0.008054297701729248,0.9919343199270434
2013-04-12,0,0.0,0.0,-0.006305997282885154,0.006331305420104206,0.9914969666871681
2013-04-16,1,0.001879128959129137,0.001944202999280487,-0.006397676785069773,0.004984995012218134,0.9913282204852805
2013-04-18,1,0.0013684669468392637,0.001391694364848115,-0.010169474046429771,0.004984995012218134,0.9908941983377797
2013-04-22,1,0.0018469247870299993,0.0019090891593072767,-0.010169474046429771,0.0036436565994201857,0.9912819012406415
2013-04-24,1,0.0022764636819511616,0.0023885939177035213,-0.010169474046429771,0.0023863609306624635,0.9914111026293093
2013-04-26,1,0.0027442241040655894,0.0029615470258086934,-0.011945232990438039,0.001880014931138416,0.9901289865105338
2013-04-30,1,0.0023571404145993945,0.00245505186267911,-0.013995830261408975,0.001599476817635748,0.9893041754037045
2013-05-02,1,0.002505480178129016,0.0026351195127403268,-0.011945232990438039,0.0014293960828875608,0.9900684392717662
2013-05-06,1,0.0015228279330471019,0.0015303823611610575,-0.009620827383992947,0.001880014931138416,0.9914736325467297
2013-05-08,1,0.0010107314818378701,0.001082629000060166,-0.00947321524684537,0.001880014931138416,0.9916421219991391
2013-05-10,1,0.0003226763492791495,0.0004795468164630095,-0.00947321524684537,0.001880014931138416,0.991482740529003
2013-05-14,1,0.00013009389187760125,0.0002745541099943505,-0.010393834926604985,0.001880014931138416,0.9913508650944823
2013-05-16,-1,-0.0002933657598216731,-0.000105821428859181,-0.008117379956865753,0.004571436151110568,0.9914221118259454
2013-05-20,-1,-0.0010582701172720988,-0.0007481195381532774,-0.008117379956865753,0.00624438577939634,0.9913085923157458
2013-05-22,-1,-0.0015319219948083215,-0.0011351299248444674,-0.010953749916558484,0.00624438577939634,0.9888996486799542
2013-05-24,-1,-0.002463824510620556,-0.001971102837490245,-0.010393834926604985,0.0070335294263201105,0.9882418374778243
2013-05-29,-1,-0.0030489699668804692,-0.002532918595735921,-0.007913168041336452,0.008979537606155313,0.98802796210572
2013-05-31,-1,-0.003475349671173871,-0.002898416109871015,-0.006707780493826172,0.01018507593526718,0.9871054595347066
2013-06-04,-1,-0.003493112788852606,-0.002893211494930629,-0.010393834926604985,0.01018507593526718,0.9867397038920569
2013-06-06,-1,-0.0034999769761163424,-0.002894980859072971,-0.010580345167793302,0.008979537606155313,0.9874440168990907
2013-06-10,-1,-0.0024125661028098835,-0.0019595583558871285,-0.007024634088539139,0.008979537606155313,0.9879952508161692
2013-06-12,-1,-0.0033243122391314927,-0.002752157935448288,-0.0045316944792921626,0.01323331008270433,0.986622717561566
2013-06-14,-1,-0.0022968645966106697,-0.0018678048229665604,-0.0045316944792921626,0.01374985368115354,0.9870386049901946
2013-06-18,-1,-0.001956069146821246,-0.0015550959075183275,-0.0045316944792921626,0.01374985368115354,0.9878081498087609
2013-06-20,-1,-0.00360437059646851,-0.003012610054715224,-0.0017794643381715965,0.01374985368115354,0.9888666231163321
2013-06-24,-1,-0.0019349435806722969,-0.001577447808116488,-0.0017794643381715965,0.01323331008270433,0.9908475907975016
2013-06-26,0,0.0,0.0,-0.0045316944792921626,0.010478264669306911,0.9915109987475696
2013-06-28,0,0.0,0.0,-0.0045316944792921626,0.010478264669306911,0.991348459900353
2013-07-02,0,0.0,0.0,-0.002064469569786906,0.010478264669306911,0.9925172225232731
2013-07-05,0,0.0,0.0,-0.0013172745714232971,0.010478264669306911,0.9927258820242856
2013-07-09,0,0.0,0.0,-0.004126736778475375,0.008402648898153387,0.9929440362040279
2013-07-11,-1,-0.0006271877123055992,-0.00046138108938690025,-0.004126736778475375,0.0078195217544096,0.9935065148455139
2013-07-15,-1,-0.0004018340625524039,-0.00024916573164256677,-0.006878958169763717,0.0051209614871601476,0.993447363625169
2013-07-17,-1,-0.00031647354627849954,-0.00019028472555222543,-0.006878958169763717,0.0051209614871601476,0.993371696534229
2013-07-19,-1,-0.0007400758882059294,-0.0005327524372729737,-0.009446079411736127,0.0015056249732035717,0.9930190939573121
2013-07-23,0,-0.0001179646261704804,1.7771708903208897e-06,-0.009446079411736127,0.0030648687364574208,0.992286616894068
2013-07-25,-1,-0.00029710042044720294,-0.00021337413160628377,-0.00888136749272185,0.0030648687364574208,0.992721326321122
2013-07-29,1,0.0009303840224860033,0.0010245527498732602,-0.00888136749272185,0.0015056249732035717,0.9926581521758591
2013-07-31,1,0.001141996836601428,0.0012942558081462563,-0.00888136749272185,0.0015572046466390862,0.9924688724401695
2013-08-02,1,0.0010017488201729229,0.0011298273470592697,-0.008652708953558396,0.000804901939190991,0.9925086876667417
2013-08-06,1,0.00017634811667988824,0.00022157559173482017,-0.008652708953558396,0.000804901939190991,0.992801455847684
2013-08-08,1,0.0005125816687865694,0.0005735043885425775,-0.010221816941791646,-0.0003253250064252912,0.992121496947905
2013-08-12,1,2.489312626857098e-05,3.084234592968706e-05,-0.008652708953558396,0.0032944058567015142,0.9927017802752452
2013-08-14,-1,-0.0005144798138611375,-0.00044124010441218384,-0.010221816941791646,0.0032944058567015142,0.9922578571618305
2013-08-16,-1,-0.0014512126259217015,-0.001270948812138782,-0.008652708953558396,0.0033913830283384245,0.9931077967312291
2013-08-20,-1,-0.0017497874732127529,-0.00153354165824705,-0.008558351827595966,0.005687609923473652,0.9915856402607472
2013-08-22,-1,-0.0013275004964415742,-0.001232033895059448,-0.008558351827595966,0.005687609923473652,0.9916142528087573
2013-08-26,0,0.0,0.0,-0.006410756577948692,0.005687609923473652,0.9911815542773592
2013-08-28,0,0.0,0.0,-0.010170173357649203,0.004028606578836614,0.9903461775168079
2013-08-30,-1,-0.00043050994508948435,-0.00041531292328372214,-0.009113572882780092,0.0054824991350840395,0.9905290486143375
2013-09-04,0,0.0,0.0,-0.004511074928393006,0.0054824991350840395,0.9914469855229056
2013-09-06,0,0.0,0.0,-0.004008942076871984,0.0054824991350840395,0.9919573531287703
2013-09-10,-1,-0.0006669618526688233,-0.0006276302871180497,-0.006496920595522113,0.0054824991350840395,0.9917464670296289
2013-09-12,-1,-0.0008737628554734342,-0.0008269348422232683,-0.004008942076871984,0.010877367201555608,0.991227839110438
2013-09-16,-1,-0.00030885530264929107,-0.0001475647644194869,-0.0055047984048177704,0.010877367201555608,0.991374893289617
2013-09-18,0,0.0,0.0,-0.006496920595522113,0.008751635311332946,0.9921213905087871
2013-09-20,0,0.0,0.0,-0.0055047984048177704,0.010877367201555608,0.9916054198221276
2013-09-24,1,0.001557867284788698,0.0019663212821831597,-0.0055047984048177704,0.010877367201555608,0.9921582814901966
2013-09-26,1,0.0004354068974944976,0.0006536197937500548,-0.002781412818933742,0.010877367201555608,0.9929673573042296
2013-09-30,1,0.0005559037145207638,0.000778714215587014,-0.004194832875383403,0.011644465101723069,0.9925009907901761
2013-10-02,1,0.00026855721989774373,0.0004106971008304117,-0.004194832875383403,0.011644465101723069,0.9921776193213114
2013-10-04,1,0.0002935772463487955,0.00041038007427810375,-0.003404828748076058,0.010954857558040168,0.9925554261971407
2013-10-08,1,0.00020813756257775207,0.0002841996749888028,-0.003404828748076058,0.009699844674463769,0.9929918402078929
2013-10-10,1,0.0011329368305262504,0.0013204662017732576,-0.003404828748076058,0.007810009201018819,0.9937810661398857
2013-10-14,1,0.0009420287945460016,0.0011126095974417689,-0.003404828748076058,0.007810009201018819,0.9935725539488637
2013-10-16,1,0.0003506406268583717,0.0003994214195010005,-0.003449412522615779,0.007407826374977984,0.9936088505177905
2013-10-18,1,0.0006436842194369144,0.0006624860684156507,-0.003449412522615779,0.00772466694144501,0.9936916036872604
2013-10-22,1,0.0009398946056223812,0.0009783465900660233,-0.005751381329015683,0.0033430905295976257,0.9935259864221737
2013-10-24,1,0.0008589991446280949,0.0009038646764689013,-0.0058343309958413,0.0033430905295976257,0.9927349338584227
2013-10-28,1,0.0011259103504255045,0.0012065416466671306,-0.008921879828426222,0.001731059197875645,0.991529665645812
2013-10-30,1,0.001183783136277841,0.001300971864675238,-0.008921879828426222,0.0033430905295976257,0.9913278351886645
2013-11-01,1,0.0012120477466084354,0.0012902300605854337,-0.008921879828426222,0.0033430905295976257,0.991188645030703
2013-11-05,1,0.0012940959148514818,0.0014232996153993097,-0.008921879828426222,0.001989988619306387,0.9913503577439553
2013-11-07,1,0.0016506653309000645,0.001853402425104853,-0.010270950105820024,0.0022358082267950356,0.9904911105076909
2013-11-11,0,-1.7451779386822854e-05,0.00010073141546207366,-0.0112453268598243,0.007466224840260688,0.9906529879055497
2013-11-13,-1,-0.00014940346901016005,-7.319251988603505e-05,-0.010270950105820024,0.007466224840260688,0.9910645223107004
2013-11-15,1,0.0012337281660641068,0.0013811736514289467,-0.010270950105820024,0.005327764528893736,0.9912782448258893
2013-11-19,1,0.0008886248778627109,0.0010329027912205752,-0.00793943969094049,0.006394965118196166,0.9914321112433984
2013-11-21,-1,-0.000671664910926576,-0.0005547640310768568,-0.006081719880363634,0.007466224840260688,0.9920859725037074
2013-11-25,-1,-0.0026948512456893415,-0.0023099998455256405,-0.003405598262070599,0.0083317195477598,0.9926538871298664
2013-11-27,-1,-0.0017668672585372306,-0.0015369083746099796,-0.006081719880363634,0.007466224840260688,0.9930182330855525
2013-12-02,-1,-0.0007472384438214926,-0.000698961670677181,-0.006081719880363634,0.0070185783465193914,0.993106062393064
2013-12-04,-1,-0.00031508955001040615,-0.0002719061609753627,-0.007373044297820777,0.0070185783465193914,0.9923583259938925
2013-12-06,-1,-0.0004930993565789552,-0.0004872656615665878,-0.006081719880363634,0.006337441510133104,0.993399029256784
2013-12-10,-1,-0.0004700467942588627,-0.00042294021969207954,-0.006081719880363634,0.005327764528893736,0.9940413312544545
2013-12-12,-1,-0.00039816440028332364,-0.00034260339210383673,-0.00488209449561482,0.006337441510133104,0.9941457690213613
2013-12-16,-1,-0.00030419146799738394,-0.00027703178875644363,-0.00488209449561482,0.007269965493849075,0.9937353220361811
2013-12-18,1,0.0004513297438415929,0.0006318693901263007,-0.0015241603460911656,0.007269965493849075,0.9941298205961342
2013-12-20,1,0.0008060125342289818,0.00103423973757465,-0.0015241603460911656,0.007269965493849075,0.9937440441980722
2013-12-24,1,0.000675310652138013,0.000866019259865024,-0.0033825426389703034,0.003361159618239175,0.9936198392864728
2013-12-27,-1,-9.261025009883061e-05,-4.014684724815173e-05,-0.000659422842907836,0.006056127947728577,0.9936518948497185
2013-12-31,1,0.000575167935583215,0.0007598298528215395,-0.0012796451877854146,0.006365038703121322,0.9930228831676667
2014-01-03,-1,-0.0003882896290681064,-0.00037116196895899307,-0.000659422842907836,0.006365038703121322,0.9934270648919608
2014-01-07,-1,-0.00040643929538147105,-0.00039913868765419536,-0.0012788836072008818,0.006365038703121322,0.9931860865143833
2014-01-09,-1,-0.0012123845474792665,-0.0010782116443488674,-0.0006442101942473829,0.009166724237588058,0.992547600245363
2014-01-13,-1,-0.001029685037279551,-0.0009065101252233509,0.0003073676995343187,0.012336288201750797,0.9922830311413897
2014-01-15,-1,-0.0005124250258605142,-0.0004261018702330973,0.0003073676995343187,0.011481787254587315,0.9927707946121499
2014-01-17,-1,-0.0001288524134685622,-8.225199374613761e-05,0.0007721348294262133,0.009350323213523888,0.9927754753221819
2014-01-22,1,0.0007594765427781408,0.000838186523236137,-0.0003173331877754411,0.009093565883918912,0.9934012499295761
2014-01-24,-1,-0.00030204556663681107,-0.00022386980129368862,0.0009881757442047946,0.009093565883918912,0.9934705738664529
2014-01-28,-1,-0.00039857257010359474,-0.0002679283047635385,0.0007721348294262133,0.010513176460544723,0.993000343520888
2014-01-30,1,0.0001141112282231754,0.00018224075380996748,0.0009881757442047946,0.009093565883918912,0.9940848672942686
2014-02-03,1,0.0004530766304692889,0.0004586014790643624,0.0009881757442047946,0.009093565883918912,0.9937451391248281
2014-02-05,-1,-0.00019441266400640523,-7.712692835384508e-05,-0.0006457175058037107,0.009093565883918912,0.9928030467641468
2014-02-07,1,0.0003758381904844769,0.0004232012488491725,-0.004762680171104579,0.007406646902154102,0.9933020152278347
2014-02-11,1,0.0016923719447861421,0.0019015538876416792,-0.005159464834730334,0.007406646902154102,0.9931351278137848
2014-02-13,1,0.0017853500369680404,0.0019643525806714492,-0.005159464834730334,0.006223119996792939,0.9934899435896843
2014-02-18,1,0.0025971636785885543,0.002925172613681855,-0.005159464834730334,0.005814339697366817,0.9938922779139141
2014-02-20,1,0.0020505879204044787,0.002259385588536576,-0.005629259529599978,0.005641653175643709,0.9935378714122827
2014-02-24,1,0.0021389961242665005,0.0023620005905172297,-0.005629259529599978,0.006112465527360268,0.9916874392471888
2014-02-26,1,0.0024358271619374385,0.002692600669785986,-0.0075802209456816904,0.005814339697366817,0.9920283309391132
2014-02-28,1,0.0026407342685315863,0.002931288485790622,-0.0075802209456816904,0.006112465527360268,0.9910588727709385
2014-03-04,1,0.0024880530977790445,0.0027605959189004768,-0.0053434286029724574,0.006847342515308294,0.990620046592239
2014-03-06,1,0.002174014403213098,0.0024553935700510755,-0.001034387610954584,0.008125860898628068,0.9908131710827957
2014-03-10,1,0.0019893570684350334,0.0022292020896010666,-0.0023197908470884068,0.008125860898628068,0.9905479776684589
2014-03-12,1,0.0022239548087655218,0.0024799290356385577,4.3063681166125327e-05,0.0078148797140552,0.9914591326352277
2014-03-14,1,0.0027235575004245656,0.003092381298642885,-0.002120123539819209,0.0078148797140552,0.9912185058390307
2014-03-18,1,0.003188256240342256,0.003641033527933972,-0.002120123539819209,0.0078148797140552,0.9912410010381206
2014-03-20,1,0.0027296880634539475,0.00311053845446897,-0.002120123539819209,0.0078148797140552,0.9914347445325857
2014-03-24,1,0.004151962865274428,0.004733990748572681,-0.002258700276819761,0.0053633751674081595,0.9925181080512995
2014-03-26,1,0.003601256243790511,0.004094663171964382,-0.0014585866174796859,0.006279451120723294,0.9931996384664673
2014-03-28,1,0.004661132599907962,0.005312800699174676,-0.0014585866174796859,0.0053633751674081595,0.9939569397276766
2014-04-01,1,0.005318776622384427,0.006042687921496249,-0.0027806715151546296,0.005147108084115262,0.9938116677248159
2014-04-03,1,0.005103655759035517,0.005802442675442469,-0.0027806715151546296,0.003798043230207859,0.9933328998596646
2014-04-07,1,0.004514351195633481,0.005110624725917206,-0.0017711537672585275,0.005147108084115262,0.9942753605813665
2014-04-09,1,0.004519807191493152,0.005073553785364985,-0.0027806715151546296,0.003798728539164845,0.9925737953640282
2014-04-11,1,0.004530066312954683,0.005126716410195284,-0.006204129178863353,0.003798728539164845,0.991730418585296
2014-04-15,1,0.0044956261702123815,0.005045434491725011,-0.006204129178863353,0.0025388556629390873,0.9915358807820759
2014-04-17,1,0.0034882813242301343,0.0038545475742436932,-0.0030794989002083046,0.0025880979612620874,0.9928986903724266
2014-04-22,1,0.0025904358036015402,0.0027522323864015708,-0.006204129178863353,0.0025880979612620874,0.9924692120715449
2014-04-24,1,0.002795281411452382,0.0029904873395949503,-0.006289506381557274,0.0025880979612620874,0.99177854543648
2014-04-28,1,0.0028039489390670174,0.0030035621509355384,-0.006816115020768182,0.00249165077287129,0.9913350695205444
2014-04-30,1,0.002327733802680197,0.0024541728870118027,-0.006816115020768182,0.003105045417555621,0.9920388303336558
2014-05-02,1,0.0013358867976168303,0.001355518182147832,-0.005727993067381895,0.0061467354754298036,0.9925569606044214
2014-05-06,1,0.0013548309522247656,0.001396617371797389,-0.005727993067381895,0.0061467354754298036,0.9923965873309737
2014-05-08,1,0.0011309542913730552,0.0012074023276749544,-0.005727993067381895,0.005975112665665768,0.993391718342702
2014-05-12,1,0.0002780806664247947,0.0004432577630737222,-0.004080156010390641,0.005975112665665768,0.99396627526448
2014-05-14,1,0.0003637116392263363,0.0005195178758554042,-0.005680575891977775,0.005975112665665768,0.9934772691732235
2014-05-16,1,0.0004934617409801583,0.0006225897258746408,-0.005680575891977775,0.009097006528333895,0.9928694538164913
2014-05-20,-1,-0.0005819736765547732,-0.00032232100079768503,-0.004080156010390641,0.00963391490013363,0.9926279334784315
2014-05-22,-1,-0.0008199043630308818,-0.0004992107173652923,-0.003772608875566521,0.00963391490013363,0.9926259803121824
2014-05-27,-1,-0.001081542116905123,-0.0007365512406478275,-0.0034324650800982514,0.00963391490013363,0.9927853733267984
2014-05-29,-1,-0.0013606943645254408,-0.0009406151245540848,-0.003772608875566521,0.00963391490013363,0.9928678811673922
2014-06-02,-1,-0.0007963662346880994,-0.00043775475154508425,-0.004075352864290606,0.009119046470841522,0.9931467279597265
2014-06-04,-1,-0.0010151860901323631,-0.0006087269706125194,-0.00553110167778332,0.005221977964395891,0.9924361014630343
2014-06-06,-1,-0.0011079953127787474,-0.0006918377412909542,-0.00553110167778332,0.002640098052629466,0.9926960748365522
2014-06-10,-1,-0.0012727935704133606,-0.0008669408086287842,-0.005040721439124513,0.00618621745952407,0.9920843025295794
2014-06-12,-1,-0.0017338371925763052,-0.0012895438191197143,-0.005040721439124513,0.01050427250583583,0.9917718771175698
2014-06-16,-1,-0.0008846370610789924,-0.0005672510111907002,-0.005637972197747908,0.009944499099652223,0.9916008021031802
2014-06-18,-1,-0.0004447627524775328,-0.00013544766709702662,-0.005637972197747908,0.005751878939128539,0.9925557258854169
2014-06-20,0,-0.00015498229246699551,0.00010813934709282642,-0.005637972197747908,0.005751878939128539,0.9927656588324261
2014-06-24,0,-5.935521483294915e-05,0.00017940370416155563,-0.005704883488243315,0.005751878939128539,0.9925438363968059
2014-06-26,0,-0.00024518097899453475,1.228014503163366e-05,-0.00609993169500741,0.006540344873145801,0.9924844505032125
2014-06-30,0,-0.00021022777876547832,5.399958664933447e-05,-0.006826857656853435,0.006540344873145801,0.992187270916525
2014-07-02,-1,-0.001303311285978943,-0.0009238223439751087,-0.006826857656853435,0.006540344873145801,0.9919196948127023
2014-07-07,-1,-0.0014593632325753682,-0.0010921776835421553,-0.00609993169500741,0.009784378419907917,0.9913943454533047
2014-07-09,-1,-0.0008635248720831745,-0.0005903216500013639,-0.006826857656853435,0.006540344873145801,0.9914712232646559
2014-07-11,-1,-0.0005177584367817716,-0.0003115424772302775,-0.006434374267026171,0.010062886035115234,0.9902813059253213
2014-07-15,-1,-0.0005750801395626086,-0.0003657630315750595,-0.0064026754263693045,0.006579807184966805,0.9907577339987134
2014-07-17,-1,-0.0006138006064328277,-0.00040557661177264225,-0.0064026754263693045,0.00999436259547443,0.9903648267944977
2014-07-21,-1,-0.00018551426773347998,-4.014105119781757e-05,-0.0064026754263693045,0.006975098116653853,0.9904154013949349
2014-07-23,-1,-0.00039503008766816287,-0.00023469194685134145,-0.0064026754263693045,0.010846226924554348,0.9896642619693039
2014-07-25,-1,-0.0006213456139532147,-0.0004226548963326333,-0.007251240334675037,0.010846226924554348,0.9897309406074993
2014-07-29,-1,-0.0009520542374781253,-0.0006727643383880029,-0.007251240334675037,0.006975098116653853,0.9900516263704698
2014-07-31,-1,-0.0026892226039159487,-0.00220323312661631,-0.003922750555906249,0.010343001768714583,0.9907416298491143
2014-08-04,-1,-0.0017225283985204895,-0.0013651874516139252,-0.006301621874827175,0.010343001768714583,0.9911518833686352
2014-08-06,-1,-0.0024051792789043045,-0.0019797503277450466,-0.005425402888853509,0.010737186464836736,0.9908081394207521
2014-08-08,-1,-0.0006651754889426758,-0.00045915358962614957,-0.006301621874827175,0.008797130711012098,0.992202465503233
2014-08-12,-1,-0.0017385862695915137,-0.001376404906530764,-0.005708257858288754,0.008797130711012098,0.9917668535087848
2014-08-14,1,1.2329784373836495e-05,8.166303430593265e-05,-0.007476268786877184,0.006499092627368029,0.9916539264353943
2014-08-18,1,4.0056614815976136e-05,0.00012654526484568115,-0.007476268786877184,0.008870978163941744,0.9910145316676212
2014-08-20,1,0.001392463282182167,0.0015340488111588932,-0.007476268786877184,0.006499092627368029,0.9917022288785052
2014-08-22,1,0.0017052146013875015,0.0019412289431625966,-0.008974285390409752,0.006499092627368029,0.9915576767186778
2014-08-26,1,0.001110104423829803,0.0012594279091631294,-0.00839634530459868,0.006499092627368029,0.9915381000452842
2014-08-28,1,0.0013546727717837102,0.0015100514720454618,-0.008552492591639958,0.0046386882627867205,0.9912126212203731
2014-09-02,1,0.0016823438872562535,0.0019113237657556953,-0.008494323098128625,0.0036540557791823595,0.9919335777969146
2014-09-04,1,0.0017398501536154225,0.0019590187637021353,-0.008494323098128625,0.0036540557791823595,0.9917259100691496
2014-09-08,1,0.001738153459840935,0.0019822515349043586,-0.007122481626859668,0.0042687690474594135,0.9924901782311447
2014-09-10,1,0.0007727205474359138,0.0008630752427557563,-0.006325649701705237,0.004644866768296329,0.9922562657477637
2014-09-12,1,0.00018313527935005618,0.00018979890876563,-0.006325649701705237,0.004644866768296329,0.9921678991892714
2014-09-16,1,0.0011920331681518513,0.001351327631279712,-0.006325649701705237,0.0058155563426877995,0.9914457928414842
2014-09-18,1,0.0009727247818815986,0.0011125992601774177,-0.008494323098128625,0.0058155563426877995,0.990640261838704
2014-09-22,1,0.00048706132511959515,0.0005444825294615063,-0.007122481626859668,0.008171904549456314,0.9901917414422381
2014-09-24,-1,-0.000593516705558207,-0.0004727198596514299,-0.004755332173832836,0.008171904549456314,0.9903695937222606
2014-09-26,-1,-0.00082917594077339,-0.0007050337042564467,-0.0037868969050757445,0.011485344384284613,0.9898272753844904
2014-09-30,-1,-0.0007100644896804683,-0.000603149685523196,-0.0037868969050757445,0.013422821832190207,0.989083968238269
2014-10-02,-1,-0.0010355666505279333,-0.000843119179457099,-0.0036490173446472856,0.0136804297455197,0.9887618398662918
2014-10-06,-1,-0.0005220094552726982,-0.00039836030356624327,-0.0036490173446472856,0.0136804297455197,0.9888647134601991
2014-10-08,1,0.0005022082627663143,0.0005043885530459488,-0.006603678096632066,0.011887668955285197,0.9892143568064665
2014-10-10,-1,-0.00043125219883007683,-0.0002785853909787751,-0.006603678096632066,0.011887668955285197,0.9891941994244183
2014-10-14,1,0.0011543914488322167,0.001202425337428341,-0.006603678096632066,0.011264824244222359,0.9907723646414431
2014-10-16,0,-9.463946210515941e-05,2.3676942340551384e-05,-0.006603678096632066,0.011264824244222359,0.9903778081233228
2014-10-20,1,0.0009910691316976257,0.0010186578098934705,-0.006603678096632066,0.011264824244222359,0.9910504228450088
2014-10-22,1,0.0015677625866084455,0.0017142335716466483,-0.006603678096632066,0.011264824244222359,0.9912294283452525
2014-10-24,1,0.0018040975395641418,0.001988796280650837,-0.0051353145571505845,0.010715262650756303,0.9919037333848301
2014-10-28,1,0.0023843601185643054,0.0026427056313114297,-0.0056214697549992546,0.007355119905245487,0.9920448958246638
2014-10-30,1,0.002579448830700118,0.002837389449633256,-0.004958202663387121,0.007355119905245487,0.9926137322423789
2014-11-03,1,0.0024891078914327626,0.00270454766495059,-0.004958202663387121,0.007312849552085112,0.9926264889107157
2014-11-05,1,0.002508367247371711,0.0027526005930080836,-0.0029933143362055677,0.005074694398634496,0.9937332497560986
2014-11-07,1,0.0025094102133356245,0.0028135895195907853,-0.0029933143362055677,0.006096216654564526,0.9935048051115203
2014-11-11,1,0.0029407095819716303,0.0033080997660311457,-0.004958202663387121,0.003691314920748768,0.9933098256837704
2014-11-13,1,0.001999485675689737,0.002244019399079934,-0.0029933143362055677,0.003691314920748768,0.9943944300022103
2014-11-17,1,0.0026021991499455437,0.0029203123404559802,-0.004958202663387121,0.00325099021155298,0.9941617928518144
2014-11-19,1,0.0025360712167708846,0.0028612373840352563,-0.004958202663387121,0.006096216654564526,0.9936084506603391
2014-11-21,1,0.0018239280584871832,0.0019868926269252184,-0.001944691824033664,0.007686886386567779,0.9935995846460227
2014-11-25,1,0.001507357206588783,0.0016032548889811965,-0.0005504759768527214,0.010592491968630588,0.9930444646848445
2014-11-28,1,0.002229242193371807,0.0024376083664746175,-0.0005504759768527214,0.010915689548576043,0.9929306776236422
2014-12-02,1,0.002532041136974079,0.0027822802703501557,-0.007013144827347376,0.010915689548576043,0.9911373929447665
2014-12-04,1,0.0024958697769991867,0.002731769646374703,-0.007013144827347376,0.010915689548576043,0.9909676620547689
2014-12-08,1,0.002498302764267884,0.002726276788665669,-0.0035003018674198416,0.010915689548576043,0.991579567674551
2014-12-10,1,0.0022165342468686185,0.0024199797360819103,-0.0009665496152223261,0.010915689548576043,0.9918554543511243
2014-12-12,1,0.0018058725352861644,0.0019353968471930738,-0.0032522676107931458,0.010915689548576043,0.9914273067123334
2014-12-16,1,0.0012482735721522377,0.001297749311802529,-0.0003790053400929985,0.011387094113241266,0.9912443002690278
2014-12-18,1,0.0022100306607316746,0.002396315677175369,-0.0003790053400929985,0.0077946189132162644,0.9925419958951184
2014-12-22,1,0.0014613939536349528,0.0014623029723007694,-0.0028543137173090887,0.00686253747068343,0.9921915202971066
2014-12-24,1,0.002625007248296496,0.0028187854001874317,-0.0028543137173090887,0.005052418044679756,0.9932747302485773
2014-12-29,1,0.0028196306464224174,0.0029842232076659507,-0.00448791566738629,0.004346063262002245,0.9932810786211042
2014-12-31,1,0.0017795962239820556,0.001887359885881055,-0.0028543137173090887,0.004688367253691727,0.9938943148142951
2015-01-05,1,0.0012515193014857005,0.0012586703191523585,-0.004421998866016085,0.004688367253691727,0.9936382660181581
2015-01-07,1,0.0022156795238384886,0.00236644409581594,-0.005484026943727846,0.004346063262002245,0.9942027956634016
2015-01-09,1,0.0025294320028983897,0.002731260636012833,-0.00580726270856745,0.003161915805172742,0.9915054724572266
2015-01-13,1,0.0022569857606082105,0.002462977530078663,-0.0056095123044568335,0.0036191139172968216,0.9900511795532075
2015-01-15,1,0.002744648092768823,0.002999984764462076,-0.007380219873637536,0.0026449969779550565,0.9890093551991698
2015-01-20,1,0.002500067337306706,0.002686305933052668,-0.007380219873637536,0.0036191139172968216,0.987544046983781
2015-01-22,1,0.0025999917605330353,0.002819490976494193,-0.011485806049543301,0.003161915805172742,0.9867320653588691
2015-01-26,1,0.002558676267563306,0.002773019452564398,-0.011485806049543301,0.004542558365915893,0.9860111764384305
2015-01-28,1,0.0021290108943636658,0.0022926602685105152,-0.012389361176136565,0.004542558365915893,0.9854996263151345
2015-01-30,1,0.0021750854981140415,0.0023271885931887377,-0.011613085737918617,0.0027993001232123897,0.9866294710702302
2015-02-03,1,0.001545854658928423,0.001566171743252922,-0.011613085737918617,0.0027993001232123897,0.9866848865865756
2015-02-05,1,0.0009013830368760365,0.0009913009601437322,-0.01272797901223953,0.00340527243179483,0.9851165251983909
2015-02-09,-1,-0.0008970127864102369,-0.0006423000386395837,-0.011613085737918617,0.006289692196751488,0.9872959193411512
2015-02-11,-1,-0.0008903095530631006,-0.0006147705942749287,-0.009043246150279122,0.006289692196751488,0.9888491989984733
2015-02-13,-1,-0.0022208952103409826,-0.0017759021312060822,-0.005556619056743336,0.007735512759657565,0.9890404904173266
2015-02-18,-1,-0.001049970330869397,-0.0007152444711506221,-0.008680534108019387,0.006289692196751488,0.9891384595793734
2015-02-20,-1,-0.0023015078391814435,-0.001797187698960499,-0.009900035610648,0.006289692196751488,0.9890738081216717
2015-02-24,-1,-0.0016282470688404867,-0.0011892505513247335,-0.010077151193152487,0.004856429915437053,0.9895553942743234
2015-02-26,-1,-0.002602652968079975,-0.0020569007059404463,-0.009002879295961982,0.004856429915437053,0.9900657879246068
2015-03-02,-1,-0.0027810469874738454,-0.0022258226222787994,-0.009002879295961982,0.006289692196751488,0.9897030471291722
2015-03-04,-1,-0.0025757714915716893,-0.0020835382738060093,-0.009250157460612893,0.007438822189085268,0.9891229950519517
2015-03-06,-1,-0.004179304931303863,-0.003484030583214676,-0.00879459503563679,0.009206253127180842,0.9898278590843155
2015-03-10,-1,-0.0028865892953639097,-0.002410387345897807,-0.00879459503563679,0.00898034565152027,0.9904939612319978
2015-03-12,-1,-0.0029236424674913743,-0.0023936228053641363,-0.00879459503563679,0.006811709860252779,0.9909728050487608
2015-03-16,-1,-0.0017282794009752874,-0.0013820947722441089,-0.009250157460612893,0.0038062861862108318,0.991193501689471
2015-03-18,-1,-0.0007872048421654338,-0.0005634925518341802,-0.009250157460612893,0.002027435347030247,0.9921671049199086
2015-03-20,-1,-0.0016229805388333317,-0.0013060847618621735,-0.00879459503563679,0.0038062861862108318,0.9922090313299525
2015-03-24,-1,-0.0018931049176967247,-0.0015790677345159329,-0.00879459503563679,0.0038062861862108318,0.9919338594852025
2015-03-26,-1,-0.002178379409517009,-0.0018549823271678536,-0.008334869272800811,0.007214988204621098,0.9909936120085079
2015-03-30,-1,-0.001406025689214656,-0.0011932851256062909,-0.009095482086691404,0.007214988204621098,0.9907982011564525
2015-04-01,-1,-0.0015486757708688343,-0.0013118123505474373,-0.009414672412756354,0.006762199362727008,0.990490430616213
2015-04-06,-1,-0.0010052135222759974,-0.0008108002147747272,-0.009414672412756354,0.006762199362727008,0.9907021928333032
2015-04-08,-1,-0.0010813621584010807,-0.0009029300113532516,-0.012806539353607614,0.006762199362727008,0.9893121677733715
2015-04-10,-1,-0.0016538117643671239,-0.0013589972724291765,-0.012806539353607614,0.008874667065387745,0.9889868861141716
2015-04-14,-1,-0.0017526331162582987,-0.0014810547849488814,-0.012521673243609725,0.008874667065387745,0.9890921498077141
2015-04-16,-1,-0.002652979026630809,-0.0022701379715943655,-0.01167955264078902,0.009169645761483415,0.9886997880265534
2015-04-20,-1,-0.0026372401095539812,-0.002254883217082713,-0.01167955264078902,0.009256760632890187,0.9885747555643367
2015-04-22,-1,-0.0037443514426803628,-0.0032321783109146994,-0.00979841561497944,0.009256760632890187,0.9891109310432263
2015-04-24,-1,-0.0021910408529013338,-0.0018962014017995718,-0.00979841561497944,0.008874667065387745,0.9906666491254345
2015-04-28,-1,-0.0018491008535053005,-0.0016167195218365787,-0.007800939164178686,0.0068342881782682465,0.9911880285542048
2015-04-30,-1,-0.0022609347025983524,-0.0019847770709466926,-0.005105642873314779,0.0068342881782682465,0.991848712041309
2015-05-04,-1,-0.001490407443041118,-0.001313466218271682,-0.007800939164178686,0.005334560607743614,0.9918839715929483
2015-05-06,-1,-0.0031549016677451173,-0.0027716106503158336,-0.005105642873314779,0.005334560607743614,0.99245979449974
2015-05-08,-1,-0.0024106928598242156,-0.0021097928603402006,-0.007800939164178686,0.003958033250939372,0.9927815874303114
2015-05-12,-1,-0.0034006670365321658,-0.002962107460430229,-0.004542616724539652,0.003958033250939372,0.9930511607352255
2015-05-14,-1,-0.0025005487530866373,-0.0022189304569010197,-0.004542616724539652,0.003958033250939372,0.9934841480472038
2015-05-18,-1,-0.0015912716768330787,-0.0014306960227954697,-0.004542616724539652,0.0037639108864434253,0.9940179909469211
2015-05-20,-1,-0.0009323688345567295,-0.0008963932582857897,-0.004542616724539652,0.003987149558393993,0.9931164884420776
2015-05-22,-1,-0.0004080438769152598,-0.00032725363883028187,-0.004542616724539652,0.003987149558393993,0.9929035539194311
2015-05-27,-1,-0.0011520737562516312,-0.0010578992918945384,-0.011894948284934221,0.0037736163222616323,0.9915541445447346
2015-05-29,-1,-0.001125568188423139,-0.0010343390850209076,-0.011894948284934221,0.0037736163222616323,0.991698550372214
2015-06-02,-1,-0.0013160397432134432,-0.0012455125893621824,-0.010230342219219896,0.0037736163222616323,0.9922404221386989
2015-06-04,-1,-0.0013895517806961808,-0.0013332737728615387,-0.005835463518301734,0.004860482283255709,0.9913235393187799
2015-06-08,-1,-0.0024333963952829205,-0.0022348508491524654,-0.0043155759418366324,0.0072996448466166874,0.9908894640914239
2015-06-10,-1,-0.0018110360960501704,-0.0017264258087324928,-0.009800668135961655,0.0072996448466166874,0.9904874891730028
2015-06-12,-1,-0.001673789651916215,-0.001619928483422946,-0.00563083545872523,0.006599498935091318,0.9909263766970491
2015-06-16,-1,-0.0012007702152073423,-0.00119238554640913,-0.00563083545872523,0.006599498935091318,0.9909367314874283
2015-06-18,-1,-0.0002340953308378465,-8.614948821961777e-05,-0.009800668135961655,0.0046868069000701095,0.990741677619076
2015-06-22,-1,-0.0005924089303914679,-0.0005093443366411042,-0.009800668135961655,0.0046868069000701095,0.9906857882695349
2015-06-24,-1,-0.0016056524353549977,-0.0015815675856544556,-0.006929453197604363,0.0065869130835923525,0.9916342464606195
2015-06-26,-1,-0.0013593439338701733,-0.0013527795637182875,-0.006929453197604363,0.008991011878860316,0.9907465722367061
2015-06-30,-1,-0.0016710824745119343,-0.001642759642178313,-0.004471412318352734,0.008991011878860316,0.990875093163604
2015-07-02,-1,-0.0013180299477299896,-0.0012362516082126836,-0.004471412318352734,0.007206820984342648,0.9919328182919692
2015-07-07,-1,-0.00019660446562746924,-0.00011709424819202502,-0.006479169050923242,0.0065869130835923525,0.9926876803335621
2015-07-09,-1,-0.0014740696828333918,-0.001349701779049119,-0.003569955926636763,0.007206820984342648,0.9926578547514273
2015-07-13,-1,-0.0004087967763191649,-0.00032198047843636445,-0.004072437456235843,0.007206820984342648,0.9918964310726797
2015-07-15,-1,-0.0004380438753151553,-0.00039430091493225153,-0.006479169050923242,0.007728342652790754,0.9903855480954935
2015-07-17,1,0.00027119914679855537,0.00046142995577672726,-0.004072437456235843,0.007728342652790754,0.9913790216479442
2015-07-21,-1,-0.00036282598617973043,-0.00030228646958261056,-0.003293707852652888,0.008316713654631835,0.9907851703115169
2015-07-23,-1,-0.0004409467072927888,-0.0003961416730250757,-0.0021059019885353585,0.009261439728965253,0.9909262003181741
2015-07-27,1,0.00029358252934589814,0.00042660071471465363,-0.004416687889890456,0.008316713654631835,0.9900370569311455
2015-07-29,-1,-0.0002225881434604157,-0.00022077416476129464,-0.008050199464636304,0.009261439728965253,0.987244086030252
2015-07-31,1,0.0005197018255755383,0.0006460423787387399,-0.008050199464636304,0.010259087215682966,0.9870130093548719
2015-08-04,1,0.0006612071114540867,0.0008427827237410182,-0.01166466903694041,0.010259087215682966,0.9854846865850676
2015-08-06,1,0.0016351170738368643,0.001984383322010754,-0.01166466903694041,0.009261439728965253,0.9859269441793431
2015-08-10,1,0.001413703836510539,0.001780764341578746,-0.009232300834198098,0.010259087215682966,0.9862855965313788
2015-08-12,1,0.0019198998146129427,0.0023020905903863523,-0.0097960262859026,0.009261439728965253,0.9873375840142443
2015-08-14,1,0.0017240479584537203,0.0020481539746488807,-0.0097960262859026,0.010259087215682966,0.9872329415687149
2015-08-18,1,0.0014685305469479839,0.001735282179087451,-0.0097960262859026,0.011666641814231911,0.9870299783339626
2015-08-20,1,0.0019759314638476255,0.0023353017473769894,-0.0097960262859026,0.012503144890813,0.9867224109471046
2015-08-24,1,0.0009734086828596562,0.0012037497845047195,-0.0097960262859026,0.012503144890813,0.9879264285869193
2015-08-26,1,0.0010518342867683926,0.0013315863966682044,-0.005311376600467551,0.011897689782043367,0.9901351338777401
2015-08-28,1,0.0012946765738093753,0.0015851764913816886,-0.0097960262859026,0.009942542646662295,0.9904012968371084
2015-09-01,1,6.784453595578324e-05,0.00020524058449540675,0.0006942199341201775,0.011897689782043367,0.9908515944056167
2015-09-03,1,0.00011962349410724808,0.0002399412932785549,-0.0030846940891347684,0.012556986221284714,0.9897634055052014
2015-09-08,1,5.572382988652347e-05,0.00013195077958663107,-0.003160162010898196,0.011897689782043367,0.9899639884844513
2015-09-10,-1,-0.0002284583380576548,-0.000183247784317244,0.0015505191174721128,0.012061847456618055,0.9896597699499136
2015-09-14,-1,-0.0001565632347360698,-0.0001546471409643865,-0.003465335831256912,0.012061847456618055,0.9897236168476138
2015-09-16,1,0.0011387837241827361,0.0013660191496290507,-0.003465335831256912,0.009641891603786406,0.9912835151933729
2015-09-18,1,0.002009128991669735,0.0023492345273960283,-0.004021686577747765,0.009043544289730324,0.9921177482075655
2015-09-22,1,0.0014468155823123114,0.001688925858234931,-0.0017717809494336683,0.009891088466463898,0.9920688678499023
2015-09-24,1,0.0023025005984835083,0.002688692697685605,-0.0033885751860974855,0.009891088466463898,0.9918161683231544
2015-09-28,1,0.0014451306366115007,0.0016464160060848047,-0.0033885751860974855,0.009891088466463898,0.9909772041097046
2015-09-30,1,0.002536656976571171,0.0029117589423258037,-0.009339323823275823,0.009043544289730324,0.9890079542389627
2015-10-02,1,0.0020022549335789053,0.0022707594599611176,-0.009235713919613068,0.008027452705959717,0.9896045195879373
2015-10-06,1,0.0018807629049906842,0.002139310539171726,-0.00720301704826666,0.007361155080963706,0.990022057917996
2015-10-08,1,0.00244101283580092,0.002799073245034634,-0.009235713919613068,0.007153497547841298,0.9900368420137744
2015-10-12,1,0.002261984622456763,0.0025924586072677983,-0.009801816022000188,0.006393471741406974,0.9897673524193326
2015-10-14,1,0.0023447818948265677,0.0026854080218524706,-0.009801816022000188,0.008198985228146528,0.9889875042414512
2015-10-16,1,0.002482037308467126,0.0028389252379628946,-0.010314932412702149,0.007361155080963706,0.9884509428324072
2015-10-20,1,0.0029840464660798797,0.00340131191574678,-0.010732109421946731,0.0065217310540074454,0.9875453627191266
2015-10-22,1,0.0029203704540741327,0.0032939789324696513,-0.010732109421946731,0.0065217310540074454,0.9879694755380163
2015-10-26,1,0.002234308567398826,0.002497761054205417,-0.010314932412702149,0.005011035305454198,0.9888916837393055
2015-10-28,1,5.957032382445987e-05,0.00012336037333598028,-0.008941619486098154,0.005011035305454198,0.9911622427294421
2015-10-30,-1,-0.0005155426688164652,-0.00037887870279016924,-0.008120153007051264,0.005011035305454198,0.9915145181667689
2015-11-03,-1,-0.0005888737334479911,-0.00043452220594146794,-0.009122707850399302,0.004336148355658061,0.9915197513018741
2015-11-05,-1,-0.0007805812758419771,-0.0006168310326523693,-0.008120153007051264,0.005785798727590858,0.990847957433983
2015-11-09,-1,-0.0007527200818482213,-0.0006288187283922432,-0.006972517656248839,0.005785798727590858,0.9915090286421538
2015-11-11,-1,-0.00012866370418936364,-5.734161378804874e-05,-0.006972517656248839,0.004226725162228106,0.9921279257118258
2015-11-13,-1,-0.0015341058768214085,-0.0012470181106750801,-0.0065356284988087225,0.004226725162228106,0.9929654764257491
2015-11-17,-1,-0.0019421532473798083,-0.0016051914109893829,-0.006421907983239512,0.004336148355658061,0.9929346495801095
2015-11-19,-1,-0.0014610008696583636,-0.0011568015890719343,-0.0065356284988087225,0.003724675293224049,0.9931395641294415
2015-11-23,-1,-0.0011006353811464234,-0.0008955578330751022,-0.0065356284988087225,0.003724675293224049,0.9926147779270015
2015-11-25,-1,-0.0011651387349487135,-0.0009854006654817172,-0.00474266710067883,0.004517143818881596,0.9924584721751898
2015-11-30,-1,-0.0016345746798834882,-0.0013584435314516578,-0.00474266710067883,0.004017418998708966,0.9924941436121086
2015-12-02,-1,-0.0019632448224840802,-0.0016524361273133163,-0.00474266710067883,0.004017418998708966,0.9920915202069146
2015-12-04,-1,-0.0007286004913029758,-0.0005743457173893135,-0.0048926724514992545,0.0019025484506880626,0.9933758686365382
2015-12-08,-1,-0.0012192216008464177,-0.0010116898699553188,-0.00531221394625169,0.0019025484506880626,0.9932467279204223
2015-12-10,-1,-0.001783315036203218,-0.0014957415162116703,-0.004530969028680276,0.004017418998708966,0.9926531779387143
2015-12-14,-1,-0.0016072997898894954,-0.0013373334201592837,-0.004530969028680276,0.0038826371505817033,0.9927863045229511
2015-12-16,-1,-0.00018575785050422482,-0.00012118515520435341,-0.005366263346938155,0.0015854989912089973,0.993838110423295
2015-12-18,-1,-0.0010462755596534947,-0.0008777069880617876,-0.005366263346938155,0.0029917622450497893,0.9930662846731425
2015-12-22,-1,-0.0007175452015488898,-0.0006067290196824142,-0.004923406851482084,0.0029917622450497893,0.9931115888963168
2015-12-24,-1,-0.0005717892069699397,-0.000467675194182972,-0.004923406851482084,0.0032303163912820797,0.9930251061748949
2015-12-29,-1,-0.00016829203011238568,-0.00014260415891414644,-0.004923406851482084,0.005788143457759433,0.9920696073802702
2015-12-31,-1,-0.0011875723726120693,-0.0010074875761358977,-0.0045219344713634,0.00847280041096647,0.9922969367080122
2016-01-05,-1,-0.0006128740126671242,-0.000548446095422981,-0.0036997721562304258,0.013709524054540526,0.9911224901103607
2016-01-07,-1,-0.0010721572171158288,-0.0009549940121173254,-0.0010762573867789023,0.013709524054540526,0.9905007116494025
2016-01-11,-1,-0.00045618658322988493,-0.0004082928328300313,-0.0036997721562304258,0.009216194093522912,0.9908775659116732
2016-01-13,-1,-0.0003364496720767716,-0.00031743509961335475,-0.0052263045169063565,0.009216194093522912,0.990107265057907
2016-01-15,-1,-0.000994001847362677,-0.0008487552538588162,-0.0052263045169063565,0.01078352867724886,0.9895304251869962
2016-01-20,-1,-0.001099108716157308,-0.0009312396216017555,-0.0036997721562304258,0.01078352867724886,0.9901066149588037
2016-01-22,-1,-0.00043831271529437804,-0.00036303446821221556,-0.004011704378971575,0.01078352867724886,0.9897161159218337
2016-01-26,-1,-0.0009747723248135015,-0.0007678032988185006,-0.004011704378971575,0.013019712345225077,0.9876740272173581
2016-01-28,-1,-0.00023760405287337542,-0.00012799743569381265,-0.006987254184865149,0.012177795319579526,0.9871411063657154
2016-02-01,0,-3.4891647848922026e-05,4.7120327572100924e-05,-0.010276004132910415,0.01357395306073702,0.98616818839528
2016-02-03,1,0.0006683377299700554,0.0006924111701530387,-0.010276004132910415,0.011984774422002652,0.9873767539593648
2016-02-05,1,0.0004922982919061895,0.0005106752101982565,-0.006987254184865149,0.012760369124243512,0.9874792646484735
2016-02-09,1,0.0008140185899693675,0.0008786272984954455,-0.001356363430048398,0.012760369124243512,0.98755860320789
2016-02-11,1,0.0006923196395724428,0.0007953669992347616,0.0010451648166162383,0.012760369124243512,0.9880585644526781
2016-02-16,1,0.0006318028849251106,0.0006995776951831198,-0.00028452532381074926,0.012760369124243512,0.9886404128036873
2016-02-18,1,0.0016026649689333352,0.0018343490111272522,-0.00028452532381074926,0.011777920075697107,0.9892793871241519
2016-02-22,1,0.0017086601019798034,0.0019379024729367887,-6.745732832050299e-05,0.009934856608608785,0.9908261887682316
2016-02-24,1,0.0037210240240486943,0.004266879165837923,-0.000917096716534355,0.009201166759621824,0.9930997043486846
2016-02-26,1,0.003255983701904332,0.0037383195543302518,-0.000917096716534355,0.008952227727467099,0.9942857559338886
2016-03-01,1,0.0030183202070493335,0.003459639811986732,-0.000917096716534355,0.008952227727467099,0.9949574325775778
2016-03-03,1,0.003495429058794043,0.004020474742361003,-0.000917096716534355,0.008952227727467099,0.9951010051370731
2016-03-07,1,0.0038588355675266564,0.004419935571482302,-0.002049252530985073,0.008267934500168553,0.9940666440238312
2016-03-09,1,0.004314533995115734,0.004938437248599897,-0.0025785805219382452,0.0050538470960904466,0.9936713091923842
2016-03-11,1,0.0045376551986172275,0.005200935899193069,-0.0025785805219382452,0.004782753035390095,0.9935772431623852
2016-03-15,1,0.004556328225713212,0.005256491104552341,-0.0025785805219382452,0.006315615516651813,0.9934096467379097
2016-03-17,1,0.005280518224405383,0.006093772959857717,-0.0025785805219382452,0.004561246363040673,0.9926620044854524
2016-03-21,1,0.004960319606402995,0.005698078358753474,-0.0025785805219382452,0.005323139750339173,0.9929750118978655
2016-03-23,1,0.004553497190579755,0.0051199102243920085,-0.004387220422904069,0.004304256665052934,0.9909842589006712
2016-03-28,1,0.003989057486105844,0.004447875786108283,-0.0034736929299173038,0.005323139750339173,0.9914575735497891
2016-03-30,1,0.003944937427307515,0.004394606327165274,-0.001947831161539986,0.005323139750339173,0.9916222966483028
2016-04-01,1,0.0037447772884002545,0.004146478232448097,-0.001947831161539986,0.006315615516651813,0.9915293867799915
2016-04-05,1,0.0025889956002460995,0.002800521138696466,-0.0013115793301419344,0.007374591269793426,0.9927094481837593
2016-04-07,1,0.0028143088251565695,0.003101874007127475,-0.0007808655068461298,0.008808180350756957,0.9921230064644738
2016-04-11,1,0.002453894789375372,0.0026468019146866292,-0.0013930348382742103,0.008808180350756957,0.9918868576743229
2016-04-13,1,0.001880114313533901,0.001968349090517204,-0.0013930348382742103,0.009225117360053516,0.9914611603764314
2016-04-15,1,0.002613537996738304,0.0028400181208954813,-0.004796356881866864,0.008696937481172316,0.9916177244298342
2016-04-19,1,0.0024667753756034863,0.0026554535178363154,-0.00658341501337155,0.008696937481172316,0.9907147397634022
2016-04-21,1,0.0003193343476851534,0.0004376016482241181,-0.004796356881866864,0.008696937481172316,0.9919938575732994
2016-04-25,1,0.0006102212202924304,0.0006951288138217647,-0.00658341501337155,0.00855350598661047,0.9915736561728378
2016-04-27,1,0.0009035190853863052,0.000979005063653958,-0.00658341501337155,0.00855350598661047,0.9918166711869097
2016-04-29,1,0.0017108648350696479,0.0017831315267195678,-0.00658341501337155,0.008692484989709323,0.9913593167759026
2016-05-03,1,0.0017331123210891138,0.0017759696714208834,-0.00658341501337155,0.008692484989709323,0.9912046751935183
2016-05-05,1,0.0015328972158386695,0.0015447426550679593,-0.0050576296334585435,0.008692484989709323,0.9917835371717587
2016-05-09,1,0.0015879159450161715,0.001588220938633836,-0.003343814593416497,0.008692484989709323,0.9921764882197961
2016-05-11,1,0.0016259995710967206,0.00167932961999261,-0.001534565293729315,0.008906079460265946,0.9928381419883051
2016-05-13,1,0.000641877776703915,0.0007586025153387714,-0.001155900080336802,0.008906079460265946,0.9931639291614586
2016-05-17,-1,-0.0002572301252646896,-3.071686138883902e-05,-0.001155900080336802,0.008906079460265946,0.9935259050093443
2016-05-19,-1,-0.00037281413697085963,-0.00014778687765960375,-0.0009056311499810978,0.007558187069186972,0.9942390986629983
2016-05-23,-1,-0.0008361214949861678,-0.000553589386770628,-0.0009056311499810978,0.007254615574222527,0.9948035410298379
2016-05-25,-1,-0.0010601333819360724,-0.0007191201182135145,-0.0009056311499810978,0.006283941638172371,0.9950400616665914
2016-05-27,-1,-0.0008359770538054132,-0.0005078657064811247,-0.0008986254913407109,0.006789848370507325,0.9942243424723858
2016-06-01,-1,-0.0009603168475335452,-0.000586683357667514,-0.001155900080336802,0.006283941638172371,0.9945350477532846
2016-06-03,-1,-0.0003623979901670163,-8.170138726467139e-05,-0.001155900080336802,0.006283941638172371,0.994367003295213
2016-06-07,-1,-0.0006390313715949265,-0.0003178594506877354,-0.001288675667941961,0.006789848370507325,0.9936912969476334
2016-06-09,0,-0.00026468247943044795,2.7961955386123795e-05,-0.002073084179988227,0.006723720033948115,0.9930852584088423
2016-06-13,-1,-0.000510499865896661,-0.0001754093141913735,-0.00286701869067778,0.006723720033948115,0.9923308690865891
2016-06-15,-1,-0.000684290898073829,-0.00034100253269185913,-0.00286701869067778,0.008824489113566782,0.992115984672669
2016-06-17,0,-0.00023420729919548648,4.157641205286924e-05,-0.00286701869067778,0.008824489113566782,0.9925241177081556
2016-06-21,0,-0.00013945647063210668,0.00010025628842955147,-0.0038021850133306027,0.008824489113566782,0.9923158050353351
2016-06-23,0,-0.0002092555138740286,3.0425356285361613e-05,-0.0026958850948610403,0.011125426705801904,0.9918665351166593
2016-06-27,1,0.0015708917707056161,0.00158998539829124,-0.004247363309689346,0.004997166741727604,0.9924873698261314
2016-06-29,1,0.0008380895216459159,0.0009364708487013067,-0.0045866405354809785,0.0069849093000051475,0.99229443332353
2016-07-01,1,0.0014299073158104169,0.0014647478598170825,-0.004878454709366695,0.0069849093000051475,0.9923185505287103
2016-07-06,1,0.0011177344329269159,0.001227963605681533,-0.006933950193954826,0.0036686679148081646,0.9922942762066178
2016-07-08,1,0.0008224415441440325,0.0009731721776409193,-0.006933950193954826,0.0030771501509541796,0.9930341059072973
2016-07-12,1,0.00016882435047281465,0.0003603207467479953,-0.0064496932827244596,0.003635219932721677,0.9940098808417934
2016-07-14,1,0.0004218679945578688,0.0005773300942636965,-0.0064496932827244596,0.003635219932721677,0.9943198794769214
2016-07-18,1,0.001544457020617987,0.0016150993795318951,-0.006933950193954826,0.004544912434608009,0.9930279216775739
2016-07-20,1,0.0008569845741693635,0.0008981285315834963,-0.006933950193954826,0.004800490192016301,0.9922681262045486
2016-07-22,1,0.0011443154945208456,0.0011613514446543458,-0.00841401488080386,0.004800490192016301,0.9917392705386765
2016-07-26,1,0.0007467963198780304,0.0008014044185554966,-0.00841401488080386,0.004800490192016301,0.9920209378695506
2016-07-28,1,0.0007720066849041433,0.0007943685164444367,-0.006663603911888045,0.004544912434608009,0.9925296337986861
2016-08-01,1,0.001296662850147748,0.0013713569399502353,-0.008512825049520764,0.004544912434608009,0.9914637773553736
2016-08-03,1,0.0008829211035393371,0.0009183124599518184,-0.011411740467447347,0.004800490192016301,0.9912106419745815
2016-08-05,1,0.00015067853073265288,0.00021812521842123404,-0.0069651994912717004,0.0065346454592035965,0.9915609499256984
2016-08-09,1,0.0006205772734756069,0.0006428463705945419,-0.0069651994912717004,0.006812720865299558,0.9912587914490844
2016-08-11,1,0.0006908385561985646,0.000723681794933093,-0.011411740467447347,0.006812720865299558,0.9899543948736083
2016-08-15,1,0.00020888606894568112,0.00023214487667162634,-0.011411740467447347,0.010682403332098522,0.9896702065298228
2016-08-17,-1,-7.71510127167531e-05,-1.1983063355335e-05,-0.0069651994912717004,0.006812720865299558,0.990714825966969
2016-08-19,-1,-6.788676623553067e-05,-9.210352521582809e-06,-0.0048244199900456305,0.007155909195524134,0.9909116152437107
2016-08-23,-1,-0.00013093541484887362,-7.291463862175979e-05,-0.004589662869743576,0.010968198073919952,0.9900782416462028
2016-08-25,-1,-0.0008647043786619967,-0.0006793734992779104,-0.0027791256317185984,0.010968198073919952,0.9897079744033407
2016-08-29,-1,-0.0014044023858750592,-0.0011482409054314304,-0.0027791256317185984,0.0077403845706835355,0.9905214287332158
2016-08-31,-1,-0.0013949642071984692,-0.0011464674271175206,-0.0052593011772826504,0.006215553107913514,0.9907090419208678
2016-09-02,-1,-0.001047009572999041,-0.0008255562565854705,-0.008431070237040404,0.0056775396526358044,0.9907747957061762
2016-09-07,-1,-0.0007640279383426028,-0.0006002279047840017,-0.01199545915345778,0.005368419233872221,0.9901893150142191
2016-09-09,-1,-0.002021310645331443,-0.0017186524606203834,-0.008431070237040404,0.005368419233872221,0.9916856133409482
2016-09-13,-1,-0.003090192517092386,-0.0025664584999514667,-0.008431070237040404,0.005186755444671924,0.9920490049455035
2016-09-15,-1,-0.002573088655173638,-0.0021281150678944703,-0.008431070237040404,0.006215553107913514,0.9914161329264277
2016-09-19,-1,-0.0014676245997616469,-0.0011848947053249848,-0.008431070237040404,0.005240272841843191,0.9921774076686727
2016-09-21,-1,-0.0004163757114892376,-0.00027583300481232633,-0.008431070237040404,0.005240272841843191,0.9926320438078162
2016-09-23,1,0.00014995972105870552,0.00020069918638259245,-0.01186078213030499,0.002057515146956619,0.9921366001413392
2016-09-27,-1,-0.000457530612780356,-0.0003522587341698339,-0.008416956735600832,0.005113771788920087,0.9926589919906941
2016-09-29,-1,-0.0012330726329135575,-0.0010444230818432527,-0.005137098148903661,0.005113771788920087,0.9933221311982477
2016-10-03,-1,-0.0021672435573827347,-0.0018530242511764702,-0.00262716950510803,0.005615959910140868,0.9923220128521102
2016-10-05,-1,-0.0032614821118493215,-0.0028046073157119013,-0.004031021039403823,0.005615959910140868,0.9912680873191009
2016-10-07,-1,-0.003663374976451755,-0.0031234858039953855,-0.006261830056647507,0.005615959910140868,0.9908522424959297
2016-10-11,-1,-0.004105628328145015,-0.003500506769500974,-0.004031021039403823,0.009433653614020265,0.9898353591875668
2016-10-13,-1,-0.003055269058779474,-0.002570387338754962,-0.010773125229480516,0.005562159925924869,0.9895077900689264
2016-10-17,-1,-0.0028231556828614687,-0.00238017558934575,-0.010773125229480516,0.005453592201073765,0.9895086341456869
2016-10-19,-1,-0.002067361987930572,-0.0017383981731639271,-0.010773125229480516,0.005453592201073765,0.9890464124240929
2016-10-21,-1,-0.0024283697049637364,-0.002076736636125907,-0.009084299798308963,0.005453592201073765,0.9895346310020593
2016-10-25,-1,-0.001753766113744641,-0.0015042541595940994,-0.009084299798308963,0.007346452159159947,0.989075501898019
2016-10-27,-1,-0.0018510487411625663,-0.0015892316313677677,-0.010464568130842984,0.01002098388857779,0.9883515294886773
2016-10-31,-1,-0.00031116037535698843,-0.0002605080026032887,-0.010464568130842984,0.01002098388857779,0.9885398679192251
2016-11-02,-1,-0.0017134154777665063,-0.0015033147441631078,-0.009084299798308963,0.01002098388857779,0.9888315121282923
2016-11-04,-1,-0.00199819413957713,-0.0017465272854624726,-0.007715739096127264,0.01140224169027992,0.9885897509504655
2016-11-08,-1,-0.0007096442449189102,-0.00062695348673755,-0.0091335904994664,0.011069165582826952,0.9887712944479778
2016-11-10,-1,-0.002358489589076307,-0.0020834680508684048,-0.004472388307099245,0.011069165582826952,0.9906502607594587
2016-11-14,-1,-0.002552513288584651,-0.002254432001430507,-0.0031637425180350855,0.011069165582826952,0.9899653906555855
2016-11-16,-1,-0.0015654046487746675,-0.001448405057616436,-0.0031637425180350855,0.010424654158755783,0.989774442933098
2016-11-18,-1,-0.001855780668745892,-0.0016949623955044841,-0.0025950246301149464,0.011069165582826952,0.9886877125351514
2016-11-22,-1,-0.0005524829061557831,-0.0005151355619358228,-0.003573004923176279,0.010424654158755783,0.9892831505818429
2016-11-25,-1,-0.0002719912887746165,-0.0001744439155955508,-0.0030873899609206957,0.00902152043998412,0.9899881638102224
2016-11-29,1,0.0004440232341252579,0.0006387796333947615,-0.00367424294363491,0.00787985712337758,0.9906910718430613
2016-12-01,-1,-0.001069819642576495,-0.001026290719590325,-0.003394517888445375,0.00902152043998412,0.9911695412213647
2016-12-05,0,-5.0586396570383065e-05,5.163536792409274e-05,-0.0035033719915679726,0.008531817149818342,0.9916675979212972
2016-12-07,-1,-0.0002064971948423497,-0.0001234480492831158,-0.0036979280595146203,0.007849790640479968,0.9923726308517102
2016-12-09,0,-7.961594858362598e-05,6.1757674021454385e-06,-0.004291912664833056,0.007362136407182253,0.9923475343506943
2016-12-13,1,0.0008340153421567916,0.0010808559319527406,-0.004291912664833056,0.007362136407182253,0.9923542918370943
2016-12-15,1,0.0003734577251331084,0.0005357326521417708,-0.003904388328791489,0.006010514278576379,0.9933995087182972
2016-12-19,1,0.0008626998316299927,0.00108317345260595,-0.004291912664833056,0.00549886639084194,0.9939007882919215
2016-12-21,1,0.0010379657246657073,0.001297860234294294,-0.003904388328791489,0.0039734058237185805,0.9942052250115034
2016-12-23,1,0.0009451871422647375,0.0011688079755699495,-0.003904388328791489,0.003470917764001663,0.9943261165653476
2016-12-28,1,0.00043860949593948383,0.0005715996374942775,-0.0037795788407352683,0.003470917764001663,0.9948222335988323
2016-12-30,1,0.000965661640547783,0.001181001442918041,-0.003632369501084317,0.003470917764001663,0.9950956504959059
2017-01-04,1,0.0012419554712124348,0.0014989751025057713,-0.0037795788407352683,0.003470917764001663,0.9940925267041568
2017-01-06,1,0.0006895793970971491,0.0008473210972786684,-0.00310959300146749,0.003470917764001663,0.9944598411402772
2017-01-10,1,0.0005450751939032518,0.0006882138303873958,-0.002287202073560201,0.00451446431049506,0.9936291782547879
2017-01-12,1,0.0010372008816019308,0.001236839266422694,-0.002287202073560201,0.00451446431049506,0.9941345241106165
2017-01-17,1,0.0009908550771092473,0.0011760173895901417,-0.002125628061335301,0.004256219029803703,0.9942580385039326
2017-01-19,1,0.000591161817390255,0.0007159213849844434,-0.001250219216996022,0.004995017350813042,0.9940275249841484
2017-01-23,1,0.0004940430920692802,0.000590427754289942,-0.0009660922410882958,0.008143337102994879,0.9933976922834996
2017-01-25,1,0.0004575325789866527,0.0005492607328254438,-0.0009425997771468431,0.009599264807125788,0.9932196999680173
2017-01-27,1,0.0008009262531762237,0.0009631951589369576,-0.0009425997771468431,0.010983996301834602,0.9928553200831438
2017-01-31,1,0.001278786619067063,0.001500185380221419,-0.0009425997771468431,0.00972600810597314,0.993048008420479
2017-02-02,1,0.0006508194446343044,0.0007287213199367816,-0.0009425997771468431,0.009240318267855575,0.9937345096090056
2017-02-06,1,0.000657138646036174,0.0007434336796322753,-0.0013854702290971243,0.009240318267855575,0.9937160381241475
2017-02-08,1,0.0017936195599607273,0.0020480212760545626,-0.0018833760208943882,0.007742142797442216,0.9942658029895921
2017-02-10,1,0.0021344212391192895,0.0024636237668928186,-0.0018833760208943882,0.009240318267855575,0.9941570662445114
2017-02-14,1,0.0024682362115068662,0.002885994361735037,-0.002449585262652621,0.009621442196161008,0.9932567329083448
2017-02-16,1,0.002685780254262903,0.003137792259782596,-0.002449585262652621,0.009240318267855575,0.9934246582827688
2017-02-21,1,0.0028955357052366714,0.0033355792269143866,-0.004731106426628576,0.009240318267855575,0.9930638858189877
2017-02-23,1,0.0026955707791566537,0.0030729027298481365,-0.004731106426628576,0.007443815034642545,0.9934240118234702
2017-02-27,1,0.0027284488421426265,0.0030760344234607574,-0.004731106426628576,0.00656410097746264,0.9934932991976712
2017-03-01,1,0.002417778266000334,0.0026809383930206086,-0.00600871661115804,0.005599399237897625,0.9932305353941135
2017-03-03,1,0.002283444933482306,0.002524002583792044,-0.005074172221165315,0.005052808951969764,0.9934519450640652
2017-03-07,1,0.0019333561953409997,0.0021123990545321375,-0.005074172221165315,0.005052808951969764,0.9936091965557823
2017-03-09,1,0.0018077730588991563,0.002012994764674895,-0.002985003847885264,0.005599399237897625,0.9941279556006543
2017-03-13,1,0.0021295267642017406,0.0023720752195883965,-0.002991067179311477,0.005052808951969764,0.994184729966385
2017-03-15,1,0.002614381443069245,0.0029388656070926,-0.00260391786248586,0.005052808951969764,0.9949079288090444
2017-03-17,1,0.002123920201257603,0.002351503240953056,-0.00260391786248586,0.004604218922877214,0.995042516512692
2017-03-21,1,0.002257751643333518,0.0025188403033603443,-0.00260391786248586,0.004323740047937956,0.9957446089113812
2017-03-23,1,0.0022955790818057955,0.002551288931684276,-0.0027303311764692597,0.004323740047937956,0.9955151246872086
2017-03-27,1,0.002811619676821293,0.0031942096318852402,-0.0027303311764692597,0.004231502242316909,0.9955708209967346
2017-03-29,1,0.0016864010928666548,0.001842224622128471,-0.0027303311764692597,0.0037628670383274792,0.9961877053455709
2017-03-31,1,0.0013753922303475388,0.001471932686382928,-0.0032798518237151055,0.0037628670383274792,0.9956684826536221
2017-04-04,1,0.0019696656491675754,0.0021899205938319165,-0.0037106610061112067,0.0027622246115683305,0.9953083988202386
2017-04-06,1,0.0013400380086053966,0.0013897120814804586,-0.0037106610061112067,0.0027622246115683305,0.9952673125774194
2017-04-10,1,0.0009481702980042256,0.0009694065399626361,-0.0037106610061112067,0.0027622246115683305,0.9955030404598931
2017-04-12,1,0.0012607480910200057,0.0012815311408889993,-0.005033549296901315,0.002116232089329082,0.9952408182491003
2017-04-17,1,0.0008426180524355184,0.0008877743768660809,-0.004066266736583511,0.002116232089329082,0.9957648614199097
2017-04-19,1,0.0010641734233793818,0.0010698797543865453,-0.005033549296901315,-7.238480341466345e-05,0.9951244456213522
2017-04-21,1,0.0009300507731869969,0.0009473924732267662,-0.005033549296901315,0.002164599846822126,0.9952669611662405
2017-04-25,1,0.001256721411914584,0.0013080214356795668,-0.005033549296901315,0.002164599846822126,0.9949219773857304
2017-04-27,1,0.0001833115756703544,0.0003317838547404191,-0.003931663820256757,0.0035010286673273576,0.9951785636760402
2017-05-01,0,-0.00010255785409026658,5.9483120361322945e-05,-0.002129367873368505,0.004845236902912382,0.9955108480307868
2017-05-03,-1,-0.00054088792291249,-0.0003150932564579018,-0.0011691140707688888,0.0075527169055853,0.9948574178397899
2017-05-05,0,-0.0001515017769563613,2.8275920691382965e-05,-0.0017963912764990782,0.005583775045021759,0.9953426572177339
2017-05-09,1,4.202190488905165e-07,0.00013160707938715305,-0.0024536961034912685,0.005583775045021759,0.9950347779650546
2017-05-11,-1,-0.0008338143910069239,-0.000586432082954581,-0.0017963912764990782,0.005583775045021759,0.9952902427627647
2017-05-15,-1,-0.0004772475637449887,-0.00030365750645601784,-0.0024536961034912685,0.005583775045021759,0.9948896152370208
2017-05-17,-1,-0.0010322847553744107,-0.0007954467653612618,-0.0016382566681707393,0.007636988284874771,0.9944187321217295
2017-05-19,-1,-0.0007980876793838896,-0.0005879441745877627,-0.0017963912764990782,0.007636988284874771,0.9946198335565379
2017-05-23,-1,-0.0008847514655688744,-0.00064111255895395,-0.002406526478979622,0.007138570209973206,0.9949404708852453
2017-05-25,-1,-0.00020264005165299945,-5.478656823218003e-05,-0.004032950267573904,0.0047220410494185645,0.994753755707016
2017-05-30,1,0.00010863413567617101,0.00021611430303085323,-0.004279037170686896,0.004318913327652751,0.99396427917572
2017-06-01,1,0.0004425464843583616,0.0005358265714598028,-0.005476662510336336,0.0012822670899381911,0.9940609800921706
2017-06-05,0,-6.205938811804405e-05,0.00010664817764685609,-0.007801369078283807,0.0012822670899381911,0.9938163262935178
2017-06-07,1,0.0001808023725947942,0.0002966231304253672,-0.007801369078283807,0.000511983162280221,0.9937655377563568
2017-06-09,-1,-0.00017610957848992467,-1.6355629563869476e-05,-0.007801369078283807,0.001194099967192086,0.9938859017013826
2017-06-13,-1,-0.0010298347730495388,-0.000745828615000465,-0.00552593903868343,0.001601012219769684,0.9945215600340152
2017-06-15,-1,-0.00034662807917307833,-0.00013957306741352814,-0.00552593903868343,0.0010321328394981323,0.9948108341442775
2017-06-19,-1,-0.0005884967565499635,-0.00034662521249279596,-0.00552593903868343,0.0010321328394981323,0.9948576052224548
2017-06-21,-1,-0.0008715756587880068,-0.0005989066510959519,-0.00552593903868343,0.002239469439315818,0.994652339687135
2017-06-23,-1,-0.0014102655099943067,-0.00109231799388262,-0.004087129989696545,0.003239700588127414,0.9946845430655504
2017-06-27,-1,-0.0021570161082770083,-0.0017375257629058869,-0.003085300161788184,0.003239700588127414,0.9951857528958049
2017-06-29,-1,-0.0026254714433969683,-0.002150633740883265,-0.003085300161788184,0.004163219162305967,0.9948865413916715
2017-07-03,-1,-0.002632463572003137,-0.002208464877719195,-0.001575441176915917,0.00490941840388581,0.9948525206320585
2017-07-06,-1,-0.002785863674394246,-0.002352756232500271,-0.0010606215750663358,0.005150427214229411,0.9941955513258383
2017-07-10,-1,-0.0028868600426364592,-0.002444899875936978,-0.0010606215750663358,0.005150427214229411,0.9941869238755123
2017-07-12,-1,-0.0027473672749396003,-0.0023297691987931033,-0.0013038396685504416,0.005150427214229411,0.9942351409729884
2017-07-14,-1,-0.0018138035037724353,-0.0015434622381531806,-0.0017616408211207871,0.00490941840388581,0.9952953912879489
2017-07-18,-1,-0.0014056575021156432,-0.0011978257354054063,-0.001803189313837029,0.0050243465217232105,0.9948414709496897
2017-07-20,-1,-0.0007435475997919366,-0.0006405272500450104,-0.0024814863256577813,0.0046781690490794135,0.9948796106496811
2017-07-24,-1,-0.0006254303342925769,-0.0005466872385707219,-0.0018797311774856214,0.0046781690490794135,0.9949441605969663
2017-07-26,-1,-0.0003125607525634696,-0.00027292510695947283,-0.0018797311774856214,0.00410972531289402,0.9949390426965453
2017-07-28,-1,-0.0007756520046141512,-0.0006749049417801628,-0.0018003541488089336,0.0046781690490794135,0.9953088293469643
2017-08-01,-1,-0.0008466364459273384,-0.0007050721870579572,-0.0018797311774856214,0.00410972531289402,0.9954819815371704
2017-08-03,-1,-0.0001622489902514975,-0.0001289370593102392,-0.0018797311774856214,0.003156346167815241,0.995801886421937
2017-08-07,1,4.7762122638582315e-05,6.132415755815112e-05,-0.002093632410521029,0.0038166922526306655,0.9956372153953617
2017-08-09,-1,-4.191832269194649e-05,-3.617413370214084e-05,-0.002093632410521029,0.0038166922526306655,0.9952474303114661
2017-08-11,1,5.079164954686478e-06,5.415158575794641e-06,-0.002093632410521029,0.006920892214891624,0.9946531239678873
2017-08-15,1,0.00036803983301257826,0.0004336886620755276,-0.002093632410521029,0.0047227433457779884,0.9950693628408791
2017-08-17,0,-1.3323479630212914e-06,2.4797383136147713e-05,-0.00167989795021438,0.0047227433457779884,0.9954808868229362
2017-08-21,1,0.000242578141739876,0.00028141686476603877,-0.003325515568530451,0.0038166922526306655,0.9951693926822206
2017-08-23,1,0.0004415011963852665,0.0004996790566676906,-0.0060221214371685376,0.003167407873327739,0.9947933881339867
2017-08-25,1,0.000739100005815228,0.0008475970750737813,-0.0060221214371685376,0.003167407873327739,0.9943231026194431
2017-08-29,1,0.0007004515393749934,0.0008186683148852635,-0.007834885690851685,0.003167407873327739,0.9938315981096149
2017-08-31,1,0.0004569557773055639,0.0005310877431951214,-0.007834885690851685,0.003167407873327739,0.993467944465849
2017-09-05,1,0.0007353527079658722,0.0008704088063701638,-0.007834885690851685,0.0023166174874837257,0.9935496535962146
2017-09-07,1,0.0006432728764906922,0.0007600535041594738,-0.006843399752779899,0.0023166174874837257,0.9937568420971109
2017-09-11,1,0.0012932562982270527,0.0014935377307028195,-0.006843399752779899,0.00025176836745885597,0.9939511311722139
2017-09-13,1,0.0010005563593121598,0.0011618170529425305,-0.005710511185802635,0.00025176836745885597,0.9940186097469232
2017-09-15,1,0.0011388635307861368,0.0013246372097234023,-0.006843399752779899,-0.0005468016487188899,0.9921971029375253
2017-09-19,1,0.000281235467723555,0.00033890784448373256,-0.005226677244402349,-0.0003539331422467213,0.9933614737773604
2017-09-21,-1,-0.0006293248266724864,-0.0005443869145486009,-0.004573546479771033,0.00514314377885082,0.9931884618181613
2017-09-25,-1,-0.0003513817252036065,-0.00028772051433566834,-0.0027741125424978557,0.0037039371294086713,0.9936017780440124
2017-09-27,-1,-0.0007451377025983399,-0.0006607084668220784,-0.0027741125424978557,0.0037039371294086713,0.9937948068069209
2017-09-29,-1,-0.0012660795548907326,-0.0011171837030381397,-0.0021884735554244437,0.006212896146489957,0.9936242836628729
2017-10-03,-1,-0.0016304185518427206,-0.0014155691208601658,-0.0018582459764506655,0.006212896146489957,0.9932459590493514
2017-10-05,-1,-0.001194626287028644,-0.0010339691731095565,-0.00219829011723651,0.0046800918542469535,0.9934639113883743
2017-10-09,-1,-0.0016554187761572987,-0.0014105992609660788,-0.003779813596359243,0.005285880195035937,0.9927517757910816
2017-10-11,-1,-0.0009500955876141334,-0.0008045733191073728,-0.003779813596359243,0.006012167952992438,0.9926123430154404
2017-10-13,-1,-0.0009757902816905603,-0.0008430940893599316,-0.0034998396024934347,0.005285880195035937,0.994153256020054
2017-10-17,-1,-0.0007627641836006787,-0.0006871510271656413,-0.002183623430600175,0.007581277494028657,0.9927245813902003
2017-10-19,1,0.0005072657366371042,0.0006121652833407171,-0.0034998396024934347,0.006012167952992438,0.993727919353744
2017-10-23,1,0.0011296215919344812,0.0013610598976498676,-0.006371425510104519,0.006012167952992438,0.9931500055392707
2017-10-25,1,0.0005714215198441805,0.000719657547720273,-0.0040795606960648935,0.006012167952992438,0.9936121402610274
2017-10-27,1,0.0008467376706655579,0.0010323174767288544,-0.004035560636155889,0.005165776405555586,0.9939232372374913
2017-10-31,1,0.0009577326320058984,0.0011437285947741708,-0.004035560636155889,0.005165776405555586,0.9938615213366683
2017-11-02,1,0.00028850302641070746,0.0003574491613924653,-0.004035560636155889,0.005165776405555586,0.9939494907270215
2017-11-06,1,0.0006451978337431335,0.0008140706664698228,-0.005812838745430986,0.004217224540826318,0.9894012110839017
2017-11-08,1,0.0013890527109137972,0.0016569115058526725,-0.006212215451943899,0.0035037881851126404,0.9869938852743488
2017-11-10,1,0.001203703534973157,0.0014336941401463326,-0.006212215451943899,0.004217224540826318,0.9864899586992578
2017-11-14,1,0.0017617033879198394,0.0020153158544059958,-0.007126628054603864,0.0035037881851126404,0.9839637007340284
