JNU-Tangyin/eata/results/Batch4_SP500/Batch4_SP500-CNWT.csv
Date,Action,Predicted_Q25,Predicted_Q75,Actual_Q25,Actual_Q75,RL_Reward
2010-12-13,0,0.0,0.0,0.0,0.0,0.975613677488099
2010-12-15,-1,-1.6668032794030323e-05,-1.4222529913052895e-05,0.0,0.0,0.9756017206583198
2010-12-17,-1,-1.6668032794030163e-05,-1.4222529913052764e-05,0.0,0.0,0.9756017206583198
2010-12-21,1,0.0017233079179931126,0.001851491293381629,0.0,0.0,0.9788606800905351
2010-12-23,1,0.000557966448553592,0.0005580840082466933,0.0,0.0,0.9799632808247806
2010-12-28,1,0.0005222692081262817,0.0005305149025833741,0.0,0.0,0.9799890630514494
2010-12-30,1,0.00017358296374994344,0.0002248217379919153,0.0,0.0,0.9850764333816081
2011-01-03,1,9.779182584372127e-05,0.00016079845779914741,0.0,0.0,0.9851328692592879
2011-01-05,-1,-0.00024040087812434482,-0.00013573508904498233,0.0,0.0,0.9899433686460382
2011-01-07,-1,-0.00029844330757563235,-0.0001847258025452135,0.0,0.0,0.994785746396096
2011-01-11,-1,-0.0003670833867964827,-0.00024305587311801847,0.0,0.0,0.9947229256170865
2011-01-13,-1,-0.0007043099805425345,-0.0005385094676254791,0.0,0.0,0.9894902189663844
2011-01-18,-1,-0.0010212662080177643,-0.0008245237939304358,0.0,0.0,0.9891951255085942
2011-01-20,-1,-0.0025985602635826524,-0.002221043511420975,0.0,0.0,0.980410122292167
2011-01-24,-1,-0.002961338286855412,-0.0025370022620663695,0.0,0.0,0.9849849555296577
2011-01-26,-1,-0.002855252716262165,-0.0024401356414955424,0.0,0.0,0.9850620281825901
2011-01-28,-1,-0.0027595849864437347,-0.002352800430792905,0.0,0.0,0.9805794836457629
2011-02-01,-1,-0.0026210691192927577,-0.00222392797105763,0.0,0.0,0.9761385638260306
2011-02-03,0,0.0,0.0,0.0,0.0,0.9726443796530264
2011-02-07,0,0.0,0.0,0.0,0.0,0.9701611630198476
2011-02-09,0,0.0,0.0,-0.053125005005858254,0.0,0.9631530591115574
2011-02-11,0,0.0,0.0,-0.053125005005858254,0.0,0.9631530591115574
2011-02-15,-1,-0.00017774709772737103,-0.00015872941630260004,-0.053125005005858254,0.0,0.9630984344200346
2011-02-17,0,0.0,0.0,0.0,0.0,0.970749773881969
2011-02-22,0,0.0,0.0,-0.012500006519257893,0.0,0.968139159058202
2011-02-24,0,0.0,0.0,-0.012500006519257893,0.0,0.968139159058202
2011-02-28,0,0.0,0.0,0.0,0.0,0.9728484223256092
2011-03-02,0,0.0,0.0,0.0,0.0,0.977603723526069
2011-03-04,0,0.0,0.0,0.0,0.0,0.9824057410785278
2011-03-08,0,0.0,0.0,0.0,0.0,0.9849521177796052
2011-03-10,0,0.0,0.0,0.0,0.0,0.9922822478145757
2011-03-14,0,0.0,0.0,0.0,0.0,0.9972299155254033
2011-03-16,-1,-0.0018999781219338832,-0.001666515961953221,0.0,0.0,0.9909230047089927
2011-03-18,-1,-0.001618160048856492,-0.001421702651796211,0.0,0.0,0.9911230060716436
2011-03-22,0,0.0,0.0,0.0,0.0,0.9950248756218907
2011-03-24,0,0.0,0.0,0.0,0.0,0.9950248756218907
2011-03-28,0,0.0,0.0,0.0,0.0,0.9950248756218907
2011-03-30,0,0.0,0.0,0.0,0.0,0.9900990099009901
2011-04-01,0,0.0,0.0,0.0,0.0,0.9852216748768474
2011-04-05,1,2.48277812051724e-06,2.891039961239758e-06,0.0,0.0,0.9852193672388223
2011-04-07,1,2.4201610220000436e-06,2.819793683813796e-06,0.0,0.0,0.9852194248721807
2011-04-11,-1,-0.0017311378120623167,-0.0016182047329156245,0.0,0.0,0.9839436734116989
2011-04-13,-1,-0.005105018013594683,-0.00489597517930677,0.0,0.0,0.9857271220910917
2011-04-15,-1,-0.004532844978462737,-0.004407716176279097,0.0,0.0,0.9861828488676582
2011-04-19,0,0.0,0.0,0.0,0.0,0.9900990099009901
2011-04-21,0,0.0,0.0,0.0,0.0,0.9900990099009901
2011-04-26,-1,-0.0016351002217908272,-0.001614606497160449,0.0,0.0,0.97914806317362
2011-04-28,-1,-0.0006927854314621445,-0.0005222316020456277,0.0,0.0,0.984781490793118
2011-05-02,-1,-0.0013041083610357536,-0.0012052215437215728,0.0,0.0,0.9890029696120834
2011-05-04,0,0.0,0.0,0.0,0.0,0.9900990099009901
2011-05-06,0,0.0,0.0,0.0,0.0,0.9900990099009901
2011-05-10,1,4.799849591560636e-06,2.1251503815153825e-05,0.0,0.0,0.9900889645504487
2011-05-12,0,0.0,0.0,0.0,0.0,0.9900990099009901
2011-05-16,0,0.0,0.0,0.0,0.0,0.9900990099009901
2011-05-18,0,0.0,0.0,0.0,0.0,0.9852216748768474
2011-05-20,-1,-0.0005973232261501683,-0.00043374436957956564,0.0,0.0,0.9800256722755472
2011-05-24,-1,-0.0013253482212039979,-0.0013007472471829558,0.0,0.0,0.9848859900679473
2011-05-26,0,0.0,0.0,0.0,0.0,0.9860312250766746
2011-05-31,0,0.0,0.0,0.0,0.0,0.9860312250766746
2011-06-02,0,0.0,0.0,0.0,0.0,0.9860312250766746
2011-06-06,-1,-0.0006240752715494912,-0.0006214191109746782,0.0,0.0,0.985486860413206
2011-06-08,-1,-0.0012207696013434484,-0.0011497834738110931,0.0,0.0,0.9850020474063375
2011-06-10,-1,-0.001106237190279854,-0.0010520550458379104,0.0,0.0,0.9850930991839001
2011-06-14,-1,-0.0009917047792162592,-0.000954326617864727,0.0,0.0,0.9804517565338844
2011-06-16,-1,-0.0014805350127561462,-0.0014716408041816956,0.0,0.0,0.9847421533877926
2011-06-20,1,0.002882783535253596,0.00369271473515293,0.0,0.0,0.9880986999654081
2011-06-22,1,0.004585805562872743,0.005629889497581274,0.0,0.0,0.9899932986809862
2011-06-24,0,0.0,0.0,0.0,0.0,0.9950248756218907
2011-06-28,0,0.0,0.0,0.0,0.0,0.9900990099009901
2011-06-30,0,0.0,0.0,0.0,0.0,0.9900990099009901
2011-07-05,0,0.0,0.0,0.0,0.0,0.9900990099009901
2011-07-07,0,0.0,0.0,0.0,0.0,0.9900990099009901
2011-07-11,-1,-0.002064960886610523,-0.0020338131435167195,0.0,0.0,0.9836385421408524
2011-07-13,1,0.00032296269768010454,0.0005124218306232569,0.0,0.0,0.9897491902773621
2011-07-15,1,0.0004262540706641239,0.0006334737111791896,0.0,0.0,0.9896520442965553
2011-07-19,1,0.0005297278568219767,0.0007547855040987878,0.0,0.0,0.9895547300628537
2011-07-21,0,0.0,0.0,0.0,0.0,0.9900990099009901
2011-07-25,0,0.0,0.0,0.0,0.0,0.9852216748768474
2011-07-27,1,0.00023185928681697247,0.0003204093418210355,0.0,0.0,0.989864122125423
2011-07-29,1,0.00011967253328784131,0.00014110886799621503,0.0,0.0,0.9899860848376258
2011-08-02,0,0.0,0.0,0.0,0.0,0.9900990099009901
2011-08-04,1,2.588731110417018e-05,4.662832341381018e-05,0.0,0.0,0.9900690549850131
2011-08-08,1,0.00011762031899298836,0.00021182954268709022,0.0,0.0,0.9948874410636
2011-08-10,1,0.0001746812449099044,0.0002787018495308968,0.0,0.0,0.994833213992822
2011-08-12,-1,-9.889057933627073e-05,-6.852109303816677e-05,0.0,0.0,0.9900281412322152
2011-08-16,-1,-6.235388621087888e-05,-2.5702072588046907e-05,0.0,0.0,0.9900637597100045
2011-08-18,0,-2.581719308548689e-05,1.7116947862073163e-05,0.0,0.0,0.9900850711390865
2011-08-22,0,0.0,0.0,0.0,0.0,0.9950248756218907
2011-08-24,0,0.0,0.0,0.0,0.0,0.9950248756218907
2011-08-26,0,0.0,0.0,0.0,0.0,0.9950248756218907
2011-08-30,0,0.0,0.0,0.0,0.0,0.9950248756218907
2011-09-01,1,0.0009119954523257076,0.0009568151917841463,0.0,0.0,0.9941006040844631
2011-09-06,1,7.823754841583861e-05,0.0002043620913320208,0.0,0.0,0.9948849979392994
2011-09-08,1,0.0004898066784691513,0.0005372581957352126,0.0,0.0,0.9945166999157744
2011-09-12,-1,-0.0007178138254322261,-0.0006187146822847079,0.0,0.0,0.9993321820250223
2011-09-14,-1,-0.0007126091283800699,-0.0006142856809149889,0.0,0.0,0.9993369924659801
2011-09-16,-1,-0.0007043687329163341,-0.0006072398143898579,0.0,0.0,0.9993446255237293
2011-09-20,1,1.8429308544426807e-05,7.776421615518427e-05,0.0,0.0,0.9999502826585099
2011-09-22,-1,-0.0007622606156072738,-0.0006579248013802476,0.0,0.0,0.9992904111653638
2011-09-26,-1,-0.0007543142700572935,-0.0006511443289225423,0.0,0.0,0.9992977641821944
2011-09-28,-1,-0.0007463679245073122,-0.0006443638564648362,0.0,0.0,0.9993051173072364
2011-09-30,-1,-0.0007384215789573317,-0.0006375833840071307,0.0,0.0,0.9993124705404921
2011-10-04,-1,-0.0007304752334073505,-0.0006308029115494249,0.0,0.0,0.9993198238819638
2011-10-06,-1,-0.0007225288878573701,-0.0006240224390917197,0.0,0.0,0.9993271773316538
2011-10-10,-1,-0.0007145825423073887,-0.0006172419666340134,0.0,0.0,0.9993345308895648
2011-10-12,-1,-0.0007073184975589112,-0.0006110509323747396,0.0,0.0,0.9944473644282832
2011-10-14,-1,-0.00048196376341703214,-0.0004162536432941483,0.0,0.0,0.9946313511420606
2011-10-18,-1,-0.00046051672504401344,-0.00039799432376289706,0.0,0.0,0.9897740914977018
2011-10-20,0,0.0,0.0,0.0,0.0,0.9852216748768474
2011-10-24,0,0.0,0.0,0.0,0.0,0.9852216748768474
2011-10-26,0,0.0,0.0,0.0,0.0,0.9852216748768474
2011-10-28,0,0.0,0.0,0.0,0.0,0.9852216748768474
2011-11-01,1,0.0006398968720836357,0.0007256764832158683,0.0,0.0,0.9846338726596228
2011-11-03,1,0.0006208347087549147,0.0007031521133681307,0.0,0.0,0.9846516805564847
2011-11-07,1,4.67048364050001e-05,7.31504263253798e-05,0.0,0.0,0.9851718918512471
2011-11-09,-1,-0.0009923532799771162,-0.0008576049682232133,0.0,0.0,0.9892967916983924
2011-11-11,1,0.001910108300475659,0.0021621876939066126,0.0,0.0,0.9883304607869717
2011-11-15,1,0.004480248987387764,0.0050686860609137985,0.0,0.0,0.9908463856458002
2011-11-17,1,0.00457282105130669,0.005167768543210371,0.0,0.0,0.9951533100117751
2011-11-21,1,0.004425700238505305,0.0049951725968255065,0.0,0.0,0.9953116477674299
2011-11-23,1,0.0042774260622838265,0.004821728998952217,0.0,0.0,0.9905407542698631
2011-11-28,1,0.004156701289716721,0.004650842833706696,0.0,0.0,0.9862769613931947
2011-11-30,1,0.003986746933073377,0.004450427745997987,0.0,0.0,0.9864361473398853
2011-12-02,1,0.0033589935476034806,0.0036816770132144386,0.0,0.0,0.9821870233340634
2011-12-06,1,0.0031624163424797706,0.0034512992026848417,0.0,0.0,0.9823691422959494
2011-12-08,1,0.0030041748020692214,0.0032528314155854097,0.0,0.0,0.9764970915951164
2011-12-12,1,0.002796098287978997,0.0030096593925978514,0.0,0.0,0.9719167185916037
2011-12-14,1,0.0026089416327742627,0.0027767504031097445,0.0,0.0,0.9720672744279456
2011-12-16,1,0.002466990235178391,0.0026164843939187883,0.0,0.0,0.9721782359875782
2011-12-20,1,0.002255132105344538,0.002368198169362372,0.0,0.0,0.9723456999718935
2011-12-22,1,0.0014557445264613876,0.0014564457662481199,0.0,0.0,0.9777296218402707
2011-12-27,1,0.0013800104866066075,0.0013965778874549554,0.0,0.0,0.9824526975712977
2011-12-29,1,0.0006138377085203989,0.000751155465800088,0.0,0.0,0.9830778708349996
2012-01-03,-1,-0.00042768371378993123,-0.00016217009439741697,0.0,0.0,0.9883390468136224
2012-01-05,-1,-0.00039914988755360105,-0.00012153386075017421,0.0,0.0,0.9835543583726779
2012-01-09,1,0.0007401229087763454,0.0008921432482397104,0.0,0.0,0.9892996038304547
2012-01-11,0,-0.00020381333114994108,6.63210950423936e-05,0.0,0.0,0.9949096936472129
2012-01-13,1,0.0008898209327043938,0.000962020970127053,0.0,0.0,0.9892898405000426
2012-01-18,0,0.0,0.0,0.0,0.0,0.9900990099009901
2012-01-20,0,0.0,0.0,0.0,0.0,0.9852216748768474
2012-01-24,0,0.0,0.0,0.0,0.0,0.9803921568627451
2012-01-26,0,0.0,0.0,0.0,0.0,0.9756097560975611
2012-01-30,-1,-0.0034109268702425593,-0.003172193803280137,0.0,0.0,0.9734823303647101
2012-02-01,-1,-0.003135640886665647,-0.0029374416659478115,0.0,0.0,0.9736412168912968
2012-02-03,-1,-0.004706943129596797,-0.004290197539551689,0.0,0.0,0.9770205795857336
2012-02-07,-1,-0.004419874034915731,-0.004045454926429378,0.0,0.0,0.9772160236974301
2012-02-09,-1,-0.004130524196753787,-0.003798629478497568,0.0,0.0,0.9774131776663011
2012-02-13,-1,-0.005244007956360863,-0.00479129120190214,0.0,0.0,0.9814232846645634
2012-02-15,-1,-0.005413433968240259,-0.0049510982880894795,0.0,0.0,0.9812982102250026
2012-02-17,-1,-0.006111702117489279,-0.005579144954807342,0.0,0.0,0.9850201819955
2012-02-22,-1,-0.007931733258052338,-0.007199182438966993,0.0,0.0,0.9875904735332285
2012-02-24,-1,-0.008562157225966425,-0.007770005878804503,0.0,0.0,0.9878784759679764
2012-02-28,-1,-0.00587134273836735,-0.005357035570530539,0.0,0.0,0.9852203746555824
2012-03-01,-1,-0.0055536120572369785,-0.005089685050852289,0.0,0.0,0.9854711097530096
2012-03-05,-1,-0.0051770445223070834,-0.004767999577795196,0.0,0.0,0.9857710209318409
2012-03-07,-1,-0.004534480151400707,-0.004200113656278858,0.0,0.0,0.9819030516434419
2012-03-09,-1,-0.004183960582884703,-0.0039010246271660113,0.0,0.0,0.9821442394383497
2012-03-13,-1,-0.0038333134277207612,-0.003601814441609066,0.0,0.0,0.9823856405968604
2012-03-15,0,0.0,0.0,0.0,0.0,0.9852216748768474
2012-03-19,0,0.0,0.0,0.0,0.0,0.9852216748768474
2012-03-21,0,0.0,0.0,0.0,0.0,0.9756097560975611
2012-03-23,-1,-0.0037048697292912354,-0.0037018496985716104,0.0,0.0,0.9775533079811612
2012-03-27,0,0.0,0.0,0.0,0.0,0.9852216748768474
2012-03-29,0,0.0,0.0,0.0,0.0,0.9838369665150588
2012-04-02,0,0.0,0.0,0.0,0.0,0.9838369665150588
2012-04-04,0,0.0,0.0,0.0,0.0,0.9838369665150588
2012-04-09,0,0.0,0.0,0.0,0.0,0.9790209813528151
2012-04-11,0,0.0,0.0,0.0,0.0,0.9742519160182895
2012-04-13,0,0.0,0.0,0.0,0.0,0.9742519160182895
2012-04-17,0,0.0,0.0,0.0,0.0,0.9742519160182895
2012-04-19,0,0.0,0.0,0.0,0.0,0.9838369665150588
2012-04-23,0,0.0,0.0,0.0,0.0,0.9838369665150588
2012-04-25,0,0.0,0.0,0.0,0.0,0.9838369665150588
2012-04-27,0,0.0,0.0,0.0,0.0,0.9852216748768474
2012-05-01,-1,-0.0015469711847049556,-0.0012994542260457197,0.0,0.0,0.9840038951763211
2012-05-03,-1,-0.002013517857028314,-0.0017110630192000843,0.0,0.0,0.9836267305191121
2012-05-07,-1,-0.0011999828116364825,-0.0009851900897032704,0.0,0.0,0.9890291091050235
2012-05-09,-1,-0.0016279140464871074,-0.0013619689595109753,0.0,0.0,0.9935469705458229
2012-05-11,-1,-0.0016608710333114868,-0.0013912036544233776,0.0,0.0,0.9935162756831517
2012-05-15,-1,-0.0004250372701012705,-0.00023439345232975715,0.0,0.0,0.994698539912052
2012-05-17,1,0.0011921505569705269,0.001291090376499626,0.0,0.0,0.9939295114618092
2012-05-21,1,0.00044760459115611765,0.0006505570906558681,0.0,0.0,0.9945559227053832
2012-05-23,1,0.00015513692948340967,0.00039967917173002127,0.0,0.0,0.9948019479081546
2012-05-25,1,0.00043160226444779505,0.0006490735212699749,0.0,0.0,0.9945651421127011
2012-05-30,1,0.0001289639734644003,0.0003899315433123523,0.0,0.0,0.994819419965364
2012-06-01,1,0.001592272736706264,0.0016412102387350742,0.0,0.0,0.998385868146214
2012-06-05,1,0.001574092426718447,0.0016148696899174382,0.0,0.0,0.9934487212254686
2012-06-07,1,0.0013151194660513078,0.0013893276327133258,0.0,0.0,0.9935647665165473
2012-06-11,1,0.0010375405380816374,0.0011539335884204343,0.0,0.0,0.9938180270633973
2012-06-13,1,0.0007605976084693705,0.0009186080220450095,0.0,0.0,0.9940710686819961
2012-06-15,1,0.00047048891566669874,0.0006703181861549767,0.0,0.0,0.9943371564873459
2012-06-19,1,0.00018818262613981096,0.00042964678155138654,0.0,0.0,0.9945957594177904
2012-06-21,0,0.0,0.0,0.0,0.0,0.9949014381633281
2012-06-25,0,0.0,0.0,0.0,0.0,0.9949014381633281
2012-06-27,0,0.0,0.0,0.0,0.0,0.9899767914952933
2012-06-29,-1,-1.2492669786205926e-05,-1.0593034080352328e-05,0.0,0.0,0.9802650486985495
2012-07-03,-1,-2.6441452645211026e-05,-6.437440466767931e-06,0.0,0.0,0.9841221244408894
2012-07-06,0,0.0,0.0,0.0,0.0,0.9842519701640228
2012-07-10,0,0.0,0.0,0.0,0.0,0.9842519701640228
2012-07-12,0,0.0,0.0,0.0,0.0,0.9842519701640228
2012-07-16,0,0.0,0.0,0.0,0.0,0.9794319311247673
2012-07-18,0,0.0,0.0,0.0,0.0,0.9794319311247673
2012-07-20,0,0.0,0.0,0.0,0.0,0.9794319311247673
2012-07-24,0,0.0,0.0,0.0,0.0,0.9794319311247673
2012-07-26,0,0.0,0.0,0.0,0.0,0.9842519701640228
2012-07-30,0,0.0,0.0,0.0,0.0,0.989119685158248
2012-08-01,0,0.0,0.0,0.0,0.0,0.9852216748768474
2012-08-03,0,0.0,0.0,0.0,0.0,0.9852216748768474
2012-08-07,0,0.0,0.0,0.0,0.0,0.9852216748768474
2012-08-09,1,0.002734056866081758,0.002839215224726717,0.0,0.0,0.9830817682536406
2012-08-13,1,0.0030443608048881894,0.0031296895554730974,0.0,0.0,0.9873912216617475
2012-08-15,1,0.0034907571658848616,0.0035218627296786137,0.0,0.0,0.9870181759323386
2012-08-17,1,0.002936557231185144,0.0030050267464173637,0.0,0.0,0.9874915766816258
2012-08-21,1,0.00121967792172923,0.00127568678878352,0.0,0.0,0.9890049224877003
2012-08-23,1,0.0009690159104762049,0.0010613715900884468,0.0,0.0,0.9892131853529513
2012-08-27,1,0.0013076889578907001,0.0014522340109479287,0.0,0.0,0.9936604843810594
2012-08-29,-1,-0.0004347074239447466,-7.716446406402138e-05,0.0,0.0,0.9997249484557109
2012-08-31,-1,-0.000745885102111953,-0.0003426867299904791,0.0,0.0,0.9994560101699518
2012-09-05,-1,-0.0010563390125418925,-0.0006077925570289419,0.0,0.0,0.9991686259730969
2012-09-07,-1,-0.0013691772886130589,-0.0008743295030360348,0.0,0.0,0.9988795035249014
2012-09-11,0,0.0,0.0,0.0,0.0,1.0
2012-09-13,0,0.0,0.0,0.0,0.0,1.0
2012-09-17,0,0.0,0.0,0.0,0.0,1.0
2012-09-19,0,0.0,0.0,0.0,0.0,1.0
2012-09-21,0,0.0,0.0,0.0,0.0,1.0
2012-09-25,0,0.0,0.0,0.0,0.0,1.0
2012-09-27,0,0.0,0.0,0.0,0.0,1.0
2012-10-01,0,0.0,0.0,0.0,0.0,1.0
2012-10-03,0,0.0,0.0,0.0,0.0,1.0
2012-10-05,1,0.0018847974578560613,0.0020141241076800866,0.0,0.0,0.9980543322202647
2012-10-09,1,0.0013951022778887,0.001582242506148278,0.0,0.0,0.9985135404592617
2012-10-11,1,0.0009966855805747612,0.0012474324074542395,0.0,0.0,0.9988791986112643
2012-10-15,1,0.0005817497146705568,0.0008931190728415966,0.0,0.0,0.9992631090150007
2012-10-17,1,0.00015986807487288076,0.0005312683681763198,0.0,0.0,0.9947512402651082
2012-10-19,-1,-0.00035648252538984294,-9.22390671690155e-05,0.0,0.0,0.994801597053375
2012-10-23,1,0.000985780150048334,0.0010348083514739091,0.0,0.0,0.9941302948584788
2012-10-25,1,0.0006370142571827607,0.0007564449130223246,0.0,0.0,0.9894963835207204
2012-10-31,1,0.00041405614787808423,0.0005657993051037453,0.0,0.0,0.9896818142962477
2012-11-02,1,0.00021056872780402967,0.00039306783129337396,0.0,0.0,0.9898506783764924
2012-11-06,0,-3.718521235186311e-05,0.00018081929316464602,0.0,0.0,0.9851676415620017
2012-11-08,0,-0.00012876562672617262,3.311597023419882e-05,0.0,0.0,0.9803628078680732
2012-11-12,-1,-0.00028199277583931706,-9.667222211797854e-05,0.0,0.0,0.9768603440480754
2012-11-14,-1,-0.0006339148316303871,-0.0004449609066828694,0.0,0.0,0.9765938015755654
2012-11-16,-1,-0.0007418618452731648,-0.0005276616758298129,0.0,0.0,0.9813170437651223
2012-11-20,-1,-0.0009817231077384548,-0.0007434901373505232,0.0,0.0,0.9811459300230928
2012-11-23,-1,-0.0011001325459319934,-0.0008401216451123138,0.0,0.0,0.981067105133607
2012-11-27,-1,-0.002561047550994934,-0.0020746084579861424,0.0,0.0,0.9846310594407955
2012-11-29,-1,-0.0024991739497234773,-0.00204477892692719,0.0,0.0,0.9846679618714177
2012-12-03,-1,-0.0011027542096318267,-0.0008430610203810659,0.0,0.0,0.9857839330044237
2012-12-05,1,0.00026349719266207874,0.00036723612211682246,0.0,0.0,0.9912326595609192
2012-12-07,-1,-0.001217637022328287,-0.0009496098283428201,0.0,0.0,0.9904372747304612
2012-12-11,-1,-0.00035386496788416405,-0.00018350728216256465,0.0,0.0,0.9947589274412473
2012-12-13,0,0.0,0.0,0.0,0.0,0.9950248756218907
2012-12-17,0,0.0,0.0,0.0,0.0,0.9900990099009901
2012-12-19,0,0.0,0.0,0.0,0.0,0.9900990099009901
2012-12-21,0,0.0,0.0,0.0,0.0,0.9900990099009901
2012-12-26,1,0.0033378275119904993,0.0038291776052299716,0.0,0.0,0.9869953324313545
2012-12-28,1,0.003355806801889862,0.003846522696994077,0.0,0.0,0.9869797856787719
2013-01-02,1,0.0029851381448520856,0.003420937120954148,0.0,0.0,0.9873236002758663
2013-01-04,1,0.002539771694023575,0.0029088045029001257,0.0,0.0,0.9828831334698842
2013-01-08,1,0.0024797389261029014,0.0028399109400807855,0.0,0.0,0.9874984425950459
2013-01-10,1,0.0023400777111206913,0.0026768900962134733,0.0,0.0,0.9876460453393523
2013-01-14,1,0.0022933672553389906,0.0026245289161059768,0.0,0.0,0.9876943671550547
2013-01-16,1,0.003757838147081783,0.004310476956674407,0.0,0.0,0.9866063473204314
2013-01-18,1,0.003532175678898556,0.00405122709305511,0.0,0.0,0.986815526712041
2013-01-23,1,0.0035075093059610315,0.004014643050403832,0.0,0.0,0.9868412075110661
2013-01-25,1,0.0013952403241812353,0.0015417011071456551,0.0,0.0,0.9888194407666243
2013-01-29,1,0.001315299088160551,0.0014501992241098467,0.0,0.0,0.9888937498928471
2013-01-31,1,0.0012322227085889653,0.0013558891728415784,0.0,0.0,0.9889707179818575
2013-02-04,1,0.0019135439026185606,0.0021128960672164524,0.0,0.0,0.9932538567836007
2013-02-06,1,0.0018163747043400947,0.0019988054195530774,0.0,0.0,0.9884366864566455
2013-02-08,1,0.00015361407596099655,0.00018562407825653858,0.0,0.0,0.9899525202858015
2013-02-12,1,0.00016537670656757513,0.00019980354532106188,0.0,0.0,0.9899413167289896
2013-02-14,1,0.0001349432776279334,0.00013509832859498786,0.0,0.0,0.9948912129247982
2013-02-19,1,0.00011386652518221066,0.0001171243980801387,0.0,0.0,0.9899974419189823
2013-02-21,1,0.00011676254020995646,0.0001247725725109191,0.0,0.0,0.9851293771303156
2013-02-25,1,9.013096288074045e-05,0.00010204833085162668,0.0,0.0,0.9851492555457771
2013-02-27,1,6.349938555152388e-05,7.932408919233375e-05,0.0,0.0,0.9851691347634873
2013-03-01,1,3.6867808222308156e-05,5.6599847533041596e-05,0.0,0.0,0.9851890147834949
2013-03-05,1,1.0240497767161741e-05,3.3889726593162915e-05,0.0,0.0,0.9852088902790015
2013-03-07,-1,-0.0011795704975097565,-0.0010165667597242074,0.0,0.0,0.989023746585067
2013-03-11,-1,-0.0023134318978271784,-0.00201928247196417,0.0,0.0,0.9879798838416901
2013-03-13,-1,-0.0022626432724310117,-0.0019758888682920596,0.0,0.0,0.988025851817429
2013-03-15,-1,-0.002213822470934283,-0.0019342121005560824,0.0,0.0,0.9880700254333905
2013-03-19,-1,-0.0010047159144323944,-0.0008673497492552426,0.0,0.0,0.9940989957232836
2013-03-21,1,0.0001485342964349306,0.00015185139592498447,0.0,0.0,0.9998498297083235
2013-03-25,1,0.00012203780544413364,0.00012926338073329118,0.0,0.0,0.9998743651929993
2013-03-27,1,9.549690998926171e-05,0.000106637476018198,0.0,0.0,0.9998989430205415
2013-04-01,1,6.885423154402633e-05,8.390376197805509e-05,0.0,0.0,0.9999236268365446
2013-04-03,1,3.9098451057754655e-05,5.665875690249075e-05,0.0,0.0,0.9949774744950544
2013-04-05,0,0.0,0.0,0.0,0.0,0.9950248756218907
2013-04-09,0,-1.0251982206661552e-05,1.4537279367305534e-05,0.0,0.0,0.9950141174762477
2013-04-11,-1,-3.4917424226104865e-05,-6.50929471106118e-06,0.0,0.0,0.9950078342140394
2013-04-15,1,0.0003554245431237121,0.00042438781210546347,0.0,0.0,0.9946389891677883
2013-04-17,1,0.0003614785123182858,0.0004314827352791947,0.0,0.0,0.9946324850665377
2013-04-19,1,0.00036772519593171194,0.00043880762517103065,0.0,0.0,0.9946257719752175
2013-04-23,-1,-3.693311520928273e-05,-1.3313549347885933e-05,0.0,0.0,0.9950048279651602
2013-04-25,0,0.0,0.0,0.0,0.0,0.9900990099009901
2013-04-29,0,0.0,0.0,0.0,0.0,0.9852216748768474
2013-05-01,-1,-0.0005730444954309072,-0.0005341924215333696,0.0,0.0,0.9846845915609153
2013-05-03,-1,-0.001244682365289795,-0.0010721134648591403,0.0,0.0,0.9794076589403584
2013-05-07,-1,-0.000873461148084474,-0.000787198668202057,0.0,0.0,0.9796826834671195
2013-05-09,-1,-0.0008290869344994061,-0.0007493349134198022,0.0,0.0,0.9749417406367646
2013-05-13,-1,-0.0006866935070807525,-0.0006226006138375842,0.0,0.025,0.9657062512553316
2013-05-15,-1,-0.0006096009468735746,-0.0005546539827295752,0.0,0.025,0.9611754881222768
2013-05-17,0,0.0,0.0,0.0,0.1,0.9546539375231069
2013-05-21,0,0.0,0.0,0.0,0.1,0.9501187644252413
2013-05-23,0,0.0,0.0,0.0,0.1,0.9546539375231069
2013-05-28,1,0.0024454442308274767,0.0027474587709702377,0.0,0.06250000698492049,0.9584005669895979
2013-05-30,1,0.0038303867342441306,0.004311251821205065,0.0,0.012500002328306831,0.9575374328636639
2013-06-03,1,0.00304981186776607,0.003514963053124953,0.0,0.012500002328306831,0.9625032026666962
2013-06-05,1,0.0030041066519737613,0.00346139853259764,0.0,0.012500002328306831,0.9625233202040495
2013-06-07,1,0.004432725840586935,0.005076445498328734,0.0,0.0,0.9660567087815743
2013-06-11,1,0.0037250290574261146,0.004177027198367508,0.0,0.0,0.9754723388458487
2013-06-13,1,0.002015916182449543,0.002236806380702534,0.0,0.0,0.9814224948178876
2013-06-17,1,0.004384337508213522,0.004911907594742548,0.0,0.0,0.9860663370787242
2013-06-19,1,0.006604021155881136,0.007417105390444607,0.0,0.0,0.9881319783517705
2013-06-21,1,0.004798328540586773,0.005364402077135289,0.0,0.0,0.9900192542352484
2013-06-25,1,0.004594464372574698,0.005125710405696805,0.0,0.0,0.9886357629559118
2013-06-27,1,0.0025922234225616075,0.002712537794202323,0.0,0.0,0.9908121774012346
2013-07-01,1,0.0025004602361574425,0.002594829067514707,0.0,0.0,0.9908896135409795
2013-07-03,1,0.002241371379415073,0.002291256196042116,0.0,0.0,0.9911023660547733
2013-07-08,1,0.0019826095161427477,0.0019880013427048654,0.0,0.0,0.9913149547339888
2013-07-10,1,0.0023456091571031493,0.0025290795867141773,0.0,0.0,0.9815172381927454
2013-07-12,1,0.0020191691290542164,0.0021604378618070167,0.0,0.0,0.9817407449216485
2013-07-16,1,0.0018603541501444653,0.001974315329962557,0.0,0.0,0.98185005197065
2013-07-18,1,0.0017038764748113023,0.0017907853713327172,0.0,0.0,0.981957785673393
2013-07-22,1,0.001545315582073401,0.0016049420917132477,0.0,0.0,0.9820669675426319
2013-07-24,1,0.002077114358556209,0.002200584619626367,0.0,0.0,0.9835862227225584
2013-07-26,1,0.002227117165904969,0.0023620828737733633,0.0,0.0,0.9832342403092966
2013-07-30,-1,-0.00018187213524193746,-9.005777968093672e-06,0.0,0.0,0.9803436693079272
2013-08-01,-1,-0.0003389801223615522,-0.00014314190118411892,0.0,0.0,0.9802424847716142
2013-08-05,-1,-0.0004932006434968965,-0.000274715791118557,0.0,0.0,0.9801367741123301
2013-08-07,-1,-0.0006665795180271865,-0.0004227045481300202,0.0,0.0,0.9896426079606968
2013-08-09,1,1.881355752704429e-05,0.00013710837828251712,0.0,0.0,0.9900372901009198
2013-08-13,1,0.000576489538961995,0.0005893414209206096,0.0,0.0,0.9895862486888887
2013-08-15,1,0.0005099514054413459,0.0005113623413647358,0.0,0.0,0.9896488175834139
2013-08-19,1,0.0004353283883803666,0.00044520832362828915,0.0,0.0,0.9870419932316776
2013-08-21,1,0.000320129666496106,0.00034403558261830155,0.0,0.0,0.9871289101352377
2013-08-23,-1,-0.000888880558775451,-0.0007218553311568744,0.0,0.0,0.991489897160049
2013-08-27,1,0.00018824847565831354,0.00023155966829251545,0.0,0.0,0.9970463887642507
2013-08-29,1,0.00011172577832586981,0.00016612892912599815,0.0,0.0,0.9971109978598625
2013-09-03,1,3.30891567013605e-05,9.871759070091796e-05,0.0,0.0,0.9971774607323689
2013-09-05,0,-3.5549160560458166e-05,4.0734334545096466e-05,0.0,0.0,0.9971978342453153
2013-09-09,1,6.24623036374161e-05,0.0001505525899202567,0.0,0.0,0.9922147915118983
2013-09-11,1,0.00017992082045615752,0.00026920488954675493,0.0,0.0,0.9921220433514294
2013-09-13,1,5.6016373671159865e-05,0.00016324668766593844,0.0,0.0,0.9922159012939396
2013-09-17,1,0.0006841770882259385,0.0007219896589793712,0.0,0.0,0.9944025144322726
2013-09-19,1,0.0005385389765643571,0.0005978248859952549,0.0,0.0,0.9896037816504388
2013-09-23,-1,-0.00043232404856322776,-0.00013668119204960619,0.0,0.0,0.9826852861840247
2013-09-25,-1,-0.0006751886329374773,-0.0003472539281407362,0.0,0.0,0.9825404229464089
2013-09-27,-1,-0.0009181013501890585,-0.0005550271499557471,0.0,0.0,0.9823972694848452
2013-10-01,-1,-0.0011600112296605322,-0.0007614444602383565,0.0,0.0,0.9822550456924318
2013-10-03,-1,-0.0014023377641989322,-0.000967837194341557,0.0,0.0,0.982112844948552
2013-10-07,-1,-0.001066754140403844,-0.0006629537036352763,0.0,0.0,0.9871697452720194
2013-10-09,-1,-0.0013321135644826653,-0.000889905835203889,0.0,0.0,0.9821648590997277
2013-10-11,-1,-0.0015798011062254657,-0.0011176398665599652,0.0,0.0,0.9820095352323519
2013-10-15,-1,-0.0009257934033207086,-0.0006369033714098776,0.0,0.0,0.9823477992881224
2013-10-17,-1,-0.001642022319159196,-0.0013235828982793947,0.0,0.0,0.98655726281974
2013-10-21,-1,-0.0031199239697088967,-0.0026915984512610605,0.0,0.0,0.9921562496071159
2013-10-23,-1,-0.003633809109115673,-0.0030981472765432535,0.0,0.0,0.9917034307248023
2013-10-25,-1,-0.0036329786706344744,-0.00309749167424243,0.0,0.0,0.9917041614678358
2013-10-29,-1,-0.0024871819665270795,-0.0021709912021939965,0.0,0.0,0.9906428712161527
2013-10-31,-1,-0.003182139433163997,-0.0027413559601798406,0.0,0.0,0.9900966107468905
2013-11-04,-1,-0.0035801731860509375,-0.0030508373409223665,0.0,0.0,0.9897932775006428
2013-11-06,-1,-0.0006640150281150932,-0.0005580397048764467,0.0,0.0,0.9970882233021233
2013-11-08,1,8.741756912785538e-05,8.765196638639599e-05,0.0,0.0,0.9975375908552905
2013-11-12,1,7.432010432111176e-05,7.604892730911776e-05,0.0,0.0,0.9975498805107778
2013-11-14,1,6.862717942453779e-05,8.436229820715433e-05,0.0,0.0,0.9975485767020216
2013-11-18,-1,-0.0011076425622478705,-0.000858908856311238,0.0,0.0,0.9967694427540253
2013-11-20,-1,-0.001090476500443647,-0.0008520633235962726,0.0,0.0,0.9869415255906167
2013-11-22,-1,-0.0009370475297995173,-0.0007369480075363626,0.0,0.0,0.9777325871215881
2013-11-26,-1,-0.001656197064976334,-0.001370802425406565,0.0,0.0,0.9793403108870894
2013-11-29,-1,-0.0017011110243219925,-0.0014091266918752543,0.0,0.0,0.9793050187003769
2013-12-03,-1,-0.0017460249836676535,-0.0014474509583439457,0.0,0.0,0.9792697290572001
2013-12-05,-1,-0.0017909389430133134,-0.001485775224812636,0.0,0.0,0.9792344419572845
2013-12-09,-1,-0.0018358529023589731,-0.0015240994912813263,0.0,0.0,0.9791991574003545
2013-12-11,-1,-0.0012756703007977825,-0.0010597462659250874,0.0,0.0,0.9749865634145922
2013-12-13,-1,-0.0008437237729335549,-0.0007068606676235407,0.0,0.0,0.9752708305246232
2013-12-17,-1,-0.00023706009614207638,-0.0002079630098912054,0.0,0.0,0.975672197483903
2013-12-19,1,7.303303210483259e-05,7.892403247758931e-05,0.0,0.0,0.9757796157738896
2013-12-23,1,9.28961465310926e-05,0.00010147888221541401,0.0,0.0,0.9851376125608688
2013-12-26,1,8.83238625588899e-05,9.602484893536489e-05,0.0,0.0,0.9851419057320269
2013-12-30,1,0.00037003257119945434,0.000400720764973776,0.0,0.0,0.984888103288257
2014-01-02,1,0.00034462963941993925,0.00037094990827289627,0.0,0.0,0.9849117636382146
2014-01-06,1,0.0003192267076404235,0.0003411790515720159,0.0,0.0,0.9849354251250029
2014-01-08,1,0.0002938237758609081,0.0003114081948711358,0.0,0.0,0.9849590877487042
2014-01-10,-1,-0.00020899871084349223,-0.00016532494488439298,0.0,0.0,0.9899381907482755
2014-01-14,-1,-0.0002227797928808652,-0.00017708409210547178,0.0,0.0,0.9899271260331317
2014-01-16,-1,-0.001011404659387356,-0.000810122845679984,0.0,0.0,0.9893158251824915
2014-01-21,-1,-0.0005468279688982652,-0.0004398892880599234,0.0,0.0,0.9951821387400361
2014-01-23,-1,-0.0005385496266152283,-0.00043452354069895797,0.0,0.0,0.9902614094632695
2014-01-27,-1,-0.0005207050867416777,-0.00042125936344427825,0.0,0.0,0.990276662576895
2014-01-29,-1,-0.0005451202509023238,-0.00044209237996745517,0.0,0.0,0.990254476807978
2014-01-31,-1,-0.0005692357139964974,-0.0004626800219668579,0.0,0.0,0.9902325592728516
2014-02-04,-1,-0.000593639909361614,-0.000483503679015857,0.0,0.0,0.9902103854461177
2014-02-06,-1,-0.0006180441047267304,-0.000504327336064856,0.0,0.0,0.9901882126124182
2014-02-10,-1,-0.00035374733787595065,-0.0002935136711295318,0.0,0.0,0.9855406819713095
2014-02-12,-1,-0.0002608399227162723,-0.0002541927232529091,0.0,0.0,0.9807970464590798
2014-02-14,-1,-0.00022128039934887187,-0.00021959406214469332,0.0,0.0,0.9808286721004907
2014-02-19,-1,-0.0007193612281993261,-0.0006606627108862576,0.0,0.0,0.9846249427645408
2014-02-21,-1,-0.0010257999589124728,-0.0009069192406249563,0.0,0.0,0.989258790716241
2014-02-25,-1,-0.0001359332668148695,-0.00012125803578853286,0.0,0.0,0.9899870055518998
2014-02-27,-1,-0.00010658842917423322,-8.686747945855643e-05,0.0,0.0,0.9900156103351988
2014-03-03,-1,-0.00011062747690747694,-8.007201723433664e-05,0.0,0.0,0.9900178880054158
2014-03-05,-1,-7.239088340131346e-05,-3.5260805840235576e-05,0.0,0.0,0.9900551629531373
2014-03-07,0,-3.415428989514889e-05,9.55040555386679e-06,0.0,0.0,0.9900834411893922
2014-03-11,-1,-0.0006772567087481303,-0.0006424884674783671,0.0,0.0,0.9944406704182022
2014-03-13,-1,-0.000866690135951559,-0.0007749482477396659,0.0,0.0,0.9991798539997316
2014-03-17,-1,-0.0013655020626047864,-0.0013071659233561813,0.0,0.0,0.9986654494123353
2014-03-19,-1,-0.001214622208313927,-0.0011783698343002466,0.0,0.0,0.9988049338705619
2014-03-21,-1,-0.000982723386022409,-0.0009696200678759407,0.0,0.0,0.994157095951621
2014-03-25,-1,-0.0008511415331525126,-0.0008438729765501562,0.0,0.0,0.9942709811031787
2014-03-27,-1,-0.0007326629984290854,-0.0007050225670779044,0.0,0.0,0.9943874836722284
2014-03-31,-1,-0.0006141844637056596,-0.0005661721576056544,0.0,0.0,0.994504013546589
2014-04-02,-1,-0.001245300643024715,-0.0011652854098642782,0.0,0.0,0.9921136155152154
2014-04-04,-1,-0.0011216552751627047,-0.0010584379170080803,0.0,0.0,0.9922012391753552
2014-04-08,-1,-0.0010142974717647709,-0.0009668314515604228,0.0,0.0,0.9922766560202163
2014-04-10,-1,-0.0009069396683668369,-0.0008752249861127647,0.0,0.0,0.9923520843307612
2014-04-14,-1,-0.0007995818649689016,-0.0007836185206651055,0.0,0.0,0.9924275241096049
2014-04-16,-1,-0.0006922240615709673,-0.0006920120552174475,0.0,0.0,0.9925029753593627
2014-04-21,1,0.0005130060963988274,0.0006745809215449384,0.0,0.0,0.9954194870153397
2014-04-23,1,0.0008688694337522496,0.0011136892613607863,0.0,0.0,0.9950733882864964
2014-04-25,1,0.0009428185590198446,0.0012003895882189079,0.0,0.0,0.9950030741460956
2014-04-29,1,0.0010160571955466552,0.001286185326088167,0.0,0.0,0.9901450381250934
2014-05-01,1,0.0014270916315664477,0.0017438014858839922,0.0,0.0,0.9917765038997525
2014-05-05,1,0.0009513989640284175,0.0011607748818659842,0.0,0.0,0.9824258449636055
2014-05-07,1,0.0013346316733958575,0.0016260475098880687,0.0,0.0,0.9821133696814938
2014-05-09,1,0.0013810978796690348,0.0016804452014832297,0.0,0.0,0.9772771039802207
2014-05-13,1,0.0013408182549546383,0.0016294289370642461,0.0,0.0,0.9773100397855558
2014-05-15,1,0.0004960679962689792,0.0005692975945423471,0.0,0.0,0.9779993149971449
2014-05-19,1,0.0005150985934908673,0.0006386091849958656,0.0,0.0,0.975192963394417
2014-05-21,1,0.0006179292314997752,0.00076401262877173,0.0,0.0,0.9709333012298305
2014-05-23,1,0.0006486505592118791,0.0008000163567239242,0.0,0.0,0.9709090843807234
2014-05-28,-1,-0.0004399894992146299,-0.00043086407373972205,0.0,0.0,0.975924004526561
2014-05-30,-1,-0.0003746030649918748,-0.0003542347232252715,0.0,0.0,0.975968191382674
2014-06-03,1,0.0019121733419301457,0.0022358498542093285,0.0,0.0,0.9840137028394842
2014-06-05,1,0.0015038924635200428,0.0017584133941208253,0.0,0.0,0.9828326102212054
2014-06-09,1,0.0015318674165119895,0.0017912652137183642,0.0,0.0,0.9876600359067446
2014-06-11,1,0.0015251012640002315,0.0017833452767703404,0.0,0.0,0.9876663700422518
2014-06-13,1,0.001148637984635438,0.0013431021074940593,0.0,0.0,0.9880187822595026
2014-06-17,1,0.0004744076325331293,0.0005799195300049417,0.0,0.0,0.9934908120990196
2014-06-19,1,0.0010771863198008724,0.0012625119310572964,0.0,0.0,0.9972249695812583
2014-06-23,1,0.0010793186984448212,0.0012650111687752962,0.0,0.0,0.9972226666134384
2014-06-25,1,0.0010794021938554856,0.0012651090208629073,0.0,0.0,0.9972225764426604
2014-06-27,1,0.0010794856892661496,0.001265206872950518,0.0,0.0,0.9972224862718988
2014-07-01,1,0.0010795691846768136,0.001265304725038129,0.0,0.0,0.9972223961011536
2014-07-03,1,0.0012960508766951782,0.0015102395104769463,0.0,0.0,0.9936375942144394
2014-07-08,1,0.0005583241122097814,0.0006505749931473828,0.0,0.0,0.9944267852482439
2014-07-10,1,0.0005554282348963626,0.0006471811871605017,0.0,0.0,0.994429895143545
2014-07-14,-1,-0.0009893663279327944,-0.000907164210321033,0.0,0.0,0.9941887494986625
2014-07-16,-1,-0.0006804092258225828,-0.0006274384153415346,0.0,0.0,0.9944477650713387
2014-07-18,-1,-0.00040257255235523536,-0.00040032783888388815,0.0,0.0,0.9946675072194434
2014-07-22,-1,-0.00034745485618561863,-0.00033573289178917895,0.0,0.0,0.9947217455125954
2014-07-24,-1,-0.0002923371600160014,-0.00027113794469446926,0.0,0.0,0.9947759897211971
2014-07-28,-1,-0.00023721946384638458,-0.00020654299759975992,0.0,0.0,0.9899062962555704
2014-07-30,-1,-0.00016917146464646472,-0.00013186889898989912,0.0,0.0,0.9899698845934066
2014-08-01,-1,-3.9507247796155665e-05,-3.8854308368280385e-05,0.0,0.0,0.9949860852447752
2014-08-05,-1,-6.889135383555506e-05,-6.414040825282656e-05,0.0,0.0,0.9949590243023838
2014-08-07,-1,-0.00013918947535271854,-0.00012976965085212375,0.0,0.0,0.994891748649062
2014-08-11,-1,-0.00011346605781445404,-9.962320224393147e-05,0.0,0.0,0.9949193996822409
2014-08-13,-1,-8.774264027618946e-05,-6.947675363573903e-05,0.0,0.0,0.9949470522524728
2014-08-15,-1,-6.201922273792491e-05,-3.933030502754663e-05,0.0,0.0,0.990056527265775
2014-08-19,-1,-3.372945606427584e-05,-8.534499739480019e-06,0.0,0.0,0.9900826976785617
2014-08-21,0,-9.39768871972908e-06,1.863342855761356e-05,0.0,0.0,0.9900897163490097
2014-08-25,-1,-0.00016898355525699717,-0.0001620955586034962,0.0,0.0,0.9948780724018993
2014-08-27,1,3.791228117422888e-05,7.306745722232325e-05,0.0,0.0,0.9949699395504459
2014-08-29,1,6.032755899831993e-05,9.949420756311342e-05,0.0,0.0,0.9949457641842465
2014-09-03,1,8.25346340545392e-05,0.0001255196937149723,0.0,0.0,0.9949218916391304
2014-09-05,1,0.00010909482578640216,0.00015867733317271874,0.0,0.0,0.9948923360851912
2014-09-09,1,0.00013249386633934824,0.0001860129533089812,0.0,0.0,0.994867227862329
2014-09-11,1,0.0001652453559445285,0.000226817994462696,0.0,0.0,0.9948308275087954
2014-09-15,0,-1.9919973569680166e-05,1.8280380961375274e-05,0.0,0.0,0.9999798949544677
2014-09-17,1,0.00021967902147295798,0.00029061463007351525,0.0,0.0,0.9997449182575237
2014-09-19,1,0.00024879421035384734,0.00032477273866879207,0.0,0.0,0.9997132987466703
2014-09-23,1,2.9614196703004313e-05,4.683095784768232e-05,0.0,0.0,0.9999617788836344
2014-09-25,1,0.0001278552907326841,0.00016830396222072206,0.0,0.0,0.9998519422978525
2014-09-29,1,0.00013604751182473595,0.00017711882984732175,0.0,0.0,0.9998434413436147
2014-10-01,1,0.00014968209484993817,0.000193097820813509,0.0,0.0,0.9998286394116522
2014-10-03,1,0.00016354709543941052,0.00020937179065351634,0.0,0.0,0.999813575317596
2014-10-07,1,0.00017741490423234002,0.000225645488412657,0.0,0.0,0.9997985104099141
2014-10-09,1,0.00011248204267828266,0.00014394269111478404,0.0,0.0,0.999871804069407
2014-10-13,1,0.00021998229299403414,0.0002770705990163084,0.0,0.0,0.9997515353040426
2014-10-15,1,0.0002250331238549946,0.00028218553546943296,0.0,0.0,0.9997464549717225
2014-10-17,1,0.0001425883687476494,0.00018003643274285837,0.0,0.0,0.9998387136167484
2014-10-21,1,0.0003502702570355261,0.00043750645471398575,0.0,0.0,0.994635049587684
2014-10-23,-1,-1.7633282628263477e-05,-1.4025882088209365e-05,0.0,0.0,0.9950111277520728
2014-10-27,1,0.00020047643754375424,0.00024908498939893973,0.0,0.0,0.994578527902192
2014-10-29,1,1.3724122412251206e-07,1.1373834383439163e-06,0.0,0.0,0.9948002772354011
2014-10-31,1,0.00021780310531053102,0.0002699547704770476,0.0,0.0,0.9945596365562444
2014-11-04,1,0.00022914153915391485,0.00028324279927992736,0.0,0.0,0.9945474570865397
2014-11-06,1,0.00018096518203910867,0.00027586451506652953,0.0,0.0,0.9945749330780118
2014-11-10,-1,-4.881520723771286e-05,-8.171520229976394e-06,0.0,0.0,0.994783653595762
2014-11-12,1,4.2392000067569875e-05,0.00010508991988341431,0.0,0.0,0.994727956826831
2014-11-14,1,8.509127792467338e-05,0.00015510850219915086,0.0,0.0,0.9946820875360263
2014-11-18,-1,-0.0009550101295618153,-0.0008978470108038969,0.0,0.0,0.9989467970421425
2014-11-20,-1,-0.000867493097203085,-0.0008232042433362681,0.0,0.0,0.9990183357312833
2014-11-24,-1,-0.00109927423592614,-0.0010130329304857924,0.0,0.0,0.9989449607003309
2014-11-26,-1,-0.0010197835918131846,-0.0009452050063585219,0.0,0.0,0.9990184700484959
2014-12-01,-1,-0.0009399187762128812,-0.0008770279469020679,0.0,0.0,0.9990923512131871
2014-12-03,-1,-0.0008604597638723545,-0.0008092270135921977,0.0,0.0,0.9991658529933816
2014-12-05,-1,-0.0007810007515318283,-0.0007414260802823278,0.0,0.0,0.9992393655892109
2014-12-09,-1,-0.0007015417391913018,-0.0006736251469724577,0.0,0.0,0.9993128890030631
2014-12-11,-1,-0.0006220827268507758,-0.0006058242136625879,0.0,0.0,0.999386423237326
2014-12-15,-1,-0.000542623714510249,-0.0005380232803527177,0.0,0.0,0.9994599682943884
2014-12-17,-1,-0.00046984796619328967,-0.0004627959404641713,0.0,0.0,0.9995338954014781
2014-12-19,-1,-0.00040242141373297727,-0.00038370568982919585,0.0,0.0,0.9996070908864707
2014-12-23,-1,-0.00013289999958478066,-0.00010893784708333939,0.0,0.0,0.9998790956962842
2014-12-26,1,0.00011807752909535745,0.00013288890162222215,0.0,0.0,0.999874532528703
2014-12-30,1,0.0004690628459625588,0.0005252337706626015,0.0,0.0,0.9961089616426109
2015-01-02,1,0.00040538287249316737,0.0004530405662030093,0.0,0.0,0.9961763751344229
2015-01-06,1,0.00038837976252877255,0.00043311384457052853,0.0,0.0,0.9961946994514211
2015-01-08,1,0.0003713766525643776,0.00041318712293804757,0.0,0.0,0.9962130244425706
2015-01-12,1,0.000354373542599983,0.000393260401305567,0.0,0.0,0.9962313501079089
2015-01-14,1,0.000337370432635588,0.00037333367967308593,0.0,0.0,0.9962496764474725
2015-01-16,0,-3.5068657965356105e-05,1.8250369240177614e-05,0.0,0.0,0.9965801957070344
2015-01-21,-1,-8.609820195574531e-05,-2.5292214628069496e-05,0.0,0.0,0.9965582410789865
2015-01-23,-1,-0.00013712774594613425,-6.883479849631647e-05,0.0,0.0,0.9965172288673877
2015-01-27,-1,-0.0001883846453374169,-0.00011251316957292212,0.0,0.0,0.994059568646143
2015-01-29,1,0.000289840786694999,0.00030829072313857335,0.0,0.0,0.9973009655933878
2015-02-02,1,0.00022525138234577013,0.00025317775649309234,0.0,0.0,0.9973554867956729
2015-02-04,1,0.0001602497338313511,0.00019755659379455507,0.0,0.0,0.9974104164694507
2015-02-06,1,0.0006814641782203595,0.000738863109108481,0.0,0.0,0.9969369788157662
2015-02-10,1,0.0006353619629695526,0.0006848338161222414,0.0,0.0,0.9969809764653902
2015-02-12,1,0.0005892597477187463,0.0006308045231360022,0.0,0.0,0.9970249779986674
2015-02-17,1,0.0005426370524163953,0.0005762225338353445,0.0,0.0,0.9970694603161365
2015-02-19,1,0.0004965790129038654,0.0005222450124156827,0.0,0.0,0.997113427488181
2015-02-23,1,0.0004516012946894562,0.0004693903738182779,0.0,0.0,0.9948493923427484
2015-02-25,-1,-7.327436396826532e-05,-2.8942788714523334e-05,0.0,0.0,0.9952258086285349
2015-02-27,-1,-0.00010122739547460793,-5.5144847913330124e-05,0.0,0.0,0.9952046819873454
2015-03-03,-1,-0.00013446052199963195,-8.346593346791108e-05,0.0,0.0,0.9951812182250399
2015-03-05,-1,-0.00016758079511814373,-0.00011172686149567602,0.0,0.0,0.9951578142168785
2015-03-09,-1,-0.00020070106823665525,-0.00013998778952344066,0.0,0.0,0.9951344113094911
2015-03-11,-1,-0.00023382134135516698,-0.00016824871755120554,0.0,0.0,0.9951110095027997
2015-03-13,-1,-0.00026694161447367824,-0.00019650964557897,0.0,0.0,0.9950876087967272
2015-03-17,-1,-0.00030006188759219,-0.0002247705736067348,0.0,0.0,0.9950642091911953
2015-03-19,-1,-0.00033318216071070154,-0.0002530315016344995,0.0,0.0,0.9950408106861266
2015-03-23,1,4.148279070369789e-05,7.900810069623229e-05,0.0,0.0,0.9975069606106132
2015-03-25,1,0.0004174653214722117,0.00042296311392213686,0.0,0.0,0.9995799622881213
2015-03-27,1,0.00036305177196865326,0.0003663440605775404,0.0,0.0,0.9996354350398083
2015-03-31,1,0.00030297285653257434,0.0003150485471678427,0.0,0.0,0.9996910847562661
2015-04-02,1,0.00024309463306552184,0.0002639555456766512,0.0,0.0,0.9997465391693086
2015-04-07,1,0.00018321640959846974,0.00021286254418546,0.0,0.0,0.999801999734977
2015-04-09,1,0.0001232017500848114,0.00016159059408509316,0.0,0.0,0.998595608341516
2015-04-13,1,6.223147887384712e-05,0.00010853401966429911,0.0,0.0,0.9986475682506806
2015-04-15,1,0.000684165571338815,0.0007533249423677526,0.0,0.0,0.9980816831406284
2015-04-17,1,0.0006467753645126742,0.0007095056502049904,0.0,0.0,0.9981174481799139
2015-04-21,1,0.0004522304244451111,0.0004968904293392298,0.0,0.0,0.9933399659851014
2015-04-23,1,0.00042670273790609305,0.00046697336683422665,0.0,0.0,0.9933641523698392
2015-04-27,1,0.00040117505136707485,0.0004370563043292234,0.0,0.0,0.9933883399324123
2015-04-29,1,0.0003756473648280567,0.00040713924182422036,0.0,0.0,0.9934125286729067
2015-05-01,1,0.0002717228862525198,0.00029275675056020505,0.0,0.0,0.9886269780333845
2015-05-05,1,0.0002524604380277939,0.00027012620196661117,0.0,0.0,0.9872752253065871
2015-05-07,1,7.406588447498414e-05,7.966158005172896e-05,0.0,0.0,0.9886414980811605
2015-05-11,1,1.0828887379545821e-05,1.269086801494284e-05,0.0,0.0,0.9886917158023308
2015-05-13,1,1.0828887379545887e-05,1.2690868014942925e-05,0.0,0.0,0.9886917158023308
2015-05-15,1,1.08288873795457e-05,1.2690868014942691e-05,0.0,0.0,0.9886917158023308
2015-05-19,-1,-5.63002774665633e-05,-4.445260685499256e-05,0.0,0.0,0.993562761081832
2015-05-21,-1,-0.0002765559380194338,-0.00025427452579643533,0.0,0.0,0.9933505272381531
2015-05-26,-1,-0.00025717709284034276,-0.0002377389088675584,0.0,0.0,0.9933682467670353
2015-05-28,-1,-0.0002377982476612516,-0.00022120329193868135,0.0,0.0,0.9933859669280956
2015-06-01,1,7.281220761845661e-05,9.54152441631095e-05,0.0,0.0,0.9985002416082936
2015-06-03,1,0.00016130542273183265,0.00019588341475043852,0.0,0.0,0.9998214374715299
2015-06-05,1,0.00016557290871468532,0.0002008432093579552,0.0,0.0,0.9998168255000084
2015-06-09,1,0.0001715991645975765,0.00020793675447073104,0.0,0.0,0.9998102680455117
2015-06-11,1,0.00017686823533682325,0.00021411181927373965,0.0,0.0,0.9998045481815759
2015-06-15,1,0.00018213730607607016,0.00022028688407674853,0.0,0.0,0.999798828383086
2015-06-17,1,0.00018740637681531716,0.00022646194887975744,0.0,0.0,0.9997931086500409
2015-06-19,1,0.00019267544755456427,0.00023263701368276646,0.0,0.0,0.999787388982439
2015-06-23,1,0.00010799555085671476,0.0001255440080096374,0.0,0.0,0.9996190247498035
2015-06-25,1,0.00010678939431282063,0.00012413444609784565,0.0,0.0,0.999620180602703
2015-06-29,1,0.00010600508968435787,0.00012321528365996393,0.0,0.0,0.9996209331057125
2015-07-01,1,0.00010549586807729995,0.0001226158448767003,0.0,0.0,0.9993454601818688
2015-07-06,1,0.00010443648042743228,0.00012137695878420047,0.0,0.0,0.9993464751262922
2015-07-08,1,0.00010365217579896965,0.00012045779634631891,0.0,0.0,0.999347227217273
2015-07-10,1,0.00010286787117050683,0.00011953863390843717,0.0,0.0,0.9993479793093857
2015-07-14,1,0.00010208356654204404,0.00011861947147055542,0.0,0.0,0.9993487314026308
2015-07-16,1,0.0001012992619135814,0.00011770030903267384,0.0,0.0,0.9993494834970077
2015-07-20,1,0.0002057474748947681,0.00024702426678908,0.0,0.0,0.9992469177078316
2015-07-22,1,0.0002302095482982411,0.00027489293987706636,0.0,0.0,0.9994714804804272
2015-07-24,1,0.0002341428112270514,0.0002795025104587943,0.0,0.0,0.9994672135957491
2015-07-28,1,0.0002375072030294004,0.0002834332092304182,0.0,0.0,0.999463569949435
2015-07-30,1,0.0002216762371401482,0.00026567340820176743,0.0,0.0,0.9997563845402831
2015-08-03,1,0.00022621188216229623,0.0002709889378883572,0.0,0.0,0.9997514613767784
2015-08-05,1,0.00023157654662081745,0.00027729716187996454,0.0,0.0,0.999745627867395
2015-08-07,1,0.00023556591086624346,0.0002819584239040392,0.0,0.0,0.9997413047731525
2015-08-11,1,0.00024010701039447427,0.00028728034597558585,0.0,0.0,0.9997363758378399
2015-08-13,0,0.0,0.0,0.0,0.0,1.0
2015-08-17,0,0.0,0.0,0.0,0.0,1.0
2015-08-19,0,0.0,0.0,0.0,0.0,1.0
2015-08-21,0,0.0,0.0,0.0,0.0,1.0
2015-08-25,0,0.0,0.0,0.0,0.0,1.0
2015-08-27,0,0.0,0.0,0.0,0.0,1.0
2015-08-31,0,0.0,0.0,0.0,0.0,1.0
2015-09-02,0,0.0,0.0,0.0,0.0,1.0
2015-09-04,0,0.0,0.0,0.0,0.0,1.0
2015-09-09,0,0.0,0.0,0.0,0.0,1.0
2015-09-11,0,0.0,0.0,0.0,0.0,1.0
2015-09-15,0,0.0,0.0,0.0,0.0,1.0
2015-09-17,0,0.0,0.0,0.0,0.0,1.0
2015-09-21,0,0.0,0.0,0.0,0.0,1.0
2015-09-23,0,0.0,0.0,0.0,0.0,1.0
2015-09-25,0,0.0,0.0,0.0,0.0,1.0
2015-09-29,0,0.0,0.0,0.0,0.0,1.0
2015-10-01,0,0.0,0.0,0.0,0.0,1.0
2015-10-05,0,0.0,0.0,0.0,0.0,1.0
2015-10-07,0,0.0,0.0,0.0,0.0,1.0
2015-10-09,0,0.0,0.0,0.0,0.0,1.0
2015-10-13,0,0.0,0.0,0.0,0.0,1.0
2015-10-15,0,0.0,0.0,0.0,0.0,1.0
2015-10-19,0,0.0,0.0,0.0,0.0,1.0
2015-10-21,0,0.0,0.0,0.0,0.0,1.0
2015-10-23,0,0.0,0.0,0.0,0.0,1.0
2015-10-27,0,0.0,0.0,0.0,0.0,1.0
2015-10-29,0,0.0,0.0,0.0,0.0,1.0
2015-11-02,0,0.0,0.0,0.0,0.0,1.0
2015-11-04,0,0.0,0.0,0.0,0.0,1.0
2015-11-06,0,0.0,0.0,0.0,0.0,1.0
2015-11-10,0,0.0,0.0,0.0,0.0,1.0
2015-11-12,0,0.0,0.0,0.0,0.0,1.0
2015-11-16,0,0.0,0.0,0.0,0.0,1.0
2015-11-18,0,0.0,0.0,0.0,0.0,1.0
2015-11-20,0,0.0,0.0,0.0,0.0,1.0
2015-11-24,0,0.0,0.0,0.0,0.0,1.0
2015-11-27,0,0.0,0.0,0.0,0.0,1.0
2015-12-01,0,0.0,0.0,0.0,0.0,1.0
2015-12-03,0,0.0,0.0,0.0,0.0,1.0
2015-12-07,0,0.0,0.0,0.0,0.0,0.9950248756218907
2015-12-09,-1,-2.7780528052805416e-05,-2.370462046204632e-05,0.0,0.0,0.9949993892082957
2015-12-11,1,0.00010744894760197995,0.00013539575532249797,0.0,0.0,0.9949194582767703
2015-12-15,1,0.00011475379030598295,0.00014395663432854674,0.0,0.0,0.9949125154425826
2015-12-17,1,0.0001220586330099858,0.00015251751333459533,0.0,0.0,0.9949055727052922
2015-12-21,0,0.0,0.0,0.0,0.0,0.9950248756218907
2015-12-23,0,0.0,0.0,0.0,0.0,0.9950248756218907
2015-12-28,0,0.0,0.0,0.0,0.0,0.9950248756218907
2015-12-30,0,0.0,0.0,0.0,0.0,0.9950248756218907
2016-01-04,0,0.0,0.0,0.0,0.0,0.9950248756218907
2016-01-06,1,0.004282178217821786,0.004846534653465351,0.0,0.0,0.9954563822552509
2016-01-08,1,0.004149564956495653,0.004691119111911194,0.0,0.0,0.9955991113986689
2016-01-12,1,0.00401695169516952,0.004535703570357039,0.0,0.0,0.9908089317278246
2016-01-14,1,0.0019413923492349254,0.0021892679567956817,0.0,0.0,0.992984238518129
2016-01-19,1,0.0018751122412241244,0.0021115912691269147,0.0,0.0,0.9930552155652407
2016-01-21,1,0.001808832133213323,0.0020339145814581476,0.0,0.0,0.9931262027597467
2016-01-25,1,0.001742552025202522,0.0019562378937893806,0.0,0.0,0.9931972001038234
2016-01-27,1,0.0016762719171917206,0.0018785612061206136,0.0,0.0,0.9932682075996477
2016-01-29,1,0.0016099918091809196,0.001800884518451847,0.0,0.0,0.993339225249397
2016-02-02,1,0.0015437117011701186,0.0017232078307830804,0.0,0.0,0.9934102530552494
2016-02-04,1,0.0014774315931593172,0.0016455311431143125,0.0,0.0,0.9934812910193839
2016-02-08,1,0.0014111514851485162,0.0015678544554455461,0.0,0.0,0.9935523391439797
2016-02-10,-1,-0.0009321202520252028,-0.0007953612961296131,0.0,0.0,0.9991370046302113
2016-02-12,-1,-0.0009321202520252024,-0.0007953612961296127,0.0,0.0,0.9991370046302113
2016-02-17,-1,-0.0009321202520252024,-0.0007953612961296127,0.0,0.0,0.9991370046302113
2016-02-19,-1,-0.0012432000000000007,-0.0010608000000000006,0.0,0.0,0.9938856156922613
2016-02-23,-1,-0.0012433864986498653,-0.0010609591359135918,0.0,0.0,0.9891013760083909
2016-02-25,-1,-0.001118618901890189,-0.000954497209720972,0.0,0.0,0.9892013928072997
2016-02-29,-1,-0.0018649864986498644,-0.0015913591359135908,0.0,0.0,0.9839317131907248
2016-03-02,-1,-0.0018649864986498644,-0.0015913591359135908,0.0,0.0,0.9839317131907248
2016-03-04,-1,-0.0018649864986498659,-0.001591359135913592,0.0,0.0,0.9839317131907248
2016-03-08,-1,-0.0018649864986498663,-0.0015913591359135923,0.0,0.0,0.9839317131907248
2016-03-10,-1,-0.0018649864986498644,-0.0015913591359135908,0.0,0.0,0.9791148026647434
2016-03-14,-1,-0.001864986498649865,-0.0015913591359135915,0.0,0.0,0.9791148026647434
2016-03-16,-1,-0.001864986498649864,-0.0015913591359135904,0.0,0.0,0.9791148026647434
2016-03-18,1,0.0026245124512451236,0.002903840384038403,0.0,0.0,0.9828397883270363
2016-03-22,-1,-0.002098109810981099,-0.0017902790279027908,0.0,0.0,0.9884167520892425
2016-03-24,-1,-0.002098109810981098,-0.0017902790279027908,0.0,0.0,0.9884167520892425
2016-03-29,-1,-0.006866936693669367,-0.006006150615061507,0.0,0.0,0.988692771952806
2016-03-31,-1,-0.006711521152115211,-0.0058735373537353724,0.0,0.0,0.9888335680070064
2016-04-04,-1,-0.006556105610561053,-0.005740924092409239,0.0,0.0,0.988974404167401
2016-04-06,-1,-0.006400690069006903,-0.00560831083108311,0.0,0.0,0.9891152804511292
2016-04-08,-1,-0.0013987398739873998,-0.0011935193519351946,0.0,0.0,0.9987055481643955
2016-04-12,-1,-0.0013987398739873974,-0.0011935193519351925,0.0,0.0,0.9987055481643955
2016-04-14,-1,-0.0013987398739873994,-0.0011935193519351942,0.0,0.0,0.9987055481643955
2016-04-18,-1,-0.0013987398739873985,-0.0011935193519351933,0.0,0.0,0.9987055481643955
2016-04-20,-1,-0.0013987398739873994,-0.0011935193519351942,0.0,0.0,0.9987055481643955
2016-04-22,-1,-0.0013987398739873994,-0.0011935193519351938,0.0,0.0,0.9987055481643955
2016-04-26,-1,-0.001398739873987399,-0.0011935193519351938,0.0,0.0,0.9987055481643955
2016-04-28,-1,-0.0013987398739874,-0.0011935193519351948,0.0,0.0,0.9987055481643955
2016-05-02,-1,-0.0013987398739873978,-0.0011935193519351927,0.0,0.0,0.9987055481643955
2016-05-04,-1,-0.0013987398739873994,-0.0011935193519351938,0.0,0.0,0.9987055481643955
2016-05-06,-1,-0.001398739873987398,-0.0011935193519351929,0.0,0.0,0.9987055481643955
2016-05-10,-1,-0.0013987398739873983,-0.001193519351935193,0.0,0.0,0.9987055481643955
2016-05-12,-1,-0.0013987398739874,-0.0011935193519351944,0.0,0.0,0.9987055481643955
2016-05-16,-1,-0.0013987398739873994,-0.0011935193519351942,0.0,0.0,0.9987055481643955
2016-05-18,-1,-0.0013987398739873985,-0.0011935193519351933,0.0,0.0,0.9966319190362357
2016-05-20,-1,-0.001398739873987399,-0.0011935193519351938,0.0,0.0,0.9966319190362357
2016-05-24,-1,-0.0013987398739874007,-0.001193519351935195,0.0,0.0,0.9966319190362357
2016-05-26,-1,-0.0013987398739873972,-0.0011935193519351922,0.0,0.0,0.9966319190362357
2016-05-31,-1,-0.0006087294576916714,-0.00048511136954444814,0.0,0.0,0.9924935723947655
2016-06-02,1,0.0009984130624939266,0.0011700858967688996,0.0,0.0,0.9920221667574279
2016-06-06,1,0.0009984130624939261,0.0011700858967688991,0.0,0.0,0.9920221667574279
2016-06-08,1,0.0009984130624939255,0.0011700858967688983,0.0,0.0,0.9920221667574279
2016-06-10,1,0.0009984130624939248,0.0011700858967688976,0.0,0.0,0.9920221667574279
2016-06-14,1,0.0009984130624939235,0.001170085896768896,0.0,0.0,0.9920221667574279
2016-06-16,1,0.0009984130624939235,0.0011700858967688956,0.0,0.0,0.9939525447468457
2016-06-20,1,0.001736444768112303,0.002004920320913781,0.0,0.0,0.9931762016079863
2016-06-22,1,0.0017136384228211654,0.001978185365491031,0.0,0.0,0.9932006359530455
2016-06-24,1,0.003966959447139916,0.004749362719539584,0.0,0.0,0.9907286021511971
2016-06-28,-1,-0.00023786104348507645,-6.512878070702704e-06,0.0,0.0,0.9948848007874894
2016-06-30,0,-2.789005496215693e-05,0.0002395617193385103,0.0,0.0,0.9899940452284632
2016-07-05,-1,-0.0024386061074946953,-0.0021664039149240817,0.0,0.0,0.9880983218308347
2016-07-07,-1,-0.002347947051639635,-0.0020890461877272927,0.0,0.0,0.9881708470427214
2016-07-11,-1,-0.002257287995784574,-0.002011688460530503,0.0,0.0,0.9882433829019138
2016-07-13,-1,-0.0021666289399295104,-0.0019343307333337114,0.0,0.0,0.9883159294107569
2016-07-15,-1,-0.002075969884074451,-0.001856973006136923,0.0,0.0,0.9883884865715961
2016-07-19,-1,-0.0019853108282193895,-0.0017796152789401332,0.0,0.0,0.9884610543867774
2016-07-21,-1,-0.0018946517723643294,-0.0017022575517433441,0.0,0.0,0.9885336328586481
2016-07-25,-1,-0.0018039927165092676,-0.0016248998245465543,0.0,0.0,0.9886062219895556
2016-07-27,1,0.002668329489808949,0.0030554932220340607,0.0,0.0,0.9921994161428875
2016-07-29,-1,-0.0017780901463532988,-0.001602797631479106,0.0,0.0,0.9958815817994874
2016-08-02,-1,-0.001687431090498238,-0.001525439904282317,0.0,0.0,0.9959552541175417
2016-08-04,-1,-0.001596772034643178,-0.0014480821770855284,0.0,0.0,0.9960289373365145
2016-08-08,-1,-0.001506112978788122,-0.0013707244498887426,0.0,0.0,0.9961026314588255
2016-08-10,1,0.0011214247564559651,0.0015864962720864458,0.0,0.0,0.9960302814941973
2016-08-12,-1,-0.001953904291419692,-0.0016364858776529566,0.0,0.0,0.9958021827559531
2016-08-16,-1,-0.000571824209423222,-0.0005384518687160763,0.0,0.0,0.9968818865779769
2016-08-18,-1,-0.0019416104753729726,-0.0016259896808987172,0.0,0.0,0.9958121741853216
2016-08-22,-1,-0.001974184704619688,-0.001653784679599582,0.0,0.0,0.9957857097223898
2016-08-24,-1,-0.0020067589338664026,-0.0016815796783004467,0.0,0.0,0.9957592466660466
2016-08-26,-1,-0.0033024880100387586,-0.002826027005746319,0.0,0.0,0.9923488064659683
2016-08-30,-1,-0.0026484410444520103,-0.0023779776933715874,0.0,0.0,0.9928171248704515
2016-09-01,-1,-0.003502742139517758,-0.003151631972833162,0.0,0.0,0.9921034937807985
2016-09-06,-1,-0.0033302854141752615,-0.0030044777786219974,0.0,0.0,0.9922425852812499
2016-09-08,-1,-0.0031578286888327618,-0.0028573235844108298,0.0,0.0,0.9923817157880314
2016-09-12,-1,-0.002985371963490262,-0.0027101693901996618,0.0,0.0,0.9925208853175536
2016-09-14,-1,-0.002812915238147764,-0.002563015195988496,0.0,0.0,0.9926600938862361
2016-09-16,-1,-0.0026404585128052653,-0.0024158610017773288,0.0,0.0,0.9927993415105079
2016-09-20,-1,-0.002468001787462767,-0.0022687068075661625,0.0,0.0,0.9929386282068072
2016-09-22,-1,-0.002295545062120269,-0.0021215526133549958,0.0,0.0,0.9930779539915813
2016-09-26,-1,-0.006969622990243114,-0.00625657663696561,0.0,0.0,0.9934303459642746
2016-09-28,-1,-0.006641750723346461,-0.00597680918142831,0.0,0.0,0.9937302774822012
2016-09-30,-1,-0.006313878456449806,-0.00569704172589101,0.0,0.0,0.9940303901624689
2016-10-04,-1,-0.005986006189553153,-0.005417274270353711,0.0,0.0,0.9943306841692634
2016-10-06,-1,-0.005658133922656501,-0.005137506814816414,0.0,0.0,0.9946311596669698
2016-10-10,-1,-0.005330261655759845,-0.004857739359279113,0.0,0.0,0.9949318168201707
2016-10-12,-1,-0.005002389388863191,-0.004577971903741813,0.0,0.0,0.9952326557936491
2016-10-14,-1,-0.004674517121966538,-0.004298204448204515,0.0,0.0,0.995533676752386
2016-10-18,-1,-0.004346644855069883,-0.004018436992667215,0.0,0.0,0.9958348798615634
2016-10-20,-1,-0.004018772588173229,-0.0037386695371299157,0.0,0.0,0.9961362652865619
2016-10-24,-1,-0.003690900321276575,-0.0034589020815926157,0.0,0.0,0.9964378331929636
2016-10-26,-1,-0.00336302805437992,-0.003179134626055316,0.0,0.0,0.9967395837465503
2016-10-28,-1,-0.0030351557874832655,-0.0028993671705180163,0.0,0.0,0.9970415171133054
2016-11-01,-1,-0.0027072835205866133,-0.002619599714980718,0.0,0.0,0.9973436334594126
2016-11-03,-1,-0.0023794112536899563,-0.0023398322594434164,0.0,0.0,0.9976459329512579
2016-11-07,-1,-0.0010815292984820621,-0.000833104454233027,0.0,0.0,0.999043598702745
2016-11-09,-1,-0.0005651930337039016,-0.00033403679635698005,0.0,0.0,0.9995505871476911
2016-11-11,-1,-0.00031196150709903413,-3.726319730421642e-05,0.0,0.0,0.9998027415502686
2016-11-15,0,-5.8729980494167506e-05,0.00025951040174854547,0.0,0.0,0.9998174958570536
2016-11-17,-1,-0.0014884525547422122,-0.001422694645418436,0.0,0.0,0.9985465420149915
2016-11-21,-1,-0.0013267799075549996,-0.001284742309401548,0.0,0.0,0.9986959416801588
2016-11-23,-1,-0.0011651072603677867,-0.0011467899733846598,0.0,0.0,0.9988453860575137
2016-11-28,-1,-0.0010088376373677712,-0.0010034346131805733,0.0,0.0,0.9989948751671305
2016-11-30,-1,-0.0008708853013508835,-0.0008417619659933609,0.0,0.0,0.9991444090290971
2016-12-02,-1,-0.0005620008529178883,-0.0005215121256185976,0.0,0.0,0.9944887853204458
2016-12-06,-1,-0.00045624512324761955,-0.0003975721528376038,0.0,0.0,0.9946023837323055
2016-12-08,-1,-0.00035048939357735197,-0.00027363218005661144,0.0,0.0,0.9947160080993563
2016-12-12,-1,-0.0002447336639070819,-0.0001496922072756162,0.0,0.0,0.9948296584304952
2016-12-14,-1,-0.0001388460469275271,-2.5728134308423793e-05,0.0,0.0,0.9949408440958823
2016-12-16,1,0.0016001840468418838,0.0021712390682329776,0.0,0.0,0.9934037643353749
2016-12-20,1,0.0001523441226530971,0.0003259142832130388,0.0,0.0,0.9948290187661399
2016-12-22,1,0.0002660073985049044,0.00045912147074977233,0.0,0.0,0.9947210189504565
2016-12-27,1,0.0003796706743567122,0.0005923286582865063,0.0,0.0,0.9946130425814032
2016-12-29,1,0.0004933339502085194,0.0007255358458232397,0.0,0.0,0.9945050896513457
2017-01-03,1,0.0029708618511024676,0.0035326530275052465,0.0,0.0,0.9967587822147418
2017-01-05,1,0.0030107007137795674,0.0035793510406849933,0.0,0.0,0.9967157956610507
2017-01-09,1,0.0030500138980780024,0.0036254239580302185,0.0,0.0,0.9966733843798675
2017-01-11,1,0.003089327082376441,0.0036714968753754473,0.0,0.0,0.9966309767078182
2017-01-13,1,0.0031286402666748777,0.0037175697927206734,0.0,0.0,0.9965885726444415
2017-01-18,1,0.0031679534509733154,0.0037636427100659012,0.0,0.0,0.9965461721892773
2017-01-20,1,0.002222073618607111,0.0026041496254264333,0.0,0.0,0.9975926974677016
2017-01-24,1,0.002222073618607111,0.0026041496254264333,0.0,0.0,0.9975926974677016
2017-01-26,1,0.0022220736186071123,0.0026041496254264346,0.0,0.0,0.9975926974677016
2017-01-30,1,0.0022220736186071115,0.0026041496254264338,0.0,0.0,0.9975926974677016
2017-02-01,1,0.0022220736186071123,0.0026041496254264355,0.0,0.0,0.9975926974677016
2017-02-03,1,0.0022220736186071123,0.0026041496254264346,0.0,0.0,0.9975926974677016
2017-02-07,1,0.0022220736186071123,0.0026041496254264346,0.0,0.0,0.9975926974677016
2017-02-09,1,0.002222073618607113,0.0026041496254264364,0.0,0.0,0.9975926974677016
2017-02-13,1,0.002222073618607113,0.0026041496254264364,0.0,0.0,0.9975926974677016
2017-02-15,1,0.0022220736186071106,0.002604149625426433,0.0,0.0,0.9975926974677016
2017-02-17,0,0.0,0.0,0.0,0.0,1.0
2017-02-22,0,0.0,0.0,0.0,0.0,1.0
2017-02-24,0,0.0,0.0,0.0,0.0,1.0
2017-02-28,0,0.0,0.0,0.0,0.0,1.0
2017-03-02,0,0.0,0.0,0.0,0.0,0.9950248756218907
2017-03-06,0,0.0,0.0,0.0,0.0,0.9950248756218907
2017-03-08,0,0.0,0.0,0.0,0.0,0.9950248756218907
2017-03-10,0,0.0,0.0,0.0,0.0,0.9950248756218907
2017-03-14,0,0.0,0.0,0.0,0.0,0.9950248756218907
2017-03-16,0,0.0,0.0,0.0,0.0,0.9950248756218907
2017-03-20,0,0.0,0.0,0.0,0.0,0.9950248756218907
2017-03-22,0,0.0,0.0,0.0,0.0,0.9950248756218907
2017-03-24,0,0.0,0.0,0.0,0.0,0.9950248756218907
2017-03-28,0,0.0,0.0,0.0,0.0,0.9950248756218907
2017-03-30,0,0.0,0.0,0.0,0.0,1.0
2017-04-03,0,0.0,0.0,0.0,0.0,1.0
2017-04-05,0,0.0,0.0,0.0,0.0,1.0
2017-04-07,0,0.0,0.0,0.0,0.0,1.0
2017-04-11,0,0.0,0.0,0.0,0.0,0.9950248756218907
2017-04-13,-1,-0.00042186434889432086,-0.00035996919345808844,0.0,0.0,0.9946379893817926
2017-04-18,-1,-0.00042186434889432086,-0.00035996919345808844,0.0,0.0,0.9946379893817926
2017-04-20,-1,-0.00042186434889432086,-0.00035996919345808844,0.0,0.0,0.9946379893817926
2017-04-24,-1,-0.00031521692559020246,-0.00026896888245341597,0.0,0.0,0.9898459045299998
2017-04-26,-1,-0.0012013767639870194,-0.0010251129916645997,0.0,0.0,0.9794469962605051
2017-04-28,-1,-0.002212053067850356,-0.0018875047412931605,0.0,0.0,0.9741097888138511
2017-05-02,-1,-0.002188361661446044,-0.0018672892941296359,0.0,0.0,0.9741258292440621
2017-05-04,-1,-0.0021903341742802573,-0.001868972403536436,0.0,0.0,0.9741244937204739
2017-05-08,-1,-0.0021903341742802564,-0.0018689724035364354,0.0,0.0,0.9741244937204739
2017-05-10,1,4.9147000745764624e-05,0.0001097315968695999,0.0,0.0,0.9803421091943526
2017-05-12,1,0.0005684806058662174,0.0005710568442947386,0.0,0.0,0.9799547061861031
2017-05-16,1,0.000477147676616617,0.00049307852528466,0.0,0.0,0.9800221773490554
2017-05-18,1,0.0003835219087905726,0.0004131303115388407,0.0,0.0,0.9800913544548315
2017-05-22,-1,-0.001910644953544188,-0.0016122244242757623,0.0,0.0,0.9837141700625808
2017-05-24,1,0.002297519849810625,0.00251248521382402,0.0,0.0,0.9926494284689802
2017-05-26,1,0.0015456101295973157,0.0017866635619834892,0.0,0.0,0.998336634548676
2017-05-31,1,0.0017114537822313898,0.0019780306843722676,0.0,0.0,0.9932017897634154
2017-06-02,1,0.0016898099180279007,0.0019526698406867717,0.0,0.0,0.993224974196835
2017-06-06,1,0.0016681731337966237,0.001927317294344275,0.0,0.0,0.9885407796505682
2017-06-08,1,0.0014426362773716853,0.0016664336115131246,0.0,0.0,0.9887512717098638
2017-06-12,1,0.0014239274507958904,0.001644507882630179,0.0,0.0,0.9887688340134103
2017-06-14,1,0.0014057504004260433,0.001623196186728783,0.0,0.0,0.9839214625196457
2017-06-16,1,0.0012346102379780653,0.0014252959575045106,0.0,0.0,0.984079668148954
2017-06-20,1,0.0012179510633582554,0.0014057723094206605,0.0,0.0,0.9840951589523036
2017-06-22,1,0.0012012918887384452,0.0013862486613368107,0.0,0.0,0.9841106502433551
2017-06-26,1,0.0011846327141186355,0.0013667250132529615,0.0,0.0,0.9841261420221316
2017-06-28,-1,-0.0008970085658239873,-0.000816015629418066,0.0,0.0,0.9893518419918411
2017-06-30,-1,-0.0011190579357935788,-0.0010244455745574553,0.0,0.0,0.9891635986828043
2017-07-05,1,0.00106927398739874,0.0012531310531053107,0.0,0.0,0.9938765254465991
2017-07-07,1,0.0010692739873987395,0.00125313105310531,0.0,0.0,0.9938765254465991
2017-07-11,1,0.0010694994299429938,0.0012533952595259522,0.0,0.0,0.9938762836113483
2017-07-13,-1,-0.0010458007800780078,-0.0009619659165916592,0.0,0.0,0.9989971234227616
2017-07-17,-1,-0.0009720716471647163,-0.0008990541854185418,0.0,0.0,0.9990653115435664
2017-07-19,-1,-0.0008981531503150312,-0.0008359662016201617,0.0,0.0,0.9991336914652298
2017-07-21,-1,-0.0008244395589558966,-0.0007730677317731782,0.0,0.0,0.9992018838528174
2017-07-25,-1,-0.0007507259675967596,-0.0007101692619261926,0.0,0.0,0.9992700855495079
2017-07-27,-1,-0.0006770123762376239,-0.000647270792079208,0.0,0.0,0.9993382965572075
2017-07-31,-1,-0.0006032987848784878,-0.0005843723222322231,0.0,0.0,0.9994065168778231
2017-08-02,-1,-0.0005074772727272714,-0.0004997045454545444,0.0,0.0,0.9964352947629893
2017-08-04,-1,-0.0004394318181818189,-0.00043684090909091,0.0,0.0,0.9964932734946648
2017-08-08,-1,-0.0003791590909090912,-0.0003662045454545458,0.0,0.0,0.9965528028177371
2017-08-10,-1,-0.00031888636363636337,-0.0002955681818181815,0.0,0.0,0.9966123392536564
2017-08-14,-1,-0.00023386183618361844,-0.00020340369036903698,0.0,0.0,0.9917740883822802
2017-08-16,-1,-0.0001793577857785769,-0.0001395279027902778,0.0,0.0,0.9918224134547323
2017-08-18,-1,-0.00012485373537353894,-7.565211521152307e-05,0.0,0.0,0.991870743236778
2017-08-22,-1,-0.0013415003300330038,-0.0011446778877887793,0.0,0.0,0.9909995617294034
2017-08-24,-1,-0.0013417956195619564,-0.0011449298529852988,0.0,0.0,0.9909993548119693
2017-08-28,-1,-0.0013417956195619562,-0.0011449298529852985,0.0,0.0,0.9909993548119693
2017-08-30,-1,-0.0026961438732459333,-0.002342238638202852,0.0,0.0,0.9928200429923724
2017-09-01,-1,-0.0026508385571197305,-0.00230356209430761,0.0,0.0,0.9928566420466809
2017-09-06,-1,-0.0026072938385946804,-0.002266415346077697,0.0,0.0,0.9928918068487006
2017-09-08,-1,-0.0025631654920297555,-0.002228761428738513,0.0,0.0,0.9929274505434016
2017-09-12,-1,-0.004685515198270109,-0.004106377973445534,0.0,0.0,0.9956232931835293
2017-09-14,-1,-0.004569775455929239,-0.004007595509894102,0.0,0.0,0.9957296287960773
2017-09-18,-1,-0.004455067083871939,-0.003909716937598106,0.0,0.0,0.9958350275368199
2017-09-20,-1,-0.004340358711814641,-0.00381183836530211,0.0,0.0,0.9959404485929989
2017-09-22,-1,-0.004225650339757342,-0.003713959793006113,0.0,0.0,0.9960458919717021
2017-09-26,-1,-0.004113657253015565,-0.0036184696495216826,0.0,0.0,0.9961488254339655
2017-09-28,-1,-0.0039971134357122354,-0.003518977241687657,0.0,0.0,0.9962560246902609
2017-10-02,-1,-0.002680944814140124,-0.002471272551320617,0.0,0.0,0.9974305106012201
2017-10-04,-1,-0.0024863858772163528,-0.0023052589410497543,0.0,0.0,0.9976099038368146
2017-10-06,-1,-0.002291826940292579,-0.002139245330778889,0.0,0.0,0.9977893616136917
2017-10-10,-1,-0.002095948690303151,-0.0019719904340409406,0.0,0.0,0.9979701590724905
2017-10-12,-1,-0.003783205902345997,-0.0033571484281199855,0.0,0.0,0.9964425236555777
2017-10-16,-1,-0.00045479424762564065,-0.0003016863162926333,0.0,0.0,0.9996219027296589
2017-10-18,-1,-0.0007400460190444397,-0.0007191246172678316,0.0,0.0,0.999270946588509
2017-10-20,-1,-0.0006486147577777759,-0.0006413005488219212,0.0,0.0,0.9993554580489643
2017-10-24,-1,-0.0005616503432590865,-0.0005553141775140394,0.0,0.0,0.9994418294679538
2017-10-26,1,0.0005199647576867132,0.0005354082876963311,0.0,0.0,0.9994725917835162
2017-10-30,1,0.0004227951368026067,0.0004524952135056456,0.0,0.0,0.9995625462743581
2017-11-01,1,0.00032605486313191424,0.0003700714505287005,0.0,0.0,0.9996520579489785
2017-11-03,1,0.00022875499637511033,0.00028704723989837744,0.0,0.0,0.9997421653777007
2017-11-07,1,0.00013145512961830686,0.00020402302926805473,0.0,0.0,0.9998322890522368
2017-11-09,1,3.4155262861503195e-05,0.00012099881863773197,0.0,0.0,0.9999214899632473
2017-11-13,0,-6.309165244549399e-05,3.7942763472391654e-05,0.0,0.0,0.999946101212493
2017-11-15,-1,-0.0001603099260226265,-4.501182517836625e-05,0.0,0.0,0.9998960361531755
2017-11-17,1,0.0004907320254952083,0.0004994186102363995,0.0,0.0,0.9995051696604218
2017-11-21,-1,-0.0008819235190437313,-0.0007276880925391891,0.0,0.0,0.9991958413857301
2017-11-24,-1,-0.0004720296624183502,-0.00028222701778314206,0.0,0.0,0.9996230138320669
2017-11-28,-1,-0.0005997229886023317,-0.0003911854158011339,0.0,0.0,0.9995047911511034
2017-11-30,-1,-0.0007278811175433663,-0.0005004633945308324,0.0,0.0,0.9993862047199947
2017-12-04,1,7.136792932232398e-05,0.0001493973807609688,0.0,0.0,0.999889629527944
2017-12-06,0,-2.237876312080519e-05,6.940502929405154e-05,0.0,0.0,0.9999489250133712
2017-12-08,-1,-0.00011609417176663858,-1.0584469984780645e-05,0.0,0.0,0.9999264617056791
2017-12-12,-1,-0.0002098156091740883,-9.055527178804853e-05,0.0,0.0,0.9998498371117984
2017-12-14,-1,-0.00030353704658153837,-0.0001705260735913169,0.0,0.0,0.9997630246105599
2017-12-18,-1,-0.00039725848398898723,-0.0002504968753945839,0.0,0.0,0.9996762271830968
2017-12-20,-1,-0.0004909799213964369,-0.00033046767719785186,0.0,0.0,0.999589444825484
2017-12-22,-1,-0.0005847013588038867,-0.0004104384790011198,0.0,0.0,0.9995026775337967
2017-12-27,-1,-0.0006784227962113358,-0.0004904092808043873,0.0,0.0,0.9994159253041122
2017-12-29,-1,-0.0007721442336187858,-0.0005703800826076554,0.0,0.0,0.9993291881325086
2018-01-03,-1,-0.0008658656710262347,-0.0006503508844109225,0.0,0.0,0.999242466015066
2018-01-05,-1,-0.0009595871084336843,-0.0007303216862141905,0.0,0.0,0.9991557589478655
2018-01-09,-1,-0.0010533085458411338,-0.0008102924880174578,0.0,0.0,0.9990690669269895
2018-01-11,-1,-0.0011470299832485832,-0.0008902632898207255,0.0,0.0,0.9989823899485215
2018-01-16,-1,-0.0012407514206560328,-0.0009702340916239937,0.0,0.0,0.9988957280085473
2018-01-18,-1,-0.0013344728580634833,-0.0010502048934272618,0.0,0.0,0.9988090811031533
2018-01-22,-1,-0.0014278094411741215,-0.0011298711477513523,0.0,0.0,0.9987227930492502
2018-01-24,-1,-0.0008897265076507656,-0.0007005148964896492,0.0,0.0,0.9992055110125713
2018-01-26,-1,-0.0009518771827182721,-0.0007535469396939698,0.0,0.0,0.9991480144371593
2018-01-30,-1,-0.0010140278577857793,-0.0008065789828982905,0.0,0.0,0.9990905244783361
2018-02-01,-1,-0.0010761785328532872,-0.0008596110261026116,0.0,0.0,0.9990330411349594
2018-02-05,1,6.626684668466856e-05,7.766114611461164e-05,0.0,0.0,0.9999280411820444
2018-02-07,1,6.626684668466856e-05,7.766114611461164e-05,0.0,0.0,0.9999280411820444
2018-02-09,1,6.626684668466883e-05,7.766114611461195e-05,0.0,0.0,0.9999280411820444
2018-02-13,1,6.634641464146562e-05,7.77543954395458e-05,0.0,0.0,0.9999279547858464
2018-02-15,1,3.31533153315327e-05,3.885388538853833e-05,0.0,0.0,0.9999639976958526
2018-02-20,1,2.2126522652265215e-05,2.593108310831084e-05,0.0,0.0,0.9950038414718132
2018-02-22,1,2.2126522652265526e-05,2.5931083108311228e-05,0.0,0.0,0.9950038414718132
2018-02-26,1,2.2126522652265144e-05,2.5931083108310757e-05,0.0,0.0,0.9950038414718132
2018-02-28,1,2.2126522652265425e-05,2.59310831083111e-05,0.0,0.0,0.9950038414718132
2018-03-02,1,2.2126522652265283e-05,2.5931083108310916e-05,0.0,0.0,0.9950038414718132
2018-03-06,1,2.2126522652265445e-05,2.5931083108311106e-05,0.0,0.0,0.9950038414718132
2018-03-08,1,2.212652265226534e-05,2.593108310831099e-05,0.0,0.0,0.9950038414718132
2018-03-12,1,1.6570027002700378e-05,1.9419171917191862e-05,0.0,0.0,0.9852101906755979
2018-03-14,0,0.0,0.0,0.0,0.0,0.9849003660856015
2018-03-16,0,0.0,0.0,0.0,0.0,0.9800739899282448
2018-03-20,1,0.0009577537797553794,0.0010833731240310202,0.0,0.0,0.9841320733775323
2018-03-22,1,0.0019460809180918094,0.0021987518451845184,0.0,0.0,0.983341035675392
2018-03-26,1,0.0018836675667566762,0.0021255723972397242,0.0,0.0,0.9833915108762122
2018-03-28,1,0.001820437563756376,0.0020514702670267034,0.0,0.0,0.983442644713728
2018-04-02,1,0.0017572075607560757,0.0019773681368136817,0.0,0.0,0.9834937838691771
2018-04-04,1,0.0016939775577557757,0.00190326600660066,0.0,0.0,0.9835449283433895
2018-04-06,1,0.0016307475547554756,0.0018291638763876382,0.0,0.0,0.9835960781371947
2018-04-10,1,0.005619387698769877,0.006339666126612662,0.0,0.0,0.988815844870445
2018-04-12,1,0.005294353930595018,0.005964274515165107,0.0,0.0,0.9894824798041273
2018-04-16,1,0.003099644783814826,0.003474143886133118,0.0,0.0,0.9917812138771877
2018-04-18,1,0.0023833132003489065,0.002666263314021966,0.0,0.0,0.9925314112914266
2018-04-20,1,0.002284281613717279,0.0025502701726071776,0.0,0.0,0.9926373350242715
2018-04-24,1,0.0021864994704410114,0.002435674810125036,0.0,0.0,0.992741976899074
2018-04-26,1,0.002088717327164745,0.0023210794476428956,0.0,0.0,0.9928466408384835
2018-04-30,1,0.0019909351838884775,0.002206484085160754,0.0,0.0,0.9929513268494797
2018-05-02,1,0.0018931530406122105,0.002091888722678613,0.0,0.0,0.9930560349390447
2018-05-04,1,0.001796312607746296,0.0019783304928270504,0.0,0.0,0.9886964571567617
2018-05-08,1,0.001455839293410737,0.0015974357336810544,0.0,0.0,0.9843437505576444
2018-05-10,1,0.0011731076012982983,0.0012818502407839502,0.0,0.0,0.9846015127929362
2018-05-14,-1,-0.00015727143670682983,-9.589120459151796e-05,0.0,0.0,0.9904390567485198
2018-05-16,-1,-0.0001976355565803815,-0.00013037427609514772,0.0,0.0,0.9855262360432986
2018-05-18,-1,-0.00020798166229723416,-0.00014405227839197406,0.0,0.0,0.9855154123817037
2018-05-22,-1,-0.00024337717260751901,-0.00017425462502739084,0.0,0.0,0.985487247481102
2018-05-24,-1,-0.0002787726829178032,-0.00020445697166280707,0.0,0.0,0.9854590841902955
2018-05-29,-1,-0.0004067827610554731,-0.00030383523049847824,0.0,0.0,0.9810118786051196
2018-05-31,-1,-0.0004526126181935952,-0.0003429410159329377,0.0,0.0,0.9809804094337988
2018-06-04,-1,-0.001889837778663657,-0.0016114205882745754,0.0,0.0,0.9841617086107949
2018-06-06,-1,-0.0003605136267360786,-0.0002601424509155223,0.0,0.0,0.9902806789186678
2018-06-08,-1,-0.000411325682489891,-0.00030343932012884956,0.0,0.0,0.9853611681081536
2018-06-12,-1,-0.0006491569207351482,-0.00048707277938679747,0.0,0.0,0.9803531827623564
2018-06-14,1,0.0012395242859105137,0.0013112076261693046,0.0,0.0,0.9798617193136847
2018-06-18,1,0.0011304327620502825,0.0011833582837267715,0.0,0.0,0.9799493122540429
2018-06-20,1,0.0010213412381900504,0.0010555089412842373,0.0,0.0,0.9800369208562216
2018-06-22,1,0.0009122497143298194,0.000927659598841704,0.0,0.0,0.9801245451244218
2018-06-26,-1,-0.0009616212804448661,-0.0007540317330866092,0.0,0.0,0.98449297073458
2018-06-28,-1,-0.0010315577322036462,-0.0008137399737981218,0.0,0.0,0.9797228252612888
2018-07-02,-1,-0.0012292324434457359,-0.000974735732961534,0.0,0.0,0.9795918045805329
2018-07-05,-1,-0.001307773794332369,-0.0010417536424053406,0.0,0.0,0.9795380312402103
2018-07-09,1,0.0008091650528008008,0.0008310551808241207,0.0,0.0,0.9845078726310872
2018-07-11,1,0.002613753292982474,0.0028204990394479212,0.0,0.0,0.9874425682773258
2018-07-13,1,0.0004408726300554383,0.0005167979397942941,0.0,0.0,0.9945510187856194
2018-07-17,1,0.00029192803884477223,0.0003897062229697488,0.0,0.0,0.9946875556628157
2018-07-19,1,0.00014295188395913174,0.0002625565338480414,0.0,0.0,0.9948241743398345
2018-07-23,0,-5.959827650825142e-06,0.00013549287259012464,0.0,0.0,0.9949449088063551
2018-07-25,0,-0.00015493993031366843,8.432933660020394e-06,0.0,0.0,0.9949477876948392
2018-07-27,-1,-0.0024634681655052977,-0.0020289505824089586,0.0,0.0,0.995585865418929
2018-07-31,-1,-0.0025408825433659637,-0.0020950068662205687,0.0,0.0,0.9955147670669194
2018-08-02,-1,-0.0026171241118554175,-0.002160095148621189,0.0,0.0,0.9954447395434821
2018-08-06,-1,-0.002695711299087295,-0.0022271194338437904,0.0,0.0,0.9953726008228775
2018-08-08,-1,-0.0027725045961692497,-0.0022926621284689165,0.0,0.0,0.99530209494311
2018-08-10,-1,-0.0016376796675051217,-0.0013891905192351607,0.0,0.0,0.9963127151144548
2018-08-14,-1,-0.0016463782836958745,-0.0013966128905793939,0.0,0.0,0.9963047140180249
2018-08-16,-1,-0.0016550768998866265,-0.0014040352619236268,0.0,0.0,0.9962967130501029
2018-08-20,-1,-0.0016637755160773824,-0.0014114576332678618,0.0,0.0,0.9962887122106856
2018-08-22,-1,-0.0016724741322681341,-0.0014188800046120945,0.0,0.0,0.9962807114997704
2018-08-24,-1,-0.0006709581477673304,-0.0005332242381339734,0.0,0.0,0.9993982711027188
2018-08-28,-1,-0.0007122852135183573,-0.0005685041031176111,0.0,0.0,0.9993600151845392
2018-08-30,1,0.0016891178568390632,0.0020990978130654386,0.0,0.0,0.9981094730269996
2018-09-04,1,0.0017069567799559496,0.0021146986853002167,0.0,0.0,0.9980928165663682
2018-09-06,1,0.000568732594541814,0.0006948206410080171,0.0,0.0,0.9974287444636479
2018-09-10,1,0.00061596571631436,0.0007513927892295177,0.0,0.0,0.9941338004523903
2018-09-12,1,0.0006387287333946125,0.000778069809246646,0.0,0.0,0.9941093702086657
2018-09-14,1,0.0006614917504748669,0.0008047468292637771,0.0,0.0,0.9940849411656287
2018-09-18,1,0.0006842547675551208,0.0008314238492809071,0.0,0.0,0.9940605133231911
2018-09-20,1,0.0007070177846353738,0.0008581008692980361,0.0,0.0,0.9940360866812641
2018-09-24,1,0.0007297808017156274,0.0008847778893151658,0.0,0.0,0.9940116612397595
2018-09-26,1,0.0007525438187958812,0.0009114549093322958,0.0,0.0,0.9939872369985885
2018-09-28,1,0.0007753068358761343,0.0009381319293494249,0.0,0.0,0.993962813957663
2018-10-02,1,0.0007980698529563867,0.0009648089493665535,0.0,0.0,0.9939383921168939
2018-10-04,-1,-0.0013165647193480188,-0.0011063827205609355,0.0,0.0,0.9956784206248993
2018-10-08,-1,-0.0029072795464142416,-0.0025120962715263493,0.0,0.0,0.9972976346577233
2018-10-10,-1,-0.0028734825719880083,-0.0024832517040983084,0.0,0.0,0.9973287873501369
2018-10-12,-1,-0.002840262324311709,-0.0024549054695945935,0.0,0.0,0.9973594072937744
2018-10-16,-1,-0.002510186237975355,-0.002169940966776704,0.0,0.0,0.9929776297173571
2018-10-18,-1,-0.0024804791633172034,-0.002144592459056814,0.0,0.0,0.9930016288158802
2018-10-22,-1,-0.002450772088659053,-0.0021192439513369253,0.0,0.0,0.9930256290744908
2018-10-24,-1,-0.00396771646270361,-0.0033504225142859095,0.0,0.0,0.9918357701672437
2018-10-26,-1,-0.0028973943255072854,-0.002514548620759726,0.0,0.0,0.9926572254073694
2018-10-30,-1,-0.002852634866959247,-0.0024763561870179644,0.0,0.0,0.9926933618057654
2018-11-01,-1,-0.0028078754084112107,-0.002438163753276202,0.0,0.0,0.9927295008352545
2018-11-05,-1,-0.0012985137296366539,-0.0012511025638377838,0.0,0.0,0.9938949147967304
2018-11-07,-1,-0.0011469261964497047,-0.0011217556725855993,0.0,0.0,0.9940176145388917
2018-11-09,-1,-0.0009953386632627552,-0.0009924087813334148,0.0,0.0,0.994140344580203
2018-11-13,-1,-0.003913921877150511,-0.00357724001789401,0.0,0.0,0.9962683960770353
2018-11-15,-1,-0.0049890993802329826,-0.004396759207057532,0.0,0.0,0.9953289914193537
2018-11-19,-1,-0.004841169667101606,-0.004270533467281339,0.0,0.0,0.9954648100848907
2018-11-21,-1,-0.004693239953970231,-0.0041443077275051445,0.0,0.0,0.9956006658220444
2018-11-26,-1,-0.004545310240838856,-0.004018081987728953,0.0,0.0,0.995736558645995
2018-11-28,-1,-0.002282557181312299,-0.0021418153053792666,0.0,0.0,0.9977926967225994
2018-11-30,-1,-0.0005494625515401328,-0.00041019130240927163,0.0,0.0,0.9995204031964856
2018-12-04,-1,-0.0018092594009289722,-0.0017397941153531645,0.0,0.0,0.998228616609085
2018-12-07,-1,-0.0016016555320857908,-0.001562649501398172,0.0,0.0,0.998420346735646
2018-12-11,-1,-0.0013945955772743073,-0.0013860454667984049,0.0,0.0,0.9986116097853718
2018-12-13,-1,-0.0012085960051061106,-0.0011866792512457776,0.0,0.0,0.993961008801299
2018-12-17,-1,-0.000599094856435788,-0.0005686689836727466,0.0,0.0,0.9895871179023349
2018-12-19,-1,-0.00039312740366404523,-0.0003563600365021456,0.0,0.0,0.9849375194053815
2018-12-21,-1,-0.00037097621775165185,-0.0003374588315344277,0.0,0.0,0.9849528522702616
2018-12-26,-1,-0.0003488250318392584,-0.0003185576265667098,0.0,0.0,0.9849681856125333
2018-12-28,-1,-0.000326673845926865,-0.00029965642159899175,0.0,0.0,0.9849835194322187
2019-01-02,-1,-0.00030452266001447146,-0.00028075521663127373,0.0,0.0,0.980201433136169
2019-01-04,-1,-0.00023293413440017623,-0.00021600885706536874,0.0,0.0,0.975464543262599
2019-01-08,-1,-0.0001594635033041959,-0.00014888196703679034,0.0,0.0,0.9707899597935703
2019-01-10,-1,-0.00012985761506812516,-0.00012221161441356115,0.0,0.0,0.9708049391139141
2019-01-14,1,0.00014151061052567135,0.00015277490984885533,0.0,0.0,0.9707648534718795
2019-01-16,1,0.00012382375746248242,0.00013256271195572194,0.0,0.0,0.9755007855069828
2019-01-18,1,0.00012352458127427998,0.0001311804269524133,0.0,0.0,0.9802827384058913
2019-01-23,1,0.0001062355679083414,0.00011143447528827382,0.0,0.0,0.9755170280850035
2019-01-25,1,9.236133107266827e-05,9.569045659390343e-05,0.0,0.0,0.9755295338861277
2019-01-29,1,8.02603978458165e-05,8.150881991628067e-05,0.0,0.0,0.97554059140622
2019-01-31,1,0.0002268788091650317,0.00024706163263751423,0.0,0.0,0.9801891472780127
2019-02-04,1,0.00021477787593817988,0.00023287999595989135,0.0,0.0,0.9850044605908187
2019-02-06,1,0.00013269747788833026,0.0001397851018237403,0.0,0.0,0.9899654711161409
2019-02-08,1,0.00011539924900348227,0.0001201866205103273,0.0,0.0,0.989983551417938
2019-02-12,1,0.00010156677441506929,0.00010397571137730021,0.0,0.0,0.9949231348386532
2019-02-14,1,9.129818587213075e-05,9.171678191952918e-05,0.0,0.0,0.9900183235292658
2019-02-19,1,0.00014779199696676867,0.0001508418249475036,0.0,0.0,0.9899675890207714
2019-02-21,1,0.00011658008665800041,0.00012420926827477099,0.0,0.0,0.9949183626402491
2019-02-25,1,9.038029281141635e-05,0.00010185345962575526,0.0,0.0,0.994940372146419
2019-02-27,1,6.418049896483242e-05,7.949765097673962e-05,0.0,0.0,0.9949623826263955
2019-03-01,-1,-0.0015292197514539065,-0.001416765073985153,0.0,0.0,0.9935686377463517
2019-03-05,-1,-0.001566099624962496,-0.0014282433093309329,0.0,0.0,0.9935447692737418
2019-03-07,-1,-0.0014687317881788176,-0.0013451611011101108,0.0,0.0,0.9936338411938843
2019-03-11,-1,-0.0013713639513951393,-0.0012620788928892888,0.0,0.0,0.9937229290861674
2019-03-13,-1,-0.001273996114611461,-0.0011789966846684668,0.0,0.0,0.9938120329548876
2019-03-15,-1,-0.0005693574857485748,-0.0005593575457545753,0.0,0.0,0.9994359608040078
2019-03-19,-1,-0.0004921050405040504,-0.0004906787578757876,0.0,0.0,0.9953635377033067
2019-03-21,-1,-0.0003913726372637266,-0.00037957245724572485,0.0,0.0,0.9954684882147533
2019-03-25,-1,-0.00032979597959795963,-0.000307545514551455,0.0,0.0,0.9906372437724944
2019-03-27,-1,-0.00024149465946594634,-0.00021210822082208194,0.0,0.0,0.9907190921862608
2019-03-29,1,7.744819910991814e-05,8.585365320787633e-05,0.0,0.0,0.9908452708032793
2019-04-02,1,5.650781914584367e-05,6.798560698370467e-05,0.0,0.0,0.9908627182471859
2019-04-04,1,3.535445809360539e-05,4.981745562856967e-05,0.0,0.0,0.9908803844480523
2019-04-08,1,1.4627059217693663e-05,3.2249514535360434e-05,0.0,0.0,0.9908976149784188
2019-04-10,1,1.8681538348830947e-07,2.1230008543286262e-05,0.0,0.0,0.990907316148345
2019-04-12,0,-2.2132844119672934e-05,2.185048117808925e-06,0.0,0.0,0.9909068988834683
2019-04-16,1,0.000351971142585833,0.00037384267032150196,0.0,0.0,0.9946657004454685
2019-04-18,-1,-6.665066476502061e-05,-3.781352637285409e-05,0.0,0.0,0.9949811903320077
2019-04-23,1,0.00048169636741581564,0.0005420479960262887,0.0,0.0,0.99879679624324
2019-04-25,-1,-0.00010902098770725101,-7.361223691167252e-05,0.0,0.0,0.9991593872127227
2019-04-29,-1,-0.00012958519967218627,-9.115930580839332e-05,0.0,0.0,0.9991403639578521
2019-05-01,-1,-0.00015014941163712136,-0.00010870637470511394,0.0,0.0,0.9991213414273453
2019-05-03,-1,-0.00017071362360205586,-0.00012625344360183414,0.0,0.0,0.9991023196211605
2019-05-07,-1,-0.00019127783556699117,-0.000143800512498555,0.0,0.0,0.9990832985392566
2019-05-09,-1,-0.0002118420475319262,-0.00016134758139527567,0.0,0.0,0.9990642781815923
2019-05-13,1,7.603886172190399e-06,1.4095976915910098e-05,0.0,0.0,0.9992414566960888
2019-05-15,1,0.0005397542480369392,0.0005781951312644612,0.0,0.0,0.9987523221131054
2019-05-17,1,0.00011178723800528287,0.00012893918246915785,0.0,0.0,0.9991441180672873
2019-05-21,1,0.0005928296259956525,0.0006353639613973141,0.0,0.0,0.9993862800897326
2019-05-23,1,0.0001634677947432069,0.000177115249610622,0.0,0.0,0.9998297374720883
2019-05-28,1,0.00012431626039771982,0.00014392422254898334,0.0,0.0,0.9998658977443536
2019-05-30,1,8.422526692095259e-05,0.0001097153053352167,0.0,0.0,0.9991648082863864
2019-06-03,1,4.262108405173974e-05,7.291760965373543e-05,0.0,0.0,0.9992039453053335
2019-06-05,1,3.7890609460054586e-06,3.870161255859218e-05,0.0,0.0,0.9992385202396014
2019-06-07,1,0.00020650480526179403,0.00021353977904716795,0.0,0.0,0.9990519577890182
2019-06-11,1,0.0007246838893160225,0.000909978387941519,0.0,0.0,0.9984461674585877
2019-06-13,1,0.0005520952816507658,0.0006928348819150076,0.0,0.0,0.9977201424779637
2019-06-17,1,0.000469113604555692,0.0005863585384725979,0.0,0.0,0.9978026783480047
2019-06-19,1,0.0004977995708005539,0.0006200116090050753,0.0,0.0,0.9928880510724934
2019-06-21,1,0.001036141126485515,0.0012864266004390895,0.0,0.0,0.9924371061219696
2019-06-25,1,0.0009330585228060571,0.0011497307278179217,0.0,0.0,0.9876240976854739
2019-06-27,1,0.0011136040896445446,0.0013923196660489872,0.0,0.0,0.9833329362354901
2019-07-01,1,0.0012892605080237415,0.001609352488263905,0.0,0.0,0.9831886546460525
2019-07-03,1,0.001365158666163658,0.0016983010084369297,0.0,0.0,0.9831273084627251
2019-07-08,1,0.00029168130648736203,0.0003577825602755586,0.0,0.0,0.9840124892305828
2019-07-10,1,0.00030398114264553193,0.000372197300388527,0.0,0.0,0.9840025304573017
2019-07-12,1,0.000799170399307406,0.0009331372994568614,0.0,0.0,0.984478571271447
2019-07-16,-1,-0.0008949351954288256,-0.0006631123627302984,0.0,0.0,0.9846596964132523
2019-07-18,1,0.0020791206918969584,0.002205053769043842,0.0,0.0,0.9880035744154312
2019-07-22,1,0.0019005277039199537,0.001995752484491605,0.0,0.0,0.9881929324035384
2019-07-24,-1,-0.0013686046656471889,-0.0010672859261212566,0.0,0.0,0.993970555829903
2019-07-26,-1,-0.004681550354639867,-0.003991231089315782,0.0,0.0,0.9956823323718654
2019-07-30,-1,-0.004687330283329504,-0.003996161432794456,0.0,0.0,0.9956770234076524
2019-08-01,-1,-0.004688861234575424,-0.003997469330496314,0.0,0.0,0.9956756162309184
2019-08-05,-1,-0.004692516674543191,-0.004000588451086574,0.0,0.0,0.9956722581944214
2019-08-07,-1,-0.002467646394656817,-0.0021892539866799746,0.0,0.0,0.9976769588948359
2019-08-09,-1,-0.0023790311958203337,-0.0021136402455878404,0.0,0.0,0.997758698993807
2019-08-13,-1,-0.002290415996983852,-0.0020380265044957083,0.0,0.0,0.9978404524878779
2019-08-15,-1,-0.0022018007981473714,-0.0019624127634035758,0.0,0.0,0.9979222193803416
2019-08-19,-1,-0.0021110409589868272,-0.0018848841383239828,0.0,0.0,0.998006021346018
2019-08-21,-1,-0.002022515694384618,-0.0018093471364819431,0.0,0.0,0.9980877323582162
2019-08-23,-1,-0.0019339904297824078,-0.0017338101346399029,0.0,0.0,0.9973959117349935
2019-08-27,-1,-0.0018310914100839763,-0.0016453573583128142,0.0,0.0,0.9974801421622722
2019-08-29,-1,-0.0017432556412778574,-0.0015704086907214925,0.0,0.0,0.9975517493661147
2019-09-03,-1,-0.0016542898930366036,-0.0014944392313055084,0.0,0.0,0.9928420070825448
2019-09-05,-1,-0.0012982057431892915,-0.0011764064178208247,0.0,0.0,0.9883241209099789
2019-09-09,-1,-0.0001562284609634078,-4.067923035044516e-05,0.0,0.0,0.989099627910137
2019-09-11,0,-4.638298749662996e-05,8.802278799291012e-05,0.0,0.0,0.9890974966603178
2019-09-13,-1,-0.0013515169308434614,-0.0012176955651930902,0.0,0.0,0.9882949323736919
2019-09-17,-1,-0.0012832244394232332,-0.0011594228215488027,0.0,0.0,0.9883355740102313
2019-09-19,-1,-0.001214931948003005,-0.0011011500779045153,0.0,0.0,0.9883762189895189
2019-09-23,-1,-0.001670066728500388,-0.0015053539330434085,0.0,0.0,0.9888859508244111
2019-09-25,-1,-0.0015849893095503161,-0.0014327589153292544,0.0,0.0,0.9889453164424745
2019-09-27,-1,-0.001499367260284123,-0.0013596700109420384,0.0,0.0,0.9890050861065435
2019-10-01,-1,-0.0046285832509618385,-0.004132086868753484,0.0,0.0,0.9823829612690977
2019-10-03,-1,-0.0064097944539557965,-0.005704933120542535,0.0,0.0,0.9855009761880544
2019-10-07,-1,-0.006160258017536292,-0.00549200820761315,0.0,0.0,0.9856739285509531
2019-10-09,-1,-0.0059184364890168106,-0.0052859737632764935,0.0,0.0,0.9810058346243761
2019-10-11,-1,-0.0047470681367060355,-0.004267011064948345,0.0,0.0,0.9770255628888397
2019-10-15,-1,-0.004019044822751491,-0.0036219086287575387,0.0,0.0,0.977535133594116
2019-10-17,-1,-0.0035235300957431586,-0.003184380657435563,0.0,0.0,0.9737413809651891
2019-10-21,-1,-0.00333603799829215,-0.0030244431792121676,0.0,0.0,0.9738682164316924
2019-10-23,-1,-0.0031476318852521035,-0.002863679661907727,0.0,0.0,0.9739957294240733
2019-10-25,-1,-0.0029584583381425,-0.002702215180872839,0.0,0.0,0.974123821216392
2019-10-29,-1,-0.006478503067512844,-0.0058190006320993255,0.0,0.0,0.9799150962308095
2019-10-31,-1,-0.006171840654928106,-0.0055574066301517806,0.0,0.0,0.9801880016636922
2019-11-04,-1,-0.00391913357166492,-0.003538686687889981,0.0,0.0,0.9730789930481893
2019-11-06,-1,-0.00133787556968555,-0.0012267021175274095,0.0,0.0,0.9751428612344175
2019-11-08,-1,-0.0005403313717460178,-0.0005223566279582788,0.0,0.0,0.9758292052102008
2019-11-12,-1,-0.00047503804924134446,-0.0004665968945592578,0.0,0.0,0.9758735958848943
2019-11-14,-1,-0.0002852195192019657,-0.000259510985159925,0.0,0.0,0.9801874503727949
2019-11-18,-1,-0.000605861701145595,-0.0005169707951860119,0.0,0.0,0.9799768287410289
2019-11-20,-1,-0.00028396682601333247,-0.0002593956304090033,0.0,0.0,0.9801877690820088
2019-11-22,-1,-0.00026586173451540547,-0.00024394688438181467,0.0,0.0,0.9754455475865915
2019-11-26,-1,-0.0002924114398580395,-0.0002696818492024997,0.0,0.0,0.9706941311385425
2019-11-29,-1,-0.0007098107397973058,-0.000605668623533607,0.0,0.0,0.9704663188431922
2019-12-03,-1,-0.0012226504103828222,-0.0010663595526610229,0.0,0.0,0.979541309053977
2019-12-05,1,1.336228402731981e-05,2.631444099916231e-05,0.0,0.0,0.9852056016497264
2019-12-09,-1,-0.0003292876804923483,-0.0002736422070988354,0.0,0.0,0.9898385609306997
2019-12-11,1,4.087773010958757e-05,6.252306157560574e-05,0.0,0.0,0.9851786125516672
2019-12-13,1,5.2883938061713066e-05,7.991309278907005e-05,0.0,0.0,0.9755724237804048
2019-12-17,-1,-0.0003137570369690259,-0.00026033485403678365,0.0,0.0,0.9754008636218926
2019-12-19,-1,-0.00042406999550887657,-0.0003205975675366362,0.0,0.0,0.9753449744651822
2019-12-23,0,-5.4825579641116834e-05,3.041261352579246e-05,0.0,0.0,0.9756023084338274
2019-12-26,-1,-0.0004248927248745052,-0.00033122119127530433,0.0,0.0,0.9801185910853681
2019-12-30,-1,-0.00045808213771820756,-0.00035954111497591513,0.0,0.0,0.9800958427854062
2020-01-02,-1,-0.0004909572592403232,-0.00038761290408767014,0.0,0.0,0.9759384704097198
2020-01-06,-1,-0.000500638645364851,-0.00039727697723236616,0.0,0.0,0.971241953854028
2020-01-08,-1,-0.0005023525165916316,-0.0004004231579639352,-0.024795059378182646,0.0,0.9682133962966624
2020-01-10,-1,-0.0015234240659517846,-0.001290418162692019,-0.004098353772812271,0.0,0.9724730267970851
2020-01-14,-1,-0.00020987728701665035,-0.0001292608348109522,-0.004098353772812271,0.0,0.9825618521558283
2020-01-16,-1,-0.0002626544590221543,-0.00017429463795078375,-0.004098353772812271,0.0,0.9825411961514154
2020-01-21,-1,-0.00031578859290256456,-0.0002195766413484864,-0.004098353772812271,0.0,0.982520436412148
2020-01-23,1,0.0004878530753053989,0.0004919807053467081,0.0,0.0,0.9869869829250701
2020-01-27,1,0.00040766081105860337,0.00042355410149133425,0.0,0.0,0.9870593762722146
2020-01-29,1,0.0003280248104981749,0.0003557307391684015,0.0,0.0,0.9823186659170069
2020-01-31,1,3.717212712210329e-05,9.197910246859826e-05,0.0,0.0,0.9819591444278521
2020-02-04,-1,-0.0002960054953957175,-0.0002893082430072651,0.0,0.0,0.986657691970879
2020-02-06,1,0.0007692704499594923,0.0007950985576911885,0.0,0.0,0.9845413391162842
2020-02-10,1,0.0012883902891962498,0.0013823193095221073,0.0,0.0,0.9840655903385568
2020-02-12,1,0.0011899754840272872,0.0012669825016544092,0.0,0.0,0.9841571073906361
2020-02-14,1,0.0011627766557649741,0.0012399049398226177,0.0,0.0,0.9841807763057786
2020-02-19,1,0.0010680623027488057,0.0011289048609484653,0.0,0.0,0.9842688725779607
2020-02-21,1,0.0009733243219572853,0.001017881133965363,0.0,0.0,0.9843570052347522
2020-02-25,1,0.001288085318131868,0.001408006217354318,0.0,0.0,0.9840570466574622
2020-02-27,1,0.0009479742314961832,0.0010611822088910092,0.0,0.0,0.9891152043647851
2020-03-02,1,0.0016122143950902021,0.0018114218562569773,0.0,0.0,0.9933329300353603
2020-03-04,1,0.0015548892878751992,0.0017440973568781824,0.0,0.0,0.9933944303687767
2020-03-06,1,0.00219854390559126,0.0024701602924463864,0.0,0.0,0.9976710844099771
2020-03-10,1,0.002116472186280947,0.0023739766937976494,0.0,0.0,0.997759805299852
2020-03-12,1,0.0020331631883692075,0.002276407790524019,0.0,0.0,0.9978498476276854
2020-03-16,1,0.0019511413834190049,0.0021802826887950474,0.0,0.0,0.9979385463335437
2020-03-18,1,0.0018713944779097007,0.002086694208278018,0.0,0.0,0.99802486453757
2020-03-20,1,0.0017860102376900686,0.0019868226711292286,0.0,0.0,0.9981171354123299
2020-03-24,1,0.0035547273988979326,0.004094707707632776,0.0,0.0,0.9961898551745292
2020-03-26,1,0.0034938234878222835,0.00402345296339671,0.0,0.0,0.9962554362348963
2020-03-30,1,0.0034419066184570475,0.00396254854522457,0.0,0.0,0.9913728478594691
2020-04-01,1,0.0028349476444101914,0.0032109420405654317,0.0,0.0,0.9920409104936183
2020-04-03,1,0.002321128628101702,0.0025599842576054565,0.0,0.0,0.983117304793307
2020-04-07,1,0.002172691630955633,0.0023878357652401066,0.0,0.0,0.9832544656408719
2020-04-09,1,0.0016024157250837895,0.0016745442933116862,0.0,0.0,0.9837993635199817
2020-04-14,1,0.0014455433663989477,0.0014906984068891796,0.0,0.0,0.9839451700477692
2020-04-16,1,0.0012896801261978712,0.0013078758681565649,0.0,0.0,0.9840901354397865
2020-04-20,1,0.0011238860103065834,0.0011326849193065743,0.0,0.0,0.9842378471829802
2020-04-22,1,0.0009398961524566008,0.0009756897124152766,0.0,0.0,0.9843891296779099
2020-04-24,1,0.0007556105779833826,0.000818374218674869,0.0,0.0,0.9845407250012332
2020-04-28,-1,-0.0021135179457970016,-0.0019739081807321917,0.0,0.0,0.9883128245198687
2020-04-30,-1,-0.0012823637738830717,-0.001242666141150397,0.0,0.0,0.9889902698510672
2020-05-04,-1,-0.0017891975399666087,-0.0017068942465872205,0.0,0.0,0.9932971850098905
2020-05-06,-1,-0.0018670583593909985,-0.0018036319241275052,0.0,0.0,0.9883030918038339
2020-05-08,-1,-0.0016432722388915032,-0.0016125833797283754,0.0,0.0,0.9885057267700287
2020-05-12,-1,-0.0016023792238573679,-0.0016001102792893764,0.0,0.0,0.9835011635421744
2020-05-14,-1,-0.0013931993053663764,-0.0013539487277655473,0.0,0.0,0.9790042601346568
2020-05-18,-1,-0.002363318812104602,-0.0022207988439284006,0.0,0.0,0.9738783644958556
2020-05-20,-1,-0.001177557482404876,-0.0010551325534579685,0.0,0.0,0.9698158229670506
2020-05-22,-1,-0.0009986027742671113,-0.0008202965351636964,0.0,0.0,0.969950301973213
2020-05-27,-1,-0.0007286559723920029,-0.0005039335411109678,0.0,0.0,0.970130525558023
2020-05-29,-1,-0.0004882232464828104,-0.0001996246732878772,-0.002475243416379945,0.0,0.9610273703891204
2020-06-02,1,0.0019111230777865732,0.002546194492933994,-0.002475243416379945,0.0,0.9644274379664294
2020-06-04,1,0.002928008726344237,0.0035578479667309256,-0.002475243416379945,0.0,0.968082275676167
2020-06-08,1,0.005270096064082377,0.006465220117304139,-0.002475243416379945,0.0,0.9662183675172885
2020-06-10,1,0.0032897772870250737,0.004234124049948891,0.0,0.0,0.9729229400089906
2020-06-12,1,0.0015485675391450127,0.0022751642694631923,0.0,0.0,0.9790562041831612
2020-06-16,-1,-0.0012888248252470743,-0.0010214399854605754,0.0,0.0,0.9842394904776115
2020-06-18,1,0.0012481814874217188,0.0018650666712288452,0.0,0.0,0.988787864316136
2020-06-22,1,0.0015584292668989733,0.0022286602227429126,0.0,0.0,0.9884966986659317
2020-06-24,1,0.0008202311535717456,0.001282984740671069,0.0,0.0,0.9843486867753694
2020-06-26,0,-0.0001380408146697972,8.479784469160026e-05,0.0,0.0,0.990026272291904
2020-06-30,-1,-0.0006976440587666955,-0.0006463356046741678,0.0,0.0,0.9895115143783978
2020-07-02,-1,-0.0005655555181464886,-0.0004915350072957353,0.0,0.0,0.9896401610989857
2020-07-07,-1,-0.0004078195406788248,-0.0003168084786837431,0.0,0.0,0.9849571367324137
2020-07-09,-1,-0.0002835449061386988,-0.0001711653549466723,0.0,0.0,0.9850658198621932
2020-07-13,-1,-0.00015927027159857153,-2.5522231209600392e-05,0.0,0.0,0.9851705993597396
2020-07-15,0,-3.4995637058445235e-05,0.00012012089252747086,0.0,0.0,0.9851766231367239
2020-07-17,1,8.931891914122609e-05,0.0002658829167798129,0.0,0.0,0.9802877595769718
2020-07-21,1,0.0011126386303595699,0.0015136871178050982,0.0,0.0,0.9794563514577656
2020-07-23,-1,-0.0015987758376276133,-0.001580192068160843,0.0,0.0,0.9790208776595097
2020-07-27,1,0.0005833593560866596,0.0008377318541122584,0.0,0.0,0.9837482449466542
2020-07-29,-1,-0.00030038546105406495,-0.00027134870939867785,0.0,0.0,0.9792474825992686
2020-07-31,-1,-0.0002383229626540033,-0.00019855818730288064,0.0,0.0,0.9745237724538187
2020-08-04,-1,-0.002323488202076551,-0.0021239287068151535,0.0,0.0,0.9777645069531279
2020-08-06,-1,-0.0021737713296018156,-0.0019961780164023477,0.0,0.0,0.977866644835619
2020-08-10,-1,-0.00202405445712708,-0.0018684273259895426,0.0,0.0,0.9779688040591117
2020-08-12,-1,-0.0018743375846523437,-0.001740676635576737,0.0,0.0,0.9780709846302948
2020-08-14,1,0.0003523315334349747,0.0004996417982828885,0.0,0.0,0.9839489623529197
2020-08-18,1,0.00041931210256448737,0.0005781582672096,0.0,0.0,0.9838947359804485
2020-08-20,1,0.0024508340975908545,0.002880058611576611,0.0,0.0,0.9868200534790429
2020-08-24,1,0.001960805150765208,0.0023203114944859004,0.0,0.0,0.9833900002068433
2020-08-26,1,0.00013837963345151422,0.00025446731376862564,0.0,0.0,0.985061374472699
2020-08-28,1,0.001978881817017108,0.002340391007920643,0.0,0.0,0.9879864440597849
2020-09-01,1,0.002112497623779932,0.0024982307895225035,0.0,0.0,0.9833112133168584
2020-09-03,1,0.002129849440596283,0.0025185661766511675,0.0,0.0,0.9832929937579489
2020-09-08,1,0.002147201257412633,0.0025389015637798324,0.0,0.0,0.9832747748741989
2020-09-10,1,0.0021645530742289854,0.002559236950908499,0.0,0.0,0.9832565566655713
2020-09-14,1,0.0021833996373470674,0.002581339523111113,0.0,0.0,0.983236762386032
2020-09-16,1,0.002198754493456236,0.002599314015961727,0.0,0.0,0.9832206520004463
2020-09-18,1,0.0011129268320323193,0.0012549513323983424,0.0,0.0,0.9843967173223344
2020-09-22,-1,-0.0007415706008756213,-0.0006507246203121892,0.0,0.0,0.9898967473190536
2020-09-24,-1,-0.0028331954110901287,-0.0024991809323422066,0.0,0.0,0.9881102346019136
2020-09-28,-1,-0.0026019312183809557,-0.002297543012168262,0.0,0.0,0.9882975786148319
2020-09-30,-1,-0.004324487024273639,-0.0038228862345559157,0.0,0.0,0.991007904824351
2020-10-02,-1,-0.00418373002144946,-0.0037027808383237027,0.0,0.0,0.9911360174303598
2020-10-06,-1,-0.004044964611741749,-0.003584440293348367,0.0,0.0,0.991262317617779
2020-10-08,-1,-0.00390413826742391,-0.0034642757292779325,0.0,0.0,0.9913905591679746
2020-10-12,-1,-0.003763311923106071,-0.003344111165207498,0.0,0.0,0.9915188339041849
2020-10-14,-1,-0.003622485578788231,-0.003223946601137064,0.0,0.0,0.9916471418392938
2020-10-16,-1,-0.0034790878932721334,-0.003101489766780077,0.0,0.0,0.9917778749613411
2020-10-20,-1,-0.003340832890152555,-0.002983617472996197,0.0,0.0,0.9919038573577738
2020-10-22,-1,-0.00015320844766393365,-1.5193609508918965e-05,0.0,0.0,0.9999029995841999
2020-10-26,1,0.0009282697844475514,0.0013071457985996322,0.0,0.0,0.9988835400844229
2020-10-28,1,0.0010973773334773697,0.0015053306637522253,0.0,0.0,0.9939069298333834
2020-10-30,1,0.0001881888190747323,0.00034315463274018704,0.0,0.0,0.9898798564087467
2020-11-03,-1,-0.00043074423580200227,-0.00041328581726500713,0.0,0.0,0.9848548356799427
2020-11-05,-1,-0.0011948548197378123,-0.0010248717246485897,0.0,0.0,0.9826168235147823
2020-11-09,-1,-0.00020702544139087204,-0.0002004451992084607,0.0,0.0,0.9737524649272121
2020-11-11,-1,-0.0002421690805369073,-0.00023833014924252681,0.0,0.0,0.9690130270497087
