JNU-Tangyin/eata/results/Batch4_SP500/Batch4_SP500-DLTR.csv
Date,Action,Predicted_Q25,Predicted_Q75,Actual_Q25,Actual_Q75,RL_Reward
2010-12-14,0,0.0,0.0,-0.013231350452347669,0.007298901830598397,0.9886080073782564
2010-12-16,1,0.004016865987500224,0.004239946317601065,-0.013231350452347669,0.004244674542684556,0.9874398849205398
2010-12-20,1,0.0028934889550317655,0.0029193768918425586,-0.009439329214645619,0.007298901830598397,0.9871903337743686
2010-12-22,1,0.002748529015677548,0.002789935951869049,-0.009439329214645619,0.007298901830598397,0.9874468327289935
2010-12-27,1,0.0022703569407380286,0.0023568386504643516,-0.009439329214645619,0.007225636151765864,0.9873098173091522
2010-12-29,1,0.0007290828960188898,0.0010725512464458934,-0.00751629855010579,0.0056451322074393085,0.988232984539374
2010-12-31,1,0.00022931002022129007,0.0006123852273943815,-0.009651785715333112,0.0056451322074393085,0.9875012195556607
2011-01-04,-1,-0.001423177640636386,-0.0008296304476944362,-0.009651785715333112,0.0056451322074393085,0.9877951797201564
2011-01-06,-1,-0.005174956074119042,-0.004105485208437334,-0.0074773139959059326,0.00830537820550613,0.9903827078700715
2011-01-10,-1,-0.004612656152732392,-0.0035878037855280346,-0.0074773139959059326,0.0041074119262050485,0.9916169761487941
2011-01-12,-1,-0.004463609531552182,-0.003601758225828727,-0.00482033662130115,0.0041074119262050485,0.9922375230518315
2011-01-14,0,0.0,0.0,-0.004213089259741075,0.0056451322074393085,0.9914121788459466
2011-01-19,-1,-0.002609800689653566,-0.0020945608259781423,-0.004213089259741075,0.00834963559835238,0.9910330102246077
2011-01-21,-1,-0.003747450608500087,-0.0029786444980774616,-0.004213089259741075,0.00834963559835238,0.9905654912986079
2011-01-25,0,0.0,0.0,-0.0074773139959059326,0.0075847032961009865,0.98763584359017
2011-01-27,0,0.0,0.0,-0.005193988864544953,0.009229531639657241,0.9859782859144766
2011-01-31,0,0.0,0.0,-0.003658999378807659,0.009229531639657241,0.986976586930139
2011-02-02,0,0.0,0.0,-0.0031175212073201995,0.009229531639657241,0.9880514104809781
2011-02-04,-1,-0.0010818473432133802,-0.0010157091929166393,-0.0031175212073201995,0.010398819032618023,0.9868845078213674
2011-02-08,-1,-0.0020126243626829585,-0.0018781269862509801,-0.0031175212073201995,0.013652492098351354,0.9855374951204107
2011-02-10,-1,-0.0018435810885463152,-0.0017379048487120444,-0.0031175212073201995,0.016216277526133506,0.9841552212909905
2011-02-14,0,0.0,0.0,-0.003658999378807659,0.013652492098351354,0.9843785371268206
2011-02-16,0,0.0,0.0,-0.004518095904657324,0.011544778580006056,0.9857254568051006
2011-02-18,0,0.0,0.0,-0.006739142619952291,0.013121090299287328,0.9851017116177128
2011-02-23,0,0.0,0.0,-0.003658999378807659,0.013121090299287328,0.9884424689580367
2011-02-25,-1,-0.004399977571403652,-0.0036687840757688287,-0.0032227140757012055,0.013121090299287328,0.9882064570776576
2011-03-01,-1,-0.004195191864552005,-0.0035351673308566087,-0.0008582420150927995,0.013121090299287328,0.9879510716639633
2011-03-03,-1,-0.003189008943593009,-0.0026373513870134543,-0.005740001014866157,0.013121090299287328,0.9883258368857729
2011-03-07,0,0.0,0.0,-0.005740001014866157,0.014696678921138925,0.9896758664037418
2011-03-09,-1,-0.0014743183953174334,-0.0012036565169266113,-0.005740001014866157,0.01160802146138093,0.9900992833252414
2011-03-11,-1,-0.0004520994849342421,-0.0003158603322609405,-0.006286386139085989,0.010030805570709754,0.9906751021571593
2011-03-15,-1,-0.00021253106020463925,-0.0001298053912653331,-0.005740001014866157,0.007541196546923774,0.9914050731165143
2011-03-17,-1,-8.717847684008186e-05,-3.428478027302253e-05,-0.002872329438425791,0.009526889610118808,0.9914310491023609
2011-03-21,-1,-8.31073924571891e-05,-2.216433838076701e-05,-0.0018181600420659107,0.009150920374795073,0.9920223490908158
2011-03-23,1,0.00011764782891531759,0.00016186779692232652,-0.002872329438425791,0.009150920374795073,0.9909011099116726
2011-03-25,1,0.0007134164739198818,0.0007463620740149452,-0.005877737487174883,0.007378678568350774,0.9912289815089725
2011-03-29,1,0.0008831506721087828,0.0009715185076903364,-0.004562053939254919,0.009150920374795073,0.9907332713043906
2011-03-31,1,0.001114331375914834,0.001242113282348631,-0.004562053939254919,0.007378678568350774,0.9916385533936218
2011-04-04,1,0.00139339045343967,0.0015489793898016474,-0.0024337682557858033,0.009043663353087695,0.992156195470046
2011-04-06,1,0.0019571370576395865,0.0022327483439010254,-0.0051738597865022915,0.009043663353087695,0.9917566199246591
2011-04-08,1,0.0011979211588193954,0.0013477563332879728,-0.0024337682557858033,0.009150920374795073,0.9920654156258648
2011-04-12,1,0.0015199471107942742,0.0017448470798503072,-0.003928648163868134,0.010205706670477266,0.9914733502097116
2011-04-14,1,0.001333594657178491,0.0014951130689761216,-0.005115708513559872,0.013353985306318839,0.9901775025147183
2011-04-18,1,0.001884154387575804,0.002159060461132907,-0.008260392254383712,0.013353985306318839,0.9898737940551987
2011-04-20,1,0.0028860908132332915,0.0033489674259939506,-0.005115708513559872,0.016377072582502105,0.9894261448645276
2011-04-25,1,0.0019338723261535609,0.002216868884239771,-0.00630916397256067,0.016377072582502105,0.9894477563808011
2011-04-27,1,0.002738539276422662,0.0031595118718848437,-0.00630916397256067,0.013353985306318839,0.9895037583994296
2011-04-29,1,0.0022100532571709586,0.002531043084853913,-0.004705972962101439,0.016377072582502105,0.9894399280915678
2011-05-03,1,0.003215298143661824,0.003722829617391503,-0.00630916397256067,0.016377072582502105,0.9889061419283741
2011-05-05,1,0.002841572452260204,0.0032905929095816584,-0.006346075265673549,0.016377072582502105,0.9886317166479501
2011-05-09,1,0.002962067236568296,0.003402841127070879,-0.006346075265673549,0.01698003647989576,0.9884229767215008
2011-05-11,1,0.0035408371314465436,0.004092705526621522,-0.008271270410881463,0.01043926509294839,0.9886344187721887
2011-05-13,1,0.003888471389498446,0.004467115286033212,-0.009365622517053213,0.008679056326308419,0.9893868329545893
2011-05-17,1,0.00341384395265694,0.00391838516138663,-0.007049699783820101,0.010576696393982255,0.9895153780020387
2011-05-19,1,0.004660877399956019,0.005345494085186824,-0.007049699783820101,0.006165241662491817,0.9905539041639956
2011-05-23,1,0.004198810736462684,0.00481036425449371,-0.005938885056653095,0.010576696393982255,0.9901737919293251
2011-05-25,1,0.0038428584857989933,0.004389779979949641,-0.005938885056653095,0.010576696393982255,0.9903476855199228
2011-05-27,0,0.0,0.0,-0.0072249907298806496,0.010576696393982255,0.9901327761523585
2011-06-01,0,0.0,0.0,-0.005938885056653095,0.012280314741539866,0.9905595820811365
2011-06-03,0,0.0,0.0,-0.0038744301085134264,0.01286662077883939,0.9897894380307676
2011-06-07,0,0.0,0.0013970734256190905,-0.0038744301085134264,0.01286662077883939,0.9905657377507674
2011-06-09,1,0.0011574249814914218,0.0012234962868477761,-0.00346544396976887,0.01286662077883939,0.9902202421359498
2011-06-13,1,0.0009724056815218595,0.0011292572984862622,-0.004072841752519352,0.01286662077883939,0.9906692286556181
2011-06-15,1,0.0010558519084404323,0.0012076546914264084,-0.003784686527644907,0.01286662077883939,0.9912678401401391
2011-06-17,1,0.0009305194642627351,0.0010964627134621284,-0.004072841752519352,0.01286662077883939,0.9903608340431818
2011-06-21,0,0.0,0.0,-0.004961739147053569,0.010607984269589515,0.9911808808830537
2011-06-23,0,0.0,0.0,-0.004961739147053569,0.010258418547418671,0.9916481907576168
2011-06-27,0,0.0,0.0,-0.004961739147053569,0.005947955570618699,0.9916393677838155
2011-06-29,0,0.0,0.0,-0.0057967711051928215,0.0032715702464139987,0.9919497949819197
2011-07-01,0,0.0,0.0,-0.004961739147053569,0.0032715702464139987,0.9930312720690759
2011-07-06,0,0.0,0.0,-0.0057967711051928215,0.001239042600262513,0.9917233446623096
2011-07-08,0,0.0,0.0,-0.007277603654004773,-0.0001431491705953534,0.9899271117806328
2011-07-12,0,0.0,0.0,-0.013030987181329976,0.001239042600262513,0.9859409268569294
2011-07-14,0,0.0,0.0,-0.018673989154564405,0.003589578250812489,0.9834559795914125
2011-07-18,0,0.0,0.0,-0.013108452360220655,0.018152096880376695,0.9825811760290757
2011-07-20,0,0.0,0.0,-0.019627996011554388,0.018152096880376695,0.980638080440145
2011-07-22,1,0.0017592609088761283,0.0019493719056042722,-0.019627996011554388,0.018152096880376695,0.9792041627637895
2011-07-26,1,0.0012189558152940552,0.0014443830488540016,-0.0159416664381013,0.019763550159650024,0.9795173947428736
2011-07-28,1,0.00034916557440973486,0.0007067117895769039,-0.0159416664381013,0.021025657735254343,0.9786079879943602
2011-08-01,1,0.000683122720737782,0.0009801842197766772,-0.0159416664381013,0.024287385796048205,0.9748736087220266
2011-08-03,1,0.0007780567902160381,0.0010020678002251402,-0.0159416664381013,0.024287385796048205,0.9753916226535391
2011-08-05,-1,-0.001196700102910595,-0.0007326685820987918,-0.011050501059178345,0.024287385796048205,0.9772260287994522
2011-08-09,1,0.0007347318179355229,0.0010040304423661198,-0.008676878199479637,0.02333770213786812,0.9809010655174114
2011-08-11,1,0.000485386847384146,0.0007688678254594958,-0.010296121260033425,0.021025657735254343,0.9823663467944131
2011-08-15,1,0.001969031508103984,0.0020769161277010757,-0.010296121260033425,0.021565269969674866,0.9828777820412358
2011-08-17,1,0.0015464844733966614,0.0016694767137277763,-0.008676878199479637,0.021790949617170707,0.9841241306802699
2011-08-19,1,0.0017445977100958316,0.0018602088671918339,-0.006760372739521877,0.021790949617170707,0.9849785613816363
2011-08-23,1,0.0026311340080160824,0.0026385403653690093,-0.007883761580209727,0.015478696198088109,0.9856123837085917
2011-08-25,1,0.0033887928810402506,0.003497023605682893,-0.007883761580209727,0.015478696198088109,0.985275816211405
2011-08-29,1,0.00707083451507749,0.00766746142017551,-0.008699134727813142,0.010851810846756448,0.9863994172271621
2011-08-31,1,0.005508413765147236,0.00584400108462039,-0.008699134727813142,0.01182569784330938,0.9876326267814237
2011-09-02,1,0.004408838596194821,0.004594322382074203,-0.011355317538394066,0.01182569784330938,0.9868983231928363
2011-09-07,1,0.005060173422459585,0.005329818561880883,-0.011355317538394066,0.019177663600467604,0.9862085568040445
2011-09-09,1,0.003933109962803005,0.004056619340020138,-0.003360963366781182,0.019177663600467604,0.9869070289624773
2011-09-13,1,0.004819224353176347,0.005075626468394781,-0.003360963366781182,0.019177663600467604,0.9867436702681799
2011-09-15,1,0.006018490943303499,0.006380592538793261,-0.008086020417255459,0.016783082525751017,0.9873269091350934
2011-09-19,1,0.006414615403792327,0.0068551192863462555,-0.008086020417255459,0.016783082525751017,0.986824960024174
2011-09-21,1,0.005590570525783986,0.0058848552640040075,-0.0055515628601823025,0.016783082525751017,0.9873626215490284
2011-09-23,1,0.00561616749863272,0.005938737947959503,-0.003550981150947272,0.01310168403093227,0.9886783055534213
2011-09-27,1,0.005014221692798904,0.005215287885147745,-0.003550981150947272,0.01310168403093227,0.9894493563625685
2011-09-29,1,0.00484269196219892,0.005010975200211703,-0.003550981150947272,0.01310168403093227,0.989492749752543
2011-10-03,1,0.003913207053988493,0.003964822198015583,-0.003550981150947272,0.014387370563731437,0.9899956401957352
2011-10-05,1,0.005477844825340789,0.005802944040557159,-0.007132156448141869,0.012105914849033242,0.9897821707363188
2011-10-07,1,0.005356221168814413,0.005630137835514835,-0.007132156448141869,0.009510008881245608,0.9901853997747205
2011-10-11,1,0.008621711660275005,0.009372518344520513,-0.007132156448141869,0.005061964801836205,0.988666331395292
2011-10-13,1,0.007353753681780654,0.007885675224934767,-0.008431945197580889,0.005061964801836205,0.9886683657474696
2011-10-17,1,0.00696500945041813,0.0074108865013515,-0.008431945197580889,0.005211892074517194,0.9893542328211052
2011-10-19,1,0.007153698833975673,0.00767347480804571,-0.009607874129819225,0.005211892074517194,0.9871013363466631
2011-10-21,1,0.006331189679635749,0.006700971999593556,-0.009607874129819225,0.005211892074517194,0.9876727118037896
2011-10-25,1,0.006030050234495606,0.006300681766825678,-0.009607874129819225,0.005211892074517194,0.9881538456247693
2011-10-27,1,0.005012696073072505,0.005192020442303507,-0.00883271135525029,0.005211892074517194,0.9891909666913004
2011-10-31,1,0.004630510045369359,0.004707385754898745,-0.007265745167365003,0.007839304510821918,0.9890112618263046
2011-11-02,1,0.0032132295782838632,0.0032932001634701736,-0.005722772151912167,0.009051898584764694,0.989506043010828
2011-11-04,1,0.003215224127843328,0.0033024428636911347,-0.005722772151912167,0.011291511655132785,0.9887981070384795
2011-11-08,1,0.0028990850780301705,0.00303831680873573,-0.007049330341502884,0.008246496203603546,0.9887574482088658
2011-11-10,1,0.0025593144411915603,0.002658733556526579,-0.004604965227716225,0.008246496203603546,0.9901165093410383
2011-11-14,1,0.0028840990239130874,0.0029438284445960613,-0.006302211097650194,0.007046763772382422,0.989427815060197
2011-11-16,1,0.0010550647355151636,0.0013407812307551189,-0.0040915697942868895,0.008543546546057088,0.9909037544088767
2011-11-18,1,0.0010074946032748435,0.001278595440301242,-0.00468624709367934,0.00971932398659265,0.9899068651353855
2011-11-22,1,0.0025122747658707003,0.002586896878291726,-0.00468624709367934,0.00971932398659265,0.9902653827877417
2011-11-25,1,0.0024460049519727084,0.0025006816175350147,-0.0047620247973621885,0.011591353129759499,0.9891718370730178
2011-11-29,1,0.0036574922178977862,0.003748551253930204,-0.0055450742586897585,0.011591353129759499,0.990154595451015
2011-12-01,1,0.00442436999544751,0.00457793511811267,-0.0072330660905366015,0.00971932398659265,0.9903089837069395
2011-12-05,1,0.004546937583859605,0.004691170788415048,-0.008472356317317143,0.006618840259831097,0.9907348461201311
2011-12-07,1,0.003129955144995165,0.003220145766795208,-0.00602092939800332,0.006618840259831097,0.9916383483080967
2011-12-09,1,0.003083657099666329,0.0031692148129011527,-0.006821462495094708,0.008279581768763708,0.9911085996922622
2011-12-13,1,0.0021500004110739236,0.0023501904082814233,-0.006821462495094708,0.00971932398659265,0.9913475472294413
2011-12-15,1,0.0013197352604786574,0.0016765110122031765,-0.006821462495094708,0.009810865341262982,0.9913195379475324
2011-12-19,1,0.00017340629611497637,0.0007045375171766902,-0.005567439837121734,0.011865977193770494,0.9915759041351018
2011-12-21,1,0.00045937396113380417,0.0009584146151599756,-0.006821462495094708,0.012113716556426521,0.9908601937387884
2011-12-23,1,1.1586189370361684e-05,0.0006017592253213695,-0.006636897920173255,0.008951906805544405,0.9920205723718795
2011-12-28,-1,-0.001439871871440429,-0.0005486564221576923,-0.007628237452975107,0.008923453997929433,0.9913972220125169
2011-12-30,-1,-0.0015098411629527087,-0.0006682526059117225,-0.006636897920173255,0.008923453997929433,0.9917333670266668
2012-01-04,-1,-0.0018860210384258934,-0.0010352316521928069,-0.005567439837121734,0.010711501601414397,0.9913373961151473
2012-01-06,-1,-0.0012953455023781845,-0.0005805435303848239,-0.004904767197372763,0.010711501601414397,0.9915567082636844
2012-01-10,-1,-0.002308508632051384,-0.0014317032906535484,-0.005173692183332896,0.010711501601414397,0.991595365223872
2012-01-12,-1,-0.002000000164754901,-0.001384170938974998,-0.003183102416978784,0.010711501601414397,0.9914336811745731
2012-01-17,-1,-0.001145974005023543,-0.0006682756247442484,-0.002516652359752663,0.010281761216221253,0.991411282929611
2012-01-19,0,-8.442529652389133e-05,0.00024132275032703746,-0.005173692183332896,0.009231412713420498,0.9922670889813184
2012-01-23,1,0.002005705700936458,0.0021213905845439618,-0.005173692183332896,0.009231412713420498,0.9923671542297152
2012-01-25,1,0.0006230956352453577,0.0007817673475185898,-0.0051591593464512505,0.009231412713420498,0.9919608007406666
2012-01-27,0,-3.940312871767034e-05,0.0002097977702199674,-0.003148300718095378,0.008232567849016341,0.992971200056749
2012-01-31,1,1.6098570405135974e-05,0.0002548604930167484,-0.003148300718095378,0.008232567849016341,0.993182702374449
2012-02-02,0,-0.00019809460986733155,0.00012182013559633074,-0.003148300718095378,0.008232567849016341,0.9925814441272912
2012-02-06,1,0.00017861361978397197,0.000397107719802679,-0.003890428112787318,0.009231412713420498,0.9917044085840663
2012-02-08,1,0.0007966139514435731,0.0008606438842328052,-0.0018382398174075832,0.010091103056496091,0.9916828885185243
2012-02-10,0,0.0,0.0,-0.0018382398174075832,0.009178478272617615,0.9920555930395488
2012-02-14,1,0.001987122966253503,0.002102906266841021,-0.0018382398174075832,0.007297343403196015,0.9930075763316437
2012-02-16,0,0.0,0.0,-0.002526096948543835,0.007297343403196015,0.9925950517713527
2012-02-21,0,0.0,0.0,-0.0017718086979641727,0.006718044924859583,0.9937482672764401
2012-02-23,0,0.0,0.0,-0.0004703108238418878,0.006107221775516119,0.99406402306958
2012-02-27,0,0.0,0.0,-0.0004703108238418878,0.0062208276993485755,0.9938058629062806
2012-02-29,1,0.0014507822235786505,0.0016416125856513171,-0.0019455220418613404,0.0062208276993485755,0.9937971598725821
2012-03-02,1,0.0022475289973758585,0.002542992717879668,-0.0019455220418613404,0.005785197367388007,0.9950807438343492
2012-03-06,1,0.0024367537346872917,0.002854107970802864,-0.001632765070378052,0.005785197367388007,0.9959208725099618
2012-03-08,1,0.002448051915603007,0.002789937300588553,-0.0019455220418613404,0.005785197367388007,0.9948055322089028
2012-03-12,1,0.004072107151460556,0.004494344391298878,-0.004093238182822474,0.005435837099249642,0.9930657800403758
2012-03-14,1,0.004398673650859989,0.004874008089841348,-0.004093238182822474,0.006379652206054437,0.992398299409664
2012-03-16,1,0.0036641261662619766,0.004020484363728925,-0.0021197550186872996,0.006379652206054437,0.9930627309164382
2012-03-20,1,0.0041870698251142095,0.004639029170058821,-0.0021197550186872996,0.009089386440474759,0.9924833215305062
2012-03-22,0,0.0,0.0,-0.0021197550186872996,0.011420093708610782,0.9916967436467677
2012-03-26,0,0.0,0.0,-0.0071304941782884355,0.009109840552221018,0.991022849878898
2012-03-28,0,0.0,0.0,-0.002846697584899738,0.011671787711276024,0.9900476604282554
2012-03-30,1,0.0020322767272196447,0.0021471032861256263,-0.0037908171072264757,0.012822735443025706,0.9895951819568531
2012-04-03,1,0.0025429826181305043,0.002737949566457368,-0.0037908171072264757,0.015125636023960302,0.9893277926289922
2012-04-05,1,0.0021504726785388285,0.0022384131975406703,-0.005267402344683933,0.012822735443025706,0.9894548898803541
2012-04-10,1,0.0011997054417614563,0.0012097696856924092,-0.003336660942942768,0.012822735443025706,0.9897840289054514
2012-04-12,1,0.0012402881358041852,0.0013376272106197964,-0.003336660942942768,0.011141337359334267,0.9908449967344819
2012-04-16,1,0.0012125188549068308,0.0013236450630134382,-0.005267402344683933,0.011141337359334267,0.9894247961097654
2012-04-18,1,0.002106602764747767,0.002118525164092962,-0.005267402344683933,0.011141337359334267,0.9897302031779298
2012-04-20,1,0.002111389478084243,0.0021146475836234494,-0.008010808618051524,0.009972037506990555,0.9871950685975187
2012-04-24,1,0.0018683152243519148,0.0019242755159954944,-0.003336660942942768,0.012953539848271549,0.9874843938386246
2012-04-26,1,0.002993820260540962,0.0032340016405931543,-0.003336660942942768,0.012953539848271549,0.9875882354587402
2012-04-30,1,0.003633585930868999,0.003970471247893282,-0.0012033115451000565,0.012474178558848737,0.988589783960892
2012-05-02,1,0.003916644623490251,0.004244901442646977,-0.0012033115451000565,0.010323804960618362,0.9891819782141689
2012-05-04,1,0.0029925690551904326,0.003202935867965113,0.0004730778123680082,0.012474178558848737,0.9877704268238596
2012-05-08,1,0.0023489363000087186,0.002442125708406884,0.0004730778123680082,0.012953539848271549,0.986439722740523
2012-05-10,1,0.002535079267497045,0.0026579670072695775,0.0002146859142889965,0.01499424047017538,0.985710798366069
2012-05-14,1,0.0016279081416028633,0.0016493860010061148,0.0002146859142889965,0.01499424047017538,0.9859903369809714
2012-05-16,1,0.0022574997974533183,0.002341564482859689,-0.0014465766163155116,0.014537560275430251,0.9858488544128545
2012-05-18,1,0.0006001850139090291,0.0007083025892940928,0.0002146859142889965,0.018649953254963478,0.9864660984394492
2012-05-22,1,0.0016774706030509479,0.0017080254381599711,-0.0014465766163155116,0.018649953254963478,0.9867977842791668
2012-05-24,1,0.0027258660486968313,0.0028582409490008794,-0.006423263754046859,0.014580109698758618,0.9868326295798022
2012-05-29,1,0.0026091431875054426,0.002708932864443705,-0.006423263754046859,0.014580109698758618,0.9863853705035128
2012-05-31,1,0.0023568889605154464,0.0023976573205214398,-0.012134107962148203,0.014580109698758618,0.9833696919027448
2012-06-04,1,0.001559699129469828,0.001604899372254279,-0.012134107962148203,0.014580109698758618,0.9828802923877552
2012-06-06,1,0.0020580622330134387,0.002065868230762267,-0.012134107962148203,0.014580109698758618,0.9830528182830409
2012-06-08,1,0.0026937954801009804,0.002800697948771817,-0.021470317468687238,0.013217033288268384,0.982571143343478
2012-06-12,1,0.0028271820586291,0.002993169504887008,-0.021470317468687238,0.013002083805774816,0.9823195678219878
2012-06-14,1,0.0028618839127650775,0.0030041105249182434,-0.021470317468687238,0.013415077845038662,0.9825929866309536
2012-06-18,1,0.003734885413908881,0.00397568303434359,-0.021470317468687238,0.012154008713143486,0.9834170331895133
2012-06-20,0,0.0,0.0,-0.020562734586864015,0.012154008713143486,0.9844453916061985
2012-06-22,0,0.0,0.0,-0.020562734586864015,0.007035094189152812,0.9843987152641328
2012-06-26,1,0.002457392994048905,0.0025370207885620426,-0.020562734586864015,0.004579648567655654,0.9836143866969935
2012-06-28,0,-1.828688889345955e-05,0.0002098682642812169,-0.010810530521017292,0.01442814019816569,0.9858326199757653
2012-07-02,-1,-0.00041342512040235294,-0.00011996019378049513,-0.011057743855991972,0.007304267073712976,0.9874477934223065
2012-07-05,1,0.0010777130055879755,0.001175493104887221,-0.011057743855991972,0.006847373078035464,0.9880122257804235
2012-07-09,0,0.0,0.0,-0.009760493880691383,0.010207753174346553,0.9891146110032196
2012-07-11,0,0.0,0.0,-0.008188751063627661,0.01442814019816569,0.9883632041743087
2012-07-13,0,-0.00016666841164820491,3.8542687267113904e-05,-0.011057743855991972,0.013057458211133154,0.9873119664879011
2012-07-17,1,0.0001536055011960246,0.0003164053355830558,-0.01198058648898449,0.010207753174346553,0.9871736245266193
2012-07-19,-1,-0.0003847271231439992,-0.00016073000923412322,-0.015105887280969461,0.010207753174346553,0.9864645154421494
2012-07-23,-1,-0.0015170605101863842,-0.0011671350655745316,-0.011490648652047233,0.010207753174346553,0.9882012880846658
2012-07-25,-1,-0.0016360011124816316,-0.0013026067007940346,-0.011490648652047233,0.012660662572028733,0.9876432754364638
2012-07-27,-1,-0.0006183758633478235,-0.0004050041401308679,-0.011490648652047233,0.010207753174346553,0.9879536120428144
2012-07-31,-1,-0.0015642409883679233,-0.0012608960070741842,-0.011490648652047233,0.010207753174346553,0.9887408340611988
2012-08-02,-1,-0.0008821644882062778,-0.000643463880710871,-0.011490648652047233,0.009398540267939955,0.9890647613429377
2012-08-06,-1,-0.000783744955008571,-0.0005923989786290175,-0.011490648652047233,0.0035905877802137887,0.9894488593117731
2012-08-08,1,7.736732817080163e-05,0.0001917961678555334,-0.013636073770157691,0.001345590770409627,0.9896115218487397
2012-08-10,-1,-0.0014719641861287163,-0.001194596320768215,-0.009704343199679564,0.001345590770409627,0.9914633121205854
2012-08-14,-1,-0.0010379614965973266,-0.0008159896677144651,-0.009956827792070709,0.0006213090093304924,0.9910575281345745
2012-08-16,-1,-0.002088927851247281,-0.0017513209169347972,-0.007610433305554889,0.0031153047237815748,0.9913187143515315
2012-08-20,-1,-0.0025714810073966476,-0.0021507739295437115,-0.007610433305554889,0.0031153047237815748,0.9914495975378155
2012-08-22,-1,-0.0024314602932136884,-0.002027791637469005,-0.007563650984287441,0.005712212832698842,0.9895433641168466
2012-08-24,-1,-0.0016477238570313663,-0.0013319194207034937,-0.007563650984287441,0.005712212832698842,0.9894094654416141
2012-08-28,-1,-0.0027113095849431693,-0.002293667906244107,-0.007118947600013555,0.005712212832698842,0.9899645430990867
2012-08-30,-1,-0.0036461400569931593,-0.0030595652515671545,-0.006486621591451641,0.005712212832698842,0.9900116327801878
2012-09-04,-1,-0.0028577436748622263,-0.0024177433855298025,-0.007118947600013555,0.005712212832698842,0.9896043802955758
2012-09-06,-1,-0.002963355588754399,-0.002520467673423592,-0.007118947600013555,0.004226923244150708,0.9906416643092745
2012-09-10,-1,-0.002801474583412034,-0.002412781234138607,-0.008856632429438682,0.005712212832698842,0.988852349647327
2012-09-12,-1,-0.003463236863221646,-0.0030163228335432545,-0.008435759091776273,0.008074701446964665,0.9872947825383588
2012-09-14,-1,-0.003336205261262397,-0.0028487557463305327,-0.014564293624715056,0.004226923244150708,0.9829022975136211
2012-09-18,-1,-0.002819045218109408,-0.002451715636543266,-0.014924402235943419,0.004226923244150708,0.9822256472130844
2012-09-20,-1,-0.0007350116356806176,-0.0006355430822792168,-0.016833134537531373,5.176186241274344e-05,0.9831164552363905
2012-09-24,-1,-0.0004937463585289011,-0.0004619033634982065,-0.014924402235943419,-0.002711643693973776,0.9839039444901185
2012-09-26,0,0.0,0.0,-0.014924402235943419,0.0011370891347489117,0.9827234203532984
2012-09-28,0,0.0,0.0,-0.014924402235943419,5.176186241274344e-05,0.9826984185541253
2012-10-02,0,0.0,0.0,-0.014924402235943419,0.001723258852777057,0.982736329640487
2012-10-04,0,0.0,0.0,-0.017372826259240397,0.001723258852777057,0.9825114946296495
2012-10-08,0,0.0,0.0,-0.015654847755857865,0.0001254733910257703,0.9837152923226208
2012-10-10,0,0.0,0.0,-0.015270636370777456,-0.001136676680849035,0.9850483304959181
2012-10-12,0,0.0,0.0,-0.01083326830083774,0.0001254733910257703,0.9908975658263727
2012-10-16,0,0.0,0.0,-0.006558544508970877,0.0018555530762055686,0.9890183202265508
2012-10-18,0,0.0,0.0,-0.006558544508970877,0.003930249801250005,0.9872883252124219
2012-10-22,0,0.0,0.0,-0.006469092268880015,0.0072384226724915126,0.9861995617527786
2012-10-24,0,0.0,0.0,-0.006469092268880015,0.005874593468429494,0.9869596246344052
2012-10-26,0,0.0,0.0,-0.01083326830083774,0.008485964498072639,0.9859022066533702
2012-11-01,0,0.0,0.0,-0.01083326830083774,0.007159143010716414,0.9861729592071118
2012-11-05,0,0.0,0.0,-0.009744415018119495,0.007159143010716414,0.98670876594589
2012-11-07,0,0.0,0.0,-0.009744415018119495,0.007159143010716414,0.986428591206609
2012-11-09,0,0.0,0.0,-0.009553020070019616,0.007159143010716414,0.9866524464198912
2012-11-13,0,0.0,0.0,-0.010715476571565569,0.008989175031246407,0.9843705559332496
2012-11-15,0,0.0,0.0,-0.010715476571565569,0.007159143010716414,0.9864281484469968
2012-11-19,1,8.332495599440945e-05,8.511752218358681e-05,-0.009553020070019616,0.008989175031246407,0.9875280432959422
2012-11-21,0,0.0,0.0,-0.010715476571565569,0.00839456043111775,0.9876789435523382
2012-11-26,-1,-0.0012058918501199035,-0.0010781565582146464,-0.010715476571565569,0.007159143010716414,0.9883925499005958
2012-11-28,0,0.0,0.0,-0.009553020070019616,0.005557992375168372,0.9895861042720954
2012-11-30,0,0.0,0.0,-0.009553020070019616,0.006468212222141927,0.9886180254149041
2012-12-04,0,0.0,0.0,-0.011422873006189278,0.006468212222141927,0.9878010577392916
2012-12-06,-1,-0.0028258649226062145,-0.0027700052782701785,-0.009788818881560852,0.009217451416923384,0.9881128377047268
2012-12-10,-1,-0.003097238100779628,-0.0030394384159947246,-0.011962820085737302,0.009217451416923384,0.9870441133428632
2012-12-12,-1,-0.0038346716009077866,-0.003790854430747279,-0.00881132952732391,0.005832289370436917,0.9892828052806247
2012-12-14,-1,-0.004346647134757379,-0.004173997695120188,-0.00881132952732391,0.009217451416923384,0.9886764350814462
2012-12-18,-1,-0.0025262405112957114,-0.0024899193297233673,-0.00881132952732391,0.0045160656132596285,0.9907947669162597
2012-12-20,-1,-0.0017182117806870474,-0.0014833336798205665,-0.00881132952732391,0.0045160656132596285,0.9906580078180722
2012-12-24,-1,-0.0018978277493227468,-0.0017485938249043166,-0.00881132952732391,0.009155602017477947,0.9887645418244188
2012-12-27,-1,-0.0017366996585724207,-0.001539198179267873,-0.005085676405439983,0.009155602017477947,0.9891684071338236
2012-12-31,-1,-0.0004784708422498633,-8.420894719918118e-05,-0.010844998877207994,0.006420017427572079,0.9894044208290134
2013-01-03,0,0.0,0.0,-0.0037701349445233246,0.006420017427572079,0.9900860646366745
2013-01-07,0,0.0,0.0,-0.009538816089540474,0.004815991822999747,0.9900084064896884
2013-01-09,-1,-0.0009193910955915445,-0.0006372467679673441,-0.002585059277933603,0.004815991822999747,0.9921219950228627
2013-01-11,-1,-0.0012827204592785113,-0.0010740405855464668,-0.0028377583192733128,0.006994090879831651,0.9898442949251293
2013-01-15,-1,-0.000569654522218835,-0.0002646996872010867,-0.009538816089540474,0.004815991822999747,0.989384979999279
2013-01-17,0,0.0,0.0,-0.009538816089540474,0.0066846949821369765,0.9879693291902842
2013-01-22,0,0.0,0.0,-0.009757857303864985,0.0047128598571015215,0.9888382481185239
2013-01-24,0,0.0,0.0,-0.009757857303864985,0.0047128598571015215,0.9887890935725655
2013-01-28,0,0.0,0.0,-0.012872686102603205,0.0055576091716098,0.9873264773855417
2013-01-30,0,0.0,0.0,-0.006473971579251405,0.007369971835068077,0.9836514822001605
2013-02-01,0,0.0,0.0,-0.006473971579251405,0.012868220184142482,0.9826553832701396
2013-02-05,0,0.0,0.0,-0.010625687619582025,0.012868220184142482,0.9822627021480304
2013-02-07,1,0.0010284653309731685,0.0014279194102519775,-0.010625687619582025,0.012868220184142482,0.9821092767859353
2013-02-11,1,0.0029651109323014847,0.0036671079025091904,-0.010625687619582025,0.008611062339358901,0.9834627493330419
2013-02-13,1,0.0015504537804790716,0.0019783863185985663,-0.008158063155755986,0.009481300876715426,0.9847419936045235
2013-02-15,1,0.00381582746540064,0.00471745296587434,-0.008747032189775667,0.009481300876715426,0.9845017679725404
2013-02-20,1,0.0030471770612963867,0.0037456165714972816,-0.008747032189775667,0.01156474333222466,0.9833548845720333
2013-02-22,1,0.003556582758474559,0.004328979223384667,-0.008747032189775667,0.00958589198567418,0.984519983882035
2013-02-26,1,0.0033422148382486368,0.004160515366343574,-0.008158063155755986,0.011878516659100927,0.9849352269028084
2013-02-28,1,0.006188885702251592,0.007264860627470225,-0.008698877167308182,0.011069793335704015,0.9884985656213209
2013-03-04,1,0.00723916286997236,0.008479957713201383,-0.010182547560903471,0.00958589198567418,0.9870102738016792
2013-03-06,1,0.0061078269062720065,0.007213795044853482,-0.008158063155755986,0.00958589198567418,0.9886906697522435
2013-03-08,1,0.006014251119270537,0.007119845600382413,-0.008698877167308182,0.00958589198567418,0.9885363218993091
2013-03-12,0,0.0,0.0,-0.010606811534544375,0.00958589198567418,0.9882675085743424
2013-03-14,0,0.0,0.0,-0.010606811534544375,0.011543437142793366,0.9870291398766623
2013-03-18,0,0.0,0.0,-0.010606811534544375,0.011543437142793366,0.9867063096706838
2013-03-20,0,0.0,0.0,-0.008233417933041259,0.010947695648693249,0.9885217107479985
2013-03-22,0,0.0,0.0,-0.008233417933041259,0.01019424545096031,0.9885142992893564
2013-03-26,1,0.005604621502381174,0.006154789211380293,-0.008233417933041259,0.00990651532328403,0.9889911225664634
2013-03-28,1,0.005763053646364726,0.0063542431453026274,-0.00904342952883045,0.008984257549630744,0.9889555061696399
2013-04-02,1,0.004159285314134323,0.0044839991341856355,-0.007556769188062436,0.008984257549630744,0.9900052217642742
2013-04-04,1,0.003749572041951031,0.003973950339876868,-0.007556769188062436,0.00990651532328403,0.9900320824112749
2013-04-08,1,0.002511868572524455,0.0025154341451354605,-0.0054951442437492755,0.00990651532328403,0.9907220438010357
2013-04-10,1,0.001621710889827561,0.0017453248830611528,-0.003705782619677285,0.010558149072753754,0.9910107746322143
2013-04-12,1,0.003924332396577441,0.004179860424945073,-0.005279903091084917,0.008984257549630744,0.9921632321811131
2013-04-16,1,0.00402200702878124,0.004323414577111836,-0.004399187036886656,0.006121706454855802,0.9935169834699514
2013-04-18,1,0.0037500812800337737,0.0040616287821803,-0.0035679407466400748,0.008984257549630744,0.993038600945333
2013-04-22,1,0.004315939803671224,0.004725169681441334,-0.004399187036886656,0.006121706454855802,0.9926295159627782
2013-04-24,1,0.004110793033200367,0.00445238113537882,-0.005066513544510983,0.005031627740756831,0.9916564774473334
2013-04-26,1,0.0035027997600993684,0.0037636762556743303,-0.004399187036886656,0.005031627740756831,0.9910952015422436
2013-04-30,1,0.0029978914140815285,0.0031539459914003043,-0.004652987925399353,0.00553474356408998,0.990836386272627
2013-05-02,1,0.0030590610092132015,0.0031642387397795915,-0.0076463424329201455,0.004602355036007,0.9893520268859767
2013-05-06,1,0.0023504269904971774,0.0023836244383744487,-0.011058033249332952,0.004955544066084244,0.9880481934204911
2013-05-08,1,0.002536649057836629,0.0025799036177683457,-0.011058033249332952,0.004955544066084244,0.9872797586425702
2013-05-10,1,0.0020978870904000218,0.0021893921809650703,-0.011058033249332952,0.006857015924465283,0.9877054382012406
2013-05-14,1,0.002598016040387477,0.0026377050403050602,-0.013324764133341629,0.006857015924465283,0.9864078850236438
2013-05-16,1,0.002697023396511836,0.0027155842176191237,-0.013324764133341629,0.006857015924465283,0.9870272693623635
2013-05-20,1,0.0024590990924365282,0.002460318968890404,-0.013324764133341629,0.010793396920021618,0.9864113106458278
2013-05-22,1,0.0015478388267263347,0.0016751837711450723,-0.013324764133341629,0.010793396920021618,0.9864566576414944
2013-05-24,1,0.0030473796527728065,0.0031453159275175837,-0.013324764133341629,0.008533425173126434,0.9878464316307587
2013-05-29,1,0.0018852309169485903,0.0019127952814451017,-0.009794964618347701,0.008533425173126434,0.9889510124104834
2013-05-31,1,0.0011107369402642742,0.0012112804632079012,-0.0052152804751092185,0.00941399225436866,0.9900539663863235
2013-06-04,1,0.00037212190916671923,0.0006369241012837991,-0.0005619450816885264,0.00941399225436866,0.9906618761920037
2013-06-06,1,0.000522727435491082,0.0007820685360673509,0.0010624904362273816,0.00941399225436866,0.9914097799655873
2013-06-10,1,0.0008825866817005847,0.0010795722024168198,-0.0005619450816885264,0.00941399225436866,0.9913402936389398
2013-06-12,1,8.23974806455378e-05,0.0003695760868613696,0.0003592744102241652,0.011484556679017197,0.9908383634053645
2013-06-14,1,0.0004289393212421349,0.0006493310897706216,-0.002626968711434427,0.00941399225436866,0.9912913790957888
2013-06-18,1,0.0016616023379271774,0.0016912686142724548,-0.004495989702098922,0.00655036288704991,0.9923784654937247
2013-06-20,1,0.0006835506846911284,0.000832297683062631,-0.0023096894330508983,0.008238993576543802,0.9929206070486944
2013-06-24,1,0.0003093874046240276,0.0005509051902564926,-0.0029248299066077094,0.008238993576543802,0.9924305832579883
2013-06-26,1,0.0004503498512566013,0.0006712540576290556,-0.004130676966082897,0.008238993576543802,0.9923051485520006
2013-06-28,1,0.0004900731780152517,0.000736624942500177,-0.004130676966082897,0.006449408597731852,0.9925995559680987
2013-07-02,1,0.0008086568974361142,0.0010324704497688252,-0.004130676966082897,0.00548017446058632,0.992969925417464
2013-07-05,1,0.00184116334693691,0.001875258429854867,-0.004130676966082897,0.00548017446058632,0.9928287860749307
2013-07-09,1,0.0007312568229334189,0.0009463425262419054,-0.003651301853374143,0.0054533523376242695,0.9935632356750755
2013-07-11,1,0.0019431599407673907,0.001981354180990807,-0.005258017375072726,0.0034583607227740565,0.9935666712781958
2013-07-15,1,0.0008923708343050967,0.0010927152728840727,-0.005258017375072726,0.0034583607227740565,0.9943186308596929
2013-07-17,1,0.0012630380003630386,0.0013573766760967584,-0.005282424673398948,0.0054533523376242695,0.9932973899247222
2013-07-19,1,0.0007072566681287955,0.0008845415970914032,-0.00800024288190113,0.0034583607227740565,0.9916576346628673
2013-07-23,1,0.0017059800801254984,0.0017599437300110884,-0.006621057595239498,0.007527909669614547,0.9905848537762825
2013-07-25,1,0.0017099643016424185,0.0018060269357038897,-0.006621057595239498,0.008654632710717227,0.98976174915114
2013-07-29,1,0.0013319313907459724,0.0013330889081880602,-0.006621057595239498,0.010425368198003764,0.9895463602132422
2013-07-31,1,0.00121891487043911,0.001245142261115325,-0.008130048930377711,0.010425368198003764,0.989246485496579
2013-08-02,1,0.0012604378751325924,0.001306429532709282,-0.008130048930377711,0.004538088821855607,0.9893082412690498
2013-08-06,1,0.0011451633879783045,0.0012037253135474951,-0.008130048930377711,0.010425368198003764,0.9879067704054302
2013-08-08,1,0.0004055511806572047,0.0005535909655794956,-0.007755854704140569,0.010425368198003764,0.9883183077690252
2013-08-12,1,0.0004956787894389674,0.0006090555901036139,-0.006935337047614054,0.013085908103731074,0.987899351439274
2013-08-14,1,0.0006147613896188824,0.0006976333314649314,-0.006254181019424633,0.011718875333297338,0.9883251736840047
2013-08-16,-1,-0.00017540352430757563,-4.1033542284860244e-05,-0.0041631459119775074,0.013392759437202747,0.9896863610427213
2013-08-20,1,0.0007177307646967199,0.000742883596346764,-0.0041631459119775074,0.013392759437202747,0.9893646219504204
2013-08-22,1,0.00078794377850958,0.0008490426823951628,-0.005588785863156778,0.011857116919864396,0.989774649133362
2013-08-26,1,0.001429577323111901,0.0014510166027730056,-0.005588785863156778,0.011449478703624394,0.9902022226811428
2013-08-28,1,0.0004984991621693482,0.0006191895900176931,-0.005588785863156778,0.011449478703624394,0.9899855953043026
2013-08-30,-1,-0.0003173322865878801,-6.696264837460309e-05,-0.0064216190296611944,0.011449478703624394,0.9898273065235915
2013-09-04,1,0.0011720173783273911,0.001198105740562805,-0.0064216190296611944,0.011449478703624394,0.9899904653045817
2013-09-06,1,0.0006225077255698293,0.0007251475822342771,-0.0038547559863730844,0.011449478703624394,0.9901805055561701
2013-09-10,1,0.0006775419970910158,0.0007970281584846964,-0.0064216190296611944,0.01133798666180663,0.9897859722461639
2013-09-12,1,0.0007897591637023357,0.0008756471918061894,-0.006073465064234944,0.010243193681228462,0.9900037905497373
2013-09-16,1,0.001306193721118926,0.001323200797756795,-0.006073465064234944,0.00888712252332712,0.9905569935837472
2013-09-18,1,0.0018205737521903229,0.001854876593620338,-0.00630803123283259,0.00888712252332712,0.9915386293014139
2013-09-20,1,0.0017290706363738274,0.0017367213281139168,-0.006073465064234944,0.008063349250299315,0.992240182413906
2013-09-24,1,0.0019230052794524451,0.001985155577232985,-0.006073465064234944,0.008063349250299315,0.9921683309215734
2013-09-26,1,0.001975948320562514,0.002045089297989996,-0.004224535358855812,0.007590015279168308,0.9930322640463399
2013-09-30,1,0.0017046364423672282,0.0017613582015470089,-0.0031972820566409216,0.007590015279168308,0.9934964211962856
2013-10-02,1,0.0023265417498410396,0.002452126329980586,-0.004224535358855812,0.00473994515868624,0.9940435882235358
2013-10-04,1,0.0022543026082058265,0.0023620071755157145,-0.004456739912996613,0.004217662324329693,0.9940026013839167
2013-10-08,1,0.001710283156765874,0.0017658024542196835,-0.0036147713763054435,0.00473994515868624,0.994805096120295
2013-10-10,1,0.0016077318315909602,0.0016327048970534502,-0.003692172894352377,0.004217662324329693,0.9946132401289042
2013-10-14,1,0.0014988459595020637,0.001507555351145775,-0.003692172894352377,0.00473994515868624,0.994184578234533
2013-10-16,1,0.002121028186871313,0.0022604227368195934,-0.0030793820968388025,0.0045699620324285714,0.994674562420854
2013-10-18,1,0.0019679971378016494,0.0020629437798164556,-0.0030793820968388025,0.004549618035574215,0.9948623617873342
2013-10-22,1,0.0013041587469657912,0.0013533860756796254,-0.0038818095333490975,0.003973472917604906,0.9946687833440838
2013-10-24,1,0.0014250089984935933,0.0014497779448361964,-0.00627585293731056,0.003794112693750778,0.9922594192745555
2013-10-28,1,0.0013395199740552665,0.0013913006788840144,-0.005632986760600783,0.004312209961134213,0.9919681316165291
2013-10-30,1,0.001038478058001234,0.0011051073974657657,-0.006223449218276569,0.004312209961134213,0.9919251021965226
2013-11-01,1,5.703726274421724e-05,0.0002795486853566963,-0.006223449218276569,0.004312209961134213,0.9921304464735425
2013-11-05,1,0.0002879441034423939,0.00046914873762857244,-0.006223449218276569,0.003794112693750778,0.9921600418810933
2013-11-07,1,0.00032873341293599627,0.00047342933176920655,-0.006160200249174431,0.004312209961134213,0.9926166475802972
2013-11-11,1,0.00043372794794566843,0.0006025933643512573,-0.006160200249174431,0.003363752515845707,0.9931608184672692
2013-11-13,1,0.000867244289582753,0.0009747176177402103,-0.006160200249174431,0.0022921090339605684,0.9930520728020762
2013-11-15,1,0.000986333738767274,0.001071411433291565,-0.006160200249174431,0.002663620180072642,0.9927818630891517
2013-11-19,1,0.0009027233267355628,0.000976435356420395,-0.006207736717874383,0.002663620180072642,0.9929535266077744
2013-11-21,1,0.0004563255926435731,0.0005534620092845981,-0.005627749260466722,0.0032026126799715475,0.9950901182130888
2013-11-25,1,0.0011052347374330444,0.0011100834148726206,-0.004917727789953953,0.005098501659915324,0.9949698032541013
2013-11-27,1,0.0002778729867506615,0.0003904371795364973,-0.003544387863789553,0.005098501659915324,0.9953563126400552
2013-12-02,1,0.000551306718530825,0.0005890653760780841,-0.0032730174471739606,0.005098501659915324,0.9956173657927834
2013-12-04,0,-0.00010048397882660051,3.617057703247207e-05,-0.0006311119529986435,0.005098501659915324,0.9959022079294889
2013-12-06,-1,-0.00016070242895272727,-5.68128891563507e-06,-0.0009846755217712958,0.003687218722074016,0.995968626544677
2013-12-10,1,0.00014714273625634968,0.0002571080069588917,-0.0028954471073241875,0.0032332826186220742,0.9962091815773179
2013-12-12,1,8.06842253390427e-05,0.0002124999994379752,-0.004062083759146535,0.0030584875591497876,0.995421555026203
2013-12-16,0,-0.00012696243139831225,4.290281960925074e-05,-0.004062083759146535,0.0027879167321704936,0.9955895569173983
2013-12-18,-1,-0.0002694207291245351,-8.410391973295611e-05,-0.005171726394348247,0.0027879167321704936,0.9952699225618339
2013-12-20,-1,-0.00043057042767545594,-0.00022986483949646364,-0.0058968978522810755,0.002658118775188238,0.994824260589552
2013-12-24,1,0.0004522032102242835,0.0005324176066111529,-0.009804324254053488,0.001109956634104174,0.9940467930388739
2013-12-27,1,0.00025501664905376185,0.00036096593285765124,-0.010610467919841883,0.0009291174588463945,0.9939121314226891
2013-12-31,0,-9.277629024399879e-05,7.456250182653928e-05,-0.010652730670223131,0.000808326179145546,0.9931441004053916
2014-01-03,-1,-0.0002068533263106287,-1.8393980089453726e-05,-0.011088927305678951,-0.0008897905626508941,0.9920222919918477
2014-01-07,-1,-0.0003507414092260617,-0.00014540956931003628,-0.011088927305678951,-0.0008897905626508941,0.9918845257436049
2014-01-09,-1,-0.0004797965741280232,-0.00020958619888106547,-0.011088927305678951,0.0012223027385742094,0.9906134993960776
2014-01-13,-1,-0.0009096201343295532,-0.0006320348982106879,-0.010660490146839821,0.003122192302442826,0.9915597396595759
2014-01-15,-1,-0.0007459120136824892,-0.0005112370003251283,-0.010660490146839821,0.005313452496369097,0.991274878596373
2014-01-17,-1,-0.0007009528238928592,-0.0005009245046295488,-0.010660490146839821,0.006678240576305963,0.9914919359601192
2014-01-22,-1,-0.0017752903768346925,-0.0014244272914817535,-0.010660490146839821,0.006678240576305963,0.9919750205736907
2014-01-24,-1,-0.0027970877367571407,-0.002307484905351087,-0.005640720668839811,0.0069769140147526885,0.9919599998390852
2014-01-28,-1,-0.002561489139860273,-0.002132822950231197,-0.0024341262846405464,0.007528422729901694,0.9896120991745784
2014-01-30,-1,-0.0035776654674844906,-0.003007296256683932,-0.0024341262846405464,0.0069769140147526885,0.9895393186491683
2014-02-03,-1,-0.0038464130582742994,-0.003267445167731234,-0.0016668309907481426,0.0069769140147526885,0.9901008987827127
2014-02-05,-1,-0.003811463335181321,-0.003236190510008736,-0.0016668309907481426,0.0069769140147526885,0.9899986771966646
2014-02-07,-1,-0.0021392315847127315,-0.0017778370215836296,-0.0016668309907481426,0.006712607523435252,0.9924029875379538
2014-02-11,-1,-0.0016664043559030963,-0.0014069935213098191,-0.0016668309907481426,0.006820930708978741,0.9922186649425652
2014-02-13,-1,-0.0014274565598182884,-0.00120986970770852,-0.0027717373367122317,0.006747992251483634,0.991909854366343
2014-02-18,-1,-0.0010519159076157625,-0.0008821668308605032,-0.004675645201106425,0.004721434490448659,0.9923166648171802
2014-02-20,-1,-0.001336544989325022,-0.0011505203012079196,-0.004675645201106425,0.004721434490448659,0.9924652322132244
2014-02-24,-1,-0.001118578890723985,-0.0009500518867298433,-0.007631069632755999,0.0021540219094745485,0.9925449199503582
2014-02-26,1,0.0011522548299780643,0.0013196509308743185,-0.007631069632755999,0.001891776489646636,0.9943407586874464
2014-02-28,1,0.0015145852731470824,0.0017394669398924278,-0.0072673812065656,0.001966581747742035,0.994378763421296
2014-03-04,1,0.0010090888336802071,0.0011291655709135086,-0.0072673812065656,0.002378437683760747,0.994543839451561
2014-03-06,1,0.0008885137646319904,0.000997108972720934,-0.005828983657941133,0.002950502977894697,0.9948427506750163
2014-03-10,1,0.001059274460844072,0.0012139581622354265,-0.007631069632755999,0.002378437683760747,0.99320850900787
2014-03-12,1,0.0015055405731749104,0.001726234571152402,-0.007631069632755999,0.0012818683924560852,0.9922366498254933
2014-03-14,1,0.0009222972977285417,0.0010713089069861745,-0.007631069632755999,0.0012818683924560852,0.9921343585605649
2014-03-18,1,0.0008554333709920247,0.0010037023493375892,-0.007631069632755999,0.0027191553360311673,0.9921060891056948
2014-03-20,1,0.0007147260385312351,0.0008521020180671826,-0.007630478592630543,0.004345627942365626,0.9921253172225565
2014-03-24,0,-2.06296448675406e-05,1.2404525171851643e-05,-0.004908655443674715,0.005711782931896301,0.9921331273888058
2014-03-26,-1,-0.00048490885014833187,-0.00043885635188346144,-0.003913528018732357,0.005711782931896301,0.9924266576329617
2014-03-28,-1,-0.0004925680657594392,-0.00043212047712361257,-0.0023410472230450735,0.005835889120466915,0.9923617923508871
2014-04-01,-1,-5.286709263323005e-05,-4.999671888596137e-05,-0.004922660477401402,0.006975620123712474,0.9917033195308264
2014-04-03,-1,-6.107378174847615e-05,-4.683733387924351e-05,-0.007547609658228798,0.00849817251105821,0.990869025325813
2014-04-07,-1,-0.0006383250791110024,-0.0005991458160635396,-0.007511237040052395,0.00849817251105821,0.991845667683483
2014-04-09,1,0.0003787763947728686,0.0004912102582737556,-0.007511237040052395,0.006770195787205391,0.992538265360047
2014-04-11,-1,-0.00036264937235702986,-0.0003340454583830175,-0.004922660477401402,0.010254650869277692,0.9926238763257452
2014-04-15,-1,-0.0004210805626194641,-0.00040763246575030123,-0.00811170779409439,0.010254650869277692,0.9915890454314333
2014-04-17,-1,-0.0008133616012451085,-0.0008094664005913805,-0.008230149233087439,0.010457393668085974,0.9905664819933708
2014-04-22,-1,-0.00034422751334083925,-0.00027304026542600756,-0.008349160789260852,0.010254650869277692,0.9906059613994912
2014-04-24,-1,-9.256122469892866e-05,-7.407621430756647e-05,-0.008800053724237259,0.010457393668085974,0.9865017597329291
2014-04-28,1,0.00045622044851677284,0.00048534678705177575,-0.009954446468652843,0.010392753785835634,0.9860386934214803
2014-04-30,1,0.00037770985215751447,0.00037799172834109294,-0.009954446468652843,0.009534327611304759,0.9861097708367577
2014-05-02,1,0.000706693115531139,0.0007568804135757734,-0.009954446468652843,0.009146109611364143,0.9868712789690456
2014-05-06,1,0.00030179623111446536,0.00031436891411850033,-0.009421134888760637,0.009534327611304759,0.9868500559436808
2014-05-08,1,0.0005800593699539713,0.0006352977676556903,-0.009421134888760637,0.009534327611304759,0.986621084598114
2014-05-12,1,0.0011869467212400257,0.001310782325220682,-0.012390535220275594,0.008859749147136919,0.9867425439587957
2014-05-14,1,0.0003473206208563109,0.00035858688525561733,-0.008455636564457317,0.008859749147136919,0.9874331417112606
2014-05-16,1,0.0008201832409327197,0.0008796542715418219,-0.006532468673058582,0.0070920227183820335,0.9888600688497478
2014-05-20,1,0.0009260801831172152,0.0010543357280215775,-0.006235720048117935,0.0070920227183820335,0.9896497095383233
2014-05-22,1,0.0012141257443641531,0.0013755733699548928,-0.0047953142111541855,0.006496003623109542,0.9938075066073725
2014-05-27,1,0.00100920270579861,0.001150465888611232,-0.0035945147274926235,0.006315669639447972,0.9944468717250229
2014-05-29,1,0.0011204721811664334,0.0012982390548751856,-0.0035945147274926235,0.0056662669402138925,0.9948890739106173
2014-06-02,1,0.0011036248982186673,0.0012748838241686616,-0.003720389252150485,0.006315669639447972,0.9940571607013193
2014-06-04,1,0.0023848669119114862,0.002741533328375418,-0.003720389252150485,0.0053010483784788325,0.9942289147738715
2014-06-06,1,0.002484467318356388,0.0028044882817575946,-0.003720389252150485,0.004686341916319808,0.9943906705092599
2014-06-10,1,0.0013757409816798907,0.0015412218247240232,-0.0034182359869284877,0.003233765314623475,0.9955200669647736
2014-06-12,1,0.0006170565536981915,0.0006607930845700972,-0.0029255221484896237,0.004601759652073604,0.9958925248144338
2014-06-16,1,9.927453111661922e-05,0.000169788694458319,-0.0029255221484896237,0.004601759652073604,0.9958956288529662
2014-06-18,-1,-0.0005752789407160265,-0.0003796462695714875,-0.003746393285999989,0.004601759652073604,0.9953755448550902
2014-06-20,-1,-0.0008663859638901047,-0.0006244584885764274,-0.004314704261228806,0.00479299073555432,0.9945877542672561
2014-06-24,-1,-0.0010571631748356957,-0.0007789530033869982,-0.004314704261228806,0.004601759652073604,0.9947409079504517
2014-06-26,-1,-0.0017098286422403339,-0.0013287650606835031,-0.004553507582874438,0.005047301585740221,0.9940091429397051
2014-06-30,-1,-0.0011673337950473036,-0.0008868525049998914,-0.004707097136472658,0.005047301585740221,0.9943399804671361
2014-07-02,1,0.00019940519501419104,0.00024940660013298235,-0.006488689912383385,0.005122208508576935,0.9927624938786749
2014-07-07,1,0.0002448247535755551,0.0002885657744645804,-0.006488689912383385,0.0057806714228173794,0.9919463121286489
2014-07-09,1,8.488497250313506e-05,0.00015686073166984934,-0.007044374666538953,0.0057806714228173794,0.9909140171922884
2014-07-11,1,0.000621056592811144,0.0006221247259961559,-0.007044374666538953,0.00933110974080876,0.9907758292745699
2014-07-15,1,0.00036690352852998076,0.00041755824647217075,-0.008481707863695098,0.00933110974080876,0.9902201102847511
2014-07-17,-1,-0.00029469651900802536,-0.00017929974339587617,-0.006752801907968744,0.009546399550546847,0.9901817580210412
2014-07-21,-1,-0.00015803762651650296,-0.00010706476867454221,-0.008481707863695098,0.009069223547257862,0.9895337963839073
2014-07-23,1,0.00013764844923045213,0.0002550953633410023,-0.008481707863695098,0.009069223547257862,0.9892131648102229
2014-07-25,-1,-0.0001185267329354561,-3.792861531578547e-05,-0.008481707863695098,0.008949939088768996,0.9895909417675562
2014-07-29,-1,-0.00019336235047697815,-0.00013931938746658806,-0.00827028659226707,0.008429665924580595,0.989868015912479
2014-07-31,-1,-8.156795336975125e-05,-7.721746344991563e-06,-0.00676248247356042,0.007534510475575593,0.9912831158262521
2014-08-04,1,0.0010100983424513599,0.0012217174006381782,-0.00676248247356042,0.007534510475575593,0.9916367182682712
2014-08-06,1,0.0007697506031936793,0.0009175041470298558,-0.00607315203511068,0.008429665924580595,0.9924770232682498
2014-08-08,1,0.001007088742161273,0.0011766950435266443,-0.00607315203511068,0.008429665924580595,0.992370831420793
2014-08-12,1,0.00031237207198072173,0.00037573052970229067,-0.005773927077448764,0.008429665924580595,0.9926618448980022
2014-08-14,1,0.0005500685721366895,0.000623574611167154,-0.005773927077448764,0.006816769939686862,0.993190779365815
2014-08-18,1,0.00014621877447697232,0.00015963964913241646,-0.003266935600848064,0.006816769939686862,0.9942754647905102
2014-08-20,1,0.00040988995712236593,0.0004557957928530502,-0.003266935600848064,0.00756954154284124,0.9937748389834726
2014-08-22,1,0.00029739709738565344,0.00033011423125549317,-0.0029773369567735537,0.00756954154284124,0.994108917767429
2014-08-26,0,-5.868877751895322e-06,2.7021097755482763e-06,-0.0019402978422058436,0.00756954154284124,0.9935964160558662
2014-08-28,-1,-0.0005153506201266697,-0.00039614289199753615,-0.0029773369567735537,0.007104769666830537,0.9933004185817265
2014-09-02,-1,-0.0002714364231387633,-0.00022686263989474246,-0.0019402978422058436,0.006505046606078666,0.9940217635988512
2014-09-04,-1,-0.0006346348931929622,-0.0005145917388480584,-0.0029773369567735537,0.006505046606078666,0.993463459822787
2014-09-08,-1,-0.0004004494553129093,-0.00029312035619007745,-0.00460769070941863,0.006505046606078666,0.9928194090096226
2014-09-10,1,6.939660462983928e-06,4.6934010843424e-05,-0.00460769070941863,0.006919523060072546,0.9926630591293543
2014-09-12,1,0.00021800255896748308,0.00022657080627973053,-0.006429627555991527,0.006919523060072546,0.991963809441062
2014-09-16,1,0.0001875840658964468,0.00019021918955605492,-0.009358176081221765,0.0074873126227245936,0.9914881336577446
2014-09-18,1,0.000525635253970687,0.0005898405608896261,-0.010343056755962927,0.005918895860249508,0.9918496321351147
2014-09-22,1,0.0003254967814618129,0.0003774105686087313,-0.010343056755962927,0.0074873126227245936,0.9902526291655456
2014-09-24,0,-6.86938187880289e-06,1.944411149642708e-05,-0.00989657357204048,0.009112367893110216,0.9902546562029606
2014-09-26,-1,-0.0003170624563440847,-0.000276185228078684,-0.00926720519885452,0.011975731670111952,0.98974308175607
2014-09-30,1,0.0001768382734946955,0.00021914617776838005,-0.00926720519885452,0.011975731670111952,0.9898264292262478
2014-10-02,1,0.00020566441742451557,0.0002977587562196514,-0.006228316625533513,0.01254175869275416,0.9901919238167438
2014-10-06,1,0.00017370168659305464,0.00025551558807186404,-0.004851620336800927,0.01254175869275416,0.9903269042274199
2014-10-08,1,0.0005419572497625501,0.0006781239416171314,-0.004851620336800927,0.01254175869275416,0.9906991903966416
2014-10-10,-1,-0.00031584243539114955,-0.00031226361979882935,-0.0031488105587410276,0.013518579518613414,0.990297231198715
2014-10-14,-1,-0.0003493446449624725,-0.0003215857080415692,-0.0031488105587410276,0.013518579518613414,0.9906567860249544
2014-10-16,-1,-0.00014822742477112386,-0.00013438965740147923,-0.0010865246739559103,0.013518579518613414,0.9910080613995875
2014-10-20,1,0.001472017018363221,0.0017036679313698982,-0.0025444367569406284,0.008573112100939636,0.9931017835374695
2014-10-22,1,0.001622702980994627,0.0018643694759001121,-0.0010865246739559103,0.00892562271049513,0.9935400349423784
2014-10-24,1,0.0018235391817525426,0.002077943924873832,-0.0010865246739559103,0.00892562271049513,0.9918446974056103
2014-10-28,1,0.0017528384399893788,0.0019774044893394313,-0.001255674818911636,0.010793325781408647,0.9911803247225914
2014-10-30,1,0.0017904947272968169,0.002002270123597335,0.0006826727365740985,0.010793325781408647,0.9909724725459562
2014-11-03,1,0.0021118200626723447,0.0023425134270999484,-0.0018669963151225954,0.010576546732293246,0.9911677407246516
2014-11-05,1,0.0021706463964220038,0.0024062018333455997,-0.0006156260480150385,0.010576546732293246,0.9911457716124296
2014-11-07,1,0.0022297091372788973,0.002459399691751847,-0.005610952481630562,0.00892562271049513,0.9912461998647805
2014-11-11,1,0.0020790547978103893,0.002281458303243121,-0.005999102229000495,0.00892562271049513,0.9909212067354632
2014-11-13,1,0.001988959364300582,0.0021843256138472157,-0.005999102229000495,0.008942662955925575,0.990606473077603
2014-11-17,1,0.0016501750469965176,0.0017928281961767016,-0.005999102229000495,0.008942662955925575,0.9896459948478995
2014-11-19,1,0.002201098868821556,0.0024353047440683656,-0.005999102229000495,0.011550258816509838,0.9892133319902185
2014-11-21,1,0.0032101354677260712,0.003561072474895538,-0.005999102229000495,0.009194973967625971,0.991508733078744
2014-11-25,1,0.003376629375925951,0.0037544691217263,-0.005984352581861384,0.009194973967625971,0.991602076508367
2014-11-28,1,0.004011327554225341,0.004465196937078867,-0.005984352581861384,0.009194973967625971,0.9915736011513361
2014-12-02,1,0.0038877227639101467,0.004318822261120089,-0.0048777781360605016,0.007469077867281912,0.9919324317305969
2014-12-04,1,0.004332423024235305,0.004833179666697409,-0.005984352581861384,0.0071836300149239335,0.9912323716527843
2014-12-08,1,0.0033709191730690764,0.003710141204799823,-0.0048777781360605016,0.009703562877492617,0.9904066999801105
2014-12-10,1,0.0029607319845820178,0.0032443794296830326,-0.0048777781360605016,0.009703562877492617,0.9899640652591961
2014-12-12,1,0.003213666342065711,0.0035229148195359376,-0.007043625020835557,0.008405054191380067,0.9889644544502711
2014-12-16,1,0.0029688408723113173,0.003209185516722849,-0.009542655989129718,0.00759959429901657,0.9889904008963548
2014-12-18,1,0.0042292695813522865,0.0046175198089467556,-0.009542655989129718,0.0048072039007733295,0.9895036155997986
2014-12-22,1,0.00403676685778972,0.00438947259046539,-0.009542655989129718,0.008152839502089065,0.9884049667365696
2014-12-24,1,0.004763722091651347,0.005258541377164573,-0.011193862956369042,0.008152839502089065,0.9865756571717216
2014-12-29,1,0.0045960140676621275,0.005016852775683917,-0.013796589997407849,0.008152839502089065,0.9858981534761031
2014-12-31,1,0.004522932414339967,0.004948817270513879,-0.013796589997407849,0.009522606371659331,0.9860011725573167
2015-01-05,1,0.003594079209109256,0.003855131494841177,-0.013796589997407849,0.014099754035867565,0.9851546184985022
2015-01-07,1,0.004382897249266202,0.00477704958183106,-0.010510912081823889,0.01320732788723887,0.9868829518096275
2015-01-09,1,0.002853791108383495,0.0029596517261641724,-0.0097474931077189,0.01320732788723887,0.9868349180041054
2015-01-13,1,0.002046243762139583,0.0020662581520786445,-0.00401456289913291,0.01320732788723887,0.9869126460053674
2015-01-15,1,0.00042497040871585347,0.0006379025124067728,0.0017923715079179287,0.01320732788723887,0.9864515830597298
2015-01-20,1,0.00030478916772215764,0.000570260622242924,-0.0014447738531918677,0.01320732788723887,0.9867685838290933
2015-01-22,1,0.002120128914233076,0.002167538258191887,-0.002737086829997335,0.012957908202307213,0.9884617206227836
2015-01-26,1,0.002080533601400039,0.002126734600495236,-0.002737086829997335,0.012818186799846469,0.9905361002175362
2015-01-28,1,0.0017311588137970282,0.0018061490686898157,-0.001703095992665749,0.012818186799846469,0.9909313459562352
2015-01-30,1,0.0023414801882380657,0.0023481722772542815,-0.001703095992665749,0.012608059138687355,0.9912633119003715
2015-02-03,1,0.0039011800288202814,0.004113570370594658,-0.004070593816368619,0.011177450370483878,0.9923698898205806
2015-02-05,1,0.004352212827832349,0.004615128226297107,-0.004070593816368619,0.008776465234484396,0.9926037820702717
2015-02-09,1,0.003383323543308062,0.0034964491618527578,-0.0021475983214561773,0.008776465234484396,0.9934750338525925
2015-02-11,1,0.004372948019786019,0.0046645907949192395,-0.004070593816368619,0.0076369607263837794,0.9921953796086789
2015-02-13,1,0.003934187366572982,0.004141809520365837,-0.0021475983214561773,0.009225311085239926,0.9922003903106499
2015-02-18,1,0.0033978614677586897,0.003501218827847206,-0.004070593816368619,0.009225311085239926,0.9920851219679461
2015-02-20,1,0.0032105361863578622,0.0032561533392205353,-0.003609140747101423,0.0076369607263837794,0.9925323313778452
2015-02-24,1,0.0028548450932103465,0.0028603302860275735,-0.003609140747101423,0.0076369607263837794,0.9921334706696872
2015-02-26,1,0.0030865110508467505,0.0030897558587911758,-0.004196637098577055,0.005467526399302786,0.9918690585396593
2015-03-02,1,0.003384822370458908,0.0034401570959276444,-0.004196637098577055,0.005467526399302786,0.9916772215366553
2015-03-04,1,0.0026924897540699364,0.0027149852864779816,-0.003763239828819792,0.005467526399302786,0.9922317373976403
2015-03-06,1,0.0021250802738259746,0.002268625095978051,-0.003763239828819792,0.004619401245293456,0.9922799279213416
2015-03-10,1,0.0015753363639714006,0.0018076475933098783,-0.004729078225375374,0.0057566107232744955,0.9906402943917451
2015-03-12,1,0.0014032696541561244,0.0017042705677886743,-0.004729078225375374,0.004619401245293456,0.9919187605774629
2015-03-16,1,0.0034203702220531613,0.0034216669781827968,-0.00831758512460357,0.0015497500875249865,0.9910142216046416
2015-03-18,1,0.0029932525303661365,0.003048086454905434,-0.00831758512460357,0.0015497500875249865,0.9914084830198144
2015-03-20,1,0.003109451505482595,0.0031116833315103874,-0.009135535744662887,0.0015497500875249865,0.9902398348747409
2015-03-24,1,0.0021380474110888697,0.0022638620281261184,-0.008385055853459656,0.0018798459641720193,0.9909103098011556
2015-03-26,1,0.0009882432800711704,0.0012379294007335354,-0.005721488692946047,0.0028458107981873416,0.9923960719202974
2015-03-30,1,0.0015773701014329836,0.001731958362147016,-0.008268960619848074,0.0018798459641720193,0.9917530372847073
2015-04-01,1,0.0010180486679605154,0.0012438944961748314,-0.009356176195118459,0.0016970399179687423,0.9900891499671887
2015-04-06,1,0.0006504286944285757,0.000916586825044243,-0.009356176195118459,0.0028458107981873416,0.9893759870924748
2015-04-08,1,0.0015925910625929195,0.001762090343007952,-0.01019487207346785,0.0028458107981873416,0.9900139264609885
2015-04-10,1,0.0010448834954035566,0.0012762651707146108,-0.01019487207346785,0.008054440586048517,0.9895507027882771
2015-04-14,-1,-0.0005024519642733887,-6.388419932646717e-05,-0.006415080618457676,0.008054440586048517,0.9905882755984479
2015-04-16,-1,-0.0004089608064612221,-1.4520003351599885e-05,-0.011614542043075502,0.008054440586048517,0.9893942743535385
2015-04-20,1,0.00011230427430258426,0.00034242263747021875,-0.009481113817486269,0.010744652553320057,0.9898638103200571
2015-04-22,1,0.000471507443787753,0.0006540682272469785,-0.011614542043075502,0.0067484639197263685,0.9892101767060455
2015-04-24,1,0.0011564466461659174,0.001228703046060721,-0.012830850040199442,0.010744652553320057,0.9867846419510901
2015-04-28,1,0.0003934559538684677,0.0005492134383501299,-0.014420623258011842,0.011131115406992333,0.9861737033349477
2015-04-30,-1,-0.0015627098475966131,-0.0011919823221480292,-0.013347718503967638,0.011131115406992333,0.9877891551307044
2015-05-04,-1,-0.0016979133893919702,-0.001267571743362644,-0.013347718503967638,0.011131115406992333,0.9870496372759041
2015-05-06,-1,-0.00231286121300045,-0.0017758784028489955,-0.012415355213512962,0.012109856095614196,0.9871963513290279
2015-05-08,-1,-0.0009978960935903927,-0.0006346944645261488,-0.01525939425865639,0.009698816743967522,0.9874752323600943
2015-05-12,-1,-0.0016868451315817286,-0.0011943128714484318,-0.01525939425865639,0.01204133497917342,0.9870847482967259
2015-05-14,-1,-0.0023802306214747043,-0.0018683797774996986,-0.012094486564873792,0.01204133497917342,0.9877755833482262
2015-05-18,-1,-0.0017024965754690621,-0.0012637120442074473,-0.012094486564873792,0.009698816743967522,0.9879565349470989
2015-05-20,-1,-0.0028736080232501064,-0.0023164842532161787,-0.007849215236851202,0.01204133497917342,0.9876886751767923
2015-05-22,-1,-0.0021872521333981686,-0.001726530503650054,-0.007454474961735631,0.011738005498558829,0.9891927931785124
2015-05-27,-1,-0.0028365369022100885,-0.0022940419611964594,-0.004217720133473482,0.010311042932716749,0.990377678512815
2015-05-29,-1,-0.004090208077110493,-0.0033732319046104074,-0.003208059807661723,0.013878013545421102,0.9895691445630022
2015-06-02,-1,-0.002047918186676728,-0.00160913225589467,-0.005109242958847994,0.009554619799082642,0.9908922351374442
2015-06-04,-1,-0.0020609735739047183,-0.0015743962509406173,-0.005109242958847994,0.009554619799082642,0.9910717205772012
2015-06-08,-1,-0.0037196076891595595,-0.0029946299519947157,-0.003447351735853762,0.009554619799082642,0.9908964690137404
2015-06-10,-1,-0.003848353001321671,-0.0030570007151016813,-0.003942884117855551,0.007604292427237496,0.9914239930038267
2015-06-12,-1,-0.0034497085888768376,-0.002725031561815796,-0.003942884117855551,0.013725774337602666,0.9899589516814067
2015-06-16,-1,-0.0026039289437526534,-0.0020663667670528197,-0.003942884117855551,0.013725774337602666,0.9904465804040495
2015-06-18,-1,-0.0017310897459452933,-0.0012976683842935287,-0.004954131207764505,0.006877753283083062,0.9912732969758126
2015-06-22,-1,-0.0018396605632666585,-0.0013805626651074798,-0.004954131207764505,0.003810254739657728,0.9914446660195357
2015-06-24,-1,-0.001653102556069468,-0.0012439451593710192,-0.007371701712560881,0.003810254739657728,0.9908730021040825
2015-06-26,0,-0.00011025143415447166,3.0498619535820437e-05,-0.008246617349232582,0.0035755329265325046,0.9905885264121395
2015-06-30,-1,-0.0010421780287215871,-0.0008314671591224586,-0.007371701712560881,0.0039412775831329065,0.991724590089461
2015-07-02,-1,-0.0010204295893360593,-0.0007842085953755695,-0.007371701712560881,0.0039412775831329065,0.9922495809716197
2015-07-07,-1,-0.0002765432078245078,-0.00016947261411058237,-0.007371701712560881,0.0039412775831329065,0.9922082614732715
2015-07-09,-1,-0.000973627114873829,-0.0007878003122284428,-0.007371701712560881,0.004770426288204483,0.9919556779243247
2015-07-13,1,0.0006157302117556103,0.0006178632867025979,-0.007371701712560881,0.0039412775831329065,0.9929140546903799
2015-07-15,1,0.0005605825749889537,0.0005725711886372672,-0.007189566420697451,0.0039412775831329065,0.9929059133889523
2015-07-17,1,0.00036207296277834247,0.00038223600140259504,-0.007189566420697451,0.004066260848828811,0.9932218041776367
2015-07-21,-1,-0.00011784118813752879,-7.909170040704574e-05,-0.0057924286020149245,0.005707943388519937,0.9934355916550124
2015-07-23,-1,-0.0006521757320946851,-0.0005724838584715989,-0.004916166903034355,0.006614333022588105,0.993032859937386
2015-07-27,-1,-0.0014369860200852047,-0.0012348088988039436,-0.005701073930474815,0.006614333022588105,0.9895998335504002
2015-07-29,-1,-0.0010724839436998658,-0.0009368668915438245,-0.005701073930474815,0.009256274108871698,0.9870385548266306
2015-07-31,-1,-0.0007251090081089287,-0.0006318162881118673,-0.0067828010167766415,0.009256274108871698,0.9870728182995779
2015-08-04,-1,-0.0004846561113263614,-0.0004488170319528447,-0.007198950822342173,0.009256274108871698,0.9828836803746563
2015-08-06,1,0.00011209493194827173,0.0002111754442071379,-0.0077784711457331845,0.006614333022588105,0.9820055504032824
2015-08-10,1,0.0003666986061349121,0.0005021842945005506,-0.0077784711457331845,0.009319996112136422,0.9814245050936995
2015-08-12,1,0.00014975986276761328,0.00026229685321960876,-0.016185205035362443,0.009319996112136422,0.980042452338445
2015-08-14,1,0.00019477504060237558,0.00029289304067213836,-0.019557099058240445,0.009319996112136422,0.9791987922769405
2015-08-18,1,0.00047533665711065384,0.0005725746592905091,-0.019557099058240445,0.011153966354822725,0.9783693845647143
2015-08-20,1,0.0010182115955601162,0.0012052214980113319,-0.01996521364143166,0.007111488276431253,0.9785784168095373
2015-08-24,-1,-0.001721107892241099,-0.0015589613229247115,-0.013480389486161384,0.014397747120592469,0.9812313030437899
2015-08-26,-1,-6.206923227886784e-05,-3.0500384850531363e-05,-0.013480389486161384,0.011153966354822725,0.9832732619551595
2015-08-28,1,0.00025130206816320643,0.0003828093715817995,-0.01698832170343646,0.012757618234713473,0.9821301295817357
2015-09-01,-1,-0.002767687057313245,-0.0025212779693846842,-0.01698832170343646,0.012757618234713473,0.9843802657987559
2015-09-03,-1,-0.004251188037598172,-0.003801465154898979,-0.013480389486161384,0.012757618234713473,0.9848892082146676
2015-09-08,-1,-0.0031732525318310693,-0.00285343739355052,-0.01698832170343646,0.012757618234713473,0.983674701930502
2015-09-10,-1,-0.004829536707170552,-0.004297263094794867,-0.01698832170343646,0.012757618234713473,0.9832383672976657
2015-09-14,-1,-0.0048245049842720635,-0.004316774992356667,-0.014126529678954282,0.014699550495813079,0.9830994601178447
2015-09-16,-1,-0.003247429154431233,-0.0029412565746316233,-0.018075153665671112,0.011880558715583875,0.9832811904131861
2015-09-18,-1,-0.003925261238670457,-0.003521900478848758,-0.014805247057997722,0.013683039922426268,0.9822698544493459
2015-09-22,-1,-0.0033681924767093607,-0.0029599924860441553,-0.014805247057997722,0.01080745166899758,0.9836419640825733
2015-09-24,-1,-0.0029793977420763795,-0.002638779355768809,-0.014805247057997722,0.01080745166899758,0.9837927011644715
2015-09-28,-1,-0.0032752166298289018,-0.0028998370941135045,-0.01797155095068384,0.01080745166899758,0.9827459018651172
2015-09-30,-1,-0.0035795986308190322,-0.0032162995414746704,-0.011032379574085684,0.012504832825024025,0.9834951794829634
2015-10-02,-1,-0.0032611382141061215,-0.0029406112368570696,-0.011032379574085684,0.014282458416633774,0.9829909173607604
2015-10-06,-1,-0.004583815883413205,-0.004066385958303817,-0.006260603586772069,0.014282458416633774,0.9837048365534761
2015-10-08,-1,-0.005636375708489023,-0.005033457689179404,0.0006482698709424054,0.014282458416633774,0.984385371570432
2015-10-12,-1,-0.005378427066716381,-0.004765942028852428,0.0005473286690127594,0.011877923341285535,0.9853747404912416
2015-10-14,-1,-0.005652890726456033,-0.005034213041056475,0.0005473286690127594,0.011877923341285535,0.9859877051266889
2015-10-16,-1,-0.00458571935509151,-0.00408053826663843,-0.0054157203554856485,0.010071587436467742,0.9853202793643634
2015-10-20,-1,-0.004514599108654329,-0.00399461889110927,-0.0054157203554856485,0.011877923341285535,0.9842959232621444
2015-10-22,-1,-0.003272657155824055,-0.0029610361216283387,-0.0054157203554856485,0.014282458416633774,0.9829667596995056
2015-10-26,-1,-0.003358574360785624,-0.0030683541016974193,-0.0005346455582915699,0.01531583598836076,0.9834733840893177
2015-10-28,-1,-0.0036537235248175043,-0.0033035302845619606,0.0029254610841287017,0.017077054018635497,0.9805357015787919
2015-10-30,-1,-0.002280974294067711,-0.0021217289521480607,0.001764573322275747,0.017077054018635497,0.9820167564453902
2015-11-03,-1,-0.0008478969494670806,-0.0008190531185986616,0.0010198233215525806,0.011916110121719361,0.983905091854114
2015-11-05,-1,-0.0006795191192279964,-0.0006298662981716784,0.0010198233215525806,0.017077054018635497,0.9813987748099066
2015-11-09,-1,-0.00020213502903523097,-4.171155175120944e-05,0.001764573322275747,0.017077054018635497,0.9807739767732043
2015-11-11,-1,-0.0005026088225248179,-0.000366416196641999,0.0010198233215525806,0.017077054018635497,0.980720027784034
2015-11-13,-1,-0.0024872678170930283,-0.002380389217989351,0.0017317696539904516,0.017077054018635497,0.9811240809504144
2015-11-17,-1,-0.0009064730053775661,-0.0007813385849309332,-0.0004992726082539453,0.017077054018635497,0.9825159002681857
2015-11-19,1,0.00015079564449024872,0.0003617224097567953,-0.006838470540752527,0.01648996935260707,0.9835314542674598
2015-11-23,1,0.0016269165390969972,0.00205940909630161,-0.006838470540752527,0.013763459703489567,0.9846051869568874
2015-11-25,1,0.004344751588939393,0.005153289323249641,-0.008751471149130916,0.01264516572129923,0.9871638887300083
2015-11-30,1,0.004336931472102377,0.005112741345464349,-0.008751471149130916,0.01264516572129923,0.9869152883308141
2015-12-02,1,0.0053353921115681865,0.006324696660369427,-0.008751471149130916,0.01264516572129923,0.9862359082897888
2015-12-04,1,0.0059475271930502505,0.0070152178555755035,-0.006838470540752527,0.01355857442569055,0.9884445682720647
2015-12-08,1,0.006859139252186293,0.00804301362441099,-0.008751471149130916,0.011104951119188446,0.9874606937497626
2015-12-10,1,0.0057240571570820725,0.006710667926002653,-0.0069021947085163545,0.011104951119188446,0.9879621581292873
2015-12-14,1,0.0053399468272627626,0.0062356108261488975,-0.0069021947085163545,0.011104951119188446,0.9867744875729465
2015-12-16,1,0.005741638864259536,0.006678009821982436,-0.0069021947085163545,0.010235123609285555,0.9872084866832922
2015-12-18,1,0.004439945529780239,0.005196969350944599,-0.006249017902792801,0.011104951119188446,0.9880199738320584
2015-12-22,1,0.005281665956652847,0.006160649824898801,-0.006249017902792801,0.010861960089993595,0.9880545290984409
2015-12-24,1,0.004711330890982919,0.005508259221268441,-0.006249017902792801,0.013421981590898937,0.9882751959953103
2015-12-29,1,0.005204966279079785,0.006061052688286962,-0.006249017902792801,0.013421981590898937,0.9881278955798121
2015-12-31,1,0.0049723286582101685,0.00581031558181906,-0.006249017902792801,0.014383839261760992,0.9878509165998764
2016-01-05,1,0.005922104834861775,0.006863987015966922,-0.008445371413316787,0.012330138322822311,0.9869401562479678
2016-01-07,1,0.005401820137286403,0.006286124608337445,-0.008445371413316787,0.012330138322822311,0.9861517009536701
2016-01-11,1,0.0053734091204695215,0.006297953345359508,-0.009203177359669834,0.012330138322822311,0.9860114524985973
2016-01-13,1,0.004867799883013957,0.005754590578886165,-0.009203177359669834,0.009101084767496145,0.9872604920660516
2016-01-15,1,0.003234726155382971,0.0037299091283389076,-0.009203177359669834,0.013421981590898937,0.985283944000032
2016-01-20,1,0.0043890779803574115,0.005136350469020504,-0.010423416842941811,0.013421981590898937,0.9843379487998682
2016-01-22,1,0.004810834925211848,0.00559801500812802,-0.010423416842941811,0.016800658623033454,0.9834968503208877
2016-01-26,1,0.0034933320456571135,0.003908797840351539,-0.006669538242676567,0.015170258356390465,0.9843276638415631
2016-01-28,1,0.0031098609064751813,0.0033837833367177344,-0.010122207284947565,0.012215393057328779,0.9840235071714333
2016-02-01,1,0.0048214800654437845,0.005371133180336973,-0.016275710659057877,0.0115157876873779,0.9830811725047708
2016-02-03,1,0.0027696796790352167,0.002950634641192042,-0.016794613356347347,0.0115157876873779,0.9824714498567735
2016-02-05,1,0.0008944475265447306,0.0009807312169821223,-0.016794613356347347,0.014647838406134952,0.9834655502066748
2016-02-09,1,0.0008583845090980074,0.0008838970036134562,-0.016794613356347347,0.014647838406134952,0.9833364750914119
2016-02-11,-1,-0.0006461486078739373,-0.00041084871029620446,-0.01258566839132106,0.02276379841672326,0.982484164298796
2016-02-16,1,0.0025922439112375786,0.002831334249793003,-0.01258566839132106,0.011844544300838124,0.9854082696952497
2016-02-18,1,0.0028056354036984235,0.0030679966777953155,-0.011497086308024814,0.010539501459529015,0.9870215252468563
2016-02-22,1,0.0035584212261203525,0.0038961767986635306,-0.011497086308024814,0.008504862784058303,0.9875982937920519
2016-02-24,1,0.0027776522344734552,0.002936375821682728,-0.013491899441091613,0.008504862784058303,0.9868544526055794
2016-02-26,1,0.0026321099200467797,0.0027702701440277507,-0.013491899441091613,0.010539501459529015,0.985949488523963
2016-03-01,1,0.002122051789749475,0.0021234736282136984,-0.011497086308024814,0.010539501459529015,0.9865943673727776
2016-03-03,-1,-0.001710988838099514,-0.0011625720234466103,-0.00640290590000412,0.010667780867856205,0.9881022253310582
2016-03-07,-1,-0.001961750542549769,-0.0014048476631238396,-0.008981291039962706,0.01017973033649889,0.9880659784728568
2016-03-09,-1,-0.0029007768406177146,-0.0021776311799204568,-0.00640290590000412,0.00780086015976794,0.9884894030144384
2016-03-11,-1,-0.0006700723838229119,-0.00026121786542464276,-0.009285664269705767,0.006472874471689117,0.9898584891094022
2016-03-15,0,-0.00015677949525696034,0.00018197197296181025,-0.009285664269705767,0.006472874471689117,0.9895434998129033
2016-03-17,-1,-0.0006100301453435713,-0.000230153743343738,-0.008981291039962706,0.00780086015976794,0.9893402247560337
2016-03-21,-1,-0.001312792884980386,-0.0008114956493347517,-0.008981291039962706,0.0100081726985345,0.9892517940449803
2016-03-23,-1,-0.0022950054015365906,-0.0016757507201774285,-0.008981291039962706,0.0100081726985345,0.9894922683047189
2016-03-28,-1,-0.0010182796381158147,-0.0005871489884266153,-0.009285664269705767,0.007700914477670748,0.9906830540391371
2016-03-30,1,0.0006277915743182634,0.0008146085765835879,-0.009285664269705767,0.007700914477670748,0.9912823531927192
2016-04-01,1,0.0004526926550702595,0.0006651888775163604,-0.009781283945694903,0.0042674519888007655,0.9907787031190088
2016-04-05,-1,-0.0012975675337985814,-0.0008705067056462357,-0.005725808530586551,0.007700914477670748,0.9917503750501454
2016-04-07,-1,-0.0018189035074580705,-0.0012929387311802043,-0.005725808530586551,0.005003222835056286,0.9921244004279826
2016-04-11,-1,-0.004547770467523892,-0.0035674722939694455,-0.002513040404142007,0.010264025728766916,0.990781421499445
2016-04-13,-1,-0.003333640352293065,-0.0025458045977777254,-0.004650821980626952,0.007779708162618345,0.9911406159682988
2016-04-15,-1,-0.0017764742853213853,-0.0012614409146503834,-0.006556324295816106,0.007779708162618345,0.9899926226426471
2016-04-19,-1,-0.0007254641972508358,-0.00039498858557458023,-0.011059963560494592,0.008135506874947952,0.9876770589816388
2016-04-21,1,0.00046528448563954794,0.0005092012430716545,-0.014792035660288408,0.01198968388690395,0.985629154396949
2016-04-25,1,7.628075189924143e-05,0.00015582053828915108,-0.01906545659015382,0.01198968388690395,0.9854721670213595
2016-04-27,1,0.0006522067512057652,0.0006548085037870208,-0.01906545659015382,0.012168112825058846,0.9842356578694695
2016-04-29,-1,-0.00011605427110544344,-5.333100838983263e-05,-0.008160665844406476,0.014994474262967471,0.9806187214710288
2016-05-03,1,0.0007145615849282294,0.0008047733565691991,-0.008160665844406476,0.016454914531659266,0.9805926262903953
2016-05-05,1,0.000340260233769678,0.00034096411186650003,-0.008160665844406476,0.016454914531659266,0.9804230639335593
2016-05-09,1,0.0008164428133662475,0.0008756826825885051,-0.008160665844406476,0.016454914531659266,0.9807759119502963
2016-05-11,-1,-0.00016338664313053777,-0.00012376589388513303,-0.00145769853419166,0.016454914531659266,0.9820297146972404
2016-05-13,-1,-0.0014716804660218643,-0.001222273580508834,-0.005500399373438084,0.012526577420330316,0.9830995039980741
2016-05-17,-1,-0.0010709419091052652,-0.0009040760841592006,-0.002260697803430242,0.01080540317657358,0.9856243531740302
2016-05-19,-1,-0.0016013476345715927,-0.0013487242249027877,-0.0017058117675432,0.009183747269232897,0.9872748257274834
2016-05-23,-1,-0.0018364545421310774,-0.0015838798663520685,-8.5584454520191e-05,0.010047006566450583,0.9872516027637681
2016-05-25,-1,-0.0008372884416951228,-0.0006850428627337154,-0.0017058117675432,0.007383177216339656,0.9889858500347836
2016-05-27,1,0.0028167848308834993,0.0031867437761016236,-0.003385836789406238,0.007036884564243474,0.994474016742884
2016-06-01,1,0.003067725814209596,0.003433143350484535,-0.003385836789406238,0.007036884564243474,0.9939256429498554
2016-06-03,1,0.002820775155863439,0.0031231528506787446,-0.004923482395477786,0.007036884564243474,0.9934388554941248
2016-06-07,1,0.0023320384901173606,0.0025243932950019055,-0.0033434992888763788,0.0076375993600686165,0.9933344555270156
2016-06-09,1,0.002384514719588728,0.0025716882863881206,-0.0033434992888763788,0.0076375993600686165,0.9931137746817298
2016-06-13,1,0.0018555464777772978,0.001981870382669301,-0.002733450792804914,0.0076375993600686165,0.9938313575952642
2016-06-15,1,0.002243053789580835,0.002444832166661745,-0.002733450792804914,0.006909723022176799,0.994022396346875
2016-06-17,1,0.0023450771413352977,0.00256493301557956,-0.0031588434215086714,0.006909723022176799,0.993507104657442
2016-06-21,1,0.0027681839403496788,0.0030665509109658474,-0.004031929546222248,0.005448888427364193,0.9934200749913414
2016-06-23,1,0.0031703512877530845,0.0035862270192447733,-0.004031929546222248,0.006909723022176799,0.9927900342633595
2016-06-27,1,0.002623763505018726,0.0029123616477009263,-0.0029919795141380118,0.005262190743650313,0.9935145561986711
2016-06-29,1,0.002437814167147503,0.002630616815497388,-0.004031929546222248,0.0043230060373259035,0.9941248155105006
2016-07-01,1,0.0017654043184350998,0.0018357310155463604,-0.0027847622624462324,0.005262190743650313,0.9943949052801077
2016-07-06,1,0.0015632265442858,0.0015721394833480165,-0.004031929546222248,0.00496943004939192,0.9943411660921212
2016-07-08,1,0.0024902417114146874,0.0027140032067273587,-0.005136242693643763,0.005904246377469738,0.993878111707415
2016-07-12,1,0.002355950753476483,0.0025718986477743107,-0.007018959103703391,0.005904246377469738,0.9936763224600244
2016-07-14,1,0.0028894182395690342,0.0032225533118307925,-0.007336136973554069,0.006311630024409433,0.9924784186567962
2016-07-18,1,0.003002011361526697,0.0033443616871046645,-0.007801904663141465,0.004537024581932378,0.9926294300845558
2016-07-20,1,0.002784874567890535,0.0030931211165906806,-0.007912677223725208,0.004537024581932378,0.9924566572835423
2016-07-22,1,0.0029260602386215716,0.003257371395187186,-0.007680625562788143,0.0039508028198068385,0.9932397285919423
2016-07-26,1,0.002014377547799642,0.002119376760419962,-0.007680625562788143,0.0039508028198068385,0.9932482595709189
2016-07-28,1,0.0015996740921739119,0.00162399390011317,-0.007680625562788143,0.002459767875141322,0.9886842426425901
2016-08-01,1,0.0014434989499197538,0.0014652470990659556,-0.007680625562788143,0.0008880207997051496,0.9889578972065552
2016-08-03,1,0.0018004535429952558,0.0019298287413594488,-0.008642161965587057,0.0003934793598277561,0.9876913509703045
2016-08-05,1,0.0019456976969549824,0.002111280315251508,-0.008642161965587057,0.0003934793598277561,0.9881038272541568
2016-08-09,1,0.0014130472328814918,0.0014885240689722812,-0.008185043521473307,0.0007601714674806533,0.9885547616775766
2016-08-11,1,0.0016634641754026715,0.0017670151493765528,-0.0083415282208478,8.7715728938231e-05,0.9892256236619129
2016-08-15,1,0.0009420683214663516,0.0009653419005663078,-0.0083415282208478,0.0007601714674806533,0.9885430954846285
2016-08-17,1,0.0009288810045858457,0.0009355927478294243,-0.0083415282208478,0.0025027899167031475,0.9880232871029978
2016-08-19,1,0.0012131884152102208,0.0012984117486335503,-0.010851819651280247,0.0020024378031844496,0.9871177534162455
2016-08-23,1,0.0011131571450583814,0.0011836716417440614,-0.010851819651280247,0.0021300875080313203,0.9869453934443698
2016-08-25,-1,-0.002396944770906401,-0.0020012580743919662,-0.009737176741133193,0.0022858190096665585,0.9924391507988609
2016-08-29,-1,-0.002391345810093884,-0.0019985051811132522,-0.009737176741133193,0.0032254750123918933,0.9922275951919964
2016-08-31,-1,-0.0037161308925130355,-0.003138644715873007,-0.009737176741133193,0.0032254750123918933,0.9918365668944177
2016-09-02,-1,-0.0033019465437897394,-0.0027970247563046512,-0.009737176741133193,0.005969952852658677,0.9907480034921204
2016-09-07,-1,-0.003190265071422517,-0.0027216151345575944,-0.011434785835234728,0.005969952852658677,0.9888552178373399
2016-09-09,-1,-0.0033915511051807803,-0.0029123706849508092,-0.011434785835234728,0.006872797558801897,0.9869373286184746
2016-09-13,-1,-0.004034082704192888,-0.0034670588785912122,-0.010851819651280247,0.005969952852658677,0.988219907739372
2016-09-15,-1,-0.003558111364963267,-0.0030317697557187607,-0.010851819651280247,0.0036708286054595216,0.9887618411243982
2016-09-19,-1,-0.003952841551189261,-0.0033989848324677183,-0.00983873209928326,0.0036708286054595216,0.9886374885267791
2016-09-21,-1,-0.00447118544708598,-0.003820215313884932,-0.00983873209928326,0.00598462956850646,0.9883996200980399
2016-09-23,-1,-0.004243017328323847,-0.003633027018906059,-0.011989483647527978,0.00598462956850646,0.9885006358663444
2016-09-27,-1,-0.004100363730086286,-0.003507509675227715,-0.011989483647527978,0.0042477768324750455,0.9886731189166618
2016-09-29,-1,-0.004861150197582251,-0.004205070164757763,-0.009443820688333696,0.0069168277063452474,0.9878748344357686
2016-10-03,-1,-0.004770765889302454,-0.0040725849252636025,-0.009443820688333696,0.005062684336497591,0.9885701284928671
2016-10-05,-1,-0.006695349275122079,-0.0057487082449093375,-0.008505444199413998,0.006479864258746908,0.9895129412133303
2016-10-07,-1,-0.005487525276331032,-0.004684481009152887,-0.00876227151163684,0.0049931215539794835,0.991670942140448
2016-10-11,-1,-0.006017958790786343,-0.0051390811000788525,-0.008540812205465383,0.006479864258746908,0.9899827553097569
2016-10-13,-1,-0.005943676028972167,-0.005049148087348234,-0.008540812205465383,0.006479864258746908,0.9897447344947894
2016-10-17,-1,-0.0056246185101143705,-0.004827457032331606,-0.003383054357804666,0.007083976916348061,0.989095393501974
2016-10-19,-1,-0.0041376912549921435,-0.0036563693894277613,-0.003100512212958787,0.010304883612885311,0.9884647898878935
2016-10-21,-1,-0.003999690019054885,-0.0035697627547663126,0.0017818377751570615,0.011177498605167563,0.987740797065043
2016-10-25,-1,-0.0038181132700553103,-0.003419730702873513,0.0025196114123153843,0.013139540157466212,0.9838858079299881
2016-10-27,-1,-0.003281548932634622,-0.002941942147634721,0.0027829020379931497,0.011391644923566103,0.9856748515562238
2016-10-31,-1,-0.0026714501604304473,-0.002416968725052164,0.0017734919565839838,0.011391644923566103,0.9864881058530217
2016-11-02,-1,-0.002920726133079616,-0.0026188149029234805,0.0009976384566059053,0.011391644923566103,0.9856836307806801
2016-11-04,-1,-0.003209974873481147,-0.0028904323645668074,0.0027829020379931497,0.01375509203126615,0.9851031840805962
2016-11-08,-1,-0.0022358265502024684,-0.0020415977990482317,0.0009976384566059053,0.011382682563100877,0.9873553263211396
2016-11-10,-1,-0.0014710247491644063,-0.0013846106386545367,0.00047656152612929434,0.008574888682088385,0.9880916002670862
2016-11-14,-1,-0.0010302629658976979,-0.000997524731237568,-0.0015329865602247182,0.008158353160308706,0.9881668690691899
2016-11-16,-1,-0.00024193681466558653,-0.00016754615834562757,-0.004345052075059125,0.005596756295035355,0.9885056405211636
2016-11-18,1,0.0004757588334504898,0.000675529634110765,-0.010325766407722578,0.0046173993813213784,0.9886751667713113
2016-11-22,1,0.0023355503283537518,0.0027740111189284546,-0.013256892152906942,0.0046173993813213784,0.9913530886702797
2016-11-25,1,0.0028103617789382584,0.0033385748725692664,-0.016744705105126025,0.0046173993813213784,0.9878557752110049
2016-11-29,1,0.0030246456422892295,0.003586939033126287,-0.016744705105126025,0.0018769163481537978,0.9869615778913668
2016-12-01,1,0.0021376935032573936,0.002574943640860275,-0.009173690609569855,0.0018769163481537978,0.988770121379348
2016-12-05,1,0.002712620924627147,0.0032361308012231983,-0.009173690609569855,0.0014980807729954,0.9879856187988787
2016-12-07,1,0.002733250760477142,0.0032711631422125153,-0.013498045942192019,0.0014980807729954,0.9867182251160846
2016-12-09,1,0.0027583855155990105,0.0032993508843716427,-0.013498045942192019,0.0014980807729954,0.9869772221762458
2016-12-13,1,0.0024778562252363457,0.0029956212466793137,-0.012185200951182577,0.0014980807729954,0.9877294098870351
2016-12-15,1,0.0024989529183155204,0.003030458998949739,-0.00879471337940784,0.0014980807729954,0.9873438544092789
2016-12-19,1,0.0020689487773157783,0.0025355449548246337,-0.012185200951182577,0.001361042158217024,0.9863472290985691
2016-12-21,1,0.002233951032359369,0.002741256723139503,-0.01261781509872668,0.001361042158217024,0.9865018059165525
2016-12-23,1,0.0007800310478363124,0.0010979752753320748,-0.008633852574735566,0.003607166630320261,0.9895717466811834
2016-12-28,1,0.0006391704118460657,0.0009481179637136895,-0.01261781509872668,0.003607166630320261,0.9884477159770603
2016-12-30,1,0.000504948651861493,0.0007917284034005327,-0.01261781509872668,0.012023820804558395,0.9868992856831904
2017-01-04,1,0.0015909867445380135,0.00204922757775605,-0.01261781509872668,0.010610092557639688,0.9869732179784914
2017-01-06,1,0.0008415743707314957,0.0011893775743581126,-0.01107110604352064,0.010610092557639688,0.9872954324783211
2017-01-10,1,0.0011772891622930314,0.0015655524378449766,-0.01107110604352064,0.012003893900021939,0.9868156930669197
2017-01-12,1,0.0012156037654560117,0.001619911386561533,-0.013289553466699886,0.016554958160299473,0.9846575144406793
2017-01-17,1,0.0020253636525606094,0.0025431674546406422,-0.013289553466699886,0.016554958160299473,0.9847820511769865
2017-01-19,-1,-0.00040845971849155446,-0.0003618561370790761,-0.01107110604352064,0.016554958160299473,0.9857678016860638
2017-01-23,-1,-0.000590852239350908,-0.0005622403017626289,-0.009639512940667436,0.018022971671945658,0.9851994519517653
2017-01-25,-1,-0.0005394131069796056,-0.0005199025735494173,-0.012583625707467872,0.016973771686162677,0.9848163310570087
2017-01-27,-1,-0.0016123734918796803,-0.0014786128087400168,-0.010860659525596658,0.02038969962328687,0.985334474598429
2017-01-31,-1,-0.00026201671396970075,-0.00024778078110584446,-0.012583625707467872,0.012772440754479471,0.9854777264657583
2017-02-02,-1,-0.00038628756193078296,-0.0003696831640638691,-0.012583625707467872,0.013604355620673626,0.985559264319336
2017-02-06,-1,-0.0015331771412097587,-0.0013576884552283868,-0.012583625707467872,0.013604355620673626,0.9858488045056308
2017-02-08,-1,-0.0003927214099996916,-0.0003865288265202931,-0.012583625707467872,0.006717026007045001,0.9864031536646792
2017-02-10,-1,-0.00019533984891875704,-0.00017957771922025805,-0.01013609646607116,0.002827859246244162,0.9883483658183516
2017-02-14,1,0.00041333429946439123,0.0004689659275142603,-0.01013609646607116,0.0028116886822092844,0.9892049331926507
2017-02-16,-1,-0.0002167284122160043,-0.0001963054315968722,-0.00822268375426309,0.005003299624715454,0.9897023100310025
2017-02-21,1,0.0005256082702854031,0.0006085055259919558,-0.011768631210125911,0.002934835075571252,0.9895317050935799
2017-02-23,-1,-0.0010531205642544316,-0.0008812661349498043,-0.00822268375426309,0.005140554480904333,0.9904149952964597
2017-02-27,1,0.0002721345703871538,0.0003011557504418111,-0.00822268375426309,0.00587009515742766,0.9904540357164021
2017-03-01,-1,-0.001956299954585643,-0.00163186134368947,-0.0067577896472353315,0.007283259882270379,0.9906901720805343
2017-03-03,-1,-0.0010800150959867508,-0.0009183116144670044,-0.007133796952902179,0.007283259882270379,0.9905386817547486
2017-03-07,-1,-0.0020777592564974624,-0.001785020183928461,-0.006265738769090775,0.007283259882270379,0.9910147297730614
2017-03-09,-1,-0.0016760684013370944,-0.0014507882002587668,-0.006791727371071083,0.008476122130261388,0.9904244349164408
2017-03-13,-1,-0.002521737201064686,-0.0021621316656168996,-0.00622368906726738,0.008476122130261388,0.9903594675880353
2017-03-15,-1,-0.0024389037537854014,-0.0020958630910965057,-0.00810926728841168,0.008476122130261388,0.9904201281077384
2017-03-17,-1,-0.002193328181090411,-0.001857783958062415,-0.008571126673223309,0.007283259882270379,0.9907740260913281
2017-03-21,-1,-0.0031543234791829786,-0.0027087989731603744,-0.00622368906726738,0.007667161062087503,0.9907660680164752
2017-03-23,-1,-0.003023773673243698,-0.0025675896291245896,-0.00810926728841168,0.008818479121918481,0.9902975879205247
2017-03-27,-1,-0.0019738378424287335,-0.001663516569843908,-0.00810926728841168,0.01142112805735151,0.9905016501735466
2017-03-29,-1,-0.0010633413396878317,-0.0008543606537287074,-0.00810926728841168,0.01199297453495191,0.9907612665630171
2017-03-31,-1,-0.0015922460120306873,-0.0012839306038924599,-0.00810926728841168,0.011568474266347628,0.9905925107132755
2017-04-04,-1,-0.0014404350833102566,-0.0011916074584938023,-0.00622368906726738,0.011932254357749967,0.9901734300655951
2017-04-06,-1,-0.0009586954409499082,-0.0007934908680251422,-0.004657291294517257,0.011400887998284195,0.9911523547882688
2017-04-10,-1,-0.000811796661922316,-0.0006866439615170995,-0.000716602924182978,0.011400887998284195,0.9909983981049839
2017-04-12,-1,-0.000514150079102173,-0.0004677350730904402,-0.000716602924182978,0.011400887998284195,0.9905027373982251
2017-04-17,-1,-0.00027533374630159355,-0.0002650807578613566,-0.0029170770689615814,0.011400887998284195,0.9909624222204612
2017-04-19,1,0.0018845945337065061,0.002378102551200364,-0.005635771882744946,0.011400887998284195,0.990423579942766
2017-04-21,1,0.0024845808304646065,0.0030743413196168395,-0.0043118088833160335,0.011400887998284195,0.9911807818115939
2017-04-25,1,0.003565947819473235,0.004315416201111133,-0.006471687386226238,0.009396866122191708,0.9898450063245922
2017-04-27,1,0.00412413903627091,0.004876835457584341,-0.010547758020952952,0.0066177934140866914,0.989754294487276
2017-05-01,1,0.0035349080343409947,0.004257465452063987,-0.007390612779785008,0.0066177934140866914,0.9909950181454004
2017-05-03,1,0.004057131608226522,0.0048416757807744175,-0.007390612779785008,0.0066177934140866914,0.9891508581588663
2017-05-05,1,0.004133611870523425,0.004928505337425554,-0.010547758020952952,0.0066177934140866914,0.9882979275906545
2017-05-09,1,0.00413303577347268,0.004886409949505946,-0.015330944827873883,0.004326318647512975,0.9855266824792644
2017-05-11,1,0.003491508228330871,0.004149981091433349,-0.013245812100079324,0.007563453768111636,0.9862635347442319
2017-05-15,1,0.0029421284413079425,0.00349150284614921,-0.013245812100079324,0.007563453768111636,0.9868581903139855
2017-05-17,1,0.0016474324667704583,0.0020235909325621495,-0.010898542779152927,0.007563453768111636,0.987263593788643
2017-05-19,1,0.0011052777789990003,0.0012639642940839911,-0.015503781010929307,0.0032056328587523686,0.9861100515992394
2017-05-23,1,0.00045070359216527233,0.0004923384900013825,-0.015503781010929307,0.0001992070498012326,0.9865526933456471
2017-05-25,1,0.0002833569029454288,0.0002877161004970545,-0.01674826157328039,-0.0011534067512940544,0.9864836635884842
2017-05-30,1,0.0005491975892381506,0.0006533411864945271,-0.01674826157328039,0.0032056328587523686,0.9849521228450383
2017-06-01,1,0.0010792302612312697,0.0011855480983360496,-0.01674826157328039,0.0032056328587523686,0.9861335098295382
2017-06-05,1,0.00066345347929714,0.0007381991457363183,-0.01674826157328039,0.0037561259567197285,0.9869796981259418
2017-06-07,-1,-0.0014658952016363207,-0.001272245984610841,-0.013671693927883128,0.0037561259567197285,0.9884992169679174
2017-06-09,-1,-0.0008315484178056413,-0.0007651039557220673,-0.017673280895126306,0.002174228010092455,0.9879221528080279
2017-06-13,-1,-0.0018103239211009143,-0.0015449960673196467,-0.017673280895126306,0.006945269164291017,0.9874474711053961
2017-06-15,-1,-0.0036285335789946046,-0.0031323883158773267,-0.013671693927883128,0.007887835001911427,0.9876322215094546
2017-06-19,-1,-0.004341093069608326,-0.003801652448104765,-0.009560674373845243,0.00860899064631214,0.9886789684988365
2017-06-21,-1,-0.006623975441050589,-0.0057463330601831945,-0.004438018744099777,0.01070265937476751,0.9875142923615483
2017-06-23,-1,-0.006260371169775753,-0.005514779929869215,-0.0035987461680244874,0.01070265937476751,0.9869682311724357
2017-06-27,-1,-0.0044722977008751184,-0.003940161252140662,-0.0035987461680244874,0.008653110384597085,0.9886363486992746
2017-06-29,-1,-0.0046688333888525065,-0.004063400513087867,-0.004601398273577024,0.008693603782041873,0.9881825613547269
2017-07-03,-1,-0.003845321284484172,-0.0033798646790666994,-0.004601398273577024,0.011473327796977942,0.9877618690397492
2017-07-06,-1,-0.004545721489799683,-0.004039263128752183,0.000415101885210278,0.011473327796977942,0.9876498456304239
2017-07-10,-1,-0.004736641538071154,-0.004258806783054293,0.0033486963693404753,0.013537893141139627,0.9869076846458847
2017-07-12,-1,-0.004442815665633116,-0.003960254516110984,0.0011347838055170423,0.013537893141139627,0.9876153750172921
2017-07-14,-1,-0.0026109879043690128,-0.0023908084567765236,-0.0019335962039951286,0.011473327796977942,0.9885342791252743
2017-07-18,-1,-0.0029976346327548167,-0.002682801363198986,-0.0019335962039951286,0.013486284138920024,0.9878382106838783
2017-07-20,-1,-0.0013533985374440337,-0.0012815779283552064,-0.002530268493576065,0.013080890307665988,0.9889348068949014
2017-07-24,-1,-0.0030826400414899723,-0.0027503290400120424,-0.0012438148460942127,0.013080890307665988,0.9892021799679082
2017-07-26,-1,-0.0018720514254450342,-0.001692234924449107,-0.002530268493576065,0.010296259907297402,0.9902850100236809
2017-07-28,-1,-0.001411253881635933,-0.0012394132614246935,-0.0012438148460942127,0.013080890307665988,0.9876461809249536
2017-08-01,1,0.002016617884892452,0.002226270458287296,-0.0031089761565902345,0.010474815565256108,0.9885721183585762
2017-08-03,1,0.0018106326153110052,0.0019528760312962552,-0.0031089761565902345,0.010474815565256108,0.9887178340921329
2017-08-07,1,0.0020120531430146793,0.0021825726874066444,-0.0031089761565902345,0.014021951112796138,0.9882996494380049
2017-08-09,1,0.0018199166360145524,0.0020162386818073554,-0.0012438148460942127,0.014021951112796138,0.9887589678791109
2017-08-11,1,6.194378520883883e-05,0.00017270441947990153,-0.0012438148460942127,0.014021951112796138,0.9896121799026453
2017-08-15,-1,-0.0004968964053125932,-0.0003425210585659367,-0.0010553025724334226,0.010474815565256108,0.9903886227596409
2017-08-17,1,0.0004039500974167055,0.00043553610361626405,-0.0010553025724334226,0.007572735790643548,0.9907086537160711
2017-08-21,1,0.00033704947519009367,0.000359034135553819,-0.001621125631684877,0.007572735790643548,0.9904851408886389
2017-08-23,1,0.0004324711233951117,0.0004522375405683998,-0.001591775102388485,0.006899785180174106,0.9911546587218703
2017-08-25,1,8.935652151305547e-05,0.00017714832289754498,-0.001591775102388485,0.006253207618992011,0.9940304039992117
2017-08-29,-1,-0.00024243436820594336,-0.0001272140389148375,-0.00104679920686701,0.006899785180174106,0.9938614239104454
2017-08-31,-1,-0.000430881661693015,-0.00028760692489916386,-0.0003840626966251021,0.007512930482800787,0.9931621343614447
2017-09-05,1,0.0007733053905175741,0.0008028115480889087,-0.001721566984291489,0.006253207618992011,0.9947532577265242
2017-09-07,1,0.0009128478345502942,0.0009473315727625367,-0.001721566984291489,0.006899785180174106,0.993887224501444
2017-09-11,1,0.0012335667269866904,0.001276841983704017,-0.001721566984291489,0.005578817189231935,0.9937587550274531
2017-09-13,1,0.0013987358029574413,0.0014517320787045236,-0.001721566984291489,0.009522244468312215,0.9927741784516203
2017-09-15,1,0.0013370817328986178,0.0014388926204188584,-0.0003840626966251021,0.009522244468312215,0.9934685533833403
2017-09-19,1,0.0017295611860550374,0.001926764811155069,-0.0003840626966251021,0.009522244468312215,0.9933838220738221
2017-09-21,1,0.0010494208590370265,0.0010996558893514908,-0.000655603604116462,0.009522244468312215,0.9933274290214325
2017-09-25,1,0.0014174263896094149,0.0015444670493795546,-0.0007860923260877067,0.009516791023707324,0.9935314692150451
2017-09-27,1,0.0017536814236467479,0.0019238084181296994,-0.0009550034207680027,0.006314030278120778,0.9937912898947726
2017-09-29,1,0.0023579149127691728,0.002641904069265814,-0.0009550034207680027,0.006314030278120778,0.9934850367687561
2017-10-03,1,0.0018453366239753548,0.002008582311295041,-0.0019086495783449335,0.006314030278120778,0.9927031256050369
2017-10-05,1,0.0016086227706088203,0.0017169535055261802,-0.0019086495783449335,0.006314030278120778,0.9931222803051686
2017-10-09,1,0.000960238344923017,0.0009837554539121815,-0.0019086495783449335,0.010507576254064994,0.9930872861990735
